OSUrobotics/InHand-Manipulation/AnalyseData/Data/filt_josh_2v2_g_none_1_kpNone_kdNone_dp1_step1_save_data.csv
,Phase,human_cube_pos,human_cube_orn,Cube_Pos,Cube_Orn,Cube_pos_in_start_pos,b'l_prox_pin'_link_pos,b'l_prox_pin'_link_orn,b'l_distal_pin'_link_pos,b'l_distal_pin'_link_orn,b'r_prox_pin'_link_pos,b'r_prox_pin'_link_orn,b'r_distal_pin'_link_pos,b'r_distal_pin'_link_orn,b'l_prox_pin'_joint_angle,b'l_prox_pin'_joint_vel,b'l_prox_pin'_joint_react_forces,b'l_prox_pin'_joint_motor_torque,b'l_distal_pin'_joint_angle,b'l_distal_pin'_joint_vel,b'l_distal_pin'_joint_react_forces,b'l_distal_pin'_joint_motor_torque,b'r_prox_pin'_joint_angle,b'r_prox_pin'_joint_vel,b'r_prox_pin'_joint_react_forces,b'r_prox_pin'_joint_motor_torque,b'r_distal_pin'_joint_angle,b'r_distal_pin'_joint_vel,b'r_distal_pin'_joint_react_forces,b'r_distal_pin'_joint_motor_torque,in_contact_l,contact_point_l_dist,contact_normal_l_dist,contact_distance_l_dist,contact_norm_force_l_dist,in_contact_r,contact_point_r_dist,contact_normal_r_dist,contact_distance_r_dist,contact_norm_force_r_dist
0,Open,,,,,,"[-0.026750000193715096, 0.05299999937415123, 0.0]","[0.0, -0.0, 0.0]","[-0.026750000193715096, 0.125, 0.0]","[0.0, -0.0, 0.0]","[0.026750000193715096, 0.05299999937415123, 0.0]","[0.0, -0.0, 0.0]","[0.026750000193715096, 0.125, 0.0]","[0.0, -0.0, 0.0]",0.003666332176528909,0.8799197223669382,"(0.0, 0.0, 0.0, 0.0, 0.0, 0.0)",-85.13444788611095,0.029188057054649445,7.005133693115867,"(0.0, 0.0, 0.0, 0.0, 0.0, 0.0)",-33.39249373957121,-0.0034617135988985162,-0.830811263735644,"(0.0, 0.0, 0.0, 0.0, 0.0, 0.0)",86.80689259371161,-0.02917060434146158,-7.0009450419507795,"(0.0, 0.0, 0.0, 0.0, 0.0, 0.0)",34.010579468925506,False,,,,,False,,,,
1,Open,,,,,,"[-0.026750000193715096, 0.05299999937415123, 0.0]","[0.0, -0.0, 0.003666332140860972]","[-0.027013976126909256, 0.1249995157122612, 0.0]","[0.0, -0.0, 0.03285439251435708]","[0.026750000193715096, 0.05299999937415123, 0.0]","[0.0, 0.0, -0.003461713535086538]","[0.02699924260377884, 0.12499956786632538, 0.0]","[0.0, 0.0, -0.0326323158429276]",0.16029712504252933,37.591390287840106,"(0.0, 0.0, 0.0, 0.0, 0.0, 0.0)",56.414119113069596,0.026260995902122202,-0.7024946766065385,"(0.0, 0.0, 0.0, 0.0, 0.0, 0.0)",3.1779248312366066,-0.16012010680971497,-37.59801437059595,"(0.0, 0.0, 0.0, 0.0, 0.0, 0.0)",-55.538825502070075,-0.026270714228626132,0.6959736270805079,"(0.0, 0.0, 0.0, 0.0, 0.0, 0.0)",-3.1851856544400796,False,,,,,False,,,,
2,Open,,,,,,"[-0.026750000193715096, 0.05299999937415123, 0.0]","[0.0, -0.0, 0.16029712465063653]","[-0.03824203088879585, 0.1240769550204277, 0.0]","[0.0, -0.0, 0.18655813558460477]","[0.026750000193715096, 0.05299999937415123, 0.0]","[0.0, 0.0, -0.16012010534724]","[0.03822944685816765, 0.12407898902893066, 0.0]","[0.0, 0.0, -0.18639082137306281]",0.30127338485519756,33.83430235504038,"(0.0, 0.0, 0.0, 0.0, 0.0, 0.0)",-5.426428481467394,0.023634896311909983,-0.6302639016509328,"(0.0, 0.0, 0.0, 0.0, 0.0, 0.0)",-0.378070523089696,-0.30111408395187045,-33.83855451411731,"(0.0, 0.0, 0.0, 0.0, 0.0, 0.0)",5.430614495432451,-0.023643642805763518,0.6304971414870271,"(0.0, 0.0, 0.0, 0.0, 0.0, 0.0)",0.3790521252757425,False,,,,,False,,,,
3,Open,,,,,,"[-0.026750000193715096, 0.05299999937415123, 0.0]","[0.0, -0.0, 0.301273384544622]","[-0.04811502620577812, 0.12175707519054413, 0.0]","[0.0, -0.0, 0.32490826274979795]","[0.026750000193715096, 0.05299999937415123, 0.0]","[0.0, 0.0, -0.30111408500366665]","[0.048104073852300644, 0.12176048010587692, 0.0]","[0.0, 0.0, -0.3247577209560115]",0.4291196715020642,30.683108795248003,"(0.0, 0.0, 0.0, 0.0, 0.0, 0.0)",-4.552579286018831,0.021271406680718984,-0.5672375114858393,"(0.0, 0.0, 0.0, 0.0, 0.0, 0.0)",-0.3175000441629713,-0.42897641272309217,-30.686958905093213,"(0.0, 0.0, 0.0, 0.0, 0.0, 0.0)",4.553151351390773,-0.021279278525187167,0.5674474273383241,"(0.0, 0.0, 0.0, 0.0, 0.0, 0.0)",0.3175365785599028,False,,,,,False,,,,
4,Open,,,,,,"[-0.026750000193715096, 0.05299999937415123, 0.0]","[0.0, -0.0, 0.42911963056438457]","[-0.056707073003053665, 0.11847192794084549, 0.0]","[0.0, -0.0, 0.45039105429582504]","[0.026750000193715096, 0.05299999937415123, 0.0]","[0.0, 0.0, -0.4289764193204764]","[0.05669769272208214, 0.11847621947526932, 0.0]","[0.0, 0.0, -0.45025571851814855]",0.5441678170851227,27.611554939934045,"(0.0, 0.0, 0.0, 0.0, 0.0, 0.0)",-4.44759405077923,0.019144266012647085,-0.5105137603372556,"(0.0, 0.0, 0.0, 0.0, 0.0, 0.0)",-0.31309363847858035,-0.5440389941346144,-27.61501953876534,"(0.0, 0.0, 0.0, 0.0, 0.0, 0.0)",4.448144808027069,-0.01915135067266845,0.5107026846044919,"(0.0, 0.0, 0.0, 0.0, 0.0, 0.0)",0.31312949345866065,False,,,,,False,,,,
5,Open,,,,,,"[-0.026750000193715096, 0.05299999937415123, 0.0]","[0.0, -0.0, 0.5441677880466665]","[-0.06402485072612762, 0.11460020393133163, 0.0]","[0.0, -0.0, 0.5633121779033455]","[0.026750000193715096, 0.05299999937415123, 0.0]","[0.0, 0.0, -0.5440389658271069]","[0.0640169158577919, 0.11460500955581665, 0.0]","[0.0, 0.0, -0.5631903412146121]",0.6476255284393907,24.82985072502432,"(0.0, 0.0, 0.0, 0.0, 0.0, 0.0)",-4.032627727006242,0.017229839411382376,-0.4594623843035298,"(0.0, 0.0, 0.0, 0.0, 0.0, 0.0)",-0.28517298580040545,-0.6475096884289863,-24.83296663064923,"(0.0, 0.0, 0.0, 0.0, 0.0, 0.0)",4.033127040063904,-0.017236215605401606,0.4596324161440427,"(0.0, 0.0, 0.0, 0.0, 0.0, 0.0)",0.28520580624401426,False,,,,,False,,,,
6,Open,,,,,,"[-0.026750000193715096, 0.05299999937415123, 0.0]","[0.0, -0.0, 0.6476255535438407]","[-0.07018719613552094, 0.11042133718729019, 0.0]","[0.0, -0.0, 0.664855368818194]","[0.026750000193715096, 0.05299999937415123, 0.0]","[0.0, 0.0, -0.6475096334715527]","[0.07018054276704788, 0.11042636632919312, 0.0]","[0.0, 0.0, -0.6647458718136361]",0.7406536329817177,22.326745090158486,"(0.0, 0.0, 0.0, 0.0, 0.0, 0.0)",-3.63233591240209,0.015506855470244139,-0.413516145873177,"(0.0, 0.0, 0.0, 0.0, 0.0, 0.0)",-0.25783409518400763,-0.7405494684493535,-22.329547204888147,"(0.0, 0.0, 0.0, 0.0, 0.0, 0.0)",3.632786136294342,-0.015512594044861445,0.4136691745296385,"(0.0, 0.0, 0.0, 0.0, 0.0, 0.0)",0.2578639259171193,False,,,,,False,,,,
7,Open,,,,,,"[-0.026750000193715096, 0.05299999937415123, 0.0]","[0.0, -0.0, 0.740653672213991]","[-0.07533347606658936, 0.10613799095153809, 0.0]","[0.0, -0.0, 0.7561605267571277]","[0.026750000193715096, 0.05299999937415123, 0.0]","[0.0, 0.0, -0.7405494693196478]","[0.07532794028520584, 0.1061430498957634, 0.0]","[0.0, 0.0, -0.7560620625499309]",0.8236415337456842,19.917096183351955,"(0.0, 0.0, 0.0, 0.0, 0.0, 0.0)",-3.502322986672706,0.013956169923219724,-0.37216453128585936,"(0.0, 0.0, 0.0, 0.0, 0.0, 0.0)",-0.25022230369235643,-0.8235477918584575,-19.919597618184945,"(0.0, 0.0, 0.0, 0.0, 0.0, 0.0)",3.5027557320830454,-0.0139613346403753,0.37230225707667475,"(0.0, 0.0, 0.0, 0.0, 0.0, 0.0)",0.2502513918182537,False,,,,,False,,,,
8,Open,,,,,,"[-0.026750000193715096, 0.05299999937415123, 0.0]","[0.0, -0.0, 0.8236415580231528]","[-0.07957102358341217, 0.10192789882421494, 0.0]","[0.0, -0.0, 0.8375977581757007]","[0.026750000193715096, 0.05299999937415123, 0.0]","[0.0, 0.0, -0.8235477632634587]","[0.07956643402576447, 0.10193285346031189, 0.0]","[0.0, 0.0, -0.8375090610493504]",0.8983214391275908,17.923177291657584,"(0.0, 0.0, 0.0, 0.0, 0.0, 0.0)",-2.8982134238401867,0.012560552930897752,-0.33494807815727334,"(0.0, 0.0, 0.0, 0.0, 0.0, 0.0)",-0.20697789654838641,-0.8982370765775026,-17.925428332570828,"(0.0, 0.0, 0.0, 0.0, 0.0, 0.0)",2.898573876190073,-0.01256520117633777,0.33507203136900726,"(0.0, 0.0, 0.0, 0.0, 0.0, 0.0)",0.20700208262093597,False,,,,,False,,,,
9,Open,,,,,,"[-0.026750000193715096, 0.05299999937415123, 0.0]","[0.0, -0.0, 0.8983214686784933]","[-0.08307433128356934, 0.09785052388906479, 0.0]","[0.0, -0.0, 0.9108819698249412]","[0.026750000193715096, 0.05299999937415123, 0.0]","[0.0, 0.0, -0.8982371197662743]","[0.0830705463886261, 0.09785527735948563, 0.0]","[0.0, 0.0, -0.9108023202037385]",0.9655290545479623,16.129827700889184,"(0.0, 0.0, 0.0, 0.0, 0.0, 0.0)",-2.608510457452871,0.011304497637807977,-0.30145327034154606,"(0.0, 0.0, 0.0, 0.0, 0.0, 0.0)",-0.18678019531077908,-0.9654531329157218,-16.131853521172594,"(0.0, 0.0, 0.0, 0.0, 0.0, 0.0)",2.60883512599667,-0.011308681058703994,0.3015648282321065,"(0.0, 0.0, 0.0, 0.0, 0.0, 0.0)",0.18680210025389385,False,,,,,False,,,,
10,Open,,,,,,"[-0.026750000193715096, 0.05299999937415123, 0.0]","[0.0, -0.0, 0.9655290845355112]","[-0.08595920354127884, 0.09396669268608093, 0.0]","[0.0, -0.0, 0.9768335400978374]","[0.026750000193715096, 0.05299999937415123, 0.0]","[0.0, 0.0, -0.965453261696678]","[0.08595609664916992, 0.09397119283676147, 0.0]","[0.0, 0.0, -0.9767617651824152]",1.0260120384037514,14.515916125389403,"(0.0, 0.0, 0.0, 0.0, 0.0, 0.0)",-2.349002124990502,0.010174047874027179,-0.2713079433073914,"(0.0, 0.0, 0.0, 0.0, 0.0, 0.0)",-0.1685997201884765,-1.0259437131572353,-14.517739257963237,"(0.0, 0.0, 0.0, 0.0, 0.0, 0.0)",2.3492946812511972,-0.010177812952833595,0.27140834540889586,"(0.0, 0.0, 0.0, 0.0, 0.0, 0.0)",0.1686195565226826,False,,,,,False,,,,
11,Open,,,,,,"[-0.026750000193715096, 0.05299999937415123, 0.0]","[0.0, -0.0, 1.0260120567421092]","[-0.08832721412181854, 0.09031282365322113, 0.0]","[0.0, -0.0, 1.0361862302015332]","[0.026750000193715096, 0.05299999937415123, 0.0]","[0.0, 0.0, -1.0259438918681745]","[0.0883246660232544, 0.0903170257806778, 0.0]","[0.0, 0.0, -1.0361216814576262]",1.080443220613551,13.063483730351903,"(0.0, 0.0, 0.0, 0.0, 0.0, 0.0)",-2.1151827006510984,0.00915664308662446,-0.24417714897665233,"(0.0, 0.0, 0.0, 0.0, 0.0, 0.0)",-0.15214220915386478,-1.0803817317129363,-13.065124453368233,"(0.0, 0.0, 0.0, 0.0, 0.0, 0.0)",2.115446287594089,-0.009160031657550236,0.2442675108680063,"(0.0, 0.0, 0.0, 0.0, 0.0, 0.0)",0.1521601605056355,False,,,,,False,,,,
12,Open,,,,,,"[-0.026750000193715096, 0.05299999937415123, 0.0]","[0.0, -0.0, 1.0804432208269121]","[-0.09026599675416946, 0.08690749108791351, 0.0]","[0.0, -0.0, 1.089599930019085]","[0.026750000193715096, 0.05299999937415123, 0.0]","[0.0, 0.0, -1.0803816836987974]","[0.09026391059160233, 0.0869114026427269, 0.0]","[0.0, 0.0, -1.0895418477313656]",1.129790573040266,11.843364582411594,"(0.0, 0.0, 0.0, 0.0, 0.0, 0.0)",-1.7768014103631813,0.008240978777962014,-0.21975943407898696,"(0.0, 0.0, 0.0, 0.0, 0.0, 0.0)",-0.1277254079862875,-1.1297352793618676,-11.844851435743516,"(0.0, 0.0, 0.0, 0.0, 0.0, 0.0)",1.7770237599716343,-0.008244028491795213,0.21984075978120554,"(0.0, 0.0, 0.0, 0.0, 0.0, 0.0)",0.1277405169442687,False,,,,,False,,,,
13,Open,,,,,,"[-0.026750000193715096, 0.05299999937415123, 0.0]","[0.0, -0.0, 1.1297906346763253]","[-0.09186124056577682, 0.08373314142227173, 0.0]","[0.0, -0.0, 1.138031597773669]","[0.026750000193715096, 0.05299999937415123, 0.0]","[0.0, 0.0, -1.1297352742123317]","[0.09185954183340073, 0.08373674005270004, 0.0]","[0.0, 0.0, -1.137979245711905]",1.174194403480137,10.65691930556904,"(0.0, 0.0, 0.0, 0.0, 0.0, 0.0)",-1.7294919663937818,0.007416880900165812,-0.1977834906710884,"(0.0, 0.0, 0.0, 0.0, 0.0, 0.0)",-0.12486004269320584,-1.1741446845452383,-10.658257244009013,"(0.0, 0.0, 0.0, 0.0, 0.0, 0.0)",1.7297075668742259,-0.007419625642615691,0.19785668380308535,"(0.0, 0.0, 0.0, 0.0, 0.0, 0.0)",0.12487483973735204,False,,,,,False,,,,
14,Open,,,,,,"[-0.026750000193715096, 0.05299999937415123, 0.0]","[0.0, -0.0, 1.1741944283651782]","[-0.09316128492355347, 0.08081261068582535, 0.0]","[0.0, -0.0, 1.1816112280342423]","[0.026750000193715096, 0.05299999937415123, 0.0]","[0.0, 0.0, -1.1741446690701827]","[0.09315989911556244, 0.08081591129302979, 0.0]","[0.0, 0.0, -1.1815643119569732]",1.2141223950675137,9.582717980970411,"(0.0, 0.0, 0.0, 0.0, 0.0, 0.0)",-1.566594992367831,0.006675192810149232,-0.17800514160397932,"(0.0, 0.0, 0.0, 0.0, 0.0, 0.0)",-0.11329787118344785,-1.2140776892842056,-9.583921137352123,"(0.0, 0.0, 0.0, 0.0, 0.0, 0.0)",1.566790308868891,-0.006677663078354121,0.1780710154227766,"(0.0, 0.0, 0.0, 0.0, 0.0, 0.0)",0.11331132548769854,False,,,,,False,,,,
15,Open,,,,,,"[-0.026750000193715096, 0.05299999937415123, 0.0]","[0.0, -0.0, 1.2141223392101477]","[-0.09421855956315994, 0.07813947647809982, 0.0]","[0.0, -0.0, 1.2207974794667436]","[0.026750000193715096, 0.05299999937415123, 0.0]","[0.0, 0.0, -1.2140777280732653]","[0.09421743452548981, 0.07814249396324158, 0.0]","[0.0, 0.0, -1.2207553488892657]",1.2500233098887061,8.616219557086183,"(0.0, 0.0, 0.0, 0.0, 0.0, 0.0)",-1.4100584071138376,0.00600767352913431,-0.16020462744358144,"(0.0, 0.0, 0.0, 0.0, 0.0, 0.0)",-0.10211991211471189,-1.2499831119420026,-8.617301437871303,"(0.0, 0.0, 0.0, 0.0, 0.0, 0.0)",1.4102342835614832,-0.006009896770518709,0.16026391388049882,"(0.0, 0.0, 0.0, 0.0, 0.0, 0.0)",0.10213206207181887,False,,,,,False,,,,
16,Open,,,,,,"[-0.026750000193715096, 0.05299999937415123, 0.0]","[0.0, -0.0, 1.2500233203619904]","[-0.09507742524147034, 0.07570161670446396, 0.0]","[0.0, -0.0, 1.2560309069960767]","[0.026750000193715096, 0.05299999937415123, 0.0]","[0.0, 0.0, -1.2499830910341545]","[0.09507650882005692, 0.07570436596870422, 0.0]","[0.0, 0.0, -1.2559930183355494]",1.2823030168301794,7.747129665953585,"(0.0, 0.0, 0.0, 0.0, 0.0, 0.0)",-1.2683745218339015,0.005406906176220879,-0.14418416469922338,"(0.0, 0.0, 0.0, 0.0, 0.0, 0.0)",-0.09197282646179201,-1.282266872291654,-7.748102483916296,"(0.0, 0.0, 0.0, 0.0, 0.0, 0.0)",1.268532793296957,-0.005408907093466839,0.14423752249244884,"(0.0, 0.0, 0.0, 0.0, 0.0, 0.0)",0.09198378785729758,False,,,,,False,,,,
17,Open,,,,,,"[-0.026750000193715096, 0.05299999937415123, 0.0]","[0.0, -0.0, 1.2823030544570384]","[-0.09577450156211853, 0.07348458468914032, 0.0]","[0.0, -0.0, 1.2877098916341412]","[0.026750000193715096, 0.05299999937415123, 0.0]","[0.0, 0.0, -1.282266862560665]","[0.09577376395463943, 0.07348708063364029, 0.0]","[0.0, 0.0, -1.2876756785295311]",1.3113266716554728,6.965677158070388,"(0.0, 0.0, 0.0, 0.0, 0.0, 0.0)",-1.140820262286684,0.0048662155585987915,-0.12976574822930115,"(0.0, 0.0, 0.0, 0.0, 0.0, 0.0)",-0.08281544911094667,-1.3112941718838944,-6.966551902137727,"(0.0, 0.0, 0.0, 0.0, 0.0, 0.0)",1.14096267243663,-0.004868016384120155,0.12981377024320415,"(0.0, 0.0, 0.0, 0.0, 0.0, 0.0)",0.08282533423879132,False,,,,,False,,,,
18,Open,,,,,,"[-0.026750000193715096, 0.05299999937415123, 0.0]","[0.0, -0.0, 1.3113267098134453]","[-0.0963398888707161, 0.0714728981256485, 0.0]","[0.0, -0.0, 1.3161928904728206]","[0.026750000193715096, 0.05299999937415123, 0.0]","[0.0, 0.0, -1.3112941622864467]","[0.09633928537368774, 0.07147515565156937, 0.0]","[0.0, 0.0, -1.3161622251052065]",1.3374226396227844,6.263032312154804,"(0.0, 0.0, 0.0, 0.0, 0.0, 0.0)",-1.0260509375655766,0.004379594002738912,-0.11678917340637102,"(0.0, 0.0, 0.0, 0.0, 0.0, 0.0)",-0.07455812546867754,-1.3373934171564417,-6.263818865411354,"(0.0, 0.0, 0.0, 0.0, 0.0, 0.0)",1.0261790660679178,-0.00438121474570814,0.11683239321888372,"(0.0, 0.0, 0.0, 0.0, 0.0, 0.0)",0.07456703717978388,False,,,,,False,,,,
19,Open,,,,,,"[-0.026750000193715096, 0.05299999937415123, 0.0]","[0.0, -0.0, 1.337422599908487]","[-0.09679820388555527, 0.069650799036026, 0.0]","[0.0, -0.0, 1.341802240600705]","[0.026750000193715096, 0.05299999937415123, 0.0]","[0.0, 0.0, -1.3373935010497093]","[0.09679771959781647, 0.06965284049510956, 0.0]","[0.0, 0.0, -1.3417745748308543]",1.3608861859844497,5.63125112679965,"(0.0, 0.0, 0.0, 0.0, 0.0, 0.0)",-0.9227968999123518,0.003941634602465021,-0.10511025606573396,"(0.0, 0.0, 0.0, 0.0, 0.0, 0.0)",-0.06711493445237729,-1.360859910394858,-5.631958377219917,"(0.0, 0.0, 0.0, 0.0, 0.0, 0.0)",0.9229121714364041,-0.003943093271137326,0.10514915389699532,"(0.0, 0.0, 0.0, 0.0, 0.0, 0.0)",0.06712296635595605,False,,,,,False,,,,
20,Open,,,,,,"[-0.026750000193715096, 0.05299999937415123, 0.0]","[0.0, -0.0, 1.3608862730315148]","[-0.09716957062482834, 0.06800278276205063, 0.0]","[0.0, -0.0, 1.3648279742197553]","[0.026750000193715096, 0.05299999937415123, 0.0]","[0.0, 0.0, -1.3608600031913645]","[0.0971691831946373, 0.06800463795661926, 0.0]","[0.0, 0.0, -1.364803063206583]",1.3819828088447406,5.063189486469817,"(0.0, 0.0, 0.0, 0.0, 0.0, 0.0)",-0.8299089855641557,0.003547471142218519,-0.09459923045916045,"(0.0, 0.0, 0.0, 0.0, 0.0, 0.0)",-0.06040740873779013,-1.3819591830070739,-5.0638254269317935,"(0.0, 0.0, 0.0, 0.0, 0.0, 0.0)",0.8300126841532762,-0.003548783944023594,0.09463423850729574,"(0.0, 0.0, 0.0, 0.0, 0.0, 0.0)",0.06041464588416864,False,,,,,False,,,,
21,Open,,,,,,"[-0.026750000193715096, 0.05299999937415123, 0.0]","[0.0, -0.0, 1.3819828450488676]","[-0.09747038781642914, 0.06651394069194794, 0.0]","[0.0, -0.0, 1.3855303293962655]","[0.026750000193715096, 0.05299999937415123, 0.0]","[0.0, 0.0, -1.3819593091537836]","[0.09747006744146347, 0.06651560962200165, 0.0]","[0.0, 0.0, -1.3855079080018269]",1.4009512379204834,4.552422978178264,"(0.0, 0.0, 0.0, 0.0, 0.0, 0.0)",-0.7463512400604935,0.0031927240279966667,-0.0851393074132445,"(0.0, 0.0, 0.0, 0.0, 0.0, 0.0)",-0.05436427015961512,-1.4009299946590812,-4.552994796481781,"(0.0, 0.0, 0.0, 0.0, 0.0, 0.0)",0.746444522692433,-0.0031939055496212347,0.08517081465656619,"(0.0, 0.0, 0.0, 0.0, 0.0, 0.0)",0.054370789731454025,False,,,,,False,,,,
22,Open,,,,,,"[-0.026750000193715096, 0.05299999937415123, 0.0]","[0.0, -0.0, 1.4009511880418037]","[-0.09771399199962616, 0.06517013907432556, 0.0]","[0.0, -0.0, 1.4041440558888152]","[0.026750000193715096, 0.05299999937415123, 0.0]","[0.0, 0.0, -1.400930033264257]","[0.09771373122930527, 0.06517164409160614, 0.0]","[0.0, 0.0, -1.4041237552783778]",1.4180061316934724,4.093174505517382,"(0.0, 0.0, 0.0, 0.0, 0.0, 0.0)",-0.6711903027964848,0.002873451625197,-0.07662537667191999,"(0.0, 0.0, 0.0, 0.0, 0.0, 0.0)",-0.0489208648587936,-1.417987030764812,-4.093688665375389,"(0.0, 0.0, 0.0, 0.0, 0.0, 0.0)",0.6712742117280419,-0.0028745149946591115,0.07665373319090961,"(0.0, 0.0, 0.0, 0.0, 0.0, 0.0)",0.04892673682797092,False,,,,,False,,,,
23,Open,,,,,,"[-0.026750000193715096, 0.05299999937415123, 0.0]","[0.0, -0.0, 1.4180060178702165]","[-0.09791121631860733, 0.06395813822746277, 0.0]","[0.0, -0.0, 1.4208796612803194]","[0.026750000193715096, 0.05299999937415123, 0.0]","[0.0, 0.0, -1.4179870882203693]","[0.09791100770235062, 0.063959501683712, 0.0]","[0.0, 0.0, -1.4208617275706665]",1.4333405031367956,3.680249146397587,"(0.0, 0.0, 0.0, 0.0, 0.0, 0.0)",-0.6035854485089583,0.0025861064626773005,-0.06896283900472794,"(0.0, 0.0, 0.0, 0.0, 0.0, 0.0)",-0.04401860537347084,-1.4333233285160574,-3.680711460298934,"(0.0, 0.0, 0.0, 0.0, 0.0, 0.0)",0.6036609224685194,-0.0025870634951932004,0.06898835987181862,"(0.0, 0.0, 0.0, 0.0, 0.0, 0.0)",0.044023893118103626,False,,,,,False,,,,
24,Open,,,,,,"[-0.026750000193715096, 0.05299999937415123, 0.0]","[0.0, -0.0, 1.433340417582614]","[-0.09807088226079941, 0.06286568194627762, 0.0]","[0.0, -0.0, 1.435926710678358]","[0.026750000193715096, 0.05299999937415123, 0.0]","[0.0, 0.0, -1.4333233494124675]","[0.09807071089744568, 0.06286691129207611, 0.0]","[0.0, 0.0, -1.435910326708968]",1.4471279012605536,3.30897554970189,"(0.0, 0.0, 0.0, 0.0, 0.0, 0.0)",-0.5427795369014742,0.0023274958164095708,-0.062066555104255156,"(0.0, 0.0, 0.0, 0.0, 0.0, 0.0)",-0.03960444627738313,-1.4471124587012973,-3.30939124445761,"(0.0, 0.0, 0.0, 0.0, 0.0, 0.0)",0.5428474212252811,-0.0023283571456738806,0.06208952388463673,"(0.0, 0.0, 0.0, 0.0, 0.0, 0.0)",0.039609207157766106,False,,,,,False,,,,
25,Open,,,,,,"[-0.026750000193715096, 0.05299999937415123, 0.0]","[0.0, -0.0, 1.4471279707882763]","[-0.09820012003183365, 0.061881449073553085, 0.0]","[0.0, -0.0, 1.4494554791099041]","[0.026750000193715096, 0.05299999937415123, 0.0]","[0.0, 0.0, -1.447112527643549]","[0.0981999859213829, 0.06188255175948143, 0.0]","[0.0, 0.0, -1.449440856687612]",1.459524373005365,2.975153218754787,"(0.0, 0.0, 0.0, 0.0, 0.0, 0.0)",-0.4880908169705902,0.0020947462347686136,-0.055859899593829684,"(0.0, 0.0, 0.0, 0.0, 0.0, 0.0)",-0.035630395797775154,-1.459510487844879,-2.9755269944595852,"(0.0, 0.0, 0.0, 0.0, 0.0, 0.0)",0.4881518727751946,-0.0020955214311064924,0.05588057149617316,"(0.0, 0.0, 0.0, 0.0, 0.0, 0.0)",0.03563468169131765,False,,,,,False,,,,
26,Open,,,,,,"[-0.026750000193715096, 0.05299999937415123, 0.0]","[0.0, -0.0, 1.459524441636309]","[-0.09830472618341446, 0.060995057225227356, 0.0]","[0.0, -0.0, 1.4616192022028514]","[0.026750000193715096, 0.05299999937415123, 0.0]","[0.0, 0.0, -1.4595105919860805]","[0.0983046144247055, 0.060996051877737045, 0.0]","[0.0, 0.0, -1.4616059464130375]",1.470670227558385,2.675005092724741,"(0.0, 0.0, 0.0, 0.0, 0.0, 0.0)",-0.4389055126042824,0.0018852716112917522,-0.05027390963444674,"(0.0, 0.0, 0.0, 0.0, 0.0, 0.0)",-0.0320530631419506,-1.4706577427440155,-2.6753411757927705,"(0.0, 0.0, 0.0, 0.0, 0.0, 0.0)",0.4389604250812649,-0.0018859692879958432,0.05029251434655579,"(0.0, 0.0, 0.0, 0.0, 0.0, 0.0)",0.03205692093798083,False,,,,,False,,,,
27,Open,,,,,,"[-0.026750000193715096, 0.05299999937415123, 0.0]","[0.0, -0.0, 1.4706702426761566]","[-0.0983893945813179, 0.06019704043865204, 0.0]","[0.0, -0.0, 1.4725554301957995]","[0.026750000193715096, 0.05299999937415123, 0.0]","[0.0, 0.0, -1.4706576606866169]","[0.09838930517435074, 0.06019793450832367, 0.0]","[0.0, 0.0, -1.472543778585137]",1.480691622956023,2.4051348954331093,"(0.0, 0.0, 0.0, 0.0, 0.0, 0.0)",-0.394671119489225,0.0016967444501625772,-0.04524651867100202,"(0.0, 0.0, 0.0, 0.0, 0.0, 0.0)",-0.028833240535576277,-1.4806803972702727,-2.4054370863016996,"(0.0, 0.0, 0.0, 0.0, 0.0, 0.0)",0.39472050540147613,-0.001697372359196259,0.045263262911900234,"(0.0, 0.0, 0.0, 0.0, 0.0, 0.0)",0.02883671259140175,False,,,,,False,,,,
28,Close,,,"(-3.6446745474647515e-13, 0.1600029112633939, 0.002514152898834638)","(-9.260627238627092e-05, -1.1593594961054301e-11, -4.4705400689262225e-15)",,"[-0.026750000193715096, 0.05299999937415123, 0.0]","[0.0, -0.0, 1.4806917174350276]","[-0.09845791757106781, 0.0594787634909153, 0.0]","[0.0, -0.0, 1.4823882964979418]","[0.026750000193715096, 0.05299999937415123, 0.0]","[0.0, 0.0, -1.4806804031699163]","[0.09845784306526184, 0.059479568153619766, 0.0]","[0.0, 0.0, -1.4823778244897456]",1.4896224606604207,2.1434010490554503,"(0.0, 0.0, 0.0, 0.0, 0.0, 0.0)",-0.3808258671733876,0.0016066021915649587,-0.021634142063428445,"(0.0, 0.0, 0.0, 0.0, 0.0, 0.0)",-0.02593551856904391,-1.4896123575432454,-2.1436704655134573,"(0.0, 0.0, 0.0, 0.0, 0.0, 0.0)",0.3808734061864014,-0.0016071768912692234,0.021646912302488545,"(0.0, 0.0, 0.0, 0.0, 0.0, 0.0)",0.025938643129053134,False,,,,,False,,,,
29,Close,,,"(-7.288375118184478e-13, 0.16000582174880257, 0.004854022822328586)","(-0.00018519676735729603, -2.318521501547535e-11, -7.438838668398815e-15)",,"[-0.026750000193715096, 0.05299999937415123, 0.0]","[0.0, -0.0, 1.4896223870906995]","[-0.0985129177570343, 0.05883810296654701, 0.0]","[0.0, -0.0, 1.4912292304794907]","[0.026750000193715096, 0.05299999937415123, 0.0]","[0.0, 0.0, -1.4896124417857932]","[0.09851285815238953, 0.058838825672864914, 0.0]","[0.0, 0.0, -1.4912196151911818]",1.4146808559877377,-17.985985121443928,"(0.0, 0.0, 0.0, 0.0, 0.0, 0.0)",-31.92238222409519,-0.08855405802759153,-21.638558452597557,"(0.0, 0.0, 0.0, 0.0, 0.0, 0.0)",-4.572143953056824,-1.4146717718040889,17.985740577397568,"(0.0, 0.0, 0.0, 0.0, 0.0, 0.0)",31.922418730843482,0.0885535407978577,21.638572245390463,"(0.0, 0.0, 0.0, 0.0, 0.0, 0.0)",4.572146764636608,False,,,,,False,,,,
30,Close,,,"(-1.09311273738181e-12, 0.16000873147672387, 0.007019672656584678)","(-0.00027777148765952155, -3.477486032834019e-11, -8.905663296488262e-15)",,"[-0.026750000193715096, 0.05299999937415123, 0.0]","[0.0, -0.0, 1.4146808445519445]","[-0.09787438809871674, 0.0641947090625763, 0.0]","[0.0, -0.0, 1.3261267669141548]","[0.026750000193715096, 0.05299999937415123, 0.0]","[0.0, 0.0, -1.4146718840425179]","[0.09787428379058838, 0.06419535726308823, 0.0]","[0.0, 0.0, -1.3261182565331058]",1.3331104482728138,-19.576897851581734,"(0.0, 0.0, 0.0, 0.0, 0.0, 0.0)",-2.143372670385427,-0.16969865222483238,-19.474702607337804,"(0.0, 0.0, 0.0, 0.0, 0.0, 0.0)",0.03336733545165535,-1.3331022793633864,19.576678185768593,"(0.0, 0.0, 0.0, 0.0, 0.0, 0.0)",2.143408354760349,0.16969818671807196,19.474715020851423,"(0.0, 0.0, 0.0, 0.0, 0.0, 0.0)",-0.03336509975059037,False,,,,,False,,,,
31,Close,,,"(-1.4572956946778838e-12, 0.16001164046763222, 0.009011162836365362)","(-0.0003703304360388955, -4.636253106484608e-11, -8.871781162623477e-15)",,"[-0.026750000193715096, 0.05299999937415123, 0.0]","[0.0, -0.0, 1.3331105420048013]","[-0.09672575443983078, 0.06995270401239395, 0.0]","[0.0, -0.0, 1.1634118364546469]","[0.026750000193715096, 0.05299999937415123, 0.0]","[0.0, 0.0, -1.3331022195602327]","[0.09672561287879944, 0.06995327025651932, 0.0]","[0.0, 0.0, -1.163404165434003]",1.2586590337672738,-17.86833948132958,"(0.0, 0.0, 0.0, 0.0, 0.0, 0.0)",2.6759106724436257,-0.24272878700234915,-17.527232346604023,"(0.0, 0.0, 0.0, 0.0, 0.0, 0.0)",0.3718755927363415,-1.258651687852535,17.868141962604366,"(0.0, 0.0, 0.0, 0.0, 0.0, 0.0)",-2.675878931984278,0.2427283680462648,17.52724351876628,"(0.0, 0.0, 0.0, 0.0, 0.0, 0.0)",-0.3718736022993186,False,,,,,False,,,,
32,Close,,,"(-1.8213889441141398e-12, 0.16001454874197946, 0.010828551348521245)","(-0.00046287361524086854, -5.794822739031051e-11, -7.337959187673562e-15)",,"[-0.026750000193715096, 0.05299999937415123, 0.0]","[0.0, -0.0, 1.2586590475556714]","[-0.09527091681957245, 0.07511071860790253, 0.0]","[0.0, -0.0, 1.0159302372463748]","[0.026750000193715096, 0.05299999937415123, 0.0]","[0.0, 0.0, -1.2586517731405285]","[0.09527075290679932, 0.07511122524738312, 0.0]","[0.0, 0.0, -1.0159233596627972]",1.1916746723115885,-16.07624674936445,"(0.0, 0.0, 0.0, 0.0, 0.0, 0.0)",2.7848319086483064,-0.3084559083021142,-15.774509111943622,"(0.0, 0.0, 0.0, 0.0, 0.0, 0.0)",0.3647302002087184,-1.1916680665424448,16.07606911442159,"(0.0, 0.0, 0.0, 0.0, 0.0, 0.0)",-2.784803365206396,0.3084555312416383,15.774519166889647,"(0.0, 0.0, 0.0, 0.0, 0.0, 0.0)",-0.3647283890046839,False,,,,,False,,,,
33,Close,,,"(-1.8721068929714823e-12, 0.16001497449598676, 0.01247685738369848)","(-0.0004290995754584241, -6.271830884298004e-11, -6.4018368905013444e-12)",,"[-0.026750000193715096, 0.05299999937415123, 0.0]","[0.0, -0.0, 1.1916747764120208]","[-0.09363728761672974, 0.07964753359556198, 0.0]","[0.0, -0.0, 0.8832188193511101]","[0.026750000193715096, 0.05299999937415123, 0.0]","[0.0, 0.0, -1.1916679664798868]","[0.09363710880279541, 0.0796479731798172, 0.0]","[0.0, 0.0, -0.8832125821852851]",1.1325072050804297,-14.200192135478126,"(0.0, 0.0, 0.0, 0.0, 0.0, 0.0)",2.8938082057501497,-0.36768634228987324,-14.215304157062164,"(0.0, 0.0, 0.0, 0.0, 0.0, 0.0)",0.3571470955590795,-1.1325012598882003,14.200033597018678,"(0.0, 0.0, 0.0, 0.0, 0.0, 0.0)",-2.8937807193412337,0.36768600255791084,14.215313115905403,"(0.0, 0.0, 0.0, 0.0, 0.0, 0.0)",-0.3571453219908656,False,,,,,False,,,,
34,Close,,,"(-2.013398333574275e-12, 0.16001433463256418, 0.013993236021024829)","(-0.00040875906809945123, -6.420279884324033e-11, -8.374157784986026e-12)",,"[-0.026750000193715096, 0.05299999937415123, 0.0]","[0.0, -0.0, 1.1325073229054503]","[-0.09194449335336685, 0.0835561454296112, 0.0]","[0.0, -0.0, 0.7648208733417672]","[0.026750000193715096, 0.05299999937415123, 0.0]","[0.0, 0.0, -1.1325012702656296]","[0.09194431453943253, 0.08355653285980225, 0.0]","[0.0, 0.0, -0.7648152724106686]",1.0792564845723867,-12.780172921930314,"(0.0, 0.0, 0.0, 0.0, 0.0, 0.0)",2.195114079797032,-0.42176325952814087,-12.978460137184229,"(0.0, 0.0, 0.0, 0.0, 0.0, 0.0)",0.2757351050886374,-1.0792511338993802,12.780030237316808,"(0.0, 0.0, 0.0, 0.0, 0.0, 0.0)",-2.1950913483186056,0.4217629495402438,12.978467275759911,"(0.0, 0.0, 0.0, 0.0, 0.0, 0.0)",-0.2757337259651962,False,,,,,False,,,,
35,Close,,,"(-2.1456383952088714e-12, 0.16001357706960892, 0.015388207501380442)","(-0.00038467628346057026, -6.673929453859397e-11, -9.468503716323603e-12)",,"[-0.026750000193715096, 0.05299999937415123, 0.0]","[0.0, -0.0, 1.0792564742291564]","[-0.0902257114648819, 0.0869828462600708, 0.0]","[0.0, -0.0, 0.6574932499368134]","[0.026750000193715096, 0.05299999937415123, 0.0]","[0.0, 0.0, -1.079251158959492]","[0.09022553265094757, 0.08698318898677826, 0.0]","[0.0, 0.0, -0.6574881596092084]",1.0305028665635538,-11.700868322119891,"(0.0, 0.0, 0.0, 0.0, 0.0, 0.0)",1.7280586365661323,-0.46958693357532677,-11.47768177132462,"(0.0, 0.0, 0.0, 0.0, 0.0, 0.0)",0.27000162634711755,-1.03049805511746,11.700738907660815,"(0.0, 0.0, 0.0, 0.0, 0.0, 0.0)",-1.7280394056571935,0.4695866545862194,11.477689211034148,"(0.0, 0.0, 0.0, 0.0, 0.0, 0.0)",-0.27000026989378884,False,,,,,False,,,,
36,Close,,,"(-2.2786424453781977e-12, 0.1600127705106716, 0.01667149757786289)","(-0.0003590349836890303, -7.004321053282436e-11, -1.0075942342721526e-11)",,"[-0.026750000193715096, 0.05299999937415123, 0.0]","[0.0, -0.0, 1.030502917067647]","[-0.08849415928125381, 0.09003591537475586, 0.0]","[0.0, -0.0, 0.5609158853654225]","[0.026750000193715096, 0.05299999937415123, 0.0]","[0.0, 0.0, -1.0304980528832728]","[0.08849398046731949, 0.09003620594739914, 0.0]","[0.0, 0.0, -0.5609113985435855]",0.9866994389386545,-10.512822629975846,"(0.0, 0.0, 0.0, 0.0, 0.0, 0.0)",1.852552886488102,-0.5126282402177941,-10.32991359419216,"(0.0, 0.0, 0.0, 0.0, 0.0, 0.0)",0.2455999571288302,-0.9866951124393133,10.512706242755225,"(0.0, 0.0, 0.0, 0.0, 0.0, 0.0)",-1.852534078159702,0.5126279891275974,10.329920289930733,"(0.0, 0.0, 0.0, 0.0, 0.0, 0.0)",-0.24559871724645543,False,,,,,False,,,,
37,Close,,,"(-2.4185626566556435e-12, 0.16001195974881022, 0.017852074029266845)","(-0.00033325906052880113, -7.397927472155015e-11, -1.0413335693785441e-11)",,"[-0.026750000193715096, 0.05299999937415123, 0.0]","[0.0, -0.0, 0.9866994553147835]","[-0.08681315183639526, 0.09270412474870682, 0.0]","[0.0, -0.0, 0.4740712448387903]","[0.026750000193715096, 0.05299999937415123, 0.0]","[0.0, 0.0, -0.9866950832827147]","[0.08681298047304153, 0.09270438551902771, 0.0]","[0.0, 0.0, -0.4740671670417937]",0.9473490875207129,-9.444084340306,"(0.0, 0.0, 0.0, 0.0, 0.0, 0.0)",1.6678921529585875,-0.5513654161960146,-9.296922234772943,"(0.0, 0.0, 0.0, 0.0, 0.0, 0.0)",0.2218815145142324,-0.9473451971216867,9.443979676230372,"(0.0, 0.0, 0.0, 0.0, 0.0, 0.0)",-1.6678752085474757,0.5513651902148377,9.29692826093766,"(0.0, 0.0, 0.0, 0.0, 0.0, 0.0)",-0.22188038934183815,False,,,,,False,,,,
38,Close,,,"(-2.569494595522615e-12, 0.16001117307055343, 0.018938176510118417)","(-0.00030824782514430135, -7.84941995990362e-11, -1.0600950999782143e-11)",,"[-0.026750000193715096, 0.05299999937415123, 0.0]","[0.0, -0.0, 0.9473490831117083]","[-0.08520469069480896, 0.09503629058599472, 0.0]","[0.0, -0.0, 0.395983646385255]","[0.026750000193715096, 0.05299999937415123, 0.0]","[0.0, 0.0, -0.9473451896593533]","[0.08520452678203583, 0.09503651410341263, 0.0]","[0.0, 0.0, -0.3959799935114046]",0.9120001019085906,-8.483756546909365,"(0.0, 0.0, 0.0, 0.0, 0.0, 0.0)",1.4999263064973027,-0.5862288745764132,-8.367230011295648,"(0.0, 0.0, 0.0, 0.0, 0.0, 0.0)",0.2002510244448872,-0.9119966036759729,8.483662426971321,"(0.0, 0.0, 0.0, 0.0, 0.0, 0.0)",-1.4999110510277252,0.5862286711933539,8.367235434843897,"(0.0, 0.0, 0.0, 0.0, 0.0, 0.0)",-0.2002500048884607,False,,,,,False,,,,
39,Close,,,"(-2.7343764809839044e-12, 0.16001042746756558, 0.019937378067197288)","(-0.0002845416106282153, -8.357962440693949e-11, -1.0705492844925015e-11)",,"[-0.026750000193715096, 0.05299999937415123, 0.0]","[0.0, -0.0, 0.9120002240039388]","[-0.08368253707885742, 0.09707590937614441, 0.0]","[0.0, -0.0, 0.3257712486455884]","[0.026750000193715096, 0.05299999937415123, 0.0]","[0.0, 0.0, -0.911996707348728]","[0.08368238806724548, 0.09707611054182053, 0.0]","[0.0, 0.0, -0.3257679557875821]",0.8802461236794747,-7.6209547749878,"(0.0, 0.0, 0.0, 0.0, 0.0, 0.0)",1.3486142490424646,-0.6176059871187718,-7.530507010166085,"(0.0, 0.0, 0.0, 0.0, 0.0, 0.0)",0.1806494828048392,-0.8802429781006595,7.620870138075202,"(0.0, 0.0, 0.0, 0.0, 0.0, 0.0)",-1.3486005165611672,0.6176058040740184,7.530511891359508,"(0.0, 0.0, 0.0, 0.0, 0.0, 0.0)",-0.1806485597629277,False,,,,,False,,,,
40,Close,,,"(-2.915492805425637e-12, 0.16000973228138246, 0.02085664074163429)","(-0.0002624375831480928, -8.92517270389134e-11, -1.0763962960505134e-11)",,"[-0.026750000193715096, 0.05299999937415123, 0.0]","[0.0, -0.0, 0.8802460077928087]","[-0.08225449174642563, 0.0988612249493599, 0.0]","[0.0, -0.0, 0.26264012355256394]","[0.026750000193715096, 0.05299999937415123, 0.0]","[0.0, 0.0, -0.8802430256541516]","[0.08225434273481369, 0.09886139631271362, 0.0]","[0.0, 0.0, -0.2626371812430374]",0.8517219443230095,-6.845803045551659,"(0.0, 0.0, 0.0, 0.0, 0.0, 0.0)",1.212447415047991,-0.6458453884068946,-6.777456309149478,"(0.0, 0.0, 0.0, 0.0, 0.0, 0.0)",0.16290925084070507,-0.85171911586277,6.845726937093471,"(0.0, 0.0, 0.0, 0.0, 0.0, 0.0)",-1.2124350549981635,0.6458452236666166,6.777460702223558,"(0.0, 0.0, 0.0, 0.0, 0.0, 0.0)",-0.16290841579597037,False,,,,,False,,,,
41,Close,,,"(-3.1147585897443805e-12, 0.16000909174333114, 0.021702366045096275)","(-0.0002420704518640883, -9.554007724874187e-11, -1.0796890040756614e-11)",,"[-0.026750000193715096, 0.05299999937415123, 0.0]","[0.0, -0.0, 0.8517219593859116]","[-0.08092393726110458, 0.10042557120323181, 0.0]","[0.0, -0.0, 0.20587659361155863]","[0.026750000193715096, 0.05299999937415123, 0.0]","[0.0, 0.0, -0.8517191278100894]","[0.08092380315065384, 0.10042572766542435, 0.0]","[0.0, 0.0, -0.2058738888521698]",0.8260993817395401,-6.149415020032647,"(0.0, 0.0, 0.0, 0.0, 0.0, 0.0)",1.0899402847927484,-0.6712608495662052,-6.09971067823453,"(0.0, 0.0, 0.0, 0.0, 0.0, 0.0)",0.1468654650841664,-0.8260968384403812,6.149346581373322,"(0.0, 0.0, 0.0, 0.0, 0.0, 0.0)",-1.0899291611772652,0.671260701299955,6.099714632001204,"(0.0, 0.0, 0.0, 0.0, 0.0, 0.0)",-0.14686471014210736,False,,,,,False,,,,
42,Close,,,"(-3.3338818935924564e-12, 0.16000850673676864, 0.02248044092004115)","(-0.00022346847222235797, -1.0248160998129262e-10, -1.0815665823160981e-11)",,"[-0.026750000193715096, 0.05299999937415123, 0.0]","[0.0, -0.0, 0.8260993683444974]","[-0.07969111949205399, 0.1017979308962822, 0.0]","[0.0, -0.0, 0.15483853668364703]","[0.026750000193715096, 0.05299999937415123, 0.0]","[0.0, 0.0, -0.8260968153392056]","[0.07969099283218384, 0.10179806500673294, 0.0]","[0.0, 0.0, -0.1548361319796758]",0.8030835418282519,-5.523801578709171,"(0.0, 0.0, 0.0, 0.0, 0.0, 0.0)",0.9797401662853704,-0.6941347646095847,-5.489739610411074,"(0.0, 0.0, 0.0, 0.0, 0.0, 0.0)",0.13236492695454063,-0.8030812549507722,5.523740037506156,"(0.0, 0.0, 0.0, 0.0, 0.0, 0.0)",-0.9797301563554809,0.6941346311699594,5.489743168801081,"(0.0, 0.0, 0.0, 0.0, 0.0, 0.0)",-0.13236424482861034,False,,,,,False,,,,
43,Close,,,"(-3.574458661466042e-12, 0.1600079760129696, 0.023196279686581375)","(-0.0002065920913295018, -1.1011743275386833e-10, -1.0826613341696389e-11)",,"[-0.026750000193715096, 0.05299999937415123, 0.0]","[0.0, -0.0, 0.803083574166423]","[-0.07855407148599625, 0.10300338268280029, 0.0]","[0.0, -0.0, 0.10894878346984203]","[0.026750000193715096, 0.05299999937415123, 0.0]","[0.0, 0.0, -0.8030812894783929]","[0.07855395972728729, 0.10300350189208984, 0.0]","[0.0, 0.0, -0.10894662046473069]",0.7824094529792304,-4.961781323765163,"(0.0, 0.0, 0.0, 0.0, 0.0, 0.0)",0.8806243499826526,-0.7147212881486262,-4.940765649369968,"(0.0, 0.0, 0.0, 0.0, 0.0, 0.0)",0.11926640840160024,-0.7824073966785258,4.961725985339142,"(0.0, 0.0, 0.0, 0.0, 0.0, 0.0)",-0.8806153429944423,0.7147211680529635,4.940768851920975,"(0.0, 0.0, 0.0, 0.0, 0.0, 0.0)",-0.1192657923881338,False,,,,,False,,,,
44,Close,,,"(-3.838029878014839e-12, 0.16000749702405018, 0.02385486239679051)","(-0.0001913604253196595, -1.1849119926022184e-10, -1.083324323146616e-11)",,"[-0.026750000193715096, 0.05299999937415123, 0.0]","[0.0, -0.0, 0.7824094659888474]","[-0.07750929892063141, 0.10406362265348434, 0.0]","[0.0, -0.0, 0.06768815918479451]","[0.026750000193715096, 0.05299999937415123, 0.0]","[0.0, 0.0, -0.7824074107173511]","[0.07750919461250305, 0.1040637269616127, 0.0]","[0.0, 0.0, -0.06768623058947815]",0.7638390386413549,-4.456899441090115,"(0.0, 0.0, 0.0, 0.0, 0.0, 0.0)",0.7914889260831189,-0.7332491593337636,-4.44668908443297,"(0.0, 0.0, 0.0, 0.0, 0.0, 0.0)",0.10744015458889655,-0.7638371896758722,4.456849680636848,"(0.0, 0.0, 0.0, 0.0, 0.0, 0.0)",-0.7914808221588604,0.7332490512476671,4.446691966728877,"(0.0, 0.0, 0.0, 0.0, 0.0, 0.0)",-0.10743959853743963,False,,,,,False,,,,
45,Close,,,"(-4.126117657190063e-12, 0.16000706648818214, 0.024460769954269483)","(-0.00017766922970092816, -1.2764834639035626e-10, -1.0837505279066394e-11)",,"[-0.026750000193715096, 0.05299999937415123, 0.0]","[0.0, -0.0, 0.7638389693768279]","[-0.07655233144760132, 0.10499738156795502, 0.0]","[0.0, -0.0, 0.03058987848485575]","[0.026750000193715096, 0.05299999937415123, 0.0]","[0.0, 0.0, -0.7638372094242972]","[0.07655223459005356, 0.10499747842550278, 0.0]","[0.0, 0.0, -0.030588138977785513]",0.7471583945441503,-4.003354583329093,"(0.0, 0.0, 0.0, 0.0, 0.0, 0.0)",0.7113378078030369,-0.7499242434003872,-4.002020175989674,"(0.0, 0.0, 0.0, 0.0, 0.0, 0.0)",0.09676726079721298,-0.7471567320137549,4.003309838908166,"(0.0, 0.0, 0.0, 0.0, 0.0, 0.0)",-0.7113305168933631,0.7499241461229005,4.00202277005599,"(0.0, 0.0, 0.0, 0.0, 0.0, 0.0)",-0.0967667590782634,False,,,,,False,,,,
46,Close,,,"(-4.4402494978830355e-12, 0.16000668076828303, 0.02501821630741148)","(-0.00016540294171377398, -1.3763580540255394e-10, -1.0840482773120437e-11)",,"[-0.026750000193715096, 0.05299999937415123, 0.0]","[0.0, -0.0, 0.7471583573931307]","[-0.07567809522151947, 0.10582084953784943, 0.0]","[0.0, 0.0, -0.0027658489430295104]","[0.026750000193715096, 0.05299999937415123, 0.0]","[0.0, 0.0, -0.7471568080209655]","[0.07567800581455231, 0.1058209240436554, 0.0]","[0.0, -0.0, 0.0027674140291138434]",0.7321753402386445,-3.5959330333213932,"(0.0, 0.0, 0.0, 0.0, 0.0, 0.0)",0.6392726157076472,-0.7649318190603485,-3.6018181583907074,"(0.0, 0.0, 0.0, 0.0, 0.0, 0.0)",0.08713900679039731,-0.7321738453489833,3.595892799545181,"(0.0, 0.0, 0.0, 0.0, 0.0, 0.0)",-0.6392660566472337,0.7649317315106104,3.601820493050389,"(0.0, 0.0, 0.0, 0.0, 0.0, 0.0)",-0.08713855426189723,False,,,,,False,,,,
47,Close,,,"(-4.756237424302428e-12, 0.16000633612124995, 0.02553107798550913)","(-0.0001544426077524551, -1.4768478333153182e-10, -1.0841249699388454e-11)",,"[-0.026750000193715096, 0.05299999937415123, 0.0]","[0.0, -0.0, 0.7321753678288271]","[-0.07488121092319489, 0.10654798150062561, 0.0]","[0.0, 0.0, -0.032756479633068124]","[0.026750000193715096, 0.05299999937415123, 0.0]","[0.0, 0.0, -0.7321738744013948]","[0.07488112896680832, 0.10654805600643158, 0.0]","[0.0, -0.0, 0.032757887603991766]",0.7187172175716224,-3.229949440085299,"(0.0, 0.0, 0.0, 0.0, 0.0, 0.0)",0.5744834252351186,-0.7784386371543136,-3.2416363425516375,"(0.0, 0.0, 0.0, 0.0, 0.0, 0.0)",0.07845617608537592,-0.7187158734221548,3.2299132624388323,"(0.0, 0.0, 0.0, 0.0, 0.0, 0.0)",-0.5744775248846795,0.7784385583595494,3.24163844374535,"(0.0, 0.0, 0.0, 0.0, 0.0, 0.0)",-0.07845576805894787,False,,,,,False,,,,
48,Close,,,"(-5.055776927538692e-12, 0.160006028857937, 0.02600292121469458)","(-0.00014467097317984745, -1.572135084164937e-10, -1.0840829792494257e-11)",,"[-0.026750000193715096, 0.05299999937415123, 0.0]","[0.0, -0.0, 0.7187172203520762]","[-0.07415621727705002, 0.10719086974859238, 0.0]","[0.0, 0.0, -0.0597214215877761]","[0.026750000193715096, 0.05299999937415123, 0.0]","[0.0, 0.0, -0.7187158389958024]","[0.07415615022182465, 0.10719092935323715, 0.0]","[0.0, -0.0, 0.05972269150990171]",0.7066289113926691,-2.901193482948786,"(0.0, 0.0, 0.0, 0.0, 0.0, 0.0)",0.5162403245409793,-0.7905947734388823,-2.917472708296474,"(0.0, 0.0, 0.0, 0.0, 0.0, 0.0)",0.07062837759242635,-0.7066277027859966,2.9011609526779716,"(0.0, 0.0, 0.0, 0.0, 0.0, 0.0)",-0.5162350170084758,0.7905947025235945,2.917474599370814,"(0.0, 0.0, 0.0, 0.0, 0.0, 0.0)",-0.07062800980006631,False,,,,,False,,,,
49,Close,,,"(-5.326383224096764e-12, 0.1600057554418171, 0.02643702682502274)","(-0.00013597562249271076, -1.6582368006207373e-10, -1.0839744690724373e-11)",,"[-0.026750000193715096, 0.05299999937415123, 0.0]","[0.0, -0.0, 0.7066289115031121]","[-0.0734976977109909, 0.10775995999574661, 0.0]","[0.0, 0.0, -0.08396587095831981]","[0.026750000193715096, 0.05299999937415123, 0.0]","[0.0, 0.0, -0.7066277399003272]","[0.07349763065576553, 0.10776001214981079, 0.0]","[0.0, -0.0, 0.0839670024485586]",0.6957710702253139,-2.6058818801652626,"(0.0, 0.0, 0.0, 0.0, 0.0, 0.0)",0.4638857254173711,-0.8015352960949941,-2.6257254374668255,"(0.0, 0.0, 0.0, 0.0, 0.0, 0.0)",0.06357338206328753,-0.6957699834956758,2.605852629677006,"(0.0, 0.0, 0.0, 0.0, 0.0, 0.0)",-0.463880951351893,0.8015352322712351,2.625727139433731,"(0.0, 0.0, 0.0, 0.0, 0.0, 0.0)",-0.06357305062503385,False,,,,,False,,,,
50,Close,,,"(-5.5600868425566676e-12, 0.1600055125460093, 0.026836413137274407)","(-0.0001282507953573484, -1.7326110160015553e-10, -1.0838289765071605e-11)",,"[-0.026750000193715096, 0.05299999937415123, 0.0]","[0.0, -0.0, 0.695771008594293]","[-0.07290037721395493, 0.10826429724693298, 0.0]","[0.0, 0.0, -0.10576421663559302]","[0.026750000193715096, 0.05299999937415123, 0.0]","[0.0, 0.0, -0.6957699593412627]","[0.07290031760931015, 0.10826434940099716, 0.0]","[0.0, -0.0, 0.10576524967955843]",0.6860185068336276,-2.340615214004697,"(0.0, 0.0, 0.0, 0.0, 0.0, 0.0)",0.4168273708201331,-0.8113817664854946,-2.3631528937201427,"(0.0, 0.0, 0.0, 0.0, 0.0, 0.0)",0.05721648209593174,-0.6860175296926425,2.3405889127279877,"(0.0, 0.0, 0.0, 0.0, 0.0, 0.0)",-0.41682307677226305,0.8113817090441117,2.3631544254903574,"(0.0, 0.0, 0.0, 0.0, 0.0, 0.0)",-0.05721618348886968,False,,,,,False,,,,
51,Close,,,"(-5.7523836092087116e-12, 0.1600052970823412, 0.02720385699971244)","(-0.00012139831308889596, -1.793820432060724e-10, -1.083664877500391e-11)",,"[-0.026750000193715096, 0.05299999937415123, 0.0]","[0.0, -0.0, 0.6860185958747267]","[-0.07235922664403915, 0.10871174931526184, 0.0]","[0.0, 0.0, -0.12536326846646612]","[0.026750000193715096, 0.05299999937415123, 0.0]","[0.0, 0.0, -0.6860175053043464]","[0.07235916703939438, 0.10871179401874542, 0.0]","[0.0, -0.0, 0.12536418311964312]",0.6772587606043621,-2.1023390950237477,"(0.0, 0.0, 0.0, 0.0, 0.0, 0.0)",0.3745319844286686,-0.8202435898369452,-2.126837604348129,"(0.0, 0.0, 0.0, 0.0, 0.0, 0.0)",0.051489881608144585,-0.677257882002285,2.1023154456857966,"(0.0, 0.0, 0.0, 0.0, 0.0, 0.0)",-0.37452812227147975,0.8202435381397005,2.12683898294132,"(0.0, 0.0, 0.0, 0.0, 0.0, 0.0)",-0.05148961263697523,False,,,,,False,,,,
52,Close,,,"(-5.9013823821360114e-12, 0.1600051062119302, 0.027541913128765336)","(-0.00011532791709327964, -1.8412603069616307e-10, -1.0834943567922288e-11)",,"[-0.026750000193715096, 0.05299999937415123, 0.0]","[0.0, -0.0, 0.677258746394508]","[-0.07186945527791977, 0.10910912603139877, 0.0]","[0.0, 0.0, -0.14298481324801024]","[0.026750000193715096, 0.05299999937415123, 0.0]","[0.0, 0.0, -0.6772579197173046]","[0.07186941057443619, 0.10910917073488235, 0.0]","[0.0, -0.0, 0.14298568165534709]",0.6693908054612554,-1.888309234345596,"(0.0, 0.0, 0.0, 0.0, 0.0, 0.0)",0.33651951011374864,-0.8282192308532507,-1.914153843913315,"(0.0, 0.0, 0.0, 0.0, 0.0, 0.0)",0.04633211851457834,-0.669390015462195,1.888287969621595,"(0.0, 0.0, 0.0, 0.0, 0.0, 0.0)",-0.33651603651914147,0.8282191843257305,1.9141550846471884,"(0.0, 0.0, 0.0, 0.0, 0.0, 0.0)",-0.04633187628389826,False,,,,,False,,,,
53,Close,,,"(-6.007135173803298e-12, 0.1600049373438315, 0.027852931893489936)","(-0.00010995722750507456, -1.8749448903209618e-10, -1.0833257840179526e-11)",,"[-0.026750000193715096, 0.05299999937415123, 0.0]","[0.0, -0.0, 0.6693908210241702]","[-0.07142660021781921, 0.10946238785982132, 0.0]","[0.0, 0.0, -0.15882841290684108]","[0.026750000193715096, 0.05299999937415123, 0.0]","[0.0, 0.0, -0.6693900671415842]","[0.07142655551433563, 0.1094624251127243, 0.0]","[0.0, -0.0, 0.1588291502194846]",0.6623238886500982,-1.6960600346777452,"(0.0, 0.0, 0.0, 0.0, 0.0, 0.0)",0.3023578919804044,-0.8353973077679256,-1.7227384595219848,"(0.0, 0.0, 0.0, 0.0, 0.0, 0.0)",0.041687522685163216,-0.6623231783197908,1.6960409141769939,"(0.0, 0.0, 0.0, 0.0, 0.0, 0.0)",-0.30235476794565264,0.8353972658931574,1.722739576182469,"(0.0, 0.0, 0.0, 0.0, 0.0, 0.0)",-0.04168730457351587,False,,,,,False,,,,
54,Close,,,"(-6.071103286741634e-12, 0.1600047881262459, 0.02813907567121195)","(-0.00010521146492701404, -1.895337350003755e-10, -1.0831649419051616e-11)",,"[-0.026750000193715096, 0.05299999937415123, 0.0]","[0.0, -0.0, 0.6623238873443489]","[-0.07102647423744202, 0.10977669805288315, 0.0]","[0.0, 0.0, -0.17307342324761454]","[0.026750000193715096, 0.05299999937415123, 0.0]","[0.0, 0.0, -0.6623231897980306]","[0.07102643698453903, 0.10977673530578613, 0.0]","[0.0, -0.0, 0.17307409129071535]",0.6559764871967383,-1.5233763488063683,"(0.0, 0.0, 0.0, 0.0, 0.0, 0.0)",0.27165834863824084,-0.8418575769911331,-1.5504646135697848,"(0.0, 0.0, 0.0, 0.0, 0.0, 0.0)",0.03750571001688725,-0.6559758485016197,1.5233591563610696,"(0.0, 0.0, 0.0, 0.0, 0.0, 0.0)",-0.2716555390583643,0.8418575393038417,1.550465618564222,"(0.0, 0.0, 0.0, 0.0, 0.0, 0.0)",-0.037505513652610616,False,,,,,False,,,,
55,Close,,,"(-6.095727977331477e-12, 0.16000465643334522, 0.0284023338906634)","(-0.00010102303254410876, -1.9032130517437034e-10, -1.0830157298132971e-11)",,"[-0.026750000193715096, 0.05299999937415123, 0.0]","[0.0, -0.0, 0.655976523029462]","[-0.07066520303487778, 0.11005659401416779, 0.0]","[0.0, 0.0, -0.1858810898407296]","[0.026750000193715096, 0.05299999937415123, 0.0]","[0.0, 0.0, -0.6559758435509463]","[0.07066516578197479, 0.11005662381649017, 0.0]","[0.0, -0.0, 0.18588167954131699]",0.6502753701602685,-1.3682680887527616,"(0.0, 0.0, 0.0, 0.0, 0.0, 0.0)",0.24407109842029012,-0.8476718192920197,-1.395418152212807,"(0.0, 0.0, 0.0, 0.0, 0.0, 0.0)",0.03374111252826956,-0.6502747958767061,1.3682526299792706,"(0.0, 0.0, 0.0, 0.0, 0.0, 0.0)",-0.24406857170181562,0.8476717853734574,1.3954190567078006,"(0.0, 0.0, 0.0, 0.0, 0.0, 0.0)",-0.03374093576711085,False,,,,,False,,,,
56,Close,,,"(-6.084097499217705e-12, 0.16000454034977318, 0.02864453686900874)","(-9.733102410337456e-05, -1.8995535384065798e-10, -1.082880635270284e-11)",,"[-0.026750000193715096, 0.05299999937415123, 0.0]","[0.0, -0.0, 0.6502754373724677]","[-0.07033920288085938, 0.1103060320019722, 0.0]","[0.0, 0.0, -0.19739645864398817]","[0.026750000193715096, 0.05299999937415123, 0.0]","[0.0, 0.0, -0.650274796394584]","[0.07033917307853699, 0.11030605435371399, 0.0]","[0.0, -0.0, 0.19739701596840478]",0.6451547559937428,-1.2289473999661578,"(0.0, 0.0, 0.0, 0.0, 0.0, 0.0)",0.2192814953409905,-0.8529046373628177,-1.2558763369915267,"(0.0, 0.0, 0.0, 0.0, 0.0, 0.0)",0.03035254371618463,-0.6451542396264088,1.2289335000713475,"(0.0, 0.0, 0.0, 0.0, 0.0, 0.0)",-0.21927922305341643,0.8529046068361117,1.2558771510370217,"(0.0, 0.0, 0.0, 0.0, 0.0, 0.0)",-0.03035238462063501,False,,,,,False,,,,
57,Close,,,"(-6.03970289105181e-12, 0.16000443815418697, 0.02886736854020541)","(-9.408070119531676e-05, -1.8854687578900374e-10, -1.0827611178155505e-11)",,"[-0.026750000193715096, 0.05299999937415123, 0.0]","[0.0, -0.0, 0.6451548136200507]","[-0.07004518806934357, 0.11052848398685455, 0.0]","[0.0, 0.0, -0.207749914962154]","[0.026750000193715096, 0.05299999937415123, 0.0]","[0.0, 0.0, -0.6451542292655448]","[0.07004515826702118, 0.11052850633859634, 0.0]","[0.0, -0.0, 0.20775037194802903]",0.6405555553973187,-1.1038081431418028,"(0.0, 0.0, 0.0, 0.0, 0.0, 0.0)",0.19700653859551334,-0.857614173626536,-1.130288703292375,"(0.0, 0.0, 0.0, 0.0, 0.0, 0.0)",0.027302797942088793,-0.6405550911057838,1.1037956449500208,"(0.0, 0.0, 0.0, 0.0, 0.0, 0.0)",-0.1970044951567992,0.8576141461525005,1.13028943593332,"(0.0, 0.0, 0.0, 0.0, 0.0, 0.0)",-0.027302654762365625,False,,,,,False,,,,
58,Move,,,"(-5.966226169261206e-12, 0.1600043483027247, 0.029072378164045565)","(-9.122296803848186e-05, -1.862129635245158e-10, -1.0826578258925423e-11)","[0.0, 0.0, 0.0]","[-0.026750000193715096, 0.05299999937415123, 0.0]","[0.0, -0.0, 0.64055553592262]","[-0.0697801485657692, 0.11072699725627899, 0.0]","[0.0, 0.0, -0.21705862311493063]","[0.026750000193715096, 0.05299999937415123, 0.0]","[0.0, 0.0, -0.6405550458028842]","[0.06978011876344681, 0.11072701960802078, 0.0]","[0.0, -0.0, 0.21705908233309731]",0.6364246910149901,-0.991407451758845,"(0.0, 0.0, 0.0, 0.0, 0.0, 0.0)",0.17699172131297153,-0.8618527562638825,-1.0172598329631362,"(0.0, 0.0, 0.0, 0.0, 0.0, 0.0)",0.024558282294637166,-0.6364242735477116,0.9913962139373201,"(0.0, 0.0, 0.0, 0.0, 0.0, 0.0)",-0.17698988370590749,0.8618527315372505,1.0172604923399877,"(0.0, 0.0, 0.0, 0.0, 0.0, 0.0)",-0.024558153451231933,False,,,,,False,,,,
59,Move,,,"(-5.867400437187905e-12, 0.16000426941295637, 0.029260991097866708)","(-8.871386151385144e-05, -1.8307235126676287e-10, -1.0825708093237106e-11)","[9.882573207330043e-14, -7.888976832903793e-08, 0.00018861293382114314]","[-0.026750000193715096, 0.05299999937415123, 0.0]","[0.0, -0.0, 0.6364246347449547]","[-0.0695413202047348, 0.1109042540192604, 0.0]","[0.0, 0.0, -0.2254280519848168]","[0.026750000193715096, 0.05299999937415123, 0.0]","[0.0, 0.0, -0.6364242950713332]","[0.06954129785299301, 0.1109042763710022, 0.0]","[0.0, -0.0, 0.22542845036468834]",0.6157950242503988,-4.951120023501925,"(0.0, 0.0, 0.0, 0.0, 0.0, 0.0)",-5.6917734021490665,-0.8614288980001478,0.1017259832963151,"(0.0, 0.0, 0.0, 0.0, 0.0, 0.0)",-0.31124092942761966,-0.6157946143689872,4.951118202893842,"(0.0, 0.0, 0.0, 0.0, 0.0, 0.0)",5.691787145531909,0.8614288729987755,-0.10172604923399953,"(0.0, 0.0, 0.0, 0.0, 0.0, 0.0)",0.3112418804390417,False,,,,,False,,,,
60,Move,,,"(-5.7469122616583125e-12, 0.1600042002486511, 0.02943451870621383)","(-8.651406706679719e-05, -1.7924230506942997e-10, -1.0824997182037253e-11)","[2.193139076028933e-13, -1.4805407358431388e-07, 0.0003621405421682655]","[-0.026750000193715096, 0.05299999937415123, 0.0]","[0.0, -0.0, 0.6157950171882141]","[-0.06833775341510773, 0.11177464574575424, 0.0]","[0.0, 0.0, -0.24563387435349512]","[0.026750000193715096, 0.05299999937415123, 0.0]","[0.0, 0.0, -0.6157946195769496]","[0.06833773106336594, 0.11177466064691544, 0.0]","[0.0, -0.0, 0.24563425886535448]",0.5959223372807932,-4.769444872705337,"(0.0, 0.0, 0.0, 0.0, 0.0, 0.0)",0.25202088736206335,-0.8614712838265213,-0.010172598329632812,"(0.0, 0.0, 0.0, 0.0, 0.0, 0.0)",0.007124481077973137,-0.5959219350917607,4.769443026534345,"(0.0, 0.0, 0.0, 0.0, 0.0, 0.0)",-0.25202091834573886,0.861471258852623,0.010172604923400996,"(0.0, 0.0, 0.0, 0.0, 0.0, 0.0)",-0.007124476302180641,False,,,,,False,,,,
61,Move,,,"(-6.565635191206668e-05, 0.16101529803092804, 0.0295687441841728)","(-0.0019708846827424524, 0.002203562530363153, 0.003280345653593933)","[-6.56563459458405e-05, 0.001010949728203342, 0.0004963660201272348]","[-0.026750000193715096, 0.05299999937415123, 0.0]","[0.0, -0.0, 0.5959223654665745]","[-0.06716161221265793, 0.11258944123983383, 0.0]","[0.0, 0.0, -0.2655489292103292]","[0.026750000193715096, 0.05299999937415123, 0.0]","[0.0, 0.0, -0.5959219096402877]","[0.06716158241033554, 0.11258946359157562, 0.0]","[0.0, -0.0, 0.2655493447935001]",0.5784185435524287,-4.200910494807476,"(0.0, 0.0, 0.0, 0.0, 0.0, 0.0)",-64.05345945040834,-0.8342282059106679,6.538338699804802,"(0.0, 0.0, 0.0, 0.0, 0.0, 0.0)",-31.752160112374877,-0.5785182302731131,4.176889156475431,"(0.0, 0.0, 0.0, 0.0, 0.0, 0.0)",65.93541849095135,0.8337298358730664,-6.657941515093591,"(0.0, 0.0, 0.0, 0.0, 0.0, 0.0)",32.68644699182845,True,"(-0.03038340738451875, 0.183173935354565, 1.7923622127606011e-13)","(1.0, -1.0821775705990513e-11, 1.7923566013046788e-10)",-0.0010535927115457033,501.7743773218501,True,"(0.030383356792758817, 0.18317393811160365, -1.792507706245295e-13)","(-0.9999999999999999, 1.0829686446031365e-11, -1.7925074106034446e-10)",-0.0010536433028652673,516.5335899705566
62,Move,"(0.0, 0.0, 0.0)","(0.0, -0.0, 0.0)","(-0.0002280732160485398, 0.16201779515974224, 0.029705151012135677)","(-0.0037301645277140853, 0.0021202713301098465, 0.0036758267711927348)","[-0.00022807321008231366, 0.0020134468570175423, 0.0006327728480901122]","[-0.026750000193715096, 0.05299999937415123, 0.0]","[0.0, -0.0, 0.5784185109481288]","[-0.06611242890357971, 0.11328763514757156, 0.0]","[0.0, 0.0, -0.2558096647918945]","[0.026750000193715096, 0.05299999937415123, 0.0]","[0.0, 0.0, -0.5785181914802756]","[0.06611844152212143, 0.11328370869159698, 0.0]","[0.0, -0.0, 0.2552116075259486]",0.5613152348775018,-4.104794081982473,"(0.0, 0.0, 0.0, 0.0, 0.0, 0.0)",-70.12196812911532,-0.8079625362406565,6.303760720802737,"(0.0, 0.0, 0.0, 0.0, 0.0, 0.0)",-35.49626432446073,-0.5613755339248481,4.114247123583612,"(0.0, 0.0, 0.0, 0.0, 0.0, 0.0)",72.77742382031163,0.8058784004618142,-6.684344498700509,"(0.0, 0.0, 0.0, 0.0, 0.0, 0.0)",37.16080401119602,True,"(-0.030023364946933875, 0.18422050867208672, -2.203560747065096e-06)","(0.9999921918411534, 0.003280331806324588, -0.0022035607470655824)",-0.0016208075856127269,534.0859156662927,True,"(0.030071800822730477, 0.18423099636873846, 2.2035607470688544e-06)","(-0.9999921918411535, -0.0032803318063243077, 0.0022035607470691962)",-0.001158471377246733,553.3302275513092
63,Move,"(0.0, 0.0, 0.0)","(0.0, -0.0, 0.0)","(-0.0003593872527084984, 0.16290650320968647, 0.029762647678050806)","(-0.004569622952622322, -0.0023921468367029334, 0.002588159737799202)","[-0.00035938724674227225, 0.0029021549069617736, 0.0006902695140052414]","[-0.026750000193715096, 0.05299999937415123, 0.0]","[0.0, -0.0, 0.5613152149628918]","[-0.06507560610771179, 0.11395201086997986, 0.0]","[0.0, 0.0, -0.2466472845008784]","[0.026750000193715096, 0.05299999937415123, 0.0]","[0.0, 0.0, -0.5613755308342634]","[0.06507927924394608, 0.11394970118999481, 0.0]","[0.0, -0.0, 0.24450286927856674]",0.5634857896181895,0.5209331377650637,"(0.0, 0.0, 0.0, 0.0, 0.0, 0.0)",4.891615822840218,-0.8100671950244067,-0.5051181081000449,"(0.0, 0.0, 0.0, 0.0, 0.0, 0.0)",-0.9385239073533838,-0.5636005111536697,-0.5339945349171904,"(0.0, 0.0, 0.0, 0.0, 0.0, 0.0)",-5.132062163315819,0.8081093218588687,0.5354211352930758,"(0.0, 0.0, 0.0, 0.0, 0.0, 0.0)",0.8270698675773367,True,"(-0.029637887559883634, 0.18520379862644892, -2.1195401025270186e-06)","(0.9999909963971519, 0.0036758102310255, -0.0021202697415239843)",-0.0021756653219096984,8.759659161450122,True,"(0.029794428832454048, 0.1852678214814389, 2.1202697414757247e-06)","(-0.9999909963971522, -0.0036758102310031357, 0.002120269741473746)",-0.0012663272360888028,6.852135053494635
64,Move,"(0.0, 0.0, 0.0)","(0.0, -0.0, 0.0)","(-0.0003521251326554972, 0.16357938373984604, 0.02984198982123034)","(-0.002532092671735927, -0.0032564461792105362, 0.0027545467009758577)","[-0.00035212512668927106, 0.0035750354371213433, 0.0007696116571847753]","[-0.026750000193715096, 0.05299999937415123, 0.0]","[0.0, -0.0, 0.5634857662878047]","[-0.0652078166604042, 0.11386868357658386, 0.0]","[0.0, 0.0, -0.24658138272439364]","[0.026750000193715096, 0.05299999937415123, 0.0]","[0.0, 0.0, -0.5636005125244588]","[0.06521479785442352, 0.11386427283287048, 0.0]","[0.0, -0.0, 0.2445088133215676]",0.5638338461488595,0.08353356736078238,"(0.0, 0.0, 0.0, 0.0, 0.0, 0.0)",-2.7150968044743595,-0.8089683418531249,0.263724761107615,"(0.0, 0.0, 0.0, 0.0, 0.0, 0.0)",-1.2715148400701366,-0.5640529281500287,-0.10858007912617113,"(0.0, 0.0, 0.0, 0.0, 0.0, 0.0)",1.630209834894249,0.8071575642921691,-0.2284218160079028,"(0.0, 0.0, 0.0, 0.0, 0.0, 0.0)",0.62188988542671,True,"(-0.029774789104679844, 0.18512164894553526, 2.3932288176365538e-06)","(0.9999937895441585, 0.002588149443134507, 0.0023921445552749342)",-0.0020080862133479644,16.40382958512472,True,"(0.029929518804350005, 0.18518327277281005, -2.3921445552470963e-06)","(-0.9999937895441584, -0.002588149443131116, -0.002392144555247721)",-0.0011618288159084046,8.294613541933154
65,Move,"(0.0, 0.0, 0.0)","(0.0, -0.0, 0.0)","(-0.0002732482111758687, 0.16405230684475638, 0.029854304733359347)","(-0.0006083510973252253, -0.002201653881719523, 0.0036757030247369354)","[-0.00027324820520964254, 0.004047958542031688, 0.0007819265693137824]","[-0.026750000193715096, 0.05299999937415123, 0.0]","[0.0, -0.0, 0.5638337626736286]","[-0.06522899866104126, 0.11385529488325119, 0.0]","[0.0, 0.0, -0.24513448823140654]","[0.026750000193715096, 0.05299999937415123, 0.0]","[0.0, 0.0, -0.5640528409534263]","[0.06524232774972916, 0.11384686082601547, 0.0]","[0.0, -0.0, 0.24310464828210976]",0.5641370372555715,0.07276586561090286,"(0.0, 0.0, 0.0, 0.0, 0.0, 0.0)",-2.348141096327051,-0.8079534296278542,0.2435789340649649,"(0.0, 0.0, 0.0, 0.0, 0.0, 0.0)",-1.4117945373016836,-0.5644537440119438,-0.09619580685961199,"(0.0, 0.0, 0.0, 0.0, 0.0, 0.0)",1.805897824253924,0.8062390705998835,-0.22043848614853762,"(0.0, 0.0, 0.0, 0.0, 0.0, 0.0)",1.0935166178968727,True,"(-0.029899104271040824, 0.18515817286304903, 3.256440423752486e-06)","(0.9999909040425768, 0.0027545286123752577, 0.0032564404237528004)",-0.0018525610500098578,17.712465022819327,True,"(0.03005723551385278, 0.18521377023380944, -3.2564404237542185e-06)","(-0.9999909040425767, -0.002754528612422487, -0.003256440423753667)",-0.0010655127813589244,13.611172252783277
66,Move,"(0.0, 0.0, 0.0)","(0.0, -0.0, 0.0)","(-0.000144336614200464, 0.16438768668773374, 0.029794228356766796)","(0.001965686948972885, -3.5884837150591074e-05, 0.005276440940452564)","[-0.00014433660823423783, 0.004383338385009039, 0.0007218501927212309]","[-0.026750000193715096, 0.05299999937415123, 0.0]","[0.0, -0.0, 0.5641370406847601]","[-0.06524744629859924, 0.11384362727403641, 0.0]","[0.0, 0.0, -0.24381639405382263]","[0.026750000193715096, 0.05299999937415123, 0.0]","[0.0, 0.0, -0.5644537521408998]","[0.06526671350002289, 0.11383143067359924, 0.0]","[0.0, -0.0, 0.24178536741471407]",0.564569477702782,0.10378570733050645,"(0.0, 0.0, 0.0, 0.0, 0.0, 0.0)",-1.5058312587710585,-0.8073419342810452,0.14675888323416325,"(0.0, 0.0, 0.0, 0.0, 0.0, 0.0)",-0.9384871099446606,-0.5649738407134723,-0.12482320836684871,"(0.0, 0.0, 0.0, 0.0, 0.0, 0.0)",1.1395159826652608,0.805640410830505,-0.14367834465085627,"(0.0, 0.0, 0.0, 0.0, 0.0, 0.0)",0.7181810385986163,True,"(-0.030011564096707195, 0.18519261314162802, 2.2016521030469252e-06)","(0.999990820988687, 0.003675685839238103, 0.0022016521030487944)",-0.0017109383576142912,11.709924554537311,True,"(0.030175809293732897, 0.18524245446111504, -2.2016521030486443e-06)","(-0.9999908209886872, -0.0036756858392249622, -0.0022016521030479193)",-0.0009760673977271449,8.933345293778526
67,Move,"(0.0, 0.0, 0.0)","(0.0, -0.0, 0.0)","(8.206409345771194e-05, 0.16460181636940385, 0.029751253073613034)","(0.0017938533768090824, 0.0056140991228206955, 0.006830497068323596)","[8.206409942393811e-05, 0.004597468066679156, 0.0006788749095674694]","[-0.026750000193715096, 0.05299999937415123, 0.0]","[0.0, -0.0, 0.564569456681242]","[-0.06527375429868698, 0.11382696777582169, 0.0]","[0.0, 0.0, -0.24277246197104557]","[0.026750000193715096, 0.05299999937415123, 0.0]","[0.0, 0.0, -0.5649738484003112]","[0.06529834866523743, 0.11381138861179352, 0.0]","[0.0, -0.0, 0.2406665845947629]",0.5650688180224027,0.11984167670896925,"(0.0, 0.0, 0.0, 0.0, 0.0, 0.0)",-1.0101649001909767,-0.8069337440145866,0.09796566395004579,"(0.0, 0.0, 0.0, 0.0, 0.0, 0.0)",-0.5915263774705479,-0.565534575583576,-0.13457636882488108,"(0.0, 0.0, 0.0, 0.0, 0.0, 0.0)",0.16947274186081496,0.8053023327595814,-0.0811387370216512,"(0.0, 0.0, 0.0, 0.0, 0.0, 0.0)",0.10757171357442222,True,"(-0.030112375050521403, 0.18521326152129897, 3.588483712308939e-08)","(0.9999860789739455, 0.005276416453657545, 3.5884837122862204e-05)",-0.0015781940913315977,7.7961669091150085,True,"(0.03028736402764614, 0.18525890781927448, -3.588483714542836e-08)","(-0.9999860789739454, -0.005276416453672067, -3.588483714530739e-05)",-0.0008966670022285533,1.343461508489324
68,Move,"(0.0, 0.0, 0.0)","(0.0, -0.0, 0.0)","(0.0002561240110081362, 0.16472660005824993, 0.02988406747704721)","(-0.0021179371451287374, 0.01105916743582506, 0.006776542982037604)","[0.00025612401697436233, 0.004722251755525236, 0.0008116893130016463]","[-0.026750000193715096, 0.05299999937415123, 0.0]","[0.0, -0.0, 0.5650688058344915]","[-0.06530412286520004, 0.11380772292613983, 0.0]","[0.0, 0.0, -0.24186494602501912]","[0.026750000193715096, 0.05299999937415123, 0.0]","[0.0, 0.0, -0.5655346615773154]","[0.06533244252204895, 0.11378975957632065, 0.0]","[0.0, -0.0, 0.23976775874012532]",0.5656322923787463,0.13523384552247913,"(0.0, 0.0, 0.0, 0.0, 0.0, 0.0)",-0.8942561507185675,-0.806561929525355,0.08923547741560206,"(0.0, 0.0, 0.0, 0.0, 0.0, 0.0)",-0.4917250821383626,-0.5661145499118971,-0.13919383879707445,"(0.0, 0.0, 0.0, 0.0, 0.0, 0.0)",0.1963302761208424,0.805246082115925,-0.013500154477538537,"(0.0, 0.0, 0.0, 0.0, 0.0, 0.0)",0.11346059065747152,True,"(-0.03020756328386341, 0.18522654450491016, -5.614069631894376e-06)","(0.9999609136001311, 0.0068303363137919995, -0.005614069631892957)",-0.0014564875847263336,6.935495079610935,True,"(0.030385718624271432, 0.18526626959619932, 5.614069631903476e-06)","(-0.9999609136001308, -0.006830336313801884, 0.005614069631905313)",-0.0008263907718954667,1.4826768721658963
69,Move,"(0.0, 0.0, 0.0)","(0.0, -0.0, 0.0)","(0.0003284473287436027, 0.16475523193908062, 0.030060541351682908)","(-0.0019832347370749093, 0.012012816653825899, 0.006856558144088493)","[0.00032844733470982886, 0.004750883636355924, 0.0009881631876373434]","[-0.026750000193715096, 0.05299999937415123, 0.0]","[0.0, -0.0, 0.5656323037617295]","[-0.0653383806347847, 0.1137859895825386, 0.0]","[0.0, 0.0, -0.24092966036749272]","[0.026750000193715096, 0.05299999937415123, 0.0]","[0.0, 0.0, -0.5661145434752671]","[0.065367691218853, 0.11376737803220749, 0.0]","[0.0, -0.0, 0.23913155157324487]",0.5662095618484984,0.13854467274048685,"(0.0, 0.0, 0.0, 0.0, 0.0, 0.0)",-0.005853383982746944,-0.8065991109062268,-0.008923531409242513,"(0.0, 0.0, 0.0, 0.0, 0.0, 0.0)",-0.010383230297212241,-0.5667175809944236,-0.144727459806358,"(0.0, 0.0, 0.0, 0.0, 0.0, 0.0)",0.2874077694168621,0.8049363025593964,-0.07434709356685626,"(0.0, 0.0, 0.0, 0.0, 0.0, 0.0)",0.15854723484203506,True,"(-0.030308671520069094, 0.18523661526321078, -1.1058942004950559e-05)","(0.9999158887556471, 0.006776076721506479, -0.011058942004950794)",-0.001344361313639641,0.0,True,"(0.030466450843529225, 0.18526610205797173, 5.614069631903476e-06)","(-0.9999609136001308, -0.006830336313801884, 0.005614069631905313)",-0.000758986503296411,2.23574157387033
70,Move,"(0.0, 0.0, 0.0)","(0.0, -0.0, 0.0)","(0.0003381733209713526, 0.16475942330461918, 0.03017267423794084)","(-0.0018321890945794533, 0.011211082249322607, 0.006870182720960064)","[0.0003381733269375788, 0.004755075001894482, 0.001100296073895276]","[-0.026750000193715096, 0.05299999937415123, 0.0]","[0.0, -0.0, 0.5662095581273088]","[-0.06537346541881561, 0.1137637048959732, 0.0]","[0.0, 0.0, -0.24038956443965573]","[0.026750000193715096, 0.05299999937415123, 0.0]","[0.0, 0.0, -0.566717547123612]","[0.06540432572364807, 0.11374408006668091, 0.0]","[0.0, -0.0, 0.23821870610583226]",0.5667871636144377,0.13862442382543372,"(0.0, 0.0, 0.0, 0.0, 0.0, 0.0)",0.0012268823123837307,-0.8065953927681396,0.0008923531409239516,"(0.0, 0.0, 0.0, 0.0, 0.0, 0.0)",0.0010864923679358206,-0.5673242534293619,-0.14560138438517495,"(0.0, 0.0, 0.0, 0.0, 0.0, 0.0)",0.0950647932778412,0.8048181254508634,-0.028362506047919872,"(0.0, 0.0, 0.0, 0.0, 0.0, 0.0)",0.05468834566011368,True,"(-0.03038283851663917, 0.18523082431752277, -5.253445969791077e-05)","(0.9999020609570899, 0.006855619865785307, -0.012201187238133317)",-0.001230767035269798,0.0,True,"(0.03056836776538105, 0.18527463177416098, 5.614069631903476e-06)","(-0.9999609136001308, -0.006830336313801884, 0.005614069631905313)",-0.0006984739115916479,0.689975715312352
71,Move,"(0.0, 0.0, 0.0)","(0.0, -0.0, 0.0)","(0.00030973525895792433, 0.16475489853930736, 0.030273010207110592)","(-0.0016894213844539506, 0.01030955976627899, 0.006875102832740759)","[0.0003097352649241505, 0.004750550236582662, 0.0012006320430650273]","[-0.026750000193715096, 0.05299999937415123, 0.0]","[0.0, -0.0, 0.5667871892131042]","[-0.06540855765342712, 0.11374139040708542, 0.0]","[0.0, 0.0, -0.23980822953894015]","[0.026750000193715096, 0.05299999937415123, 0.0]","[0.0, 0.0, -0.5673242365924274]","[0.06544117629528046, 0.1137206181883812, 0.0]","[0.0, -0.0, 0.23749388092993892]",0.5673955552192406,0.14601398515268607,"(0.0, 0.0, 0.0, 0.0, 0.0, 0.0)",-0.016842448508340678,-0.8064942154682462,0.024282551974418615,"(0.0, 0.0, 0.0, 0.0, 0.0, 0.0)",-0.012915711137118521,-0.5679002020238963,-0.1382276626882595,"(0.0, 0.0, 0.0, 0.0, 0.0, 0.0)",0.014206301133168654,0.8048299431617167,0.002836250604792312,"(0.0, 0.0, 0.0, 0.0, 0.0, 0.0)",0.004220922882825965,True,"(-0.030459355970173074, 0.18522880195070474, 4.234024318630839e-05)","(0.9999019786108341, 0.006912464339727519, 0.012175837009864954)",-0.0011205709707925622,0.22833368624191444,True,"(0.030657070443798756, 0.1852764021182483, 5.614069631903476e-06)","(-0.9999609136001308, -0.006830336313801884, 0.005614069631905313)",-0.0006425503654385829,0.0
72,Move,"(0.0, 0.0, 0.0)","(0.0, -0.0, 0.0)","(0.0002826641738348934, 0.16475053695418107, 0.030365459844974903)","(-0.0015601624932458865, 0.00945286701827009, 0.006879218703609293)","[0.00028266417980111954, 0.004746188651456373, 0.0012930816809293387]","[-0.026750000193715096, 0.05299999937415123, 0.0]","[0.0, -0.0, 0.5673955571332293]","[-0.06544550508260727, 0.11371785402297974, 0.0]","[0.0, 0.0, -0.23909865161026073]","[0.026750000193715096, 0.05299999937415123, 0.0]","[0.0, 0.0, -0.5679002320498937]","[0.06547614187002182, 0.1136983186006546, 0.0]","[0.0, -0.0, 0.23692975264597774]",0.5679964793767234,0.14422179779587468,"(0.0, 0.0, 0.0, 0.0, 0.0, 0.0)",-0.01476508644186515,-0.8064384424462605,0.013385525276550559,"(0.0, 0.0, 0.0, 0.0, 0.0, 0.0)",-0.007298488437907403,-0.5684739959319488,-0.13771053793259733,"(0.0, 0.0, 0.0, 0.0, 0.0, 0.0)",0.0003844215755489794,0.8048288223281793,-0.00026900004899092127,"(0.0, 0.0, 0.0, 0.0, 0.0, 0.0)",-0.0002862705734012805,True,"(-0.030547911870091413, 0.1852257322946119, 0.0001168360258336072)","(0.999902395697797, 0.00691246771582441, 0.012141534824050237)",-0.0010333523465795064,0.08276010928348804,True,"(0.03073246138605093, 0.1852708370453242, 1.0309377138514871e-05)","(-0.9999232247889788, -0.006874683310915562, 0.010309377138516608)",-0.0005635795038281369,0.0
73,Move,"(0.0, 0.0, 0.0)","(0.0, -0.0, 0.0)","(0.0002585463641137398, 0.16474643636752814, 0.030450511548099874)","(-0.0014346914417800779, 0.008692484549048517, 0.006882271433136535)","[0.000258546370079966, 0.004742088064803446, 0.0013781333840543093]","[-0.026750000193715096, 0.05299999937415123, 0.0]","[0.0, -0.0, 0.5679965245410838]","[-0.06548198312520981, 0.11369459331035614, 0.0]","[0.0, 0.0, -0.23844199368650462]","[0.026750000193715096, 0.05299999937415123, 0.0]","[0.0, 0.0, -0.568474034075249]","[0.06551095843315125, 0.11367609351873398, 0.0]","[0.0, -0.0, 0.23635482911375652]",0.568593533858567,0.14329307564248422,"(0.0, 0.0, 0.0, 0.0, 0.0, 0.0)",-0.0029395792080798306,-0.806444019748459,-0.0013385525276561356,"(0.0, 0.0, 0.0, 0.0, 0.0, 0.0)",-0.0017110425678229324,-0.5690498371227353,-0.13820188578873915,"(0.0, 0.0, 0.0, 0.0, 0.0, 0.0)",-0.0007237245359464443,0.804828934411533,2.6900004898244845e-05,"(0.0, 0.0, 0.0, 0.0, 0.0, 0.0)",-2.4272652326645426e-05,True,"(-0.030632151790365394, 0.18522142733420663, 0.00018462692542357744)","(0.9999027820179892, 0.006912298326361708, 0.01210977475152527)",-0.0009503927582252429,0.0,True,"(0.030808432520617685, 0.1852679900092823, 9.452726239406605e-06)","(-0.9999316613107455, -0.006878857098039197, 0.009452726239406047)",-0.0004852341874621738,0.0
74,Move,"(0.0, 0.0, 0.0)","(0.0, -0.0, 0.0)","(0.0002362701015725959, 0.1647426540292089, 0.030528751444553897)","(-0.0013195201589915584, 0.007989327416743859, 0.0068851471459612235)","[0.00023627010753882204, 0.004738305726484204, 0.0014563732805083322]","[-0.026750000193715096, 0.05299999937415123, 0.0]","[0.0, -0.0, 0.5685935294113673]","[-0.06551821529865265, 0.11367145925760269, 0.0]","[0.0, 0.0, -0.23785049646111558]","[0.026750000193715096, 0.05299999937415123, 0.0]","[0.0, 0.0, -0.5690497768103338]","[0.06554589420557022, 0.1136537566781044, 0.0]","[0.0, -0.0, 0.23577909095566793]",0.5691919762323647,0.14362616971144604,"(0.0, 0.0, 0.0, 0.0, 0.0, 0.0)",0.0006863649417392574,-0.8064434651874535,0.00013309464133631072,"(0.0, 0.0, 0.0, 0.0, 0.0, 0.0)",0.00020062339592371092,-0.5696266661238745,-0.13843896027340022,"(0.0, 0.0, 0.0, 0.0, 0.0, 0.0)",-0.00038613675599719316,0.8048289237097057,-2.568438553806429e-06,"(0.0, 0.0, 0.0, 0.0, 0.0, 0.0)",-3.2063899322629e-05,True,"(-0.0307114354780752, 0.1852152281104648, 0.0002479865712433747)","(0.9999031338814958, 0.006911516163838545, 0.012081133981557603)",-0.0008722911737496039,0.0,True,"(0.03088458609110166, 0.1852650483913972, 8.692375083139702e-06)","(-0.9999385387522245, -0.006881957096643865, 0.008692375083139489)",-0.00040702276537664606,0.0
75,Move,"(0.0, 0.0, 0.0)","(0.0, -0.0, 0.0)","(0.0002157920924852304, 0.1647391707594396, 0.030600717138916635)","(-0.0012135744288577512, 0.007342377245492027, 0.006887673421278109)","[0.00021579209845145656, 0.0047348224567149155, 0.00152833897487107]","[-0.026750000193715096, 0.05299999937415123, 0.0]","[0.0, -0.0, 0.5691920604758506]","[-0.06555451452732086, 0.11364824324846268, 0.0]","[0.0, 0.0, -0.23725148878938418]","[0.026750000193715096, 0.05299999937415123, 0.0]","[0.0, 0.0, -0.5696267263484468]","[0.06558087468147278, 0.11363136768341064, 0.0]","[0.0, -0.0, 0.23520225772475728]",0.5697905771415726,0.1436642182098806,"(0.0, 0.0, 0.0, 0.0, 0.0, 0.0)",7.606343044831632e-05,-0.8064435205035545,-1.327586423603328e-05,"(0.0, 0.0, 0.0, 0.0, 0.0, 0.0)",-8.862508866358406e-06,-0.5702044634709317,-0.13867136329374039,"(0.0, 0.0, 0.0, 0.0, 0.0, 0.0)",-0.00037579127356815765,0.8048289252223556,3.630359830341772e-07,"(0.0, 0.0, 0.0, 0.0, 0.0, 0.0)",-2.8009867393376975e-05,True,"(-0.03079127418228813, 0.1852094364283377, 0.00030608939825987544)","(0.9999034870975645, 0.006911035806188795, 0.012052139818980411)",-0.0007935073503981914,0.0,True,"(0.030960878439809908, 0.1852620620871962, 7.98924242474281e-06)","(-0.9999443837179508, -0.006884873013065495, 0.007989242424744834)",-0.0003289892590867379,0.0
76,Move,"(0.0, 0.0, 0.0)","(0.0, -0.0, 0.0)","(0.00019696784242864877, 0.1647359636172171, 0.030666912639842957)","(-0.0011161345896219138, 0.006747202596184919, 0.006889897134567275)","[0.00019696784839487493, 0.004731615314492399, 0.0015945344757973927]","[-0.026750000193715096, 0.05299999937415123, 0.0]","[0.0, -0.0, 0.5697906390318076]","[-0.06559081375598907, 0.11362500488758087, 0.0]","[0.0, 0.0, -0.23665293781771893]","[0.026750000193715096, 0.05299999937415123, 0.0]","[0.0, 0.0, -0.5702044195484117]","[0.06561589986085892, 0.11360892653465271, 0.0]","[0.0, -0.0, 0.2346244782383498]",0.570389411100528,0.1437201501492966,"(0.0, 0.0, 0.0, 0.0, 0.0, 0.0)",0.00011995397269387526,-0.8064435151412841,1.2869448956036391e-06,"(0.0, 0.0, 0.0, 0.0, 0.0, 0.0)",1.0719851554694972e-05,-0.5707831895167548,-0.1388942509975326,"(0.0, 0.0, 0.0, 0.0, 0.0, 0.0)",-0.00036223376726351135,0.804828925502763,6.729776723988251e-08,"(0.0, 0.0, 0.0, 0.0, 0.0, 0.0)",-2.7326512378216714e-05,True,"(-0.030871029822913246, 0.1852038041700808, 0.000359468702194418)","(0.9999038387713771, 0.006910620982916531, 0.012023166300687086)",-0.0007146894450019072,0.0,True,"(0.03103729716213932, 0.185259026597696, 7.3423112737929775e-06)","(-0.9999493255798576, -0.006887433306148346, 0.007342311273793318)",-0.0002511016686493089,0.0
77,Move,"(0.0, 0.0, 0.0)","(0.0, -0.0, 0.0)","(0.00017944174782951426, 0.16473301294841572, 0.03072781911930223)","(-0.0010276146359313773, 0.006192349449125092, 0.006892265555287222)","[0.00017944175379574042, 0.004728664645691022, 0.0016554409552566665]","[-0.026750000193715096, 0.05299999937415123, 0.0]","[0.0, -0.0, 0.5703894087725192]","[-0.06562711298465729, 0.11360173672437668, 0.0]","[0.0, 0.0, -0.23605411754143701]","[0.026750000193715096, 0.05299999937415123, 0.0]","[0.0, 0.0, -0.5707832626356104]","[0.06565096974372864, 0.1135864183306694, 0.0]","[0.0, -0.0, 0.23404576563786395]",0.5709885283730716,0.14378814541046045,"(0.0, 0.0, 0.0, 0.0, 0.0, 0.0)",0.0001359311225971244,-0.8064435156775112,-1.286944897316289e-07,"(0.0, 0.0, 0.0, 0.0, 0.0, 0.0)",1.029270389617294e-05,-0.5713627882068315,-0.13910368561841152,"(0.0, 0.0, 0.0, 0.0, 0.0, 0.0)",-0.0003425143928506485,0.8048289254747222,-6.729776735881356e-09,"(0.0, 0.0, 0.0, 0.0, 0.0, 0.0)",-2.5833985379110063e-05,True,"(-0.030950765025008126, 0.18519833527719093, 0.0004085037999447871)","(0.9999041893981558, 0.0069102635273331015, 0.011994177003850527)",-0.0006357889184897046,0.0,True,"(0.031113837804351854, 0.18525594231921794, 6.747151402188538e-06)","(-0.9999535030078176, -0.006889685794775897, 0.00674715140218706)",-0.00017332269104284836,0.0
78,Move,"(0.0, 0.0, 0.0)","(0.0, -0.0, 0.0)","(0.00016332384209258427, 0.1647302913958811, 0.03078384448867718)","(-0.0009461616046023852, 0.0056816715381454224, 0.006894435450093536)","[0.00016332384805881043, 0.0047259430931564095, 0.001711466324631615]","[-0.026750000193715096, 0.05299999937415123, 0.0]","[0.0, -0.0, 0.5709885316084021]","[-0.0656634122133255, 0.1135784313082695, 0.0]","[0.0, 0.0, -0.235454988787103]","[0.026750000193715096, 0.05299999937415123, 0.0]","[0.0, 0.0, -0.5713627684640596]","[0.06568607687950134, 0.11356386542320251, 0.0]","[0.0, -0.0, 0.23346615033590876]",0.5715879594354693,0.14386345497544867,"(0.0, 0.0, 0.0, 0.0, 0.0, 0.0)",0.00014685874074995224,-0.8064435156238885,1.2869449506069517e-08,"(0.0, 0.0, 0.0, 0.0, 0.0, 0.0)",1.126592054240685e-05,-0.5719432159303431,-0.1393026536428039,"(0.0, 0.0, 0.0, 0.0, 0.0, 0.0)",-0.0003271918895635723,0.8048289254775263,6.729790058557228e-10,"(0.0, 0.0, 0.0, 0.0, 0.0, 0.0)",-2.468360027561366e-05,True,"(-0.031030483404405396, 0.18519302190561726, 0.00045331398199628464)","(0.9999045358815778, 0.0069103753918964145, 0.011965192659939991)",-0.0005568226421409778,0.0,True,"(0.0311912365500295, 0.185249869230279, 7.191573135943114e-05)","(-0.9999135658596173, -0.006886632902833722, 0.011199781121366808)",-9.529044498097799e-05,0.0
79,Move,"(0.0, 0.0, 0.0)","(0.0, -0.0, 0.0)","(0.00014850750755750347, 0.16472778352537323, 0.030835379677388065)","(-0.0008712713218720158, 0.005211901241969843, 0.0068964135245579775)","[0.00014850751352372962, 0.0047234352226485365, 0.0017630015133425006]","[-0.026750000193715096, 0.05299999937415123, 0.0]","[0.0, -0.0, 0.5715879267956178]","[-0.06569971889257431, 0.11355509608983994, 0.0]","[0.0, 0.0, -0.23485554695992217]","[0.026750000193715096, 0.05299999937415123, 0.0]","[0.0, 0.0, -0.5719432328666545]","[0.06572122871875763, 0.11354125291109085, 0.0]","[0.0, -0.0, 0.23288571733723773]",0.5721877225831727,0.1439431554488451,"(0.0, 0.0, 0.0, 0.0, 0.0, 0.0)",0.0001533083284103575,-0.8064435156292508,-1.286943884793314e-09,"(0.0, 0.0, 0.0, 0.0, 0.0, 0.0)",1.1731553016580635e-05,-0.5725244306580068,-0.13949153463930042,"(0.0, 0.0, 0.0, 0.0, 0.0, 0.0)",-0.0003124337982216928,0.8048289254772458,-6.729816703909819e-11,"(0.0, 0.0, 0.0, 0.0, 0.0, 0.0)",-2.3584353354434725e-05,True,"(-0.031110196308514804, 0.1851878364743974, 0.0004944614470435705)","(0.9999048812278072, 0.006910558043031382, 0.011936192204342477)",-0.00047778015467815556,0.0,True,"(0.03126883295915252, 0.18524317827922893, 0.00014420590695900584)","(-0.9999138678055025, -0.006888756281474232, 0.011171481868316869)",-1.7212691784084194e-05,0.0
80,Move,"(0.0, 0.0, 0.0)","(0.0, -0.0, 0.0)","(0.00013488742146519294, 0.16472547237741234, 0.03088278510684822)","(-0.0008024184937448932, 0.004779770359533003, 0.006898227613513583)","[0.0001348874274314191, 0.004721124074687638, 0.001810406942802656]","[-0.026750000193715096, 0.05299999937415123, 0.0]","[0.0, -0.0, 0.5721877458326323]","[-0.06573602557182312, 0.11353172361850739, 0.0]","[0.0, 0.0, -0.23425577701146857]","[0.026750000193715096, 0.05299999937415123, 0.0]","[0.0, 0.0, -0.5725244607693042]","[0.0657564029097557, 0.1135185956954956, 0.0]","[0.0, -0.0, 0.23230448596587336]",0.5727878411408468,0.14402845384176982,"(0.0, 0.0, 0.0, 0.0, 0.0, 0.0)",0.00016155004325059763,-0.8064435156287145,1.2869438847971256e-10,"(0.0, 0.0, 0.0, 0.0, 0.0, 0.0)",1.2348243960499345e-05,-0.5731064113444782,-0.13967536475310718,"(0.0, 0.0, 0.0, 0.0, 0.0, 0.0)",-0.00030506657986961527,0.8048289254772739,6.730616064487549e-12,"(0.0, 0.0, 0.0, 0.0, 0.0, 0.0)",-2.30354753432707e-05,True,"(-0.03118990986010936, 0.18518276431692784, 0.0005322456564310315)","(0.999905225647698, 0.006910784479427687, 0.011907173480935477)",-0.0003986646704537765,0.0,True,"(0.0313464603571537, 0.1852367213831497, 0.00021064552138496938)","(-0.9999141701558845, -0.006890762913316243, 0.011143146231721376)",6.085324633693197e-05,0.0
81,Move,"(0.0, 0.0, 0.0)","(0.0, -0.0, 0.0)","(0.0001223666718862643, 0.1647233422050015, 0.030926392211056673)","(-0.0007391164877643818, 0.004382264270546219, 0.006899902198859365)","[0.00012236667785249045, 0.0047189939022768135, 0.0018540140470111079]","[-0.026750000193715096, 0.05299999937415123, 0.0]","[0.0, -0.0, 0.572787847382328]","[-0.06577234715223312, 0.11350831389427185, 0.0]","[0.0, 0.0, -0.23365566750831004]","[0.026750000193715096, 0.05299999937415123, 0.0]","[0.0, 0.0, -0.5731064523113195]","[0.06579162180423737, 0.11349588632583618, 0.0]","[0.0, -0.0, 0.23172251656865256]",0.573388330228249,0.14411738097652624,"(0.0, 0.0, 0.0, 0.0, 0.0, 0.0)",0.0001669000353520989,-0.8064435156287681,-1.2869705301878331e-11,"(0.0, 0.0, 0.0, 0.0, 0.0, 0.0)",1.274751684592711e-05,-0.5736891243094984,-0.13985111160486233,"(0.0, 0.0, 0.0, 0.0, 0.0, 0.0)",-0.0002932457751938794,0.8048289254772711,-6.741274205523951e-13,"(0.0, 0.0, 0.0, 0.0, 0.0, 0.0)",-2.215445740063372e-05,True,"(-0.031269630519361546, 0.18517779221699843, 0.0005669362988074553)","(0.9999055691720802, 0.006911052156911471, 0.01187813523844115)",-0.0003194779324907992,0.0,True,"(0.031424121777110015, 0.18523047585950797, 0.0002717029743920878)","(-0.9999144728294225, -0.00689266344265215, 0.011114774713168829)",0.00013891407898040784,0.0
82,Move,"(0.0, 0.0, 0.0)","(0.0, -0.0, 0.0)","(0.00011085626651547451, 0.16472137851036853, 0.03096650574941733)","(-0.0006809177915244477, 0.004016609401466498, 0.0069014580937200145)","[0.00011085627248170068, 0.00471703020764383, 0.0018941275853717639]","[-0.026750000193715096, 0.05299999937415123, 0.0]","[0.0, -0.0, 0.5733883256670019]","[-0.06580867618322372, 0.11348487436771393, 0.0]","[0.0, 0.0, -0.23305517234965115]","[0.026750000193715096, 0.05299999937415123, 0.0]","[0.0, 0.0, -0.5736891401767651]","[0.06582686305046082, 0.11347312480211258, 0.0]","[0.0, -0.0, 0.23113980304643958]",0.5739892084284339,0.1442107680443781,"(0.0, 0.0, 0.0, 0.0, 0.0, 0.0)",0.00017347157898755651,-0.8064435156287628,1.2869705301454815e-12,"(0.0, 0.0, 0.0, 0.0, 0.0, 0.0)",1.3238099127565147e-05,-0.5742725544209796,-0.14002322675548298,"(0.0, 0.0, 0.0, 0.0, 0.0, 0.0)",-0.0002879590005056853,0.8048289254772715,6.661338190102587e-14,"(0.0, 0.0, 0.0, 0.0, 0.0, 0.0)",-2.1760799288655195e-05,True,"(-0.03134936337512568, 0.18517290804177344, 0.0005987813307962688)","(0.9999059118210823, 0.006911359307790273, 0.011849076663120012)",-0.00024022202136539188,0.0,True,"(0.03150181810622253, 0.1852244208948019, 0.00032780952807580106)","(-0.9999147757393348, -0.006894468287372526, 0.011086368440122151)",0.00021697402709835902,0.0
83,Move,"(-1e-05, 0.0, -0.0)","(0.0, 0.018053685782629343, 0.0)","(0.000100274479533206, 0.16471956795099996, 0.031003405964295662)","(-0.0006274109820772251, 0.0036802541797519702, 0.006902912972867721)","[0.00010027448549943217, 0.0047152196482752595, 0.0019310278002500972]","[-0.026750000193715096, 0.05299999937415123, 0.0]","[0.0, -0.0, 0.5739891909129364]","[-0.06584501266479492, 0.11346139013767242, 0.0]","[0.0, 0.0, -0.23245430434270373]","[0.026750000193715096, 0.05299999937415123, 0.0]","[0.0, 0.0, -0.5742725243045154]","[0.06586214154958725, 0.1134503111243248, 0.0]","[0.0, -0.0, 0.23055638114997712]",0.5745904863187821,0.14430669368354052,"(0.0, 0.0, 0.0, 0.0, 0.0, 0.0)",0.00017722316855992774,-0.8064435156287634,-1.2789769243681803e-13,"(0.0, 0.0, 0.0, 0.0, 0.0, 0.0)",1.351833067484765e-05,-0.5748566790752938,-0.1401899170354243,"(0.0, 0.0, 0.0, 0.0, 0.0, 0.0)",-0.00028003841528803126,0.8048289254772715,-7.993605777301127e-15,"(0.0, 0.0, 0.0, 0.0, 0.0, 0.0)",-2.1170661523030807e-05,True,"(-0.0314291137172749, 0.18516810059133004, 0.0006280088322995111)","(0.9999062536172538, 0.006911704093270329, 0.011819996769666276)",-0.00016089792585516683,0.0,True,"(0.03157955224362935, 0.1852185372438558, 0.00037936189758325104)","(-0.9999150788156548, -0.006896186791202686, 0.011057927691196663)",0.00029503902034136166,0.0
84,Move,"(-0.00019, 0.0, -0.0)","(0.0, -0.0, 0.0)","(9.054624921504016e-05, 0.16471789824855942, 0.031037350563211538)","(-0.0005782178144482587, 0.0033708513058437447, 0.006904281847247373)","[9.054625518126633e-05, 0.004713549945834727, 0.0019649723991659734]","[-0.026750000193715096, 0.05299999937415123, 0.0]","[0.0, -0.0, 0.574590534185568]","[-0.06588135659694672, 0.11343787610530853, 0.0]","[0.0, 0.0, -0.2318530218662727]","[0.026750000193715096, 0.05299999937415123, 0.0]","[0.0, 0.0, -0.5748566826505203]","[0.06589744240045547, 0.11342746019363403, 0.0]","[0.0, -0.0, 0.22997223068648878]",0.575314898712681,0.1738589745357435,"(0.0, 0.0, 0.0, 0.0, 0.0, 0.0)",0.04342739018944614,-0.8064435156287634,1.3322662319458249e-14,"(0.0, 0.0, 0.0, 0.0, 0.0, 0.0)",0.003239728037897298,-0.575315897818032,-0.11021249825718132,"(0.0, 0.0, 0.0, 0.0, 0.0, 0.0)",0.043979874846257115,0.8048289254772715,7.623296525288703e-21,"(0.0, 0.0, 0.0, 0.0, 0.0, 0.0)",0.0032803591371668704,True,"(-0.031508885541723486, 0.18516335958542574, 0.0006548286220866489)","(0.9999065945788568, 0.006912084622558388, 0.011790894956894232)",-8.150715849905694e-05,0.0,True,"(0.03165732569598388, 0.1852128072419585, 0.00042672504282480287)","(-0.9999153819905736, -0.006897827319258663, 0.011029453155934269)",0.00037311332345552815,0.0
85,Move,"(-0.00039, 0.0, 0.00023999999999999998)","(0.0, 0.051312680008633295, 0.0)","(8.160262668261525e-05, 0.16471635810475063, 0.031068576539288514)","(-0.0005329905428217945, 0.0030862414287208158, 0.006905577467313426)","[8.160263264884142e-05, 0.004712009802025935, 0.001996198375242949]","[-0.026750000193715096, 0.05299999937415123, 0.0]","[0.0, -0.0, 0.5753149549069703]","[-0.06592512875795364, 0.11340951174497604, 0.0]","[0.0, 0.0, -0.23112861077982186]","[0.026750000193715096, 0.05299999937415123, 0.0]","[0.0, 0.0, -0.5753159370368244]","[0.06592518836259842, 0.11340947449207306, 0.0]","[0.0, -0.0, 0.2295130148167787]",0.5759461556247332,0.15150165889252326,"(0.0, 0.0, 0.0, 0.0, 0.0, 0.0)",-0.03278264681638921,-0.8064435156287634,1.0164395367051604e-20,"(0.0, 0.0, 0.0, 0.0, 0.0, 0.0)",-0.002444959688271855,-0.5758724513151097,-0.1335728392986189,"(0.0, 0.0, 0.0, 0.0, 0.0, 0.0)",-0.03432709919915331,0.8048289254772715,1.0164395367051604e-20,"(0.0, 0.0, 0.0, 0.0, 0.0, 0.0)",-0.0025607750354031864,True,"(-0.03160489869965424, 0.1851579666773684, 0.0006792492916813631)","(0.99990700465904, 0.006912496025749508, 0.01175582546997245)",1.4170851212744887e-05,0.0,True,"(0.0317185383510397, 0.18520795707428078, 0.00047040802545663703)","(-0.9999156180357653, -0.006899393372242732, 0.011007051342143559)",0.00043460395142845646,0.0
86,Move,"(-0.00063, 0.0, 0.00032)","(0.0, 0.1033252370473163, 0.0)","(7.338027137538059e-05, 0.16471493712373317, 0.031097301843362943)","(-0.0004914094588512456, 0.0028244381194952196, 0.00690681066534327)","[7.338027734160676e-05, 0.004710588821008471, 0.002024923679317378]","[-0.026750000193715096, 0.05299999937415123, 0.0]","[0.0, -0.0, 0.5759461446273444]","[-0.0659632533788681, 0.11338476836681366, 0.0]","[0.0, 0.0, -0.23049735268647517]","[0.026750000193715096, 0.05299999937415123, 0.0]","[0.0, 0.0, -0.5758724628680187]","[0.06595880538225174, 0.11338765919208527, 0.0]","[0.0, -0.0, 0.22895645359036457]",0.5769581799613777,0.24288584079468806,"(0.0, 0.0, 0.0, 0.0, 0.0, 0.0)",0.13421573209392157,-0.8064435156287634,1.9905274260476058e-20,"(0.0, 0.0, 0.0, 0.0, 0.0, 0.0)",0.01001203749604997,-0.5760143658118752,-0.03405947922372346,"(0.0, 0.0, 0.0, 0.0, 0.0, 0.0)",0.14607973779446926,0.8048289254772715,-1.0587911840678754e-20,"(0.0, 0.0, 0.0, 0.0, 0.0, 0.0)",0.010896437309398065,True,"(-0.03168857536703983, 0.18515315004617774, 0.0007017746155869958)","(0.999907360407331, 0.006912941934443479, 0.011725264903404038)",9.75442913930784e-05,0.0,True,"(0.03179257476401491, 0.18520266952979275, 0.0005104118211596304)","(-0.999915905968915, -0.006900899081927495, 0.010979917223052242)",0.0005088896745676981,0.0
87,Move,"(-0.00087, 0.0, 0.00049)","(0.0, 0.13771171397010862, 0.0)","(6.582098912934865e-05, 0.164713625740588, 0.031123726920033682)","(-0.00045318062935245076, 0.002583614041329177, 0.006907990645878555)","[6.582099509557482e-05, 0.004709277437863313, 0.0020513487559881173]","[-0.026750000193715096, 0.05299999937415123, 0.0]","[0.0, -0.0, 0.5769581889165283]","[-0.06602434813976288, 0.11334505677223206, 0.0]","[0.0, 0.0, -0.22948534694665354]","[0.026750000193715096, 0.05299999937415123, 0.0]","[0.0, 0.0, -0.57601438032567]","[0.0659673735499382, 0.11338209360837936, 0.0]","[0.0, -0.0, 0.22881455817072932]",0.5782804533045117,0.31734560235216214,"(0.0, 0.0, 0.0, 0.0, 0.0, 0.0)",0.10939021160713781,-0.8064435156287634,3.3881317890172014e-21,"(0.0, 0.0, 0.0, 0.0, 0.0, 0.0)",0.008160716310384977,-0.5757352721962149,0.06698246775846331,"(0.0, 0.0, 0.0, 0.0, 0.0, 0.0)",0.1483493539491557,0.8048289254772715,-5.2992498762597165e-20,"(0.0, 0.0, 0.0, 0.0, 0.0, 0.0)",0.011065976841225126,True,"(-0.031822535324422835, 0.18514609528741577, 0.0007218623468737249)","(0.9999079307470029, 0.006913410406365907, 0.011676248789742098)",0.0002312510587264742,0.0,True,"(0.031811759130108114, 0.18519999708881807, 0.000547723484659972)","(-0.9999159725720019, -0.0069023357103679545, 0.010972946601928562)",0.0005283159104794072,0.0
88,Move,"(-0.0011200000000000001, 0.0, 0.00075)","(0.0, 0.205922671796551, 0.0)","(5.8871309132006864e-05, 0.16471241515537594, 0.031148036118887914)","(-0.0004180338170538042, 0.0023620882215506676, 0.0069091252321440986)","[5.8871315098233034e-05, 0.004708066852651238, 0.002075657954842349]","[-0.026750000193715096, 0.05299999937415123, 0.0]","[0.0, -0.0, 0.5782804987378218]","[-0.06610410660505295, 0.11329307407140732, 0.0]","[0.0, 0.0, -0.22816306684120563]","[0.026750000193715096, 0.05299999937415123, 0.0]","[0.0, 0.0, -0.5757352379432285]","[0.06595052033662796, 0.11339303851127625, 0.0]","[0.0, -0.0, 0.22909361658409536]",0.5797888388475538,0.36201253033009817,"(0.0, 0.0, 0.0, 0.0, 0.0, 0.0)",0.06566642770615229,-0.8064435156287634,-1.1858461261560205e-20,"(0.0, 0.0, 0.0, 0.0, 0.0, 0.0)",0.004899776732848831,-0.5751612479057908,0.1377658297017667,"(0.0, 0.0, 0.0, 0.0, 0.0, 0.0)",0.10394633631552119,0.8048289254772715,-1.6517142471458857e-20,"(0.0, 0.0, 0.0, 0.0, 0.0, 0.0)",0.007753852677139749,True,"(-0.03199745613573225, 0.18513707749425637, 0.0007397807177910666)","(0.9999086734144431, 0.006913902954956529, 0.011612182245284989)",0.0004059629320636126,0.0,True,"(0.03177525581673438, 0.18519998899839493, 0.0005826110765498391)","(-0.9999158147945443, -0.006903710822710688, 0.010986450775355303)",0.0004920493670700105,0.0
89,Move,"(-0.00136, 0.0, 0.0011)","(0.0, 0.23959181839677363, 0.0)","(5.248209636796212e-05, 0.16471129727236059, 0.03117039899118608)","(-0.00038572056945982645, 0.0021583143389938605, 0.006910221075052947)","[5.248210233418829e-05, 0.004706948969635888, 0.002098020827140515]","[-0.026750000193715096, 0.05299999937415123, 0.0]","[0.0, -0.0, 0.579788888638784]","[-0.06619500368833542, 0.11323364078998566, 0.0]","[0.0, 0.0, -0.22665466464303954]","[0.026750000193715096, 0.05299999937415123, 0.0]","[0.0, 0.0, -0.5751611971085009]","[0.06591584533452988, 0.11341553181409836, 0.0]","[0.0, -0.0, 0.22966765435902814]",0.581613925425065,0.4380207786026712,"(0.0, 0.0, 0.0, 0.0, 0.0, 0.0)",0.11169674119204862,-0.8064435156287634,-6.776263578034403e-21,"(0.0, 0.0, 0.0, 0.0, 0.0, 0.0)",0.00833380427092292,-0.573940918323463,0.2928790997586909,"(0.0, 0.0, 0.0, 0.0, 0.0, 0.0)",0.2277842325642725,0.8048289254772715,1.2281977735187355e-20,"(0.0, 0.0, 0.0, 0.0, 0.0, 0.0)",0.016991642926348173,True,"(-0.03219693234638402, 0.18512671938579536, 0.0007558629956127102)","(0.9999095162141961, 0.006914421211825141, 0.0115390711756971)",0.0006052664078639883,0.0,True,"(0.03169973413842809, 0.18520184632840253, 0.0006151452269498365)","(-0.9999154993235584, -0.00690503428652435, 0.011014295893099171)",0.00041675613650262366,0.0
90,Move,"(-0.0016899999999999999, 0.0, 0.00157)","(0.0, 0.2107537431660713, 0.0)","(4.6608196474195086e-05, 0.16471026464400498, 0.031190971481420866)","(-0.0003560124621345566, 0.0019708699462713613, 0.0069112838305523125)","[4.6608202440421257e-05, 0.004705916341280286, 0.0021185933173753016]","[-0.026750000193715096, 0.05299999937415123, 0.0]","[0.0, -0.0, 0.5816139260583794]","[-0.06630486994981766, 0.11316154897212982, 0.0]","[0.0, 0.0, -0.2248295849334718]","[0.026750000193715096, 0.05299999937415123, 0.0]","[0.0, 0.0, -0.573940959193605]","[0.06584209203720093, 0.11346328258514404, 0.0]","[0.0, -0.0, 0.23088804580926792]",0.583570389388654,0.4695513512613643,"(0.0, 0.0, 0.0, 0.0, 0.0, 0.0)",0.04641289219373589,-0.8064435156287634,6.776263578034403e-21,"(0.0, 0.0, 0.0, 0.0, 0.0, 0.0)",0.003464884116006617,-0.5724015425350103,0.3694501892286362,"(0.0, 0.0, 0.0, 0.0, 0.0, 0.0)",0.11250386402562644,0.8048289254772715,-1.1858461261560205e-20,"(0.0, 0.0, 0.0, 0.0, 0.0, 0.0)",0.008393361026982429,True,"(-0.03243820935094464, 0.18511403944748087, 0.0007700614666379446)","(0.9999105298682504, 0.006914962086034085, 0.011450570201678235)",0.0008464114873300206,0.0,True,"(0.031538744041975986, 0.18520751029436064, 0.0006460448961958836)","(-0.9999148360446085, -0.006906303641076339, 0.011073555341485979)",0.00025599968797460206,0.0
91,Move,"(-0.00204, 0.0, 0.002)","(0.0, 0.17193762060171738, 0.0)","(-3.497159315568121e-05, 0.16469212392722915, 0.031209646101622853)","(-0.0003348179009437879, 0.001833697758121872, 0.007862848272140793)","[-3.497158718945504e-05, 0.004687775624504453, 0.0021372679375772884]","[-0.026750000193715096, 0.05299999937415123, 0.0]","[0.0, -0.0, 0.5835704539857572]","[-0.06642249971628189, 0.11308404803276062, 0.0]","[0.0, 0.0, -0.22287316109933525]","[0.026750000193715096, 0.05299999937415123, 0.0]","[0.0, 0.0, -0.5724016458905009]","[0.06574896723031998, 0.11352338641881943, 0.0]","[0.0, -0.0, 0.23242736396521088]",0.5854811528649743,0.4585832343168476,"(0.0, 0.0, 0.0, 0.0, 0.0, 0.0)",-0.01597782099744107,-0.8064435156287634,0.0,"(0.0, 0.0, 0.0, 0.0, 0.0, 0.0)",-0.001188687143068808,-0.5711206732359727,0.307408631769012,"(0.0, 0.0, 0.0, 0.0, 0.0, 0.0)",1.196714446091122,0.8046926790876213,-0.03269913351603561,"(0.0, 0.0, 0.0, 0.0, 0.0, 0.0)",0.6948253354234588,True,"(-0.032696799278122066, 0.18510007935369693, 0.0007827739755831599)","(0.9999116083806764, 0.006915527433469724, 0.011355655238065414)",0.0011048997324054515,0.0,True,"(0.0313355430135306, 0.1852148582819343, 0.0006750790756732185)","(-0.9999139969810356, -0.006907532078169458, 0.011148302202525303)",5.3025513171436946e-05,9.745489769025598
92,Move,"(-0.00252, 0.0, 0.0024100000000000002)","(0.0, 0.13771171397010862, 0.0)","(-0.00013902346592427955, 0.16467356504474898, 0.031226777984780293)","(-0.00031632843120995994, 0.0017160572554265187, 0.00893431186806765)","[-0.0001390234599580534, 0.004669216742024279, 0.002154399820734728]","[-0.026750000193715096, 0.05299999937415123, 0.0]","[0.0, -0.0, 0.585481126976623]","[-0.06653723120689392, 0.11300813406705856, 0.0]","[0.0, 0.0, -0.22096236207490044]","[0.026750000193715096, 0.05299999937415123, 0.0]","[0.0, 0.0, -0.5711206774220335]","[0.0656714141368866, 0.11357329040765762, 0.0]","[0.0, -0.0, 0.23357200560324273]",0.5873180232740343,0.440848898174389,"(0.0, 0.0, 0.0, 0.0, 0.0, 0.0)",-0.02591573352917093,-0.8064435156287634,0.0,"(0.0, 0.0, 0.0, 0.0, 0.0, 0.0)",-0.0019301433735099238,-0.5701086918099021,0.24287554225693925,"(0.0, 0.0, 0.0, 0.0, 0.0, 0.0)",0.7225843073548479,0.8045382396884921,-0.03706545579100399,"(0.0, 0.0, 0.0, 0.0, 0.0, 0.0)",0.4450843469739382,True,"(-0.03295063256766797, 0.18508170484726227, 0.000770186239341607)","(0.99971274871545, 0.007613571737064157, 0.022725615089678672)",0.0012621354123210295,0.0,True,"(0.031176226304547597, 0.18522435507442947, 0.0006990381620992432)","(-0.9999068656399563, -0.007859156034408362, 0.011157675049266194)",-9.38932379121632e-06,6.1782201006502
93,Move,"(-0.00304, 0.0, 0.00281)","(0.0, 0.13771171397010862, 0.0)","(-0.0002213953332091197, 0.16466494146561303, 0.03124241752660425)","(-0.00030027457259303484, 0.0016226978619618187, 0.00964555595076778)","[-0.00022139532724289355, 0.004660593162888332, 0.0021700393625586865]","[-0.026750000193715096, 0.05299999937415123, 0.0]","[0.0, -0.0, 0.5873179952272335]","[-0.06664739549160004, 0.11293494701385498, 0.0]","[0.0, 0.0, -0.21912550083685853]","[0.026750000193715096, 0.05299999937415123, 0.0]","[0.0, 0.0, -0.5701087800281692]","[0.06561009585857391, 0.11361264437437057, 0.0]","[0.0, -0.0, 0.23442954887137493]",0.5890963575061533,0.4268002157085693,"(0.0, 0.0, 0.0, 0.0, 0.0, 0.0)",-0.020509340127812525,-0.8064435156287634,4.141313485715725e-16,"(0.0, 0.0, 0.0, 0.0, 0.0, 0.0)",-0.001527087030979714,-0.5692802811434272,0.19881855995397663,"(0.0, 0.0, 0.0, 0.0, 0.0, 0.0)",0.3843096504874171,0.8043278108507034,-0.05050292106930357,"(0.0, 0.0, 0.0, 0.0, 0.0, 0.0)",0.24159605440733625,True,"(-0.033193489649775976, 0.18506816292493372, 0.0007815460206260953)","(0.9997057096654975, 0.008685062747913823, 0.022650910517431195)",0.0013823508611943897,0.0,True,"(0.031053722433850933, 0.18523286686197188, 0.0007201327872672705)","(-0.9998979856335173, -0.008930654631018652, 0.011147274729536432)",-9.469368647098533e-06,3.4012340706621553
94,Move,"(-0.0035900000000000003, 0.0, 0.00331)","(0.0, 0.1033252370473163, 0.0)","(-0.0003231047317383727, 0.16465213518972704, 0.03125696547473688)","(-0.00028259330615320216, 0.001520132386694943, 0.01054649506952535)","[-0.00032310472577214654, 0.0046477868870023475, 0.0021845873106913147]","[-0.026750000193715096, 0.05299999937415123, 0.0]","[0.0, -0.0, 0.589096462554781]","[-0.06675391644239426, 0.11286390572786331, 0.0]","[0.0, 0.0, -0.21734718062583552]","[0.026750000193715096, 0.05299999937415123, 0.0]","[0.0, 0.0, -0.5692802800705709]","[0.06555987149477005, 0.11364481598138809, 0.0]","[0.0, -0.0, 0.2350475618759781]",0.5909704449178669,0.449780978811253,"(0.0, 0.0, 0.0, 0.0, 0.0, 0.0)",0.033856134854022925,-0.8064435156287634,0.0,"(0.0, 0.0, 0.0, 0.0, 0.0, 0.0)",0.002528084225558749,-0.5683232594446384,0.2296852077093332,"(0.0, 0.0, 0.0, 0.0, 0.0, 0.0)",0.8653972578476897,0.8041944283604657,-0.03201179765702404,"(0.0, 0.0, 0.0, 0.0, 0.0, 0.0)",0.46176649035796036,False,,,,,True,"(0.030959462851697053, 0.1852426636780149, 0.0007389420827819342)","(-0.9998914302185538, -0.00964194905908829, 0.011142737268592513)",-9.610416030553574e-06,6.183981126193623
95,Move,"(-0.0035900000000000003, 0.0, 0.00331)","(0.0, 0.1033252370473163, 0.0)","(-0.00040010825415617466, 0.16464630155925217, 0.031270250823205545)","(-0.0002668449022885208, 0.0014367292597019243, 0.011153523449613347)","[-0.0004001082481899485, 0.00464195325652747, 0.00219787265915998]","[-0.026750000193715096, 0.05299999937415123, 0.0]","[0.0, -0.0, 0.5909704380325216]","[-0.06686603277921677, 0.11278882622718811, 0.0]","[0.0, 0.0, -0.21547306554040918]","[0.026750000193715096, 0.05299999937415123, 0.0]","[0.0, 0.0, -0.5683232199467164]","[0.06550181657075882, 0.11368193477392197, 0.0]","[0.0, -0.0, 0.23587115173551662]",0.5927664709924565,0.4310462579015138,"(0.0, 0.0, 0.0, 0.0, 0.0, 0.0)",-0.02738714934679679,-0.8064435156287634,4.3090260092720767e-17,"(0.0, 0.0, 0.0, 0.0, 0.0, 0.0)",-0.002040017151952842,-0.5675643338772169,0.18214213618115083,"(0.0, 0.0, 0.0, 0.0, 0.0, 0.0)",0.37293788704576225,0.8040115551622747,-0.04388956756583162,"(0.0, 0.0, 0.0, 0.0, 0.0, 0.0)",0.23911927645070383,False,,,,,True,"(0.03084265848233208, 0.18525030374574852, 0.0007569686968175935)","(-0.9998823780488988, -0.010542927171779005, 0.011138974545695023)",-9.362084307457433e-06,3.3539607853778066
96,Move,"(-0.0035900000000000003, 0.0, 0.00331)","(0.0, 0.1033252370473163, 0.0)","(-0.0019969830533604787, 0.1642341391626253, 0.032020914192309284)","(-9.126309371460514e-05, 0.025761155637409158, 0.029432531576245837)","[-0.0019969830473942525, 0.004229790859900606, 0.0029485360282637194]","[-0.026750000193715096, 0.05299999937415123, 0.0]","[0.0, -0.0, 0.5927664667227942]","[-0.06697335094213486, 0.1127166822552681, 0.0]","[0.0, 0.0, -0.213677047182172]","[0.026750000193715096, 0.05299999937415123, 0.0]","[0.0, 0.0, -0.5675643574861421]","[0.06545574963092804, 0.11371132731437683, 0.0]","[0.0, -0.0, 0.2364472442506891]",0.5711352250312597,-5.191499030687236,"(0.0, 0.0, 0.0, 0.0, 0.0, 0.0)",-8.255348893374386,-0.8064435156287634,0.0,"(0.0, 0.0, 0.0, 0.0, 0.0, 0.0)",-0.6157980405881787,-0.546572028981417,5.03815317499199,"(0.0, 0.0, 0.0, 0.0, 0.0, 0.0)",20.88242832516543,0.80306337390104,-0.22756350269634984,"(0.0, 0.0, 0.0, 0.0, 0.0, 0.0)",8.757829541453754,False,,,,,True,"(0.030755561780317672, 0.18525890494598796, 0.0007731128278542926)","(-0.999875809362088, -0.011150011982690175, 0.011137463144501187)",-9.53922265152366e-06,105.21205832204032
97,Move,"(-0.0035900000000000003, 0.0, 0.00331)","(0.0, 0.1033252370473163, 0.0)","(-0.0020835816176744924, 0.1649370298625705, 0.03175573128992355)","(0.012897875614879194, 0.02566383613969134, 0.028889787767954367)","[-0.0020835816117082662, 0.004932681559845803, 0.002683353125877988]","[-0.026750000193715096, 0.05299999937415123, 0.0]","[0.0, -0.0, 0.5711352689959285]","[-0.06567229330539703, 0.11357272416353226, 0.0]","[0.0, 0.0, -0.2353083063088741]","[0.026750000193715096, 0.05299999937415123, 0.0]","[0.0, 0.0, -0.5465720346407557]","[0.06417284160852432, 0.11451040953397751, 0.0]","[0.0, -0.0, 0.2564913377933787]",0.5538227295588376,-4.154998913381312,"(0.0, 0.0, 0.0, 0.0, 0.0, 0.0)",-71.98741178635656,-0.7765230978263576,7.180900272577384,"(0.0, 0.0, 0.0, 0.0, 0.0, 0.0)",-38.33160762610203,-0.5295542044456187,4.084277888591574,"(0.0, 0.0, 0.0, 0.0, 0.0, 0.0)",60.71535094517309,0.7736724638644897,-7.0538184087720515,"(0.0, 0.0, 0.0, 0.0, 0.0, 0.0)",31.41883782501002,True,"(-0.031081543245550916, 0.1850873925099842, 0.002486083018745665)","(0.9987689288719283, 0.02941078522575931, 0.039945368097257954)",-0.003754868361506415,561.269305647787,True,"(0.028045614637018643, 0.18534813109570675, 0.0007731128278542926)","(-0.999875809362088, -0.011150011982690175, 0.011137463144501187)",9.59422863856909e-06,471.34049153858285
