OSUrobotics/InHand-Manipulation/AnalyseData/Data/filt_josh_2v2_g_none_1_save_data.csv
,Phase,human_cube_pos,human_cube_orn,Cube_Pos,Cube_Orn,Cube_pos_in_start_pos,b'l_prox_pin'_link_pos,b'l_prox_pin'_link_orn,b'l_distal_pin'_link_pos,b'l_distal_pin'_link_orn,b'r_prox_pin'_link_pos,b'r_prox_pin'_link_orn,b'r_distal_pin'_link_pos,b'r_distal_pin'_link_orn,b'l_prox_pin'_joint_angle,b'l_prox_pin'_joint_vel,b'l_prox_pin'_joint_react_forces,b'l_prox_pin'_joint_motor_torque,b'l_distal_pin'_joint_angle,b'l_distal_pin'_joint_vel,b'l_distal_pin'_joint_react_forces,b'l_distal_pin'_joint_motor_torque,b'r_prox_pin'_joint_angle,b'r_prox_pin'_joint_vel,b'r_prox_pin'_joint_react_forces,b'r_prox_pin'_joint_motor_torque,b'r_distal_pin'_joint_angle,b'r_distal_pin'_joint_vel,b'r_distal_pin'_joint_react_forces,b'r_distal_pin'_joint_motor_torque,in_contact_l,contact_point_l_dist,contact_normal_l_dist,contact_distance_l_dist,contact_norm_force_l_dist,in_contact_r,contact_point_r_dist,contact_normal_r_dist,contact_distance_r_dist,contact_norm_force_r_dist
0,Open,,,,,,"[-0.026750000193715096, 0.05299999937415123, 0.0]","[0.0, -0.0, 0.42911963056438457]","[-0.056707073003053665, 0.11847192794084549, 0.0]","[0.0, -0.0, 0.45039105429582504]","[0.026750000193715096, 0.05299999937415123, 0.0]","[0.0, 0.0, -0.4289764193204764]","[0.05669769272208214, 0.11847621947526932, 0.0]","[0.0, 0.0, -0.45025571851814855]",0.5441678170851227,27.611554939934045,"(0.0, 0.0, 0.0, 0.0, 0.0, 0.0)",-4.44759405077923,0.019144266012647085,-0.5105137603372556,"(0.0, 0.0, 0.0, 0.0, 0.0, 0.0)",-0.31309363847858035,-0.5440389941346144,-27.61501953876534,"(0.0, 0.0, 0.0, 0.0, 0.0, 0.0)",4.448144808027069,-0.01915135067266845,0.5107026846044919,"(0.0, 0.0, 0.0, 0.0, 0.0, 0.0)",0.31312949345866065,False,,,,,False,,,,
1,Open,,,,,,"[-0.026750000193715096, 0.05299999937415123, 0.0]","[0.0, -0.0, 0.8983214686784933]","[-0.08307433128356934, 0.09785052388906479, 0.0]","[0.0, -0.0, 0.9108819698249412]","[0.026750000193715096, 0.05299999937415123, 0.0]","[0.0, 0.0, -0.8982371197662743]","[0.0830705463886261, 0.09785527735948563, 0.0]","[0.0, 0.0, -0.9108023202037385]",0.9655290545479623,16.129827700889184,"(0.0, 0.0, 0.0, 0.0, 0.0, 0.0)",-2.608510457452871,0.011304497637807977,-0.30145327034154606,"(0.0, 0.0, 0.0, 0.0, 0.0, 0.0)",-0.18678019531077908,-0.9654531329157218,-16.131853521172594,"(0.0, 0.0, 0.0, 0.0, 0.0, 0.0)",2.60883512599667,-0.011308681058703994,0.3015648282321065,"(0.0, 0.0, 0.0, 0.0, 0.0, 0.0)",0.18680210025389385,False,,,,,False,,,,
2,Open,,,,,,"[-0.026750000193715096, 0.05299999937415123, 0.0]","[0.0, -0.0, 1.1741944283651782]","[-0.09316128492355347, 0.08081261068582535, 0.0]","[0.0, -0.0, 1.1816112280342423]","[0.026750000193715096, 0.05299999937415123, 0.0]","[0.0, 0.0, -1.1741446690701827]","[0.09315989911556244, 0.08081591129302979, 0.0]","[0.0, 0.0, -1.1815643119569732]",1.2141223950675137,9.582717980970411,"(0.0, 0.0, 0.0, 0.0, 0.0, 0.0)",-1.566594992367831,0.006675192810149232,-0.17800514160397932,"(0.0, 0.0, 0.0, 0.0, 0.0, 0.0)",-0.11329787118344785,-1.2140776892842056,-9.583921137352123,"(0.0, 0.0, 0.0, 0.0, 0.0, 0.0)",1.566790308868891,-0.006677663078354121,0.1780710154227766,"(0.0, 0.0, 0.0, 0.0, 0.0, 0.0)",0.11331132548769854,False,,,,,False,,,,
3,Open,,,,,,"[-0.026750000193715096, 0.05299999937415123, 0.0]","[0.0, -0.0, 1.337422599908487]","[-0.09679820388555527, 0.069650799036026, 0.0]","[0.0, -0.0, 1.341802240600705]","[0.026750000193715096, 0.05299999937415123, 0.0]","[0.0, 0.0, -1.3373935010497093]","[0.09679771959781647, 0.06965284049510956, 0.0]","[0.0, 0.0, -1.3417745748308543]",1.3608861859844497,5.63125112679965,"(0.0, 0.0, 0.0, 0.0, 0.0, 0.0)",-0.9227968999123518,0.003941634602465021,-0.10511025606573396,"(0.0, 0.0, 0.0, 0.0, 0.0, 0.0)",-0.06711493445237729,-1.360859910394858,-5.631958377219917,"(0.0, 0.0, 0.0, 0.0, 0.0, 0.0)",0.9229121714364041,-0.003943093271137326,0.10514915389699532,"(0.0, 0.0, 0.0, 0.0, 0.0, 0.0)",0.06712296635595605,False,,,,,False,,,,
4,Open,,,,,,"[-0.026750000193715096, 0.05299999937415123, 0.0]","[0.0, -0.0, 1.433340417582614]","[-0.09807088226079941, 0.06286568194627762, 0.0]","[0.0, -0.0, 1.435926710678358]","[0.026750000193715096, 0.05299999937415123, 0.0]","[0.0, 0.0, -1.4333233494124675]","[0.09807071089744568, 0.06286691129207611, 0.0]","[0.0, 0.0, -1.435910326708968]",1.4471279012605536,3.30897554970189,"(0.0, 0.0, 0.0, 0.0, 0.0, 0.0)",-0.5427795369014742,0.0023274958164095708,-0.062066555104255156,"(0.0, 0.0, 0.0, 0.0, 0.0, 0.0)",-0.03960444627738313,-1.4471124587012973,-3.30939124445761,"(0.0, 0.0, 0.0, 0.0, 0.0, 0.0)",0.5428474212252811,-0.0023283571456738806,0.06208952388463673,"(0.0, 0.0, 0.0, 0.0, 0.0, 0.0)",0.039609207157766106,False,,,,,False,,,,
5,Open,,,,,,"[-0.026750000193715096, 0.05299999937415123, 0.0]","[0.0, -0.0, 1.4897019508130835]","[-0.09851337969303131, 0.05883239582180977, 0.0]","[0.0, -0.0, 1.4912292304794907]","[0.026750000193715096, 0.05299999937415123, 0.0]","[0.0, 0.0, -1.4896919986652606]","[0.09851332753896713, 0.05883311852812767, 0.0]","[0.0, 0.0, -1.4912196151911818]",1.4978033294956328,1.944320795710432,"(0.0, 0.0, 0.0, 0.0, 0.0, 0.0)",-0.3191156567518843,0.0013743630046316876,-0.03664968012351168,"(0.0, 0.0, 0.0, 0.0, 0.0, 0.0)",-0.02332793318784059,-1.4977942539354006,-1.9445651097990244,"(0.0, 0.0, 0.0, 0.0, 0.0, 0.0)",0.31915559930694093,-0.00137487161094897,0.03666324295863919,"(0.0, 0.0, 0.0, 0.0, 0.0, 0.0)",0.02333074476762375,False,,,,,False,,,,
6,Open,,,,,,"[-0.026750000193715096, 0.05299999937415123, 0.0]","[0.0, -0.0, 1.5228191710342938]","[-0.09866715222597122, 0.05645303055644035, 0.0]","[0.0, -0.0, 1.523720862072974]","[0.026750000193715096, 0.05299999937415123, 0.0]","[0.0, 0.0, -1.5228134366681847]","[0.09866712987422943, 0.05645345523953438, 0.0]","[0.0, 0.0, -1.5237153864848207]",1.5275793580568398,1.142441491226993,"(0.0, 0.0, 0.0, 0.0, 0.0, 0.0)",-0.1875684235545275,0.0008115476106049652,-0.021641269616132414,"(0.0, 0.0, 0.0, 0.0, 0.0, 0.0)",-0.01372604322869241,-1.527574024456994,-1.1425850754234725,"(0.0, 0.0, 0.0, 0.0, 0.0, 0.0)",0.18759191333511144,-0.0008118479375492575,0.021649278334646888,"(0.0, 0.0, 0.0, 0.0, 0.0, 0.0)",0.013727700066628237,False,,,,,False,,,,
7,Close,,,"(-1.8213889441141398e-12, 0.16001454874197946, 0.010828551348521245)","(-0.00046287361524086854, -5.794822739031051e-11, -7.337959187673562e-15)",,"[-0.026750000193715096, 0.05299999937415123, 0.0]","[0.0, -0.0, 1.2893384579261824]","[-0.09591691195964813, 0.07299846410751343, 0.0]","[0.0, -0.0, 1.0459985223050663]","[0.026750000193715096, 0.05299999937415123, 0.0]","[0.0, 0.0, -1.2893349769338789]","[0.09591684490442276, 0.07299870252609253, 0.0]","[0.0, 0.0, -1.0459952101310541]",1.2192621320929473,-16.818331410826993,"(0.0, 0.0, 0.0, 0.0, 0.0, 0.0)",2.9043641361742303,-0.3090059544796977,-15.759841213874733,"(0.0, 0.0, 0.0, 0.0, 0.0, 0.0)",0.37257993909132237,-1.219258993510956,16.81824701407704,"(0.0, 0.0, 0.0, 0.0, 0.0, 0.0)",-2.904350583756822,0.30900577414124053,15.759846022900252,"(0.0, 0.0, 0.0, 0.0, 0.0, 0.0)",-0.3725790815720578,False,,,,,False,,,,
8,Close,,,"(-2.4185626566556435e-12, 0.16001195974881022, 0.017852074029266845)","(-0.00033325906052880113, -7.397927472155015e-11, -1.0413335693785441e-11)",,"[-0.026750000193715096, 0.05299999937415123, 0.0]","[0.0, -0.0, 1.0047670310861245]","[-0.08752065896987915, 0.09161251783370972, 0.0]","[0.0, -0.0, 0.4917616978362355]","[0.026750000193715096, 0.05299999937415123, 0.0]","[0.0, 0.0, -1.0047648479653633]","[0.08752058446407318, 0.09161264449357986, 0.0]","[0.0, 0.0, -0.49175970288101784]",0.9635947937149378,-9.881293649659469,"(0.0, 0.0, 0.0, 0.0, 0.0, 0.0)",1.7388647967399524,-0.5517046533845501,-9.28787590974533,"(0.0, 0.0, 0.0, 0.0, 0.0, 0.0)",0.22676138335199125,-0.963592945268249,9.881243921517886,"(0.0, 0.0, 0.0, 0.0, 0.0, 0.0)",-1.73885674932275,0.551704545318445,9.287878791508133,"(0.0, 0.0, 0.0, 0.0, 0.0, 0.0)",-0.22676084989589002,False,,,,,False,,,,
9,Close,,,"(-3.3338818935924564e-12, 0.16000850673676864, 0.02248044092004115)","(-0.00022346847222235797, -1.0248160998129262e-10, -1.0815665823160981e-11)",,"[-0.026750000193715096, 0.05299999937415123, 0.0]","[0.0, -0.0, 0.8367183333687704]","[-0.08020630478858948, 0.10123301297426224, 0.0]","[0.0, -0.0, 0.16523490721238698]","[0.026750000193715096, 0.05299999937415123, 0.0]","[0.0, 0.0, -0.8367171592934525]","[0.0802062526345253, 0.10123307257890701, 0.0]","[0.0, 0.0, -0.16523376874930354]",0.8126315081524509,-5.780834122584115,"(0.0, 0.0, 0.0, 0.0, 0.0, 0.0)",1.0216682118927956,-0.694335080777043,-5.484397845945523,"(0.0, 0.0, 0.0, 0.0, 0.0, 0.0)",0.13532442549534365,-0.8126304215793787,5.780804882641135,"(0.0, 0.0, 0.0, 0.0, 0.0, 0.0)",-1.0216634570773744,0.6943350169650887,5.484399547597635,"(0.0, 0.0, 0.0, 0.0, 0.0, 0.0)",-0.1353241018470503,False,,,,,False,,,,
10,Close,,,"(-4.756237424302428e-12, 0.16000633612124995, 0.02553107798550913)","(-0.0001544426077524551, -1.4768478333153182e-10, -1.0841249699388454e-11)",,"[-0.026750000193715096, 0.05299999937415123, 0.0]","[0.0, -0.0, 0.7384158093879404]","[-0.0752144381403923, 0.10624658316373825, 0.0]","[0.0, 0.0, -0.026647482630946993]","[0.026750000193715096, 0.05299999937415123, 0.0]","[0.0, 0.0, -0.7384150993108747]","[0.07521440088748932, 0.10624661296606064, 0.0]","[0.0, -0.0, 0.0266481512611544]",0.7243281679134038,-3.381022723431993,"(0.0, 0.0, 0.0, 0.0, 0.0, 0.0)",0.5991963895787833,-0.7785569218480362,-3.238482084052369,"(0.0, 0.0, 0.0, 0.0, 0.0, 0.0)",0.08022683176747399,-0.724327529259068,3.38100553427044,"(0.0, 0.0, 0.0, 0.0, 0.0, 0.0)",-0.5991935865780345,0.7785568841677152,3.238483088860928,"(0.0, 0.0, 0.0, 0.0, 0.0, 0.0)",-0.08022663808889016,False,,,,,False,,,,
11,Close,,,"(-5.9013823821360114e-12, 0.1600051062119302, 0.027541913128765336)","(-0.00011532791709327964, -1.8412603069616307e-10, -1.0834943567922288e-11)",,"[-0.026750000193715096, 0.05299999937415123, 0.0]","[0.0, -0.0, 0.6809258046827094]","[-0.07207491248846054, 0.10894329845905304, 0.0]","[0.0, 0.0, -0.1393953902006137]","[0.026750000193715096, 0.05299999937415123, 0.0]","[0.0, 0.0, -0.6809253715924767]","[0.07207489013671875, 0.10894331336021423, 0.0]","[0.0, -0.0, 0.13939579155515333]",0.6726879242228981,-1.9770920964296763,"(0.0, 0.0, 0.0, 0.0, 0.0, 0.0)",0.3510667013896806,-0.8282890767820469,-1.912291285812084,"(0.0, 0.0, 0.0, 0.0, 0.0, 0.0)",0.04738342111044159,-0.6726875488641428,1.9770819928159196,"(0.0, 0.0, 0.0, 0.0, 0.0, 0.0)",-0.3510650511390458,0.8282890545321941,1.912291879141491,"(0.0, 0.0, 0.0, 0.0, 0.0, 0.0)",-0.047383306102458174,False,,,,,False,,,,
12,Close,,,"(-6.03970289105181e-12, 0.16000443815418697, 0.02886736854020541)","(-9.408070119531676e-05, -1.8854687578900374e-10, -1.0827611178155505e-11)",,"[-0.026750000193715096, 0.05299999937415123, 0.0]","[0.0, -0.0, 0.6473095928658926]","[-0.07016905397176743, 0.11043506115674973, 0.0]","[0.0, 0.0, -0.2056409550352213]","[0.026750000193715096, 0.05299999937415123, 0.0]","[0.0, 0.0, -0.6473093289135643]","[0.07016903907060623, 0.11043506860733032, 0.0]","[0.0, -0.0, 0.20564116254968767]",0.6424929440851186,-1.155980032922517,"(0.0, 0.0, 0.0, 0.0, 0.0, 0.0)",0.20556316304401323,-0.8576554169490309,-1.1291888813591768,"(0.0, 0.0, 0.0, 0.0, 0.0, 0.0)",0.027924254287605633,-0.6424927234817838,1.155974094569056,"(0.0, 0.0, 0.0, 0.0, 0.0, 0.0)",-0.20556219220418104,0.8576554038107153,1.1291892317142604,"(0.0, 0.0, 0.0, 0.0, 0.0, 0.0)",-0.027924186298176158,False,,,,,False,,,,
13,Close,,,"(-5.458466703241019e-12, 0.16000408679818567, 0.02974104741200441)","(-8.290571861137481e-05, -1.6980997303044858e-10, -1.0873699351406385e-11)",,"[-0.026750000193715096, 0.05299999937415123, 0.0]","[0.0, -0.0, 0.6276551916032123]","[-0.06903189420700073, 0.11127728223800659, 0.0]","[0.0, 0.0, -0.24456250172545424]","[0.026750000193715096, 0.05299999937415123, 0.0]","[0.0, 0.0, -0.6276550782162392]","[0.06903188675642014, 0.11127728968858719, 0.0]","[0.0, -0.0, 0.2445626348345024]",0.6248393116865326,-0.6758215992510479,"(0.0, 0.0, 0.0, 0.0, 0.0, 0.0)",0.12032010291826827,-0.8749959471542333,-0.6667747425537788,"(0.0, 0.0, 0.0, 0.0, 0.0, 0.0)",0.01643543007918317,-0.6248391820375996,0.6758181091630631,"(0.0, 0.0, 0.0, 0.0, 0.0, 0.0)",-0.12031953202770804,0.8749959393961892,0.6667749494349549,"(0.0, 0.0, 0.0, 0.0, 0.0, 0.0)",-0.016435389989435705,False,,,,,False,,,,
14,Move,,,"(-0.0006287918120668672, 0.16326386035769108, 0.030010010075310366)","(0.0021986045251673634, 0.001835370988880286, 0.0013677521009837948)","[0.0, 0.0, 0.0]","[-0.026750000193715096, 0.05299999937415123, 0.0]","[0.0, -0.0, 0.5689645039853657]","[-0.06554071605205536, 0.11365707218647003, 0.0]","[0.0, 0.0, -0.24184999755640577]","[0.026750000193715096, 0.05299999937415123, 0.0]","[0.0, 0.0, -0.5689569557174315]","[0.06554026156663895, 0.11365736275911331, 0.0]","[0.0, -0.0, 0.23986046847900283]",0.5548212703196277,-3.3943803582466856,"(0.0, 0.0, 0.0, 0.0, 0.0, 0.0)",-65.13373877605368,-0.7882327738371468,5.4196160947533984,"(0.0, 0.0, 0.0, 0.0, 0.0, 0.0)",-35.28731546361928,-0.5549050742811549,3.372448440662585,"(0.0, 0.0, 0.0, 0.0, 0.0, 0.0)",66.7447944539403,0.7871648932427612,-5.196604111670621,"(0.0, 0.0, 0.0, 0.0, 0.0, 0.0)",34.36874895380364,True,"(-0.030445191391659167, 0.18507200684738076, -1.7720222111383047e-06)","(0.9999954537329815, 0.002439764466441339, -0.0017720222111372958)",-0.0014906116101104706,496.6993818979343,True,"(0.03058687551392568, 0.18513511361707075, 1.7720222111401225e-06)","(-0.9999954537329814, -0.00243976446646009, 0.0017720222111390722)",-0.00035145145853721256,506.9308436129831
15,Move,"(0.0, 0.0, 0.0)","(0.0, -0.0, 0.0)","(-0.0006175479850452613, 0.16617872074595158, 0.03016895888950354)","(0.00041527696940124375, -0.00020248874550061468, 0.0004082375539765138)","[1.1243827021605902e-05, 0.0029148603882604984, 0.00015894881419317372]","[-0.026750000193715096, 0.05299999937415123, 0.0]","[0.0, -0.0, 0.5471399884333316]","[-0.0642077773809433, 0.11448914557695389, 0.0]","[0.0, 0.0, -0.22554244484596128]","[0.026750000193715096, 0.05299999937415123, 0.0]","[0.0, 0.0, -0.5479365163350971]","[0.06425674259662628, 0.11445929110050201, 0.0]","[0.0, -0.0, 0.22409738454540934]",0.5484909063474663,0.32421326841390097,"(0.0, 0.0, 0.0, 0.0, 0.0, 0.0)",-0.36468894950625075,-0.7740018400027932,-0.3166472586438691,"(0.0, 0.0, 0.0, 0.0, 0.0, 0.0)",-0.19074543663793372,-0.5495002454826297,-0.3752948399820238,"(0.0, 0.0, 0.0, 0.0, 0.0, 0.0)",0.05670652591079077,0.7735469973932894,0.3631438893178117,"(0.0, 0.0, 0.0, 0.0, 0.0, 0.0)",0.00014762055005611643,True,"(-0.03028128822601022, 0.18644791698476398, 1.6896822544101036e-06)","(0.9999985483406507, -0.00021975092813231726, 0.0016896822544101096)",-0.0018373280067773574,2.3727261520630996,True,"(0.030434273083184048, 0.18646600808316963, -1.6896822543865893e-06)","(-0.9999985483406507, 0.00021975092810932472, -0.001689682254385342)",-0.0003212086996170389,0.0
16,Move,"(0.0, 0.0, 0.0)","(0.0, -0.0, 0.0)","(-4.9038940481952306e-05, 0.16671412683491027, 0.03052890951242472)","(-0.0023769846837492247, 0.007627849428183324, 0.002270813626179664)","[0.0005797528715849148, 0.0034502664772191882, 0.0005188994371143549]","[-0.026750000193715096, 0.05299999937415123, 0.0]","[0.0, -0.0, 0.5512289728900902]","[-0.06445889174938202, 0.11433546990156174, 0.0]","[0.0, 0.0, -0.22357243794614418]","[0.026750000193715096, 0.05299999937415123, 0.0]","[0.0, 0.0, -0.5531200377740969]","[0.06457481533288956, 0.11426404863595963, 0.0]","[0.0, -0.0, 0.22127514807255189]",0.5516587135527511,0.10313061200808446,"(0.0, 0.0, 0.0, 0.0, 0.0, 0.0)",-0.06488543414494224,-0.7745912560187214,0.05044472474814539,"(0.0, 0.0, 0.0, 0.0, 0.0, 0.0)",-0.029638687536326494,-0.5537062137440957,-0.14066891384112948,"(0.0, 0.0, 0.0, 0.0, 0.0, 0.0)",0.02170411410568193,0.7743104067821254,-0.02035758370229424,"(0.0, 0.0, 0.0, 0.0, 0.0, 0.0)",0.0014687196634357777,True,"(-0.030678858345461482, 0.18634229547522396, 0.00021928436703932044)","(0.9997447769401848, 0.0023634964987829066, 0.02246764039948056)",-0.00109581373356105,0.4463659740292599,True,"(0.030955732814440876, 0.186360606228615, 8.319846916677867e-06)","(-0.9999627802190598, -0.0022843650871808173, 0.008319846916678352)",-0.00014413771527706974,0.0
17,Move,"(0.0, 0.0, 0.0)","(0.0, -0.0, 0.0)","(-0.00012807851708736932, 0.16668957991483457, 0.030835258819036006)","(-0.0015831442775453418, 0.004959173886478605, 0.00220513679769443)","[0.0005007132949794978, 0.0034257195571434917, 0.0008252487437256407]","[-0.026750000193715096, 0.05299999937415123, 0.0]","[0.0, -0.0, 0.5542183196769557]","[-0.06464207172393799, 0.1142224669456482, 0.0]","[0.0, 0.0, -0.22017076798834684]","[0.026750000193715096, 0.05299999937415123, 0.0]","[0.0, 0.0, -0.556679971370021]","[0.06479266285896301, 0.11412900686264038, 0.0]","[0.0, -0.0, 0.21757480925221834]",0.5548053329876209,0.1408860300641625,"(0.0, 0.0, 0.0, 0.0, 0.0, 0.0)",-0.02288706494968693,-0.7744092893454184,-0.0048524446214104336,"(0.0, 0.0, 0.0, 0.0, 0.0, 0.0)",-0.0016523617788653364,-0.5573384840084159,-0.1580506599312077,"(0.0, 0.0, 0.0, 0.0, 0.0, 0.0)",0.025725208223591527,0.7742602900464686,0.0013364462841805036,"(0.0, 0.0, 0.0, 0.0, 0.0, 0.0)",0.0019034905128687773,True,"(-0.031112657241400804, 0.18631569963480543, 0.00046997876014424347)","(0.9997527022560463, 0.0022496562827603243, 0.022124045252688684)",-0.0006458135687591227,0.0,True,"(0.03144195465012378, 0.18633982639987828, 0.00013473328607389653)","(-0.9999408261050687, -0.0021936929202226083, 0.0106551395901006)",0.0003273774169579575,0.0
18,Move,"(0.0, 0.0, 0.0)","(0.0, -0.0, 0.0)","(-0.00018333709825753828, 0.16667229342194229, 0.031037268133355448)","(-0.0010471989028900974, 0.003204687612153981, 0.002213957650843615)","[0.0004454547138093289, 0.003408433064251204, 0.0010272580580450823]","[-0.026750000193715096, 0.05299999937415123, 0.0]","[0.0, -0.0, 0.5574800288583568]","[-0.06484156101942062, 0.11409854888916016, 0.0]","[0.0, 0.0, -0.21694250721398162]","[0.026750000193715096, 0.05299999937415123, 0.0]","[0.0, 0.0, -0.5603719589669164]","[0.06501809507608414, 0.11398813873529434, 0.0]","[0.0, -0.0, 0.21389196695259327]",0.5580574620061332,0.13858204797166504,"(0.0, 0.0, 0.0, 0.0, 0.0, 0.0)",-0.02257466925427728,-0.7744212281788538,0.00031836889160974374,"(0.0, 0.0, 0.0, 0.0, 0.0, 0.0)",-0.0016871754040123754,-0.561028599581648,-0.15759086169469969,"(0.0, 0.0, 0.0, 0.0, 0.0, 0.0)",0.025667630222328146,0.774263578205495,-8.768424070293435e-05,"(0.0, 0.0, 0.0, 0.0, 0.0, 0.0)",0.001915200119194544,True,"(-0.03154196108034593, 0.1863095352421099, 0.0006421258600487901)","(0.9999387657782588, 0.002228633908720685, 0.01083964412484265)",-0.00021898027699475859,0.0,True,"(0.03193655509310604, 0.18630375592368836, 0.00041862162260816244)","(-0.9999427037645869, -0.002204403113658241, 0.010475199037731999)",0.0008238462385736859,0.0
19,Move,"(0.0, 0.0, 0.0)","(0.0, -0.0, 0.0)","(-0.0002196263021995112, 0.16666082462898962, 0.031170343957696012)","(-0.000694682485621615, 0.002049072311556748, 0.0022202825458575515)","[0.000409165509867356, 0.0033969642712985415, 0.0011603338823856467]","[-0.026750000193715096, 0.05299999937415123, 0.0]","[0.0, -0.0, 0.5607382198131232]","[-0.06504043191671371, 0.11397411674261093, 0.0]","[0.0, 0.0, -0.21368209108819133]","[0.026750000193715096, 0.05299999937415123, 0.0]","[0.0, 0.0, -0.5640765682754182]","[0.06524376571178436, 0.11384595185518265, 0.0]","[0.0, -0.0, 0.21018677686894247]",0.5613196405085754,0.13953271332535536,"(0.0, 0.0, 0.0, 0.0, 0.0, 0.0)",-0.022725372763555317,-0.7744204448719921,-2.0888182977962792e-05,"(0.0, 0.0, 0.0, 0.0, 0.0, 0.0)",-0.0016946000467735563,-0.5647375420799958,-0.1586364576636174,"(0.0, 0.0, 0.0, 0.0, 0.0, 0.0)",0.025836778709870126,0.7742633624693813,5.752963031291341e-06,"(0.0, 0.0, 0.0, 0.0, 0.0, 0.0)",0.001926761855688708,True,"(-0.0319775889678485, 0.1862846901766528, 0.0007514969858675168)","(0.9999404732261623, 0.0022287506287338925, 0.010680949156014044)",0.00021526564902596467,0.0,True,"(0.032432328683867986, 0.1862708782547564, 0.0006041469315883724)","(-0.999944565355247, -0.002212946780803666, 0.010294128571741949)",0.0013208077618900365,0.0
20,Move,"(-0.00087, 0.0, 0.00049)","(0.0, 0.13771171397010862, 0.0)","(-0.00024345784523138687, 0.16665318084633243, 0.031258023102777366)","(-0.0004628164219386511, 0.0012879281335410804, 0.0022254947982102142)","[0.0003853339668354803, 0.003389320488641351, 0.001248013027467]","[-0.026750000193715096, 0.05299999937415123, 0.0]","[0.0, -0.0, 0.5667259061120763]","[-0.06540483236312866, 0.11374375224113464, 0.0]","[0.0, 0.0, -0.20769460310478338]","[0.026750000193715096, 0.05299999937415123, 0.0]","[0.0, 0.0, -0.5643640350066563]","[0.06526125967502594, 0.11383488029241562, 0.0]","[0.0, -0.0, 0.20989935371210516]",0.5680396389429927,0.3152934917048045,"(0.0, 0.0, 0.0, 0.0, 0.0, 0.0)",-0.0513481386866113,-0.7744204962647553,1.3704736838704367e-06,"(0.0, 0.0, 0.0, 0.0, 0.0, 0.0)",-0.003828524307001652,-0.5641034052086574,0.06254949461111434,"(0.0, 0.0, 0.0, 0.0, 0.0, 0.0)",-0.01018771275895861,0.7742633766238277,-3.774519043986355e-07,"(0.0, 0.0, 0.0, 0.0, 0.0, 0.0)",-0.0007598701651200783,True,"(-0.032776202516342834, 0.18624172056043853, 0.0008186264467588955)","(0.9999435426392873, 0.0022303068026069944, 0.010389286094715473)",0.0010131229057426677,0.0,True,"(0.03247193626436787, 0.1862628475038436, 0.0007291428375638799)","(-0.999944697600455, -0.00221993843464117, 0.010279767219209446)",0.001361195578919053,0.0
21,Move,"(-0.00252, 0.0, 0.0024100000000000002)","(0.0, 0.13771171397010862, 0.0)","(-0.00025910018927104915, 0.16664805230718344, 0.031315797998644965)","(-0.00031030827411849556, 0.0007866065746254262, 0.002230205225763413)","[0.000369691622795818, 0.0033841919494923545, 0.001305787923334599]","[-0.026750000193715096, 0.05299999937415123, 0.0]","[0.0, -0.0, 0.5748765282042205]","[-0.06589864194393158, 0.11342667788267136, 0.0]","[0.0, 0.0, -0.19954399629956032]","[0.026750000193715096, 0.05299999937415123, 0.0]","[0.0, 0.0, -0.5621661347297133]","[0.06512745469808578, 0.11391938477754593, 0.0]","[0.0, -0.0, 0.2120973140189527]",0.5763977126110912,0.3650906651343864,"(0.0, 0.0, 0.0, 0.0, 0.0, 0.0)",-0.05945682356059806,-0.7744204928928761,-8.991677802328352e-08,"(0.0, 0.0, 0.0, 0.0, 0.0, 0.0)",-0.004432767916384567,-0.5617079606764714,0.1099455452255897,"(0.0, 0.0, 0.0, 0.0, 0.0, 0.0)",-0.017906988973198208,0.7742633756951545,2.4764619688254336e-08,"(0.0, 0.0, 0.0, 0.0, 0.0, 0.0)",-0.0013355426270740928,False,,,,,True,"(0.03217990517467906, 0.18627313766660664, 0.0008145246205866019)","(-0.9999435795545055, -0.0022259686338468583, 0.01038666314864054)",0.0010696836138855766,0.0
22,Move,"(-0.00252, 0.0, 0.0024100000000000002)","(0.0, 0.13771171397010862, 0.0)","(-0.0005898912001126393, 0.16912662330693368, 0.031817782401475106)","(0.0014461309075734965, 0.016602389820445592, 0.013074744175332345)","[3.8900611954227875e-05, 0.005862762949242595, 0.0018077723261647402]","[-0.026750000193715096, 0.05299999937415123, 0.0]","[0.0, -0.0, 0.5231171444380612]","[-0.06271996349096298, 0.11537116020917892, 0.0]","[0.0, 0.0, -0.1942980444025731]","[0.026750000193715096, 0.05299999937415123, 0.0]","[0.0, 0.0, -0.5078315039201479]","[0.06176241859793663, 0.11591367423534393, 0.0]","[0.0, -0.0, 0.2125611254047816]",0.5090052360671078,-3.3868550042907835,"(0.0, 0.0, 0.0, 0.0, 0.0, 0.0)",-65.7773062891184,-0.6935989031988543,5.715906651439228,"(0.0, 0.0, 0.0, 0.0, 0.0, 0.0)",-35.82083457359815,-0.4940261497797338,3.3132981677943607,"(0.0, 0.0, 0.0, 0.0, 0.0, 0.0)",65.773680587056,0.6969724637274386,-5.62085121965891,"(0.0, 0.0, 0.0, 0.0, 0.0, 0.0)",35.51973369803791,True,"(-0.031088704714412337, 0.18817919336388578, 0.0019290469881916353)","(0.999707224563015, 0.012674507063411486, 0.02061121120199219)",-0.0019738104227106992,490.25891296559297,True,"(0.028795585216259932, 0.18817654190294394, 0.0021615061050772565)","(-0.9997778115634723, -0.012945788559956773, 0.01663532578325198)",-0.0010337823175096573,490.0642598679959
23,Move,"(-0.00572, 0.0, 0.004900000000000001)","(0.0, -0.0, 0.0)","(-0.0007847734880291827, 0.17161367248784762, 0.03160248471832885)","(-0.0014509278373942562, 0.012763164558387, 0.010568266627820327)","[-0.00015598167596231555, 0.008349812130156536, 0.0015924746430184822]","[-0.026750000193715096, 0.05299999937415123, 0.0]","[0.0, -0.0, 0.5065999868033345]","[-0.06168491020798683, 0.11595674604177475, 0.0]","[0.0, 0.0, -0.17136550801343733]","[0.026750000193715096, 0.05299999937415123, 0.0]","[0.0, 0.0, -0.4857702730118126]","[0.06036605313420296, 0.11667072027921677, 0.0]","[0.0, -0.0, 0.1947658231789927]",0.5093694707485659,0.6646803627227564,"(0.0, 0.0, 0.0, 0.0, 0.0, 0.0)",-0.10367776748726515,-0.6795288036204639,-0.37520265542374526,"(0.0, 0.0, 0.0, 0.0, 0.0, 0.0)",-0.0035150232738203183,-0.4868814027421996,-0.26668333656623244,"(0.0, 0.0, 0.0, 0.0, 0.0, 0.0)",0.580612342733048,0.6819725417911655,0.34475935210468944,"(0.0, 0.0, 0.0, 0.0, 0.0, 0.0)",0.3218672218093741,True,"(-0.03171842262923453, 0.18951910485874762, 0.0017687382600010606)","(0.9998815184285513, 0.012407340550272877, 0.00911081804692812)",-0.0010125274532037415,0.0,True,"(0.02869038015632242, 0.18949156080298324, 0.0021618876079210264)","(-0.9997787410064548, -0.012365135463322985, 0.017016828627022362)",-0.0014730709609273916,3.992652468073744
24,Move,"(-0.00965, 0.0, 0.008069999999999999)","(0.0, 0.05190783728356335, 0.0)","(-0.002689491479175396, 0.17233359864206918, 0.031100785582732667)","(-0.004542287760219347, -0.01694291367475396, 0.005066131890638216)","[-0.002060699667108529, 0.009069738284378098, 0.0010907755074223008]","[-0.026750000193715096, 0.05299999937415123, 0.0]","[0.0, -0.0, 0.5213581704354586]","[-0.0626102015376091, 0.11543433368206024, 0.0]","[0.0, 0.0, -0.1591963456941767]","[0.026750000193715096, 0.05299999937415123, 0.0]","[0.0, 0.0, -0.48490090064239527]","[0.060310691595077515, 0.11669991910457611, 0.0]","[0.0, -0.0, 0.19733288232227444]",0.5239127862841084,0.6131088027249557,"(0.0, 0.0, 0.0, 0.0, 0.0, 0.0)",-0.10008343196406061,-0.6804519428527873,0.02461704619529126,"(0.0, 0.0, 0.0, 0.0, 0.0, 0.0)",-0.007735102430904676,-0.4840798686102552,0.19705169601592049,"(0.0, 0.0, 0.0, 0.0, 0.0, 0.0)",-0.01703482329285086,0.6822076979145665,-0.006270829957358615,"(0.0, 0.0, 0.0, 0.0, 0.0, 0.0)",0.006627110917776864,True,"(-0.03354393743043771, 0.18931788980177938, 0.0021604060811404595)","(0.9998640471095943, 0.005526454031489776, 0.015535301846454743)",5.082126648085874e-05,0.0,True,"(0.028448092559027117, 0.18944132825579496, 0.0021576335973387643)","(-0.999862712859239, -0.0105672091547032, 0.012762818044761585)",-0.0009371476987981307,0.0
25,Move,"(-0.01434, 0.0, 0.0104)","(0.0, 0.034222415973104825, 0.0)","(-0.003505000477358947, 0.17243804210340183, 0.03102535761106438)","(-0.0030049988442846023, -0.004856887164797952, 0.006452293467152176)","[-0.00287620866529208, 0.009174181745710747, 0.0010153475357540138]","[-0.026750000193715096, 0.05299999937415123, 0.0]","[0.0, -0.0, 0.5378634736806924]","[-0.06363576650619507, 0.11483397334814072, 0.0]","[0.0, 0.0, -0.14252002320593707]","[0.026750000193715096, 0.05299999937415123, 0.0]","[0.0, 0.0, -0.47915897525434253]","[0.05994437634944916, 0.11689157783985138, 0.0]","[0.0, -0.0, 0.2025861435603066]",0.5409979690018676,0.752265293574638,"(0.0, 0.0, 0.0, 0.0, 0.0, 0.0)",-0.12247139670183074,-0.6803904078212013,-0.0016409341756276061,"(0.0, 0.0, 0.0, 0.0, 0.0, 0.0)",-0.009107223339520059,-0.47801614974299084,0.27427253787467737,"(0.0, 0.0, 0.0, 0.0, 0.0, 0.0)",-0.04476144883072919,0.6817913574007913,0.011102413700669446,"(0.0, 0.0, 0.0, 0.0, 0.0, 0.0)",-0.0034623030632414233,True,"(-0.03580529883577113, 0.18917569327846986, 0.0021550157352398544)","(0.9999308767374397, 0.005943199134455963, 0.010144955945850156)",0.001131663307482387,0.0,True,"(0.027700092180594278, 0.1894645967348075, 0.0021576335973387643)","(-0.999862712859239, -0.0105672091547032, 0.012762818044761585)",-0.0005010629602477157,0.0
26,Move,"(-0.01931, 0.0, 0.01192)","(0.0, 0.053339007270198704, 0.0)","(-0.004629825970613356, 0.1721029940110207, 0.030710214836510298)","(0.005173124141879137, 0.0015530226113422377, 0.01670125782997013)","[-0.004001034158546489, 0.008839133653329612, 0.0007002047611999324]","[-0.026750000193715096, 0.05299999937415123, 0.0]","[0.0, -0.0, 0.5579864643219394]","[-0.06487249583005905, 0.11407925188541412, 0.0]","[0.0, 0.0, -0.12239152375034426]","[0.026750000193715096, 0.05299999937415123, 0.0]","[0.0, 0.0, -0.47005126203700387]","[0.05936110019683838, 0.11719124764204025, 0.0]","[0.0, -0.0, 0.21127513894393207]",0.5617975491695508,0.9146724215450481,"(0.0, 0.0, 0.0, 0.0, 0.0, 0.0)",-0.14891523942434096,-0.6803791758914098,-0.0002995181277716175,"(0.0, 0.0, 0.0, 0.0, 0.0, 0.0)",-0.01109002321267021,-0.4681751446902649,0.45026352938840725,"(0.0, 0.0, 0.0, 0.0, 0.0, 0.0)",0.5598893735018572,0.6811397005762446,-0.04479434765996583,"(0.0, 0.0, 0.0, 0.0, 0.0, 0.0)",0.32976429200152974,False,,,,,True,"(0.026487458954942165, 0.1894813622192531, 0.0021576335973387643)","(-0.999862712859239, -0.0105672091547032, 0.012762818044761585)",-0.0002586350186674756,3.855626813578494
27,Move,"(-0.01931, 0.0, 0.01192)","(0.0, 0.053339007270198704, 0.0)","(-0.005970892286068804, 0.17401240564608522, 0.030736342920729638)","(0.0031629172659794506, 0.01854503213334759, 0.042841705788083544)","[-0.005342100474001937, 0.01074854528839414, 0.0007263328454192725]","[-0.026750000193715096, 0.05299999937415123, 0.0]","[0.0, -0.0, 0.5119376023425105]","[-0.062020447105169296, 0.1157693862915039, 0.0]","[0.0, 0.0, -0.11162271891134372]","[0.026750000193715096, 0.05299999937415123, 0.0]","[0.0, 0.0, -0.4153116639956315]","[0.05580020695924759, 0.11887932568788528, 0.0]","[0.0, -0.0, 0.21299320229627114]",0.4981650370234011,-3.3054028576151255,"(0.0, 0.0, 0.0, 0.0, 0.0, 0.0)",-65.52796417656972,-0.5996615528452057,5.735693551159358,"(0.0, 0.0, 0.0, 0.0, 0.0, 0.0)",-35.95002815590877,-0.4021223713813793,3.165418991536784,"(0.0, 0.0, 0.0, 0.0, 0.0, 0.0)",65.75999663544198,0.605179583119844,-5.550051990334607,"(0.0, 0.0, 0.0, 0.0, 0.0, 0.0)",34.918841713976605,True,"(-0.03649331272699577, 0.19100217636877714, 0.0009328958415443876)","(0.9990368304281189, 0.04320059435532927, 0.00768895932388746)",-0.0025092378711687006,477.7032980831686,True,"(0.022782195009476446, 0.19121455507686635, 0.000260959899440746)","(-0.9997420565841194, -0.020578728272982513, 0.009609174762810993)",-0.0011232679480418315,474.32164990615433
28,Move,"(-0.023930000000000003, 0.0, 0.01157)","(0.0, 0.06820921249719039, 0.0)","(-0.007678374191429904, 0.17562916965445896, 0.0311835742501433)","(-0.0023037607510356666, 0.028756262946237687, 0.036097703673702734)","[-0.007049582379363037, 0.012365309296767879, 0.0011735641748329348]","[-0.026750000193715096, 0.05299999937415123, 0.0]","[0.0, -0.0, 0.5072020241275467]","[-0.061722807586193085, 0.11593570560216904, 0.0]","[0.0, 0.0, -0.07647755235728719]","[0.026750000193715096, 0.05299999937415123, 0.0]","[0.0, 0.0, -0.38434403392571065]","[0.053746480494737625, 0.11974721401929855, 0.0]","[0.0, -0.0, 0.2052293172045095]",0.512958737882213,1.381609193442029,"(0.0, 0.0, 0.0, 0.0, 0.0, 0.0)",-0.22034394209078403,-0.5852777850803177,-0.3835671403970151,"(0.0, 0.0, 0.0, 0.0, 0.0, 0.0)",-0.012186582579536627,-0.3827321520291453,0.386848219356518,"(0.0, 0.0, 0.0, 0.0, 0.0, 0.0)",1.8122279913746488,0.5909361311215411,0.32707842533535375,"(0.0, 0.0, 0.0, 0.0, 0.0, 0.0)",1.0435527334492345,True,"(-0.03885518278455273, 0.19194590681884233, 0.0016026231270293194)","(0.9992395576659475, 0.0385686980993674, 0.00572380314838154)",-0.0012974102323289507,0.0,True,"(0.02129106109253212, 0.19233660579877712, 0.000260959899440746)","(-0.9997420565841194, -0.020578728272982513, 0.009609174762810993)",-0.0014182520867417852,13.312258360925753
29,Move,"(-0.027880000000000002, 0.0, 0.010320000000000001)","(0.0, 0.06820921249719039, 0.0)","(-0.011288677229641246, 0.17595041118580163, 0.03036989870213467)","(-0.0009424988100924416, -0.005225419399425564, 0.029376634999992785)","[-0.010659885417574379, 0.012686550828110543, 0.00035988862682430345]","[-0.026750000193715096, 0.05299999937415123, 0.0]","[0.0, -0.0, 0.5354830053260852]","[-0.06348846852779388, 0.11492159962654114, 0.0]","[0.0, 0.0, -0.05084329792762421]","[0.026750000193715096, 0.05299999937415123, 0.0]","[0.0, 0.0, -0.3707926217670793]","[0.05283951014280319, 0.12010691314935684, 0.0]","[0.0, -0.0, 0.22027400044650466]",0.5401484756294704,1.1196983787271957,"(0.0, 0.0, 0.0, 0.0, 0.0, 0.0)",-0.18251178880131258,-0.5862185660140958,0.025870976707676602,"(0.0, 0.0, 0.0, 0.0, 0.0, 0.0)",-0.01380237317864956,-0.367975752243142,0.6760493891317284,"(0.0, 0.0, 0.0, 0.0, 0.0, 0.0)",-0.018751067473950736,0.5905136159711071,-0.13271944438618744,"(0.0, 0.0, 0.0, 0.0, 0.0, 0.0)",0.04194557823733428,True,"(-0.042576347241451595, 0.19143062592024884, 0.00047617177381994633)","(0.9995760138085229, 0.02911687858723463, -8.78660152644395e-15)",-2.5717371208859022e-05,0.0,True,"(0.01931660853775495, 0.1921015245660685, 0.002160664032545359)","(-0.9994352012689142, -0.029662292836251387, 0.015793253251354143)",-0.0009729236664833673,0.3490840687745359
30,Move,"(-0.03096, 0.0, 0.00893)","(0.0, 0.08774468281476293, 0.0)","(-0.014000302097369716, 0.17578320375487116, 0.030400883488349875)","(-0.002343543691420379, -0.005616019041854404, 0.03744508975757855)","[-0.013371510285302849, 0.012519343397180083, 0.00039087341303950876]","[-0.026750000193715096, 0.05299999937415123, 0.0]","[0.0, -0.0, 0.5625995573041145]","[-0.06515385210514069, 0.1139027401804924, 0.0]","[0.0, 0.0, -0.023546828841973094]","[0.026750000193715096, 0.05299999937415123, 0.0]","[0.0, 0.0, -0.354390530071621]","[0.05173535645008087, 0.1205257847905159, 0.0]","[0.0, -0.0, 0.2359553307598855]",0.567509463729168,1.178378706505969,"(0.0, 0.0, 0.0, 0.0, 0.0, 0.0)",-0.1918302203833431,-0.5861505555821167,-0.0010028942930299946,"(0.0, 0.0, 0.0, 0.0, 0.0, 0.0)",-0.014282110950551303,-0.351413238020466,0.7145518688187273,"(0.0, 0.0, 0.0, 0.0, 0.0, 0.0)",-0.11640786207423102,0.5903645217991983,0.004471473982418927,"(0.0, 0.0, 0.0, 0.0, 0.0, 0.0)",-0.00873132311071887,True,"(-0.046337688995950005, 0.19095402028248598, 0.00047617177381994633)","(0.9995760138085229, 0.02911687858723463, -8.78660152644395e-15)",0.0011020792368196153,0.0,True,"(0.01708764930600702, 0.19198588613923734, 0.002160664032545359)","(-0.9994352012689142, -0.029662292836251387, 0.015793253251354143)",-0.0005246922202305543,0.0
31,Move,"(-0.03343, 0.0, 0.00778)","(0.0, 0.08774468281476293, 0.0)","(-0.016323222909967128, 0.17542671942459392, 0.0302972456863203)","(-0.0006662707273458722, -0.002442497964127727, 0.048558782614485055)","[-0.01569443109790026, 0.012162859066902842, 0.0002872356110099339]","[-0.026750000193715096, 0.05299999937415123, 0.0]","[0.0, -0.0, 0.5900073874612211]","[-0.06680843234062195, 0.11282743513584137, 0.0]","[0.0, -0.0, 0.003851862654022698]","[0.026750000193715096, 0.05299999937415123, 0.0]","[0.0, 0.0, -0.33740392638963296]","[0.05058477073907852, 0.1209404394030571, 0.0]","[0.0, -0.0, 0.2525888715684302]",0.594873632624973,1.1679015102450714,"(0.0, 0.0, 0.0, 0.0, 0.0, 0.0)",-0.18895716693591116,-0.586155017746559,0.00011899105179313802,"(0.0, 0.0, 0.0, 0.0, 0.0, 0.0)",-0.014072288834613412,-0.33440423826872023,0.7199201602665728,"(0.0, 0.0, 0.0, 0.0, 0.0, 0.0)",-0.07297767027010406,0.5896484712498954,-0.0826298582819499,"(0.0, 0.0, 0.0, 0.0, 0.0, 0.0)",0.02099099722899348,False,,,,,True,"(0.0147532800975501, 0.1918143693663877, 0.002160664032545359)","(-0.9994352012689142, -0.029662292836251387, 0.015793253251354143)",-7.826885376930187e-05,0.2607680194016007
32,Move,"(-0.03343, 0.0, 0.00778)","(0.0, 0.08774468281476293, 0.0)","(-0.018344909156359845, 0.17701922518833427, 0.03084175987622212)","(5.646701852467901e-05, 0.016379254617580788, 0.06569408056936814)","[-0.017716117344292976, 0.013755364830643185, 0.0008317498009117533]","[-0.026750000193715096, 0.05299999937415123, 0.0]","[0.0, -0.0, 0.5492740013106144]","[-0.06433890759944916, 0.11440907418727875, 0.0]","[0.0, -0.0, 0.019180820362209573]","[0.026750000193715096, 0.05299999937415123, 0.0]","[0.0, 0.0, -0.2819131077686496]","[0.046779949218034744, 0.12215779721736908, 0.0]","[0.0, -0.0, 0.2584669115377691]",0.5363525140826452,-3.1011483179642063,"(0.0, 0.0, 0.0, 0.0, 0.0, 0.0)",-63.269321446810885,-0.5060959368671162,5.75933029878936,"(0.0, 0.0, 0.0, 0.0, 0.0, 0.0)",-35.50145708259714,-0.26911965481745426,3.0704261231816,"(0.0, 0.0, 0.0, 0.0, 0.0, 0.0)",62.58937425143892,0.5190877610339943,-5.110141918821831,"(0.0, 0.0, 0.0, 0.0, 0.0, 0.0)",31.737447378808262,True,"(-0.04882962503766599, 0.19222312180991, 0.0009078571702396)","(0.9977790657668373, 0.0665683578282673, 0.0023642448065189525)",-0.002661686035065378,456.1439861412422,True,"(0.010532208325504978, 0.19282388009618112, 0.002161031597149799)","(-0.9976467286900633, -0.06663206960801057, 0.016160817855792865)",-0.0009706829572700068,447.3126646567137
33,Move,"(-0.035840000000000004, 0.0, 0.00672)","(0.0, 0.08774468281476293, 0.0)","(-0.020442165170594443, 0.17860361208817166, 0.031561405465435934)","(-0.0006327660966621104, 0.032009903007517264, 0.05521149484716936)","[-0.019813373358527574, 0.015339751730480577, 0.0015513953901255678]","[-0.026750000193715096, 0.05299999937415123, 0.0]","[0.0, -0.0, 0.5477035274693065]","[-0.0642424151301384, 0.1144680306315422, 0.0]","[0.0, -0.0, 0.05729611741402884]","[0.026750000193715096, 0.05299999937415123, 0.0]","[0.0, 0.0, -0.2490241787792143]","[0.044495001435279846, 0.12277904152870178, 0.0]","[0.0, -0.0, 0.25515574601087015]",0.5538874799244148,1.4841594716654594,"(0.0, 0.0, 0.0, 0.0, 0.0, 0.0)",-1.265244636790563,-0.49194730607594056,-0.36958511705097236,"(0.0, 0.0, 0.0, 0.0, 0.0, 0.0)",-0.32740906900181893,-0.246703637916822,0.5569288270449617,"(0.0, 0.0, 0.0, 0.0, 0.0, 0.0)",1.5956751863689849,0.505457896178432,0.306712782846752,"(0.0, 0.0, 0.0, 0.0, 0.0, 0.0)",0.9360528021166771,True,"(-0.05167996651555709, 0.19231959320704775, 0.0018709212420592223)","(0.9983696506985759, 0.05706403734310056, 0.001317651740402535)",-0.0014261080949196595,0.0,True,"(0.00848202427744893, 0.19355853240873966, 0.0021690841266255936)","(-0.9978376042713762, -0.06110506781732662, 0.02421334733158922)",-0.0013391846642700205,11.742084226984366
34,Move,"(-0.03767, 0.0, 0.00557)","(0.0, 0.10187835909741304, 0.0)","(-0.023927462166830015, 0.17841474119970457, 0.03070332843194945)","(-0.00043128017036639106, -0.001794541431189033, 0.07389276478475308)","[-0.023298670354763146, 0.015150880842013492, 0.0006933183566390846]","[-0.026750000193715096, 0.05299999937415123, 0.0]","[0.0, -0.0, 0.5771972975850511]","[-0.06603877991437912, 0.11333566159009933, 0.0]","[0.0, -0.0, 0.08427560849389543]","[0.026750000193715096, 0.05299999937415123, 0.0]","[0.0, 0.0, -0.23322816080570885]","[0.04339060187339783, 0.12305063009262085, 0.0]","[0.0, -0.0, 0.27247517095069834]",0.5819676224110121,1.144865909821837,"(0.0, 0.0, 0.0, 0.0, 0.0, 0.0)",-0.18666282792014555,-0.49282429853460036,0.023386465564261275,"(0.0, 0.0, 0.0, 0.0, 0.0, 0.0)",-0.01416253060046234,-0.23015927903553707,0.7365331569198454,"(0.0, 0.0, 0.0, 0.0, 0.0, 0.0)",0.47130383647014995,0.5054445152362533,-0.06211572293814966,"(0.0, 0.0, 0.0, 0.0, 0.0, 0.0)",0.30959248247201293,True,"(-0.05558104015973554, 0.1914977793208299, 0.0018709212420592223)","(0.9983696506985759, 0.05706403734310056, 0.001317651740402535)",-0.000317652216356872,0.0,True,"(0.006154820630041927, 0.19321539540794896, 0.0020904304336064063)","(-0.997470405288725, -0.07033669622100412, 0.010273253518753344)",-0.0008811538919708541,4.138836717858008
35,Move,"(-0.03889000000000001, 0.0, 0.00479)","(0.0, 0.08774468281476293, 0.0)","(-0.02649267172511781, 0.17816784111968503, 0.030477125635630032)","(-0.0021979329375864417, 0.0018038437360215513, 0.09706318441558034)","[-0.02586387991305094, 0.014903980761993951, 0.00046711556031966625]","[-0.026750000193715096, 0.05299999937415123, 0.0]","[0.0, -0.0, 0.6037040365336361]","[-0.06762409210205078, 0.11227317154407501, 0.0]","[0.0, -0.0, 0.11093414506092913]","[0.026750000193715096, 0.05299999937415123, 0.0]","[0.0, 0.0, -0.21641944232423496]","[0.04221084713935852, 0.12332042306661606, 0.0]","[0.0, -0.0, 0.2886304604075602]",0.6083949689539263,1.1258219719387976,"(0.0, 0.0, 0.0, 0.0, 0.0, 0.0)",-0.26662961391064954,-0.49277831335677064,-0.0020197399827059804,"(0.0, 0.0, 0.0, 0.0, 0.0, 0.0)",-0.029449632473524816,-0.21346286872982995,0.7095796919479174,"(0.0, 0.0, 0.0, 0.0, 0.0, 0.0)",-0.11639800061066972,0.5050911876234382,0.009912394949454041,"(0.0, 0.0, 0.0, 0.0, 0.0, 0.0)",-0.008735147694819338,True,"(-0.05294127961257383, 0.13401845107351626, 0.0009049554759147631)","(0.9975227281064248, 0.07034491389656738, -0.0)",-0.0005323336836396334,1.0253030993834946,True,"(0.0038464416904323492, 0.1928745097788558, 0.0020904304336064063)","(-0.997470405288725, -0.07033669622100412, 0.010273253518753344)",-0.0003800200349801152,0.0
36,Move,"(-0.03968, 0.0, 0.00466)","(0.0, 0.08774468281476293, 0.0)","(-0.028835090536582723, 0.17791412498355527, 0.030541669622834677)","(0.0006389121070601886, -0.0039806488937584, 0.1070673357879358)","[-0.028206298724515855, 0.01465026462586419, 0.0005316595475243109]","[-0.026750000193715096, 0.05299999937415123, 0.0]","[0.0, -0.0, 0.6293148031594465]","[-0.06912855058908463, 0.1112070307135582, 0.0]","[0.0, -0.0, 0.13656816354031595]","[0.026750000193715096, 0.05299999937415123, 0.0]","[0.0, 0.0, -0.20010731456345274]","[0.04106176644563675, 0.1235632598400116, 0.0]","[0.0, -0.0, 0.304033336505948]",0.6338015562271041,1.0768224276345963,"(0.0, 0.0, 0.0, 0.0, 0.0, 0.0)",-0.18168350151310697,-0.4927498017874591,-0.0007603085149745486,"(0.0, 0.0, 0.0, 0.0, 0.0, 0.0)",-0.014469641288326401,-0.19720274047340705,0.6971020450710207,"(0.0, 0.0, 0.0, 0.0, 0.0, 0.0)",1.2558078050375021,0.5041539363270523,0.0031935327987101664,"(0.0, 0.0, 0.0, 0.0, 0.0, 0.0)",0.7141657084941712,True,"(-0.05500585237140441, 0.13330336323036157, 0.00018582957125856274)","(0.994551577477913, 0.10424567010765848, -1.977923511910016e-15)",-0.0002459145002006245,0.0,True,"(0.001630621767238348, 0.19251819343939586, 0.0020904304336064063)","(-0.997470405288725, -0.07033669622100412, 0.010273253518753344)",-8.483253617875418e-05,5.637021957217689
37,Move,"(-0.040080000000000005, 0.0, 0.005000000000000001)","(0.0, 0.08774468281476293, 0.0)","(-0.030902364390863826, 0.17776977950969006, 0.030629007098875373)","(0.00011122535913990031, -0.0009828923242166901, 0.11352360828362718)","[-0.030273572578796957, 0.014505919151998975, 0.0006189970235650072]","[-0.026750000193715096, 0.05299999937415123, 0.0]","[0.0, -0.0, 0.6537075050578817]","[-0.07053562998771667, 0.1101560890674591, 0.0]","[0.0, -0.0, 0.16099774549142765]","[0.026750000193715096, 0.05299999937415123, 0.0]","[0.0, 0.0, -0.184398783965633]","[0.03995160013437271, 0.12377935647964478, 0.0]","[0.0, -0.0, 0.31932809925578326]",0.6579844012466304,1.0264433938272466,"(0.0, 0.0, 0.0, 0.0, 0.0, 0.0)",-0.2726998764348746,-0.49269676641375726,0.0031281158461404857,"(0.0, 0.0, 0.0, 0.0, 0.0, 0.0)",-0.045326590305738865,-0.18164857204586754,0.660050565836596,"(0.0, 0.0, 0.0, 0.0, 0.0, 0.0)",-0.10761032096663316,0.5037695675130045,0.010249835041275189,"(0.0, 0.0, 0.0, 0.0, 0.0, 0.0)",-0.008192006152537405,True,"(-0.05695689915325951, 0.13259080425596942, 0.00018582957125856274)","(0.994551577477913, 0.10424567010765848, -1.977923511910016e-15)",-5.625187165369549e-05,1.413449079366378,True,"(-0.0005569093220392368, 0.19220912011669383, 0.0003780179428738584)","(-0.9936462693521145, -0.11208074132174835, 0.010246893548411651)",-9.082804385352631e-05,0.0
38,Move,"(-0.04071, 0.0, 0.0053)","(0.0, 0.08774468281476293, 0.0)","(-0.0325897416912, 0.17755484380648417, 0.030796188835716335)","(-0.0022286506663345695, 0.007251027175611115, 0.12625929670233793)","[-0.03196094987913313, 0.014290983448793093, 0.0007861787604059693]","[-0.026750000193715096, 0.05299999937415123, 0.0]","[0.0, -0.0, 0.676986742653432]","[-0.07185418903827667, 0.1091214045882225, 0.0]","[0.0, -0.0, 0.18428810304902157]","[0.026750000193715096, 0.05299999937415123, 0.0]","[0.0, 0.0, -0.16951767798270753]","[0.03889690339565277, 0.1239679679274559, 0.0]","[0.0, -0.0, 0.333595092798438]",0.6810660444234939,0.9790425481642402,"(0.0, 0.0, 0.0, 0.0, 0.0, 0.0)",-0.15939550317294374,-0.4926984110266756,4.385634513153378e-05,"(0.0, 0.0, 0.0, 0.0, 0.0, 0.0)",-0.011873476668179072,-0.16691753947907143,0.6240352378480734,"(0.0, 0.0, 0.0, 0.0, 0.0, 0.0)",0.37836047578110793,0.5029640539887158,-0.03569048346494031,"(0.0, 0.0, 0.0, 0.0, 0.0, 0.0)",0.2480423569489501,True,"(-0.058797793049302445, 0.13183885202730805, 0.0006486814913237091)","(0.9922618783031575, 0.12416265487774393, -0.0)",0.0003622099642655695,0.0,True,"(-0.0025897830011135103, 0.1918316396502573, 2.412966459629414e-05)","(-0.9922116161014057, -0.12413287667327365, 0.01035073921295052)",-1.2207108773931001e-05,3.343972163732555
39,Move,"(-0.041170000000000005, 0.0, 0.00508)","(0.0, 0.06820921249719039, 0.0)","(-0.034781297849192636, 0.1770531106023771, 0.0304315394636737)","(0.006251154151399715, -0.006264143841399053, 0.13298652390905985)","[-0.03415250603712577, 0.013789250244686024, 0.0004215293883633349]","[-0.026750000193715096, 0.05299999937415123, 0.0]","[0.0, -0.0, 0.6989624317448465]","[-0.0730765089392662, 0.10811673849821091, 0.0]","[0.0, -0.0, 0.20626406329386765]","[0.026750000193715096, 0.05299999937415123, 0.0]","[0.0, 0.0, -0.15563789907218017]","[0.03791074454784393, 0.12412972748279572, 0.0]","[0.0, -0.0, 0.34684664561635525]",0.702788860359712,0.9183564424781685,"(0.0, 0.0, 0.0, 0.0, 0.0, 0.0)",-0.14959451059895412,-0.492698303123216,-2.8774255897978662e-06,"(0.0, 0.0, 0.0, 0.0, 0.0, 0.0)",-0.011143895466891792,-0.15324223367205497,0.5749626531100543,"(0.0, 0.0, 0.0, 0.0, 0.0, 0.0)",-0.10100837766490424,0.5024795003237132,-0.001211674639218497,"(0.0, 0.0, 0.0, 0.0, 0.0, 0.0)",-0.005913799452479793,True,"(-0.060521463774992526, 0.13110868788782076, 0.00036959817055581086)","(0.9914974751211997, 0.13012592681047952, 6.623919525283605e-16)",0.0005960125417967762,0.0,True,"(-0.004467542994725668, 0.19143069998336742, 0.0001645119526049064)","(-0.9910979604416411, -0.1314033181230029, 0.02140095312559665)",1.968543907700418e-05,0.046385407718799905
40,Move,"(-0.04099, 0.0, 0.0046300000000000004)","(0.0, 0.08774468281476293, 0.0)","(-0.03614250982620018, 0.17698695609034087, 0.030309522298941988)","(-0.002741963518995454, 0.0009676137055543749, 0.14315341298706294)","[-0.03551371801413331, 0.013723095732649793, 0.00029951222363162194]","[-0.026750000193715096, 0.05299999937415123, 0.0]","[0.0, -0.0, 0.7197185002445591]","[-0.07421046495437622, 0.10714337229728699, 0.0]","[0.0, -0.0, 0.22702271305879423]","[0.026750000193715096, 0.05299999937415123, 0.0]","[0.0, 0.0, -0.14279047780035625]","[0.036996014416217804, 0.12426723539829254, 0.0]","[0.0, -0.0, 0.35782251547751825]",0.7233489124838371,0.8712750375300747,"(0.0, 0.0, 0.0, 0.0, 0.0, 0.0)",-0.1418550228166981,-0.4926961167385079,-5.8303592216812916e-05,"(0.0, 0.0, 0.0, 0.0, 0.0, 0.0)",-0.01056744851252215,-0.14046359264175423,0.5584509819929178,"(0.0, 0.0, 0.0, 0.0, 0.0, 0.0)",2.6131219045469436,0.5006358118589075,0.005463577469211139,"(0.0, 0.0, 0.0, 0.0, 0.0, 0.0)",1.406844800539166,True,"(-0.06213257147348388, 0.13037256884263876, -6.280089827126704e-05)","(0.9899896256609027, 0.14114014695962893, 5.493116743362519e-16)",0.0011579949180452454,0.0,True,"(-0.0061238183187628525, 0.1911136123863657, 1.8862496423506455e-06)","(-0.9899885166558701, -0.14113532141812365, 0.0018862496423501973)",-1.138412760770969e-05,18.65008732502981
41,Move,"(-0.041530000000000004, 0.0, 0.00429)","(0.0, 0.10187835909741304, 0.0)","(-0.037955854641864094, 0.17674594896190846, 0.030570512347116937)","(-0.00022650939575100042, 0.00034260074413487826, 0.14799542902749283)","[-0.037327062829797225, 0.013482088604217374, 0.0005605022718065712]","[-0.026750000193715096, 0.05299999937415123, 0.0]","[0.0, -0.0, 0.7398246785477246]","[-0.07528940588235855, 0.10617824643850327, 0.0]","[0.0, -0.0, 0.2471283944702208]","[0.026750000193715096, 0.05299999937415123, 0.0]","[0.0, 0.0, -0.1295223046162587]","[0.036049552261829376, 0.1243969053030014, 0.0]","[0.0, -0.0, 0.3704768626751875]",0.743377792406249,0.8527505900266626,"(0.0, 0.0, 0.0, 0.0, 0.0, 0.0)",-0.13878319999768415,-0.49269407057205294,0.0005293329276326719,"(0.0, 0.0, 0.0, 0.0, 0.0, 0.0)",-0.010286307851129524,-0.12712786275166954,0.5746572020610792,"(0.0, 0.0, 0.0, 0.0, 0.0, 0.0)",-0.08374018624832234,0.5000630175099885,0.015339121407241009,"(0.0, 0.0, 0.0, 0.0, 0.0, 0.0)",-0.0011381305045326847,True,"(-0.06368062971098361, 0.12964350914608577, 1.8460126242444974e-05)","(0.9897706579978395, 0.14266760167089126, -0.0)",0.0012934234039506413,0.0,True,"(-0.007910776831836233, 0.1906913735180665, 0.00016775812558300588)","(-0.9890325091715929, -0.14728716455313792, 0.011008494885312059)",-1.371732891658503e-05,0.0
42,Move,"(-0.04159, 0.0, 0.00337)","(0.0, 0.10187835909741304, 0.0)","(-0.0395916707885702, 0.17642464211870004, 0.03059789111458793)","(0.0008896244780233275, -0.0005300157527288806, 0.15486769176559945)","[-0.03896287897650333, 0.01316078176100896, 0.0005878810392775657]","[-0.026750000193715096, 0.05299999937415123, 0.0]","[0.0, -0.0, 0.758948260397171]","[-0.07629742473363876, 0.1052403375506401, 0.0]","[0.0, -0.0, 0.2662553465481141]","[0.026750000193715096, 0.05299999937415123, 0.0]","[0.0, 0.0, -0.11694154040605952]","[0.03515061363577843, 0.12450824677944183, 0.0]","[0.0, -0.0, 0.38257030919768964]",0.7622765545137659,0.7988186304629201,"(0.0, 0.0, 0.0, 0.0, 0.0, 0.0)",-0.13000228010888126,-0.4926929028808488,-3.113843211011155e-05,"(0.0, 0.0, 0.0, 0.0, 0.0, 0.0)",-0.009685753079186215,-0.11475601931342397,0.5245260414746769,"(0.0, 0.0, 0.0, 0.0, 0.0, 0.0)",-0.05235794282680103,0.49964995798992523,0.03315053849975489,"(0.0, 0.0, 0.0, 0.0, 0.0, 0.0)",0.010501371241310894,True,"(-0.06513592614961969, 0.128901886651077, -0.00010131990434037938)","(0.9888907204196126, 0.14864435094540174, -0.0)",0.0013608101993989744,0.0,True,"(-0.009604249583175316, 0.19026116217714767, 0.00023045769514659238)","(-0.9880780879496897, -0.15225083135045514, 0.02283366958639114)",-1.0332340606494168e-05,0.09995893357933613
43,Move,"(-0.041870000000000004, 0.0, 0.00283)","(0.0, 0.08774468281476293, 0.0)","(-0.041036314313126536, 0.1762797673931813, 0.03072624403964258)","(-0.003862315653146125, 0.0016382769786470943, 0.15893729399589265)","[-0.04040752250105967, 0.013015907035490215, 0.0007162339643322149]","[-0.026750000193715096, 0.05299999937415123, 0.0]","[0.0, -0.0, 0.7768255303864585]","[-0.07722337543964386, 0.10434626042842865, 0.0]","[0.0, -0.0, 0.28413253153998747]","[0.026750000193715096, 0.05299999937415123, 0.0]","[0.0, 0.0, -0.1055092890391997]","[0.034332580864429474, 0.12459961324930191, 0.0]","[0.0, -0.0, 0.3938451698574494]",0.7799334450038085,0.7458991910034074,"(0.0, 0.0, 0.0, 0.0, 0.0, 0.0)",-0.12144885317485551,-0.49269297949306873,2.0429925311482577e-06,"(0.0, 0.0, 0.0, 0.0, 0.0, 0.0)",-0.00904953703736253,-0.1035527815628504,0.4695587174546532,"(0.0, 0.0, 0.0, 0.0, 0.0, 0.0)",0.4209621333501484,0.4992391659990859,-0.027667676276956193,"(0.0, 0.0, 0.0, 0.0, 0.0, 0.0)",0.25509203935665353,False,,,,,True,"(-0.011167659712842087, 0.1898632103148604, 0.00012708799050185015)","(-0.987396340330774, -0.15783959487959837, 0.011624516748601273)",-1.1351631639150585e-05,3.4769202803361754
44,Move,"(-0.041870000000000004, 0.0, 0.00283)","(0.0, 0.08774468281476293, 0.0)","(-0.04572703507123363, 0.17704486552983253, 0.03271090114610673)","(0.020639944493200207, 0.03390920692425458, 0.322071983043771)","[-0.04509824325916676, 0.013781005172141453, 0.0027008910707963657]","[-0.026750000193715096, 0.05299999937415123, 0.0]","[0.0, -0.0, 0.7306394511153569]","[-0.07479891180992126, 0.10662184655666351, 0.0]","[0.0, -0.0, 0.23870005903991756]","[0.026750000193715096, 0.05299999937415123, 0.0]","[0.0, 0.0, -0.04982527207474282]","[0.030335934832692146, 0.12491064518690109, 0.0]","[0.0, -0.0, 0.4431411706236704]",0.71874207304869,-2.8553528425184815,"(0.0, 0.0, 0.0, 0.0, 0.0, 0.0)",-65.1616460462827,-0.47182879181411785,4.826530163996164,"(0.0, 0.0, 0.0, 0.0, 0.0, 0.0)",-31.135144235610458,-0.03755434051610549,2.9450240503045046,"(0.0, 0.0, 0.0, 0.0, 0.0, 0.0)",55.87565804266664,0.46316058118333525,-7.15340126604131,"(0.0, 0.0, 0.0, 0.0, 0.0, 0.0)",30.626735432994213,True,"(-0.06300548862723149, 0.13005613664708618, 0.0023490976402033154)","(0.9724709767764687, 0.23302403165214747, -0.0)",-0.0023398962446622355,121.02327210205597,True,"(-0.01790221737502793, 0.18692030557362496, 0.0061510468138421944)","(-0.951410008739555, -0.3051025197293961, 0.041610668403346346)",-0.00033965205169588495,404.82847369548574
45,Move,"(-0.042230000000000004, 0.0, 0.0017600000000000003)","(0.0, 0.10187835909741304, 0.0)","(-0.04849001078098803, 0.18633220082786905, 0.034259825576509174)","(-0.0252060427199008, 0.07011497823400302, 0.2400812288248822)","[-0.04786121896892116, 0.023068340470177973, 0.004249815501198809]","[-0.026750000193715096, 0.05299999937415123, 0.0]","[0.0, -0.0, 0.724206284752537]","[-0.0744529590010643, 0.10692983865737915, 0.0]","[0.0, -0.0, 0.2684650484574974]","[0.026750000193715096, 0.05299999937415123, 0.0]","[0.0, 0.0, -0.01846773766086419]","[0.028079601004719734, 0.12498772144317627, 0.0]","[0.0, -0.0, 0.4136822609737739]",0.7284192339251025,1.0111215037948007,"(0.0, 0.0, 0.0, 0.0, 0.0, 0.0)",-0.1599389748970817,-0.4573499592307815,-0.38610220222230396,"(0.0, 0.0, 0.0, 0.0, 0.0, 0.0)",-0.007584657443072966,-0.015892290695060225,0.6181077759687068,"(0.0, 0.0, 0.0, 0.0, 0.0, 0.0)",4.012658455603614,0.43472968541979246,0.6191232816801684,"(0.0, 0.0, 0.0, 0.0, 0.0, 0.0)",2.2162564483053337,True,"(-0.07846966892574286, 0.18561881572995076, 0.004856734506256153)","(0.956154791608384, 0.29276227399879573, 0.007633178065646264)",-0.004246858694202879,0.0,True,"(-0.0180291417643615, 0.18774771605537277, 0.00784500499846551)","(-0.9540042793782039, -0.2917983735350877, 0.06877168116566071)",-0.000560404808358132,26.76623381642537
46,Move,"(-0.04322, 0.0, 0.0011)","(0.0, 0.10187835909741304, 0.0)","(-0.06975467896719822, 0.20860446491409354, 0.04770672370137831)","(-0.18802338720892714, -0.2960029854506713, 0.3148251248781029)","[-0.06912588715513136, 0.04534060455640246, 0.017696713626067943]","[-0.026750000193715096, 0.05299999937415123, 0.0]","[0.0, -0.0, 0.7464042884254269]","[-0.07563824206590652, 0.1058577299118042, 0.0]","[0.0, -0.0, 0.28859094331393625]","[0.026750000193715096, 0.05299999937415123, 0.0]","[0.0, 0.0, -0.005524311254100818]","[0.027147747576236725, 0.12499890476465225, 0.0]","[0.0, -0.0, 0.42957709360902624]",0.7502225724826002,0.9163926280436355,"(0.0, 0.0, 0.0, 0.0, 0.0, 0.0)",-0.1384380559984667,-0.45776700007408305,0.011121089154708668,"(0.0, 0.0, 0.0, 0.0, 0.0, 0.0)",-0.010436611840747522,-0.0032825949797168448,0.5380118927937079,"(0.0, 0.0, 0.0, 0.0, 0.0, 0.0)",-0.08152835721958406,0.435314292123983,0.051079713337069094,"(0.0, 0.0, 0.0, 0.0, 0.0, 0.0)",-0.00045081437092238846,True,"(-0.08223495450087026, 0.17918254416638407, 0.011984645614606345)","(-0.04968146262315712, 0.16734589486811313, 0.9846456742109897)",-0.0012735207058611143,0.0,False,,,,
47,Move,"(-0.04322, 0.0, 0.0011)","(0.0, 0.10187835909741304, 0.0)","(-0.09828555201695002, 0.2222283111321006, 0.0701901999677852)","(-0.20615001403209002, -0.73455287962641, 0.5147504420707628)","[-0.09765676020488316, 0.05896445077440951, 0.04018018989247483]","[-0.026750000193715096, 0.05299999937415123, 0.0]","[0.0, -0.0, 0.7064154929274586]","[-0.07348601520061493, 0.1077699288725853, 0.0]","[0.0, -0.0, 0.24867895308226703]","[0.026750000193715096, 0.05299999937415123, 0.0]","[0.0, -0.0, 0.0587463360263576]","[0.02252269722521305, 0.12487579137086868, 0.0]","[0.0, -0.0, 0.48045380988795566]",0.693158093228676,-3.1817880189227217,"(0.0, 0.0, 0.0, 0.0, 0.0, 0.0)",0.5184436835959771,-0.457739638024354,-0.0007296546594406385,"(0.0, 0.0, 0.0, 0.0, 0.0, 0.0)",0.03850150541786393,0.07488961994731944,3.874388229360954,"(0.0, 0.0, 0.0, 0.0, 0.0, 0.0)",-0.6418863380256461,0.4250365001489993,0.7989723709094267,"(0.0, 0.0, 0.0, 0.0, 0.0, 0.0)",-0.05856519995171052,False,,,,,False,,,,
48,Move,"(-0.04322, 0.0, 0.0011)","(0.0, 0.10187835909741304, 0.0)","(-0.1163001639080876, 0.2354617232594191, 0.08519551583091585)","(-0.19242102900038463, -1.0862898452466412, 0.839679205425838)","[-0.11567137209602074, 0.07219786290172803, 0.055185505755605484]","[-0.026750000193715096, 0.05299999937415123, 0.0]","[0.0, -0.0, 0.6517489589295459]","[-0.07042360305786133, 0.11024173349142075, 0.0]","[0.0, -0.0, 0.1940074148917961]","[0.026750000193715096, 0.05299999937415123, 0.0]","[0.0, -0.0, 0.15353755734341482]","[0.015738679096102715, 0.1241530105471611, 0.0]","[0.0, -0.0, 0.5749574616365725]",0.6438282435383765,-1.900986754474682,"(0.0, 0.0, 0.0, 0.0, 0.0, 0.0)",0.31246320049694054,-0.4577414332484367,4.787264220505803e-05,"(0.0, 0.0, 0.0, 0.0, 0.0, 0.0)",0.02324322407474589,0.17084528462487603,4.153856975569048,"(0.0, 0.0, 0.0, 0.0, 0.0, 0.0)",-0.7258019850268344,0.4217815310879961,0.0867991749600861,"(0.0, 0.0, 0.0, 0.0, 0.0, 0.0)",-0.054790908160671295,False,,,,,False,,,,
49,Move,"(-0.04322, 0.0, 0.0011)","(0.0, 0.10187835909741304, 0.0)","(-0.1335645568999675, 0.24851826317684975, 0.09562968473693573)","(-0.5779002183091515, -1.4215625992940941, 1.5521356523076628)","[-0.13293576508790061, 0.08525440281915866, 0.06561967466162535]","[-0.026750000193715096, 0.05299999937415123, 0.0]","[0.0, -0.0, 0.6160263328905963]","[-0.06835134327411652, 0.11176502704620361, 0.0]","[0.0, -0.0, 0.15828499887915845]","[0.026750000193715096, 0.05299999937415123, 0.0]","[0.0, -0.0, 0.24649308011365198]","[0.009181673638522625, 0.12282373756170273, 0.0]","[0.0, -0.0, 0.668511951007043]",0.6104402305740662,-1.3406545802569843,"(0.0, 0.0, 0.0, 0.0, 0.0, 0.0)",0.22018135511968412,-0.4577413154637846,-3.140924055506592e-06,"(0.0, 0.0, 0.0, 0.0, 0.0, 0.0)",0.016392367543735343,0.262846031258588,3.92471313912636,"(0.0, 0.0, 0.0, 0.0, 0.0, 0.0)",-0.642878361690728,0.4219950896080885,-0.005694893869131242,"(0.0, 0.0, 0.0, 0.0, 0.0, 0.0)",-0.047618499082929554,False,,,,,False,,,,
50,Move,"(-0.04322, 0.0, 0.0011)","(0.0, 0.10187835909741304, 0.0)","(-0.14837419889543205, 0.2583818202327124, 0.103607525823304)","(-2.849023042301039, -1.3125694812151225, -2.114388692605272)","[-0.14774540708336517, 0.09511795987502131, 0.07359751574799364]","[-0.026750000193715096, 0.05299999937415123, 0.0]","[0.0, -0.0, 0.5924754030541312]","[-0.06695596873760223, 0.11272838711738586, 0.0]","[0.0, -0.0, 0.13473405994624707]","[0.026750000193715096, 0.05299999937415123, 0.0]","[0.0, -0.0, 0.3325368254022454]","[0.003246178850531578, 0.12105564028024673, 0.0]","[0.0, -0.0, 0.7545164224149393]",0.5889936812582998,-0.8356053112981516,"(0.0, 0.0, 0.0, 0.0, 0.0, 0.0)",0.13737139788686356,-0.45774132319163563,2.0607602689825524e-07,"(0.0, 0.0, 0.0, 0.0, 0.0, 0.0)",0.010234702342261077,0.3474967851031501,3.5903818609258433,"(0.0, 0.0, 0.0, 0.0, 0.0, 0.0)",-0.5882967648473453,0.4219810780335852,0.0003736419867546347,"(0.0, 0.0, 0.0, 0.0, 0.0, 0.0)",-0.043658858912928054,False,,,,,False,,,,
51,Move,"(-0.04322, 0.0, 0.0011)","(0.0, 0.10187835909741304, 0.0)","(-0.17321566728147314, 0.1440088710470813, 0.1594143810511162)","(-3.014240468095413, 0.05051181638606301, -2.4698916740002064)","[-0.17258687546940626, -0.019254989310609788, 0.12940437097580582]","[-0.026750000193715096, 0.05299999937415123, 0.0]","[0.0, -0.0, 0.5792748530826907]","[-0.0661640390753746, 0.11325390636920929, 0.0]","[0.0, -0.0, 0.12153354903284969]","[0.026750000193715096, 0.05299999937415123, 0.0]","[0.0, -0.0, 0.40967516528584697]","[-0.0019284209702163935, 0.11904201656579971, 0.0]","[0.0, -0.0, 0.8316572713635356]",0.5775169284457604,-0.42190758595348776,"(0.0, 0.0, 0.0, 0.0, 0.0, 0.0)",0.06948143150838357,-0.4577413226846113,-1.352064859909825e-08,"(0.0, 0.0, 0.0, 0.0, 0.0, 0.0)",0.005179746654687727,0.4229208709294433,3.178967238124888,"(0.0, 0.0, 0.0, 0.0, 0.0, 0.0)",-0.5210554087098942,0.42198199733298836,-2.4514650750667114e-05,"(0.0, 0.0, 0.0, 0.0, 0.0, 0.0)",-0.03868805106164241,False,,,,,False,,,,
52,Move,"(-0.04322, 0.0, 0.0011)","(0.0, 0.10187835909741304, 0.0)","(-0.20429052323298685, -0.007385024911296056, 0.2100550605510661)","(1.823385118278625, 0.8222573141187128, 1.902117036347607)","[-0.20366173142091998, -0.17064888526898714, 0.18004505047575572]","[-0.026750000193715096, 0.05299999937415123, 0.0]","[0.0, -0.0, 0.6210708666353831]","[-0.06864725798368454, 0.11155441403388977, 0.0]","[0.0, -0.0, 0.16332953269273398]","[0.026750000193715096, 0.05299999937415123, 0.0]","[0.0, -0.0, 0.5192096087790807]","[-0.00897597149014473, 0.11551123857498169, 0.0]","[0.0, -0.0, 0.9411914802257821]",0.6336928054180335,3.0292688111284702,"(0.0, 0.0, 0.0, 0.0, 0.0, 0.0)",-0.4939305899190772,-0.4577413227178772,8.870904226031956e-10,"(0.0, 0.0, 0.0, 0.0, 0.0, 0.0)",-0.03668163766573498,0.5424325868054259,5.573521325051914,"(0.0, 0.0, 0.0, 0.0, 0.0, 0.0)",-0.9104781815286176,0.4219819370177545,1.6084062361820112e-06,"(0.0, 0.0, 0.0, 0.0, 0.0, 0.0)",-0.06736529525453744,False,,,,,False,,,,
53,Move,"(-0.04322, 0.0, 0.0011)","(0.0, 0.10187835909741304, 0.0)","(-0.2392787979738652, -0.15338169568067642, 0.24012930875256921)","(1.9010482925589256, -0.38355150329917026, 0.3299268106935053)","[-0.23865000616179832, -0.3166455560383675, 0.21011929867725884]","[-0.026750000193715096, 0.05299999937415123, 0.0]","[0.0, -0.0, 0.764052886564271]","[-0.07656344771385193, 0.10498673468828201, 0.0]","[0.0, -0.0, 0.30631157287603594]","[0.026750000193715096, 0.05299999937415123, 0.0]","[0.0, -0.0, 0.7091594862403741]","[-0.020136119797825813, 0.10764148086309433, 0.0]","[0.0, -0.0, 1.131141331184191]",0.7969440231115726,7.8938751267507685,"(0.0, 0.0, 0.0, 0.0, 0.0, 0.0)",-1.2872388239669261,-0.4577413227156947,-5.820147142010512e-11,"(0.0, 0.0, 0.0, 0.0, 0.0, 0.0)",-0.0949152585716769,0.749291853287397,9.63177233332586,"(0.0, 0.0, 0.0, 0.0, 0.0, 0.0)",-1.570730791711887,0.421981940975037,-1.0552753312159657e-07,"(0.0, 0.0, 0.0, 0.0, 0.0, 0.0)",-0.11552163579597713,False,,,,,False,,,,
54,Move,"(-0.04322, 0.0, 0.0011)","(0.0, 0.10187835909741304, 0.0)","(-0.2740253426709503, -0.29836969191894264, 0.26566745917859075)","(-3.0212473271349367, 0.20738666376588907, -0.9908021612955036)","[-0.2733965508588834, -0.4616335522766337, 0.23565744910328038]","[-0.026750000193715096, 0.05299999937415123, 0.0]","[0.0, -0.0, 1.0216887414760711]","[-0.08816532790660858, 0.09057869017124176, 0.0]","[0.0, -0.0, 0.563947469313414]","[0.026750000193715096, 0.05299999937415123, 0.0]","[0.0, -0.0, 0.9946684932859261]","[-0.03362763673067093, 0.09222424030303955, 0.0]","[0.0, -0.0, 1.416650313677409]",1.0753525736329714,12.879318152527418,"(0.0, 0.0, 0.0, 0.0, 0.0, 0.0)",-2.0976907878206457,-0.45774132271583784,3.8182755568438864e-12,"(0.0, 0.0, 0.0, 0.0, 0.0, 0.0)",-0.15353291148223386,1.0521051135202961,13.784834483495276,"(0.0, 0.0, 0.0, 0.0, 0.0, 0.0)",-2.2450937170953145,0.42198194071539974,6.923660485214089e-09,"(0.0, 0.0, 0.0, 0.0, 0.0, 0.0)",-0.164099776742394,False,,,,,False,,,,
55,Move,"(-0.04322, 0.0, 0.0011)","(0.0, 0.10187835909741304, 0.0)","(-0.30853430264996956, -0.44236631095669865, 0.2867025504575963)","(-1.0121188278859714, 0.9857126281148648, -0.016067899142903474)","[-0.3079055108379027, -0.6056301713143897, 0.25669254038228595]","[-0.026750000193715096, 0.05299999937415123, 0.0]","[0.0, -0.0, 1.367187917245342]","[-0.09726271778345108, 0.06755872070789337, 0.0]","[0.0, -0.0, 0.9094465984832886]","[0.026750000193715096, 0.05299999937415123, 0.0]","[0.0, -0.0, 1.3480362833391217]","[-0.04347098246216774, 0.06890639662742615, 0.0]","[0.0, -0.0, 1.7700182863769225]",1.4338788335040464,16.005811721112536,"(0.0, 0.0, 0.0, 0.0, 0.0, 0.0)",-2.6054539341946223,-0.45774132271582846,-2.505357032944744e-13,"(0.0, 0.0, 0.0, 0.0, 0.0, 0.0)",-0.1898064276969604,1.4148383988085191,16.032481882443907,"(0.0, 0.0, 0.0, 0.0, 0.0, 0.0)",-2.610358827712558,0.42198194073243456,-4.542617393354931e-10,"(0.0, 0.0, 0.0, 0.0, 0.0, 0.0)",-0.1901569380140004,False,,,,,False,,,,
56,Move,"(-0.04322, 0.0, 0.0011)","(0.0, 0.10187835909741304, 0.0)","(-0.342809562636047, -0.5853877627082419, 0.30326664063794123)","(0.3424754514160666, -0.025054596922310518, 0.0775696492879289)","[-0.34218077082398013, -0.748651623065933, 0.2732566305626309]","[-0.026750000193715096, 0.05299999937415123, 0.0]","[0.0, -0.0, 1.7313850427196595]","[-0.0978235974907875, 0.04148724302649498, 0.0]","[0.0, -0.0, 1.27364381140156]","[0.026750000193715096, 0.05299999937415123, 0.0]","[0.0, -0.0, 1.7061919482521688]","[-0.04459105804562569, 0.043281279504299164, 0.0]","[0.0, -0.0, 2.1281738329822972]",1.7960983033640505,15.531175959917766,"(0.0, 0.0, 0.0, 0.0, 0.0, 0.0)",-2.5310676497708617,-0.4577413227158291,1.722233466949774e-14,"(0.0, 0.0, 0.0, 0.0, 0.0, 0.0)",-0.18452240375043633,1.7691596823234481,15.112273396325914,"(0.0, 0.0, 0.0, 0.0, 0.0, 0.0)",-2.463555500810473,0.42198194073131695,2.9802903200870645e-11,"(0.0, 0.0, 0.0, 0.0, 0.0, 0.0)",-0.17971406593147493,False,,,,,False,,,,
57,Move,"(-0.04322, 0.0, 0.0011)","(0.0, 0.10187835909741304, 0.0)","(-0.37685475296872867, -0.7274491956051943, 0.31539089761923117)","(1.4606522734082235, -0.09138511186477181, -1.0885676399809434)","[-0.3762259611566618, -0.8907130559628853, 0.2853808875439208]","[-0.026750000193715096, 0.05299999937415123, 0.0]","[0.0, -0.0, 2.0481193459163314]","[-0.09070241451263428, 0.019922982901334763, 0.0]","[0.0, -0.0, 1.5903778962162765]","[0.026750000193715096, 0.05299999937415123, 0.0]","[0.0, -0.0, 2.0134673172201354]","[-0.0383099727332592, 0.02215847373008728, 0.0]","[0.0, -0.0, 2.4354492787947186]",2.1006936075232137,12.617831721098096,"(0.0, 0.0, 0.0, 0.0, 0.0, 0.0)",-2.0605884135140644,-0.45774132271582907,-1.1310397063368782e-15,"(0.0, 0.0, 0.0, 0.0, 0.0, 0.0)",-0.15088211424343456,2.0643682662251703,12.216225944811429,"(0.0, 0.0, 0.0, 0.0, 0.0, 0.0)",-1.9954014112389846,0.4219819407313903,-1.955595407832078e-12,"(0.0, 0.0, 0.0, 0.0, 0.0, 0.0)",-0.14619653775016275,False,,,,,False,,,,
58,Move,"(-0.04322, 0.0, 0.0011)","(0.0, 0.10187835909741304, 0.0)","(-0.4106732558777814, -0.868564722783725, 0.32310568794743644)","(1.5935225234883985, 0.9159856739077913, -2.106631170745157)","[-0.41004446406571454, -1.031828583141416, 0.2930956778721261]","[-0.026750000193715096, 0.05299999937415123, 0.0]","[0.0, -0.0, 2.2903726186419546]","[-0.08090012520551682, 0.005547243170440197, 0.0]","[0.0, -0.0, 1.8326312371127815]","[0.026750000193715096, 0.05299999937415123, 0.0]","[0.0, -0.0, 2.2490431022195443]","[-0.029314523562788963, 0.007825125008821487, 0.0]","[0.0, -0.0, 2.671025104953119]",2.3288845745209534,9.242869962741823,"(0.0, 0.0, 0.0, 0.0, 0.0, 0.0)",-1.512479509529793,-0.45774132271582907,1.7520707107365752e-16,"(0.0, 0.0, 0.0, 0.0, 0.0, 0.0)",-0.1113056520429756,2.2866172447359028,9.017789777590123,"(0.0, 0.0, 0.0, 0.0, 0.0, 0.0)",-1.4757282185338625,0.4219819407313855,1.2803820503837215e-13,"(0.0, 0.0, 0.0, 0.0, 0.0, 0.0)",-0.10863718884490207,False,,,,,False,,,,
59,Move,"(-0.04322, 0.0, 0.0011)","(0.0, 0.10187835909741304, 0.0)","(-0.44426821186527676, -1.008747448715271, 0.3264406638784228)","(-0.31736700159794257, 0.709827773403718, 1.8547538717855148)","[-0.4436394200532099, -1.172011309072962, 0.29643065380311245]","[-0.026750000193715096, 0.05299999937415123, 0.0]","[0.0, -0.0, 2.462425325951705]","[-0.07197646051645279, -0.0030229175463318825, 0.0]","[0.0, -0.0, 2.0046843042654303]","[0.026750000193715096, 0.05299999937415123, 0.0]","[0.0, -0.0, 2.4182867210582644]","[-0.020904390141367912, -0.0009727630531415343, 0.0]","[0.0, -0.0, 2.840268593734283]",2.489129837084547,6.409063380324746,"(0.0, 0.0, 0.0, 0.0, 0.0, 0.0)",-1.050386081529933,-0.45774132271582907,9.8879238130678e-17,"(0.0, 0.0, 0.0, 0.0, 0.0, 0.0)",-0.07762345539333246,2.444725631364458,6.345350964670761,"(0.0, 0.0, 0.0, 0.0, 0.0, 0.0)",-1.039882594056081,0.4219819407313858,-7.891257092218495e-15,"(0.0, 0.0, 0.0, 0.0, 0.0, 0.0)",-0.07685439466028758,False,,,,,False,,,,
60,Move,"(-0.04322, 0.0, 0.0011)","(0.0, 0.10187835909741304, 0.0)","(-0.477642526233765, -1.1480094964468552, 0.32542484858007403)","(-0.648303160765894, -0.5071692550055918, 1.4052519684082636)","[-0.47701373442169814, -1.3112733568045463, 0.2954148385047637]","[-0.026750000193715096, 0.05299999937415123, 0.0]","[0.0, -0.0, 2.5800367391031642]","[-0.06509027630090714, -0.007942786440253258, 0.0]","[0.0, -0.0, 2.122295374810154]","[0.026750000193715096, 0.05299999937415123, 0.0]","[0.0, -0.0, 2.5359813737153196]","[-0.014237063936889172, -0.006195106543600559, 0.0]","[0.0, -0.0, 2.957963282106162]",2.5980821620918246,4.3309105331722595,"(0.0, 0.0, 0.0, 0.0, 0.0, 0.0)",-0.7105463444041019,-0.45774132271582907,5.681219383824043e-17,"(0.0, 0.0, 0.0, 0.0, 0.0, 0.0)",-0.05266960499759457,2.5541965791213803,4.371656327536329,"(0.0, 0.0, 0.0, 0.0, 0.0, 0.0)",-0.7171342875876442,0.42198194073138573,1.3470127790959907e-15,"(0.0, 0.0, 0.0, 0.0, 0.0, 0.0)",-0.05315473995857135,False,,,,,False,,,,
61,Move,"(-0.04322, 0.0, 0.0011)","(0.0, 0.10187835909741304, 0.0)","(-0.5107988757939261, -1.2863620355903103, 0.3200867193130868)","(-3.0905789103943806, -1.4230222113480353, -2.9443240919353086)","[-0.5101700839818593, -1.4496258959480013, 0.29007670923777645]","[-0.026750000193715096, 0.05299999937415123, 0.0]","[0.0, -0.0, 2.6592001561928984]","[-0.06015079841017723, -0.010783905163407326, 0.0]","[0.0, -0.0, 2.2014588019583714]","[0.026750000193715096, 0.05299999937415123, 0.0]","[0.0, -0.0, 2.616912477708917]","[-0.009317409247159958, -0.00931486114859581, 0.0]","[0.0, -0.0, 3.0388943939324817]",2.6713072399024442,2.905705137768754,"(0.0, 0.0, 0.0, 0.0, 0.0, 0.0)",-0.4770368655169072,-0.45774132271582907,-1.4094628242311558e-17,"(0.0, 0.0, 0.0, 0.0, 0.0, 0.0)",-0.035434262377259405,2.629418618256307,3.0014784323292254,"(0.0, 0.0, 0.0, 0.0, 0.0, 0.0)",-0.4926702950078957,0.42198194073138573,5.0523821237824507e-17,"(0.0, 0.0, 0.0, 0.0, 0.0, 0.0)",-0.03659038527557321,False,,,,,False,,,,
62,Move,"(-0.04322, 0.0, 0.0011)","(0.0, 0.10187835909741304, 0.0)","(-0.5437397157780463, -1.42381531117036, 0.31045428840565875)","(2.154525953672618, -0.49906472590163786, -2.6686205299411188)","[-0.5431109239659794, -1.587079171528051, 0.2804442783303484]","[-0.026750000193715096, 0.05299999937415123, 0.0]","[0.0, -0.0, 2.7124882386939535]","[-0.05670607089996338, -0.01247238926589489, 0.0]","[0.0, -0.0, 2.2547468456503568]","[0.026750000193715096, 0.05299999937415123, 0.0]","[0.0, -0.0, 2.6727564751182684]","[-0.0057830810546875, -0.011230822652578354, 0.0]","[0.0, -0.0, 3.0947384196344556]",2.720660107511894,1.96124403788612,"(0.0, 0.0, 0.0, 0.0, 0.0, 0.0)",-0.32210204987969315,-0.45774132271582907,3.0682921481339775e-17,"(0.0, 0.0, 0.0, 0.0, 0.0, 0.0)",-0.0239586388652129,2.6814205519588246,2.0793775361774114,"(0.0, 0.0, 0.0, 0.0, 0.0, 0.0)",-0.3414320264816366,0.42198194073138573,1.5720931501039814e-17,"(0.0, 0.0, 0.0, 0.0, 0.0, 0.0)",-0.025392070130681278,False,,,,,False,,,,
63,Move,"(-0.04322, 0.0, 0.0011)","(0.0, 0.10187835909741304, 0.0)","(-0.5764672869781741, -1.5603786734102258, 0.2965551818184022)","(1.4522991066600506, -0.02610232901204686, 2.980925300535437)","[-0.5758384951661072, -1.7236425337679169, 0.26654517174309184]","[-0.026750000193715096, 0.05299999937415123, 0.0]","[0.0, -0.0, 2.748773798586509]","[-0.054311174899339676, -0.013516026549041271, 0.0]","[0.0, -0.0, 2.29103251999853]","[0.026750000193715096, 0.05299999937415123, 0.0]","[0.0, -0.0, 2.7118367387683113]","[-0.0032487253192812204, -0.01245285663753748, 0.0]","[0.0, -0.0, 3.1338186375610753]",2.75437815522436,1.345042218928473,"(0.0, 0.0, 0.0, 0.0, 0.0, 0.0)",-0.22093843057360027,-0.45774132271582907,7.26415455565288e-18,"(0.0, 0.0, 0.0, 0.0, 0.0, 0.0)",-0.016448595528976002,2.717948393292809,1.4668070678520162,"(0.0, 0.0, 0.0, 0.0, 0.0, 0.0)",-0.24088644213000465,0.42198194073138573,6.667843360785852e-18,"(0.0, 0.0, 0.0, 0.0, 0.0, 0.0)",-0.017930523304755554,False,,,,,False,,,,
64,Move,"(-0.04322, 0.0, 0.0011)","(0.0, 0.10187835909741304, 0.0)","(-0.6089836231200277, -1.6960606085009624, 0.2784167150834457)","(0.675188239587726, -0.3172864662859888, 2.3589951127347413)","[-0.6083548313079609, -1.8593244688586534, 0.2484067050081353]","[-0.026750000193715096, 0.05299999937415123, 0.0]","[0.0, -0.0, 2.7739862858261843]","[-0.05262555927038193, -0.014189697802066803, 0.0]","[0.0, -0.0, 2.3162449880770546]","[0.026750000193715096, 0.05299999937415123, 0.0]","[0.0, -0.0, 2.7397859253841714]","[-0.0014078909298405051, -0.013265625573694706, 0.0]","[0.0, -0.0, -3.1214174486838044]",2.7779210763549114,0.9443505525522692,"(0.0, 0.0, 0.0, 0.0, 0.0, 0.0)",-0.15512534912746279,-0.45774132271582907,1.8431436932253575e-18,"(0.0, 0.0, 0.0, 0.0, 0.0, 0.0)",-0.011555611101434512,2.7442035693926337,1.0602362033544654,"(0.0, 0.0, 0.0, 0.0, 0.0, 0.0)",-0.17412321069631567,0.42198194073138573,-7.562310153086393e-18,"(0.0, 0.0, 0.0, 0.0, 0.0, 0.0)",-0.012968617035393138,False,,,,,False,,,,
65,Move,"(-0.04322, 0.0, 0.0011)","(0.0, 0.10187835909741304, 0.0)","(-0.6412905584758729, -1.8308687703679505, 0.2560659663961722)","(-0.1635848698315013, -0.988201139516382, 2.36348308311063)","[-0.640661766663806, -1.9941326307256415, 0.2260559563208618]","[-0.026750000193715096, 0.05299999937415123, 0.0]","[0.0, -0.0, 2.791976654505601]","[-0.0514126680791378, -0.014644310809671879, 0.0]","[0.0, -0.0, 2.3342353429270393]","[0.026750000193715096, 0.05299999937415123, 0.0]","[0.0, -0.0, 2.76031569601846]","[-4.163283665548079e-05, -0.013829696923494339, 0.0]","[0.0, -0.0, -3.100887651071716]",2.7948197566661808,0.682344858194137,"(0.0, 0.0, 0.0, 0.0, 0.0, 0.0)",-0.11208043340742967,-0.45774132271582907,-6.952446431063297e-18,"(0.0, 0.0, 0.0, 0.0, 0.0, 0.0)",-0.008352278932804146,2.7636001929404728,0.78827399031392,"(0.0, 0.0, 0.0, 0.0, 0.0, 0.0)",-0.12945320081650177,0.42198194073138573,1.429791614965259e-17,"(0.0, 0.0, 0.0, 0.0, 0.0, 0.0)",-0.009645420586482477,False,,,,,False,,,,
66,Move,"(-0.04322, 0.0, 0.0011)","(0.0, 0.10187835909741304, 0.0)","(-0.6733897357118812, -1.9648100134158164, 0.22952984663946163)","(-2.0431577575720166, -0.9350766421574908, -2.5872976674390227)","[-0.6727609438998143, -2.1280738737735074, 0.19951983656415126]","[-0.026750000193715096, 0.05299999937415123, 0.0]","[0.0, -0.0, 2.8052122718474917]","[-0.05051521956920624, -0.01496480219066143, 0.0]","[0.0, -0.0, 2.3474709208754727]","[0.026750000193715096, 0.05299999937415123, 0.0]","[0.0, -0.0, 2.775842866938551]","[0.0009992290288209915, -0.014237621799111366, 0.0]","[0.0, -0.0, -3.085360507050781]",2.807332519719141,0.5088600859069721,"(0.0, 0.0, 0.0, 0.0, 0.0, 0.0)",-0.08357550861686945,-0.45774132271582907,3.0222135558033436e-18,"(0.0, 0.0, 0.0, 0.0, 0.0, 0.0)",-0.006229647165378822,2.778358270880548,0.603699249908891,"(0.0, 0.0, 0.0, 0.0, 0.0, 0.0)",-0.09913337495264544,0.42198194073138573,1.0272815584300155e-17,"(0.0, 0.0, 0.0, 0.0, 0.0, 0.0)",-0.007388300071643401,False,,,,,False,,,,
67,Move,"(-0.04322, 0.0, 0.0011)","(0.0, 0.10187835909741304, 0.0)","(-0.70528261395814, -2.0978904262024134, 0.1988351661284741)","(-2.6774990917725305, -0.1433460262196065, -2.515688560660615)","[-0.7046538221460731, -2.2611542865601044, 0.16882515605316373]","[-0.026750000193715096, 0.05299999937415123, 0.0]","[0.0, -0.0, 2.8152679301095893]","[-0.0498306006193161, -0.015200336463749409, 0.0]","[0.0, -0.0, 2.3575266015799796]","[0.026750000193715096, 0.05299999937415123, 0.0]","[0.0, -0.0, 2.787937653860732]","[0.0018143189372494817, -0.014544147066771984, 0.0]","[0.0, -0.0, -3.073265700526855]",2.8169007100231744,0.3918710849140753,"(0.0, 0.0, 0.0, 0.0, 0.0, 0.0)",-0.06435305740678374,-0.45774132271582907,-4.997494388800372e-18,"(0.0, 0.0, 0.0, 0.0, 0.0, 0.0)",-0.004797635506885386,2.7899207841235008,0.4759481123741153,"(0.0, 0.0, 0.0, 0.0, 0.0, 0.0)",-0.07814754674371446,0.42198194073138573,9.839134715305953e-18,"(0.0, 0.0, 0.0, 0.0, 0.0, 0.0)",-0.00582532859087274,False,,,,,False,,,,
68,Move,"(-0.04322, 0.0, 0.0011)","(0.0, 0.10187835909741304, 0.0)","(-0.7369704770827216, -2.2301153659642936, 0.1640086978784848)","(3.0630860621497797, 0.5661022047452601, -3.0084868984968485)","[-0.7363416852706547, -2.3933792263219846, 0.13399868780317442]","[-0.026750000193715096, 0.05299999937415123, 0.0]","[0.0, -0.0, 2.8231518929773953]","[-0.049292199313640594, -0.01538018137216568, 0.0]","[0.0, -0.0, 2.3654105197119493]","[0.026750000193715096, 0.05299999937415123, 0.0]","[0.0, -0.0, 2.797625528634476]","[0.0024698376655578613, -0.014782547019422054, 0.0]","[0.0, -0.0, -3.063577837360191]",2.824448353118901,0.31115488556160686,"(0.0, 0.0, 0.0, 0.0, 0.0, 0.0)",-0.051091302594626097,-0.45774132271582907,1.8973538018496328e-19,"(0.0, 0.0, 0.0, 0.0, 0.0, 0.0)",-0.003809393571328842,2.7992315052878527,0.3854328996116232,"(0.0, 0.0, 0.0, 0.0, 0.0, 0.0)",-0.06327917176633321,0.42198194073138573,6.06475590234079e-19,"(0.0, 0.0, 0.0, 0.0, 0.0, 0.0)",-0.004717618898228079,False,,,,,False,,,,
69,Move,"(-0.04322, 0.0, 0.0011)","(0.0, 0.10187835909741304, 0.0)","(-0.7684544421452185, -2.361489493891033, 0.12507723721837824)","(2.1026232794010054, 0.708696003480955, 2.1685202591238535)","[-0.7678256503331516, -2.524753354248724, 0.09506722714306787]","[-0.026750000193715096, 0.05299999937415123, 0.0]","[0.0, -0.0, 2.8295153244609095]","[-0.04885661229491234, -0.015522242523729801, 0.0]","[0.0, -0.0, 2.3717740495260444]","[0.026750000193715096, 0.05299999937415123, 0.0]","[0.0, -0.0, 2.805583036306511]","[0.0030099786818027496, -0.01497360784560442, 0.0]","[0.0, -0.0, -3.055620352695273]",2.830573611625365,0.2539836291208509,"(0.0, 0.0, 0.0, 0.0, 0.0, 0.0)",-0.04169891408440966,-0.45774132271582907,9.029371217730842e-19,"(0.0, 0.0, 0.0, 0.0, 0.0, 0.0)",-0.0031093499090378836,2.8069147917934116,0.31962734098148204,"(0.0, 0.0, 0.0, 0.0, 0.0, 0.0)",-0.05247058288231635,0.42198194073138573,6.911788849595091e-19,"(0.0, 0.0, 0.0, 0.0, 0.0, 0.0)",-0.003912185025505987,False,,,,,False,,,,
70,Move,"(-0.04322, 0.0, 0.0011)","(0.0, 0.10187835909741304, 0.0)","(-0.7997354680000563, -2.49201681102455, 0.08206765759725514)","(1.6453498843723562, 0.18409984448775946, 1.363328685056672)","[-0.7991066761879895, -2.655280671382241, 0.05205764752194477]","[-0.026750000193715096, 0.05299999937415123, 0.0]","[0.0, -0.0, 2.8347845333241026]","[-0.04849524796009064, -0.015637774020433426, 0.0]","[0.0, -0.0, 2.3770431756859582]","[0.026750000193715096, 0.05299999937415123, 0.0]","[0.0, -0.0, 2.8122631698630176]","[0.003464578650891781, -0.01513067726045847, 0.0]","[0.0, -0.0, -3.048940207791664]",2.835669238076395,0.21232998972661968,"(0.0, 0.0, 0.0, 0.0, 0.0, 0.0)",-0.03485666638403459,-0.45774132271582907,3.5270451923669066e-18,"(0.0, 0.0, 0.0, 0.0, 0.0, 0.0)",-0.0025993030684303606,2.8133902131003685,0.27049358102483506,"(0.0, 0.0, 0.0, 0.0, 0.0, 0.0)",-0.04440115802764059,0.42198194073138573,5.692061405548898e-19,"(0.0, 0.0, 0.0, 0.0, 0.0, 0.0)",-0.0033107678390659097,False,,,,,False,,,,
71,Move,"(-0.04322, 0.0, 0.0011)","(0.0, 0.10187835909741304, 0.0)","(-0.8310138130609029, -2.610189309463304, 0.05804513541986621)","(1.5593111283247754, -0.5042467054401898, 0.9976546017254347)","[-0.8303850212488361, -2.773453169820995, 0.028035125344555843]","[-0.026750000193715096, 0.05299999937415123, 0.0]","[0.0, -0.0, 2.8392432342583063]","[-0.04818899929523468, -0.015734048560261726, 0.0]","[0.0, -0.0, 2.3815019556432167]","[0.026750000193715096, 0.05299999937415123, 0.0]","[0.0, -0.0, 2.817975044805943]","[0.003854109439998865, -0.01526256836950779, 0.0]","[0.0, -0.0, -3.0432283523408876]",2.839997820540709,0.18109907289972127,"(0.0, 0.0, 0.0, 0.0, 0.0, 0.0)",-0.029727177543174818,-0.45774132271582907,2.1980504981249094e-18,"(0.0, 0.0, 0.0, 0.0, 0.0, 0.0)",-0.002216891327739426,2.818945162579697,0.23283372553536433,"(0.0, 0.0, 0.0, 0.0, 0.0, 0.0)",-0.038216796389360236,0.42198194073138573,1.9109063290057016e-18,"(0.0, 0.0, 0.0, 0.0, 0.0, 0.0)",-0.0028497871177663504,False,,,,,False,,,,
72,Move,"(-0.04322, 0.0, 0.0011)","(0.0, 0.10187835909741304, 0.0)","(-0.8624808341481586, -2.7099798597040827, 0.06532392347090724)","(1.0788555313213732, -1.2706571262904587, 1.2499046367493587)","[-0.8618520423360917, -2.8732437200617738, 0.03531391339559687]","[-0.026750000193715096, 0.05299999937415123, 0.0]","[0.0, -0.0, 2.842749616765562]","[-0.04794786125421524, -0.015808798372745514, 0.0]","[0.0, -0.0, 2.385008309627684]","[0.026750000193715096, 0.05299999937415123, 0.0]","[0.0, -0.0, 2.822582066109922]","[0.0041688415221869946, -0.015367326326668262, 0.0]","[0.0, -0.0, -3.038621274460317]",2.843310544664978,0.13462292423728628,"(0.0, 0.0, 0.0, 0.0, 0.0, 0.0)",-0.022114527374332865,-0.45774132271582907,2.3899034606780084e-18,"(0.0, 0.0, 0.0, 0.0, 0.0, 0.0)",-0.0016492925805347213,2.8233308631493896,0.17970596513682666,"(0.0, 0.0, 0.0, 0.0, 0.0, 0.0)",-0.029513655986842104,0.42198194073138573,7.123547086408666e-19,"(0.0, 0.0, 0.0, 0.0, 0.0, 0.0)",-0.002200972731725707,False,,,,,False,,,,
73,Move,"(-0.04322, 0.0, 0.0011)","(0.0, 0.10187835909741304, 0.0)","(-0.8937903097410016, -2.8092707899925378, 0.06823467109534369)","(-1.409294223795452, -1.0454248121344651, -2.732235631062915)","[-0.8931615179289347, -2.972534650350229, 0.03822466102003332]","[-0.026750000193715096, 0.05299999937415123, 0.0]","[0.0, -0.0, 2.8449253196510407]","[-0.04779810458421707, -0.01585475541651249, 0.0]","[0.0, -0.0, 2.3871839923380627]","[0.026750000193715096, 0.05299999937415123, 0.0]","[0.0, -0.0, 2.8257016443016534]","[0.0043822284787893295, -0.01543743722140789, 0.0]","[0.0, -0.0, -3.035501693890752]",2.845222161915145,0.07124851024567347,"(0.0, 0.0, 0.0, 0.0, 0.0, 0.0)",-0.011730842159108714,-0.45774132271582907,6.831320719605932e-19,"(0.0, 0.0, 0.0, 0.0, 0.0, 0.0)",-0.000874962007115293,2.8261579709019644,0.10951326174003691,"(0.0, 0.0, 0.0, 0.0, 0.0, 0.0)",-0.018012100774962726,0.42198194073138573,1.3700757921838308e-18,"(0.0, 0.0, 0.0, 0.0, 0.0, 0.0)",-0.0013433843372746613,False,,,,,False,,,,
74,Move,"(-0.04322, 0.0, 0.0011)","(0.0, 0.10187835909741304, 0.0)","(-0.9249438535383412, -2.9080672178102898, 0.0667992837380552)","(-1.681413885962745, -0.3116609677076795, -2.6713362430691148)","[-0.9243150617262743, -3.071331078167981, 0.036789273662744836]","[-0.026750000193715096, 0.05299999937415123, 0.0]","[0.0, -0.0, 2.8460302594319775]","[-0.04772201180458069, -0.015877969563007355, 0.0]","[0.0, -0.0, 2.3882888820586765]","[0.026750000193715096, 0.05299999937415123, 0.0]","[0.0, -0.0, 2.8276212839524018]","[0.004513643682003021, -0.015480248257517815, 0.0]","[0.0, -0.0, -3.0335820860401768]",2.8461743859342477,0.03459570901099998,"(0.0, 0.0, 0.0, 0.0, 0.0, 0.0)",-0.0057001855612483065,-0.45774132271582907,4.0744931740892016e-19,"(0.0, 0.0, 0.0, 0.0, 0.0, 0.0)",-0.00042517921958592304,2.8279045354051484,0.06797888549891595,"(0.0, 0.0, 0.0, 0.0, 0.0, 0.0)",-0.011179576647061776,0.42198194073138573,1.4415441971084124e-18,"(0.0, 0.0, 0.0, 0.0, 0.0, 0.0)",-0.0008338489303910256,False,,,,,False,,,,
75,Move,"(-0.04322, 0.0, 0.0011)","(0.0, 0.10187835909741304, 0.0)","(-0.9557367196519124, -3.004491351284096, 0.06482610244318543)","(-1.9416747371217435, 0.38415029308939336, -2.8299304820762456)","[-0.9551079278398455, -3.167755211641787, 0.034816092367875064]","[-0.026750000193715096, 0.05299999937415123, 0.0]","[0.0, -0.0, 2.8465186976796555]","[-0.04768836498260498, -0.01588820479810238, 0.0]","[0.0, -0.0, 2.3887773632587543]","[0.026750000193715096, 0.05299999937415123, 0.0]","[0.0, -0.0, 2.828829615036225]","[0.004596405196934938, -0.015507066622376442, 0.0]","[0.0, -0.0, -3.0323737673259545]",2.846575280891711,0.013582315504533406,"(0.0, 0.0, 0.0, 0.0, 0.0, 0.0)",-0.0022424496955850506,-0.45774132271582907,1.248844201608059e-19,"(0.0, 0.0, 0.0, 0.0, 0.0, 0.0)",-0.00016727034374174835,2.829010084033983,0.04331620202192734,"(0.0, 0.0, 0.0, 0.0, 0.0, 0.0)",-0.007122478473994646,0.42198194073138573,-3.0540831704437867e-19,"(0.0, 0.0, 0.0, 0.0, 0.0, 0.0)",-0.0005312618913162042,False,,,,,False,,,,
76,Move,"(-0.04322, 0.0, 0.0011)","(0.0, 0.10187835909741304, 0.0)","(-0.9855612329071095, -3.0929475431120275, 0.07364273241767436)","(-2.723687840944354, 0.8231475731317279, 2.7766443810971775)","[-0.9849324410950426, -3.2562114034697185, 0.04363272234236399]","[-0.026750000193715096, 0.05299999937415123, 0.0]","[0.0, -0.0, 2.846627097781815]","[-0.047680895775556564, -0.01589047536253929, 0.0]","[0.0, -0.0, 2.3888858332711287]","[0.026750000193715096, 0.05299999937415123, 0.0]","[0.0, -0.0, 2.829582959766632]","[0.004648022819310427, -0.015523737296462059, 0.0]","[0.0, -0.0, -3.031620390412331]",2.8466261171590945,-0.00024252224998727904,"(0.0, 0.0, 0.0, 0.0, 0.0, 0.0)",3.0329133507764032e-05,-0.45774132271582907,-2.323740979943254e-21,"(0.0, 0.0, 0.0, 0.0, 0.0, 0.0)",2.2623748439957394e-06,2.8296933617393134,0.02649302435657026,"(0.0, 0.0, 0.0, 0.0, 0.0, 0.0)",-0.004357466268247499,0.42198194073138573,-1.2798138437420444e-19,"(0.0, 0.0, 0.0, 0.0, 0.0, 0.0)",-0.0003250290160056304,False,,,,,False,,,,
