OSUrobotics/InHand-Manipulation/AnalyseData/Data/filt_josh_2v2_g_none_1_kpNone_kdNone_dp1_step1_save_data.csv
,Phase,human_cube_pos,human_cube_orn,Cube_Pos,Cube_Orn,Cube_pos_in_start_pos,b'l_prox_pin'_link_pos,b'l_prox_pin'_link_orn,b'l_distal_pin'_link_pos,b'l_distal_pin'_link_orn,b'r_prox_pin'_link_pos,b'r_prox_pin'_link_orn,b'r_distal_pin'_link_pos,b'r_distal_pin'_link_orn,b'l_prox_pin'_joint_angle,b'l_prox_pin'_joint_vel,b'l_prox_pin'_joint_react_forces,b'l_prox_pin'_joint_motor_torque,b'l_distal_pin'_joint_angle,b'l_distal_pin'_joint_vel,b'l_distal_pin'_joint_react_forces,b'l_distal_pin'_joint_motor_torque,b'r_prox_pin'_joint_angle,b'r_prox_pin'_joint_vel,b'r_prox_pin'_joint_react_forces,b'r_prox_pin'_joint_motor_torque,b'r_distal_pin'_joint_angle,b'r_distal_pin'_joint_vel,b'r_distal_pin'_joint_react_forces,b'r_distal_pin'_joint_motor_torque,in_contact_l,contact_point_l_dist,contact_normal_l_dist,contact_distance_l_dist,contact_norm_force_l_dist,in_contact_r,contact_point_r_dist,contact_normal_r_dist,contact_distance_r_dist,contact_norm_force_r_dist
0,Open,,,,,,"[-0.026750000193715096, 0.05299999937415123, 0.0]","[0.0, -0.0, 0.0]","[-0.026750000193715096, 0.125, 0.0]","[0.0, -0.0, 0.0]","[0.026750000193715096, 0.05299999937415123, 0.0]","[0.0, -0.0, 0.0]","[0.026750000193715096, 0.125, 0.0]","[0.0, -0.0, 0.0]",0.003666332176528909,0.8799197223669382,"(0.0, 0.0, 0.0, 0.0, 0.0, 0.0)",-85.13444788611095,0.029188057054649445,7.005133693115867,"(0.0, 0.0, 0.0, 0.0, 0.0, 0.0)",-33.39249373957121,-0.0034617135988985162,-0.830811263735644,"(0.0, 0.0, 0.0, 0.0, 0.0, 0.0)",86.80689259371161,-0.02917060434146158,-7.0009450419507795,"(0.0, 0.0, 0.0, 0.0, 0.0, 0.0)",34.010579468925506,False,,,,,False,,,,
1,Open,,,,,,"[-0.026750000193715096, 0.05299999937415123, 0.0]","[0.0, -0.0, 0.003666332140860972]","[-0.027013976126909256, 0.1249995157122612, 0.0]","[0.0, -0.0, 0.03285439251435708]","[0.026750000193715096, 0.05299999937415123, 0.0]","[0.0, 0.0, -0.003461713535086538]","[0.02699924260377884, 0.12499956786632538, 0.0]","[0.0, 0.0, -0.0326323158429276]",0.16029712504252933,37.591390287840106,"(0.0, 0.0, 0.0, 0.0, 0.0, 0.0)",56.414119113069596,0.026260995902122202,-0.7024946766065385,"(0.0, 0.0, 0.0, 0.0, 0.0, 0.0)",3.1779248312366066,-0.16012010680971497,-37.59801437059595,"(0.0, 0.0, 0.0, 0.0, 0.0, 0.0)",-55.538825502070075,-0.026270714228626132,0.6959736270805079,"(0.0, 0.0, 0.0, 0.0, 0.0, 0.0)",-3.1851856544400796,False,,,,,False,,,,
2,Open,,,,,,"[-0.026750000193715096, 0.05299999937415123, 0.0]","[0.0, -0.0, 0.16029712465063653]","[-0.03824203088879585, 0.1240769550204277, 0.0]","[0.0, -0.0, 0.18655813558460477]","[0.026750000193715096, 0.05299999937415123, 0.0]","[0.0, 0.0, -0.16012010534724]","[0.03822944685816765, 0.12407898902893066, 0.0]","[0.0, 0.0, -0.18639082137306281]",0.30127338485519756,33.83430235504038,"(0.0, 0.0, 0.0, 0.0, 0.0, 0.0)",-5.426428481467394,0.023634896311909983,-0.6302639016509328,"(0.0, 0.0, 0.0, 0.0, 0.0, 0.0)",-0.378070523089696,-0.30110809612874345,-33.837117436566835,"(0.0, 0.0, 0.0, 0.0, 0.0, 0.0)",5.430469601795981,-0.023729427027256444,0.609908928328725,"(0.0, 0.0, 0.0, 0.0, 0.0, 0.0)",0.3769545970533115,False,,,,,False,,,,
3,Open,,,,,,"[-0.026750000193715096, 0.05299999937415123, 0.0]","[0.0, -0.0, 0.301273384544622]","[-0.04811502620577812, 0.12175707519054413, 0.0]","[0.0, -0.0, 0.32490826274979795]","[0.026750000193715096, 0.05299999937415123, 0.0]","[0.0, 0.0, -0.30110807839037096]","[0.048103660345077515, 0.12176060676574707, 0.0]","[0.0, 0.0, -0.324837494190176]",0.4291196715020642,30.683108795248003,"(0.0, 0.0, 0.0, 0.0, 0.0, 0.0)",-4.552579286018831,0.021271406680718984,-0.5672375114858393,"(0.0, 0.0, 0.0, 0.0, 0.0, 0.0)",-0.3175000441629713,-0.4279972865158691,-30.45340569291016,"(0.0, 0.0, 0.0, 0.0, 0.0, 0.0)",4.531178531145313,-0.035251503800459855,-2.765298425568819,"(0.0, 0.0, 0.0, 0.0, 0.0, 0.0)",-0.01982855712574773,False,,,,,False,,,,
4,Open,,,,,,"[-0.026750000193715096, 0.05299999937415123, 0.0]","[0.0, -0.0, 0.42911963056438457]","[-0.056707073003053665, 0.11847192794084549, 0.0]","[0.0, -0.0, 0.45039105429582504]","[0.026750000193715096, 0.05299999937415123, 0.0]","[0.0, 0.0, -0.42799730055175916]","[0.05663356930017471, 0.11850551515817642, 0.0]","[0.0, 0.0, -0.46324881531571743]",0.5441678170851227,27.611554939934045,"(0.0, 0.0, 0.0, 0.0, 0.0, 0.0)",-4.44759405077923,0.019144266012647085,-0.5105137603372556,"(0.0, 0.0, 0.0, 0.0, 0.0, 0.0)",-0.31309363847858035,-0.5421975578642823,-27.40806512361915,"(0.0, 0.0, 0.0, 0.0, 0.0, 0.0)",4.449106800079452,-0.04536969702576206,-2.4283663740725294,"(0.0, 0.0, 0.0, 0.0, 0.0, 0.0)",0.34969389545118046,False,,,,,False,,,,
5,Open,,,,,,"[-0.026750000193715096, 0.05299999937415123, 0.0]","[0.0, -0.0, 0.5441677880466665]","[-0.06402485072612762, 0.11460020393133163, 0.0]","[0.0, -0.0, 0.5633121779033455]","[0.026750000193715096, 0.05299999937415123, 0.0]","[0.0, 0.0, -0.5421976018612148]","[0.06390341371297836, 0.11467352509498596, 0.0]","[0.0, 0.0, -0.5875671750288313]",0.6476255284393907,24.82985072502432,"(0.0, 0.0, 0.0, 0.0, 0.0, 0.0)",-4.032627727006242,0.017229839411382376,-0.4594623843035298,"(0.0, 0.0, 0.0, 0.0, 0.0, 0.0)",-0.28517298580040545,-0.644977802077854,-24.667258611257225,"(0.0, 0.0, 0.0, 0.0, 0.0, 0.0)",4.0356298205629875,-0.05320812912404783,-1.8812237035885837,"(0.0, 0.0, 0.0, 0.0, 0.0, 0.0)",0.3433179209982323,False,,,,,False,,,,
6,Open,,,,,,"[-0.026750000193715096, 0.05299999937415123, 0.0]","[0.0, -0.0, 0.6476255535438407]","[-0.07018719613552094, 0.11042133718729019, 0.0]","[0.0, -0.0, 0.664855368818194]","[0.026750000193715096, 0.05299999937415123, 0.0]","[0.0, 0.0, -0.644977862541622]","[0.07003501057624817, 0.11053614318370819, 0.0]","[0.0, 0.0, -0.6981860033020411]",0.7406536329817177,22.326745090158486,"(0.0, 0.0, 0.0, 0.0, 0.0, 0.0)",-3.63233591240209,0.015506855470244139,-0.413516145873177,"(0.0, 0.0, 0.0, 0.0, 0.0, 0.0)",-0.25783409518400763,-0.7374800218700687,-22.2005327501315,"(0.0, 0.0, 0.0, 0.0, 0.0, 0.0)",3.63508939284954,-0.059034446602380594,-1.398316194799864,"(0.0, 0.0, 0.0, 0.0, 0.0, 0.0)",0.3097080520678389,False,,,,,False,,,,
7,Open,,,,,,"[-0.026750000193715096, 0.05299999937415123, 0.0]","[0.0, -0.0, 0.740653672213991]","[-0.07533347606658936, 0.10613799095153809, 0.0]","[0.0, -0.0, 0.7561605267571277]","[0.026750000193715096, 0.05299999937415123, 0.0]","[0.0, 0.0, -0.7374800309870736]","[0.07516458630561829, 0.10629191249608994, 0.0]","[0.0, 0.0, -0.7965145030609831]",0.8236415337456842,19.917096183351955,"(0.0, 0.0, 0.0, 0.0, 0.0, 0.0)",-3.502322986672706,0.013956169923219724,-0.37216453128585936,"(0.0, 0.0, 0.0, 0.0, 0.0, 0.0)",-0.25022230369235643,-0.8207320196830619,-19.98047947511836,"(0.0, 0.0, 0.0, 0.0, 0.0, 0.0)",3.5159169424869354,-0.053879424507733475,1.237205302715309,"(0.0, 0.0, 0.0, 0.0, 0.0, 0.0)",0.5212102245329443,False,,,,,False,,,,
8,Open,,,,,,"[-0.026750000193715096, 0.05299999937415123, 0.0]","[0.0, -0.0, 0.8236415580231528]","[-0.07957102358341217, 0.10192789882421494, 0.0]","[0.0, -0.0, 0.8375977581757007]","[0.026750000193715096, 0.05299999937415123, 0.0]","[0.0, 0.0, -0.8207320340265961]","[0.07942844182252884, 0.10208138078451157, 0.0]","[0.0, 0.0, -0.874611526185946]",0.8983214391275908,17.923177291657584,"(0.0, 0.0, 0.0, 0.0, 0.0, 0.0)",-2.8982134238401867,0.012560552930897752,-0.33494807815727334,"(0.0, 0.0, 0.0, 0.0, 0.0, 0.0)",-0.20697789654838641,-0.8956588177147558,-17.98243152760652,"(0.0, 0.0, 0.0, 0.0, 0.0, 0.0)",2.89872961279326,-0.049108525829395386,1.1450156828011424,"(0.0, 0.0, 0.0, 0.0, 0.0, 0.0)",0.20198412252176076,False,,,,,False,,,,
9,Open,,,,,,"[-0.026750000193715096, 0.05299999937415123, 0.0]","[0.0, -0.0, 0.8983214686784933]","[-0.08307433128356934, 0.09785052388906479, 0.0]","[0.0, -0.0, 0.9108819698249412]","[0.026750000193715096, 0.05299999937415123, 0.0]","[0.0, 0.0, -0.8956588695978142]","[0.08295471221208572, 0.09800033271312714, 0.0]","[0.0, 0.0, -0.9447673864077532]",0.9655290545479623,16.129827700889184,"(0.0, 0.0, 0.0, 0.0, 0.0, 0.0)",-2.608510457452871,0.011304497637807977,-0.30145327034154606,"(0.0, 0.0, 0.0, 0.0, 0.0, 0.0)",-0.18678019531077908,-0.9630929359432802,-16.18418837484586,"(0.0, 0.0, 0.0, 0.0, 0.0, 0.0)",2.608845039365529,-0.0447530101698048,1.0453237583017412,"(0.0, 0.0, 0.0, 0.0, 0.0, 0.0)",0.18055144838974355,False,,,,,False,,,,
10,Open,,,,,,"[-0.026750000193715096, 0.05299999937415123, 0.0]","[0.0, -0.0, 0.9655290845355112]","[-0.08595920354127884, 0.09396669268608093, 0.0]","[0.0, -0.0, 0.9768335400978374]","[0.026750000193715096, 0.05299999937415123, 0.0]","[0.0, 0.0, -0.9630929499596733]","[0.08585923165082932, 0.09411081671714783, 0.0]","[0.0, 0.0, -1.0078459112787252]",1.0260120384037514,14.515916125389403,"(0.0, 0.0, 0.0, 0.0, 0.0, 0.0)",-2.349002124990502,0.010174047874027179,-0.2713079433073914,"(0.0, 0.0, 0.0, 0.0, 0.0, 0.0)",-0.1685997201884765,-1.0237836423489521,-14.565769537361277,"(0.0, 0.0, 0.0, 0.0, 0.0, 0.0)",2.3492555800664623,-0.040777788056058736,0.9540533072990552,"(0.0, 0.0, 0.0, 0.0, 0.0, 0.0)",0.16280100190580296,False,,,,,False,,,,
11,Open,,,,,,"[-0.026750000193715096, 0.05299999937415123, 0.0]","[0.0, -0.0, 1.0260120567421092]","[-0.08832721412181854, 0.09031282365322113, 0.0]","[0.0, -0.0, 1.0361862302015332]","[0.026750000193715096, 0.05299999937415123, 0.0]","[0.0, 0.0, -1.0237837867572912]","[0.08824391663074493, 0.09044994413852692, 0.0]","[0.0, 0.0, -1.0645613341711142]",1.080443220613551,13.063483730351903,"(0.0, 0.0, 0.0, 0.0, 0.0, 0.0)",-2.1151827006510984,0.00915664308662446,-0.24417714897665233,"(0.0, 0.0, 0.0, 0.0, 0.0, 0.0)",-0.15214220915386478,-1.078405278114057,-13.109192583625152,"(0.0, 0.0, 0.0, 0.0, 0.0, 0.0)",2.115371727222695,-0.03715030200797935,0.8705966515390522,"(0.0, 0.0, 0.0, 0.0, 0.0, 0.0)",0.14676042638930445,False,,,,,False,,,,
12,Open,,,,,,"[-0.026750000193715096, 0.05299999937415123, 0.0]","[0.0, -0.0, 1.0804432208269121]","[-0.09026599675416946, 0.08690749108791351, 0.0]","[0.0, -0.0, 1.089599930019085]","[0.026750000193715096, 0.05299999937415123, 0.0]","[0.0, 0.0, -1.0784052990126476]","[0.09019676595926285, 0.0870368629693985, 0.0]","[0.0, 0.0, -1.1155555886244148]",1.129790573040266,11.843364582411594,"(0.0, 0.0, 0.0, 0.0, 0.0, 0.0)",-1.7768014103631813,0.008240978777962014,-0.21975943407898696,"(0.0, 0.0, 0.0, 0.0, 0.0, 0.0)",-0.1277254079862875,-1.1275647503026514,-11.798273325262633,"(0.0, 0.0, 0.0, 0.0, 0.0, 0.0)",1.7724501778486563,-0.03887055306393117,-0.4128602534284367,"(0.0, 0.0, 0.0, 0.0, 0.0, 0.0)",5.0240902672200327e-05,False,,,,,False,,,,
13,Open,,,,,,"[-0.026750000193715096, 0.05299999937415123, 0.0]","[0.0, -0.0, 1.1297906346763253]","[-0.09186124056577682, 0.08373314142227173, 0.0]","[0.0, -0.0, 1.138031597773669]","[0.026750000193715096, 0.05299999937415123, 0.0]","[0.0, 0.0, -1.1275646619774824]","[0.09179267287254333, 0.08387799561023712, 0.0]","[0.0, 0.0, -1.1664352688819788]",1.174194403480137,10.65691930556904,"(0.0, 0.0, 0.0, 0.0, 0.0, 0.0)",-1.7294919663937818,0.007416880900165812,-0.1977834906710884,"(0.0, 0.0, 0.0, 0.0, 0.0, 0.0)",-0.12486004269320584,-1.1718082752723862,-10.618445992736367,"(0.0, 0.0, 0.0, 0.0, 0.0, 0.0)",1.729912701369117,-0.04028833633583729,-0.3402679852574687,"(0.0, 0.0, 0.0, 0.0, 0.0, 0.0)",0.13422644749903287,False,,,,,False,,,,
14,Open,,,,,,"[-0.026750000193715096, 0.05299999937415123, 0.0]","[0.0, -0.0, 1.1741944283651782]","[-0.09316128492355347, 0.08081261068582535, 0.0]","[0.0, -0.0, 1.1816112280342423]","[0.026750000193715096, 0.05299999937415123, 0.0]","[0.0, 0.0, -1.1718082569491624]","[0.09309472888708115, 0.08097099512815475, 0.0]","[0.0, 0.0, -1.212096666648221]",1.2141223950675137,9.582717980970411,"(0.0, 0.0, 0.0, 0.0, 0.0, 0.0)",-1.566594992367831,0.006675192810149232,-0.17800514160397932,"(0.0, 0.0, 0.0, 0.0, 0.0, 0.0)",-0.11329787118344785,-1.2116274477451476,-9.556601393462733,"(0.0, 0.0, 0.0, 0.0, 0.0, 0.0)",1.5672858667050884,-0.04106564033124498,-0.1865529588978459,"(0.0, 0.0, 0.0, 0.0, 0.0, 0.0)",0.1307419266208747,False,,,,,False,,,,
15,Open,,,,,,"[-0.026750000193715096, 0.05299999937415123, 0.0]","[0.0, -0.0, 1.2141223392101477]","[-0.09421855956315994, 0.07813947647809982, 0.0]","[0.0, -0.0, 1.2207974794667436]","[0.026750000193715096, 0.05299999937415123, 0.0]","[0.0, 0.0, -1.2116274635307658]","[0.09415563195943832, 0.07830773293972015, 0.0]","[0.0, 0.0, -1.2526930787126354]",1.2500233098887061,8.616219557086183,"(0.0, 0.0, 0.0, 0.0, 0.0, 0.0)",-1.4100584071138376,0.00600767352913431,-0.16020462744358144,"(0.0, 0.0, 0.0, 0.0, 0.0, 0.0)",-0.10211991211471189,-1.2481206164829213,-8.758360497065684,"(0.0, 0.0, 0.0, 0.0, 0.0, 0.0)",1.2932348584727291,-0.03695907629812049,0.9855753679498797,"(0.0, 0.0, 0.0, 0.0, 0.0, 0.0)",0.21389399491797542,False,,,,,False,,,,
16,Open,,,,,,"[-0.026750000193715096, 0.05299999937415123, 0.0]","[0.0, -0.0, 1.2500233203619904]","[-0.09507742524147034, 0.07570161670446396, 0.0]","[0.0, -0.0, 1.2560309069960767]","[0.026750000193715096, 0.05299999937415123, 0.0]","[0.0, 0.0, -1.2481206827618714]","[0.09503410756587982, 0.0758315846323967, 0.0]","[0.0, 0.0, -1.2850796813886136]",1.2823030168301794,7.747129665953585,"(0.0, 0.0, 0.0, 0.0, 0.0, 0.0)",-1.2683745218339015,0.005406906176220879,-0.14418416469922338,"(0.0, 0.0, 0.0, 0.0, 0.0, 0.0)",-0.09197282646179201,-1.2805955349677707,-7.793980436363841,"(0.0, 0.0, 0.0, 0.0, 0.0, 0.0)",1.3993458307443856,-0.03326316866830844,0.8870178311548916,"(0.0, 0.0, 0.0, 0.0, 0.0, 0.0)",0.09358448330413877,False,,,,,False,,,,
17,Open,,,,,,"[-0.026750000193715096, 0.05299999937415123, 0.0]","[0.0, -0.0, 1.2823030544570384]","[-0.09577450156211853, 0.07348458468914032, 0.0]","[0.0, -0.0, 1.2877098916341412]","[0.026750000193715096, 0.05299999937415123, 0.0]","[0.0, 0.0, -1.2805956370255642]","[0.09573942422866821, 0.07360241562128067, 0.0]","[0.0, 0.0, -1.313858563716503]",1.3113266716554728,6.965677158070388,"(0.0, 0.0, 0.0, 0.0, 0.0, 0.0)",-1.140820262286684,0.0048662155585987915,-0.12976574822930115,"(0.0, 0.0, 0.0, 0.0, 0.0, 0.0)",-0.08281544911094667,-1.3097692340456817,-7.001687778698641,"(0.0, 0.0, 0.0, 0.0, 0.0, 0.0)",1.148762398722076,-0.029936851801477593,0.7983160480394026,"(0.0, 0.0, 0.0, 0.0, 0.0, 0.0)",0.07606387746284661,False,,,,,False,,,,
18,Open,,,,,,"[-0.026750000193715096, 0.05299999937415123, 0.0]","[0.0, -0.0, 1.3113267098134453]","[-0.0963398888707161, 0.0714728981256485, 0.0]","[0.0, -0.0, 1.3161928904728206]","[0.026750000193715096, 0.05299999937415123, 0.0]","[0.0, 0.0, -1.3097692980214968]","[0.09631103277206421, 0.07158125191926956, 0.0]","[0.0, 0.0, -1.3397061660611325]",1.3374226396227844,6.263032312154804,"(0.0, 0.0, 0.0, 0.0, 0.0, 0.0)",-1.0260509375655766,0.004379594002738912,-0.11678917340637102,"(0.0, 0.0, 0.0, 0.0, 0.0, 0.0)",-0.07455812546867754,-1.3360002015007986,-6.295432189228059,"(0.0, 0.0, 0.0, 0.0, 0.0, 0.0)",1.0241670521326574,-0.026943166621329832,0.7184844432354621,"(0.0, 0.0, 0.0, 0.0, 0.0, 0.0)",0.0677933990562738,False,,,,,False,,,,
19,Open,,,,,,"[-0.026750000193715096, 0.05299999937415123, 0.0]","[0.0, -0.0, 1.337422599908487]","[-0.09679820388555527, 0.069650799036026, 0.0]","[0.0, -0.0, 1.341802240600705]","[0.026750000193715096, 0.05299999937415123, 0.0]","[0.0, 0.0, -1.3360002987046422]","[0.09677445143461227, 0.06975042074918747, 0.0]","[0.0, 0.0, -1.36294336464558]",1.3608861859844497,5.63125112679965,"(0.0, 0.0, 0.0, 0.0, 0.0, 0.0)",-0.9227968999123518,0.003941634602465021,-0.10511025606573396,"(0.0, 0.0, 0.0, 0.0, 0.0, 0.0)",-0.06711493445237729,-1.359587125274596,-5.660861705711382,"(0.0, 0.0, 0.0, 0.0, 0.0, 0.0)",0.9204133357686322,-0.02424884995919685,0.646635998911916,"(0.0, 0.0, 0.0, 0.0, 0.0, 0.0)",0.06096258417400382,False,,,,,False,,,,
20,Open,,,,,,"[-0.026750000193715096, 0.05299999937415123, 0.0]","[0.0, -0.0, 1.3608862730315148]","[-0.09716957062482834, 0.06800278276205063, 0.0]","[0.0, -0.0, 1.3648279742197553]","[0.026750000193715096, 0.05299999937415123, 0.0]","[0.0, 0.0, -1.3595871157090949]","[0.09715002775192261, 0.06809425354003906, 0.0]","[0.0, 0.0, -1.383835958629086]",1.3819828088447406,5.063189486469817,"(0.0, 0.0, 0.0, 0.0, 0.0, 0.0)",-0.8299089855641557,0.003547471142218519,-0.09459923045916045,"(0.0, 0.0, 0.0, 0.0, 0.0, 0.0)",-0.06040740873779013,-1.3807966421287152,-5.090284044988651,"(0.0, 0.0, 0.0, 0.0, 0.0, 0.0)",0.8277619002708487,-0.021823964963277164,0.5819723990207243,"(0.0, 0.0, 0.0, 0.0, 0.0, 0.0)",0.05485975485237336,False,,,,,False,,,,
21,Open,,,,,,"[-0.026750000193715096, 0.05299999937415123, 0.0]","[0.0, -0.0, 1.3819828450488676]","[-0.09747038781642914, 0.06651394069194794, 0.0]","[0.0, -0.0, 1.3855303293962655]","[0.026750000193715096, 0.05299999937415123, 0.0]","[0.0, 0.0, -1.3807967326838775]","[0.09745430946350098, 0.0665978193283081, 0.0]","[0.0, 0.0, -1.402620767847755]",1.4009512379204834,4.552422978178264,"(0.0, 0.0, 0.0, 0.0, 0.0, 0.0)",-0.7463512400604935,0.0031927240279966667,-0.0851393074132445,"(0.0, 0.0, 0.0, 0.0, 0.0, 0.0)",-0.05436427015961512,-1.399868362805756,-4.577212962489807,"(0.0, 0.0, 0.0, 0.0, 0.0, 0.0)",0.7444695723317403,-0.01964156846694945,0.5237751591186519,"(0.0, 0.0, 0.0, 0.0, 0.0, 0.0)",0.04936675074828635,False,,,,,False,,,,
22,Open,,,,,,"[-0.026750000193715096, 0.05299999937415123, 0.0]","[0.0, -0.0, 1.4009511880418037]","[-0.09771399199962616, 0.06517013907432556, 0.0]","[0.0, -0.0, 1.4041440558888152]","[0.026750000193715096, 0.05299999937415123, 0.0]","[0.0, 0.0, -1.3998683862071348]","[0.09770076721906662, 0.06524697691202164, 0.0]","[0.0, 0.0, -1.4195101335710019]",1.4180061316934724,4.093174505517382,"(0.0, 0.0, 0.0, 0.0, 0.0, 0.0)",-0.6711903027964848,0.002873451625197,-0.07662537667191999,"(0.0, 0.0, 0.0, 0.0, 0.0, 0.0)",-0.0489208648587936,-1.4170177423335535,-4.115851086671384,"(0.0, 0.0, 0.0, 0.0, 0.0, 0.0)",0.6695478164776268,-0.017677411620254505,0.4713976432067868,"(0.0, 0.0, 0.0, 0.0, 0.0, 0.0)",0.044420099415600385,False,,,,,False,,,,
23,Open,,,,,,"[-0.026750000193715096, 0.05299999937415123, 0.0]","[0.0, -0.0, 1.4180060178702165]","[-0.09791121631860733, 0.06395813822746277, 0.0]","[0.0, -0.0, 1.4208796612803194]","[0.026750000193715096, 0.05299999937415123, 0.0]","[0.0, 0.0, -1.4170178118861347]","[0.09790035337209702, 0.06402847170829773, 0.0]","[0.0, 0.0, -1.4346951365601908]",1.4333405031367956,3.680249146397587,"(0.0, 0.0, 0.0, 0.0, 0.0, 0.0)",-0.6035854485089583,0.0025861064626773005,-0.06896283900472794,"(0.0, 0.0, 0.0, 0.0, 0.0, 0.0)",-0.04401860537347084,-1.4324385250576417,-3.700987853781146,"(0.0, 0.0, 0.0, 0.0, 0.0, 0.0)",0.6021544022705791,-0.015909670458229053,0.4242578788861081,"(0.0, 0.0, 0.0, 0.0, 0.0, 0.0)",0.03996593566293772,False,,,,,False,,,,
24,Open,,,,,,"[-0.026750000193715096, 0.05299999937415123, 0.0]","[0.0, -0.0, 1.433340417582614]","[-0.09807088226079941, 0.06286568194627762, 0.0]","[0.0, -0.0, 1.435926710678358]","[0.026750000193715096, 0.05299999937415123, 0.0]","[0.0, 0.0, -1.4324385070384467]","[0.0980619564652443, 0.06293001025915146, 0.0]","[0.0, 0.0, -1.4483481546235786]",1.4471279012605536,3.30897554970189,"(0.0, 0.0, 0.0, 0.0, 0.0, 0.0)",-0.5427795369014742,0.0023274958164095708,-0.062066555104255156,"(0.0, 0.0, 0.0, 0.0, 0.0, 0.0)",-0.03960444627738313,-1.4463049323522907,-3.3279377507157943,"(0.0, 0.0, 0.0, 0.0, 0.0, 0.0)",0.5415348414255705,-0.014318703412406148,0.38183209099749726,"(0.0, 0.0, 0.0, 0.0, 0.0, 0.0)",0.035955821533507806,False,,,,,False,,,,
25,Open,,,,,,"[-0.026750000193715096, 0.05299999937415123, 0.0]","[0.0, -0.0, 1.4471279707882763]","[-0.09820012003183365, 0.061881449073553085, 0.0]","[0.0, -0.0, 1.4494554791099041]","[0.026750000193715096, 0.05299999937415123, 0.0]","[0.0, 0.0, -1.4463050260732802]","[0.09819278866052628, 0.06194024533033371, 0.0]","[0.0, 0.0, -1.4606234633770097]",1.459524373005365,2.975153218754787,"(0.0, 0.0, 0.0, 0.0, 0.0, 0.0)",-0.4880908169705902,0.0020947462347686136,-0.055859899593829684,"(0.0, 0.0, 0.0, 0.0, 0.0, 0.0)",-0.035630395797775154,-1.4587736292263653,-2.9924872497779087,"(0.0, 0.0, 0.0, 0.0, 0.0, 0.0)",0.4870101117873666,-0.012886833071165534,0.3436488818977475,"(0.0, 0.0, 0.0, 0.0, 0.0, 0.0)",0.03234598516090095,False,,,,,False,,,,
26,Open,,,,,,"[-0.026750000193715096, 0.05299999937415123, 0.0]","[0.0, -0.0, 1.459524441636309]","[-0.09830472618341446, 0.060995057225227356, 0.0]","[0.0, -0.0, 1.4616192022028514]","[0.026750000193715096, 0.05299999937415123, 0.0]","[0.0, 0.0, -1.4587737274894075]","[0.09829870611429214, 0.06104877591133118, 0.0]","[0.0, 0.0, -1.4716605775465148]",1.470670227558385,2.675005092724741,"(0.0, 0.0, 0.0, 0.0, 0.0, 0.0)",-0.4389055126042824,0.0018852716112917522,-0.05027390963444674,"(0.0, 0.0, 0.0, 0.0, 0.0, 0.0)",-0.0320530631419506,-1.469985492900335,-2.6908472817527356,"(0.0, 0.0, 0.0, 0.0, 0.0, 0.0)",0.43796892451787933,-0.01159814976404898,0.3092839937079728,"(0.0, 0.0, 0.0, 0.0, 0.0, 0.0)",0.02909687457796153,False,,,,,False,,,,
27,Open,,,,,,"[-0.026750000193715096, 0.05299999937415123, 0.0]","[0.0, -0.0, 1.4706702426761566]","[-0.0983893945813179, 0.06019704043865204, 0.0]","[0.0, -0.0, 1.4725554301957995]","[0.026750000193715096, 0.05299999937415123, 0.0]","[0.0, 0.0, -1.469985667815412]","[0.09838444739580154, 0.06024609133601189, 0.0]","[0.0, 0.0, -1.4815836776395124]",1.480691622956023,2.4051348954331093,"(0.0, 0.0, 0.0, 0.0, 0.0, 0.0)",-0.394671119489225,0.0016967444501625772,-0.04524651867100202,"(0.0, 0.0, 0.0, 0.0, 0.0, 0.0)",-0.028833240535576277,-1.4800672033310172,-2.4196105033636726,"(0.0, 0.0, 0.0, 0.0, 0.0, 0.0)",0.3938610140891082,-0.010438334787644082,0.27835559433717555,"(0.0, 0.0, 0.0, 0.0, 0.0, 0.0)",0.02617276816716015,False,,,,,False,,,,
28,Open,,,,,,"[-0.026750000193715096, 0.05299999937415123, 0.0]","[0.0, -0.0, 1.4806917174350276]","[-0.09845791757106781, 0.0594787634909153, 0.0]","[0.0, -0.0, 1.4823882964979418]","[0.026750000193715096, 0.05299999937415123, 0.0]","[0.0, 0.0, -1.4800671253781377]","[0.09845385700464249, 0.05952353775501251, 0.0]","[0.0, 0.0, -1.4905054162370832]",1.4897019928468394,2.1624887737959235,"(0.0, 0.0, 0.0, 0.0, 0.0, 0.0)",-0.3548903486043437,0.0015270700051463195,-0.04072186680390183,"(0.0, 0.0, 0.0, 0.0, 0.0, 0.0)",-0.025935518569043907,-1.4891326735926684,-2.175712862796307,"(0.0, 0.0, 0.0, 0.0, 0.0, 0.0)",0.3541911002208335,-0.009394501308879675,0.250520034903458,"(0.0, 0.0, 0.0, 0.0, 0.0, 0.0)",0.023541418827229096,False,,,,,False,,,,
29,Close,,,"(-3.6446745474647515e-13, 0.1600029112633939, 0.002514152898834638)","(-9.260627238627092e-05, -1.1593594961054301e-11, -4.4705400689262225e-15)",,"[-0.026750000193715096, 0.05299999937415123, 0.0]","[0.0, -0.0, 1.4897019508130835]","[-0.09851337969303131, 0.05883239582180977, 0.0]","[0.0, -0.0, 1.4912292304794907]","[0.026750000193715096, 0.05299999937415123, 0.0]","[0.0, 0.0, -1.4891325737158034]","[0.09851004928350449, 0.058873251080513, 0.0]","[0.0, 0.0, -1.498527252532298]",1.4977317935621555,1.927152171675857,"(0.0, 0.0, 0.0, 0.0, 0.0, 0.0)",-0.34244358993972485,0.0014458989381090836,-0.019481056088936636,"(0.0, 0.0, 0.0, 0.0, 0.0, 0.0)",-0.02332793318784059,-1.4972194062334017,-1.9408158337759587,"(0.0, 0.0, 0.0, 0.0, 0.0, 0.0)",0.3396871665054453,-0.008519981165818459,0.20988483433469163,"(0.0, 0.0, 0.0, 0.0, 0.0, 0.0)",0.021173728282841194,False,,,,,False,,,,
30,Close,,,"(-7.288375118184478e-13, 0.16000582174880257, 0.004854022822328586)","(-0.00018519676735729603, -2.318521501547535e-11, -7.438838668398815e-15)",,"[-0.026750000193715096, 0.05299999937415123, 0.0]","[0.0, -0.0, 1.4977316596599053]","[-0.09855790436267853, 0.05825596675276756, 0.0]","[0.0, -0.0, 1.499177910139435]","[0.026750000193715096, 0.05299999937415123, 0.0]","[0.0, 0.0, -1.4972194863383161]","[0.09855519980192184, 0.05829276144504547, 0.0]","[0.0, 0.0, -1.5057394520426615]",1.42197206061581,-18.182335907122948,"(0.0, 0.0, 0.0, 0.0, 0.0, 0.0)",-31.893078251166898,-0.08869869095570185,-21.634701574514622,"(0.0, 0.0, 0.0, 0.0, 0.0, 0.0)",-4.569797662375169,-1.4215049684824084,18.171465060238408,"(0.0, 0.0, 0.0, 0.0, 0.0, 0.0)",31.894929913744065,0.08233201695076339,21.804479547979643,"(0.0, 0.0, 0.0, 0.0, 0.0, 0.0)",4.567859469365034,False,,,,,False,,,,
31,Close,,,"(-1.09311273738181e-12, 0.16000873147672387, 0.007019672656584678)","(-0.00027777148765952155, -3.477486032834019e-11, -8.905663296488262e-15)",,"[-0.026750000193715096, 0.05299999937415123, 0.0]","[0.0, -0.0, 1.4219720993228873]","[-0.09795411676168442, 0.06367583572864532, 0.0]","[0.0, -0.0, 1.3332734492947824]","[0.026750000193715096, 0.05299999937415123, 0.0]","[0.0, 0.0, -1.4215049217280367]","[0.09794912487268448, 0.06370909512042999, 0.0]","[0.0, 0.0, -1.3391729762749132]",1.339666814972493,-19.753258954396046,"(0.0, 0.0, 0.0, 0.0, 0.0, 0.0)",-2.1146332696372863,-0.16982882186013168,-19.47123141706316,"(0.0, 0.0, 0.0, 0.0, 0.0, 0.0)",0.035231806196709604,-1.3392417147812838,19.743180888269887,"(0.0, 0.0, 0.0, 0.0, 0.0, 0.0)",2.1141562471800537,0.16409881525568704,19.624031593181677,"(0.0, 0.0, 0.0, 0.0, 0.0, 0.0)",-0.03677011262280657,False,,,,,False,,,,
32,Close,,,"(-1.4572956946778838e-12, 0.16001164046763222, 0.009011162836365362)","(-0.0003703304360388955, -4.636253106484608e-11, -8.871781162623477e-15)",,"[-0.026750000193715096, 0.05299999937415123, 0.0]","[0.0, -0.0, 1.3396668638191538]","[-0.09683539718389511, 0.06949355453252792, 0.0]","[0.0, -0.0, 1.1698379113906343]","[0.026750000193715096, 0.05299999937415123, 0.0]","[0.0, 0.0, -1.3392416384049743]","[0.09682837873697281, 0.06952334940433502, 0.0]","[0.0, 0.0, -1.1751428324527424]",1.2645546737274869,-18.026913898801503,"(0.0, 0.0, 0.0, 0.0, 0.0, 0.0)",2.701462301641231,-0.24284593967411852,-17.52410827535684,"(0.0, 0.0, 0.0, 0.0, 0.0, 0.0)",0.373535469044771,-1.2641678841825388,18.0177193436988,"(0.0, 0.0, 0.0, 0.0, 0.0, 0.0)",-2.7016470743898555,0.23768893373011835,17.661628433863513,"(0.0, 0.0, 0.0, 0.0, 0.0, 0.0)",-0.3749048883664945,False,,,,,False,,,,
33,Close,,,"(-1.8213889441141398e-12, 0.16001454874197946, 0.010828551348521245)","(-0.00046287361524086854, -5.794822739031051e-11, -7.337959187673562e-15)",,"[-0.026750000193715096, 0.05299999937415123, 0.0]","[0.0, -0.0, 1.264554778946591]","[-0.09540008008480072, 0.07470636814832687, 0.0]","[0.0, -0.0, 1.0217087552360251]","[0.026750000193715096, 0.05299999937415123, 0.0]","[0.0, 0.0, -1.2641678966104004]","[0.09539168328046799, 0.07473291456699371, 0.0]","[0.0, 0.0, -1.026478995938987]",1.1969761164048047,-16.218853757443743,"(0.0, 0.0, 0.0, 0.0, 0.0, 0.0)",2.807808538862854,-0.3085613457067067,-15.771697447821161,"(0.0, 0.0, 0.0, 0.0, 0.0, 0.0)",0.3662406575607725,-1.1966241842394811,16.21048798633384,"(0.0, 0.0, 0.0, 0.0, 0.0, 0.0)",-2.8079420043651138,0.3039200403571065,15.895465590477158,"(0.0, 0.0, 0.0, 0.0, 0.0, 0.0)",-0.36748687661336543,False,,,,,False,,,,
34,Close,,,"(-1.8721068929714823e-12, 0.16001497449598676, 0.01247685738369848)","(-0.0004290995754584241, -6.271830884298004e-11, -6.4018368905013444e-12)",,"[-0.026750000193715096, 0.05299999937415123, 0.0]","[0.0, -0.0, 1.1969760769750144]","[-0.0937776118516922, 0.07929256558418274, 0.0]","[0.0, -0.0, 0.8884148213761351]","[0.026750000193715096, 0.05299999937415123, 0.0]","[0.0, 0.0, -1.1966241714341814]","[0.09376835823059082, 0.079316146671772, 0.0]","[0.0, 0.0, -0.8927041768812463]",1.1372785047643243,-14.327426793715315,"(0.0, 0.0, 0.0, 0.0, 0.0, 0.0)",2.915985550123481,-0.3677815508098981,-14.212849224765941,"(0.0, 0.0, 0.0, 0.0, 0.0, 0.0)",0.3586262160651048,-1.136961765815533,14.31898042174755,"(0.0, 0.0, 0.0, 0.0, 0.0, 0.0)",-2.917326632232815,0.3636046357863958,14.32430290302943,"(0.0, 0.0, 0.0, 0.0, 0.0, 0.0)",-0.35984665503244995,False,,,,,False,,,,
35,Close,,,"(-2.013398333574275e-12, 0.16001433463256418, 0.013993236021024829)","(-0.00040875906809945123, -6.420279884324033e-11, -8.374157784986026e-12)",,"[-0.026750000193715096, 0.05299999937415123, 0.0]","[0.0, -0.0, 1.1372784839666645]","[-0.09208954125642776, 0.08324474096298218, 0.0]","[0.0, -0.0, 0.7694969787146702]","[0.026750000193715096, 0.05299999937415123, 0.0]","[0.0, 0.0, -1.1369618539504307]","[0.09207995980978012, 0.08326543122529984, 0.0]","[0.0, 0.0, -0.7733570806702021]",1.0835506542878919,-12.89468411434379,"(0.0, 0.0, 0.0, 0.0, 0.0, 0.0)",2.2134000124035134,-0.42185247433495776,-12.977021646014318,"(0.0, 0.0, 0.0, 0.0, 0.0, 0.0)",0.2768853082682624,-1.0832655892339798,12.887082379572794,"(0.0, 0.0, 0.0, 0.0, 0.0, 0.0)",-2.213211613151721,0.41809616128841426,13.077966120484431,"(0.0, 0.0, 0.0, 0.0, 0.0, 0.0)",-0.27783441669409936,False,,,,,False,,,,
36,Close,,,"(-2.1456383952088714e-12, 0.16001357706960892, 0.015388207501380442)","(-0.00038467628346057026, -6.673929453859397e-11, -9.468503716323603e-12)",,"[-0.026750000193715096, 0.05299999937415123, 0.0]","[0.0, -0.0, 1.0835506007962263]","[-0.09037105739116669, 0.08670996129512787, 0.0]","[0.0, -0.0, 0.661698160834968]","[0.026750000193715096, 0.05299999937415123, 0.0]","[0.0, 0.0, -1.0832654648195448]","[0.09036144614219666, 0.08672809600830078, 0.0]","[0.0, 0.0, -0.6651694055460738]",1.0343641500763914,-11.8047610107601,"(0.0, 0.0, 0.0, 0.0, 0.0, 0.0)",1.7434919093743309,-0.469667226901462,-11.475540615961018,"(0.0, 0.0, 0.0, 0.0, 0.0, 0.0)",0.27113294578025376,-1.03410472872884,11.798606521233546,"(0.0, 0.0, 0.0, 0.0, 0.0, 0.0)",-1.7424674114432885,0.46628654515957285,11.565692129078059,"(0.0, 0.0, 0.0, 0.0, 0.0, 0.0)",-0.2720665071566009,False,,,,,False,,,,
37,Close,,,"(-2.2786424453781977e-12, 0.1600127705106716, 0.01667149757786289)","(-0.0003590349836890303, -7.004321053282436e-11, -1.0075942342721526e-11)",,"[-0.026750000193715096, 0.05299999937415123, 0.0]","[0.0, -0.0, 1.0343640862817822]","[-0.08863670378923416, 0.08979722857475281, 0.0]","[0.0, -0.0, 0.5646969104137647]","[0.026750000193715096, 0.05299999937415123, 0.0]","[0.0, 0.0, -1.0341047301369752]","[0.0886271595954895, 0.08981327712535858, 0.0]","[0.0, 0.0, -0.5678181683561235]",0.99017142293716,-10.606254513415529,"(0.0, 0.0, 0.0, 0.0, 0.0, 0.0)",1.867694036378127,-0.5127005042113159,-10.327986554364914,"(0.0, 0.0, 0.0, 0.0, 0.0, 0.0)",0.24663407629274436,-0.9899353267834833,10.600656466885633,"(0.0, 0.0, 0.0, 0.0, 0.0, 0.0)",-1.8677976911524912,0.5096578906436156,10.409122916170254,"(0.0, 0.0, 0.0, 0.0, 0.0, 0.0)",-0.2474874631020125,False,,,,,False,,,,
38,Close,,,"(-2.4185626566556435e-12, 0.16001195974881022, 0.017852074029266845)","(-0.00033325906052880113, -7.397927472155015e-11, -1.0413335693785441e-11)",,"[-0.026750000193715096, 0.05299999937415123, 0.0]","[0.0, -0.0, 0.9901713701970237]","[-0.0869506448507309, 0.09249535202980042, 0.0]","[0.0, -0.0, 0.47747094783297833]","[0.026750000193715096, 0.05299999937415123, 0.0]","[0.0, 0.0, -0.9899352898736319]","[0.08694131672382355, 0.09250956028699875, 0.0]","[0.0, 0.0, -0.48027741210944686]",0.9504709952833765,-9.528102636908022,"(0.0, 0.0, 0.0, 0.0, 0.0, 0.0)",1.6815330606899268,-0.5514304537901843,-9.29518789892842,"(0.0, 0.0, 0.0, 0.0, 0.0, 0.0)",0.222819979457162,-0.9502561337780204,9.523006321311081,"(0.0, 0.0, 0.0, 0.0, 0.0, 0.0)",-1.681631118342823,0.548692101579254,9.368210624553226,"(0.0, 0.0, 0.0, 0.0, 0.0, 0.0)",-0.22359445837852177,False,,,,,False,,,,
39,Close,,,"(-2.569494595522615e-12, 0.16001117307055343, 0.018938176510118417)","(-0.00030824782514430135, -7.84941995990362e-11, -1.0600950999782143e-11)",,"[-0.026750000193715096, 0.05299999937415123, 0.0]","[0.0, -0.0, 0.950471056779805]","[-0.0853356346487999, 0.09485359489917755, 0.0]","[0.0, -0.0, 0.39904055329019955]","[0.026750000193715096, 0.05299999937415123, 0.0]","[0.0, 0.0, -0.9502562474412563]","[0.08532664179801941, 0.09486617892980576, 0.0]","[0.0, 0.0, -0.40156403082749287]",0.9148072111438467,-8.559308193487158,"(0.0, 0.0, 0.0, 0.0, 0.0, 0.0)",1.512207520327997,-0.5862874084111659,-8.36566910903558,"(0.0, 0.0, 0.0, 0.0, 0.0, 0.0)",0.20110141447173455,-0.914611683641121,8.554668032855869,"(0.0, 0.0, 0.0, 0.0, 0.0, 0.0)",-1.5122939934165198,0.5838228914213286,8.431389562097907,"(0.0, 0.0, 0.0, 0.0, 0.0, 0.0)",-0.20180323186759797,False,,,,,False,,,,
40,Close,,,"(-2.7343764809839044e-12, 0.16001042746756558, 0.019937378067197288)","(-0.0002845416106282153, -8.357962440693949e-11, -1.0705492844925015e-11)",,"[-0.026750000193715096, 0.05299999937415123, 0.0]","[0.0, -0.0, 0.9148071703136688]","[-0.08380603790283203, 0.09691592305898666, 0.0]","[0.0, -0.0, 0.32851982621243414]","[0.026750000193715096, 0.05299999937415123, 0.0]","[0.0, 0.0, -0.91461167198235]","[0.08379745483398438, 0.09692707657814026, 0.0]","[0.0, 0.0, -0.33078877182932753]",0.8827701610600989,-7.688892020099469,"(0.0, 0.0, 0.0, 0.0, 0.0, 0.0)",1.3596693217584395,-0.6176586675700493,-7.529102198132019,"(0.0, 0.0, 0.0, 0.0, 0.0, 0.0)",0.1814193845931095,-0.8825922378001475,7.684667001833628,"(0.0, 0.0, 0.0, 0.0, 0.0, 0.0)",-1.3597444086584045,0.6154406022791957,7.588250605888115,"(0.0, 0.0, 0.0, 0.0, 0.0, 0.0)",-0.18205479466641547,False,,,,,False,,,,
41,Close,,,"(-2.915492805425637e-12, 0.16000973228138246, 0.02085664074163429)","(-0.0002624375831480928, -8.92517270389134e-11, -1.0763962960505134e-11)",,"[-0.026750000193715096, 0.05299999937415123, 0.0]","[0.0, -0.0, 0.8827701951621513]","[-0.08237006515264511, 0.098720982670784, 0.0]","[0.0, -0.0, 0.2651115270742261]","[0.026750000193715096, 0.05299999937415123, 0.0]","[0.0, 0.0, -0.8825922498235488]","[0.08236192911863327, 0.09873087704181671, 0.0]","[0.0, 0.0, -0.26715165694200216]",0.853991442080571,-6.906892555086685,"(0.0, 0.0, 0.0, 0.0, 0.0, 0.0)",1.2223975371052425,-0.6458928008130443,-6.776191978318818,"(0.0, 0.0, 0.0, 0.0, 0.0, 0.0)",0.1636057648883954,-0.8538295483265,6.903045473675387,"(0.0, 0.0, 0.0, 0.0, 0.0, 0.0)",-1.2224620383060032,0.6438965420512761,6.829425545299302,"(0.0, 0.0, 0.0, 0.0, 0.0, 0.0)",-0.16418062213648776,False,,,,,False,,,,
42,Close,,,"(-3.1147585897443805e-12, 0.16000909174333114, 0.021702366045096275)","(-0.0002420704518640883, -9.554007724874187e-11, -1.0796890040756614e-11)",,"[-0.026750000193715096, 0.05299999937415123, 0.0]","[0.0, -0.0, 0.853991421209082]","[-0.0810314267873764, 0.10030250251293182, 0.0]","[0.0, -0.0, 0.20809864251075574]","[0.026750000193715096, 0.05299999937415123, 0.0]","[0.0, 0.0, -0.8538296117504472]","[0.08102376759052277, 0.1003112867474556, 0.0]","[0.0, 0.0, -0.20993302936345873]",0.8281399986990619,-6.204346411562201,"(0.0, 0.0, 0.0, 0.0, 0.0, 0.0)",1.0988949356965934,-0.6713035207317399,-6.098572780486936,"(0.0, 0.0, 0.0, 0.0, 0.0, 0.0)",0.14749517321304345,-0.8279927005435186,6.200843467915545,"(0.0, 0.0, 0.0, 0.0, 0.0, 0.0)",-1.0989497483863706,0.6695068878461485,6.146482990769375,"(0.0, 0.0, 0.0, 0.0, 0.0, 0.0)",-0.14801490530782194,False,,,,,False,,,,
43,Close,,,"(-3.3338818935924564e-12, 0.16000850673676864, 0.02248044092004115)","(-0.00022346847222235797, -1.0248160998129262e-10, -1.0815665823160981e-11)",,"[-0.026750000193715096, 0.05299999937415123, 0.0]","[0.0, -0.0, 0.8281400009228829]","[-0.07979058474302292, 0.10168979316949844, 0.0]","[0.0, -0.0, 0.15683648741789677]","[0.026750000193715096, 0.05299999937415123, 0.0]","[0.0, 0.0, -0.8279927252395962]","[0.07978341728448868, 0.10169760882854462, 0.0]","[0.0, 0.0, -0.1584858079616178]",0.8049183523018525,-5.573195135330245,"(0.0, 0.0, 0.0, 0.0, 0.0, 0.0)",0.9877981661002582,-0.6941731686585659,-5.488715502438243,"(0.0, 0.0, 0.0, 0.0, 0.0, 0.0)",0.13293390455564863,-0.8047843438627317,5.570005603388849,"(0.0, 0.0, 0.0, 0.0, 0.0, 0.0)",-0.9878442063824953,0.6925561990615337,5.531834691692435,"(0.0, 0.0, 0.0, 0.0, 0.0, 0.0)",-0.133403522196721,False,,,,,False,,,,
44,Close,,,"(-3.574458661466042e-12, 0.1600079760129696, 0.023196279686581375)","(-0.0002065920913295018, -1.1011743275386833e-10, -1.0826613341696389e-11)",,"[-0.026750000193715096, 0.05299999937415123, 0.0]","[0.0, -0.0, 0.8049183894372791]","[-0.0786457285284996, 0.10290824621915817, 0.0]","[0.0, -0.0, 0.11074519004144051]","[0.026750000193715096, 0.05299999937415123, 0.0]","[0.0, 0.0, -0.8047844310803475]","[0.07863904535770416, 0.1029151976108551, 0.0]","[0.0, 0.0, -0.11222814596642969]",0.7840592067066916,-5.006194942838604,"(0.0, 0.0, 0.0, 0.0, 0.0, 0.0)",0.887874858339405,-0.7147558517927094,-4.93984395219442,"(0.0, 0.0, 0.0, 0.0, 0.0, 0.0)",0.1197802452114445,-0.7839372985513166,5.003290874739632,"(0.0, 0.0, 0.0, 0.0, 0.0, 0.0)",-0.8879130288541505,0.7133005791553803,4.978651222523193,"(0.0, 0.0, 0.0, 0.0, 0.0, 0.0)",-0.12020435906853437,False,,,,,False,,,,
45,Close,,,"(-3.838029878014839e-12, 0.16000749702405018, 0.02385486239679051)","(-0.0001913604253196595, -1.1849119926022184e-10, -1.083324323146616e-11)",,"[-0.026750000193715096, 0.05299999937415123, 0.0]","[0.0, -0.0, 0.784059256777305]","[-0.07759347558021545, 0.10397981107234955, 0.0]","[0.0, -0.0, 0.06930335680659407]","[0.026750000193715096, 0.05299999937415123, 0.0]","[0.0, 0.0, -0.7839372869000906]","[0.07758726179599762, 0.10398600995540619, 0.0]","[0.0, 0.0, -0.07063672296404994]",0.7653223946610723,-4.496834890948637,"(0.0, 0.0, 0.0, 0.0, 0.0, 0.0)",0.7980123573490452,-0.7332802666134385,-4.445859556974976,"(0.0, 0.0, 0.0, 0.0, 0.0, 0.0)",0.10790397932961888,-0.7652115033261001,4.4941908540519435,"(0.0, 0.0, 0.0, 0.0, 0.0, 0.0)",-0.7980435266606509,0.7319705212398422,4.480786100270874,"(0.0, 0.0, 0.0, 0.0, 0.0, 0.0)",-0.10828682021435916,False,,,,,False,,,,
46,Close,,,"(-4.126117657190063e-12, 0.16000706648818214, 0.024460769954269483)","(-0.00017766922970092816, -1.2764834639035626e-10, -1.0837505279066394e-11)",,"[-0.026750000193715096, 0.05299999937415123, 0.0]","[0.0, -0.0, 0.7653223899725038]","[-0.0766294077038765, 0.10492344945669174, 0.0]","[0.0, -0.0, 0.03204212672850007]","[0.026750000193715096, 0.05299999937415123, 0.0]","[0.0, 0.0, -0.7652114414424014]","[0.07662364840507507, 0.10492898523807526, 0.0]","[0.0, 0.0, -0.03324098398892809]",0.7484921315947454,-4.03926313591847,"(0.0, 0.0, 0.0, 0.0, 0.0, 0.0)",0.7172066654807622,-0.7499522399520946,-4.001273601277477,"(0.0, 0.0, 0.0, 0.0, 0.0, 0.0)",0.09718576799619566,-0.7483912700866087,4.036855977477956,"(0.0, 0.0, 0.0, 0.0, 0.0, 0.0)",-0.7172316545678938,0.748773469115858,4.032707490243788,"(0.0, 0.0, 0.0, 0.0, 0.0, 0.0)",-0.0975312088652704,False,,,,,False,,,,
47,Close,,,"(-4.4402494978830355e-12, 0.16000668076828303, 0.02501821630741148)","(-0.00016540294171377398, -1.3763580540255394e-10, -1.0840482773120437e-11)",,"[-0.026750000193715096, 0.05299999937415123, 0.0]","[0.0, -0.0, 0.7484921066230515]","[-0.0757484957575798, 0.10575554519891739, 0.0]","[0.0, 0.0, -0.0014601083256393535]","[0.026750000193715096, 0.05299999937415123, 0.0]","[0.0, 0.0, -0.7483912056364946]","[0.0757431760430336, 0.10576048493385315, 0.0]","[0.0, -0.0, 0.00038219903479740314]",0.7333745460349302,-3.6282205343556235,"(0.0, 0.0, 0.0, 0.0, 0.0, 0.0)",0.6445522518295861,-0.7649570159568851,-3.6011462411497304,"(0.0, 0.0, 0.0, 0.0, 0.0, 0.0)",0.08751648465708733,-0.7332828152100046,3.6260291703849727,"(0.0, 0.0, 0.0, 0.0, 0.0, 0.0)",-0.6445718257913827,0.7638961222042722,3.6294367412194095,"(0.0, 0.0, 0.0, 0.0, 0.0, 0.0)",-0.08782806351422572,False,,,,,False,,,,
48,Close,,,"(-4.756237424302428e-12, 0.16000633612124995, 0.02553107798550913)","(-0.0001544426077524551, -1.4768478333153182e-10, -1.0841249699388454e-11)",,"[-0.026750000193715096, 0.05299999937415123, 0.0]","[0.0, -0.0, 0.7333746942627848]","[-0.07494539022445679, 0.10649022459983826, 0.0]","[0.0, 0.0, -0.03158247457136343]","[0.026750000193715096, 0.05299999937415123, 0.0]","[0.0, 0.0, -0.7332828847668397]","[0.07494048774242401, 0.10649464279413223, 0.0]","[0.0, -0.0, 0.030613305877369493]",0.7197954590667767,-3.2589808723568523,"(0.0, 0.0, 0.0, 0.0, 0.0, 0.0)",0.5792327305544935,-0.7784613143611966,-3.241031617034757,"(0.0, 0.0, 0.0, 0.0, 0.0, 0.0)",0.07879653461992997,-0.7197120398026501,3.2569860977650946,"(0.0, 0.0, 0.0, 0.0, 0.0, 0.0)",-0.5792475941999435,0.777506509983845,3.266493067097469,"(0.0, 0.0, 0.0, 0.0, 0.0, 0.0)",-0.07907747763039417,False,,,,,False,,,,
49,Close,,,"(-5.055776927538692e-12, 0.160006028857937, 0.02600292121469458)","(-0.00014467097317984745, -1.572135084164937e-10, -1.0840829792494257e-11)",,"[-0.026750000193715096, 0.05299999937415123, 0.0]","[0.0, -0.0, 0.7197953778170468]","[-0.0742146223783493, 0.1071397215127945, 0.0]","[0.0, 0.0, -0.05866585701539895]","[0.026750000193715096, 0.05299999937415123, 0.0]","[0.0, 0.0, -0.7197120124008828]","[0.07421010732650757, 0.10714367777109146, 0.0]","[0.0, -0.0, 0.05779447236330553]",0.7075983879291365,-2.9272970730336336,"(0.0, 0.0, 0.0, 0.0, 0.0, 0.0)",0.5205123550844626,-0.7906151829250769,-2.9169284553312824,"(0.0, 0.0, 0.0, 0.0, 0.0, 0.0)",0.07093517632177886,-0.707522534008761,2.9254813905333803,"(0.0, 0.0, 0.0, 0.0, 0.0, 0.0)",-0.5205231513769358,0.7897558589854605,2.9398437603877214,"(0.0, 0.0, 0.0, 0.0, 0.0, 0.0)",-0.0711884206364056,False,,,,,False,,,,
50,Close,,,"(-5.326383224096764e-12, 0.1600057554418171, 0.02643702682502274)","(-0.00013597562249271076, -1.6582368006207373e-10, -1.0839744690724373e-11)",,"[-0.026750000193715096, 0.05299999937415123, 0.0]","[0.0, -0.0, 0.7075983779452151]","[-0.0735507607460022, 0.10771460831165314, 0.0]","[0.0, 0.0, -0.08301679265480387]","[0.026750000193715096, 0.05299999937415123, 0.0]","[0.0, 0.0, -0.7075225607548874]","[0.07354661077260971, 0.10771816223859787, 0.0]","[0.0, -0.0, 0.08223332850929914]",0.6966427512880333,-2.629352793864763,"(0.0, 0.0, 0.0, 0.0, 0.0, 0.0)",0.4677282706741921,-0.8015536646325693,-2.625235609798154,"(0.0, 0.0, 0.0, 0.0, 0.0, 0.0)",0.06384985697196982,-0.6965737829274669,2.6277002595105765,"(0.0, 0.0, 0.0, 0.0, 0.0, 0.0)",-0.46773558123403164,0.8007802730869145,2.645859384348949,"(0.0, 0.0, 0.0, 0.0, 0.0, 0.0)",-0.06407807290030519,False,,,,,False,,,,
51,Close,,,"(-5.5600868425566676e-12, 0.1600055125460093, 0.026836413137274407)","(-0.0001282507953573484, -1.7326110160015553e-10, -1.0838289765071605e-11)",,"[-0.026750000193715096, 0.05299999937415123, 0.0]","[0.0, -0.0, 0.6966426897286299]","[-0.07294853031635284, 0.1082240492105484, 0.0]","[0.0, 0.0, -0.10491093795287353]","[0.026750000193715096, 0.05299999937415123, 0.0]","[0.0, 0.0, -0.6965737493327436]","[0.07294472306966782, 0.10822723805904388, 0.0]","[0.0, -0.0, 0.10420648413618638]",0.6868022559487404,-2.361718881430286,"(0.0, 0.0, 0.0, 0.0, 0.0, 0.0)",0.4202834685287858,-0.8113982981693123,-2.362712048818338,"(0.0, 0.0, 0.0, 0.0, 0.0, 0.0)",0.057465571452223405,-0.6867395539068821,2.360214964940328,"(0.0, 0.0, 0.0, 0.0, 0.0, 0.0)",-0.4202878155792262,0.810702245778223,2.381273445914054,"(0.0, 0.0, 0.0, 0.0, 0.0, 0.0)",-0.05767118373494999,False,,,,,False,,,,
52,Close,,,"(-5.7523836092087116e-12, 0.1600052970823412, 0.02720385699971244)","(-0.00012139831308889596, -1.793820432060724e-10, -1.083664877500391e-11)",,"[-0.026750000193715096, 0.05299999937415123, 0.0]","[0.0, -0.0, 0.6868022975611947]","[-0.07240287214517593, 0.1086759865283966, 0.0]","[0.0, 0.0, -0.1245960443618222]","[0.026750000193715096, 0.05299999937415123, 0.0]","[0.0, 0.0, -0.6867395337117407]","[0.07239938527345657, 0.10867884755134583, 0.0]","[0.0, -0.0, 0.1239626918342873]",0.6779634467728427,-2.1213142022154603,"(0.0, 0.0, 0.0, 0.0, 0.0, 0.0)",0.37764038659871285,-0.820258468352381,-2.126440843936505,"(0.0, 0.0, 0.0, 0.0, 0.0, 0.0)",0.05171425048893041,-0.6779064469882278,2.1199456604770366,"(0.0, 0.0, 0.0, 0.0, 0.0, 0.0)",-0.3776422358844292,0.8196320212004007,2.143146101322648,"(0.0, 0.0, 0.0, 0.0, 0.0, 0.0)",-0.05189945850513146,False,,,,,False,,,,
53,Close,,,"(-5.9013823821360114e-12, 0.1600051062119302, 0.027541913128765336)","(-0.00011532791709327964, -1.8412603069616307e-10, -1.0834943567922288e-11)",,"[-0.026750000193715096, 0.05299999937415123, 0.0]","[0.0, -0.0, 0.6779633557285087]","[-0.07190898805856705, 0.1090773195028305, 0.0]","[0.0, 0.0, -0.14229502266933292]","[0.026750000193715096, 0.05299999937415123, 0.0]","[0.0, 0.0, -0.6779064614304869]","[0.07190579175949097, 0.10907989740371704, 0.0]","[0.0, -0.0, 0.1417255695521785]",0.6700244033783254,-1.905370414684162,"(0.0, 0.0, 0.0, 0.0, 0.0, 0.0)",0.33931510459571207,-0.8282326215171429,-1.9137967595428558,"(0.0, 0.0, 0.0, 0.0, 0.0, 0.0)",0.04653418191090552,-0.6699725920838452,1.9041251770518124,"(0.0, 0.0, 0.0, 0.0, 0.0, 0.0)",-0.33931486891664875,0.8276688190803606,1.9288314911903846,"(0.0, 0.0, 0.0, 0.0, 0.0, 0.0)",-0.04670097872100733,False,,,,,False,,,,
54,Close,,,"(-6.007135173803298e-12, 0.1600049373438315, 0.027852931893489936)","(-0.00010995722750507456, -1.8749448903209618e-10, -1.0833257840179526e-11)",,"[-0.026750000193715096, 0.05299999937415123, 0.0]","[0.0, -0.0, 0.670024397822844]","[-0.07146237045526505, 0.10943406820297241, 0.0]","[0.0, 0.0, -0.15820823483350516]","[0.026750000193715096, 0.05299999937415123, 0.0]","[0.0, 0.0, -0.6699725953087864]","[0.07145944237709045, 0.10943638533353806, 0.0]","[0.0, -0.0, 0.15769620923137598]",0.662893568836376,-1.7114002900678476,"(0.0, 0.0, 0.0, 0.0, 0.0, 0.0)",0.3048720835774304,-0.8354093593654287,-1.7224170835885702,"(0.0, 0.0, 0.0, 0.0, 0.0, 0.0)",0.04186946712996608,-0.6628464781078529,1.7102673542381464,"(0.0, 0.0, 0.0, 0.0, 0.0, 0.0)",-0.30487012666973506,0.8349019371723245,1.735948342071346,"(0.0, 0.0, 0.0, 0.0, 0.0, 0.0)",-0.04201965730465057,False,,,,,False,,,,
55,Close,,,"(-6.071103286741634e-12, 0.1600047881262459, 0.02813907567121195)","(-0.00010521146492701404, -1.895337350003755e-10, -1.0831649419051616e-11)",,"[-0.026750000193715096, 0.05299999937415123, 0.0]","[0.0, -0.0, 0.6628935953465114]","[-0.07105880975723267, 0.10975147038698196, 0.0]","[0.0, 0.0, -0.17251577964776932]","[0.026750000193715096, 0.05299999937415123, 0.0]","[0.0, 0.0, -0.6628464898653206]","[0.07105614244937897, 0.1097535565495491, 0.0]","[0.0, -0.0, 0.17205548146598465]",0.6564886970545278,-1.537169227643553,"(0.0, 0.0, 0.0, 0.0, 0.0, 0.0)",0.2739194034442242,-0.8418684234288858,-1.5501753752297116,"(0.0, 0.0, 0.0, 0.0, 0.0, 0.0)",0.037669513720781124,-0.6564459007535215,1.5361385650395298,"(0.0, 0.0, 0.0, 0.0, 0.0, 0.0)",-0.2739160440097327,0.8414117434550921,1.562353507864212,"(0.0, 0.0, 0.0, 0.0, 0.0, 0.0)",-0.037804729943090636,False,,,,,False,,,,
56,Close,,,"(-6.095727977331477e-12, 0.16000465643334522, 0.0284023338906634)","(-0.00010102303254410876, -1.9032130517437034e-10, -1.0830157298132971e-11)",,"[-0.026750000193715096, 0.05299999937415123, 0.0]","[0.0, -0.0, 0.6564887071321809]","[-0.07069442421197891, 0.11003409326076508, 0.0]","[0.0, 0.0, -0.18537974064046858]","[0.026750000193715096, 0.05299999937415123, 0.0]","[0.0, 0.0, -0.6564459203875355]","[0.07069198042154312, 0.1100359782576561, 0.0]","[0.0, -0.0, 0.1849658426785068]",0.6507359068669892,-1.3806696450092715,"(0.0, 0.0, 0.0, 0.0, 0.0, 0.0)",0.24610445477331144,-0.8476815810859972,-1.3951578377067417,"(0.0, 0.0, 0.0, 0.0, 0.0, 0.0)",0.03388856404191339,-0.6506970169421296,1.3797321147340589,"(0.0, 0.0, 0.0, 0.0, 0.0, 0.0)",-0.24609997051316598,0.8472705691095829,1.406118157077791,"(0.0, 0.0, 0.0, 0.0, 0.0, 0.0)",-0.03401028249690169,False,,,,,False,,,,
57,Close,,,"(-6.084097499217705e-12, 0.16000454034977318, 0.02864453686900874)","(-9.733102410337456e-05, -1.8995535384065798e-10, -1.082880635270284e-11)",,"[-0.026750000193715096, 0.05299999937415123, 0.0]","[0.0, -0.0, 0.6507359128650066]","[-0.07036559283733368, 0.11028595268726349, 0.0]","[0.0, 0.0, -0.19694565782653492]","[0.026750000193715096, 0.05299999937415123, 0.0]","[0.0, 0.0, -0.6506970087008607]","[0.0703633651137352, 0.11028765141963959, 0.0]","[0.0, -0.0, 0.19657355675077803]",0.6455688320531785,-1.2400979553145743,"(0.0, 0.0, 0.0, 0.0, 0.0, 0.0)",0.2211100445005501,-0.8529134229773975,-1.255642053936067,"(0.0, 0.0, 0.0, 0.0, 0.0, 0.0)",0.030485259161072812,-0.6455334951677868,1.239245225842255,"(0.0, 0.0, 0.0, 0.0, 0.0, 0.0)",-0.22110467605045234,0.8525435121986246,1.2655063413700114,"(0.0, 0.0, 0.0, 0.0, 0.0, 0.0)",-0.030594813746810383,False,,,,,False,,,,
58,Close,,,"(-6.03970289105181e-12, 0.16000443815418697, 0.02886736854020541)","(-9.408070119531676e-05, -1.8854687578900374e-10, -1.0827611178155505e-11)",,"[-0.026750000193715096, 0.05299999937415123, 0.0]","[0.0, -0.0, 0.6455688430686934]","[-0.07006900757551193, 0.11051055043935776, 0.0]","[0.0, 0.0, -0.20734458614596926]","[0.026750000193715096, 0.05299999937415123, 0.0]","[0.0, 0.0, -0.6455335206903984]","[0.07006697356700897, 0.11051208525896072, 0.0]","[0.0, -0.0, 0.20700999286087313]",0.640927857587114,-1.1138338718554668,"(0.0, 0.0, 0.0, 0.0, 0.0, 0.0)",0.19865087798800354,-0.8576220806796577,-1.1300778485424612,"(0.0, 0.0, 0.0, 0.0, 0.0, 0.0)",0.02742223686782037,-0.6408957520439525,1.113058349720219,"(0.0, 0.0, 0.0, 0.0, 0.0, 0.0)",-0.19864483268486297,0.8572891609787621,1.1389557072330112,"(0.0, 0.0, 0.0, 0.0, 0.0, 0.0)",-0.02752083227508535,False,,,,,False,,,,
59,Move,,,"(-5.966226169261206e-12, 0.1600043483027247, 0.029072378164045565)","(-9.122296803848186e-05, -1.862129635245158e-10, -1.0826578258925423e-11)","[0.0, 0.0, 0.0]","[-0.026750000193715096, 0.05299999937415123, 0.0]","[0.0, -0.0, 0.6409277970587228]","[-0.06980163604021072, 0.11071097105741501, 0.0]","[0.0, 0.0, -0.21669423128368584]","[0.026750000193715096, 0.05299999937415123, 0.0]","[0.0, 0.0, -0.6408958485126943]","[0.06979978829622269, 0.11071235686540604, 0.0]","[0.0, -0.0, 0.216393416226204]",0.6367594333947726,-1.000421806161935,"(0.0, 0.0, 0.0, 0.0, 0.0, 0.0)",0.17847038294320636,-0.861859872611692,-1.0170700636882153,"(0.0, 0.0, 0.0, 0.0, 0.0, 0.0)",0.02466576223138166,-0.6367302663315065,0.9997165709870356,"(0.0, 0.0, 0.0, 0.0, 0.0, 0.0)",-0.17846383837743118,0.8615602448808859,1.025060136509711,"(0.0, 0.0, 0.0, 0.0, 0.0, 0.0)",-0.02475448594826656,False,,,,,False,,,,
60,Move,,,"(-5.867400437187905e-12, 0.16000426941295637, 0.029260991097866708)","(-8.871386151385144e-05, -1.8307235126676287e-10, -1.0825708093237106e-11)","[9.882573207330043e-14, -7.888976832903793e-08, 0.00018861293382114314]","[-0.026750000193715096, 0.05299999937415123, 0.0]","[0.0, -0.0, 0.6367594451727491]","[-0.0695606991648674, 0.11088992655277252, 0.0]","[0.0, 0.0, -0.22510044094493922]","[0.026750000193715096, 0.05299999937415123, 0.0]","[0.0, 0.0, -0.6367303618187333]","[0.0695590153336525, 0.1108911782503128, 0.0]","[0.0, -0.0, 0.22482996991826093]",0.6161235672320331,-4.952607879057479,"(0.0, 0.0, 0.0, 0.0, 0.0, 0.0)",-5.68074872833993,-0.8614360934184885,0.10170700636882146,"(0.0, 0.0, 0.0, 0.0, 0.0, 0.0)",-0.3104402621739851,-0.6160922160549315,4.953132066378016,"(0.0, 0.0, 0.0, 0.0, 0.0, 0.0)",5.681591702100401,0.8611331364906735,-0.10250601365097212,"(0.0, 0.0, 0.0, 0.0, 0.0, 0.0)",0.3096129611509882,False,,,,,False,,,,
61,Move,,,"(-5.7469122616583125e-12, 0.1600042002486511, 0.02943451870621383)","(-8.651406706679719e-05, -1.7924230506942997e-10, -1.0824997182037253e-11)","[2.193139076028933e-13, -1.4805407358431388e-07, 0.0003621405421682655]","[-0.026750000193715096, 0.05299999937415123, 0.0]","[0.0, -0.0, 0.6161235982488857]","[-0.06835706532001495, 0.11176097393035889, 0.0]","[0.0, 0.0, -0.24531251298371853]","[0.026750000193715096, 0.05299999937415123, 0.0]","[0.0, 0.0, -0.6160922504740468]","[0.06835521757602692, 0.11176227778196335, 0.0]","[0.0, -0.0, 0.24504093626617368]",0.5962447247556295,-4.7709221943368645,"(0.0, 0.0, 0.0, 0.0, 0.0, 0.0)",0.25203750770570565,-0.8614784713378089,-0.010170700636883204,"(0.0, 0.0, 0.0, 0.0, 0.0, 0.0)",0.007127626776928653,-0.5962142312756424,4.770716347029357,"(0.0, 0.0, 0.0, 0.0, 0.0, 0.0)",-0.2530128979591826,0.8611758473296947,0.010250601365098255,"(0.0, 0.0, 0.0, 0.0, 0.0, 0.0)",-0.0071113751043731495,False,,,,,False,,,,
62,Move,,,"(-6.437840423257315e-05, 0.16101367270180425, 0.029568812960486426)","(-0.0019678312600528384, 0.0022081242473906792, 0.003287067815929287)","[-6.437839826634698e-05, 0.001009324399079553, 0.0004964347964408616]","[-0.026750000193715096, 0.05299999937415123, 0.0]","[0.0, -0.0, 0.5962446864733912]","[-0.0671808198094368, 0.11257641017436981, 0.0]","[0.0, 0.0, -0.26523375548857875]","[0.026750000193715096, 0.05299999937415123, 0.0]","[0.0, 0.0, -0.5962142213175297]","[0.06717900186777115, 0.1125776469707489, 0.0]","[0.0, -0.0, 0.264961666119307]",0.5787316392671403,-4.203140517237393,"(0.0, 0.0, 0.0, 0.0, 0.0, 0.0)",-63.96228957554337,-0.8342709316282834,6.52980953028612,"(0.0, 0.0, 0.0, 0.0, 0.0, 0.0)",-31.71174405813417,-0.5788012636416714,4.179112232153057,"(0.0, 0.0, 0.0, 0.0, 0.0, 0.0)",65.83201524586698,0.8334688276751506,-6.649684717090561,"(0.0, 0.0, 0.0, 0.0, 0.0, 0.0)",32.64477435606642,True,"(-0.030424866180535318, 0.1831721778428732, 1.792482655507209e-13)","(1.0, -1.0824175132653437e-11, 1.7924862116170218e-10)",-0.0010121339155291578,501.04228738500177,True,"(0.03044226205611572, 0.1831831383634403, -1.7923449966578855e-13)","(-1.0, 1.0837039356196707e-11, -1.792339319635941e-10)",-0.000994738039508461,515.6526564109836
63,Move,"(0.0, 0.0, 0.0)","(0.0, -0.0, 0.0)","(-0.00022565908349216627, 0.16201483815250242, 0.029705271948446223)","(-0.0037232303753940883, 0.0021278709043577254, 0.0036875722106124403)","[-0.0002256590775259401, 0.0020104898497777246, 0.000632893784400658]","[-0.026750000193715096, 0.05299999937415123, 0.0]","[0.0, -0.0, 0.5787317121878565]","[-0.06613130122423172, 0.11327531188726425, 0.0]","[0.0, 0.0, -0.2555392995032886]","[0.026750000193715096, 0.05299999937415123, 0.0]","[0.0, 0.0, -0.578801294351786]","[0.06613550335168839, 0.11327257007360458, 0.0]","[0.0, -0.0, 0.25466756621817543]",0.5616193062054987,-4.106959934793993,"(0.0, 0.0, 0.0, 0.0, 0.0, 0.0)",-70.02487919003647,-0.8080386544449835,6.295746523991977,"(0.0, 0.0, 0.0, 0.0, 0.0, 0.0)",-35.44993650479627,-0.5616500162532523,4.116299373220576,"(0.0, 0.0, 0.0, 0.0, 0.0, 0.0)",72.6760714174545,0.8056489669605775,-6.6767665714975495,"(0.0, 0.0, 0.0, 0.0, 0.0, 0.0)",37.12032756635985,True,"(-0.030061417365866067, 0.184217672671164, -2.2081224529957175e-06)","(0.9999921597052661, 0.0032870538830277714, -0.002208122452995724)",-0.0015817655536495214,533.3403523915341,True,"(0.030127466820908153, 0.18423890098182158, 2.2081224529830078e-06)","(-0.9999921597052663, -0.0032870538830154453, 0.0022081224529824305)",-0.0011037623228650735,552.5057648732812
64,Move,"(0.0, 0.0, 0.0)","(0.0, -0.0, 0.0)","(-0.0003550384344994277, 0.1629093060887638, 0.029760350636730323)","(-0.004494753922397057, -0.0023661944353007523, 0.0026269422511854767)","[-0.00035503842853320156, 0.0029049577860391085, 0.0006879724726847579]","[-0.026750000193715096, 0.05299999937415123, 0.0]","[0.0, -0.0, 0.5616193338973595]","[-0.06509413570165634, 0.11394035816192627, 0.0]","[0.0, 0.0, -0.24641935660391084]","[0.026750000193715096, 0.05299999937415123, 0.0]","[0.0, 0.0, -0.5616499466714231]","[0.06509600579738617, 0.11393918097019196, 0.0]","[0.0, -0.0, 0.24399895797599583]",0.5637888668044385,0.5206945437455408,"(0.0, 0.0, 0.0, 0.0, 0.0, 0.0)",4.980691804391049,-0.8101876523537238,-0.5157594980976921,"(0.0, 0.0, 0.0, 0.0, 0.0, 0.0)",-0.8862110995701901,-0.563873304999471,-0.5335892990924824,"(0.0, 0.0, 0.0, 0.0, 0.0, 0.0)",-5.225926300913782,0.8079265363354299,0.5466166499645606,"(0.0, 0.0, 0.0, 0.0, 0.0, 0.0)",0.7718748400334754,True,"(-0.029672661730563363, 0.18520000217288607, -2.1271403887173496e-06)","(0.9999909370122543, 0.0036875555049139474, -0.00212786929862781)",-0.002138974368273848,8.103027225490868,True,"(0.02984710159689488, 0.185274554358097, 2.1278692985843915e-06)","(-0.9999909370122543, -0.0036875555049015693, 0.0021278692985849845)",-0.0012155360616250182,6.153883501155286
65,Move,"(0.0, 0.0, 0.0)","(0.0, -0.0, 0.0)","(-0.000348224608025361, 0.1635949515940826, 0.029835751038979105)","(-0.002337454119590222, -0.003280749666971841, 0.002796308697203643)","[-0.00034822460205913487, 0.003590603291357908, 0.0007633728749335406]","[-0.026750000193715096, 0.05299999937415123, 0.0]","[0.0, -0.0, 0.563788806172993]","[-0.06522626429796219, 0.11385702341794968, 0.0]","[0.0, 0.0, -0.2463987893841086]","[0.026750000193715096, 0.05299999937415123, 0.0]","[0.0, 0.0, -0.5638733734756128]","[0.06523139774799347, 0.11385377496480942, 0.0]","[0.0, -0.0, 0.24405323799053238]",0.5641349982154192,0.0830715386353687,"(0.0, 0.0, 0.0, 0.0, 0.0, 0.0)",-2.623750121135524,-0.8091339270199092,0.2528940801155223,"(0.0, 0.0, 0.0, 0.0, 0.0, 0.0)",-1.2166930484185634,-0.5643233732590843,-0.10801638230721422,"(0.0, 0.0, 0.0, 0.0, 0.0, 0.0)",1.5567995074453893,0.8070110199984062,-0.21972392088567394,"(0.0, 0.0, 0.0, 0.0, 0.0, 0.0)",0.5776019719850257,True,"(-0.029806247591407875, 0.18511631604445342, 2.366192227573194e-06)","(0.9999937501621006, 0.0026269318759334606, 0.002366192227573752)",-0.0019738981950472275,15.708402402311995,True,"(0.02997861701290823, 0.1851883510322741, -2.3661922273084485e-06)","(-0.9999937501621012, -0.002626931875884503, -0.002366192227306938)",-0.0011154330047634213,7.736539848417836
66,Move,"(0.0, 0.0, 0.0)","(0.0, -0.0, 0.0)","(-0.0002713188595057705, 0.16408768029132922, 0.0298427456618615)","(-0.00025003596536079734, -0.0022976577295067014, 0.003706416832020463)","[-0.0002713188535395443, 0.004083331988604527, 0.0007703674978159353]","[-0.026750000193715096, 0.05299999937415123, 0.0]","[0.0, -0.0, 0.564134952375568]","[-0.0652473196387291, 0.11384370177984238, 0.0]","[0.0, 0.0, -0.24499892911251622]","[0.026750000193715096, 0.05299999937415123, 0.0]","[0.0, 0.0, -0.5643233845972347]","[0.06525878608226776, 0.11383645236492157, 0.0]","[0.0, -0.0, 0.24268764851196192]",0.5644376664243566,0.07264037014494555,"(0.0, 0.0, 0.0, 0.0, 0.0, 0.0)",-2.2572730005615402,-0.8081547364915512,0.2350057268059098,"(0.0, 0.0, 0.0, 0.0, 0.0, 0.0)",-1.358980060995469,-0.5647225637138394,-0.09580570914123639,"(0.0, 0.0, 0.0, 0.0, 0.0, 0.0)",1.7269188298996756,0.8061319519682162,-0.2109763272455952,"(0.0, 0.0, 0.0, 0.0, 0.0, 0.0)",1.0456452229250628,True,"(-0.02992709567086165, 0.185151277178529, 3.2807437817243454e-06)","(0.9999907086980616, 0.0027962900041473373, 0.003280743781724697)",-0.0018208089055767793,17.030341576723316,True,"(0.03010345340186965, 0.18521756480555618, -3.280743781683747e-06)","(-0.9999907086980614, -0.0027962900042422523, -0.003280743781683581)",-0.001023036142468073,13.011794989409807
67,Move,"(0.0, 0.0, 0.0)","(0.0, -0.0, 0.0)","(-0.00014446449786258446, 0.16444934500818734, 0.02977510390876013)","(0.0025152016740320094, -0.0001777142825899223, 0.005274004836495523)","[-0.0001444644918963583, 0.004444996705462639, 0.0007027257447145656]","[-0.026750000193715096, 0.05299999937415123, 0.0]","[0.0, -0.0, 0.56443773011418]","[-0.06526573747396469, 0.11383204907178879, 0.0]","[0.0, 0.0, -0.24371706069263122]","[0.026750000193715096, 0.05299999937415123, 0.0]","[0.0, 0.0, -0.5647226024360211]","[0.06528306752443314, 0.11382107436656952, 0.0]","[0.0, -0.0, 0.24140942863532933]",0.5648721834454021,0.10428408505094955,"(0.0, 0.0, 0.0, 0.0, 0.0, 0.0)",-1.4202203162235658,-0.8075778862522419,0.13844405743422622,"(0.0, 0.0, 0.0, 0.0, 0.0, 0.0)",-0.8891950551213439,-0.5652428575611149,-0.12487052334610502,"(0.0, 0.0, 0.0, 0.0, 0.0, 0.0)",1.0530990232866146,0.8055751222538684,-0.13363913144346032,"(0.0, 0.0, 0.0, 0.0, 0.0, 0.0)",0.6664333848995586,True,"(-0.030036940404015167, 0.18518446768531596, 2.2976557078724943e-06)","(0.999990491648768, 0.003706398562398904, 0.0022976557078721186)",-0.0016812916001003571,11.068868299271974,True,"(0.030219010850011704, 0.18524487853362995, -2.2976557078630546e-06)","(-0.9999904916487681, -0.0037063985623665674, -0.002297655707863062)",-0.0009371169240717987,8.28051830745766
68,Move,"(0.0, 0.0, 0.0)","(0.0, -0.0, 0.0)","(8.548312657934815e-05, 0.16468504209040646, 0.029730978594102526)","(0.002299186961969046, 0.005574041261196191, 0.006882548015755131)","[8.548313254557432e-05, 0.004680693787681767, 0.000658600430056961]","[-0.026750000193715096, 0.05299999937415123, 0.0]","[0.0, -0.0, 0.5648722103670077]","[-0.06529216468334198, 0.1138153076171875, 0.0]","[0.0, 0.0, -0.24270573211677265]","[0.026750000193715096, 0.05299999937415123, 0.0]","[0.0, 0.0, -0.5652428372212744]","[0.06531470268964767, 0.1138010174036026, 0.0]","[0.0, -0.0, 0.24033229760662797]",0.5653769476788086,0.1211434160175637,"(0.0, 0.0, 0.0, 0.0, 0.0, 0.0)",-1.0068782793306217,-0.8071980572001551,0.09115897250081904,"(0.0, 0.0, 0.0, 0.0, 0.0, 0.0)",-0.5933780991504536,-0.5658063328558941,-0.13523407074699229,"(0.0, 0.0, 0.0, 0.0, 0.0, 0.0)",0.1271473607929499,0.8052852231545176,-0.06957578384420322,"(0.0, 0.0, 0.0, 0.0, 0.0, 0.0)",0.08399942852465599,True,"(-0.030135550988804244, 0.18520387517949757, 1.7771428165260896e-07)","(0.9999860766777656, 0.005273980303714529, 0.00017771428165475528)",-0.0015504987341806368,7.78365311250064,True,"(0.03032761088024838, 0.1852599039681083, -1.777142816487901e-07)","(-0.9999860766777656, -0.0052739803037179, -0.00017771428164850905)",-0.0008608860049784513,1.0279115077583423
69,Move,"(0.0, 0.0, 0.0)","(0.0, -0.0, 0.0)","(0.00026926550179471025, 0.1648174292889089, 0.029865431753051962)","(-0.001845307411261142, 0.011331987981578747, 0.006826351903204456)","[0.0002692655077609364, 0.004813080986184215, 0.0007930535890063976]","[-0.026750000193715096, 0.05299999937415123, 0.0]","[0.0, -0.0, 0.5653769715698113]","[-0.0653228610754013, 0.11379584670066833, 0.0]","[0.0, 0.0, -0.2418211496407143]","[0.026750000193715096, 0.05299999937415123, 0.0]","[0.0, 0.0, -0.5658063684088349]","[0.06534896045923233, 0.11377927660942078, 0.0]","[0.0, -0.0, 0.23947886580659974]",0.5659487995784668,0.1372444559179472,"(0.0, 0.0, 0.0, 0.0, 0.0, 0.0)",-0.8042699154053381,-0.8068732782298712,0.07794695286815348,"(0.0, 0.0, 0.0, 0.0, 0.0, 0.0)",-0.44438632151375657,-0.5663937931918593,-0.14099048063166666,"(0.0, 0.0, 0.0, 0.0, 0.0, 0.0)",0.08580566667769288,0.805266580187995,-0.004474311965416408,"(0.0, 0.0, 0.0, 0.0, 0.0, 0.0)",0.05398677212324257,True,"(-0.030229427303915007, 0.18521620792415025, -5.5740123970693765e-06)","(0.9999607808000707, 0.006882386759704782, -0.005574012397069184)",-0.0014303339286533894,6.258848838731615,True,"(0.030422887976721123, 0.18526553335464746, 5.574012397055668e-06)","(-0.9999607808000706, -0.006882386759754793, 0.005574012397056258)",-0.000793452380216805,0.6602743045718484
70,Move,"(0.0, 0.0, 0.0)","(0.0, -0.0, 0.0)","(0.0003502564848878993, 0.16485090263622643, 0.030048638665933332)","(-0.001732483687564301, 0.012439161170482061, 0.006905194568630763)","[0.0003502564908541255, 0.004846554333501729, 0.0009762605018877671]","[-0.026750000193715096, 0.05299999937415123, 0.0]","[0.0, -0.0, 0.565948789925916]","[-0.06535761803388596, 0.11377377808094025, 0.0]","[0.0, 0.0, -0.2409245003550938]","[0.026750000193715096, 0.05299999937415123, 0.0]","[0.0, 0.0, -0.5663938080266743]","[0.06538465619087219, 0.11375658959150314, 0.0]","[0.0, -0.0, 0.2388728068399972]",0.5665404322026831,0.1419918298119196,"(0.0, 0.0, 0.0, 0.0, 0.0, 0.0)",-0.002383889784757827,-0.8069057560687913,-0.00779468134083347,"(0.0, 0.0, 0.0, 0.0, 0.0, 0.0)",-0.00886612332081239,-0.5670088985122407,-0.147625276891512,"(0.0, 0.0, 0.0, 0.0, 0.0, 0.0)",0.28723136490862267,0.8049502869446964,-0.07591037839166272,"(0.0, 0.0, 0.0, 0.0, 0.0, 0.0)",0.15897156875119375,True,"(-0.030328280727297485, 0.1852246240437845, -1.1331745452242517e-05)","(0.999912495757575, 0.006825860595063875, -0.01133174545224198)",-0.0013199838272898163,0.0,True,"(0.030501921197395268, 0.18526400318583966, 5.574012397055668e-06)","(-0.9999607808000706, -0.006882386759754793, 0.005574012397056258)",-0.0007283261807857663,2.2397975748408445
71,Move,"(0.0, 0.0, 0.0)","(0.0, -0.0, 0.0)","(0.00036417215747580915, 0.1648564971719839, 0.030170488240046277)","(-0.00160625688160261, 0.011857220067632731, 0.006923135375346228)","[0.0003641721634420353, 0.004852148869259193, 0.001098110076000712]","[-0.026750000193715096, 0.05299999937415123, 0.0]","[0.0, -0.0, 0.5665405261361659]","[-0.06539356708526611, 0.11375092715024948, 0.0]","[0.0, 0.0, -0.24036533013628725]","[0.026750000193715096, 0.05299999937415123, 0.0]","[0.0, 0.0, -0.5670089137004356]","[0.06542202085256577, 0.11373281478881836, 0.0]","[0.0, -0.0, 0.23794140365791822]",0.5671319339669811,0.14196042343152573,"(0.0, 0.0, 0.0, 0.0, 0.0, 0.0)",0.0009285902370949035,-0.8069025082848993,0.0007794681340831389,"(0.0, 0.0, 0.0, 0.0, 0.0, 0.0)",0.000938422373974646,-0.567615419809472,-0.1455651113355283,"(0.0, 0.0, 0.0, 0.0, 0.0, 0.0)",0.1315711815129044,0.8049039436515504,-0.011122390355055245,"(0.0, 0.0, 0.0, 0.0, 0.0, 0.0)",0.07358512619392447,True,"(-0.03040458986375036, 0.18521925288956193, -4.554693188997347e-05)","(0.999901706070038, 0.006905035233512831, -0.012202404953584685)",-0.0012002384687774927,0.0,True,"(0.03060590261089015, 0.18527268601980534, 5.574012397055668e-06)","(-0.9999607808000706, -0.006882386759754793, 0.005574012397056258)",-0.0006698705131446245,0.9177401088330325
72,Move,"(0.0, 0.0, 0.0)","(0.0, -0.0, 0.0)","(0.0003340150288207958, 0.1648524620407688, 0.030271076872346172)","(-0.0014815469679064699, 0.010905456025234529, 0.00692673276248259)","[0.00033401503478702196, 0.004848113738044113, 0.0011986987083006072]","[-0.026750000193715096, 0.05299999937415123, 0.0]","[0.0, -0.0, 0.567131971066576]","[-0.06542949378490448, 0.11372805386781693, 0.0]","[0.0, 0.0, -0.2397706277423244]","[0.026750000193715096, 0.05299999937415123, 0.0]","[0.0, 0.0, -0.5676154553540915]","[0.06545884907245636, 0.11370934545993805, 0.0]","[0.0, -0.0, 0.23728852908737028]",0.5677491905321547,0.14814157564164598,"(0.0, 0.0, 0.0, 0.0, 0.0, 0.0)",-0.0058646872258043105,-0.8068396095887274,0.015095687081269966,"(0.0, 0.0, 0.0, 0.0, 0.0, 0.0)",-0.006660586361074697,-0.5682036466737669,-0.14117444743074584,"(0.0, 0.0, 0.0, 0.0, 0.0, 0.0)",0.0077497226796759645,0.804908577980865,0.001112239035504281,"(0.0, 0.0, 0.0, 0.0, 0.0, 0.0)",0.001817576973226164,True,"(-0.030483250269334447, 0.18521572200931447, 6.453706317537403e-05)","(0.9999016342317683, 0.006961166820367003, 0.01217637126316059)",-0.0010904145915345,0.12473526853948771,True,"(0.03068944450647683, 0.18527193440910894, 5.574012397055668e-06)","(-0.9999607808000706, -0.006882386759754793, 0.005574012397056258)",-0.0006166309244698051,0.0
73,Move,"(0.0, 0.0, 0.0)","(0.0, -0.0, 0.0)","(0.00030605694657569947, 0.16484854250219055, 0.03036372499984052)","(-0.0013626751468597273, 0.010025231831281333, 0.0069305459019215615)","[0.0003060569525419256, 0.004844194199465857, 0.0012913468357949563]","[-0.026750000193715096, 0.05299999937415123, 0.0]","[0.0, -0.0, 0.5677492463159948]","[-0.065466970205307, 0.11370416730642319, 0.0]","[0.0, 0.0, -0.2390903865110494]","[0.026750000193715096, 0.05299999937415123, 0.0]","[0.0, 0.0, -0.5682036673790309]","[0.06549455225467682, 0.11368656903505325, 0.0]","[0.0, -0.0, 0.23670495588156323]",0.5683619258991021,0.14705648806738217,"(0.0, 0.0, 0.0, 0.0, 0.0, 0.0)",-0.008371375697723575,-0.8068429089239003,-0.0007918404414968185,"(0.0, 0.0, 0.0, 0.0, 0.0, 0.0)",-0.004595267076923553,-0.5687893433288087,-0.14056719721004016,"(0.0, 0.0, 0.0, 0.0, 0.0, 0.0)",0.000722078827231421,0.8049081156596561,-0.00011095709012455828,"(0.0, 0.0, 0.0, 0.0, 0.0, 0.0)",-7.037629694899223e-05,True,"(-0.03057021334138047, 0.18521137754581055, 0.00013735920180534732)","(0.9999020405501058, 0.006960311294641009, 0.012143449691765886)",-0.001004978746525597,0.0382743334257379,True,"(0.03076691798670768, 0.18526943329985213, 5.574012397055668e-06)","(-0.9999607808000706, -0.006882386759754793, 0.005574012397056258)",-0.0005367519574989274,0.0
74,Move,"(0.0, 0.0, 0.0)","(0.0, -0.0, 0.0)","(0.0002803581396146619, 0.16484492793261002, 0.030448939418043566)","(-0.001253190575412464, 0.00921533452167142, 0.006933889021575466)","[0.00028035814558088803, 0.004840579629885322, 0.0013765612539980016]","[-0.026750000193715096, 0.05299999937415123, 0.0]","[0.0, -0.0, 0.5683619391691358]","[-0.06550416350364685, 0.11368043720722198, 0.0]","[0.0, 0.0, -0.23848098445118565]","[0.026750000193715096, 0.05299999937415123, 0.0]","[0.0, 0.0, -0.5687893665359167]","[0.06553009152412415, 0.11366386711597443, 0.0]","[0.0, -0.0, 0.2361187938792037]",0.56897472970568,0.14707291357868793,"(0.0, 0.0, 0.0, 0.0, 0.0, 0.0)",0.00015657318981492684,-0.8068425805734912,7.880409818449268e-05,"(0.0, 0.0, 0.0, 0.0, 0.0, 0.0)",0.00010021680878369483,-0.5693769949339049,-0.14103638522309223,"(0.0, 0.0, 0.0, 0.0, 0.0, 0.0)",-0.000710948288019287,0.8049081625383763,1.1250892835114058e-05,"(0.0, 0.0, 0.0, 0.0, 0.0, 0.0)",-4.093220828020312e-05,True,"(-0.030651772599961928, 0.18520503709630315, 0.00020441936446517463)","(0.9999023992082909, 0.006960147660168231, 0.012113975485054319)",-0.0009248736551568088,0.0,True,"(0.030844472690186676, 0.18526366617949325, 1.0025063900683803e-05)","(-0.9999257328539954, -0.006930142147685645, 0.010025063900684602)",-0.0004550748626878732,0.0
75,Move,"(0.0, 0.0, 0.0)","(0.0, -0.0, 0.0)","(0.0002567379948096845, 0.1648415989569164, 0.030527316617707734)","(-0.0011525020683340326, 0.008470243214488343, 0.006936806758102475)","[0.00025673800077591065, 0.004837250654191716, 0.0014549384536621697]","[-0.026750000193715096, 0.05299999937415123, 0.0]","[0.0, -0.0, 0.5689746892305413]","[-0.0655413419008255, 0.1136566773056984, 0.0]","[0.0, 0.0, -0.2378678422776519]","[0.026750000193715096, 0.05299999937415123, 0.0]","[0.0, 0.0, -0.5693770064297279]","[0.06556573510169983, 0.11364106088876724, 0.0]","[0.0, -0.0, 0.23553115365380783]",0.5695877972434936,0.14713620907527059,"(0.0, 0.0, 0.0, 0.0, 0.0, 0.0)",0.00012056453952406185,-0.8068426134167387,-7.882379381109146e-06,"(0.0, 0.0, 0.0, 0.0, 0.0, 0.0)",5.195036769823726e-07,-0.569965764904766,-0.14130479300667534,"(0.0, 0.0, 0.0, 0.0, 0.0, 0.0)",-0.000430992124044592,0.8049081583824815,-9.974147419238512e-07,"(0.0, 0.0, 0.0, 0.0, 0.0, 0.0)",-3.367619663229341e-05,True,"(-0.030733530515594548, 0.18519903246278935, 0.00026603535138569357)","(0.9999027589606787, 0.006960017410437977, 0.012084319611349889)",-0.0008444061442200842,0.0,True,"(0.0309221897085937, 0.18526064463539738, 9.215204090857737e-06)","(-0.9999335008138825, -0.006933539042747459, 0.009215204090858225)",-0.00037514474378058,0.0
76,Move,"(0.0, 0.0, 0.0)","(0.0, -0.0, 0.0)","(0.00023502713750288344, 0.16483853304703439, 0.030599406637792932)","(-0.0010599038264059025, 0.007784778280731211, 0.006939363215638253)","[0.0002350271434691096, 0.004834184744309689, 0.0015270284737473674]","[-0.026750000193715096, 0.05299999937415123, 0.0]","[0.0, -0.0, 0.5695878591567152]","[-0.06557852029800415, 0.11363288015127182, 0.0]","[0.0, 0.0, -0.23725481454690725]","[0.026750000193715096, 0.05299999937415123, 0.0]","[0.0, 0.0, -0.569965752683169]","[0.06560143083333969, 0.11361820250749588, 0.0]","[0.0, -0.0, 0.23494240201797614]",0.5702010794586219,0.1471877316307859,"(0.0, 0.0, 0.0, 0.0, 0.0, 0.0)",0.00011373296571591403,-0.8068426102851612,7.515785794091923e-07,"(0.0, 0.0, 0.0, 0.0, 0.0, 0.0)",9.669490786537058e-06,-0.5705555667627323,-0.14155244591191707,"(0.0, 0.0, 0.0, 0.0, 0.0, 0.0)",-0.0003991140154666525,0.804908159270957,2.1323412045530607e-07,"(0.0, 0.0, 0.0, 0.0, 0.0, 0.0)",-2.9935495773171415e-05,True,"(-0.030815233259994614, 0.1851932063761486, 0.0003226448518099619)","(0.9999031177332314, 0.006959900213556094, 0.012054664507194316)",-0.0007638481012270232,0.0,True,"(0.03100005771533211, 0.18525757369585757, 8.470141931887338e-06)","(-0.9999400690199652, -0.0069365022886805905, 0.008470141931885129)",-0.00029540843585249303,0.0
77,Move,"(0.0, 0.0, 0.0)","(0.0, -0.0, 0.0)","(0.0002150701716602125, 0.1648357093829654, 0.030665715052804982)","(-0.0009747453950490205, 0.007154172071624812, 0.006941613033990413)","[0.00021507017762643866, 0.004831361080240709, 0.0015933368887594175]","[-0.026750000193715096, 0.05299999937415123, 0.0]","[0.0, -0.0, 0.5702010724566284]","[-0.0656156986951828, 0.11360905319452286, 0.0]","[0.0, 0.0, -0.23664153659922696]","[0.026750000193715096, 0.05299999937415123, 0.0]","[0.0, 0.0, -0.5705555580521762]","[0.06563717871904373, 0.11359527707099915, 0.0]","[0.0, -0.0, 0.23435258400499479]",0.5708146258807274,0.14725114130534234,"(0.0, 0.0, 0.0, 0.0, 0.0, 0.0)",0.00013015986880594307,-0.8068426107552217,-1.1281450804023842e-07,"(0.0, 0.0, 0.0, 0.0, 0.0, 0.0)",9.932541911244195e-06,-0.5711463540852849,-0.14178895741262654,"(0.0, 0.0, 0.0, 0.0, 0.0, 0.0)",-0.00038296586483478146,0.8049081596381215,8.811946287346305e-08,"(0.0, 0.0, 0.0, 0.0, 0.0, 0.0)",-2.886730395536108e-05,True,"(-0.030896907856936176, 0.18518755312936164, 0.00037464917923894493)","(0.9999034756936194, 0.006959800677867353, 0.012024993569406983)",-0.0006831903131505514,0.0,True,"(0.031078061034653187, 0.18525445160763174, 7.784699651111407e-06)","(-0.9999456222118606, -0.006939097252297334, 0.007784699651111511)",-0.00021582874164104268,0.0
78,Move,"(0.0, 0.0, 0.0)","(0.0, -0.0, 0.0)","(0.00019672451829182461, 0.1648331087716773, 0.03072670659334642)","(-0.000896428723065127, 0.006574037283137104, 0.006943602592649977)","[0.00019672452425805077, 0.004828760468952614, 0.0016543284293008553]","[-0.026750000193715096, 0.05299999937415123, 0.0]","[0.0, -0.0, 0.5708146526411884]","[-0.06565287709236145, 0.11358519643545151, 0.0]","[0.0, 0.0, -0.23602796130379256]","[0.026750000193715096, 0.05299999937415123, 0.0]","[0.0, 0.0, -0.5711464028719251]","[0.06567297130823135, 0.11357229202985764, 0.0]","[0.0, -0.0, 0.23376182058952472]",0.5714284737747208,0.14732349455842983,"(0.0, 0.0, 0.0, 0.0, 0.0, 0.0)",0.0001434116980308916,-0.8068426108822534,-3.048760574121799e-08,"(0.0, 0.0, 0.0, 0.0, 0.0, 0.0)",1.1017254782937315e-05,-0.5717380706917292,-0.14201198554661956,"(0.0, 0.0, 0.0, 0.0, 0.0, 0.0)",-0.0003632154507083481,0.8049081600339479,9.499836433484391e-08,"(0.0, 0.0, 0.0, 0.0, 0.0, 0.0)",-2.7381625079423336e-05,True,"(-0.0309785627033001, 0.18518205327758822, 0.0004224176399461945)","(0.9999038328188223, 0.0069597224274794735, 0.01199530649717732)",-0.0006024397345065852,0.0,True,"(0.031156193732336884, 0.1852512785127554, 7.15411104409711e-06)","(-0.9999503167376845, -0.0069413796447914886, 0.007154111044095851)",-0.00013636682570196095,0.0
79,Move,"(0.0, 0.0, 0.0)","(0.0, -0.0, 0.0)","(0.00017963788866445622, 0.16483071645748262, 0.0307828259861611)","(-0.0008255230423831639, 0.006033018956565698, 0.006945769027317491)","[0.00017963789463068238, 0.004826368154757926, 0.0017104478221155357]","[-0.026750000193715096, 0.05299999937415123, 0.0]","[0.0, -0.0, 0.5714284478330753]","[-0.0656900554895401, 0.11356130987405777, 0.0]","[0.0, 0.0, -0.235414162512907]","[0.026750000193715096, 0.05299999937415123, 0.0]","[0.0, 0.0, -0.5717382162799544]","[0.06570880860090256, 0.11354924738407135, 0.0]","[0.0, -0.0, 0.2331700925218787]",0.5720426514504211,0.14740264216805377,"(0.0, 0.0, 0.0, 0.0, 0.0, 0.0)",0.00015340118602652841,-0.8068426108695502,3.04876124346265e-09,"(0.0, 0.0, 0.0, 0.0, 0.0, 0.0)",1.1757774685314335e-05,-0.5723306663670634,-0.14222296208021398,"(0.0, 0.0, 0.0, 0.0, 0.0, 0.0)",-0.00034559042686421845,0.8049081599943653,-9.49983558484746e-09,"(0.0, 0.0, 0.0, 0.0, 0.0, 0.0)",-2.6079098502808746e-05,True,"(-0.031060207298794294, 0.1851766903220825, 0.00046628986908237165)","(0.9999041891114867, 0.006959668077063488, 0.011965601428995061)",-0.0005216002077397215,0.0,True,"(0.031235069967942813, 0.18524561281134638, 6.160676189477265e-05)","(-0.9999133933761228, -0.006938981042350823, 0.011182856931067561)",-5.673937632281036e-05,0.0
80,Move,"(0.0, 0.0, 0.0)","(0.0, -0.0, 0.0)","(0.00016392371318238179, 0.16482850830380855, 0.03083444777527667)","(-0.0007602722836241722, 0.0055350706722126055, 0.006947767857174907)","[0.00016392371914860794, 0.004824160001083849, 0.0017620696112311054]","[-0.026750000193715096, 0.05299999937415123, 0.0]","[0.0, -0.0, 0.5720426297511068]","[-0.06572724878787994, 0.11353737860918045, 0.0]","[0.0, 0.0, -0.2347999493861787]","[0.026750000193715096, 0.05299999937415123, 0.0]","[0.0, 0.0, -0.5723307024489632]","[0.06574468314647675, 0.11352615058422089, 0.0]","[0.0, -0.0, 0.23257747736424067]",0.5726571803164696,0.147486927851653,"(0.0, 0.0, 0.0, 0.0, 0.0, 0.0)",0.00016096185962857345,-0.8068426108708205,-3.04876124346265e-10,"(0.0, 0.0, 0.0, 0.0, 0.0, 0.0)",1.2318353263854189e-05,-0.5729241018657825,-0.14242451969256223,"(0.0, 0.0, 0.0, 0.0, 0.0, 0.0)",-0.0003318030011584204,0.8049081599983235,9.499840913917978e-10,"(0.0, 0.0, 0.0, 0.0, 0.0, 0.0)",-2.503984972035664e-05,True,"(-0.03114184664675096, 0.1851714605113539, 0.0005063487658689926)","(0.9999045414682989, 0.006960051233517557, 0.011935897029460065)",-0.0004406866425165464,0.0,True,"(0.031314280882358464, 0.1852387912332784, 0.00013466509743449443)","(-0.9999137016776206, -0.006941053572430856, 0.011153966678406875)",2.2984565107220884e-05,0.0
81,Move,"(0.0, 0.0, 0.0)","(0.0, -0.0, 0.0)","(0.00014947833425278656, 0.16482647250235094, 0.030881932127276204)","(-0.000700285161752289, 0.005077013415382754, 0.00694960110543657)","[0.00014947834021901272, 0.004822124199626243, 0.0018095539632306396]","[-0.026750000193715096, 0.05299999937415123, 0.0]","[0.0, -0.0, 0.5726571413401524]","[-0.06576444208621979, 0.11351341754198074, 0.0]","[0.0, 0.0, -0.234185408171788]","[0.026750000193715096, 0.05299999937415123, 0.0]","[0.0, 0.0, -0.5729241473091968]","[0.06578058749437332, 0.11350300163030624, 0.0]","[0.0, -0.0, 0.2319840630367001]",0.5732720811828366,0.14757620792806977,"(0.0, 0.0, 0.0, 0.0, 0.0, 0.0)",0.00016831735002354936,-0.8068426108706935,3.04876124346265e-11,"(0.0, 0.0, 0.0, 0.0, 0.0, 0.0)",1.2867760392275154e-05,-0.5735183442661514,-0.14261817608856084,"(0.0, 0.0, 0.0, 0.0, 0.0, 0.0)",-0.0003202553947862945,0.8049081599979278,-9.49986755927057e-11,"(0.0, 0.0, 0.0, 0.0, 0.0, 0.0)",-2.4180454243977375e-05,True,"(-0.031223489996431555, 0.185166337640652, 0.0005431241016050546)","(0.999904892863849, 0.0069604788179200875, 0.011906173254234473)",-0.0003596903229106538,0.0,True,"(0.03139352903164053, 0.18523220398977952, 0.00020182066507525408)","(-0.9999140102404098, -0.006943032053983993, 0.011125036217424939)",0.00010270004698537717,0.0
82,Move,"(0.0, 0.0, 0.0)","(0.0, -0.0, 0.0)","(0.0001361991257262671, 0.1648245954334803, 0.0309256111740597)","(-0.0006451405608467809, 0.004655660081638788, 0.006951292585663974)","[0.00013619913169249327, 0.0048202471307556005, 0.0018532330100141346]","[-0.026750000193715096, 0.05299999937415123, 0.0]","[0.0, -0.0, 0.5732720531457561]","[-0.06580164283514023, 0.11348941177129745, 0.0]","[0.0, 0.0, -0.23357054225572652]","[0.026750000193715096, 0.05299999937415123, 0.0]","[0.0, 0.0, -0.5735183456068389]","[0.06581653654575348, 0.11347979307174683, 0.0]","[0.0, -0.0, 0.23138983163821905]",0.5738873775883695,0.1476711373279006,"(0.0, 0.0, 0.0, 0.0, 0.0, 0.0)",0.00017663531678505686,-0.8068426108707062,-3.0482283364108298e-12,"(0.0, 0.0, 0.0, 0.0, 0.0, 0.0)",1.3488572779107356e-05,-0.574113364196683,-0.1428047833275855,"(0.0, 0.0, 0.0, 0.0, 0.0, 0.0)",-0.0003099554174248407,0.8049081599979673,9.49906819869284e-12,"(0.0, 0.0, 0.0, 0.0, 0.0, 0.0)",-2.3412812091557153e-05,True,"(-0.031305143461616315, 0.18516130850397225, 0.0005768850048780502)","(0.9999052434907598, 0.0069609266174160776, 0.011876427927252693)",-0.00027861409435301867,0.0,True,"(0.03147281581829074, 0.18522582876831167, 0.00026353591254017593)","(-0.9999143191351435, -0.006944902240717122, 0.011096067833661833)",0.0001824124762718138,0.0
83,Move,"(0.0, 0.0, 0.0)","(0.0, -0.0, 0.0)","(0.000123991644721422, 0.16482286441826255, 0.030965790334025967)","(-0.0005944476719747023, 0.004268070681922241, 0.0069528633737959925)","[0.00012399165068764816, 0.004818516115537852, 0.0018934121699804018]","[-0.026750000193715096, 0.05299999937415123, 0.0]","[0.0, -0.0, 0.5738873621343363]","[-0.06583885103464127, 0.11346537619829178, 0.0]","[0.0, 0.0, -0.23295522964288087]","[0.026750000193715096, 0.05299999937415123, 0.0]","[0.0, 0.0, -0.574113398515816]","[0.06585251539945602, 0.11345653980970383, 0.0]","[0.0, -0.0, 0.230794788248491]",0.5745030822680043,0.14776912311234727,"(0.0, 0.0, 0.0, 0.0, 0.0, 0.0)",0.00018114764142454466,-0.806842610870705,3.0375701911392636e-13,"(0.0, 0.0, 0.0, 0.0, 0.0, 0.0)",1.382557183725398e-05,-0.5747091348266549,-0.1429849511932424,"(0.0, 0.0, 0.0, 0.0, 0.0, 0.0)",-0.0003005490845044642,0.8049081599979633,-9.485745522397337e-13,"(0.0, 0.0, 0.0, 0.0, 0.0, 0.0)",-2.2711930891448205e-05,True,"(-0.031386813168480444, 0.18515636121628873, 0.0006078732404578044)","(0.9999055933610594, 0.006961394563467239, 0.01184665990900336)",-0.00019745970385651607,0.0,True,"(0.03155214275295195, 0.18521964451054748, 0.0003202464211970314)","(-0.9999146282761294, -0.006946674624035923, 0.011067062441216939)",0.0002621269315032317,0.0
84,Move,"(-1e-05, 0.0, -0.0)","(0.0, 0.018053685782629343, 0.0)","(0.00011276916087509586, 0.16482126777753886, 0.031002750441309013)","(-0.0005478471189036654, 0.003911540338134968, 0.0069543313986279364)","[0.00011276916684132203, 0.004816919474814163, 0.001930372277263448]","[-0.026750000193715096, 0.05299999937415123, 0.0]","[0.0, -0.0, 0.5745030478834384]","[-0.0658760741353035, 0.11344129592180252, 0.0]","[0.0, 0.0, -0.23233953123861734]","[0.026750000193715096, 0.05299999937415123, 0.0]","[0.0, 0.0, -0.5747091243673744]","[0.06588853150606155, 0.11343323439359665, 0.0]","[0.0, -0.0, 0.23019903004966838]",0.5751192010445796,0.14786850637806603,"(0.0, 0.0, 0.0, 0.0, 0.0, 0.0)",0.0001832250251036115,-0.8068426108707051,-2.930988785010413e-14,"(0.0, 0.0, 0.0, 0.0, 0.0, 0.0)",1.39809476647574e-05,-0.5753056360405967,-0.14316029134604896,"(0.0, 0.0, 0.0, 0.0, 0.0, 0.0)",-0.00029350743628338543,0.8049081599979637,9.592326932761353e-14,"(0.0, 0.0, 0.0, 0.0, 0.0, 0.0)",-2.2187403082835657e-05,True,"(-0.03146850356284278, 0.1851514848857589, 0.0006363110827730083)","(0.9999059424767985, 0.006961883073598398, 0.011816868606130411)",-0.00011622959044245695,0.0,True,"(0.03163151124125419, 0.18521363181687842, 0.0003723532431034557)","(-0.9999149375809437, -0.0069483593968401505, 0.01103802084566825)",0.0003418480543581334,0.0
85,Move,"(-0.00019, 0.0, -0.0)","(0.0, -0.0, 0.0)","(0.00010245202121669149, 0.16481979475850933, 0.03103674973471626)","(-0.0005050085449251534, 0.0035835807060465618, 0.0069557118925437965)","[0.00010245202718291766, 0.004815446455784633, 0.001964371570670694]","[-0.026750000193715096, 0.05299999937415123, 0.0]","[0.0, -0.0, 0.5751191545590394]","[-0.06591330468654633, 0.11341717839241028, 0.0]","[0.0, 0.0, -0.2317233898427938]","[0.026750000193715096, 0.05299999937415123, 0.0]","[0.0, 0.0, -0.5753056037027902]","[0.06592456996440887, 0.11340987682342529, 0.0]","[0.0, -0.0, 0.22960253162913738]",0.5758584854712128,0.17742826239195034,"(0.0, 0.0, 0.0, 0.0, 0.0, 0.0)",0.04343929184282124,-0.8068426108707051,2.6645297533862185e-15,"(0.0, 0.0, 0.0, 0.0, 0.0, 0.0)",0.0032406307695545767,-0.5757773743259563,-0.11321718848629839,"(0.0, 0.0, 0.0, 0.0, 0.0, 0.0)",0.04392871861642226,0.8049081599979637,-1.0658122401676663e-14,"(0.0, 0.0, 0.0, 0.0, 0.0, 0.0)",0.003276531100569739,True,"(-0.031550217946755665, 0.18514666951347675, 0.0006624030042876982)","(0.9999062908383861, 0.006962392250499094, 0.011787053744294167)",-3.4926485473405194e-05,0.0,True,"(0.03171092316745257, 0.18520777280497214, 0.00042022531898342554)","(-0.999915246977977, -0.00694996562530943, 0.011008943581390478)",0.00042158067246640473,0.0
86,Move,"(-0.00039, 0.0, 0.00023999999999999998)","(0.0, 0.051312680008633295, 0.0)","(9.296706412223711e-05, 0.16481843546245278, 0.03106802568500671)","(-0.0004656282690338059, 0.0032819026791195876, 0.00695701779838152)","[9.296707008846328e-05, 0.0048140871597280865, 0.0019956475209611454]","[-0.026750000193715096, 0.05299999937415123, 0.0]","[0.0, -0.0, 0.5758585101009732]","[-0.06595796346664429, 0.11338821053504944, 0.0]","[0.0, 0.0, -0.23098410094928207]","[0.026750000193715096, 0.05299999937415123, 0.0]","[0.0, 0.0, -0.5757773947558034]","[0.06595306098461151, 0.11339139193296432, 0.0]","[0.0, -0.0, 0.22913079018705218]",0.5765046098898752,0.15506986047898813,"(0.0, 0.0, 0.0, 0.0, 0.0, 0.0)",-0.03278330275677023,-0.8068426108707051,-5.082197683525802e-21,"(0.0, 0.0, 0.0, 0.0, 0.0, 0.0)",-0.0024449906196916302,-0.5763463697451892,-0.13655890061586806,"(0.0, 0.0, 0.0, 0.0, 0.0, 0.0)",-0.03430051714934945,0.8049081599979637,2.1811098391798234e-20,"(0.0, 0.0, 0.0, 0.0, 0.0, 0.0)",-0.002558801806552481,True,"(-0.03164817626305853, 0.18514119156242476, 0.0006861529891539315)","(0.9999067083666948, 0.006962919402497067, 0.011751268726214958)",6.266988207885303e-05,0.0,True,"(0.03177379323202266, 0.18520279980000884, 0.0004643746222178716)","(-0.9999154894115031, -0.006951497811747857, 0.010985932510618317)",0.0004847468769652475,0.0
87,Move,"(-0.00063, 0.0, 0.00032)","(0.0, 0.1033252370473163, 0.0)","(8.424708292637347e-05, 0.16481718077782373, 0.031096796672998892)","(-0.00042942712906833314, 0.0030044004625147448, 0.006958260115504196)","[8.424708889259964e-05, 0.0048128324750990326, 0.0020244185089533275]","[-0.026750000193715096, 0.05299999937415123, 0.0]","[0.0, -0.0, 0.5765046685128777]","[-0.06599697470664978, 0.1133628636598587, 0.0]","[0.0, 0.0, -0.2303380114736234]","[0.026750000193715096, 0.05299999937415123, 0.0]","[0.0, 0.0, -0.5763463430081934]","[0.06598742306232452, 0.11336906999349594, 0.0]","[0.0, -0.0, 0.22856177973347883]",0.5775315147690325,0.2464571709977726,"(0.0, 0.0, 0.0, 0.0, 0.0, 0.0)",0.13422125615407748,-0.8068426108707051,-6.437450399132683e-20,"(0.0, 0.0, 0.0, 0.0, 0.0, 0.0)",0.010012465260746043,-0.5765010557282592,-0.03712463593680898,"(0.0, 0.0, 0.0, 0.0, 0.0, 0.0)",0.14596283079952344,0.8049081599979637,1.1858461261560205e-20,"(0.0, 0.0, 0.0, 0.0, 0.0, 0.0)",0.0108877051533569,True,"(-0.031733799535813526, 0.18513628872467836, 0.0007080597569862235)","(0.9999070716251528, 0.006963468864492546, 0.011719992123917703)",0.00014796604206996166,0.0,True,"(0.03184947576942086, 0.1851973846522553, 0.0005048068479851347)","(-0.9999157835707941, -0.006952969685184563, 0.010958192303534097)",0.0005606952044280537,0.0
88,Move,"(-0.00087, 0.0, 0.00049)","(0.0, 0.13771171397010862, 0.0)","(7.623033490990899e-05, 0.1648160223184527, 0.031123263530878548)","(-0.00039614849999165173, 0.0027491369141719986, 0.006959448193586647)","[7.623034087613516e-05, 0.00481167401572799, 0.002050885366832983]","[-0.026750000193715096, 0.05299999937415123, 0.0]","[0.0, -0.0, 0.5775315440090335]","[-0.0660589411854744, 0.11332252621650696, 0.0]","[0.0, 0.0, -0.22931110149653153]","[0.026750000193715096, 0.05299999937415123, 0.0]","[0.0, 0.0, -0.5765009919331775]","[0.06599675863981247, 0.11336300522089005, 0.0]","[0.0, -0.0, 0.22840710820392884]",0.5788686354038663,0.3209089523601264,"(0.0, 0.0, 0.0, 0.0, 0.0, 0.0)",0.10937945977730415,-0.8068426108707051,-3.218725199566341e-20,"(0.0, 0.0, 0.0, 0.0, 0.0, 0.0)",0.008159939372215489,-0.5762350073803942,0.06385160348757313,"(0.0, 0.0, 0.0, 0.0, 0.0, 0.0)",0.14825211544279776,0.8049081599979637,-3.7534147475206184e-20,"(0.0, 0.0, 0.0, 0.0, 0.0, 0.0)",0.011058720285862628,True,"(-0.03186970179908184, 0.18512912481576446, 0.0007275783322919318)","(0.9999076494057562, 0.006964031546028881, 0.011670258115444232)",0.00028359405732445076,0.0,True,"(0.03187035149652672, 0.18519460685508368, 0.0005425089769234607)","(-0.9999158569621284, -0.0069543744641766825, 0.010950601422038717)",0.0005818281345091745,0.0
89,Move,"(-0.0011200000000000001, 0.0, 0.00075)","(0.0, 0.205922671796551, 0.0)","(6.886009168535794e-05, 0.16481495236648225, 0.0311476109580404)","(-0.00036555647295648974, 0.0025143300535272082, 0.006960589981913147)","[6.886009765158411e-05, 0.004810604063757551, 0.002075232793994835]","[-0.026750000193715096, 0.05299999937415123, 0.0]","[0.0, -0.0, 0.5788686049497849]","[-0.06613956391811371, 0.11326991021633148, 0.0]","[0.0, 0.0, -0.22797399997755116]","[0.026750000193715096, 0.05299999937415123, 0.0]","[0.0, 0.0, -0.5762350382668512]","[0.0659806951880455, 0.11337344348430634, 0.0]","[0.0, -0.0, 0.22867316847471897]",0.5803918308545227,0.3655669081575405,"(0.0, 0.0, 0.0, 0.0, 0.0, 0.0)",0.06565424495078985,-0.8068426108707051,1.1858461261560205e-20,"(0.0, 0.0, 0.0, 0.0, 0.0, 0.0)",0.004898900616616211,-0.5756741790604951,0.13459879677578757,"(0.0, 0.0, 0.0, 0.0, 0.0, 0.0)",0.10389244306579448,0.8049081599979637,-1.1858461261560205e-20,"(0.0, 0.0, 0.0, 0.0, 0.0, 0.0)",0.007749826676352404,True,"(-0.032046555532663695, 0.18511997664253244, 0.0007449731704522773)","(0.9999083993972285, 0.006964609657606118, 0.011605474018312308)",0.00046022030141935005,0.0,True,"(0.03183557759886045, 0.18519451833417905, 0.0005777517188467857)","(-0.9999157065472151, -0.006955719681420686, 0.010963474079745315)",0.0005473053445078746,0.0
90,Move,"(-0.00136, 0.0, 0.0011)","(0.0, 0.23959181839677363, 0.0)","(6.208422736176786e-05, 0.1648139638196936, 0.031170008821832133)","(-0.0003374341819584515, 0.0022983406458907383, 0.00696169224095174)","[6.208423332799404e-05, 0.0048096155169689014, 0.002097630657786568]","[-0.026750000193715096, 0.05299999937415123, 0.0]","[0.0, -0.0, 0.5803918034537993]","[-0.06623131781816483, 0.11320984363555908, 0.0]","[0.0, 0.0, -0.22645078372202895]","[0.026750000193715096, 0.05299999937415123, 0.0]","[0.0, 0.0, -0.5756742305329432]","[0.06594683229923248, 0.11339543014764786, 0.0]","[0.0, -0.0, 0.22923398722528948]",0.5822316194175496,0.4415492551264581,"(0.0, 0.0, 0.0, 0.0, 0.0, 0.0)",0.11165971586852785,-0.8068426108707051,-4.743384504624082e-20,"(0.0, 0.0, 0.0, 0.0, 0.0, 0.0)",0.008331079519677894,-0.5744673314635771,0.28964342326033365,"(0.0, 0.0, 0.0, 0.0, 0.0, 0.0)",0.22768262454843471,0.8049081599979637,-1.9100592960584473e-19,"(0.0, 0.0, 0.0, 0.0, 0.0, 0.0)",0.016984051181374075,True,"(-0.03224795670272481, 0.185109471686868, 0.0007605737489837547)","(0.9999092494091754, 0.006965205355918734, 0.011531646037297361)",0.0006614323750301744,0.0,True,"(0.03176180656843163, 0.1851963151274855, 0.0006106089538659608)","(-0.9999153988490012, -0.006957014809463647, 0.010990681943533732)",0.00047377613193753503,0.0
91,Move,"(-0.0016899999999999999, 0.0, 0.00157)","(0.0, 0.2107537431660713, 0.0)","(5.5854841204833395e-05, 0.16481305014290012, 0.031190613352689012)","(-0.00031158226598661124, 0.002099660777508928, 0.006962760721908882)","[5.5854847171059565e-05, 0.004808701840175428, 0.0021182351886434476]","[-0.026750000193715096, 0.05299999937415123, 0.0]","[0.0, -0.0, 0.5822317752131959]","[-0.06634202599525452, 0.11313710361719131, 0.0]","[0.0, 0.0, -0.22461100176568594]","[0.026750000193715096, 0.05299999937415123, 0.0]","[0.0, 0.0, -0.5744673424719311]","[0.06587391346693039, 0.11344269663095474, 0.0]","[0.0, -0.0, 0.23044083733212375]",0.5842027106841758,0.4730619039902784,"(0.0, 0.0, 0.0, 0.0, 0.0, 0.0)",0.04638760079277218,-0.8068426108707051,-2.371692252312041e-20,"(0.0, 0.0, 0.0, 0.0, 0.0, 0.0)",0.00346304207426245,-0.5729415275104672,0.3661929487463715,"(0.0, 0.0, 0.0, 0.0, 0.0, 0.0)",0.11247131172658856,0.8049081599979637,-4.0657581468206416e-20,"(0.0, 0.0, 0.0, 0.0, 0.0, 0.0)",0.008390905760510744,True,"(-0.03249113897819916, 0.18509662106849484, 0.0007743298140140614)","(0.9999102700489448, 0.006965816684479259, 0.011442431934022614)",0.0009044684142097247,0.0,True,"(0.03160260821524087, 0.18520196167068123, 0.0006417996380094251)","(-0.9999147442395742, -0.006958258194218142, 0.011049293878328814)",0.00031482423825888816,0.0
92,Move,"(-0.00204, 0.0, 0.002)","(0.0, 0.17193762060171738, 0.0)","(2.500691647545516e-05, 0.1648097855942897, 0.03120923012650943)","(-0.00029265067337460655, 0.001960936858453802, 0.00722371061118706)","[2.5006922441681332e-05, 0.00480543729156499, 0.002136851962463864]","[-0.026750000193715096, 0.05299999937415123, 0.0]","[0.0, -0.0, 0.5842027471931555]","[-0.06646048277616501, 0.11305894702672958, 0.0]","[0.0, 0.0, -0.22263987526107867]","[0.026750000193715096, 0.05299999937415123, 0.0]","[0.0, 0.0, -0.57294150386536]","[0.06578164547681808, 0.11350231617689133, 0.0]","[0.0, -0.0, 0.2319666424901759]",0.5861281370136504,0.46210231907389326,"(0.0, 0.0, 0.0, 0.0, 0.0, 0.0)",-0.01596426151349518,-0.8068426108707051,0.0,"(0.0, 0.0, 0.0, 0.0, 0.0, 0.0)",-0.0011876281856830072,-0.5716761631079441,0.30368745660555857,"(0.0, 0.0, 0.0, 0.0, 0.0, 0.0)",0.7458357480722114,0.8047428754471467,-0.03966829219606743,"(0.0, 0.0, 0.0, 0.0, 0.0, 0.0)",0.4390577775450362,True,"(-0.032752804837719945, 0.18507785210916178, 0.000761802548050428)","(0.9997174802786961, 0.006712412091536835, 0.022801384807251104)",0.0011664761498008118,0.0,True,"(0.03140121237554147, 0.18520931837339336, 0.000671096839243388)","(-0.9999139143243365, -0.00695946210279336, 0.01112339102177759)",0.00011366734020806767,6.34312180933758
93,Move,"(-0.00252, 0.0, 0.0024100000000000002)","(0.0, 0.13771171397010862, 0.0)","(-7.98370453447426e-05, 0.16478710646463474, 0.03122648698525611)","(-0.000275467765334676, 0.0018228499870854692, 0.00840384251934232)","[-7.983703937851643e-05, 0.004782758161910039, 0.002154108821210546]","[-0.026750000193715096, 0.05299999937415123, 0.0]","[0.0, -0.0, 0.5861281845768217]","[-0.0665760487318039, 0.112982377409935, 0.0]","[0.0, 0.0, -0.22071446370554954]","[0.026750000193715096, 0.05299999937415123, 0.0]","[0.0, 0.0, -0.571676146209183]","[0.06570505350828171, 0.11355166137218475, 0.0]","[0.0, -0.0, 0.2330667199489213]",0.5879797351557278,0.4443835540985636,"(0.0, 0.0, 0.0, 0.0, 0.0, 0.0)",-0.025891840152677818,-0.8068426108707051,0.0,"(0.0, 0.0, 0.0, 0.0, 0.0, 0.0)",-0.0019283145604289528,-0.5706744126956687,0.24042009894610986,"(0.0, 0.0, 0.0, 0.0, 0.0, 0.0)",1.1993999912722806,0.8046356069684293,-0.02574443489218138,"(0.0, 0.0, 0.0, 0.0, 0.0, 0.0)",0.710179188540872,True,"(-0.03300730770894306, 0.18506338536378558, 0.0007718881964170459)","(0.999719376140328, 0.006974580086496539, 0.022638997376440283)",0.0013891219694608541,0.0,True,"(0.03124603723209457, 0.18522044501486767, 0.0006956374404310395)","(-0.9999116090524057, -0.007220504312560652, 0.011164156918519972)",-9.528120168449812e-06,9.75293971621109
94,Move,"(-0.00304, 0.0, 0.00281)","(0.0, 0.13771171397010862, 0.0)","(-0.00016184006540504993, 0.16477705845044735, 0.0312421696540036)","(-0.00026264952412388177, 0.0017181994579544195, 0.009142937586413623)","[-0.00016184005943882377, 0.004772710147722653, 0.0021697914899580367]","[-0.026750000193715096, 0.05299999937415123, 0.0]","[0.0, -0.0, 0.5879796917991059]","[-0.06668704748153687, 0.11290853470563889, 0.0]","[0.0, 0.0, -0.2188628712762391]","[0.026750000193715096, 0.05299999937415123, 0.0]","[0.0, 0.0, -0.5706744575865921]","[0.06564437597990036, 0.11359065026044846, 0.0]","[0.0, -0.0, 0.23396120097440137]",0.5897849508437669,0.43325176512940194,"(0.0, 0.0, 0.0, 0.0, 0.0, 0.0)",-0.016225498653559472,-0.8068426108707051,3.2795421651792e-16,"(0.0, 0.0, 0.0, 0.0, 0.0, 0.0)",-0.0012074926169463203,-0.569851178183522,0.1975762829151745,"(0.0, 0.0, 0.0, 0.0, 0.0, 0.0)",0.36258725081754495,0.8044342531014496,-0.04832492807514379,"(0.0, 0.0, 0.0, 0.0, 0.0, 0.0)",0.22801133297660936,False,,,,,True,"(0.031121521902379226, 0.18522724188804568, 0.000717450235501443)","(-0.9999025454859208, -0.008400651831792326, 0.011150272623427169)",-9.364935548005216e-06,3.2310085195831006
95,Move,"(-0.00304, 0.0, 0.00281)","(0.0, 0.13771171397010862, 0.0)","(-0.00026302840824442357, 0.16476374890829565, 0.03125673707233756)","(-0.0002480523226058453, 0.0016076983524312505, 0.010053953982999287)","[-0.0002630284022781974, 0.0047594006055709515, 0.0021843589082919945]","[-0.026750000193715096, 0.05299999937415123, 0.0]","[0.0, -0.0, 0.5897849711179347]","[-0.06679512560367584, 0.1128363385796547, 0.0]","[0.0, 0.0, -0.21705767505154605]","[0.026750000193715096, 0.05299999937415123, 0.0]","[0.0, 0.0, -0.5698511784904722]","[0.06559448689222336, 0.11362265050411224, 0.0]","[0.0, -0.0, 0.23458309039976774]",0.5916841639475765,0.4558111449143052,"(0.0, 0.0, 0.0, 0.0, 0.0, 0.0)",0.03323929553892233,-0.8068426108707051,0.0,"(0.0, 0.0, 0.0, 0.0, 0.0, 0.0)",0.002482151269560201,-0.568899679113069,0.2283597769087162,"(0.0, 0.0, 0.0, 0.0, 0.0, 0.0)",0.8605372857108559,0.8043012991927757,-0.031908938081733916,"(0.0, 0.0, 0.0, 0.0, 0.0, 0.0)",0.4584540492520085,False,,,,,True,"(0.031027308460581014, 0.18523671230143438, 0.0007365813867098952)","(-0.9998961261845906, -0.009139766658185788, 0.01114457296101053)",-9.68408414417714e-06,6.149393329075428
96,Move,"(-0.00304, 0.0, 0.00281)","(0.0, 0.13771171397010862, 0.0)","(-0.0018909717472959707, 0.16434470189554903, 0.03200780736580806)","(-7.309349664054322e-05, 0.025902531662161055, 0.028560855279310612)","[-0.0018909717413297445, 0.004340353592824336, 0.002935429201762492]","[-0.026750000193715096, 0.05299999937415123, 0.0]","[0.0, -0.0, 0.59168410320715]","[-0.06690869480371475, 0.11276017874479294, 0.0]","[0.0, 0.0, -0.21515845920418422]","[0.026750000193715096, 0.05299999937415123, 0.0]","[0.0, 0.0, -0.5688996448041442]","[0.06553678959608078, 0.1136595830321312, 0.0]","[0.0, -0.0, 0.2354016233474349]",0.570017920308033,-5.199898473490428,"(0.0, 0.0, 0.0, 0.0, 0.0, 0.0)",-8.304036167419643,-0.8068426108707051,0.0,"(0.0, 0.0, 0.0, 0.0, 0.0, 0.0)",-0.6194295109985012,-0.5479169317665391,5.035859363167187,"(0.0, 0.0, 0.0, 0.0, 0.0, 0.0)",20.85238020671792,0.8032963503734781,-0.24118771663142136,"(0.0, 0.0, 0.0, 0.0, 0.0, 0.0)",8.777573976975164,False,,,,,True,"(0.030911213567027987, 0.1852443502712113, 0.0007548040891307)","(-0.9998874337809177, -0.01005079631162202, 0.011140074529076805)",-9.383786954392872e-06,100.29410128640747
97,Move,"(-0.00304, 0.0, 0.00281)","(0.0, 0.13771171397010862, 0.0)","(-0.0019556504090540664, 0.16504036555971927, 0.031742267652978676)","(0.012995499183199014, 0.02581953176986283, 0.0279963957315754)","[-0.00195565040308784, 0.005036017256994568, 0.002669889488933111]","[-0.026750000193715096, 0.05299999937415123, 0.0]","[0.0, -0.0, 0.5700179332982158]","[-0.06560459733009338, 0.11361617594957352, 0.0]","[0.0, 0.0, -0.23682465113647028]","[0.026750000193715096, 0.05299999937415123, 0.0]","[0.0, 0.0, -0.5479169323593795]","[0.06425553560256958, 0.11446002870798111, 0.0]","[0.0, -0.0, 0.2553794604459016]",0.5526797859191427,-4.16115225333367,"(0.0, 0.0, 0.0, 0.0, 0.0, 0.0)",-71.8504938457964,-0.7770533519150781,7.149422149350484,"(0.0, 0.0, 0.0, 0.0, 0.0, 0.0)",-38.257181932460846,-0.5308730969502299,4.090520355914208,"(0.0, 0.0, 0.0, 0.0, 0.0, 0.0)",60.20624407695493,0.7740567235968897,-7.017510426381232,"(0.0, 0.0, 0.0, 0.0, 0.0, 0.0)",31.14205698075542,True,"(-0.03090524146128934, 0.18507984571270514, 0.0024801452919165235)","(0.9987904325101375, 0.028538887272042766, 0.04004002796559693)",-0.0038070852338960254,560.3486032449701,True,"(0.028206862717470513, 0.18533880949643045, 0.0007548040891307)","(-0.9998874337809177, -0.01005079631162202, 0.011140074529076805)",4.811188585725693e-05,467.17035390489207
