OSUrobotics/InHand-Manipulation/AnalyseData/Data/new_hand_human_filt_josh_2v2_e_none_1_kpNone_kdNone_dp1_step1_save_data.csv
,Phase,human_cube_pos,human_cube_orn,Cube_Pos,Cube_Orn,Cube_pos_in_start_pos,b'l_prox_pin'_link_pos,b'l_prox_pin'_link_orn,b'l_distal_pin'_link_pos,b'l_distal_pin'_link_orn,b'r_prox_pin'_link_pos,b'r_prox_pin'_link_orn,b'r_distal_pin'_link_pos,b'r_distal_pin'_link_orn,b'l_prox_pin'_joint_angle,b'l_prox_pin'_joint_vel,b'l_prox_pin'_joint_react_forces,b'l_prox_pin'_joint_motor_torque,b'l_distal_pin'_joint_angle,b'l_distal_pin'_joint_vel,b'l_distal_pin'_joint_react_forces,b'l_distal_pin'_joint_motor_torque,b'r_prox_pin'_joint_angle,b'r_prox_pin'_joint_vel,b'r_prox_pin'_joint_react_forces,b'r_prox_pin'_joint_motor_torque,b'r_distal_pin'_joint_angle,b'r_distal_pin'_joint_vel,b'r_distal_pin'_joint_react_forces,b'r_distal_pin'_joint_motor_torque,in_contact_l,contact_point_l_dist,contact_normal_l_dist,contact_distance_l_dist,contact_norm_force_l_dist,in_contact_r,contact_point_r_dist,contact_normal_r_dist,contact_distance_r_dist,contact_norm_force_r_dist
0,Open,,,,,,"[-0.026750000193715096, 0.05299999937415123, 0.03999999910593033]","[0.0, -0.0, 0.0]","[-0.026750000193715096, 0.125, 0.03999999910593033]","[0.0, -0.0, 0.0]","[0.026750000193715096, 0.05299999937415123, 0.03999999910593033]","[0.0, -0.0, 0.0]","[0.026750000193715096, 0.125, 0.03999999910593033]","[0.0, -0.0, 0.0]",0.0028636982559538428,0.6872875814289223,"(0.0, 0.0, 0.0, 0.0, 0.0, 0.0)",-74.42376671286476,0.025717978913313098,6.172314939195144,"(0.0, 0.0, 0.0, 0.0, 0.0, 0.0)",-28.347758017338414,-0.0028861714462846827,-0.6926811471083238,"(0.0, 0.0, 0.0, 0.0, 0.0, 0.0)",77.31812537484876,-0.025998027583603027,-6.239526620064726,"(0.0, 0.0, 0.0, 0.0, 0.0, 0.0)",29.325432325549183,False,,,,,False,,,,
1,Open,,,,,,"[-0.026750000193715096, 0.05299999937415123, 0.03999999910593033]","[0.0, -0.0, 0.0028636982488144678]","[-0.026956185698509216, 0.12499970197677612, 0.03999999910593033]","[0.0, -0.0, 0.028581675581217755]","[0.026750000193715096, 0.05299999937415123, 0.03999999910593033]","[0.0, 0.0, -0.0028861714423951343]","[0.026957804337143898, 0.12499970197677612, 0.03999999910593033]","[0.0, 0.0, -0.028884201286240394]",0.1595773284303585,37.61127124185712,"(0.0, 0.0, 0.0, 0.0, 0.0, 0.0)",53.472225824972774,0.02314589095046895,-0.6173011110825959,"(0.0, 0.0, 0.0, 0.0, 0.0, 0.0)",3.3014509125464437,-0.15959755430165623,-37.61073188528917,"(0.0, 0.0, 0.0, 0.0, 0.0, 0.0)",-53.45543824447724,-0.023397935520559333,0.6240220951304867,"(0.0, 0.0, 0.0, 0.0, 0.0, 0.0)",-3.2927232380167535,False,,,,,False,,,,
2,Open,,,,,,"[-0.026750000193715096, 0.05299999937415123, 0.03999999910593033]","[0.0, -0.0, 0.15957730699277592]","[-0.03819086775183678, 0.1240852028131485, 0.03999999910593033]","[0.0, -0.0, 0.1827232399786182]","[0.026750000193715096, 0.05299999937415123, 0.03999999910593033]","[0.0, 0.0, -0.15959754249378824]","[0.03819230571389198, 0.12408497184515, 0.03999999910593033]","[0.0, 0.0, -0.1829954723320542]",0.30061959558732265,33.8501441176714,"(0.0, 0.0, 0.0, 0.0, 0.0, 0.0)",-5.433290843096747,0.020831748867960086,-0.555394099802127,"(0.0, 0.0, 0.0, 0.0, 0.0, 0.0)",-0.37949999689540415,-0.30063779887149056,-33.849658696760244,"(0.0, 0.0, 0.0, 0.0, 0.0, 0.0)",5.433149501288634,-0.02105858889910766,0.5614431891484022,"(0.0, 0.0, 0.0, 0.0, 0.0, 0.0)",0.37943043762158307,False,,,,,False,,,,
3,Open,,,,,,"[-0.026750000193715096, 0.05299999937415123, 0.03999999910593033]","[0.0, -0.0, 0.30061964608852465]","[-0.048070069402456284, 0.12177103012800217, 0.03999999910593033]","[0.0, -0.0, 0.3214513597309629]","[0.026750000193715096, 0.05299999937415123, 0.03999999910593033]","[0.0, 0.0, -0.30063782483534385]","[0.04807132109999657, 0.12177064269781113, 0.03999999910593033]","[0.0, 0.0, -0.32169639446592324]",0.4275576360285904,30.465129705904268,"(0.0, 0.0, 0.0, 0.0, 0.0, 0.0)",-4.896562760502833,0.018748978964657985,-0.49986477679250463,"(0.0, 0.0, 0.0, 0.0, 0.0, 0.0)",-0.3438186216350169,-0.4275740189843415,-30.464692827084228,"(0.0, 0.0, 0.0, 0.0, 0.0, 0.0)",4.8964345239877005,-0.018953134917884834,0.505308955493478,"(0.0, 0.0, 0.0, 0.0, 0.0, 0.0)",0.34375511365495653,False,,,,,False,,,,
4,Open,,,,,,"[-0.026750000193715096, 0.05299999937415123, 0.03999999910593033]","[0.0, -0.0, 0.42755761853039154]","[-0.056604765355587006, 0.1185186430811882, 0.03999999910593033]","[0.0, -0.0, 0.4463066270391506]","[0.026750000193715096, 0.05299999937415123, 0.03999999910593033]","[0.0, 0.0, -0.42757404208311445]","[0.05660583823919296, 0.1185181587934494, 0.03999999910593033]","[0.0, 0.0, -0.4465272228574986]",0.5418018724257314,27.418616735313837,"(0.0, 0.0, 0.0, 0.0, 0.0, 0.0)",-4.412236817968903,0.016874447698417276,-0.44988750389777044,"(0.0, 0.0, 0.0, 0.0, 0.0, 0.0)",-0.3112578673856835,-0.5418166170859073,-27.418223544375806,"(0.0, 0.0, 0.0, 0.0, 0.0, 0.0)",4.412120589674461,-0.017058187988154127,0.4547872631353701,"(0.0, 0.0, 0.0, 0.0, 0.0, 0.0)",0.31119999541872967,False,,,,,False,,,,
5,Open,,,,,,"[-0.026750000193715096, 0.05299999937415123, 0.03999999910593033]","[0.0, -0.0, 0.5418019400761332]","[-0.06387900561094284, 0.11468822509050369, 0.03999999910593033]","[0.0, -0.0, 0.5586763123738882]","[0.026750000193715096, 0.05299999937415123, 0.03999999910593033]","[0.0, 0.0, -0.5418166677071254]","[0.06387991458177567, 0.11468767374753952, 0.03999999910593033]","[0.0, 0.0, -0.5588748551425957]",0.6446216851831583,24.67675506178245,"(0.0, 0.0, 0.0, 0.0, 0.0, 0.0)",-3.975330693632137,0.015187334633278446,-0.4049071356333192,"(0.0, 0.0, 0.0, 0.0, 0.0, 0.0)",-0.2816071653694913,-0.6446349553773166,-24.67640118993823,"(0.0, 0.0, 0.0, 0.0, 0.0, 0.0)",3.975225427671302,-0.01535270083200906,0.409316917474816,"(0.0, 0.0, 0.0, 0.0, 0.0, 0.0)",0.28155450162657786,False,,,,,False,,,,
6,Open,,,,,,"[-0.026750000193715096, 0.05299999937415123, 0.03999999910593033]","[0.0, -0.0, 0.6446216983098856]","[-0.07001452147960663, 0.11055155843496323, 0.03999999910593033]","[0.0, -0.0, 0.6598089287160823]","[0.026750000193715096, 0.05299999937415123, 0.03999999910593033]","[0.0, 0.0, -0.644634967879878]","[0.07001528143882751, 0.11055097728967667, 0.03999999910593033]","[0.0, 0.0, -0.6599877329949964]",0.7371595166648425,22.209079555604205,"(0.0, 0.0, 0.0, 0.0, 0.0, 0.0)",-3.5812948349547464,0.013668901111545678,-0.3644240452158641,"(0.0, 0.0, 0.0, 0.0, 0.0, 0.0)",-0.25464125660078457,-0.737171459839585,-22.20876107094441,"(0.0, 0.0, 0.0, 0.0, 0.0, 0.0)",3.5811995605906057,-0.01381773063402154,0.3683928475170044,"(0.0, 0.0, 0.0, 0.0, 0.0, 0.0)",0.2545933902665499,False,,,,,False,,,,
7,Open,,,,,,"[-0.026750000193715096, 0.05299999937415123, 0.03999999910593033]","[0.0, -0.0, 0.7371595400859692]","[-0.07514750957489014, 0.10630742460489273, 0.03999999910593033]","[0.0, -0.0, 0.7508283868993905]","[0.026750000193715096, 0.05299999937415123, 0.03999999910593033]","[0.0, 0.0, -0.7371714711336782]","[0.07514814287424088, 0.10630684345960617, 0.03999999910593033]","[0.0, 0.0, -0.750989167509555]",0.8204435649983582,19.988171600043785,"(0.0, 0.0, 0.0, 0.0, 0.0, 0.0)",-3.2259980823944012,0.01230228208777883,-0.32798856570404317,"(0.0, 0.0, 0.0, 0.0, 0.0, 0.0)",-0.23014491551259536,-0.8204543138556265,-19.987884963849964,"(0.0, 0.0, 0.0, 0.0, 0.0, 0.0)",3.225911902119173,-0.012436228606816148,0.33156048652929415,"(0.0, 0.0, 0.0, 0.0, 0.0, 0.0)",0.23010145595163894,False,,,,,False,,,,
8,Open,,,,,,"[-0.026750000193715096, 0.05299999937415123, 0.03999999910593033]","[0.0, -0.0, 0.8204435774406766]","[-0.07941428571939468, 0.1020965725183487, 0.03999999910593033]","[0.0, -0.0, 0.8327459142786269]","[0.026750000193715096, 0.05299999937415123, 0.03999999910593033]","[0.0, 0.0, -0.8204543695347751]","[0.07941480726003647, 0.10209600627422333, 0.03999999910593033]","[0.0, 0.0, -0.8328905496331522]",0.8953992084985224,17.9893544400394,"(0.0, 0.0, 0.0, 0.0, 0.0, 0.0)",-2.905692777507757,0.011072298781000885,-0.2951959936267068,"(0.0, 0.0, 0.0, 0.0, 0.0, 0.0)",-0.20791432075989408,-0.8954088824700639,-17.989096467464968,"(0.0, 0.0, 0.0, 0.0, 0.0, 0.0)",2.9056148642503405,-0.011192850601700187,0.29841072122783063,"(0.0, 0.0, 0.0, 0.0, 0.0, 0.0)",0.20787489947010138,False,,,,,False,,,,
9,Open,,,,,,"[-0.026750000193715096, 0.05299999937415123, 0.03999999910593033]","[0.0, -0.0, 0.8953992050914552]","[-0.08294302970170975, 0.09801492840051651, 0.03999999910593033]","[0.0, -0.0, 0.9064715399310761]","[0.026750000193715096, 0.05299999937415123, 0.03999999910593033]","[0.0, 0.0, -0.8954089117450801]","[0.08294346183538437, 0.09801438450813293, 0.03999999910593033]","[0.0, 0.0, -0.9066016844299951]",0.9628592876486701,16.190418996035465,"(0.0, 0.0, 0.0, 0.0, 0.0, 0.0)",-2.616982039675733,0.009965290062605858,-0.26568209241480656,"(0.0, 0.0, 0.0, 0.0, 0.0, 0.0)",-0.18775783729375353,-0.9628679942230576,-16.190186820718473,"(0.0, 0.0, 0.0, 0.0, 0.0, 0.0)",2.6169116334278195,-0.010073786659150813,0.26857534621184953,"(0.0, 0.0, 0.0, 0.0, 0.0, 0.0)",0.187722108909745,False,,,,,False,,,,
10,Open,,,,,,"[-0.026750000193715096, 0.05299999937415123, 0.03999999910593033]","[0.0, -0.0, 0.9628592963772022]","[-0.08584962040185928, 0.09412462264299393, 0.03999999910593033]","[0.0, -0.0, 0.9728246761305416]","[0.026750000193715096, 0.05299999937415123, 0.03999999910593033]","[0.0, 0.0, -0.9628681466677605]","[0.08584997802972794, 0.09412410855293274, 0.03999999910593033]","[0.0, 0.0, -0.9729417790417357]",1.0235733588838032,14.57137709643192,"(0.0, 0.0, 0.0, 0.0, 0.0, 0.0)",-2.356789246056587,0.008968960705874744,-0.23911904561546746,"(0.0, 0.0, 0.0, 0.0, 0.0, 0.0)",-0.16949635495257384,-1.0235811948007518,-14.571168138646623,"(0.0, 0.0, 0.0, 0.0, 0.0, 0.0)",2.3567256501387286,-0.009066607604651448,0.24172297307984775,"(0.0, 0.0, 0.0, 0.0, 0.0, 0.0)",0.16946399753760524,False,,,,,False,,,,
11,Open,,,,,,"[-0.026750000193715096, 0.05299999937415123, 0.03999999910593033]","[0.0, -0.0, 1.0235732790301837]","[-0.08823604136705399, 0.09046287834644318, 0.03999999910593033]","[0.0, -0.0, 1.0325423083164225]","[0.026750000193715096, 0.05299999937415123, 0.03999999910593033]","[0.0, 0.0, -1.0235812274279317]","[0.08823633193969727, 0.09046239405870438, 0.03999999910593033]","[0.0, 0.0, -1.0326479037372749]",1.078216022995423,13.114239386788727,"(0.0, 0.0, 0.0, 0.0, 0.0, 0.0)",-2.1223296975724493,0.008072244810550301,-0.215211814877866,"(0.0, 0.0, 0.0, 0.0, 0.0, 0.0)",-0.1529632973210469,-1.0782230753206767,-13.114051324781958,"(0.0, 0.0, 0.0, 0.0, 0.0, 0.0)",2.122272274708909,-0.008160126984954354,0.21755534872730237,"(0.0, 0.0, 0.0, 0.0, 0.0, 0.0)",0.15293401213466845,False,,,,,False,,,,
12,Open,,,,,,"[-0.026750000193715096, 0.05299999937415123, 0.03999999910593033]","[0.0, -0.0, 1.078215882979514]","[-0.09019032120704651, 0.08704887330532074, 0.03999999910593033]","[0.0, -0.0, 1.0862882926740116]","[0.026750000193715096, 0.05299999937415123, 0.03999999910593033]","[0.0, 0.0, -1.078222977413882]","[0.09019055962562561, 0.08704842627048492, 0.03999999910593033]","[0.0, 0.0, -1.0863833790205233]",1.1273944206958806,11.802815448109852,"(0.0, 0.0, 0.0, 0.0, 0.0, 0.0)",-1.9110844168611731,0.007265182884681461,-0.19369486220852175,"(0.0, 0.0, 0.0, 0.0, 0.0, 0.0)",-0.13800439004610457,-1.127400767788609,-11.802646192303762,"(0.0, 0.0, 0.0, 0.0, 0.0, 0.0)",1.9110325851897776,-0.007344276810443619,0.19580404188257655,"(0.0, 0.0, 0.0, 0.0, 0.0, 0.0)",0.13797790093405082,False,,,,,False,,,,
13,Open,,,,,,"[-0.026750000193715096, 0.05299999937415123, 0.03999999910593033]","[0.0, -0.0, 1.1273943743462997]","[-0.0917874127626419, 0.08388907462358475, 0.03999999910593033]","[0.0, -0.0, 1.1346596248576977]","[0.026750000193715096, 0.05299999937415123, 0.03999999910593033]","[0.0, 0.0, -1.127400718904607]","[0.09178761392831802, 0.08388865739107132, 0.03999999910593033]","[0.0, 0.0, -1.134745111288055]",1.1716549786262926,10.622533903298867,"(0.0, 0.0, 0.0, 0.0, 0.0, 0.0)",-1.7207759982695574,0.00653881121780902,-0.17432920004938585,"(0.0, 0.0, 0.0, 0.0, 0.0, 0.0)",-0.12447725819906867,-1.1716606910097482,-10.622381573073383,"(0.0, 0.0, 0.0, 0.0, 0.0, 0.0)",1.7207292273800263,-0.006609995722787257,0.17622746103752684,"(0.0, 0.0, 0.0, 0.0, 0.0, 0.0)",0.12445331071934837,False,,,,,False,,,,
14,Open,,,,,,"[-0.026750000193715096, 0.05299999937415123, 0.03999999910593033]","[0.0, -0.0, 1.17165497759142]","[-0.09309044480323792, 0.08098116517066956, 0.03999999910593033]","[0.0, -0.0, 1.1781937273122836]","[0.026750000193715096, 0.05299999937415123, 0.03999999910593033]","[0.0, 0.0, -1.1716605985979762]","[0.09309060126543045, 0.08098078519105911, 0.03999999910593033]","[0.0, 0.0, -1.178270796658152]",1.2114894807636634,9.56028051296898,"(0.0, 0.0, 0.0, 0.0, 0.0, 0.0)",-1.549346412635057,0.005885062316220725,-0.15689973638119079,"(0.0, 0.0, 0.0, 0.0, 0.0, 0.0)",-0.11225090666269867,-1.2114946219087734,-9.560143415766044,"(0.0, 0.0, 0.0, 0.0, 0.0, 0.0)",1.5493042197033076,-0.00594912834521185,0.1586081706180975,"(0.0, 0.0, 0.0, 0.0, 0.0, 0.0)",0.11222926703597672,False,,,,,False,,,,
15,Open,,,,,,"[-0.026750000193715096, 0.05299999937415123, 0.03999999910593033]","[0.0, -0.0, 1.2114893406881728]","[-0.09415213763713837, 0.07831703126430511, 0.03999999910593033]","[0.0, -0.0, 1.2173745989650702]","[0.026750000193715096, 0.05299999937415123, 0.03999999910593033]","[0.0, 0.0, -1.2114945655338818]","[0.09415226429700851, 0.07831668108701706, 0.03999999910593033]","[0.0, 0.0, -1.2174436451143456]",1.247340532687297,8.604252461672083,"(0.0, 0.0, 0.0, 0.0, 0.0, 0.0)",-1.3949366588174594,0.00529667529397997,-0.14121288533778104,"(0.0, 0.0, 0.0, 0.0, 0.0, 0.0)",-0.1012051251161189,-1.2473451597178962,-8.604129074189437,"(0.0, 0.0, 0.0, 0.0, 0.0, 0.0)",1.394898604883462,-0.005354334697048719,0.1427504755591516,"(0.0, 0.0, 0.0, 0.0, 0.0, 0.0)",0.1011855790679586,False,,,,,False,,,,
16,Open,,,,,,"[-0.026750000193715096, 0.05299999937415123, 0.03999999910593033]","[0.0, -0.0, 1.2473405247091465]","[-0.09501627087593079, 0.07588484138250351, 0.03999999910593033]","[0.0, -0.0, 1.2526371614229614]","[0.026750000193715096, 0.05299999937415123, 0.03999999910593033]","[0.0, 0.0, -1.2473450561350814]","[0.09501637518405914, 0.07588452845811844, 0.03999999910593033]","[0.0, 0.0, -1.252699591080442]",1.2796064794185673,7.743827215504874,"(0.0, 0.0, 0.0, 0.0, 0.0, 0.0)",-1.2558681481324276,0.004767115224099335,-0.12709441677135241,"(0.0, 0.0, 0.0, 0.0, 0.0, 0.0)",-0.09122984935698081,-1.2796106437461066,-7.743716166770495,"(0.0, 0.0, 0.0, 0.0, 0.0, 0.0)",1.2558338345532607,-0.004819008666073119,0.128478247434144,"(0.0, 0.0, 0.0, 0.0, 0.0, 0.0)",0.09121220090323832,False,,,,,False,,,,
17,Open,,,,,,"[-0.026750000193715096, 0.05299999937415123, 0.03999999910593033]","[0.0, -0.0, 1.279606409124563]","[-0.09571900963783264, 0.0736706405878067, 0.03999999910593033]","[0.0, -0.0, 1.2843736758198352]","[0.026750000193715096, 0.05299999937415123, 0.03999999910593033]","[0.0, 0.0, -1.2796106525936015]","[0.0957190990447998, 0.07367035001516342, 0.03999999910593033]","[0.0, 0.0, -1.2844295613342638]",1.3086458314767107,6.969444493954387,"(0.0, 0.0, 0.0, 0.0, 0.0, 0.0)",-1.1305941221975622,0.00429170208951155,-0.1140991523010686,"(0.0, 0.0, 0.0, 0.0, 0.0, 0.0)",-0.082192919359827,-1.3086495793714958,-6.969344550093446,"(0.0, 0.0, 0.0, 0.0, 0.0, 0.0)",1.1305631934145834,-0.004338405935744441,0.11534465527888274,"(0.0, 0.0, 0.0, 0.0, 0.0, 0.0)",0.08217699569254354,False,,,,,False,,,,
18,Open,,,,,,"[-0.026750000193715096, 0.05299999937415123, 0.03999999910593033]","[0.0, -0.0, 1.308645825919811]","[-0.09629011154174805, 0.0716593861579895, 0.03999999910593033]","[0.0, -0.0, 1.3129373548657892]","[0.026750000193715096, 0.05299999937415123, 0.03999999910593033]","[0.0, 0.0, -1.308649569130343]","[0.09629017859697342, 0.07165912538766861, 0.03999999910593033]","[0.0, 0.0, -1.3129881167123505]",1.3347812483290395,6.272500044558946,"(0.0, 0.0, 0.0, 0.0, 0.0, 0.0)",-1.0178482622338179,0.003863702481573626,-0.10271990590510163,"(0.0, 0.0, 0.0, 0.0, 0.0, 0.0)",-0.07410352518858664,-1.3347846214343462,-6.272410095084102,"(0.0, 0.0, 0.0, 0.0, 0.0, 0.0)",1.0178203769740246,-0.0039057357160976183,0.10384085271523745,"(0.0, 0.0, 0.0, 0.0, 0.0, 0.0)",0.0740891498002037,False,,,,,False,,,,
19,Open,,,,,,"[-0.026750000193715096, 0.05299999937415123, 0.03999999910593033]","[0.0, -0.0, 1.3347813147466918]","[-0.09675397723913193, 0.06983575969934464, 0.03999999910593033]","[0.0, -0.0, 1.3386449621367835]","[0.026750000193715096, 0.05299999937415123, 0.03999999910593033]","[0.0, 0.0, -1.3347844615433213]","[0.0967540368437767, 0.06983552873134613, 0.03999999910593033]","[0.0, 0.0, -1.3386905382854437]",1.3583031234961356,5.645250040103052,"(0.0, 0.0, 0.0, 0.0, 0.0, 0.0)",-0.9162890978823036,0.0034783869891320215,-0.09247571818598516,"(0.0, 0.0, 0.0, 0.0, 0.0, 0.0)",-0.06677007440367574,-1.3583061592909116,-5.645169085575695,"(0.0, 0.0, 0.0, 0.0, 0.0, 0.0)",0.9162639666346021,-0.003516216695348753,0.09348456497972772,"(0.0, 0.0, 0.0, 0.0, 0.0, 0.0)",0.06675710630673855,False,,,,,False,,,,
20,Open,,,,,,"[-0.026750000193715096, 0.05299999937415123, 0.03999999910593033]","[0.0, -0.0, 1.3583030429358363]","[-0.09713058918714523, 0.06818463653326035, 0.03999999910593033]","[0.0, -0.0, 1.3617816714487538]","[0.026750000193715096, 0.05299999937415123, 0.03999999910593033]","[0.0, 0.0, -1.358306171033049]","[0.09713063389062881, 0.06818442046642303, 0.03999999910593033]","[0.0, 0.0, -1.361822351334537]",1.379472811146522,5.0807250360927485,"(0.0, 0.0, 0.0, 0.0, 0.0, 0.0)",-0.8248429295126702,0.003131498553648039,-0.08325322451615583,"(0.0, 0.0, 0.0, 0.0, 0.0, 0.0)",-0.06015531267018523,-1.3794755433618204,-5.080652177018124,"(0.0, 0.0, 0.0, 0.0, 0.0, 0.0)",0.8248202834423316,-0.003165545104486833,0.08416118180686077,"(0.0, 0.0, 0.0, 0.0, 0.0, 0.0)",0.06014361689139186,False,,,,,False,,,,
21,Open,,,,,,"[-0.026750000193715096, 0.05299999937415123, 0.03999999910593033]","[0.0, -0.0, 1.3794728975130914]","[-0.09743624925613403, 0.06669140607118607, 0.03999999910593033]","[0.0, -0.0, 1.382604304378769]","[0.026750000193715096, 0.05299999937415123, 0.03999999910593033]","[0.0, 0.0, -1.379475506721758]","[0.09743628650903702, 0.06669121235609055, 0.03999999910593033]","[0.0, 0.0, -1.3826409668082853]",1.3985255300318697,4.572652532483473,"(0.0, 0.0, 0.0, 0.0, 0.0, 0.0)",-0.7425066286387145,0.0028192047313806493,-0.07495051734417352,"(0.0, 0.0, 0.0, 0.0, 0.0, 0.0)",-0.054190171953983096,-1.3985279890256384,-4.57258695931631,"(0.0, 0.0, 0.0, 0.0, 0.0, 0.0)",0.7424862245436853,-0.0028498464605416357,0.07576767454684734,"(0.0, 0.0, 0.0, 0.0, 0.0, 0.0)",0.0541796259205944,False,,,,,False,,,,
22,Open,,,,,,"[-0.026750000193715096, 0.05299999937415123, 0.03999999910593033]","[0.0, -0.0, 1.398525454133583]","[-0.09768425673246384, 0.0653422400355339, 0.03999999910593033]","[0.0, -0.0, 1.4013447262228373]","[0.026750000193715096, 0.05299999937415123, 0.03999999910593033]","[0.0, 0.0, -1.3985280648022782]","[0.09768428653478622, 0.06534206122159958, 0.03999999910593033]","[0.0, 0.0, -1.4013779844801912]",1.4156729770286829,4.1153872792351285,"(0.0, 0.0, 0.0, 0.0, 0.0, 0.0)",-0.6683758137814145,0.002538055332395241,-0.06747585575649792,"(0.0, 0.0, 0.0, 0.0, 0.0, 0.0)",-0.04881194552870251,-1.4156751901230746,-4.115328263384682,"(0.0, 0.0, 0.0, 0.0, 0.0, 0.0)",0.6683574317692884,-0.002565632738451909,0.06821129330153437,"(0.0, 0.0, 0.0, 0.0, 0.0, 0.0)",0.0488024380394442,False,,,,,False,,,,
23,Open,,,,,,"[-0.026750000193715096, 0.05299999937415123, 0.03999999910593033]","[0.0, -0.0, 1.4156730334745993]","[-0.09788545966148376, 0.06412414461374283, 0.03999999910593033]","[0.0, -0.0, 1.418211036917125]","[0.026750000193715096, 0.05299999937415123, 0.03999999910593033]","[0.0, 0.0, -1.4156752315845986]","[0.09788548201322556, 0.0641239807009697, 0.03999999910593033]","[0.0, 0.0, -1.418240879504808]",1.4311056793258146,3.703848551311612,"(0.0, 0.0, 0.0, 0.0, 0.0, 0.0)",-0.6016352863054336,0.002284944287465684,-0.060746650783093666,"(0.0, 0.0, 0.0, 0.0, 0.0, 0.0)",-0.04396376851645251,-1.431107671110767,-3.7037954370462103,"(0.0, 0.0, 0.0, 0.0, 0.0, 0.0)",0.6016187276545472,-0.0023097638175418747,0.061408541018408244,"(0.0, 0.0, 0.0, 0.0, 0.0, 0.0)",0.043955198772734246,False,,,,,False,,,,
24,Open,,,,,,"[-0.026750000193715096, 0.05299999937415123, 0.03999999910593033]","[0.0, -0.0, 1.4311058207082674]","[-0.09804865717887878, 0.06302504986524582, 0.03999999910593033]","[0.0, -0.0, 1.433390691262394]","[0.026750000193715096, 0.05299999937415123, 0.03999999910593033]","[0.0, 0.0, -1.4311075924426346]","[0.09804867953062057, 0.06302490830421448, 0.03999999910593033]","[0.0, 0.0, -1.433417470845748]",1.4449951113932331,3.333463696180452,"(0.0, 0.0, 0.0, 0.0, 0.0, 0.0)",-0.5415503506795546,0.0020570753203455715,-0.05468855210882702,"(0.0, 0.0, 0.0, 0.0, 0.0, 0.0)",-0.039594115216637325,-1.4449969039996904,-3.3334158933415914,"(0.0, 0.0, 0.0, 0.0, 0.0, 0.0)",0.541535435877482,-0.002079412775410495,0.055284250111531166,"(0.0, 0.0, 0.0, 0.0, 0.0, 0.0)",0.03958639191865308,False,,,,,False,,,,
25,Open,,,,,,"[-0.026750000193715096, 0.05299999937415123, 0.03999999910593033]","[0.0, -0.0, 1.444995076522675]","[-0.09818101674318314, 0.062033817172050476, 0.03999999910593033]","[0.0, -0.0, 1.4470522962768402]","[0.026750000193715096, 0.05299999937415123, 0.03999999910593033]","[0.0, 0.0, -1.4449971061677662]","[0.09818103164434433, 0.06203368678689003, 0.03999999910593033]","[0.0, 0.0, -1.4470761943538692]",1.45749560025391,3.0001173265624064,"(0.0, 0.0, 0.0, 0.0, 0.0, 0.0)",-0.4874589573784058,0.001851931045420989,-0.04923462598189979,"(0.0, 0.0, 0.0, 0.0, 0.0, 0.0)",-0.03565633120497695,-1.4574972135997213,-3.000074304007432,"(0.0, 0.0, 0.0, 0.0, 0.0, 0.0)",0.4874455243270462,-0.0018720346450414762,0.04977075128856451,"(0.0, 0.0, 0.0, 0.0, 0.0, 0.0)",0.03564937171228022,False,,,,,False,,,,
26,Open,,,,,,"[-0.026750000193715096, 0.05299999937415123, 0.03999999910593033]","[0.0, -0.0, 1.4574954921785264]","[-0.09828835725784302, 0.061140209436416626, 0.03999999910593033]","[0.0, -0.0, 1.4593474823067423]","[0.026750000193715096, 0.05299999937415123, 0.03999999910593033]","[0.0, 0.0, -1.4574971848934346]","[0.09828837215900421, 0.061140093952417374, 0.03999999910593033]","[0.0, 0.0, -1.4593694397653831]",1.4687460402285188,2.700105593906164,"(0.0, 0.0, 0.0, 0.0, 0.0, 0.0)",-0.4387645947805427,0.0016672451487475934,-0.044324615201614966,"(0.0, 0.0, 0.0, 0.0, 0.0, 0.0)",-0.032108199676446195,-1.4687474922397492,-2.70006687360669,"(0.0, 0.0, 0.0, 0.0, 0.0, 0.0)",0.4387524971567325,-0.0016853382893528596,0.04480712536526797,"(0.0, 0.0, 0.0, 0.0, 0.0, 0.0)",0.03210192923147444,False,,,,,False,,,,
27,Open,,,,,,"[-0.026750000193715096, 0.05299999937415123, 0.03999999910593033]","[0.0, -0.0, 1.4687462228928074]","[-0.09837540984153748, 0.06033487245440483, 0.03999999910593033]","[0.0, -0.0, 1.4704133245237396]","[0.026750000193715096, 0.05299999937415123, 0.03999999910593033]","[0.0, 0.0, -1.4687474899518769]","[0.09837542474269867, 0.060334768146276474, 0.03999999910593033]","[0.0, 0.0, -1.4704329951986796]",1.478871436205667,2.430095034515549,"(0.0, 0.0, 0.0, 0.0, 0.0, 0.0)",-0.394929862139441,0.0015009773446580906,-0.03990427298148066,"(0.0, 0.0, 0.0, 0.0, 0.0, 0.0)",-0.028911540991871522,-1.4788727430157742,-2.430060186246021,"(0.0, 0.0, 0.0, 0.0, 0.0, 0.0)",0.39491896790015035,-0.001517261081966714,0.04033852977267494,"(0.0, 0.0, 0.0, 0.0, 0.0, 0.0)",0.02890589200411927,False,,,,,False,,,,
28,Open,,,,,,"[-0.026750000193715096, 0.05299999937415123, 0.03999999910593033]","[0.0, -0.0, 1.4788714352834713]","[-0.09844600409269333, 0.05960927531123161, 0.03999999910593033]","[0.0, -0.0, 1.480372508787761]","[0.026750000193715096, 0.05299999937415123, 0.03999999910593033]","[0.0, 0.0, -1.4788727099725336]","[0.09844601899385452, 0.05960918217897415, 0.03999999910593033]","[0.0, 0.0, -1.4803900544382056]",1.4879842925851003,2.1870855310639947,"(0.0, 0.0, 0.0, 0.0, 0.0, 0.0)",-0.3554706611703565,0.001351290830885638,-0.035924763305388616,"(0.0, 0.0, 0.0, 0.0, 0.0, 0.0)",-0.026031844038894282,-1.487985468714197,-2.1870541676214206,"(0.0, 0.0, 0.0, 0.0, 0.0, 0.0)",0.3554608511915877,-0.001365946114079445,0.03631559229294455,"(0.0, 0.0, 0.0, 0.0, 0.0, 0.0)",0.026026755426892093,False,,,,,False,,,,
29,Close,,,"(3.819349109750643e-09, 0.16999994350316286, 7.914305593764796e-05)","(1.5700606283751846, 1.2357610516186277e-06, -4.058049624060407e-09)",,"[-0.026750000193715096, 0.05299999937415123, 0.03999999910593033]","[0.0, -0.0, 1.4879842849605203]","[-0.09850326180458069, 0.05895565450191498, 0.03999999910593033]","[0.0, -0.0, 1.4893357278409396]","[0.026750000193715096, 0.05299999937415123, 0.03999999910593033]","[0.0, 0.0, -1.4879853833286059]","[0.09850326925516129, 0.05895556882023811, 0.03999999910593033]","[0.0, 0.0, -1.4893513332680077]",1.4961858633265903,1.9683769779575933,"(0.0, 0.0, 0.0, 0.0, 0.0, 0.0)",-0.31995094896823073,0.0012165319928285922,-0.03234212113369103,"(0.0, 0.0, 0.0, 0.0, 0.0, 0.0)",-0.02343792779000599,-1.4961869218427772,-1.9683487508592754,"(0.0, 0.0, 0.0, 0.0, 0.0, 0.0)",0.31994211580738524,-0.0012297216752996233,0.03269386530715718,"(0.0, 0.0, 0.0, 0.0, 0.0, 0.0)",0.02343334437795369,False,,,,,False,,,,
30,Close,,,"(1.09441459674075e-09, 0.16999988769159868, 0.0001519632082907279)","(1.5701173533571526, -2.5467641220651055e-06, -4.573996600559749e-08)",,"[-0.026750000193715096, 0.05299999937415123, 0.03999999910593033]","[0.0, -0.0, 1.4961860174198076]","[-0.09854969382286072, 0.05836696922779083, 0.03999999910593033]","[0.0, -0.0, 1.4974025341106605]","[0.026750000193715096, 0.05299999937415123, 0.03999999910593033]","[0.0, 0.0, -1.4961870219527165]","[0.09854969382286072, 0.05836689472198486, 0.03999999910593033]","[0.0, 0.0, -1.4974167044724178]",1.4065672769939312,-21.50846071983817,"(0.0, 0.0, 0.0, 0.0, 0.0, 0.0)",-36.83524610171859,-0.08890468746940376,-21.629092670935766,"(0.0, 0.0, 0.0, 0.0, 0.0, 0.0)",-4.936581214831643,-1.4065682296584996,21.508486124226657,"(0.0, 0.0, 0.0, 0.0, 0.0, 0.0)",36.83523814678565,0.0888928167555427,21.629409223402156,"(0.0, 0.0, 0.0, 0.0, 0.0, 0.0)",4.936577085092772,False,,,,,False,,,,
31,Close,,,"(3.541182821644653e-08, 0.1699998011443987, 0.00021906657187154062)","(1.570205104748116, 3.3042409171564205e-05, -8.114212850492596e-08)",,"[-0.026750000193715096, 0.05299999937415123, 0.03999999910593033]","[0.0, -0.0, 1.4065674382065954]","[-0.0977812185883522, 0.06477140635251999, 0.03999999910593033]","[0.0, -0.0, 1.3176625934179576]","[0.026750000193715096, 0.05299999937415123, 0.03999999910593033]","[0.0, 0.0, -1.4065680331882469]","[0.0977812260389328, 0.06477133929729462, 0.03999999910593033]","[0.0, 0.0, -1.3176753491400532]",1.3259105492945382,-19.357614647854348,"(0.0, 0.0, 0.0, 0.0, 0.0, 0.0)",3.3395407019063446,-0.17001473426920377,-19.466411231952,"(0.0, 0.0, 0.0, 0.0, 0.0, 0.0)",0.4376834422569755,-1.3259114066926496,19.35763751180399,"(0.0, 0.0, 0.0, 0.0, 0.0, 0.0)",-3.3395473112045253,0.1700040506304986,19.466696129989415,"(0.0, 0.0, 0.0, 0.0, 0.0, 0.0)",-0.43768664266468643,False,,,,,False,,,,
32,Close,,,"(3.361538948490201e-08, 0.16999974452330968, 0.00028077538773600935)","(1.5702911774727688, 7.027968338074274e-05, -7.017997684986258e-06)",,"[-0.026750000193715096, 0.05299999937415123, 0.03999999910593033]","[0.0, -0.0, 1.325910602539969]","[-0.09660188108682632, 0.07045608013868332, 0.03999999910593033]","[0.0, -0.0, 1.1558959321658662]","[0.026750000193715096, 0.05299999937415123, 0.03999999910593033]","[0.0, 0.0, -1.3259115331240872]","[0.09660189598798752, 0.07045602053403854, 0.03999999910593033]","[0.0, 0.0, -1.1559073716167563]",1.2533194943650845,-17.42185318306892,"(0.0, 0.0, 0.0, 0.0, 0.0, 0.0)",3.0100864599566086,-0.2430137284658432,-17.519758607193467,"(0.0, 0.0, 0.0, 0.0, 0.0, 0.0)",0.39699812510351973,-1.2533202660233846,17.42187376062359,"(0.0, 0.0, 0.0, 0.0, 0.0, 0.0)",-3.0100924602349655,0.24300411319445853,17.52001501535039,"(0.0, 0.0, 0.0, 0.0, 0.0, 0.0)",-0.39700105403357716,False,,,,,False,,,,
33,Close,,,"(1.2478111664315067e-07, 0.16999960627903704, 0.000337513976604643)","(1.5703757790333803, 0.0001088681261817636, -5.122611399447184e-06)",,"[-0.026750000193715096, 0.05299999937415123, 0.03999999910593033]","[0.0, -0.0, 1.2533194489161892]","[-0.0951518788933754, 0.07547627389431, 0.03999999910593033]","[0.0, -0.0, 1.0103057011386807]","[0.026750000193715096, 0.05299999937415123, 0.03999999910593033]","[0.0, 0.0, -1.2533201846969224]","[0.09515189379453659, 0.07547622174024582, 0.03999999910593033]","[0.0, 0.0, -1.010316110149499]",1.1879875449285762,-15.679667864762028,"(0.0, 0.0, 0.0, 0.0, 0.0, 0.0)",2.712712783767229,-0.30871235561933186,-15.767670516837281,"(0.0, 0.0, 0.0, 0.0, 0.0, 0.0)",0.3597856734528228,-1.1879882394210461,15.679686384561233,"(0.0, 0.0, 0.0, 0.0, 0.0, 0.0)",-2.712718226071338,0.30870370187508567,15.767901283350515,"(0.0, 0.0, 0.0, 0.0, 0.0, 0.0)",-0.35978834883250516,False,,,,,False,,,,
34,Close,,,"(1.2869376016944667e-07, 0.16999954011037416, 0.00038973303114976833)","(1.5704582297133343, 0.0001496263682483943, -9.931543136061158e-06)",,"[-0.026750000193715096, 0.05299999937415123, 0.03999999910593033]","[0.0, -0.0, 1.1879876003522736]","[-0.09353857487440109, 0.07989397644996643, 0.03999999910593033]","[0.0, -0.0, 0.8792752425767008]","[0.026750000193715096, 0.05299999937415123, 0.03999999910593033]","[0.0, 0.0, -1.1879882623869136]","[0.09353859722614288, 0.07989392429590225, 0.03999999910593033]","[0.0, 0.0, -0.8792844680170303]",1.1291887904356523,-14.1117010783017,"(0.0, 0.0, 0.0, 0.0, 0.0, 0.0)",2.44436472036771,-0.36784112005739866,-14.190903465136039,"(0.0, 0.0, 0.0, 0.0, 0.0, 0.0)",0.3258007578595482,-1.1291894154788755,14.111717746120975,"(0.0, 0.0, 0.0, 0.0, 0.0, 0.0)",-2.444369652349295,0.3678333316875771,14.191111154997946,"(0.0, 0.0, 0.0, 0.0, 0.0, 0.0)",-0.32580319741325486,False,,,,,False,,,,
35,Close,,,"(2.2147778895778094e-07, 0.169999403724105, 0.00043775502472391954)","(1.5705392813318275, 0.0001916771605813282, -8.19762937926826e-06)",,"[-0.026750000193715096, 0.05299999937415123, 0.03999999910593033]","[0.0, -0.0, 1.1291888000608494]","[-0.09184273332357407, 0.08377231657505035, 0.03999999910593033]","[0.0, -0.0, 0.7613476921786614]","[0.026750000193715096, 0.05299999937415123, 0.03999999910593033]","[0.0, 0.0, -1.1291894580384154]","[0.09184275567531586, 0.08377227932214737, 0.03999999910593033]","[0.0, 0.0, -0.7613561373098183]",1.0762699113920273,-12.700530970470014,"(0.0, 0.0, 0.0, 0.0, 0.0, 0.0)",2.202305891359772,-0.4210570080516588,-12.77181311862243,"(0.0, 0.0, 0.0, 0.0, 0.0, 0.0)",0.2948453788489373,-1.0762704739309281,12.700545971507374,"(0.0, 0.0, 0.0, 0.0, 0.0, 0.0)",-2.2023103576802145,0.4210499985188194,12.77200003949815,"(0.0, 0.0, 0.0, 0.0, 0.0, 0.0)",-0.2948476002056522,False,,,,,False,,,,
36,Close,,,"(2.1912693722736075e-07, 0.16999934361709654, 0.000481956449276018)","(1.5706184388641253, 0.00023565575873296478, -1.2845786801691941e-05)",,"[-0.026750000193715096, 0.05299999937415123, 0.03999999910593033]","[0.0, -0.0, 1.0762698553554748]","[-0.09012393653392792, 0.08717226982116699, 0.03999999910593033]","[0.0, -0.0, 0.6552128934948661]","[0.026750000193715096, 0.05299999937415123, 0.03999999910593033]","[0.0, 0.0, -1.0762704893583]","[0.09012395888566971, 0.08717223256826401, 0.03999999910593033]","[0.0, 0.0, -0.6552204147476549]",1.0286429202528247,-11.430477873408655,"(0.0, 0.0, 0.0, 0.0, 0.0, 0.0)",1.9840011930578276,-0.46895130724721834,-11.494631806934295,"(0.0, 0.0, 0.0, 0.0, 0.0, 0.0)",0.26667684533441977,-1.0286434265378352,11.430491374342276,"(0.0, 0.0, 0.0, 0.0, 0.0, 0.0)",-1.984005235051249,0.4689449986676629,11.494800035722442,"(0.0, 0.0, 0.0, 0.0, 0.0, 0.0)",-0.26667886541975433,False,,,,,False,,,,
37,Close,,,"(3.1131510586280866e-07, 0.1699992121070205, 0.0005226007520893923)","(1.5706964879884222, 0.0002806415891397876, -1.1307759452448239e-05)",,"[-0.026750000193715096, 0.05299999937415123, 0.03999999910593033]","[0.0, -0.0, 1.0286429345076582]","[-0.0884251669049263, 0.09015069156885147, 0.03999999910593033]","[0.0, -0.0, 0.5596916647508587]","[0.026750000193715096, 0.05299999937415123, 0.03999999910593033]","[0.0, 0.0, -1.0286435120859125]","[0.08842518925666809, 0.09015065431594849, 0.03999999910593033]","[0.0, 0.0, -0.5596984028120249]",0.9857786282275423,-10.287430086067793,"(0.0, 0.0, 0.0, 0.0, 0.0, 0.0)",1.787161045327472,-0.5120561765231523,-10.345168626224153,"(0.0, 0.0, 0.0, 0.0, 0.0, 0.0)",0.24107512437447856,-0.9857790838840517,10.28744223690805,"(0.0, 0.0, 0.0, 0.0, 0.0, 0.0)",-1.787164701188607,0.5120504988015524,10.345320032133483,"(0.0, 0.0, 0.0, 0.0, 0.0, 0.0)",-0.24107695935135354,False,,,,,False,,,,
38,Close,,,"(3.0991842655903425e-07, 0.169999153087261, 0.0005600347082356065)","(1.570772558536085, 0.00032764712563817383, -1.5390013302753274e-05)",,"[-0.026750000193715096, 0.05299999937415123, 0.03999999910593033]","[0.0, -0.0, 0.9857786218799983]","[-0.08677656948566437, 0.09275941550731659, 0.03999999910593033]","[0.0, -0.0, 0.4737224893055005]","[0.026750000193715096, 0.05299999937415123, 0.03999999910593033]","[0.0, 0.0, -0.9857791586690391]","[0.08677658438682556, 0.0927593931555748, 0.03999999910593033]","[0.0, 0.0, -0.47372859204714834]",0.9472007654041954,-9.258687077603232,"(0.0, 0.0, 0.0, 0.0, 0.0, 0.0)",1.6097085175776904,-0.550850558870837,-9.310651763444346,"(0.0, 0.0, 0.0, 0.0, 0.0, 0.0)",0.21783104241587867,-0.9472011754950539,9.258698013359455,"(0.0, 0.0, 0.0, 0.0, 0.0, 0.0)",-1.609711822487034,0.5508454489213972,9.310788028762744,"(0.0, 0.0, 0.0, 0.0, 0.0, 0.0)",-0.21783270758412676,False,,,,,False,,,,
39,Close,,,"(4.0106165104263135e-07, 0.169999026405202, 0.0005944331352702725)","(1.570848092729261, 0.0003750986118602944, -1.4060502423520339e-05)",,"[-0.026750000193715096, 0.05299999937415123, 0.03999999910593033]","[0.0, -0.0, 0.9472008140782049]","[-0.08519845455884933, 0.09504495561122894, 0.03999999910593033]","[0.0, -0.0, 0.39635019782230363]","[0.026750000193715096, 0.05299999937415123, 0.03999999910593033]","[0.0, 0.0, -0.9472011867132297]","[0.08519846946001053, 0.09504493325948715, 0.03999999910593033]","[0.0, 0.0, -0.3963557154153113]",0.9124806888632406,-8.332818369829143,"(0.0, 0.0, 0.0, 0.0, 0.0, 0.0)",1.4497611633824499,-0.5857655029837533,-8.379586587099913,"(0.0, 0.0, 0.0, 0.0, 0.0, 0.0)",0.19674731686213875,-0.9124810579450133,8.332828212009746,"(0.0, 0.0, 0.0, 0.0, 0.0, 0.0)",-1.4497641496546352,0.5857609040292575,8.379709225886469,"(0.0, 0.0, 0.0, 0.0, 0.0, 0.0)",-0.1967488266016999,False,,,,,False,,,,
40,Close,,,"(3.70657372146465e-07, 0.16999903038777142, 0.0006260749884053443)","(1.5708440552876382, 0.00034508120830118214, -1.4055585689260766e-05)",,"[-0.026750000193715096, 0.05299999937415123, 0.03999999910593033]","[0.0, -0.0, 0.9124807402838544]","[-0.08370371162891388, 0.09704854339361191, 0.03999999910593033]","[0.0, -0.0, 0.32671521193417863]","[0.026750000193715096, 0.05299999937415123, 0.03999999910593033]","[0.0, 0.0, -0.9124811663733811]","[0.08370373398065567, 0.09704852104187012, 0.03999999910593033]","[0.0, 0.0, -0.32672018954414506]",0.8812326199769166,-7.499536532717775,"(0.0, 0.0, 0.0, 0.0, 0.0, 0.0)",1.3056085801322186,-0.6171891619197363,-7.541678144635914,"(0.0, 0.0, 0.0, 0.0, 0.0, 0.0)",0.17763358199117588,-0.881232952150512,7.499545390680321,"(0.0, 0.0, 0.0, 0.0, 0.0, 0.0)",-1.305611277336412,0.617185022862301,7.541788519930457,"(0.0, 0.0, 0.0, 0.0, 0.0, 0.0)",-0.17763494969582577,False,,,,,False,,,,
41,Close,,,"(3.427044292909036e-07, 0.1699990340506735, 0.0006551854712062516)","(1.5708403346470328, 0.0003174583455114455, -1.4051356821419932e-05)",,"[-0.026750000193715096, 0.05299999937415123, 0.03999999910593033]","[0.0, -0.0, 0.8812326035131218]","[-0.08229970186948776, 0.09880644828081131, 0.03999999910593033]","[0.0, -0.0, 0.26404346611112495]","[0.026750000193715096, 0.05299999937415123, 0.03999999910593033]","[0.0, 0.0, -0.8812328730718287]","[0.08229971677064896, 0.09880642592906952, 0.03999999910593033]","[0.0, 0.0, -0.2640479150919315]",0.8531093579792249,-6.749582879446001,"(0.0, 0.0, 0.0, 0.0, 0.0, 0.0)",1.1757252455852583,-0.6454704345862542,-6.78750543996429,"(0.0, 0.0, 0.0, 0.0, 0.0, 0.0)",0.16033509317806058,-0.8531096569354608,6.7495908516122896,"(0.0, 0.0, 0.0, 0.0, 0.0, 0.0)",-1.1757276808922346,0.645466709436021,6.787604777692787,"(0.0, 0.0, 0.0, 0.0, 0.0, 0.0)",-0.16033633143309114,False,,,,,False,,,,
42,Close,,,"(3.170084497545684e-07, 0.16999903740907119, 0.0006819671107693073)","(1.570836911771951, 0.00029204530032808255, -1.4047683015968837e-05)",,"[-0.026750000193715096, 0.05299999937415123, 0.03999999910593033]","[0.0, -0.0, 0.8531093567174074]","[-0.08098968118429184, 0.10035036504268646, 0.03999999910593033]","[0.0, -0.0, 0.2076389231904772]","[0.026750000193715096, 0.05299999937415123, 0.03999999910593033]","[0.0, 0.0, -0.8531096230941355]","[0.08098969608545303, 0.10035035014152527, 0.03999999910593033]","[0.0, 0.0, -0.2076429742570099]",0.8277984221813024,-6.0746245915014,"(0.0, 0.0, 0.0, 0.0, 0.0, 0.0)",1.0586966037970245,-0.6709235615380169,-6.1087504684230565,"(0.0, 0.0, 0.0, 0.0, 0.0, 0.0)",0.14467321668423558,-0.8277986912419147,6.074631766451059,"(0.0, 0.0, 0.0, 0.0, 0.0, 0.0)",-1.0586988018726124,0.6709202089041267,6.108839872345364,"(0.0, 0.0, 0.0, 0.0, 0.0, 0.0)",-0.14467433700617466,False,,,,,False,,,,
43,Close,,,"(2.93385406087929e-07, 0.16999904048782613, 0.0007066062149797113)","(1.5708337628331848, 0.0002686652895538331, -1.4044478861914954e-05)",,"[-0.026750000193715096, 0.05299999937415123, 0.03999999910593033]","[0.0, -0.0, 0.8277984323872327]","[-0.07977395504713058, 0.10170790553092957, 0.03999999910593033]","[0.0, -0.0, 0.15687485461046338]","[0.026750000193715096, 0.05299999937415123, 0.03999999910593033]","[0.0, 0.0, -0.8277987052452376]","[0.07977396249771118, 0.10170789808034897, 0.03999999910593033]","[0.0, 0.0, -0.15687847762667875]",0.8050185799631722,-5.467162132351259,"(0.0, 0.0, 0.0, 0.0, 0.0, 0.0)",0.9532674830029981,-0.6938313591081322,-5.497871416827678,"(0.0, 0.0, 0.0, 0.0, 0.0, 0.0)",0.1305069121449798,-0.8050188221177232,5.467168589805953,"(0.0, 0.0, 0.0, 0.0, 0.0, 0.0)",-0.9532694663734236,0.6938283417388244,5.49795188032743,"(0.0, 0.0, 0.0, 0.0, 0.0, 0.0)",-0.13050792520753388,False,,,,,False,,,,
44,Close,,,"(2.716665250887489e-07, 0.16999904330973556, 0.0007292741870466809)","(1.5708308659078907, 0.0002471556717650467, -1.4041672069322908e-05)",,"[-0.026750000193715096, 0.05299999937415123, 0.03999999910593033]","[0.0, -0.0, 0.8050185839979388]","[-0.07865073531866074, 0.10290304571390152, 0.03999999910593033]","[0.0, -0.0, 0.11118723016400785]","[0.026750000193715096, 0.05299999937415123, 0.03999999910593033]","[0.0, 0.0, -0.8050187952188965]","[0.07865074276924133, 0.10290303081274033, 0.03999999910593033]","[0.0, 0.0, -0.11119048022217565]",0.784516721966855,-4.920445919116134,"(0.0, 0.0, 0.0, 0.0, 0.0, 0.0)",0.8582975670224743,-0.7144483618360385,-4.948080654697517,"(0.0, 0.0, 0.0, 0.0, 0.0, 0.0)",0.11770004006048959,-0.784516939905951,4.92045173082536,"(0.0, 0.0, 0.0, 0.0, 0.0, 0.0)",-0.8582993561887614,0.7144456462047399,4.948153071819748,"(0.0, 0.0, 0.0, 0.0, 0.0, 0.0)",-0.11770095568272418,False,,,,,False,,,,
45,Close,,,"(2.51696986958339e-07, 0.1699990458957082, 0.0007501287178850499)","(1.5708282008276007, 0.000227366816649173, -1.4039201474218165e-05)",,"[-0.026750000193715096, 0.05299999937415123, 0.03999999910593033]","[0.0, -0.0, 0.7845167193080385]","[-0.07761679589748383, 0.10395654290914536, 0.03999999910593033]","[0.0, -0.0, 0.07006835685702544]","[0.026750000193715096, 0.05299999937415123, 0.03999999910593033]","[0.0, 0.0, -0.7845169946958266]","[0.07761680334806442, 0.10395653545856476, 0.03999999910593033]","[0.0, 0.0, -0.0700712989357174]",0.7660650497701694,-4.42840132720452,"(0.0, 0.0, 0.0, 0.0, 0.0, 0.0)",0.7727568402429666,-0.7330036506599046,-4.453269317727849,"(0.0, 0.0, 0.0, 0.0, 0.0, 0.0)",0.106127525293464,-0.7660652459153559,4.428406557742824,"(0.0, 0.0, 0.0, 0.0, 0.0, 0.0)",-0.7727584538402424,0.7330012065927102,4.453334493112861,"(0.0, 0.0, 0.0, 0.0, 0.0, 0.0)",-0.10612835248484857,False,,,,,False,,,,
46,Close,,,"(2.3333473952068603e-07, 0.16999904826492518, 0.0007693148831029557)","(1.5708257490378412, 0.00020916106414766092, -1.403701531280991e-05)",,"[-0.026750000193715096, 0.05299999937415123, 0.03999999910593033]","[0.0, -0.0, 0.7660649977175382]","[-0.07666795700788498, 0.10488639771938324, 0.03999999910593033]","[0.0, -0.0, 0.03306140223906952]","[0.026750000193715096, 0.05299999937415123, 0.03999999910593033]","[0.0, 0.0, -0.7660653079646047]","[0.07666796445846558, 0.10488638281822205, 0.03999999910593033]","[0.0, 0.0, -0.033064041138401834]",0.7494585447931524,-3.985561194484066,"(0.0, 0.0, 0.0, 0.0, 0.0, 0.0)",0.6957152666369016,-0.7497033982890566,-4.007939430996486,"(0.0, 0.0, 0.0, 0.0, 0.0, 0.0)",0.09567473522853766,-0.7494587213238203,3.985565901968542,"(0.0, 0.0, 0.0, 0.0, 0.0, 0.0)",-0.6957167215859875,0.7497011986294615,4.007998088820328,"(0.0, 0.0, 0.0, 0.0, 0.0, 0.0)",-0.09567548223716564,False,,,,,False,,,,
47,Close,,,"(2.1644941757498085e-07, 0.1699990504349868, 0.0007869661522299996)","(1.5708234934689855, 0.0001924117668631307, -1.4035069780186692e-05)",,"[-0.026750000193715096, 0.05299999937415123, 0.03999999910593033]","[0.0, -0.0, 0.7494586090384826]","[-0.07579945772886276, 0.10570816695690155, 0.03999999910593033]","[0.0, 0.0, -0.000244853492999894]","[0.026750000193715096, 0.05299999937415123, 0.03999999910593033]","[0.0, 0.0, -0.7494587081400255]","[0.07579946517944336, 0.10570815205574036, 0.03999999910593033]","[0.0, -0.0, 0.00024247731079752444]",0.7345126903138371,-3.587005075035659,"(0.0, 0.0, 0.0, 0.0, 0.0, 0.0)",0.626333365984163,-0.764733160038395,-3.6071428198412123,"(0.0, 0.0, 0.0, 0.0, 0.0, 0.0)",0.08623682787405348,-0.7345128491914382,3.587009311771688,"(0.0, 0.0, 0.0, 0.0, 0.0, 0.0)",-0.6263346776346612,0.7647311803455538,3.607195611862134,"(0.0, 0.0, 0.0, 0.0, 0.0, 0.0)",-0.08623750223625977,False,,,,,False,,,,
48,Close,,,"(1.9902478529523268e-07, 0.16999905216510106, 0.0008031506134026157)","(1.5708213694672628, 0.00017518801369688713, -1.4031269556480368e-05)",,"[-0.026750000193715096, 0.05299999937415123, 0.03999999910593033]","[0.0, -0.0, 0.7345126628086843]","[-0.07500623911619186, 0.10643533617258072, 0.03999999910593033]","[0.0, 0.0, -0.03022046980229406]","[0.026750000193715096, 0.05299999937415123, 0.03999999910593033]","[0.0, 0.0, -0.7345128981556924]","[0.07500624656677246, 0.10643532872200012, 0.03999999910593033]","[0.0, -0.0, 0.03021832986745902]",0.7210614212824534,-3.228304567532092,"(0.0, 0.0, 0.0, 0.0, 0.0, 0.0)",0.5638237707840803,-0.7782610712626786,-3.246698693828069,"(0.0, 0.0, 0.0, 0.0, 0.0, 0.0)",0.07768823801248652,-0.7210615642722944,3.2283083805945183,"(0.0, 0.0, 0.0, 0.0, 0.0, 0.0)",-0.5638249528147553,0.7782592895487316,3.2467462087626835,"(0.0, 0.0, 0.0, 0.0, 0.0, 0.0)",-0.07768884636877696,False,,,,,False,,,,
49,Close,,,"(1.829952775457341e-07, 0.16999905372445717, 0.0008180403399689366)","(1.5708194143492393, 0.00015934185659229473, -1.4027683329641553e-05)",,"[-0.026750000193715096, 0.05299999937415123, 0.03999999910593033]","[0.0, -0.0, 0.7210614193238458]","[-0.07428312301635742, 0.10707958787679672, 0.03999999910593033]","[0.0, 0.0, -0.05719964992344959]","[0.026750000193715096, 0.05299999937415123, 0.03999999910593033]","[0.0, 0.0, -0.7210615729227128]","[0.07428313046693802, 0.10707958042621613, 0.03999999910593033]","[0.0, -0.0, 0.05719773186848648]",0.7089552791542081,-2.905474110778883,"(0.0, 0.0, 0.0, 0.0, 0.0, 0.0)",0.5075985242705942,-0.7904360705014085,-2.921999817295172,"(0.0, 0.0, 0.0, 0.0, 0.0, 0.0)",0.07003713951344083,-0.7089554078450649,2.905477542535066,"(0.0, 0.0, 0.0, 0.0, 0.0, 0.0)",-0.5075995897946305,0.7904344669675306,2.9220425805117625,"(0.0, 0.0, 0.0, 0.0, 0.0, 0.0)",-0.07003768863744474,False,,,,,False,,,,
50,Close,,,"(1.682467379846132e-07, 0.1699990551245469, 0.0008317388481303276)","(1.570817615731277, 0.00014476218910829968, -1.4024269510216624e-05)",,"[-0.026750000193715096, 0.05299999937415123, 0.03999999910593033]","[0.0, -0.0, 0.7089552779168017]","[-0.07362496107816696, 0.10765105485916138, 0.03999999910593033]","[0.0, 0.0, -0.08148078223376223]","[0.026750000193715096, 0.05299999937415123, 0.03999999910593033]","[0.0, 0.0, -0.7089554724698194]","[0.07362496852874756, 0.10765104740858078, 0.03999999910593033]","[0.0, -0.0, 0.0814790502780401]",0.6980597512387873,-2.6149266997009946,"(0.0, 0.0, 0.0, 0.0, 0.0, 0.0)",0.45693917814201784,-0.8013934602632394,-2.6297735428394082,"(0.0, 0.0, 0.0, 0.0, 0.0, 0.0)",0.06310201359777694,-0.6980598670605584,2.614929788281559,"(0.0, 0.0, 0.0, 0.0, 0.0, 0.0)",-0.45694013827892466,0.8013920170905735,2.6298120295302843,"(0.0, 0.0, 0.0, 0.0, 0.0, 0.0)",-0.06310250889925509,False,,,,,False,,,,
51,Close,,,"(1.546756367802499e-07, 0.16999905637827734, 0.0008443414385910609)","(1.5708159610857961, 0.00013134778772512943, -1.402100024143693e-05)",,"[-0.026750000193715096, 0.05299999937415123, 0.03999999910593033]","[0.0, -0.0, 0.6980597686270504]","[-0.07302673906087875, 0.10815852880477905, 0.03999999910593033]","[0.0, 0.0, -0.10333370902653251]","[0.026750000193715096, 0.05299999937415123, 0.03999999910593033]","[0.0, 0.0, -0.6980598246378259]","[0.07302674651145935, 0.10815852135419846, 0.03999999910593033]","[0.0, -0.0, 0.10333215264877679]",0.6882537761149086,-2.3534340297308955,"(0.0, 0.0, 0.0, 0.0, 0.0, 0.0)",0.41132662822933225,-0.8112550122446371,-2.3667724755354502,"(0.0, 0.0, 0.0, 0.0, 0.0, 0.0)",0.056847326346645,-0.6882538803545026,2.353436809453404,"(0.0, 0.0, 0.0, 0.0, 0.0, 0.0)",-0.4113274932960819,0.8112537133962935,2.3668071133728046,"(0.0, 0.0, 0.0, 0.0, 0.0, 0.0)",-0.0568477730004364,False,,,,,False,,,,
52,Close,,,"(1.4218689550358636e-07, 0.1699990574974972, 0.0008559357877458743)","(1.5708144388885392, 0.00011900551991941484, -1.4017852050493115e-05)",,"[-0.026750000193715096, 0.05299999937415123, 0.03999999910593033]","[0.0, -0.0, 0.6882538042795985]","[-0.07248363643884659, 0.10860966145992279, 0.03999999910593033]","[0.0, 0.0, -0.12300123728040792]","[0.026750000193715096, 0.05299999937415123, 0.03999999910593033]","[0.0, 0.0, -0.688253900607872]","[0.07248364388942719, 0.1086096540093422, 0.03999999910593033]","[0.0, -0.0, 0.12299984676553348]",0.6794283985034177,-2.118090626757806,"(0.0, 0.0, 0.0, 0.0, 0.0, 0.0)",0.3702598465395096,-0.8201303199370257,-2.1300738461732434,"(0.0, 0.0, 0.0, 0.0, 0.0, 0.0)",0.051207533272865695,-0.6794284923190523,2.1180931285080637,"(0.0, 0.0, 0.0, 0.0, 0.0, 0.0)",-0.37026062586363284,0.8201291509798778,2.130105020060234,"(0.0, 0.0, 0.0, 0.0, 0.0, 0.0)",-0.051207935975855504,False,,,,,False,,,,
53,Close,,,"(1.3069318416839e-07, 0.16999905849308636, 0.0008666025576372722)","(1.5708130385376784, 0.00010764969663878531, -1.401480516953977e-05)",,"[-0.026750000193715096, 0.05299999937415123, 0.03999999910593033]","[0.0, -0.0, 0.6794284238724229]","[-0.07199108600616455, 0.10901110619306564, 0.03999999910593033]","[0.0, 0.0, -0.14070193198542613]","[0.026750000193715096, 0.05299999937415123, 0.03999999910593033]","[0.0, 0.0, -0.6794284800706577]","[0.07199109345674515, 0.10901109874248505, 0.03999999910593033]","[0.0, -0.0, 0.1407006814892172]",0.6714855586530759,-1.9062815640820263,"(0.0, 0.0, 0.0, 0.0, 0.0, 0.0)",0.33328720146674756,-0.82811801654313,-1.9170471854650495,"(0.0, 0.0, 0.0, 0.0, 0.0, 0.0)",0.0461231568532664,-0.6714856430871471,1.9062838156572566,"(0.0, 0.0, 0.0, 0.0, 0.0, 0.0)",-0.33328790347714454,0.8281169644874314,1.917075241812861,"(0.0, 0.0, 0.0, 0.0, 0.0, 0.0)",-0.04612351986457081,False,,,,,False,,,,
54,Close,,,"(1.201142787701026e-07, 0.1699990593750365, 0.0008764159571233717)","(1.5708117502799854, 9.720147739875066e-05, -1.4011842957469135e-05)",,"[-0.026750000193715096, 0.05299999937415123, 0.03999999910593033]","[0.0, -0.0, 0.6714856028191667]","[-0.07154478132724762, 0.10936867445707321, 0.03999999910593033]","[0.0, 0.0, -0.1566324602805662]","[0.026750000193715096, 0.05299999937415123, 0.03999999910593033]","[0.0, 0.0, -0.6714856028191667]","[0.07154478132724762, 0.10936867445707321, 0.03999999910593033]","[0.0, -0.0, 0.15663130155257995]",0.6643370027877683,-1.7156534076738226,"(0.0, 0.0, 0.0, 0.0, 0.0, 0.0)",0.30000166468946887,-0.8353068710937589,-1.7253250921509458,"(0.0, 0.0, 0.0, 0.0, 0.0, 0.0)",0.041540284771796165,-0.6643370787784324,1.7156554340915304,"(0.0, 0.0, 0.0, 0.0, 0.0, 0.0)",-0.3000022969997827,0.8353059242487986,1.725350342728124,"(0.0, 0.0, 0.0, 0.0, 0.0, 0.0)",-0.041540611950472935,False,,,,,False,,,,
55,Close,,,"(1.1037647424359984e-07, 0.16999906015252483, 0.0008854442581506275)","(1.5708105651429114, 8.758832292823178e-05, -1.4008951415989527e-05)",,"[-0.026750000193715096, 0.05299999937415123, 0.03999999910593033]","[0.0, -0.0, 0.6643370606126838]","[-0.07114068418741226, 0.1096874549984932, 0.03999999910593033]","[0.0, 0.0, -0.17096987637179278]","[0.026750000193715096, 0.05299999937415123, 0.03999999910593033]","[0.0, 0.0, -0.6643370606126838]","[0.07114069163799286, 0.1096874475479126, 0.03999999910593033]","[0.0, -0.0, 0.17096884643662202]",0.6579033025089914,-1.5440880669064398,"(0.0, 0.0, 0.0, 0.0, 0.0, 0.0)",0.2700364572532802,-0.8417767749452665,-1.5527769243618206,"(0.0, 0.0, 0.0, 0.0, 0.0, 0.0)",0.03741008611729049,-0.6579033709005891,1.5440898906823783,"(0.0, 0.0, 0.0, 0.0, 0.0, 0.0)",-0.27003702673818186,0.8417759227894597,1.5527996497586782,"(0.0, 0.0, 0.0, 0.0, 0.0, 0.0)",-0.03741038095743008,False,,,,,False,,,,
56,Close,,,"(1.0141204673652616e-07, 0.16999906083398159, 0.0008937502707232629)","(1.570809474872104, 7.87434915574051e-05, -1.4006118772737545e-05)",,"[-0.026750000193715096, 0.05299999937415123, 0.03999999910593033]","[0.0, -0.0, 0.6579033304946226]","[-0.07077505439519882, 0.10997187346220016, 0.03999999910593033]","[0.0, 0.0, -0.18387348897538708]","[0.026750000193715096, 0.05299999937415123, 0.03999999910593033]","[0.0, 0.0, -0.6579033304946226]","[0.07077506184577942, 0.10997187346220016, 0.03999999910593033]","[0.0, -0.0, 0.1838725619548152]",0.6521129722580923,-1.3896792602157946,"(0.0, 0.0, 0.0, 0.0, 0.0, 0.0)",0.24306111081870946,-0.8475996296201711,-1.3974851219770965,"(0.0, 0.0, 0.0, 0.0, 0.0, 0.0)",0.033688362136148925,-0.6521130338105302,1.38968090161414,"(0.0, 0.0, 0.0, 0.0, 0.0, 0.0)",-0.24306162368353448,0.8475988626841415,1.3975055747236533,"(0.0, 0.0, 0.0, 0.0, 0.0, 0.0)",-0.03368862779939208,False,,,,,False,,,,
57,Close,,,"(9.31587620256511e-08, 0.16999906142715163, 0.0009013917798737923)","(1.570808471873919, 7.060557585400826e-05, -1.4003335136779464e-05)",,"[-0.026750000193715096, 0.05299999937415123, 0.03999999910593033]","[0.0, -0.0, 0.6521129301518677]","[-0.07044443488121033, 0.11022583395242691, 0.03999999910593033]","[0.0, 0.0, -0.19548665573955404]","[0.026750000193715096, 0.05299999937415123, 0.03999999910593033]","[0.0, 0.0, -0.6521129866161153]","[0.07044444233179092, 0.11022583395242691, 0.03999999910593033]","[0.0, -0.0, 0.19548582525750646]",0.646901675032283,-1.2507113341942153,"(0.0, 0.0, 0.0, 0.0, 0.0, 0.0)",0.2187779064062842,-0.8528401458571484,-1.2577238968745574,"(0.0, 0.0, 0.0, 0.0, 0.0, 0.0)",0.03033513071724496,-0.6469017304294772,1.2507128114527255,"(0.0, 0.0, 0.0, 0.0, 0.0, 0.0)",-0.2187783682505172,0.8528394556185027,1.2577423042466835,"(0.0, 0.0, 0.0, 0.0, 0.0, 0.0)",-0.03033537006280305,False,,,,,False,,,,
58,Close,,,"(8.555942447331213e-08, 0.16999906193915107, 0.000908421947674647)","(1.5708075491625393, 6.311807629477444e-05, -1.4000592203169427e-05)",,"[-0.026750000193715096, 0.05299999937415123, 0.03999999910593033]","[0.0, -0.0, 0.6469017074975589]","[-0.0701456218957901, 0.11045276373624802, 0.03999999910593033]","[0.0, 0.0, -0.20593848593871938]","[0.026750000193715096, 0.05299999937415123, 0.03999999910593033]","[0.0, 0.0, -0.6469017640113621]","[0.0701456293463707, 0.11045276373624802, 0.03999999910593033]","[0.0, -0.0, 0.2059377054983325]",0.6422115075290548,-1.1256402007747932,"(0.0, 0.0, 0.0, 0.0, 0.0, 0.0)",0.19691865600140895,-0.8575565627499749,-1.1319400542783593,"(0.0, 0.0, 0.0, 0.0, 0.0, 0.0)",0.027314243362735774,-0.6422115573865295,1.1256415303074527,"(0.0, 0.0, 0.0, 0.0, 0.0, 0.0)",-0.19691907187647334,0.8575559415385998,1.1319566208232932,"(0.0, 0.0, 0.0, 0.0, 0.0, 0.0)",-0.027314458975022625,False,,,,,False,,,,
59,Move,,,"(7.856146500561274e-08, 0.16999906237651882, 0.0009148896830877347)","(1.5708067003113224, 5.6229009009845055e-05, -1.399788300299107e-05)","[0.0, 0.0, 0.0]","[-0.026750000193715096, 0.05299999937415123, 0.03999999910593033]","[0.0, -0.0, 0.6422115222668433]","[-0.06987567991018295, 0.11065566539764404, 0.03999999910593033]","[0.0, 0.0, -0.21534502689171695]","[0.026750000193715096, 0.05299999937415123, 0.03999999910593033]","[0.0, 0.0, -0.6422115222668433]","[0.06987568736076355, 0.11065565794706345, 0.03999999910593033]","[0.0, -0.0, 0.2153443918565048]",0.6379903567761492,-1.0130761806973148,"(0.0, 0.0, 0.0, 0.0, 0.0, 0.0)",0.17724179525373857,-0.861801294967015,-1.0187357320896053,"(0.0, 0.0, 0.0, 0.0, 0.0, 0.0)",0.024593033118920006,-0.6379904016478766,1.0130773772767077,"(0.0, 0.0, 0.0, 0.0, 0.0, 0.0)",-0.1772421697155535,0.8618007358798453,1.0187506418989196,"(0.0, 0.0, 0.0, 0.0, 0.0, 0.0)",-0.024593227332916724,False,,,,,False,,,,
60,Move,,,"(7.401516452493873e-08, 0.16999906300717518, 0.0009208949427311885)","(1.5708059692049072, 5.171406878091127e-05, -1.3997173418156156e-05)","[-4.546300480674002e-09, 6.306563604674409e-10, 6.005259643453772e-06]","[-0.026750000193715096, 0.05299999937415123, 0.03999999910593033]","[0.0, -0.0, 0.6379903239810443]","[-0.06963192671537399, 0.1108371913433075, 0.03999999910593033]","[0.0, 0.0, -0.2238109552587812]","[0.026750000193715096, 0.05299999937415123, 0.03999999910593033]","[0.0, 0.0, -0.6379904179642307]","[0.06963192671537399, 0.1108371838927269, 0.03999999910593033]","[0.0, -0.0, 0.22381033482023305]",0.615110639462399,-5.491132155300077,"(0.0, 0.0, 0.0, 0.0, 0.0, 0.0)",-6.452665348763696,-0.8613763884842398,0.10197755586604229,"(0.0, 0.0, 0.0, 0.0, 0.0, 0.0)",-0.36782542138199165,-0.6151107211023208,5.491123330933392,"(0.0, 0.0, 0.0, 0.0, 0.0, 0.0)",6.4526488408560905,0.8613758231880564,-0.10197904602934349,"(0.0, 0.0, 0.0, 0.0, 0.0, 0.0)",0.36782252911949487,False,,,,,False,,,,
61,Move,,,"(6.525734425186348e-05, 0.17034549853437667, 0.001059997142676121)","(1.5643418998519334, 0.00019756355969089426, -0.0007979474479338168)","[6.517878278685787e-05, 0.00034643615785784343, 0.00014510745958838623]","[-0.026750000193715096, 0.05299999937415123, 0.03999999910593033]","[0.0, -0.0, 0.6151107619663475]","[-0.06829752027988434, 0.1118030920624733, 0.03999999910593033]","[0.0, 0.0, -0.24626574387408112]","[0.026750000193715096, 0.05299999937415123, 0.03999999910593033]","[0.0, 0.0, -0.6151107619663475]","[0.06829752773046494, 0.1118030920624733, 0.03999999910593033]","[0.0, -0.0, 0.24626510812228053]",0.59557520589455,-4.68850405628373,"(0.0, 0.0, 0.0, 0.0, 0.0, 0.0)",-45.004877301260535,-0.841587039207075,4.749443826519566,"(0.0, 0.0, 0.0, 0.0, 0.0, 0.0)",-23.059879711313982,-0.5955448471476087,4.6958097491309045,"(0.0, 0.0, 0.0, 0.0, 0.0, 0.0)",43.2331221848827,0.8422035798107438,-4.601338410555013,"(0.0, 0.0, 0.0, 0.0, 0.0, 0.0)",22.069611273367745,True,"(-0.03288698015965098, 0.18306432161630465, 0.039999948285931244)","(0.9999999985648672, -1.399717339714095e-05, -5.171406875791205e-05)",0.0009292587523792685,356.63318049990795,True,"(0.032887031061809374, 0.18306436848012048, 0.04000005171406876)","(-0.9999999985648671, 1.3997173395198976e-05, 5.171406875668148e-05)",0.0009247539911204204,342.7710504396539
62,Move,"(0.0, 0.0, 0.0)","(0.0, -0.0, 0.0)","(0.00016176697229314485, 0.17076934431250207, 0.001298992481510786)","(1.553459115144406, 0.0004787126916021603, -0.0016283617000435679)","[0.00016168841082813925, 0.0007702819359832469, 0.0003841027984230513]","[-0.026750000193715096, 0.05299999937415123, 0.03999999910593033]","[0.0, -0.0, 0.5955751094143519]","[-0.06714092195034027, 0.11260347068309784, 0.03999999910593033]","[0.0, 0.0, -0.24601185159459507]","[0.026750000193715096, 0.05299999937415123, 0.03999999910593033]","[0.0, 0.0, -0.5955448282145998]","[0.06713911145925522, 0.11260469257831573, 0.03999999910593033]","[0.0, -0.0, 0.24665872904210193]",0.5770970782178444,-4.434750642409365,"(0.0, 0.0, 0.0, 0.0, 0.0, 0.0)",-74.21698749878065,-0.811850997818181,7.136649933334551,"(0.0, 0.0, 0.0, 0.0, 0.0, 0.0)",-37.92588619525253,-0.5770027641966642,4.450099908226674,"(0.0, 0.0, 0.0, 0.0, 0.0, 0.0)",71.59541053355323,0.8135423707664626,-6.878690170627483,"(0.0, 0.0, 0.0, 0.0, 0.0, 0.0)",36.485404729774935,True,"(-0.03174847742362094, 0.1838726496858637, 0.03999980243644159)","(0.9999996621242782, -0.0007979473476813144, -0.0001975635584110712)",-0.00012778812911608492,569.3446982775357,True,"(0.031700570614753176, 0.18385320841010633, 0.0400001975635584)","(-0.9999996621242783, 0.0007979473476767542, 0.0001975635584049517)",-0.0003431682129125587,549.2893233704585
63,Move,"(0.0, 0.0, 0.0)","(0.0, -0.0, 0.0)","(0.00020568050408397375, 0.17108007690663649, 0.0015665957858292871)","(1.5453980212159237, 0.00011151380297923225, -0.0017071234802152205)","[0.00020560194261896815, 0.0010810145301176632, 0.0006517061027415524]","[-0.026750000193715096, 0.05299999937415123, 0.03999999910593033]","[0.0, -0.0, 0.5770971029289548]","[-0.06603273004293442, 0.11333960294723511, 0.03999999910593033]","[0.0, 0.0, -0.23475391897699402]","[0.026750000193715096, 0.05299999937415123, 0.03999999910593033]","[0.0, 0.0, -0.5770027543990871]","[0.06602703779935837, 0.11334330588579178, 0.03999999910593033]","[0.0, -0.0, 0.23653961426052006]",0.579404895675538,0.5538761898464655,"(0.0, 0.0, 0.0, 0.0, 0.0, 0.0)",6.4633983195225495,-0.8148246019570704,-0.7136649933334551,"(0.0, 0.0, 0.0, 0.0, 0.0, 0.0)",-0.3132438216507522,-0.5792909153140746,-0.5491562681785016,"(0.0, 0.0, 0.0, 0.0, 0.0, 0.0)",-6.16852739973914,0.8163981315451861,0.6853825868936365,"(0.0, 0.0, 0.0, 0.0, 0.0, 0.0)",0.4843271556067679,True,"(-0.03144479909141533, 0.18499061278782541, 0.039999521287326686)","(0.9999985596366134, -0.0016283607938474471, -0.0004787126733201028)",-0.00031179486038545077,0.0,True,"(0.0313112124765586, 0.1849374824167095, 0.040000478712673315)","(-0.9999985596366132, 0.0016283607938671909, 0.0004787126733090728)",-0.0008521962835819142,2.606367117194445
64,Move,"(0.0, 0.0, 0.0)","(0.0, -0.0, 0.0)","(0.0002286301636098697, 0.1713253442528434, 0.0017817810741192494)","(1.5389812495376074, -0.000511554387002508, -0.0015041162679156222)","[0.0002285516021448641, 0.001326281876324581, 0.0008668913910315147]","[-0.026750000193715096, 0.05299999937415123, 0.03999999910593033]","[0.0, -0.0, 0.579404963823502]","[-0.06617187708616257, 0.1132487803697586, 0.03999999910593033]","[0.0, 0.0, -0.23541970778940716]","[0.026750000193715096, 0.05299999937415123, 0.03999999910593033]","[0.0, 0.0, -0.5792908612503161]","[0.0661650076508522, 0.11325327306985855, 0.03999999910593033]","[0.0, -0.0, 0.23710723316040327]",0.5797513740576465,0.08315481170606276,"(0.0, 0.0, 0.0, 0.0, 0.0, 0.0)",-0.6050371588525649,-0.8145272415431815,0.0713664993333446,"(0.0, 0.0, 0.0, 0.0, 0.0, 0.0)",0.03442143396704877,-0.5795726203959736,-0.06760921965573785,"(0.0, 0.0, 0.0, 0.0, 0.0, 0.0)",0.7665056913582627,0.8161098046097013,-0.06919846451636869,"(0.0, 0.0, 0.0, 0.0, 0.0, 0.0)",0.05385507678343228,True,"(-0.03153624923514486, 0.18487733778001617, 0.039999888486197246)","(0.9999985366474105, -0.001707122640433851, -0.00011151380275540046)",-0.00019027644015300206,0.0,True,"(0.031408552968427136, 0.18482838253269274, 0.04000011151380275)","(-0.9999985366474103, 0.0017071226404405677, 0.0001115138027507468)",-0.000784928296535469,1.0848258206781705
65,Move,"(0.0, 0.0, 0.0)","(0.0, -0.0, 0.0)","(0.00022379716863681287, 0.17150000086347655, 0.0019406498368261169)","(1.5343522193496357, -0.0004765094393025708, 0.00014207308519451227)","[0.00022371860717180727, 0.0015009384869577314, 0.0010257601537383822]","[-0.026750000193715096, 0.05299999937415123, 0.03999999910593033]","[0.0, -0.0, 0.5797513227663355]","[-0.06619274616241455, 0.11323511600494385, 0.03999999910593033]","[0.0, 0.0, -0.23477587649959936]","[0.026750000193715096, 0.05299999937415123, 0.03999999910593033]","[0.0, 0.0, -0.5795726052946306]","[0.066181980073452, 0.11324217170476913, 0.03999999910593033]","[0.0, -0.0, 0.23653717420671178]",0.5800025533587417,0.060283032262853836,"(0.0, 0.0, 0.0, 0.0, 0.0, 0.0)",-0.08748504235356536,-0.8144857885427594,0.009948720101281991,"(0.0, 0.0, 0.0, 0.0, 0.0, 0.0)",-0.03698135826994708,-0.579752547686338,-0.04318254968747053,"(0.0, 0.0, 0.0, 0.0, 0.0, 0.0)",0.48238923479540985,0.8160161726880292,-0.022471661201294325,"(0.0, 0.0, 0.0, 0.0, 0.0, 0.0)",0.2704515667978493,True,"(-0.03160324687828937, 0.18488551941779136, 0.040000511554364696)","(0.999998737973545, -0.0015041155039720849, 0.0005115543646937556)",-0.0001273172082404877,0.3600099641952665,True,"(0.0314663294688103, 0.18483630435861093, 0.039999488445635306)","(-0.999998737973545, 0.0015041155039789739, -0.0005115543647008311)",-0.0007231109159374579,3.369659756540658
66,Move,"(0.0, 0.0, 0.0)","(0.0, -0.0, 0.0)","(0.00022550251992795294, 0.17161324039349843, 0.002048639848363159)","(1.5313204547710155, -0.00043510199965190717, 0.0014801799255481508)","[0.00022542395846294734, 0.001614178016979606, 0.0011337501652754242]","[-0.026750000193715096, 0.05299999937415123, 0.03999999910593033]","[0.0, -0.0, 0.5800025345126305]","[-0.0662078782916069, 0.11322520673274994, 0.03999999910593033]","[0.0, 0.0, -0.2344832078059935]","[0.026750000193715096, 0.05299999937415123, 0.03999999910593033]","[0.0, 0.0, -0.5797525332723408]","[0.06619282066822052, 0.11323507130146027, 0.03999999910593033]","[0.0, -0.0, 0.23626364065370517]",0.5803647968076553,0.08693842773926175,"(0.0, 0.0, 0.0, 0.0, 0.0, 0.0)",0.037954102653977584,-0.8144899338428017,-0.0009948720101284891,"(0.0, 0.0, 0.0, 0.0, 0.0, 0.0)",0.0017222074022811887,-0.5800418787004894,-0.06943944339633472,"(0.0, 0.0, 0.0, 0.0, 0.0, 0.0)",-7.86709254790071e-05,0.8160185417619099,0.0005685777313749751,"(0.0, 0.0, 0.0, 0.0, 0.0, 0.0)",0.021043563204933297,True,"(-0.03163934341019903, 0.18488708280981267, 0.04000047650942127)","(0.9999998763769996, 0.0001420730685829438, 0.00047650942126588347)",-0.00011690035875491202,0.0,True,"(0.03149675298742195, 0.18483678285391775, 0.039999523490578726)","(-0.9999998763769997, -0.00014207306859140775, -0.0004765094212733113)",-0.0006670170266508909,0.27460436656730614
67,Move,"(0.0, 0.0, 0.0)","(0.0, -0.0, 0.0)","(0.0002327559108701355, 0.1716656141759162, 0.002105583721089649)","(1.5299033835799647, -0.0004013983674739314, 0.002440985813123639)","[0.0002326773494051299, 0.00166655179939737, 0.0011906940380019145]","[-0.026750000193715096, 0.05299999937415123, 0.03999999910593033]","[0.0, -0.0, 0.5803648224707226]","[-0.0662296935915947, 0.11321090906858444, 0.03999999910593033]","[0.0, 0.0, -0.23412515320946845]","[0.026750000193715096, 0.05299999937415123, 0.03999999910593033]","[0.0, 0.0, -0.580041927182697]","[0.06621024757623672, 0.11322365701198578, 0.03999999910593033]","[0.0, -0.0, 0.23597666604666073]",0.5807703641604091,0.09733616466089857,"(0.0, 0.0, 0.0, 0.0, 0.0, 0.0)",0.01540828530888074,-0.8144895193127974,9.948720101338182e-05,"(0.0, 0.0, 0.0, 0.0, 0.0, 0.0)",0.0012603755446250467,-0.5803664127820525,-0.07788817957513414,"(0.0, 0.0, 0.0, 0.0, 0.0, 0.0)",0.06291278246824748,0.8159977916186612,-0.004980034379713175,"(0.0, 0.0, 0.0, 0.0, 0.0, 0.0)",0.04348968212282194,True,"(-0.031686822160058116, 0.18488613984224478, 0.04000043510198592)","(0.9999988098771241, 0.0014801792449422473, 0.0004351019859183338)",-8.387166015081183e-05,0.0,True,"(0.03153472867097123, 0.18483369673614605, 0.03999956489801407)","(-0.9999988098771241, -0.0014801792449397621, -0.00043510198592709785)",-0.0006147291316199805,0.5799187963781358
68,Move,"(0.0, 0.0, 0.0)","(0.0, -0.0, 0.0)","(0.0002389766595415522, 0.17167120130678384, 0.0021112109095277926)","(1.530115358141784, -0.0003762950613256238, 0.0027134606182575975)","[0.0002388980980765466, 0.0016721389302650214, 0.0011963212264400579]","[-0.026750000193715096, 0.05299999937415123, 0.03999999910593033]","[0.0, -0.0, 0.5807703962881401]","[-0.06625410914421082, 0.11319489777088165, 0.03999999910593033]","[0.0, 0.0, -0.2337191904635551]","[0.026750000193715096, 0.05299999937415123, 0.03999999910593033]","[0.0, 0.0, -0.580366420832635]","[0.06622979044914246, 0.11321084946393967, 0.03999999910593033]","[0.0, -0.0, 0.23563140459656684]",0.581205789916266,0.10450218140567191,"(0.0, 0.0, 0.0, 0.0, 0.0, 0.0)",0.010534041503313062,-0.8144895607657978,-9.948720101071729e-06,"(0.0, 0.0, 0.0, 0.0, 0.0, 0.0)",0.000774823956079145,-0.5807124885073383,-0.08305817406858564,"(0.0, 0.0, 0.0, 0.0, 0.0, 0.0)",0.12391459620264829,0.8159667506171392,-0.007449840365280302,"(0.0, 0.0, 0.0, 0.0, 0.0, 0.0)",0.07303426125904777,True,"(-0.03174034136882138, 0.1848846959114467, 0.0400004013983567)","(0.9999969402355258, 0.002440983192404987, 0.0004013983566973841)",-3.447821311492088e-05,0.0,True,"(0.0315790014265003, 0.18483154992254197, 0.03999959860164331)","(-0.9999969402355257, -0.002440983192415323, -0.00040139835668979036)",-0.000566501162107541,1.0022030123428758
69,Move,"(0.0, 0.0, 0.0)","(0.0, -0.0, 0.0)","(0.0002461362254351761, 0.1716671208528427, 0.0020657561089371295)","(1.5319446425624175, -0.0003495881742458846, 0.0029409462752257357)","[0.0002460576639701705, 0.0016680584763238693, 0.0011508664258493948]","[-0.026750000193715096, 0.05299999937415123, 0.03999999910593033]","[0.0, -0.0, 0.5812058059400319]","[-0.0662803128361702, 0.11317768692970276, 0.03999999910593033]","[0.0, 0.0, -0.233283741767036]","[0.026750000193715096, 0.05299999937415123, 0.03999999910593033]","[0.0, 0.0, -0.5807125062168941]","[0.06625062227249146, 0.11319718509912491, 0.03999999910593033]","[0.0, -0.0, 0.23525427735681864]",0.5816569043756968,0.108267470263387,"(0.0, 0.0, 0.0, 0.0, 0.0, 0.0)",0.0055535231679564685,-0.8144896446166229,-2.012419800197284e-05,"(0.0, 0.0, 0.0, 0.0, 0.0, 0.0)",0.0004133855406589197,-0.5810634735366833,-0.08423640704281898,"(0.0, 0.0, 0.0, 0.0, 0.0, 0.0)",-0.0007882332438707035,0.8159686294912066,0.00045092977618549183,"(0.0, 0.0, 0.0, 0.0, 0.0, 0.0)",0.0007833175815958346,True,"(-0.03179776344987773, 0.184882346147748, 0.040000376295052466)","(0.9999962477692703, 0.002713457096353073, 0.00037629505246024276)",2.6515331202448584e-05,0.0,True,"(0.031626849944631226, 0.1848302960292949, 0.03999962370494756)","(-0.9999962477692702, -0.002713457096330829, -0.00037629505244392476)",-0.0005222798169976802,0.0007333969545451706
70,Move,"(0.0, 0.0, 0.0)","(0.0, -0.0, 0.0)","(0.00025327090044361723, 0.171659541169139, 0.0019691822915044316)","(1.5353965508776612, -0.0003237849190454914, 0.0031681015934573228)","[0.00025319233897861163, 0.0016604787926201847, 0.0010542926084166969]","[-0.026750000193715096, 0.05299999937415123, 0.03999999910593033]","[0.0, -0.0, 0.5816569383050548]","[-0.06630745530128479, 0.11315985023975372, 0.03999999910593033]","[0.0, 0.0, -0.2328327670563111]","[0.026750000193715096, 0.05299999937415123, 0.03999999910593033]","[0.0, 0.0, -0.5810634668521766]","[0.06627175211906433, 0.11318331211805344, 0.03999999910593033]","[0.0, -0.0, 0.23490516925382088]",0.5821082294278827,0.1083180125245846,"(0.0, 0.0, 0.0, 0.0, 0.0, 0.0)",0.00010298439101791992,-0.8144896650351432,-4.900444878415086e-06,"(0.0, 0.0, 0.0, 0.0, 0.0, 0.0)",9.392881168817824e-06,-0.5814109838358301,-0.08340247179522998,"(0.0, 0.0, 0.0, 0.0, 0.0, 0.0)",0.001146510353280561,0.8159683412814335,-6.917034556437303e-05,"(0.0, 0.0, 0.0, 0.0, 0.0, 0.0)",3.271521524658636e-05,True,"(-0.031857250261620104, 0.18487982917689297, 0.04000034958816713)","(0.9999956143149392, 0.0029409418560542725, 0.00034958816712642323)",9.112721098476922e-05,0.0,True,"(0.031672987011049175, 0.18482793461153305, 0.03999965041183288)","(-0.9999956143149392, -0.002940941856068459, -0.0003495881671206063)",-0.00048131980281272246,0.0
71,Move,"(0.0, 0.0, 0.0)","(0.0, -0.0, 0.0)","(0.0002603980704894723, 0.17164892861131198, 0.0018215811570849367)","(1.540472540596126, -0.00029952637194428293, 0.0033943557920755566)","[0.0002603195090244667, 0.001649866234793157, 0.000906691473997202]","[-0.026750000193715096, 0.05299999937415123, 0.03999999910593033]","[0.0, -0.0, 0.5821082532741377]","[-0.06633460521697998, 0.1131419911980629, 0.03999999910593033]","[0.0, 0.0, -0.23238146480046531]","[0.026750000193715096, 0.05299999937415123, 0.03999999910593033]","[0.0, 0.0, -0.5814109792903371]","[0.0662926584482193, 0.11316957324743271, 0.03999999910593033]","[0.0, -0.0, 0.23455736258795468]",0.5825522840186527,0.10657310178480106,"(0.0, 0.0, 0.0, 0.0, 0.0, 0.0)",-0.002520256620112749,-0.8144891285533387,0.00012875563308651267,"(0.0, 0.0, 0.0, 0.0, 0.0, 0.0)",-0.0001742813562174462,-0.5817468625093442,-0.08061088164336015,"(0.0, 0.0, 0.0, 0.0, 0.0, 0.0)",0.004063085735141031,0.8159674834874651,-0.00020587055243076805,"(0.0, 0.0, 0.0, 0.0, 0.0, 0.0)",0.0002891259429077058,True,"(-0.03191676820155742, 0.18487728586456653, 0.040000323784913396)","(0.9999949291522708, 0.003168096127755871, 0.00032378491339315037)",0.00015568778820875757,0.0,True,"(0.03171882057754293, 0.18482565087597938, 0.03999967621508662)","(-0.9999949291522707, -0.0031680961277523807, -0.0003237849133791932)",-0.00044058386733157465,0.0
72,Move,"(0.0, 0.0, 0.0)","(0.0, -0.0, 0.0)","(0.0002675167445962364, 0.17163596531745923, 0.001622959270951116)","(1.5471730655472, -0.00027741253745244517, 0.0036198221732112765)","[0.0002674381831312308, 0.0016369029409404046, 0.0007080695878633812]","[-0.026750000193715096, 0.05299999937415123, 0.03999999910593033]","[0.0, -0.0, 0.5825523291625185]","[-0.06636130809783936, 0.11312440782785416, 0.03999999910593033]","[0.0, 0.0, -0.23193684855243266]","[0.026750000193715096, 0.05299999937415123, 0.03999999910593033]","[0.0, 0.0, -0.5817468907668804]","[0.06631287187337875, 0.1131562888622284, 0.03999999910593033]","[0.0, -0.0, 0.2342206160957623]",0.5829814285958671,0.10299469853147515,"(0.0, 0.0, 0.0, 0.0, 0.0, 0.0)",-0.005240674206811211,-0.814489096410575,7.714263279125742e-06,"(0.0, 0.0, 0.0, 0.0, 0.0, 0.0)",-0.0004030261082433749,-0.5820634733155934,-0.07598659349980431,"(0.0, 0.0, 0.0, 0.0, 0.0, 0.0)",0.006791529092835475,0.8159674571421315,-6.322880060416806e-06,"(0.0, 0.0, 0.0, 0.0, 0.0, 0.0)",0.0005267361748588562,True,"(-0.031975366124809744, 0.18487477864737084, 0.040000299526367473)","(0.9999941943221446, 0.003394349121718119, 0.00029952636747309345)",0.00021924917077457116,0.0,True,"(0.03176316094225122, 0.18482344116785648, 0.03999970047363255)","(-0.9999941943221446, -0.003394349121717009, -0.0002995263674530393)",-0.0004012649633909073,0.0
73,Move,"(0.0, 0.0, 0.0)","(0.0, -0.0, 0.0)","(0.0002746246856002593, 0.17162157916921483, 0.0013733137080896504)","(1.5554984745594012, -0.0002580393228458521, 0.003844590864035422)","[0.0002745461241352537, 0.0016225167926960105, 0.0004584240250019157]","[-0.026750000193715096, 0.05299999937415123, 0.03999999910593033]","[0.0, -0.0, 0.5829814129395106]","[-0.0663871020078659, 0.11310740560293198, 0.03999999910593033]","[0.0, 0.0, -0.23150768133978492]","[0.026750000193715096, 0.05299999937415123, 0.03999999910593033]","[0.0, 0.0, -0.5820634712316858]","[0.06633191555738449, 0.11314376443624496, 0.03999999910593033]","[0.0, -0.0, 0.23390397721616346]",0.5833876409051342,0.09749095422410826,"(0.0, 0.0, 0.0, 0.0, 0.0, 0.0)",-0.008052853813355954,-0.8144889722654065,2.979484043245622e-05,"(0.0, 0.0, 0.0, 0.0, 0.0, 0.0)",-0.0005983053564540321,-0.582352871517466,-0.06945556844940626,"(0.0, 0.0, 0.0, 0.0, 0.0, 0.0)",0.009567254379401428,0.8159673085126369,-3.567107870303386e-05,"(0.0, 0.0, 0.0, 0.0, 0.0, 0.0)",0.0007106035856264512,True,"(-0.0320319605302434, 0.18487232146191346, 0.04000027741253389)","(0.9999934099722654, 0.003619814128770187, 0.0002774125338956045)",0.00028070573355290263,0.0,True,"(0.03180490111365966, 0.18482130614894654, 0.03999972258746611)","(-0.9999934099722652, -0.00361981412877408, -0.0002774125338901324)",-0.00036444797376621355,0.0
74,Move,"(0.0, 0.0, 0.0)","(0.0, -0.0, 0.0)","(0.00028171823873505134, 0.17160694422855283, 0.001072641774021353)","(1.5654489617571916, -0.0002419991206575905, 0.004068721976705783)","[0.00028163967727004574, 0.0016078818520340044, 0.0001577520909336182]","[-0.026750000193715096, 0.05299999937415123, 0.03999999910593033]","[0.0, -0.0, 0.583387637482778]","[-0.06641151756048203, 0.11309129744768143, 0.03999999910593033]","[0.0, 0.0, -0.23110135963561573]","[0.026750000193715096, 0.05299999937415123, 0.03999999910593033]","[0.0, 0.0, -0.5823528193172774]","[0.0663493201136589, 0.1131323054432869, 0.03999999910593033]","[0.0, -0.0, 0.23361444333999973]",0.5837625894396613,0.0899876482865034,"(0.0, 0.0, 0.0, 0.0, 0.0, 0.0)",-0.010991597979875437,-0.8144888103730361,3.885416888710445e-05,"(0.0, 0.0, 0.0, 0.0, 0.0, 0.0)",-0.0008188536344474013,-0.5826068016466897,-0.06094323101369879,"(0.0, 0.0, 0.0, 0.0, 0.0, 0.0)",0.012480328546068117,0.8159671253985211,-4.394738778431235e-05,"(0.0, 0.0, 0.0, 0.0, 0.0, 0.0)",0.0009300506824102755,True,"(-0.03208553644449358, 0.18486998767963997, 0.04000025803931999)","(0.9999925762777474, 0.0038445812649779967, 0.0002580393199878035)",0.0003390198548666232,0.0,True,"(0.03184306224518178, 0.18481932856601097, 0.03999974196068002)","(-0.9999925762777473, -0.003844581264976415, -0.00025803931997815335)",-0.00033108902716122554,0.0
75,Move,"(0.0, 0.0, 0.0)","(0.0, -0.0, 0.0)","(0.0002335106909483604, 0.17165122072084885, 0.0009552758385267264)","(1.5713667123366397, 0.0016860659282863012, 0.005674235499891867)","[0.0002334321294833548, 0.0016521583443300236, 4.038615543899165e-05]","[-0.026750000193715096, 0.05299999937415123, 0.03999999910593033]","[0.0, -0.0, 0.5837625877177065]","[-0.06643404811620712, 0.11307641863822937, 0.03999999910593033]","[0.0, 0.0, -0.23072623587004723]","[0.026750000193715096, 0.05299999937415123, 0.03999999910593033]","[0.0, 0.0, -0.582606793904136]","[0.066364586353302, 0.11312224715948105, 0.03999999910593033]","[0.0, -0.0, 0.23336032192224593]",0.5840975526731123,0.08039117602822987,"(0.0, 0.0, 0.0, 0.0, 0.0, 0.0)",-0.014072532522544314,-0.8144888265622732,-3.8854168895596786e-06,"(0.0, 0.0, 0.0, 0.0, 0.0, 0.0)",-0.00105394342036264,-0.5828179506976978,-0.050675772241961924,"(0.0, 0.0, 0.0, 0.0, 0.0, 0.0)",0.8188364568567428,0.8159428982718654,-0.005814510397382167,"(0.0, 0.0, 0.0, 0.0, 0.0, 0.0)",0.4205239898006242,True,"(-0.032134991519718624, 0.18486783243331245, 0.040000241999118294)","(0.9999916934806122, 0.00406871063163764, 0.00024199911829580857)",0.0003930661378893549,0.0,True,"(0.03187654993573749, 0.1848175591085846, 0.03999975800088171)","(-0.9999916934806122, -0.004068710631634207, -0.00024199911829693368)",-0.0003022594378428879,6.081887813768432
76,Move,"(0.0, 0.0, 0.0)","(0.0, -0.0, 0.0)","(0.00023343676891402764, 0.17164979560056853, 0.001002624322118666)","(1.5727607061218198, 0.0015511720936383679, 0.005674261435082086)","[0.00023335820744902204, 0.0016507332240497108, 8.773463903093137e-05]","[-0.026750000193715096, 0.05299999937415123, 0.03999999910593033]","[0.0, -0.0, 0.5840975856660009]","[-0.06645416468381882, 0.11306312680244446, 0.03999999910593033]","[0.0, 0.0, -0.23039127250092203]","[0.026750000193715096, 0.05299999937415123, 0.03999999910593033]","[0.0, 0.0, -0.5828179388692861]","[0.06637728214263916, 0.1131138801574707, 0.03999999910593033]","[0.0, -0.0, 0.23312490477056463]",0.5843833270963534,0.06858586157789139,"(0.0, 0.0, 0.0, 0.0, 0.0, 0.0)",-0.01731301431320871,-0.8144888249427183,3.886931573669328e-07,"(0.0, 0.0, 0.0, 0.0, 0.0, 0.0)",-0.0012909236382115652,-0.5829744050070699,-0.037549034249293456,"(0.0, 0.0, 0.0, 0.0, 0.0, 0.0)",0.01996802131011077,0.8159455661798115,0.0006402979070610857,"(0.0, 0.0, 0.0, 0.0, 0.0, 0.0)",0.0021435795204294175,True,"(-0.03217916872430031, 0.1848672912488055, 0.03999831393487057)","(0.9999824801830013, 0.005674196985729739, -0.0016860651294274844)",0.00044295087978413574,0.0,True,"(0.031906130274926205, 0.18481546800144308, 0.04000168606512943)","(-0.9999824801830013, -0.005674196985738892, 0.001686065129424227)",-0.00027907276177519365,0.0
77,Move,"(0.0, 0.0, 0.0)","(0.0, -0.0, 0.0)","(0.00023331365216645283, 0.17165004872927273, 0.0009990957454367828)","(1.5725221724609926, 0.0014271159936908161, 0.005673765876200196)","[0.00023323509070144723, 0.0016509863527539026, 8.42060623490481e-05]","[-0.026750000193715096, 0.05299999937415123, 0.03999999910593033]","[0.0, -0.0, 0.5843833827079373]","[-0.06647133082151413, 0.11305177956819534, 0.03999999910593033]","[0.0, 0.0, -0.23010553461538896]","[0.026750000193715096, 0.05299999937415123, 0.03999999910593033]","[0.0, 0.0, -0.5829743793410241]","[0.06638668477535248, 0.11310768127441406, 0.03999999910593033]","[0.0, -0.0, 0.23297116910991744]",0.5846589449008731,0.06614827308472826,"(0.0, 0.0, 0.0, 0.0, 0.0, 0.0)",-0.0035620765447830836,-0.8144888251046738,-3.886931569390769e-08,"(0.0, 0.0, 0.0, 0.0, 0.0, 0.0)",-0.00026568586676540846,-0.5830994327717668,-0.03000666352726799,"(0.0, 0.0, 0.0, 0.0, 0.0, 0.0)",0.010991552286959336,0.815945437888302,-3.078996227594548e-05,"(0.0, 0.0, 0.0, 0.0, 0.0, 0.0)",0.0007518786834530541,True,"(-0.032216851036929235, 0.1848654486585116, 0.03999844882852842)","(0.9999826983739541, 0.005674224159392214, -0.0015511714715874386)",0.00047522780693952724,0.0,True,"(0.03192656264485069, 0.18481441394223597, 0.04000155117147158)","(-0.9999826983739541, -0.005674224159388205, 0.0015511714715863354)",-0.00025321668276392126,0.0
78,Move,"(0.0, 0.0, 0.0)","(0.0, -0.0, 0.0)","(0.0002331923706227431, 0.17165046715493565, 0.0009895082251847576)","(1.5721018970299265, 0.0013012145414572679, 0.0056727318574896265)","[0.0002331138091577375, 0.0016514047784168262, 7.46185420970229e-05]","[-0.026750000193715096, 0.05299999937415123, 0.03999999910593033]","[0.0, -0.0, 0.5846589377019289]","[-0.0664878785610199, 0.11304082721471786, 0.03999999910593033]","[0.0, 0.0, -0.22982985024167]","[0.026750000193715096, 0.05299999937415123, 0.03999999910593033]","[0.0, 0.0, -0.5830994769155812]","[0.06639419496059418, 0.11310272663831711, 0.03999999910593033]","[0.0, -0.0, 0.2328459870788598]",0.5849273905054545,0.06442694509953116,"(0.0, 0.0, 0.0, 0.0, 0.0, 0.0)",-0.002510968166259258,-0.8144888250720274,7.835145849093527e-09,"(0.0, 0.0, 0.0, 0.0, 0.0, 0.0)",-0.00018723598715915025,-0.5832218728474525,-0.02938561816457952,"(0.0, 0.0, 0.0, 0.0, 0.0, 0.0)",0.0009093414526223089,0.8159454946536276,1.3623678163990128e-05,"(0.0, 0.0, 0.0, 0.0, 0.0, 0.0)",7.231962212638365e-05,True,"(-0.0322531934931988, 0.18486366077575783, 0.039998572884490734)","(0.9999828859201042, 0.005673729657233907, -0.0014271155092639772)",0.0005066382760367722,0.0,True,"(0.03194305278058134, 0.18481364545828105, 0.040001427115509275)","(-0.9999828859201042, -0.005673729657230891, 0.0014271155092679733)",-0.00023177688621338325,0.0
79,Move,"(0.0, 0.0, 0.0)","(0.0, -0.0, 0.0)","(0.00023288564926630498, 0.17165075928376725, 0.0009895367433518116)","(1.571829154834144, 0.0010291528191204054, 0.005671038409841149)","[0.00023280708780129938, 0.0016516969072484233, 7.464706026407688e-05]","[-0.026750000193715096, 0.05299999937415123, 0.03999999910593033]","[0.0, -0.0, 0.5849273449437108]","[-0.06650399416685104, 0.11303015798330307, 0.03999999910593033]","[0.0, 0.0, -0.22956143979085217]","[0.026750000193715096, 0.05299999937415123, 0.03999999910593033]","[0.0, 0.0, -0.5832218455236623]","[0.06640155613422394, 0.11309786885976791, 0.03999999910593033]","[0.0, -0.0, 0.23272362809697725]",0.5851970863100942,0.06472699311352152,"(0.0, 0.0, 0.0, 0.0, 0.0, 0.0)",0.00045653633377996754,-0.814488825075292,-7.835145865443487e-10,"(0.0, 0.0, 0.0, 0.0, 0.0, 0.0)",3.411364661097883e-05,-0.5833476576233988,-0.03018834622711588,"(0.0, 0.0, 0.0, 0.0, 0.0, 0.0)",-0.001187505879450515,0.8159454889770951,-1.3623678158936059e-06,"(0.0, 0.0, 0.0, 0.0, 0.0, 0.0)",-9.01120512124422e-05,True,"(-0.032288589780236854, 0.1848619092436778, 0.03999869878582574)","(0.9999830635338836, 0.00567269663049834, -0.0013012141742663862)",0.0005370469666805556,0.0,True,"(0.03195918845267555, 0.18481288532909676, 0.04000130121417428)","(-0.9999830635338837, -0.005672696630498477, 0.0013012141742721206)",-0.00021063672576052445,0.0
80,Move,"(-2.9999999999999997e-05, 0.0, -5e-05)","(0.0, -0.0, 0.0)","(0.0002326053222062121, 0.17165103122190642, 0.0009895634999151947)","(1.57155702005472, 0.0007576457489346212, 0.005670003078663252)","[0.0002325267607412065, 0.001651968845387597, 7.467381682745998e-05]","[-0.026750000193715096, 0.05299999937415123, 0.03999999910593033]","[0.0, -0.0, 0.585197065530767]","[-0.06652018427848816, 0.1130194365978241, 0.03999999910593033]","[0.0, 0.0, -0.22929174375404324]","[0.026750000193715096, 0.05299999937415123, 0.03999999910593033]","[0.0, 0.0, -0.5833476738944103]","[0.06640911847352982, 0.11309288442134857, 0.03999999910593033]","[0.0, -0.0, 0.23259782349908528]",0.5854681612819803,0.0650579932526929,"(0.0, 0.0, 0.0, 0.0, 0.0, 0.0)",0.0005020590865497005,-0.8144888250782613,-7.126338345259036e-10,"(0.0, 0.0, 0.0, 0.0, 0.0, 0.0)",3.751081433842705e-05,-0.5834767489762814,-0.030981924691833026,"(0.0, 0.0, 0.0, 0.0, 0.0, 0.0)",-0.0011724153163128579,0.815945491452576,5.941154186131976e-07,"(0.0, 0.0, 0.0, 0.0, 0.0, 0.0)",-8.72701266187187e-05,True,"(-0.03232415028898762, 0.18486013933096904, 0.03999897084736256)","(0.9999833901355731, 0.005671005009248192, -0.0010291526374442421)",0.0005617321830968743,0.0,True,"(0.031975769251845504, 0.1848121051484536, 0.040001029152637445)","(-0.9999833901355732, -0.005671005009240611, 0.0010291526374415602)",-0.00018315355317150039,0.0
81,Move,"(-2.9999999999999997e-05, 0.0, -5e-05)","(0.0, -0.0, 0.0)","(0.0002323560869314783, 0.17165127039632372, 0.0009895894016310723)","(1.5712854569958365, 0.0004866808209046313, 0.005670098488675985)","[0.0002322775254664727, 0.001652208019804896, 7.469971854333758e-05]","[-0.026750000193715096, 0.05299999937415123, 0.03999999910593033]","[0.0, -0.0, 0.5854682128885929]","[-0.06653645634651184, 0.11300864815711975, 0.03999999910593033]","[0.0, 0.0, -0.22902064374966274]","[0.026750000193715096, 0.05299999937415123, 0.03999999910593033]","[0.0, 0.0, -0.5834767906566798]","[0.06641687452793121, 0.11308776587247849, 0.03999999910593033]","[0.0, -0.0, 0.23246872323514473]",0.585737630083839,0.06467251244606274,"(0.0, 0.0, 0.0, 0.0, 0.0, 0.0)",-0.000549851377807151,-0.8144888250779643,7.126299550463955e-11,"(0.0, 0.0, 0.0, 0.0, 0.0, 0.0)",-4.0954860399632944e-05,-0.5835958115097151,-0.028575008024060405,"(0.0, 0.0, 0.0, 0.0, 0.0, 0.0)",0.0035263212990129696,0.8159454912050279,-5.941154235244994e-08,"(0.0, 0.0, 0.0, 0.0, 0.0, 0.0)",0.000262962922915225,True,"(-0.03235989224466089, 0.18485835136941015, 0.039999242354323554)","(0.9999836385666955, 0.005669971070597781, -0.000757645676447697)",0.0005866355094784664,0.0,True,"(0.031992785308985694, 0.1848113013104787, 0.04000075764567646)","(-0.9999836385666956, -0.005669971070596119, 0.0007576456764541395)",-0.00015527715596217267,0.0
82,Move,"(-2.9999999999999997e-05, 0.0, -5e-05)","(0.0, -0.0, 0.0)","(0.00023209885171938073, 0.17165151702620216, 0.0009896146994049773)","(1.5710144512963193, 0.00021626576000075516, 0.005670021568785606)","[0.00023202029025437513, 0.0016524546496833326, 7.472501631724257e-05]","[-0.026750000193715096, 0.05299999937415123, 0.03999999910593033]","[0.0, -0.0, 0.5857375911005746]","[-0.06655262410640717, 0.11299792677164078, 0.03999999910593033]","[0.0, 0.0, -0.22875119701284335]","[0.026750000193715096, 0.05299999937415123, 0.03999999910593033]","[0.0, 0.0, -0.5835958593806163]","[0.06642402708530426, 0.11308304220438004, 0.03999999910593033]","[0.0, -0.0, 0.23234969048680804]",0.5860064928244154,0.06452705773834744,"(0.0, 0.0, 0.0, 0.0, 0.0, 0.0)",-0.00019752318480236082,-0.8144888250779935,-6.999199422132689e-12,"(0.0, 0.0, 0.0, 0.0, 0.0, 0.0)",-1.4674044634083588e-05,-0.5837198179293029,-0.0297615407010845,"(0.0, 0.0, 0.0, 0.0, 0.0, 0.0)",-0.0017491889884947663,0.8159454912301289,6.024238553251565e-09,"(0.0, 0.0, 0.0, 0.0, 0.0, 0.0)",-0.000130484349693937,True,"(-0.032395422020306874, 0.18485656552333318, 0.039999513319198314)","(0.9999838066074274, 0.005670067434933084, -0.00048668080169328936)",0.0006113610312157586,0.0,True,"(0.032008479576967244, 0.18481055700819032, 0.0400004866808017)","(-0.9999838066074274, -0.005670067434931767, 0.00048668080169862943)",-0.0001287620742648467,0.0
83,Move,"(-2.9999999999999997e-05, 0.0, -5e-05)","(0.0, -0.0, 0.0)","(0.0002319255872645491, 0.1716516914877725, 0.0009896928963849159)","(1.57084053141629, 4.473816955133131e-05, 0.0056700155970868145)","[0.0002318470257995435, 0.0016526291112536895, 7.480321329718116e-05]","[-0.026750000193715096, 0.05299999937415123, 0.03999999910593033]","[0.0, -0.0, 0.586006443990032]","[-0.0665687546133995, 0.112987220287323, 0.03999999910593033]","[0.0, 0.0, -0.22848232760223605]","[0.026750000193715096, 0.05299999937415123, 0.03999999910593033]","[0.0, 0.0, -0.5837198037588792]","[0.06643147766590118, 0.11307811737060547, 0.03999999910593033]","[0.0, -0.0, 0.23222568960183637]",0.5862747075236279,0.06437152781099975,"(0.0, 0.0, 0.0, 0.0, 0.0, 0.0)",-0.00021235298406968188,-0.8144888250779906,7.007727731433988e-13,"(0.0, 0.0, 0.0, 0.0, 0.0, 0.0)",-1.5780521900259403e-05,-0.5838474695236918,-0.030636382653320027,"(0.0, 0.0, 0.0, 0.0, 0.0, 0.0)",-0.0012918419732980315,0.8159454912276188,-6.024247767300039e-10,"(0.0, 0.0, 0.0, 0.0, 0.0, 0.0)",-9.637723557885332e-05,True,"(-0.03243087147731034, 0.18485477397938682, 0.039999783734241685)","(0.9999839020857066, 0.005669991055180215, -0.00021626575831458603)",0.0006360195495164942,0.0,True,"(0.03202482548988954, 0.18480977998058906, 0.040000216265758316)","(-0.9999839020857065, -0.005669991055183448, 0.00021626575831525265)",-0.00010161377127615899,0.0
84,Move,"(-2.9999999999999997e-05, 0.0, -5e-05)","(0.0, -0.0, 0.0)","(0.00023190950673560165, 0.17165170644442018, 0.000989604727018372)","(1.5708270318097564, 2.83905777657092e-05, 0.005670004108656764)","[0.00023183094527059605, 0.0016526440679013599, 7.471504393063728e-05]","[-0.026750000193715096, 0.05299999937415123, 0.03999999910593033]","[0.0, -0.0, 0.5862746455558632]","[-0.06658484041690826, 0.1129765436053276, 0.03999999910593033]","[0.0, 0.0, -0.2282141256109951]","[0.026750000193715096, 0.05299999937415123, 0.03999999910593033]","[0.0, 0.0, -0.5838474475865115]","[0.06643914431333542, 0.11307305097579956, 0.03999999910593033]","[0.0, -0.0, 0.23209800826580457]",0.5865422640130676,0.06421355746553895,"(0.0, 0.0, 0.0, 0.0, 0.0, 0.0)",-0.00021597530755791854,-0.8144888250779909,-6.927791663073065e-14,"(0.0, 0.0, 0.0, 0.0, 0.0, 0.0)",-1.6051014655018467e-05,-0.583978618398892,-0.03147573004803581,"(0.0, 0.0, 0.0, 0.0, 0.0, 0.0)",-0.0012399421163585742,0.8159454912278699,6.024247767599148e-11,"(0.0, 0.0, 0.0, 0.0, 0.0, 0.0)",-9.250582979115736e-05,True,"(-0.03246623508192857, 0.1848529773273932, 0.039999955261830464)","(0.9999839245038937, 0.005669985210501919, -4.4738169535342366e-05)",0.0006645299935189541,0.0,True,"(0.03204165186883591, 0.18480897792313464, 0.04000004473816954)","(-0.9999839245038935, -0.005669985210517746, 4.4738169536047064e-05)",-7.79278965759621e-05,0.0
85,Move,"(-2.9999999999999997e-05, 0.0, -5e-05)","(0.0, -0.0, 0.0)","(0.0002319002334458875, 0.1716517125862335, 0.0009895267368534991)","(1.5708204211782264, 1.9255825586601773e-05, 0.005670006084095275)","[0.0002318216719808819, 0.0016526502097146678, 7.463705376576442e-05]","[-0.026750000193715096, 0.05299999937415123, 0.03999999910593033]","[0.0, -0.0, 0.5865422657196654]","[-0.06660088896751404, 0.11296588182449341, 0.03999999910593033]","[0.0, 0.0, -0.2279465565298453]","[0.026750000193715096, 0.05299999937415123, 0.03999999910593033]","[0.0, 0.0, -0.5839785968284993]","[0.06644702702760696, 0.11306785047054291, 0.03999999910593033]","[0.0, -0.0, 0.23196688031266263]",0.586809471621811,0.06412982609840336,"(0.0, 0.0, 0.0, 0.0, 0.0, 0.0)",-0.00010700821969147217,-0.8144888249528807,3.002646081597001e-08,"(0.0, 0.0, 0.0, 0.0, 0.0, 0.0)",-7.919955852792674e-06,-0.5841119163506906,-0.03199150843166798,"(0.0, 0.0, 0.0, 0.0, 0.0, 0.0)",-0.0007619133768271506,0.8159456109654456,2.8737018165373254e-05,"(0.0, 0.0, 0.0, 0.0, 0.0, 0.0)",-5.393586259794132e-05,True,"(-0.03250151144314414, 0.18485117562870812, 0.03999997160942224)","(0.9999839251667627, 0.005669973725643711, -2.8390577761266476e-05)",0.0006991624602030309,0.0,True,"(0.03205893915680544, 0.18480815166004827, 0.040000028390577765)","(-0.9999839251667626, -0.005669973725651732, 2.839057776461382e-05)",-5.999198267608001e-05,0.0
86,Move,"(-2.9999999999999997e-05, 0.0, -5e-05)","(0.0, -0.0, 0.0)","(0.0002318928475839552, 0.17165172033647907, 0.0009894850627493066)","(1.570814086955949, 1.1580723637073572e-05, 0.005669995723254744)","[0.0002318142861189496, 0.001652657959960252, 7.459537966157193e-05]","[-0.026750000193715096, 0.05299999937415123, 0.03999999910593033]","[0.0, -0.0, 0.5868095768706975]","[-0.06661690771579742, 0.11295522749423981, 0.03999999910593033]","[0.0, 0.0, -0.2276793575579856]","[0.026750000193715096, 0.05299999937415123, 0.03999999910593033]","[0.0, 0.0, -0.584111915512134]","[0.06645502895116806, 0.1130625531077385, 0.03999999910593033]","[0.0, -0.0, 0.23183369702085835]",0.5870767071114164,0.06413651750529942,"(0.0, 0.0, 0.0, 0.0, 0.0, 0.0)",2.5729665547710372e-05,-0.8144888249653917,-3.0026461317333997e-09,"(0.0, 0.0, 0.0, 0.0, 0.0, 0.0)",1.974968758598565e-06,-0.5842451737837571,-0.031981783935959414,"(0.0, 0.0, 0.0, 0.0, 0.0, 0.0)",2.934413247485592e-06,0.8159455989916881,-2.8737018178404094e-06,"(0.0, 0.0, 0.0, 0.0, 0.0, 0.0)",-2.999191391597145e-06,True,"(-0.032536741332774, 0.18484936687703374, 0.03999998074417442)","(0.9999839253731775, 0.00566997570228558, -1.925582558655886e-05)",0.000734036433096828,0.0,True,"(0.03207650102171835, 0.184807305523827, 0.04000001925582559)","(-0.9999839253731774, -0.0056699757022892535, 1.925582558845533e-05)",-4.206957751693978e-05,0.0
87,Move,"(2e-05, 0.0, -2e-05)","(0.0, 0.03438473159354028, 0.0)","(0.0002318883728632476, 0.17165172584173166, 0.0009894639534762924)","(1.5708099911123397, 6.808992581093051e-06, 0.005669985671794875)","[0.000231809811398242, 0.0016526634652128391, 7.457427038855768e-05]","[-0.026750000193715096, 0.05299999937415123, 0.03999999910593033]","[0.0, -0.0, 0.5870767287348662]","[-0.06663292646408081, 0.1129445731639862, 0.03999999910593033]","[0.0, 0.0, -0.2274121129044338]","[0.026750000193715096, 0.05299999937415123, 0.03999999910593033]","[0.0, 0.0, -0.5842451427857456]","[0.06646303087472916, 0.11305726319551468, 0.03999999910593033]","[0.0, -0.0, 0.23170042389622922]",0.5873439516515022,0.06413868962061066,"(0.0, 0.0, 0.0, 0.0, 0.0, 0.0)",1.909974642256751e-05,-0.8144888249641405,3.0026381381265636e-10,"(0.0, 0.0, 0.0, 0.0, 0.0, 0.0)",1.4841097227265531e-06,-0.5843786192190815,-0.032026904477878475,"(0.0, 0.0, 0.0, 0.0, 0.0, 0.0)",-7.378321419105517e-05,0.8159456001890638,2.873701809846803e-07,"(0.0, 0.0, 0.0, 0.0, 0.0, 0.0)",-5.1981387832269456e-06,True,"(-0.03257197440383457, 0.18484754850463853, 0.039999988419276364)","(0.9999839255502582, 0.005669965342281362, -1.1580723637754134e-05)",0.0007689726400043965,0.0,True,"(0.03209406688325317, 0.1848064617122599, 0.04000001158072363)","(-0.9999839255502581, -0.005669965342287089, 1.1580723628770465e-05)",-2.420216246594665e-05,0.0
88,Move,"(0.0, 0.0, -4e-05)","(0.0, 0.03438473159354028, 0.0)","(0.00023188460756685543, 0.17165173076749907, 0.0009894467715589612)","(1.5708064755199953, 2.7441026962259005e-06, 0.0056699756837750945)","[0.00023180604610184983, 0.0016526683909802442, 7.455708847122649e-05]","[-0.026750000193715096, 0.05299999937415123, 0.03999999910593033]","[0.0, -0.0, 0.5873439947238821]","[-0.0666489452123642, 0.11293391138315201, 0.03999999910593033]","[0.0, 0.0, -0.2271448965543517]","[0.026750000193715096, 0.05299999937415123, 0.03999999910593033]","[0.0, 0.0, -0.5843786442947407]","[0.06647104769945145, 0.11305196583271027, 0.03999999910593033]","[0.0, -0.0, 0.2315670058272414]",0.5874909659136459,0.03528342291448788,"(0.0, 0.0, 0.0, 0.0, 0.0, 0.0)",-0.042351665959640745,-0.8144888249642657,-3.002664783522565e-11,"(0.0, 0.0, 0.0, 0.0, 0.0, 0.0)",-0.003159127373441128,-0.5846273935343834,-0.059705835672464035,"(0.0, 0.0, 0.0, 0.0, 0.0, 0.0)",-0.04064831372956121,0.8159456000693263,-2.873701809846934e-08,"(0.0, 0.0, 0.0, 0.0, 0.0, 0.0)",-0.0030321730406045644,True,"(-0.03260720818198759, 0.1848457206554842, 0.03999999319100742)","(0.999983925651124, 0.005669955291232582, -6.808992581323285e-06)",0.0008040257606727016,0.0,True,"(0.03211165646798357, 0.18480561392411338, 0.04000000680899259)","(-0.9999839256511243, -0.005669955291235992, 6.808992587528276e-06)",-6.427205338810043e-06,0.0
89,Move,"(-8e-05, 0.0, -4e-05)","(0.0, -0.0, 0.0)","(0.0002318811668638815, 0.17165173541262277, 0.0009894309056532925)","(1.5708032411027444, -9.97557268936434e-07, 0.005669965730207867)","[0.0002318026053988759, 0.0016526730361039466, 7.45412225655578e-05]","[-0.026750000193715096, 0.05299999937415123, 0.03999999910593033]","[0.0, -0.0, 0.5874909810492769]","[-0.06665775924921036, 0.11292804777622223, 0.03999999910593033]","[0.0, 0.0, -0.22699787147893058]","[0.026750000193715096, 0.05299999937415123, 0.03999999910593033]","[0.0, 0.0, -0.5846274236433275]","[0.06648598611354828, 0.11304207891225815, 0.03999999910593033]","[0.0, -0.0, 0.23131821850058792]",0.5876516299520367,0.03855936921377801,"(0.0, 0.0, 0.0, 0.0, 0.0, 0.0)",0.00481870193374182,-0.8144888249642531,3.002931237032593e-12,"(0.0, 0.0, 0.0, 0.0, 0.0, 0.0)",0.000359464832768127,-0.5848575537099376,-0.055238442133017734,"(0.0, 0.0, 0.0, 0.0, 0.0, 0.0)",0.006544585539580725,0.8159456000813,2.8737012769367906e-09,"(0.0, 0.0, 0.0, 0.0, 0.0, 0.0)",0.00048813980862734044,True,"(-0.03262659047550451, 0.18484471111571565, 0.03999999725589731)","(0.9999839257271715, 0.005669945303480901, -2.744102694104449e-06)",0.0008232512901898175,0.0,True,"(0.032144447541202034, 0.18480402724656475, 0.040000002744102696)","(-0.9999839257271717, -0.005669945303485566, 2.7441026974204786e-06)",2.6516526290817355e-05,0.0
90,Move,"(-0.00016, 0.0, -4e-05)","(0.0, -0.0, 0.0)","(0.0002318780266143915, 0.1716517397998669, 0.000989416307833363)","(1.5708002653151734, -4.440046204276012e-06, 0.005669955803937441)","[0.0002317994651493859, 0.00165267742334807, 7.452662474562838e-05]","[-0.026750000193715096, 0.05299999937415123, 0.03999999910593033]","[0.0, -0.0, 0.5876517492886533]","[-0.06666738539934158, 0.11292163282632828, 0.03999999910593033]","[0.0, 0.0, -0.2268371806709902]","[0.026750000193715096, 0.05299999937415123, 0.03999999910593033]","[0.0, 0.0, -0.5848574999006062]","[0.06649980694055557, 0.11303292959928513, 0.03999999910593033]","[0.0, -0.0, 0.23108805071528948]",0.5879439880422895,0.07016594166069498,"(0.0, 0.0, 0.0, 0.0, 0.0, 0.0)",0.04641677421431812,-0.8144888249642543,-3.010925018542761e-13,"(0.0, 0.0, 0.0, 0.0, 0.0, 0.0)",0.0034624410135654367,-0.5849703024889232,-0.027059706956535378,"(0.0, 0.0, 0.0, 0.0, 0.0, 0.0)",0.04136056222730142,0.8159456000801026,-2.8737012768582283e-10,"(0.0, 0.0, 0.0, 0.0, 0.0, 0.0)",0.003085211733376895,True,"(-0.03264777217937431, 0.18484360458597765, 0.04000000099755727)","(0.9999839257868751, 0.005669935350091263, 9.97557266524877e-07)",0.0008442896822644727,0.0,True,"(0.03217478471369212, 0.184802552021439, 0.03999999900244273)","(-0.9999839257868751, -0.005669935350098473, -9.975572693981183e-07)",5.699409625672169e-05,0.0
91,Move,"(-0.00019, 0.0, -9e-05)","(0.0, -0.0, 0.0)","(0.0002318751628158254, 0.17165174394979937, 0.000989402874116776)","(1.5707975275831054, -7.6072634985188445e-06, 0.005669945900632618)","[0.0002317966013508198, 0.001652681573280551, 7.451319102904134e-05]","[-0.026750000193715096, 0.05299999937415123, 0.03999999910593033]","[0.0, -0.0, 0.5879440329256508]","[-0.06668490171432495, 0.1129099652171135, 0.03999999910593033]","[0.0, 0.0, -0.22654482793645597]","[0.026750000193715096, 0.05299999937415123, 0.03999999910593033]","[0.0, 0.0, -0.5849702430942918]","[0.06650657206773758, 0.11302845180034637, 0.03999999910593033]","[0.0, -0.0, 0.2309753467468154]",0.588240212150805,0.07109378604371931,"(0.0, 0.0, 0.0, 0.0, 0.0, 0.0)",0.0013797621742693152,-0.8144888249642542,2.930988732070854e-14,"(0.0, 0.0, 0.0, 0.0, 0.0, 0.0)",0.00010299285151065114,-0.5850779509899742,-0.02583564025222501,"(0.0, 0.0, 0.0, 0.0, 0.0, 0.0)",0.0017906110866068553,0.8159456000802223,2.8737012769159324e-11,"(0.0, 0.0, 0.0, 0.0, 0.0, 0.0)",0.0001335586278571224,True,"(-0.03268631577078874, 0.18484158232696973, 0.04000000444004621)","(0.9999839258337971, 0.005669925423928777, 4.440046205034038e-06)",0.0008827068438083336,0.0,True,"(0.03218964588894878, 0.18480182680879526, 0.039999995559953795)","(-0.9999839258337971, -0.005669925423930063, -4.440046205580446e-06)",7.19882005146629e-05,0.0
92,Move,"(-0.00023999999999999998, 0.0, -0.00017)","(0.0, 0.03438473159354028, 0.0)","(0.00023187255334640637, 0.17165174788141588, 0.0009893905116671558)","(1.5707950088625722, -1.0521221050196078e-05, 0.005669936016502763)","[0.00023179399188140077, 0.0016526855048970557, 7.450082857942113e-05]","[-0.026750000193715096, 0.05299999937415123, 0.03999999910593033]","[0.0, -0.0, 0.5882402214497149]","[-0.06670264899730682, 0.11289812624454498, 0.03999999910593033]","[0.0, 0.0, -0.22624861493353232]","[0.026750000193715096, 0.05299999937415123, 0.03999999910593033]","[0.0, 0.0, -0.5850779508968479]","[0.06651303172111511, 0.11302416771650314, 0.03999999910593033]","[0.0, -0.0, 0.23086764156562317]",0.5885328858815005,0.0702416953669383,"(0.0, 0.0, 0.0, 0.0, 0.0, 0.0)",-0.0012334448441559632,-0.8144888249642542,-2.6645356826168493e-15,"(0.0, 0.0, 0.0, 0.0, 0.0, 0.0)",-9.193521523602522e-05,-0.5851747527844525,-0.023232430674804842,"(0.0, 0.0, 0.0, 0.0, 0.0, 0.0)",0.003815880231734989,0.8159456000802103,-2.8723690091646212e-12,"(0.0, 0.0, 0.0, 0.0, 0.0, 0.0)",0.00028463274602564967,True,"(-0.03272536844147629, 0.18483952183368607, 0.04000000760726351)","(0.99998392587087, 0.005669915520676373, 7.607263498595858e-06)",0.0009216443060653548,0.0,True,"(0.0322038347310146, 0.1848011328384932, 0.039999992392736494)","(-0.9999839258708701, -0.005669915520673809, -7.60726349983485e-06)",8.629914599247158e-05,0.0
