OSUrobotics/InHand-Manipulation/AnalyseData/Data/new_hand_human_filt_josh_2v2_a_none_1_kpNone_kdNone_dp1_step1_save_data.csv
,Phase,human_cube_pos,human_cube_orn,Cube_Pos,Cube_Orn,Cube_pos_in_start_pos,b'l_prox_pin'_link_pos,b'l_prox_pin'_link_orn,b'l_distal_pin'_link_pos,b'l_distal_pin'_link_orn,b'r_prox_pin'_link_pos,b'r_prox_pin'_link_orn,b'r_distal_pin'_link_pos,b'r_distal_pin'_link_orn,b'l_prox_pin'_joint_angle,b'l_prox_pin'_joint_vel,b'l_prox_pin'_joint_react_forces,b'l_prox_pin'_joint_motor_torque,b'l_distal_pin'_joint_angle,b'l_distal_pin'_joint_vel,b'l_distal_pin'_joint_react_forces,b'l_distal_pin'_joint_motor_torque,b'r_prox_pin'_joint_angle,b'r_prox_pin'_joint_vel,b'r_prox_pin'_joint_react_forces,b'r_prox_pin'_joint_motor_torque,b'r_distal_pin'_joint_angle,b'r_distal_pin'_joint_vel,b'r_distal_pin'_joint_react_forces,b'r_distal_pin'_joint_motor_torque,in_contact_l,contact_point_l_dist,contact_normal_l_dist,contact_distance_l_dist,contact_norm_force_l_dist,in_contact_r,contact_point_r_dist,contact_normal_r_dist,contact_distance_r_dist,contact_norm_force_r_dist
0,Open,,,,,,"[-0.026750000193715096, 0.05299999937415123, 0.03999999910593033]","[0.0, -0.0, 0.0]","[-0.026750000193715096, 0.125, 0.03999999910593033]","[0.0, -0.0, 0.0]","[0.026750000193715096, 0.05299999937415123, 0.03999999910593033]","[0.0, -0.0, 0.0]","[0.026750000193715096, 0.125, 0.03999999910593033]","[0.0, -0.0, 0.0]",0.0028636982559538428,0.6872875814289223,"(0.0, 0.0, 0.0, 0.0, 0.0, 0.0)",-74.42376671286476,0.025717978913313098,6.172314939195144,"(0.0, 0.0, 0.0, 0.0, 0.0, 0.0)",-28.347758017338414,-0.0028861714462846827,-0.6926811471083238,"(0.0, 0.0, 0.0, 0.0, 0.0, 0.0)",77.31812537484876,-0.025998027583603027,-6.239526620064726,"(0.0, 0.0, 0.0, 0.0, 0.0, 0.0)",29.325432325549183,False,,,,,False,,,,
1,Open,,,,,,"[-0.026750000193715096, 0.05299999937415123, 0.03999999910593033]","[0.0, -0.0, 0.0028636982488144678]","[-0.026956185698509216, 0.12499970197677612, 0.03999999910593033]","[0.0, -0.0, 0.028581675581217755]","[0.026750000193715096, 0.05299999937415123, 0.03999999910593033]","[0.0, 0.0, -0.0028861714423951343]","[0.026957804337143898, 0.12499970197677612, 0.03999999910593033]","[0.0, 0.0, -0.028884201286240394]",0.1595773284303585,37.61127124185712,"(0.0, 0.0, 0.0, 0.0, 0.0, 0.0)",53.472225824972774,0.02314589095046895,-0.6173011110825959,"(0.0, 0.0, 0.0, 0.0, 0.0, 0.0)",3.3014509125464437,-0.15959755430165623,-37.61073188528917,"(0.0, 0.0, 0.0, 0.0, 0.0, 0.0)",-53.45543824447724,-0.023397935520559333,0.6240220951304867,"(0.0, 0.0, 0.0, 0.0, 0.0, 0.0)",-3.2927232380167535,False,,,,,False,,,,
2,Open,,,,,,"[-0.026750000193715096, 0.05299999937415123, 0.03999999910593033]","[0.0, -0.0, 0.15957730699277592]","[-0.03819086775183678, 0.1240852028131485, 0.03999999910593033]","[0.0, -0.0, 0.1827232399786182]","[0.026750000193715096, 0.05299999937415123, 0.03999999910593033]","[0.0, 0.0, -0.15959754249378824]","[0.03819230571389198, 0.12408497184515, 0.03999999910593033]","[0.0, 0.0, -0.1829954723320542]",0.30061959558732265,33.8501441176714,"(0.0, 0.0, 0.0, 0.0, 0.0, 0.0)",-5.433290843096747,0.020831748867960086,-0.555394099802127,"(0.0, 0.0, 0.0, 0.0, 0.0, 0.0)",-0.37949999689540415,-0.30063779887149056,-33.849658696760244,"(0.0, 0.0, 0.0, 0.0, 0.0, 0.0)",5.433149501288634,-0.02105858889910766,0.5614431891484022,"(0.0, 0.0, 0.0, 0.0, 0.0, 0.0)",0.37943043762158307,False,,,,,False,,,,
3,Open,,,,,,"[-0.026750000193715096, 0.05299999937415123, 0.03999999910593033]","[0.0, -0.0, 0.30061964608852465]","[-0.048070069402456284, 0.12177103012800217, 0.03999999910593033]","[0.0, -0.0, 0.3214513597309629]","[0.026750000193715096, 0.05299999937415123, 0.03999999910593033]","[0.0, 0.0, -0.30063782483534385]","[0.04807132109999657, 0.12177064269781113, 0.03999999910593033]","[0.0, 0.0, -0.32169639446592324]",0.4275576360285904,30.465129705904268,"(0.0, 0.0, 0.0, 0.0, 0.0, 0.0)",-4.896562760502833,0.018748978964657985,-0.49986477679250463,"(0.0, 0.0, 0.0, 0.0, 0.0, 0.0)",-0.3438186216350169,-0.4275740189843415,-30.464692827084228,"(0.0, 0.0, 0.0, 0.0, 0.0, 0.0)",4.8964345239877005,-0.018953134917884834,0.505308955493478,"(0.0, 0.0, 0.0, 0.0, 0.0, 0.0)",0.34375511365495653,False,,,,,False,,,,
4,Open,,,,,,"[-0.026750000193715096, 0.05299999937415123, 0.03999999910593033]","[0.0, -0.0, 0.42755761853039154]","[-0.056604765355587006, 0.1185186430811882, 0.03999999910593033]","[0.0, -0.0, 0.4463066270391506]","[0.026750000193715096, 0.05299999937415123, 0.03999999910593033]","[0.0, 0.0, -0.42757404208311445]","[0.05660583823919296, 0.1185181587934494, 0.03999999910593033]","[0.0, 0.0, -0.4465272228574986]",0.5418018724257314,27.418616735313837,"(0.0, 0.0, 0.0, 0.0, 0.0, 0.0)",-4.412236817968903,0.016874447698417276,-0.44988750389777044,"(0.0, 0.0, 0.0, 0.0, 0.0, 0.0)",-0.3112578673856835,-0.5418166170859073,-27.418223544375806,"(0.0, 0.0, 0.0, 0.0, 0.0, 0.0)",4.412120589674461,-0.017058187988154127,0.4547872631353701,"(0.0, 0.0, 0.0, 0.0, 0.0, 0.0)",0.31119999541872967,False,,,,,False,,,,
5,Open,,,,,,"[-0.026750000193715096, 0.05299999937415123, 0.03999999910593033]","[0.0, -0.0, 0.5418019400761332]","[-0.06387900561094284, 0.11468822509050369, 0.03999999910593033]","[0.0, -0.0, 0.5586763123738882]","[0.026750000193715096, 0.05299999937415123, 0.03999999910593033]","[0.0, 0.0, -0.5418166677071254]","[0.06387991458177567, 0.11468767374753952, 0.03999999910593033]","[0.0, 0.0, -0.5588748551425957]",0.6446216851831583,24.67675506178245,"(0.0, 0.0, 0.0, 0.0, 0.0, 0.0)",-3.975330693632137,0.015187334633278446,-0.4049071356333192,"(0.0, 0.0, 0.0, 0.0, 0.0, 0.0)",-0.2816071653694913,-0.6446349553773166,-24.67640118993823,"(0.0, 0.0, 0.0, 0.0, 0.0, 0.0)",3.975225427671302,-0.01535270083200906,0.409316917474816,"(0.0, 0.0, 0.0, 0.0, 0.0, 0.0)",0.28155450162657786,False,,,,,False,,,,
6,Open,,,,,,"[-0.026750000193715096, 0.05299999937415123, 0.03999999910593033]","[0.0, -0.0, 0.6446216983098856]","[-0.07001452147960663, 0.11055155843496323, 0.03999999910593033]","[0.0, -0.0, 0.6598089287160823]","[0.026750000193715096, 0.05299999937415123, 0.03999999910593033]","[0.0, 0.0, -0.644634967879878]","[0.07001528143882751, 0.11055097728967667, 0.03999999910593033]","[0.0, 0.0, -0.6599877329949964]",0.7371595166648425,22.209079555604205,"(0.0, 0.0, 0.0, 0.0, 0.0, 0.0)",-3.5812948349547464,0.013668901111545678,-0.3644240452158641,"(0.0, 0.0, 0.0, 0.0, 0.0, 0.0)",-0.25464125660078457,-0.737171459839585,-22.20876107094441,"(0.0, 0.0, 0.0, 0.0, 0.0, 0.0)",3.5811995605906057,-0.01381773063402154,0.3683928475170044,"(0.0, 0.0, 0.0, 0.0, 0.0, 0.0)",0.2545933902665499,False,,,,,False,,,,
7,Open,,,,,,"[-0.026750000193715096, 0.05299999937415123, 0.03999999910593033]","[0.0, -0.0, 0.7371595400859692]","[-0.07514750957489014, 0.10630742460489273, 0.03999999910593033]","[0.0, -0.0, 0.7508283868993905]","[0.026750000193715096, 0.05299999937415123, 0.03999999910593033]","[0.0, 0.0, -0.7371714711336782]","[0.07514814287424088, 0.10630684345960617, 0.03999999910593033]","[0.0, 0.0, -0.750989167509555]",0.8204435649983582,19.988171600043785,"(0.0, 0.0, 0.0, 0.0, 0.0, 0.0)",-3.2259980823944012,0.01230228208777883,-0.32798856570404317,"(0.0, 0.0, 0.0, 0.0, 0.0, 0.0)",-0.23014491551259536,-0.8204543138556265,-19.987884963849964,"(0.0, 0.0, 0.0, 0.0, 0.0, 0.0)",3.225911902119173,-0.012436228606816148,0.33156048652929415,"(0.0, 0.0, 0.0, 0.0, 0.0, 0.0)",0.23010145595163894,False,,,,,False,,,,
8,Open,,,,,,"[-0.026750000193715096, 0.05299999937415123, 0.03999999910593033]","[0.0, -0.0, 0.8204435774406766]","[-0.07941428571939468, 0.1020965725183487, 0.03999999910593033]","[0.0, -0.0, 0.8327459142786269]","[0.026750000193715096, 0.05299999937415123, 0.03999999910593033]","[0.0, 0.0, -0.8204543695347751]","[0.07941480726003647, 0.10209600627422333, 0.03999999910593033]","[0.0, 0.0, -0.8328905496331522]",0.8953992084985224,17.9893544400394,"(0.0, 0.0, 0.0, 0.0, 0.0, 0.0)",-2.905692777507757,0.011072298781000885,-0.2951959936267068,"(0.0, 0.0, 0.0, 0.0, 0.0, 0.0)",-0.20791432075989408,-0.8954088824700639,-17.989096467464968,"(0.0, 0.0, 0.0, 0.0, 0.0, 0.0)",2.9056148642503405,-0.011192850601700187,0.29841072122783063,"(0.0, 0.0, 0.0, 0.0, 0.0, 0.0)",0.20787489947010138,False,,,,,False,,,,
9,Open,,,,,,"[-0.026750000193715096, 0.05299999937415123, 0.03999999910593033]","[0.0, -0.0, 0.8953992050914552]","[-0.08294302970170975, 0.09801492840051651, 0.03999999910593033]","[0.0, -0.0, 0.9064715399310761]","[0.026750000193715096, 0.05299999937415123, 0.03999999910593033]","[0.0, 0.0, -0.8954089117450801]","[0.08294346183538437, 0.09801438450813293, 0.03999999910593033]","[0.0, 0.0, -0.9066016844299951]",0.9628592876486701,16.190418996035465,"(0.0, 0.0, 0.0, 0.0, 0.0, 0.0)",-2.616982039675733,0.009965290062605858,-0.26568209241480656,"(0.0, 0.0, 0.0, 0.0, 0.0, 0.0)",-0.18775783729375353,-0.9628679942230576,-16.190186820718473,"(0.0, 0.0, 0.0, 0.0, 0.0, 0.0)",2.6169116334278195,-0.010073786659150813,0.26857534621184953,"(0.0, 0.0, 0.0, 0.0, 0.0, 0.0)",0.187722108909745,False,,,,,False,,,,
10,Open,,,,,,"[-0.026750000193715096, 0.05299999937415123, 0.03999999910593033]","[0.0, -0.0, 0.9628592963772022]","[-0.08584962040185928, 0.09412462264299393, 0.03999999910593033]","[0.0, -0.0, 0.9728246761305416]","[0.026750000193715096, 0.05299999937415123, 0.03999999910593033]","[0.0, 0.0, -0.9628681466677605]","[0.08584997802972794, 0.09412410855293274, 0.03999999910593033]","[0.0, 0.0, -0.9729417790417357]",1.0235733588838032,14.57137709643192,"(0.0, 0.0, 0.0, 0.0, 0.0, 0.0)",-2.356789246056587,0.008968960705874744,-0.23911904561546746,"(0.0, 0.0, 0.0, 0.0, 0.0, 0.0)",-0.16949635495257384,-1.0235811948007518,-14.571168138646623,"(0.0, 0.0, 0.0, 0.0, 0.0, 0.0)",2.3567256501387286,-0.009066607604651448,0.24172297307984775,"(0.0, 0.0, 0.0, 0.0, 0.0, 0.0)",0.16946399753760524,False,,,,,False,,,,
11,Open,,,,,,"[-0.026750000193715096, 0.05299999937415123, 0.03999999910593033]","[0.0, -0.0, 1.0235732790301837]","[-0.08823604136705399, 0.09046287834644318, 0.03999999910593033]","[0.0, -0.0, 1.0325423083164225]","[0.026750000193715096, 0.05299999937415123, 0.03999999910593033]","[0.0, 0.0, -1.0235812274279317]","[0.08823633193969727, 0.09046239405870438, 0.03999999910593033]","[0.0, 0.0, -1.0326479037372749]",1.078216022995423,13.114239386788727,"(0.0, 0.0, 0.0, 0.0, 0.0, 0.0)",-2.1223296975724493,0.008072244810550301,-0.215211814877866,"(0.0, 0.0, 0.0, 0.0, 0.0, 0.0)",-0.1529632973210469,-1.0782230753206767,-13.114051324781958,"(0.0, 0.0, 0.0, 0.0, 0.0, 0.0)",2.122272274708909,-0.008160126984954354,0.21755534872730237,"(0.0, 0.0, 0.0, 0.0, 0.0, 0.0)",0.15293401213466845,False,,,,,False,,,,
12,Open,,,,,,"[-0.026750000193715096, 0.05299999937415123, 0.03999999910593033]","[0.0, -0.0, 1.078215882979514]","[-0.09019032120704651, 0.08704887330532074, 0.03999999910593033]","[0.0, -0.0, 1.0862882926740116]","[0.026750000193715096, 0.05299999937415123, 0.03999999910593033]","[0.0, 0.0, -1.078222977413882]","[0.09019055962562561, 0.08704842627048492, 0.03999999910593033]","[0.0, 0.0, -1.0863833790205233]",1.1273944206958806,11.802815448109852,"(0.0, 0.0, 0.0, 0.0, 0.0, 0.0)",-1.9110844168611731,0.007265182884681461,-0.19369486220852175,"(0.0, 0.0, 0.0, 0.0, 0.0, 0.0)",-0.13800439004610457,-1.127400767788609,-11.802646192303762,"(0.0, 0.0, 0.0, 0.0, 0.0, 0.0)",1.9110325851897776,-0.007344276810443619,0.19580404188257655,"(0.0, 0.0, 0.0, 0.0, 0.0, 0.0)",0.13797790093405082,False,,,,,False,,,,
13,Open,,,,,,"[-0.026750000193715096, 0.05299999937415123, 0.03999999910593033]","[0.0, -0.0, 1.1273943743462997]","[-0.0917874127626419, 0.08388907462358475, 0.03999999910593033]","[0.0, -0.0, 1.1346596248576977]","[0.026750000193715096, 0.05299999937415123, 0.03999999910593033]","[0.0, 0.0, -1.127400718904607]","[0.09178761392831802, 0.08388865739107132, 0.03999999910593033]","[0.0, 0.0, -1.134745111288055]",1.1716549786262926,10.622533903298867,"(0.0, 0.0, 0.0, 0.0, 0.0, 0.0)",-1.7207759982695574,0.00653881121780902,-0.17432920004938585,"(0.0, 0.0, 0.0, 0.0, 0.0, 0.0)",-0.12447725819906867,-1.1716606910097482,-10.622381573073383,"(0.0, 0.0, 0.0, 0.0, 0.0, 0.0)",1.7207292273800263,-0.006609995722787257,0.17622746103752684,"(0.0, 0.0, 0.0, 0.0, 0.0, 0.0)",0.12445331071934837,False,,,,,False,,,,
14,Open,,,,,,"[-0.026750000193715096, 0.05299999937415123, 0.03999999910593033]","[0.0, -0.0, 1.17165497759142]","[-0.09309044480323792, 0.08098116517066956, 0.03999999910593033]","[0.0, -0.0, 1.1781937273122836]","[0.026750000193715096, 0.05299999937415123, 0.03999999910593033]","[0.0, 0.0, -1.1716605985979762]","[0.09309060126543045, 0.08098078519105911, 0.03999999910593033]","[0.0, 0.0, -1.178270796658152]",1.2114894807636634,9.56028051296898,"(0.0, 0.0, 0.0, 0.0, 0.0, 0.0)",-1.549346412635057,0.005885062316220725,-0.15689973638119079,"(0.0, 0.0, 0.0, 0.0, 0.0, 0.0)",-0.11225090666269867,-1.2114946219087734,-9.560143415766044,"(0.0, 0.0, 0.0, 0.0, 0.0, 0.0)",1.5493042197033076,-0.00594912834521185,0.1586081706180975,"(0.0, 0.0, 0.0, 0.0, 0.0, 0.0)",0.11222926703597672,False,,,,,False,,,,
15,Open,,,,,,"[-0.026750000193715096, 0.05299999937415123, 0.03999999910593033]","[0.0, -0.0, 1.2114893406881728]","[-0.09415213763713837, 0.07831703126430511, 0.03999999910593033]","[0.0, -0.0, 1.2173745989650702]","[0.026750000193715096, 0.05299999937415123, 0.03999999910593033]","[0.0, 0.0, -1.2114945655338818]","[0.09415226429700851, 0.07831668108701706, 0.03999999910593033]","[0.0, 0.0, -1.2174436451143456]",1.247340532687297,8.604252461672083,"(0.0, 0.0, 0.0, 0.0, 0.0, 0.0)",-1.3949366588174594,0.00529667529397997,-0.14121288533778104,"(0.0, 0.0, 0.0, 0.0, 0.0, 0.0)",-0.1012051251161189,-1.2473451597178962,-8.604129074189437,"(0.0, 0.0, 0.0, 0.0, 0.0, 0.0)",1.394898604883462,-0.005354334697048719,0.1427504755591516,"(0.0, 0.0, 0.0, 0.0, 0.0, 0.0)",0.1011855790679586,False,,,,,False,,,,
16,Open,,,,,,"[-0.026750000193715096, 0.05299999937415123, 0.03999999910593033]","[0.0, -0.0, 1.2473405247091465]","[-0.09501627087593079, 0.07588484138250351, 0.03999999910593033]","[0.0, -0.0, 1.2526371614229614]","[0.026750000193715096, 0.05299999937415123, 0.03999999910593033]","[0.0, 0.0, -1.2473450561350814]","[0.09501637518405914, 0.07588452845811844, 0.03999999910593033]","[0.0, 0.0, -1.252699591080442]",1.2796064794185673,7.743827215504874,"(0.0, 0.0, 0.0, 0.0, 0.0, 0.0)",-1.2558681481324276,0.004767115224099335,-0.12709441677135241,"(0.0, 0.0, 0.0, 0.0, 0.0, 0.0)",-0.09122984935698081,-1.2796106437461066,-7.743716166770495,"(0.0, 0.0, 0.0, 0.0, 0.0, 0.0)",1.2558338345532607,-0.004819008666073119,0.128478247434144,"(0.0, 0.0, 0.0, 0.0, 0.0, 0.0)",0.09121220090323832,False,,,,,False,,,,
17,Open,,,,,,"[-0.026750000193715096, 0.05299999937415123, 0.03999999910593033]","[0.0, -0.0, 1.279606409124563]","[-0.09571900963783264, 0.0736706405878067, 0.03999999910593033]","[0.0, -0.0, 1.2843736758198352]","[0.026750000193715096, 0.05299999937415123, 0.03999999910593033]","[0.0, 0.0, -1.2796106525936015]","[0.0957190990447998, 0.07367035001516342, 0.03999999910593033]","[0.0, 0.0, -1.2844295613342638]",1.3086458314767107,6.969444493954387,"(0.0, 0.0, 0.0, 0.0, 0.0, 0.0)",-1.1305941221975622,0.00429170208951155,-0.1140991523010686,"(0.0, 0.0, 0.0, 0.0, 0.0, 0.0)",-0.082192919359827,-1.3086495793714958,-6.969344550093446,"(0.0, 0.0, 0.0, 0.0, 0.0, 0.0)",1.1305631934145834,-0.004338405935744441,0.11534465527888274,"(0.0, 0.0, 0.0, 0.0, 0.0, 0.0)",0.08217699569254354,False,,,,,False,,,,
18,Open,,,,,,"[-0.026750000193715096, 0.05299999937415123, 0.03999999910593033]","[0.0, -0.0, 1.308645825919811]","[-0.09629011154174805, 0.0716593861579895, 0.03999999910593033]","[0.0, -0.0, 1.3129373548657892]","[0.026750000193715096, 0.05299999937415123, 0.03999999910593033]","[0.0, 0.0, -1.308649569130343]","[0.09629017859697342, 0.07165912538766861, 0.03999999910593033]","[0.0, 0.0, -1.3129881167123505]",1.3347812483290395,6.272500044558946,"(0.0, 0.0, 0.0, 0.0, 0.0, 0.0)",-1.0178482622338179,0.003863702481573626,-0.10271990590510163,"(0.0, 0.0, 0.0, 0.0, 0.0, 0.0)",-0.07410352518858664,-1.3347846214343462,-6.272410095084102,"(0.0, 0.0, 0.0, 0.0, 0.0, 0.0)",1.0178203769740246,-0.0039057357160976183,0.10384085271523745,"(0.0, 0.0, 0.0, 0.0, 0.0, 0.0)",0.0740891498002037,False,,,,,False,,,,
19,Open,,,,,,"[-0.026750000193715096, 0.05299999937415123, 0.03999999910593033]","[0.0, -0.0, 1.3347813147466918]","[-0.09675397723913193, 0.06983575969934464, 0.03999999910593033]","[0.0, -0.0, 1.3386449621367835]","[0.026750000193715096, 0.05299999937415123, 0.03999999910593033]","[0.0, 0.0, -1.3347844615433213]","[0.0967540368437767, 0.06983552873134613, 0.03999999910593033]","[0.0, 0.0, -1.3386905382854437]",1.3583031234961356,5.645250040103052,"(0.0, 0.0, 0.0, 0.0, 0.0, 0.0)",-0.9162890978823036,0.0034783869891320215,-0.09247571818598516,"(0.0, 0.0, 0.0, 0.0, 0.0, 0.0)",-0.06677007440367574,-1.3583061592909116,-5.645169085575695,"(0.0, 0.0, 0.0, 0.0, 0.0, 0.0)",0.9162639666346021,-0.003516216695348753,0.09348456497972772,"(0.0, 0.0, 0.0, 0.0, 0.0, 0.0)",0.06675710630673855,False,,,,,False,,,,
20,Open,,,,,,"[-0.026750000193715096, 0.05299999937415123, 0.03999999910593033]","[0.0, -0.0, 1.3583030429358363]","[-0.09713058918714523, 0.06818463653326035, 0.03999999910593033]","[0.0, -0.0, 1.3617816714487538]","[0.026750000193715096, 0.05299999937415123, 0.03999999910593033]","[0.0, 0.0, -1.358306171033049]","[0.09713063389062881, 0.06818442046642303, 0.03999999910593033]","[0.0, 0.0, -1.361822351334537]",1.379472811146522,5.0807250360927485,"(0.0, 0.0, 0.0, 0.0, 0.0, 0.0)",-0.8248429295126702,0.003131498553648039,-0.08325322451615583,"(0.0, 0.0, 0.0, 0.0, 0.0, 0.0)",-0.06015531267018523,-1.3794755433618204,-5.080652177018124,"(0.0, 0.0, 0.0, 0.0, 0.0, 0.0)",0.8248202834423316,-0.003165545104486833,0.08416118180686077,"(0.0, 0.0, 0.0, 0.0, 0.0, 0.0)",0.06014361689139186,False,,,,,False,,,,
21,Open,,,,,,"[-0.026750000193715096, 0.05299999937415123, 0.03999999910593033]","[0.0, -0.0, 1.3794728975130914]","[-0.09743624925613403, 0.06669140607118607, 0.03999999910593033]","[0.0, -0.0, 1.382604304378769]","[0.026750000193715096, 0.05299999937415123, 0.03999999910593033]","[0.0, 0.0, -1.379475506721758]","[0.09743628650903702, 0.06669121235609055, 0.03999999910593033]","[0.0, 0.0, -1.3826409668082853]",1.3985255300318697,4.572652532483473,"(0.0, 0.0, 0.0, 0.0, 0.0, 0.0)",-0.7425066286387145,0.0028192047313806493,-0.07495051734417352,"(0.0, 0.0, 0.0, 0.0, 0.0, 0.0)",-0.054190171953983096,-1.3985279890256384,-4.57258695931631,"(0.0, 0.0, 0.0, 0.0, 0.0, 0.0)",0.7424862245436853,-0.0028498464605416357,0.07576767454684734,"(0.0, 0.0, 0.0, 0.0, 0.0, 0.0)",0.0541796259205944,False,,,,,False,,,,
22,Open,,,,,,"[-0.026750000193715096, 0.05299999937415123, 0.03999999910593033]","[0.0, -0.0, 1.398525454133583]","[-0.09768425673246384, 0.0653422400355339, 0.03999999910593033]","[0.0, -0.0, 1.4013447262228373]","[0.026750000193715096, 0.05299999937415123, 0.03999999910593033]","[0.0, 0.0, -1.3985280648022782]","[0.09768428653478622, 0.06534206122159958, 0.03999999910593033]","[0.0, 0.0, -1.4013779844801912]",1.4156729770286829,4.1153872792351285,"(0.0, 0.0, 0.0, 0.0, 0.0, 0.0)",-0.6683758137814145,0.002538055332395241,-0.06747585575649792,"(0.0, 0.0, 0.0, 0.0, 0.0, 0.0)",-0.04881194552870251,-1.4156751901230746,-4.115328263384682,"(0.0, 0.0, 0.0, 0.0, 0.0, 0.0)",0.6683574317692884,-0.002565632738451909,0.06821129330153437,"(0.0, 0.0, 0.0, 0.0, 0.0, 0.0)",0.0488024380394442,False,,,,,False,,,,
23,Open,,,,,,"[-0.026750000193715096, 0.05299999937415123, 0.03999999910593033]","[0.0, -0.0, 1.4156730334745993]","[-0.09788545966148376, 0.06412414461374283, 0.03999999910593033]","[0.0, -0.0, 1.418211036917125]","[0.026750000193715096, 0.05299999937415123, 0.03999999910593033]","[0.0, 0.0, -1.4156752315845986]","[0.09788548201322556, 0.0641239807009697, 0.03999999910593033]","[0.0, 0.0, -1.418240879504808]",1.4311056793258146,3.703848551311612,"(0.0, 0.0, 0.0, 0.0, 0.0, 0.0)",-0.6016352863054336,0.002284944287465684,-0.060746650783093666,"(0.0, 0.0, 0.0, 0.0, 0.0, 0.0)",-0.04396376851645251,-1.431107671110767,-3.7037954370462103,"(0.0, 0.0, 0.0, 0.0, 0.0, 0.0)",0.6016187276545472,-0.0023097638175418747,0.061408541018408244,"(0.0, 0.0, 0.0, 0.0, 0.0, 0.0)",0.043955198772734246,False,,,,,False,,,,
24,Open,,,,,,"[-0.026750000193715096, 0.05299999937415123, 0.03999999910593033]","[0.0, -0.0, 1.4311058207082674]","[-0.09804865717887878, 0.06302504986524582, 0.03999999910593033]","[0.0, -0.0, 1.433390691262394]","[0.026750000193715096, 0.05299999937415123, 0.03999999910593033]","[0.0, 0.0, -1.4311075924426346]","[0.09804867953062057, 0.06302490830421448, 0.03999999910593033]","[0.0, 0.0, -1.433417470845748]",1.4449951113932331,3.333463696180452,"(0.0, 0.0, 0.0, 0.0, 0.0, 0.0)",-0.5415503506795546,0.0020570753203455715,-0.05468855210882702,"(0.0, 0.0, 0.0, 0.0, 0.0, 0.0)",-0.039594115216637325,-1.4449969039996904,-3.3334158933415914,"(0.0, 0.0, 0.0, 0.0, 0.0, 0.0)",0.541535435877482,-0.002079412775410495,0.055284250111531166,"(0.0, 0.0, 0.0, 0.0, 0.0, 0.0)",0.03958639191865308,False,,,,,False,,,,
25,Open,,,,,,"[-0.026750000193715096, 0.05299999937415123, 0.03999999910593033]","[0.0, -0.0, 1.444995076522675]","[-0.09818101674318314, 0.062033817172050476, 0.03999999910593033]","[0.0, -0.0, 1.4470522962768402]","[0.026750000193715096, 0.05299999937415123, 0.03999999910593033]","[0.0, 0.0, -1.4449971061677662]","[0.09818103164434433, 0.06203368678689003, 0.03999999910593033]","[0.0, 0.0, -1.4470761943538692]",1.45749560025391,3.0001173265624064,"(0.0, 0.0, 0.0, 0.0, 0.0, 0.0)",-0.4874589573784058,0.001851931045420989,-0.04923462598189979,"(0.0, 0.0, 0.0, 0.0, 0.0, 0.0)",-0.03565633120497695,-1.4574972135997213,-3.000074304007432,"(0.0, 0.0, 0.0, 0.0, 0.0, 0.0)",0.4874455243270462,-0.0018720346450414762,0.04977075128856451,"(0.0, 0.0, 0.0, 0.0, 0.0, 0.0)",0.03564937171228022,False,,,,,False,,,,
26,Open,,,,,,"[-0.026750000193715096, 0.05299999937415123, 0.03999999910593033]","[0.0, -0.0, 1.4574954921785264]","[-0.09828835725784302, 0.061140209436416626, 0.03999999910593033]","[0.0, -0.0, 1.4593474823067423]","[0.026750000193715096, 0.05299999937415123, 0.03999999910593033]","[0.0, 0.0, -1.4574971848934346]","[0.09828837215900421, 0.061140093952417374, 0.03999999910593033]","[0.0, 0.0, -1.4593694397653831]",1.4687460402285188,2.700105593906164,"(0.0, 0.0, 0.0, 0.0, 0.0, 0.0)",-0.4387645947805427,0.0016672451487475934,-0.044324615201614966,"(0.0, 0.0, 0.0, 0.0, 0.0, 0.0)",-0.032108199676446195,-1.4687474922397492,-2.70006687360669,"(0.0, 0.0, 0.0, 0.0, 0.0, 0.0)",0.4387524971567325,-0.0016853382893528596,0.04480712536526797,"(0.0, 0.0, 0.0, 0.0, 0.0, 0.0)",0.03210192923147444,False,,,,,False,,,,
27,Open,,,,,,"[-0.026750000193715096, 0.05299999937415123, 0.03999999910593033]","[0.0, -0.0, 1.4687462228928074]","[-0.09837540984153748, 0.06033487245440483, 0.03999999910593033]","[0.0, -0.0, 1.4704133245237396]","[0.026750000193715096, 0.05299999937415123, 0.03999999910593033]","[0.0, 0.0, -1.4687474899518769]","[0.09837542474269867, 0.060334768146276474, 0.03999999910593033]","[0.0, 0.0, -1.4704329951986796]",1.478871436205667,2.430095034515549,"(0.0, 0.0, 0.0, 0.0, 0.0, 0.0)",-0.394929862139441,0.0015009773446580906,-0.03990427298148066,"(0.0, 0.0, 0.0, 0.0, 0.0, 0.0)",-0.028911540991871522,-1.4788727430157742,-2.430060186246021,"(0.0, 0.0, 0.0, 0.0, 0.0, 0.0)",0.39491896790015035,-0.001517261081966714,0.04033852977267494,"(0.0, 0.0, 0.0, 0.0, 0.0, 0.0)",0.02890589200411927,False,,,,,False,,,,
28,Open,,,,,,"[-0.026750000193715096, 0.05299999937415123, 0.03999999910593033]","[0.0, -0.0, 1.4788714352834713]","[-0.09844600409269333, 0.05960927531123161, 0.03999999910593033]","[0.0, -0.0, 1.480372508787761]","[0.026750000193715096, 0.05299999937415123, 0.03999999910593033]","[0.0, 0.0, -1.4788727099725336]","[0.09844601899385452, 0.05960918217897415, 0.03999999910593033]","[0.0, 0.0, -1.4803900544382056]",1.4879842925851003,2.1870855310639947,"(0.0, 0.0, 0.0, 0.0, 0.0, 0.0)",-0.3554706611703565,0.001351290830885638,-0.035924763305388616,"(0.0, 0.0, 0.0, 0.0, 0.0, 0.0)",-0.026031844038894282,-1.487985468714197,-2.1870541676214206,"(0.0, 0.0, 0.0, 0.0, 0.0, 0.0)",0.3554608511915877,-0.001365946114079445,0.03631559229294455,"(0.0, 0.0, 0.0, 0.0, 0.0, 0.0)",0.026026755426892093,False,,,,,False,,,,
29,Close,,,"(3.819349109750643e-09, 0.16999994350316286, 7.914305593764796e-05)","(1.5700606283751846, 1.2357610516186277e-06, -4.058049624060407e-09)",,"[-0.026750000193715096, 0.05299999937415123, 0.03999999910593033]","[0.0, -0.0, 1.4879842849605203]","[-0.09850326180458069, 0.05895565450191498, 0.03999999910593033]","[0.0, -0.0, 1.4893357278409396]","[0.026750000193715096, 0.05299999937415123, 0.03999999910593033]","[0.0, 0.0, -1.4879853833286059]","[0.09850326925516129, 0.05895556882023811, 0.03999999910593033]","[0.0, 0.0, -1.4893513332680077]",1.4961858633265903,1.9683769779575933,"(0.0, 0.0, 0.0, 0.0, 0.0, 0.0)",-0.31995094896823073,0.0012165319928285922,-0.03234212113369103,"(0.0, 0.0, 0.0, 0.0, 0.0, 0.0)",-0.02343792779000599,-1.4961869218427772,-1.9683487508592754,"(0.0, 0.0, 0.0, 0.0, 0.0, 0.0)",0.31994211580738524,-0.0012297216752996233,0.03269386530715718,"(0.0, 0.0, 0.0, 0.0, 0.0, 0.0)",0.02343334437795369,False,,,,,False,,,,
30,Close,,,"(1.09441459674075e-09, 0.16999988769159868, 0.0001519632082907279)","(1.5701173533571526, -2.5467641220651055e-06, -4.573996600559749e-08)",,"[-0.026750000193715096, 0.05299999937415123, 0.03999999910593033]","[0.0, -0.0, 1.4961860174198076]","[-0.09854969382286072, 0.05836696922779083, 0.03999999910593033]","[0.0, -0.0, 1.4974025341106605]","[0.026750000193715096, 0.05299999937415123, 0.03999999910593033]","[0.0, 0.0, -1.4961870219527165]","[0.09854969382286072, 0.05836689472198486, 0.03999999910593033]","[0.0, 0.0, -1.4974167044724178]",1.4065672769939312,-21.50846071983817,"(0.0, 0.0, 0.0, 0.0, 0.0, 0.0)",-36.83524610171859,-0.08890468746940376,-21.629092670935766,"(0.0, 0.0, 0.0, 0.0, 0.0, 0.0)",-4.936581214831643,-1.4065682296584996,21.508486124226657,"(0.0, 0.0, 0.0, 0.0, 0.0, 0.0)",36.83523814678565,0.0888928167555427,21.629409223402156,"(0.0, 0.0, 0.0, 0.0, 0.0, 0.0)",4.936577085092772,False,,,,,False,,,,
31,Close,,,"(3.541182821644653e-08, 0.1699998011443987, 0.00021906657187154062)","(1.570205104748116, 3.3042409171564205e-05, -8.114212850492596e-08)",,"[-0.026750000193715096, 0.05299999937415123, 0.03999999910593033]","[0.0, -0.0, 1.4065674382065954]","[-0.0977812185883522, 0.06477140635251999, 0.03999999910593033]","[0.0, -0.0, 1.3176625934179576]","[0.026750000193715096, 0.05299999937415123, 0.03999999910593033]","[0.0, 0.0, -1.4065680331882469]","[0.0977812260389328, 0.06477133929729462, 0.03999999910593033]","[0.0, 0.0, -1.3176753491400532]",1.3259105492945382,-19.357614647854348,"(0.0, 0.0, 0.0, 0.0, 0.0, 0.0)",3.3395407019063446,-0.17001473426920377,-19.466411231952,"(0.0, 0.0, 0.0, 0.0, 0.0, 0.0)",0.4376834422569755,-1.3259114066926496,19.35763751180399,"(0.0, 0.0, 0.0, 0.0, 0.0, 0.0)",-3.3395473112045253,0.1700040506304986,19.466696129989415,"(0.0, 0.0, 0.0, 0.0, 0.0, 0.0)",-0.43768664266468643,False,,,,,False,,,,
32,Close,,,"(3.361538948490201e-08, 0.16999974452330968, 0.00028077538773600935)","(1.5702911774727688, 7.027968338074274e-05, -7.017997684986258e-06)",,"[-0.026750000193715096, 0.05299999937415123, 0.03999999910593033]","[0.0, -0.0, 1.325910602539969]","[-0.09660188108682632, 0.07045608013868332, 0.03999999910593033]","[0.0, -0.0, 1.1558959321658662]","[0.026750000193715096, 0.05299999937415123, 0.03999999910593033]","[0.0, 0.0, -1.3259115331240872]","[0.09660189598798752, 0.07045602053403854, 0.03999999910593033]","[0.0, 0.0, -1.1559073716167563]",1.2533194943650845,-17.42185318306892,"(0.0, 0.0, 0.0, 0.0, 0.0, 0.0)",3.0100864599566086,-0.2430137284658432,-17.519758607193467,"(0.0, 0.0, 0.0, 0.0, 0.0, 0.0)",0.39699812510351973,-1.2533202660233846,17.42187376062359,"(0.0, 0.0, 0.0, 0.0, 0.0, 0.0)",-3.0100924602349655,0.24300411319445853,17.52001501535039,"(0.0, 0.0, 0.0, 0.0, 0.0, 0.0)",-0.39700105403357716,False,,,,,False,,,,
33,Close,,,"(1.2478111664315067e-07, 0.16999960627903704, 0.000337513976604643)","(1.5703757790333803, 0.0001088681261817636, -5.122611399447184e-06)",,"[-0.026750000193715096, 0.05299999937415123, 0.03999999910593033]","[0.0, -0.0, 1.2533194489161892]","[-0.0951518788933754, 0.07547627389431, 0.03999999910593033]","[0.0, -0.0, 1.0103057011386807]","[0.026750000193715096, 0.05299999937415123, 0.03999999910593033]","[0.0, 0.0, -1.2533201846969224]","[0.09515189379453659, 0.07547622174024582, 0.03999999910593033]","[0.0, 0.0, -1.010316110149499]",1.1879875449285762,-15.679667864762028,"(0.0, 0.0, 0.0, 0.0, 0.0, 0.0)",2.712712783767229,-0.30871235561933186,-15.767670516837281,"(0.0, 0.0, 0.0, 0.0, 0.0, 0.0)",0.3597856734528228,-1.1879882394210461,15.679686384561233,"(0.0, 0.0, 0.0, 0.0, 0.0, 0.0)",-2.712718226071338,0.30870370187508567,15.767901283350515,"(0.0, 0.0, 0.0, 0.0, 0.0, 0.0)",-0.35978834883250516,False,,,,,False,,,,
34,Close,,,"(1.2869376016944667e-07, 0.16999954011037416, 0.00038973303114976833)","(1.5704582297133343, 0.0001496263682483943, -9.931543136061158e-06)",,"[-0.026750000193715096, 0.05299999937415123, 0.03999999910593033]","[0.0, -0.0, 1.1879876003522736]","[-0.09353857487440109, 0.07989397644996643, 0.03999999910593033]","[0.0, -0.0, 0.8792752425767008]","[0.026750000193715096, 0.05299999937415123, 0.03999999910593033]","[0.0, 0.0, -1.1879882623869136]","[0.09353859722614288, 0.07989392429590225, 0.03999999910593033]","[0.0, 0.0, -0.8792844680170303]",1.1291887904356523,-14.1117010783017,"(0.0, 0.0, 0.0, 0.0, 0.0, 0.0)",2.44436472036771,-0.36784112005739866,-14.190903465136039,"(0.0, 0.0, 0.0, 0.0, 0.0, 0.0)",0.3258007578595482,-1.1291894154788755,14.111717746120975,"(0.0, 0.0, 0.0, 0.0, 0.0, 0.0)",-2.444369652349295,0.3678333316875771,14.191111154997946,"(0.0, 0.0, 0.0, 0.0, 0.0, 0.0)",-0.32580319741325486,False,,,,,False,,,,
35,Close,,,"(2.2147778895778094e-07, 0.169999403724105, 0.00043775502472391954)","(1.5705392813318275, 0.0001916771605813282, -8.19762937926826e-06)",,"[-0.026750000193715096, 0.05299999937415123, 0.03999999910593033]","[0.0, -0.0, 1.1291888000608494]","[-0.09184273332357407, 0.08377231657505035, 0.03999999910593033]","[0.0, -0.0, 0.7613476921786614]","[0.026750000193715096, 0.05299999937415123, 0.03999999910593033]","[0.0, 0.0, -1.1291894580384154]","[0.09184275567531586, 0.08377227932214737, 0.03999999910593033]","[0.0, 0.0, -0.7613561373098183]",1.0762699113920273,-12.700530970470014,"(0.0, 0.0, 0.0, 0.0, 0.0, 0.0)",2.202305891359772,-0.4210570080516588,-12.77181311862243,"(0.0, 0.0, 0.0, 0.0, 0.0, 0.0)",0.2948453788489373,-1.0762704739309281,12.700545971507374,"(0.0, 0.0, 0.0, 0.0, 0.0, 0.0)",-2.2023103576802145,0.4210499985188194,12.77200003949815,"(0.0, 0.0, 0.0, 0.0, 0.0, 0.0)",-0.2948476002056522,False,,,,,False,,,,
36,Close,,,"(2.1912693722736075e-07, 0.16999934361709654, 0.000481956449276018)","(1.5706184388641253, 0.00023565575873296478, -1.2845786801691941e-05)",,"[-0.026750000193715096, 0.05299999937415123, 0.03999999910593033]","[0.0, -0.0, 1.0762698553554748]","[-0.09012393653392792, 0.08717226982116699, 0.03999999910593033]","[0.0, -0.0, 0.6552128934948661]","[0.026750000193715096, 0.05299999937415123, 0.03999999910593033]","[0.0, 0.0, -1.0762704893583]","[0.09012395888566971, 0.08717223256826401, 0.03999999910593033]","[0.0, 0.0, -0.6552204147476549]",1.0286429202528247,-11.430477873408655,"(0.0, 0.0, 0.0, 0.0, 0.0, 0.0)",1.9840011930578276,-0.46895130724721834,-11.494631806934295,"(0.0, 0.0, 0.0, 0.0, 0.0, 0.0)",0.26667684533441977,-1.0286434265378352,11.430491374342276,"(0.0, 0.0, 0.0, 0.0, 0.0, 0.0)",-1.984005235051249,0.4689449986676629,11.494800035722442,"(0.0, 0.0, 0.0, 0.0, 0.0, 0.0)",-0.26667886541975433,False,,,,,False,,,,
37,Close,,,"(3.1131510586280866e-07, 0.1699992121070205, 0.0005226007520893923)","(1.5706964879884222, 0.0002806415891397876, -1.1307759452448239e-05)",,"[-0.026750000193715096, 0.05299999937415123, 0.03999999910593033]","[0.0, -0.0, 1.0286429345076582]","[-0.0884251669049263, 0.09015069156885147, 0.03999999910593033]","[0.0, -0.0, 0.5596916647508587]","[0.026750000193715096, 0.05299999937415123, 0.03999999910593033]","[0.0, 0.0, -1.0286435120859125]","[0.08842518925666809, 0.09015065431594849, 0.03999999910593033]","[0.0, 0.0, -0.5596984028120249]",0.9857786282275423,-10.287430086067793,"(0.0, 0.0, 0.0, 0.0, 0.0, 0.0)",1.787161045327472,-0.5120561765231523,-10.345168626224153,"(0.0, 0.0, 0.0, 0.0, 0.0, 0.0)",0.24107512437447856,-0.9857790838840517,10.28744223690805,"(0.0, 0.0, 0.0, 0.0, 0.0, 0.0)",-1.787164701188607,0.5120504988015524,10.345320032133483,"(0.0, 0.0, 0.0, 0.0, 0.0, 0.0)",-0.24107695935135354,False,,,,,False,,,,
38,Close,,,"(3.0991842655903425e-07, 0.169999153087261, 0.0005600347082356065)","(1.570772558536085, 0.00032764712563817383, -1.5390013302753274e-05)",,"[-0.026750000193715096, 0.05299999937415123, 0.03999999910593033]","[0.0, -0.0, 0.9857786218799983]","[-0.08677656948566437, 0.09275941550731659, 0.03999999910593033]","[0.0, -0.0, 0.4737224893055005]","[0.026750000193715096, 0.05299999937415123, 0.03999999910593033]","[0.0, 0.0, -0.9857791586690391]","[0.08677658438682556, 0.0927593931555748, 0.03999999910593033]","[0.0, 0.0, -0.47372859204714834]",0.9472007654041954,-9.258687077603232,"(0.0, 0.0, 0.0, 0.0, 0.0, 0.0)",1.6097085175776904,-0.550850558870837,-9.310651763444346,"(0.0, 0.0, 0.0, 0.0, 0.0, 0.0)",0.21783104241587867,-0.9472011754950539,9.258698013359455,"(0.0, 0.0, 0.0, 0.0, 0.0, 0.0)",-1.609711822487034,0.5508454489213972,9.310788028762744,"(0.0, 0.0, 0.0, 0.0, 0.0, 0.0)",-0.21783270758412676,False,,,,,False,,,,
39,Close,,,"(4.0106165104263135e-07, 0.169999026405202, 0.0005944331352702725)","(1.570848092729261, 0.0003750986118602944, -1.4060502423520339e-05)",,"[-0.026750000193715096, 0.05299999937415123, 0.03999999910593033]","[0.0, -0.0, 0.9472008140782049]","[-0.08519845455884933, 0.09504495561122894, 0.03999999910593033]","[0.0, -0.0, 0.39635019782230363]","[0.026750000193715096, 0.05299999937415123, 0.03999999910593033]","[0.0, 0.0, -0.9472011867132297]","[0.08519846946001053, 0.09504493325948715, 0.03999999910593033]","[0.0, 0.0, -0.3963557154153113]",0.9124806888632406,-8.332818369829143,"(0.0, 0.0, 0.0, 0.0, 0.0, 0.0)",1.4497611633824499,-0.5857655029837533,-8.379586587099913,"(0.0, 0.0, 0.0, 0.0, 0.0, 0.0)",0.19674731686213875,-0.9124810579450133,8.332828212009746,"(0.0, 0.0, 0.0, 0.0, 0.0, 0.0)",-1.4497641496546352,0.5857609040292575,8.379709225886469,"(0.0, 0.0, 0.0, 0.0, 0.0, 0.0)",-0.1967488266016999,False,,,,,False,,,,
40,Close,,,"(3.70657372146465e-07, 0.16999903038777142, 0.0006260749884053443)","(1.5708440552876382, 0.00034508120830118214, -1.4055585689260766e-05)",,"[-0.026750000193715096, 0.05299999937415123, 0.03999999910593033]","[0.0, -0.0, 0.9124807402838544]","[-0.08370371162891388, 0.09704854339361191, 0.03999999910593033]","[0.0, -0.0, 0.32671521193417863]","[0.026750000193715096, 0.05299999937415123, 0.03999999910593033]","[0.0, 0.0, -0.9124811663733811]","[0.08370373398065567, 0.09704852104187012, 0.03999999910593033]","[0.0, 0.0, -0.32672018954414506]",0.8812326199769166,-7.499536532717775,"(0.0, 0.0, 0.0, 0.0, 0.0, 0.0)",1.3056085801322186,-0.6171891619197363,-7.541678144635914,"(0.0, 0.0, 0.0, 0.0, 0.0, 0.0)",0.17763358199117588,-0.881232952150512,7.499545390680321,"(0.0, 0.0, 0.0, 0.0, 0.0, 0.0)",-1.305611277336412,0.617185022862301,7.541788519930457,"(0.0, 0.0, 0.0, 0.0, 0.0, 0.0)",-0.17763494969582577,False,,,,,False,,,,
41,Close,,,"(3.427044292909036e-07, 0.1699990340506735, 0.0006551854712062516)","(1.5708403346470328, 0.0003174583455114455, -1.4051356821419932e-05)",,"[-0.026750000193715096, 0.05299999937415123, 0.03999999910593033]","[0.0, -0.0, 0.8812326035131218]","[-0.08229970186948776, 0.09880644828081131, 0.03999999910593033]","[0.0, -0.0, 0.26404346611112495]","[0.026750000193715096, 0.05299999937415123, 0.03999999910593033]","[0.0, 0.0, -0.8812328730718287]","[0.08229971677064896, 0.09880642592906952, 0.03999999910593033]","[0.0, 0.0, -0.2640479150919315]",0.8531093579792249,-6.749582879446001,"(0.0, 0.0, 0.0, 0.0, 0.0, 0.0)",1.1757252455852583,-0.6454704345862542,-6.78750543996429,"(0.0, 0.0, 0.0, 0.0, 0.0, 0.0)",0.16033509317806058,-0.8531096569354608,6.7495908516122896,"(0.0, 0.0, 0.0, 0.0, 0.0, 0.0)",-1.1757276808922346,0.645466709436021,6.787604777692787,"(0.0, 0.0, 0.0, 0.0, 0.0, 0.0)",-0.16033633143309114,False,,,,,False,,,,
42,Close,,,"(3.170084497545684e-07, 0.16999903740907119, 0.0006819671107693073)","(1.570836911771951, 0.00029204530032808255, -1.4047683015968837e-05)",,"[-0.026750000193715096, 0.05299999937415123, 0.03999999910593033]","[0.0, -0.0, 0.8531093567174074]","[-0.08098968118429184, 0.10035036504268646, 0.03999999910593033]","[0.0, -0.0, 0.2076389231904772]","[0.026750000193715096, 0.05299999937415123, 0.03999999910593033]","[0.0, 0.0, -0.8531096230941355]","[0.08098969608545303, 0.10035035014152527, 0.03999999910593033]","[0.0, 0.0, -0.2076429742570099]",0.8277984221813024,-6.0746245915014,"(0.0, 0.0, 0.0, 0.0, 0.0, 0.0)",1.0586966037970245,-0.6709235615380169,-6.1087504684230565,"(0.0, 0.0, 0.0, 0.0, 0.0, 0.0)",0.14467321668423558,-0.8277986912419147,6.074631766451059,"(0.0, 0.0, 0.0, 0.0, 0.0, 0.0)",-1.0586988018726124,0.6709202089041267,6.108839872345364,"(0.0, 0.0, 0.0, 0.0, 0.0, 0.0)",-0.14467433700617466,False,,,,,False,,,,
43,Close,,,"(2.93385406087929e-07, 0.16999904048782613, 0.0007066062149797113)","(1.5708337628331848, 0.0002686652895538331, -1.4044478861914954e-05)",,"[-0.026750000193715096, 0.05299999937415123, 0.03999999910593033]","[0.0, -0.0, 0.8277984323872327]","[-0.07977395504713058, 0.10170790553092957, 0.03999999910593033]","[0.0, -0.0, 0.15687485461046338]","[0.026750000193715096, 0.05299999937415123, 0.03999999910593033]","[0.0, 0.0, -0.8277987052452376]","[0.07977396249771118, 0.10170789808034897, 0.03999999910593033]","[0.0, 0.0, -0.15687847762667875]",0.8050185799631722,-5.467162132351259,"(0.0, 0.0, 0.0, 0.0, 0.0, 0.0)",0.9532674830029981,-0.6938313591081322,-5.497871416827678,"(0.0, 0.0, 0.0, 0.0, 0.0, 0.0)",0.1305069121449798,-0.8050188221177232,5.467168589805953,"(0.0, 0.0, 0.0, 0.0, 0.0, 0.0)",-0.9532694663734236,0.6938283417388244,5.49795188032743,"(0.0, 0.0, 0.0, 0.0, 0.0, 0.0)",-0.13050792520753388,False,,,,,False,,,,
44,Close,,,"(2.716665250887489e-07, 0.16999904330973556, 0.0007292741870466809)","(1.5708308659078907, 0.0002471556717650467, -1.4041672069322908e-05)",,"[-0.026750000193715096, 0.05299999937415123, 0.03999999910593033]","[0.0, -0.0, 0.8050185839979388]","[-0.07865073531866074, 0.10290304571390152, 0.03999999910593033]","[0.0, -0.0, 0.11118723016400785]","[0.026750000193715096, 0.05299999937415123, 0.03999999910593033]","[0.0, 0.0, -0.8050187952188965]","[0.07865074276924133, 0.10290303081274033, 0.03999999910593033]","[0.0, 0.0, -0.11119048022217565]",0.784516721966855,-4.920445919116134,"(0.0, 0.0, 0.0, 0.0, 0.0, 0.0)",0.8582975670224743,-0.7144483618360385,-4.948080654697517,"(0.0, 0.0, 0.0, 0.0, 0.0, 0.0)",0.11770004006048959,-0.784516939905951,4.92045173082536,"(0.0, 0.0, 0.0, 0.0, 0.0, 0.0)",-0.8582993561887614,0.7144456462047399,4.948153071819748,"(0.0, 0.0, 0.0, 0.0, 0.0, 0.0)",-0.11770095568272418,False,,,,,False,,,,
45,Close,,,"(2.51696986958339e-07, 0.1699990458957082, 0.0007501287178850499)","(1.5708282008276007, 0.000227366816649173, -1.4039201474218165e-05)",,"[-0.026750000193715096, 0.05299999937415123, 0.03999999910593033]","[0.0, -0.0, 0.7845167193080385]","[-0.07761679589748383, 0.10395654290914536, 0.03999999910593033]","[0.0, -0.0, 0.07006835685702544]","[0.026750000193715096, 0.05299999937415123, 0.03999999910593033]","[0.0, 0.0, -0.7845169946958266]","[0.07761680334806442, 0.10395653545856476, 0.03999999910593033]","[0.0, 0.0, -0.0700712989357174]",0.7660650497701694,-4.42840132720452,"(0.0, 0.0, 0.0, 0.0, 0.0, 0.0)",0.7727568402429666,-0.7330036506599046,-4.453269317727849,"(0.0, 0.0, 0.0, 0.0, 0.0, 0.0)",0.106127525293464,-0.7660652459153559,4.428406557742824,"(0.0, 0.0, 0.0, 0.0, 0.0, 0.0)",-0.7727584538402424,0.7330012065927102,4.453334493112861,"(0.0, 0.0, 0.0, 0.0, 0.0, 0.0)",-0.10612835248484857,False,,,,,False,,,,
46,Close,,,"(2.3333473952068603e-07, 0.16999904826492518, 0.0007693148831029557)","(1.5708257490378412, 0.00020916106414766092, -1.403701531280991e-05)",,"[-0.026750000193715096, 0.05299999937415123, 0.03999999910593033]","[0.0, -0.0, 0.7660649977175382]","[-0.07666795700788498, 0.10488639771938324, 0.03999999910593033]","[0.0, -0.0, 0.03306140223906952]","[0.026750000193715096, 0.05299999937415123, 0.03999999910593033]","[0.0, 0.0, -0.7660653079646047]","[0.07666796445846558, 0.10488638281822205, 0.03999999910593033]","[0.0, 0.0, -0.033064041138401834]",0.7494585447931524,-3.985561194484066,"(0.0, 0.0, 0.0, 0.0, 0.0, 0.0)",0.6957152666369016,-0.7497033982890566,-4.007939430996486,"(0.0, 0.0, 0.0, 0.0, 0.0, 0.0)",0.09567473522853766,-0.7494587213238203,3.985565901968542,"(0.0, 0.0, 0.0, 0.0, 0.0, 0.0)",-0.6957167215859875,0.7497011986294615,4.007998088820328,"(0.0, 0.0, 0.0, 0.0, 0.0, 0.0)",-0.09567548223716564,False,,,,,False,,,,
47,Close,,,"(2.1644941757498085e-07, 0.1699990504349868, 0.0007869661522299996)","(1.5708234934689855, 0.0001924117668631307, -1.4035069780186692e-05)",,"[-0.026750000193715096, 0.05299999937415123, 0.03999999910593033]","[0.0, -0.0, 0.7494586090384826]","[-0.07579945772886276, 0.10570816695690155, 0.03999999910593033]","[0.0, 0.0, -0.000244853492999894]","[0.026750000193715096, 0.05299999937415123, 0.03999999910593033]","[0.0, 0.0, -0.7494587081400255]","[0.07579946517944336, 0.10570815205574036, 0.03999999910593033]","[0.0, -0.0, 0.00024247731079752444]",0.7345126903138371,-3.587005075035659,"(0.0, 0.0, 0.0, 0.0, 0.0, 0.0)",0.626333365984163,-0.764733160038395,-3.6071428198412123,"(0.0, 0.0, 0.0, 0.0, 0.0, 0.0)",0.08623682787405348,-0.7345128491914382,3.587009311771688,"(0.0, 0.0, 0.0, 0.0, 0.0, 0.0)",-0.6263346776346612,0.7647311803455538,3.607195611862134,"(0.0, 0.0, 0.0, 0.0, 0.0, 0.0)",-0.08623750223625977,False,,,,,False,,,,
48,Close,,,"(1.9902478529523268e-07, 0.16999905216510106, 0.0008031506134026157)","(1.5708213694672628, 0.00017518801369688713, -1.4031269556480368e-05)",,"[-0.026750000193715096, 0.05299999937415123, 0.03999999910593033]","[0.0, -0.0, 0.7345126628086843]","[-0.07500623911619186, 0.10643533617258072, 0.03999999910593033]","[0.0, 0.0, -0.03022046980229406]","[0.026750000193715096, 0.05299999937415123, 0.03999999910593033]","[0.0, 0.0, -0.7345128981556924]","[0.07500624656677246, 0.10643532872200012, 0.03999999910593033]","[0.0, -0.0, 0.03021832986745902]",0.7210614212824534,-3.228304567532092,"(0.0, 0.0, 0.0, 0.0, 0.0, 0.0)",0.5638237707840803,-0.7782610712626786,-3.246698693828069,"(0.0, 0.0, 0.0, 0.0, 0.0, 0.0)",0.07768823801248652,-0.7210615642722944,3.2283083805945183,"(0.0, 0.0, 0.0, 0.0, 0.0, 0.0)",-0.5638249528147553,0.7782592895487316,3.2467462087626835,"(0.0, 0.0, 0.0, 0.0, 0.0, 0.0)",-0.07768884636877696,False,,,,,False,,,,
49,Close,,,"(1.829952775457341e-07, 0.16999905372445717, 0.0008180403399689366)","(1.5708194143492393, 0.00015934185659229473, -1.4027683329641553e-05)",,"[-0.026750000193715096, 0.05299999937415123, 0.03999999910593033]","[0.0, -0.0, 0.7210614193238458]","[-0.07428312301635742, 0.10707958787679672, 0.03999999910593033]","[0.0, 0.0, -0.05719964992344959]","[0.026750000193715096, 0.05299999937415123, 0.03999999910593033]","[0.0, 0.0, -0.7210615729227128]","[0.07428313046693802, 0.10707958042621613, 0.03999999910593033]","[0.0, -0.0, 0.05719773186848648]",0.7089552791542081,-2.905474110778883,"(0.0, 0.0, 0.0, 0.0, 0.0, 0.0)",0.5075985242705942,-0.7904360705014085,-2.921999817295172,"(0.0, 0.0, 0.0, 0.0, 0.0, 0.0)",0.07003713951344083,-0.7089554078450649,2.905477542535066,"(0.0, 0.0, 0.0, 0.0, 0.0, 0.0)",-0.5075995897946305,0.7904344669675306,2.9220425805117625,"(0.0, 0.0, 0.0, 0.0, 0.0, 0.0)",-0.07003768863744474,False,,,,,False,,,,
50,Close,,,"(1.682467379846132e-07, 0.1699990551245469, 0.0008317388481303276)","(1.570817615731277, 0.00014476218910829968, -1.4024269510216624e-05)",,"[-0.026750000193715096, 0.05299999937415123, 0.03999999910593033]","[0.0, -0.0, 0.7089552779168017]","[-0.07362496107816696, 0.10765105485916138, 0.03999999910593033]","[0.0, 0.0, -0.08148078223376223]","[0.026750000193715096, 0.05299999937415123, 0.03999999910593033]","[0.0, 0.0, -0.7089554724698194]","[0.07362496852874756, 0.10765104740858078, 0.03999999910593033]","[0.0, -0.0, 0.0814790502780401]",0.6980597512387873,-2.6149266997009946,"(0.0, 0.0, 0.0, 0.0, 0.0, 0.0)",0.45693917814201784,-0.8013934602632394,-2.6297735428394082,"(0.0, 0.0, 0.0, 0.0, 0.0, 0.0)",0.06310201359777694,-0.6980598670605584,2.614929788281559,"(0.0, 0.0, 0.0, 0.0, 0.0, 0.0)",-0.45694013827892466,0.8013920170905735,2.6298120295302843,"(0.0, 0.0, 0.0, 0.0, 0.0, 0.0)",-0.06310250889925509,False,,,,,False,,,,
51,Close,,,"(1.546756367802499e-07, 0.16999905637827734, 0.0008443414385910609)","(1.5708159610857961, 0.00013134778772512943, -1.402100024143693e-05)",,"[-0.026750000193715096, 0.05299999937415123, 0.03999999910593033]","[0.0, -0.0, 0.6980597686270504]","[-0.07302673906087875, 0.10815852880477905, 0.03999999910593033]","[0.0, 0.0, -0.10333370902653251]","[0.026750000193715096, 0.05299999937415123, 0.03999999910593033]","[0.0, 0.0, -0.6980598246378259]","[0.07302674651145935, 0.10815852135419846, 0.03999999910593033]","[0.0, -0.0, 0.10333215264877679]",0.6882537761149086,-2.3534340297308955,"(0.0, 0.0, 0.0, 0.0, 0.0, 0.0)",0.41132662822933225,-0.8112550122446371,-2.3667724755354502,"(0.0, 0.0, 0.0, 0.0, 0.0, 0.0)",0.056847326346645,-0.6882538803545026,2.353436809453404,"(0.0, 0.0, 0.0, 0.0, 0.0, 0.0)",-0.4113274932960819,0.8112537133962935,2.3668071133728046,"(0.0, 0.0, 0.0, 0.0, 0.0, 0.0)",-0.0568477730004364,False,,,,,False,,,,
52,Close,,,"(1.4218689550358636e-07, 0.1699990574974972, 0.0008559357877458743)","(1.5708144388885392, 0.00011900551991941484, -1.4017852050493115e-05)",,"[-0.026750000193715096, 0.05299999937415123, 0.03999999910593033]","[0.0, -0.0, 0.6882538042795985]","[-0.07248363643884659, 0.10860966145992279, 0.03999999910593033]","[0.0, 0.0, -0.12300123728040792]","[0.026750000193715096, 0.05299999937415123, 0.03999999910593033]","[0.0, 0.0, -0.688253900607872]","[0.07248364388942719, 0.1086096540093422, 0.03999999910593033]","[0.0, -0.0, 0.12299984676553348]",0.6794283985034177,-2.118090626757806,"(0.0, 0.0, 0.0, 0.0, 0.0, 0.0)",0.3702598465395096,-0.8201303199370257,-2.1300738461732434,"(0.0, 0.0, 0.0, 0.0, 0.0, 0.0)",0.051207533272865695,-0.6794284923190523,2.1180931285080637,"(0.0, 0.0, 0.0, 0.0, 0.0, 0.0)",-0.37026062586363284,0.8201291509798778,2.130105020060234,"(0.0, 0.0, 0.0, 0.0, 0.0, 0.0)",-0.051207935975855504,False,,,,,False,,,,
53,Close,,,"(1.3069318416839e-07, 0.16999905849308636, 0.0008666025576372722)","(1.5708130385376784, 0.00010764969663878531, -1.401480516953977e-05)",,"[-0.026750000193715096, 0.05299999937415123, 0.03999999910593033]","[0.0, -0.0, 0.6794284238724229]","[-0.07199108600616455, 0.10901110619306564, 0.03999999910593033]","[0.0, 0.0, -0.14070193198542613]","[0.026750000193715096, 0.05299999937415123, 0.03999999910593033]","[0.0, 0.0, -0.6794284800706577]","[0.07199109345674515, 0.10901109874248505, 0.03999999910593033]","[0.0, -0.0, 0.1407006814892172]",0.6714855586530759,-1.9062815640820263,"(0.0, 0.0, 0.0, 0.0, 0.0, 0.0)",0.33328720146674756,-0.82811801654313,-1.9170471854650495,"(0.0, 0.0, 0.0, 0.0, 0.0, 0.0)",0.0461231568532664,-0.6714856430871471,1.9062838156572566,"(0.0, 0.0, 0.0, 0.0, 0.0, 0.0)",-0.33328790347714454,0.8281169644874314,1.917075241812861,"(0.0, 0.0, 0.0, 0.0, 0.0, 0.0)",-0.04612351986457081,False,,,,,False,,,,
54,Close,,,"(1.201142787701026e-07, 0.1699990593750365, 0.0008764159571233717)","(1.5708117502799854, 9.720147739875066e-05, -1.4011842957469135e-05)",,"[-0.026750000193715096, 0.05299999937415123, 0.03999999910593033]","[0.0, -0.0, 0.6714856028191667]","[-0.07154478132724762, 0.10936867445707321, 0.03999999910593033]","[0.0, 0.0, -0.1566324602805662]","[0.026750000193715096, 0.05299999937415123, 0.03999999910593033]","[0.0, 0.0, -0.6714856028191667]","[0.07154478132724762, 0.10936867445707321, 0.03999999910593033]","[0.0, -0.0, 0.15663130155257995]",0.6643370027877683,-1.7156534076738226,"(0.0, 0.0, 0.0, 0.0, 0.0, 0.0)",0.30000166468946887,-0.8353068710937589,-1.7253250921509458,"(0.0, 0.0, 0.0, 0.0, 0.0, 0.0)",0.041540284771796165,-0.6643370787784324,1.7156554340915304,"(0.0, 0.0, 0.0, 0.0, 0.0, 0.0)",-0.3000022969997827,0.8353059242487986,1.725350342728124,"(0.0, 0.0, 0.0, 0.0, 0.0, 0.0)",-0.041540611950472935,False,,,,,False,,,,
55,Close,,,"(1.1037647424359984e-07, 0.16999906015252483, 0.0008854442581506275)","(1.5708105651429114, 8.758832292823178e-05, -1.4008951415989527e-05)",,"[-0.026750000193715096, 0.05299999937415123, 0.03999999910593033]","[0.0, -0.0, 0.6643370606126838]","[-0.07114068418741226, 0.1096874549984932, 0.03999999910593033]","[0.0, 0.0, -0.17096987637179278]","[0.026750000193715096, 0.05299999937415123, 0.03999999910593033]","[0.0, 0.0, -0.6643370606126838]","[0.07114069163799286, 0.1096874475479126, 0.03999999910593033]","[0.0, -0.0, 0.17096884643662202]",0.6579033025089914,-1.5440880669064398,"(0.0, 0.0, 0.0, 0.0, 0.0, 0.0)",0.2700364572532802,-0.8417767749452665,-1.5527769243618206,"(0.0, 0.0, 0.0, 0.0, 0.0, 0.0)",0.03741008611729049,-0.6579033709005891,1.5440898906823783,"(0.0, 0.0, 0.0, 0.0, 0.0, 0.0)",-0.27003702673818186,0.8417759227894597,1.5527996497586782,"(0.0, 0.0, 0.0, 0.0, 0.0, 0.0)",-0.03741038095743008,False,,,,,False,,,,
56,Close,,,"(1.0141204673652616e-07, 0.16999906083398159, 0.0008937502707232629)","(1.570809474872104, 7.87434915574051e-05, -1.4006118772737545e-05)",,"[-0.026750000193715096, 0.05299999937415123, 0.03999999910593033]","[0.0, -0.0, 0.6579033304946226]","[-0.07077505439519882, 0.10997187346220016, 0.03999999910593033]","[0.0, 0.0, -0.18387348897538708]","[0.026750000193715096, 0.05299999937415123, 0.03999999910593033]","[0.0, 0.0, -0.6579033304946226]","[0.07077506184577942, 0.10997187346220016, 0.03999999910593033]","[0.0, -0.0, 0.1838725619548152]",0.6521129722580923,-1.3896792602157946,"(0.0, 0.0, 0.0, 0.0, 0.0, 0.0)",0.24306111081870946,-0.8475996296201711,-1.3974851219770965,"(0.0, 0.0, 0.0, 0.0, 0.0, 0.0)",0.033688362136148925,-0.6521130338105302,1.38968090161414,"(0.0, 0.0, 0.0, 0.0, 0.0, 0.0)",-0.24306162368353448,0.8475988626841415,1.3975055747236533,"(0.0, 0.0, 0.0, 0.0, 0.0, 0.0)",-0.03368862779939208,False,,,,,False,,,,
57,Close,,,"(9.31587620256511e-08, 0.16999906142715163, 0.0009013917798737923)","(1.570808471873919, 7.060557585400826e-05, -1.4003335136779464e-05)",,"[-0.026750000193715096, 0.05299999937415123, 0.03999999910593033]","[0.0, -0.0, 0.6521129301518677]","[-0.07044443488121033, 0.11022583395242691, 0.03999999910593033]","[0.0, 0.0, -0.19548665573955404]","[0.026750000193715096, 0.05299999937415123, 0.03999999910593033]","[0.0, 0.0, -0.6521129866161153]","[0.07044444233179092, 0.11022583395242691, 0.03999999910593033]","[0.0, -0.0, 0.19548582525750646]",0.646901675032283,-1.2507113341942153,"(0.0, 0.0, 0.0, 0.0, 0.0, 0.0)",0.2187779064062842,-0.8528401458571484,-1.2577238968745574,"(0.0, 0.0, 0.0, 0.0, 0.0, 0.0)",0.03033513071724496,-0.6469017304294772,1.2507128114527255,"(0.0, 0.0, 0.0, 0.0, 0.0, 0.0)",-0.2187783682505172,0.8528394556185027,1.2577423042466835,"(0.0, 0.0, 0.0, 0.0, 0.0, 0.0)",-0.03033537006280305,False,,,,,False,,,,
58,Close,,,"(8.555942447331213e-08, 0.16999906193915107, 0.000908421947674647)","(1.5708075491625393, 6.311807629477444e-05, -1.4000592203169427e-05)",,"[-0.026750000193715096, 0.05299999937415123, 0.03999999910593033]","[0.0, -0.0, 0.6469017074975589]","[-0.0701456218957901, 0.11045276373624802, 0.03999999910593033]","[0.0, 0.0, -0.20593848593871938]","[0.026750000193715096, 0.05299999937415123, 0.03999999910593033]","[0.0, 0.0, -0.6469017640113621]","[0.0701456293463707, 0.11045276373624802, 0.03999999910593033]","[0.0, -0.0, 0.2059377054983325]",0.6422115075290548,-1.1256402007747932,"(0.0, 0.0, 0.0, 0.0, 0.0, 0.0)",0.19691865600140895,-0.8575565627499749,-1.1319400542783593,"(0.0, 0.0, 0.0, 0.0, 0.0, 0.0)",0.027314243362735774,-0.6422115573865295,1.1256415303074527,"(0.0, 0.0, 0.0, 0.0, 0.0, 0.0)",-0.19691907187647334,0.8575559415385998,1.1319566208232932,"(0.0, 0.0, 0.0, 0.0, 0.0, 0.0)",-0.027314458975022625,False,,,,,False,,,,
59,Move,,,"(7.856146500561274e-08, 0.16999906237651882, 0.0009148896830877347)","(1.5708067003113224, 5.6229009009845055e-05, -1.399788300299107e-05)","[0.0, 0.0, 0.0]","[-0.026750000193715096, 0.05299999937415123, 0.03999999910593033]","[0.0, -0.0, 0.6422115222668433]","[-0.06987567991018295, 0.11065566539764404, 0.03999999910593033]","[0.0, 0.0, -0.21534502689171695]","[0.026750000193715096, 0.05299999937415123, 0.03999999910593033]","[0.0, 0.0, -0.6422115222668433]","[0.06987568736076355, 0.11065565794706345, 0.03999999910593033]","[0.0, -0.0, 0.2153443918565048]",0.6379903567761492,-1.0130761806973148,"(0.0, 0.0, 0.0, 0.0, 0.0, 0.0)",0.17724179525373857,-0.861801294967015,-1.0187357320896053,"(0.0, 0.0, 0.0, 0.0, 0.0, 0.0)",0.024593033118920006,-0.6379904016478766,1.0130773772767077,"(0.0, 0.0, 0.0, 0.0, 0.0, 0.0)",-0.1772421697155535,0.8618007358798453,1.0187506418989196,"(0.0, 0.0, 0.0, 0.0, 0.0, 0.0)",-0.024593227332916724,False,,,,,False,,,,
60,Move,,,"(7.401516452493873e-08, 0.16999906300717518, 0.0009208949427311885)","(1.5708059692049072, 5.171406878091127e-05, -1.3997173418156156e-05)","[-4.546300480674002e-09, 6.306563604674409e-10, 6.005259643453772e-06]","[-0.026750000193715096, 0.05299999937415123, 0.03999999910593033]","[0.0, -0.0, 0.6379903239810443]","[-0.06963192671537399, 0.1108371913433075, 0.03999999910593033]","[0.0, 0.0, -0.2238109552587812]","[0.026750000193715096, 0.05299999937415123, 0.03999999910593033]","[0.0, 0.0, -0.6379904179642307]","[0.06963192671537399, 0.1108371838927269, 0.03999999910593033]","[0.0, -0.0, 0.22381033482023305]",0.615110639462399,-5.491132155300077,"(0.0, 0.0, 0.0, 0.0, 0.0, 0.0)",-6.452665348763696,-0.8613763884842398,0.10197755586604229,"(0.0, 0.0, 0.0, 0.0, 0.0, 0.0)",-0.36782542138199165,-0.6151107211023208,5.491123330933392,"(0.0, 0.0, 0.0, 0.0, 0.0, 0.0)",6.4526488408560905,0.8613758231880564,-0.10197904602934349,"(0.0, 0.0, 0.0, 0.0, 0.0, 0.0)",0.36782252911949487,False,,,,,False,,,,
61,Move,,,"(6.525734425186348e-05, 0.17034549853437667, 0.001059997142676121)","(1.5643418998519334, 0.00019756355969089426, -0.0007979474479338168)","[6.517878278685787e-05, 0.00034643615785784343, 0.00014510745958838623]","[-0.026750000193715096, 0.05299999937415123, 0.03999999910593033]","[0.0, -0.0, 0.6151107619663475]","[-0.06829752027988434, 0.1118030920624733, 0.03999999910593033]","[0.0, 0.0, -0.24626574387408112]","[0.026750000193715096, 0.05299999937415123, 0.03999999910593033]","[0.0, 0.0, -0.6151107619663475]","[0.06829752773046494, 0.1118030920624733, 0.03999999910593033]","[0.0, -0.0, 0.24626510812228053]",0.59557520589455,-4.68850405628373,"(0.0, 0.0, 0.0, 0.0, 0.0, 0.0)",-45.004877301260535,-0.841587039207075,4.749443826519566,"(0.0, 0.0, 0.0, 0.0, 0.0, 0.0)",-23.059879711313982,-0.5955448471476087,4.6958097491309045,"(0.0, 0.0, 0.0, 0.0, 0.0, 0.0)",43.2331221848827,0.8422035798107438,-4.601338410555013,"(0.0, 0.0, 0.0, 0.0, 0.0, 0.0)",22.069611273367745,True,"(-0.03288698015965098, 0.18306432161630465, 0.039999948285931244)","(0.9999999985648672, -1.399717339714095e-05, -5.171406875791205e-05)",0.0009292587523792685,356.63318049990795,True,"(0.032887031061809374, 0.18306436848012048, 0.04000005171406876)","(-0.9999999985648671, 1.3997173395198976e-05, 5.171406875668148e-05)",0.0009247539911204204,342.7710504396539
62,Move,"(0.0, 0.0, 0.0)","(0.0, 0.0004886921905584125, 0.0)","(0.00016176697229314485, 0.17076934431250207, 0.001298992481510786)","(1.553459115144406, 0.0004787126916021603, -0.0016283617000435679)","[0.00016168841082813925, 0.0007702819359832469, 0.0003841027984230513]","[-0.026750000193715096, 0.05299999937415123, 0.03999999910593033]","[0.0, -0.0, 0.5955751094143519]","[-0.06714092195034027, 0.11260347068309784, 0.03999999910593033]","[0.0, 0.0, -0.24601185159459507]","[0.026750000193715096, 0.05299999937415123, 0.03999999910593033]","[0.0, 0.0, -0.5955448282145998]","[0.06713911145925522, 0.11260469257831573, 0.03999999910593033]","[0.0, -0.0, 0.24665872904210193]",0.5770970782178444,-4.434750642409365,"(0.0, 0.0, 0.0, 0.0, 0.0, 0.0)",-74.21698749878065,-0.811850997818181,7.136649933334551,"(0.0, 0.0, 0.0, 0.0, 0.0, 0.0)",-37.92588619525253,-0.5770027641966642,4.450099908226674,"(0.0, 0.0, 0.0, 0.0, 0.0, 0.0)",71.59541053355323,0.8135423707664626,-6.878690170627483,"(0.0, 0.0, 0.0, 0.0, 0.0, 0.0)",36.485404729774935,True,"(-0.03174847742362094, 0.1838726496858637, 0.03999980243644159)","(0.9999996621242782, -0.0007979473476813144, -0.0001975635584110712)",-0.00012778812911608492,569.3446982775357,True,"(0.031700570614753176, 0.18385320841010633, 0.0400001975635584)","(-0.9999996621242783, 0.0007979473476767542, 0.0001975635584049517)",-0.0003431682129125587,549.2893233704585
63,Move,"(0.0, 0.0, 0.0)","(0.0, 0.0004886921905584125, 0.0)","(0.00020577760967914273, 0.17108010282246888, 0.0015666062168021673)","(1.5453976845952377, 0.0001131290226772815, -0.0017076724396204725)","[0.00020569904821413713, 0.00108104044595006, 0.0006517165337144326]","[-0.026750000193715096, 0.05299999937415123, 0.03999999910593033]","[0.0, -0.0, 0.5770971029289548]","[-0.06603273004293442, 0.11333960294723511, 0.03999999910593033]","[0.0, 0.0, -0.23475391897699402]","[0.026750000193715096, 0.05299999937415123, 0.03999999910593033]","[0.0, 0.0, -0.5770027543990871]","[0.06602703779935837, 0.11334330588579178, 0.03999999910593033]","[0.0, -0.0, 0.23653961426052006]",0.5794036075491207,0.5535670395063219,"(0.0, 0.0, 0.0, 0.0, 0.0, 0.0)",6.462944400629849,-0.8148246019570704,-0.7136649933334551,"(0.0, 0.0, 0.0, 0.0, 0.0, 0.0)",-0.3132776813432897,-0.5792921936063957,-0.5494630583355802,"(0.0, 0.0, 0.0, 0.0, 0.0, 0.0)",-6.169834402530742,0.8163981496382346,0.6853869292252925,"(0.0, 0.0, 0.0, 0.0, 0.0, 0.0)",0.483786112115459,True,"(-0.03144479909141533, 0.18499061278782541, 0.039999521287326686)","(0.9999985596366134, -0.0016283607938474471, -0.0004787126733201028)",-0.00031179486038545077,0.0,True,"(0.0313112124765586, 0.1849374824167095, 0.040000478712673315)","(-0.9999985596366132, 0.0016283607938671909, 0.0004787126733090728)",-0.0008521962835819142,2.5998340187905855
64,Move,"(0.0, 0.0, 0.0)","(0.0, 0.0004886921905584125, 0.0)","(0.00022883729842798455, 0.1713254017797013, 0.0017818040571823015)","(1.5389805073581264, -0.0005079592641024063, -0.0015049904729370909)","[0.00022875873696297894, 0.0013263394031824693, 0.0008669143740945668]","[-0.026750000193715096, 0.05299999937415123, 0.03999999910593033]","[0.0, -0.0, 0.579403696177283]","[-0.066171795129776, 0.11324883252382278, 0.03999999910593033]","[0.0, 0.0, -0.23542100921927675]","[0.026750000193715096, 0.05299999937415123, 0.03999999910593033]","[0.0, 0.0, -0.5792922200734686]","[0.06616508215665817, 0.11325322091579437, 0.03999999910593033]","[0.0, -0.0, 0.2371059458590878]",0.5797486349846961,0.08280658453810297,"(0.0, 0.0, 0.0, 0.0, 0.0, 0.0)",-0.6050946236394109,-0.8145272415431815,0.07136649933334471,"(0.0, 0.0, 0.0, 0.0, 0.0, 0.0)",0.0344171466287953,-0.5795753411731073,-0.06795541601077082,"(0.0, 0.0, 0.0, 0.0, 0.0, 0.0)",0.7662479524177297,0.8161098256668115,-0.06919775314156074,"(0.0, 0.0, 0.0, 0.0, 0.0, 0.0)",0.05373477900650406,True,"(-0.031536079359377134, 0.18487734468436706, 0.03999988687097757)","(0.999998535528695, -0.0017076715987310311, -0.00011312902243029178)",-0.00019027962722550893,0.0,True,"(0.03140872018758631, 0.1848283752375048, 0.040000113129022456)","(-0.9999985355286952, 0.0017076715987330133, 0.00011312902245369402)",-0.0007849277860880864,1.0833065394907677
65,Move,"(0.0, 0.0, 0.0)","(0.0, 0.0004886921905584125, 0.0)","(0.0002241620208526586, 0.17150005820525854, 0.0019406939307195766)","(1.534350688091205, -0.00047310423578050825, 0.00013937812084585685)","[0.000224083459387653, 0.0015009958287397207, 0.0010258042476318419]","[-0.026750000193715096, 0.05299999937415123, 0.03999999910593033]","[0.0, -0.0, 0.579748685296605]","[-0.06619258224964142, 0.1132352277636528, 0.03999999910593033]","[0.0, 0.0, -0.23477858213444908]","[0.026750000193715096, 0.05299999937415123, 0.03999999910593033]","[0.0, 0.0, -0.5795753800512778]","[0.06618214398622513, 0.11324205994606018, 0.03999999910593033]","[0.0, -0.0, 0.23653448333393462]",0.5799983953292532,0.05994248269370267,"(0.0, 0.0, 0.0, 0.0, 0.0, 0.0)",-0.08779330924291018,-0.8144856342628525,0.009985747278965486,"(0.0, 0.0, 0.0, 0.0, 0.0, 0.0)",-0.03716693244249795,-0.5797566921100484,-0.0435242248658818,"(0.0, 0.0, 0.0, 0.0, 0.0, 0.0)",0.4813126769867656,0.8160163758900989,-0.02242794641100876,"(0.0, 0.0, 0.0, 0.0, 0.0, 0.0)",0.2698075040059007,True,"(-0.031602885629571406, 0.18488553457555668, 0.04000050795924225)","(0.9999987384908938, -0.0015049897106442782, 0.0005079592422530403)",-0.00012732210033118485,0.36247792556286945,True,"(0.031466686653845846, 0.18483628896952442, 0.03999949204075774)","(-0.9999987384908938, 0.0015049897106515304, -0.0005079592422534595)",-0.0007231099585676868,3.361353158838775
66,Move,"(0.0, 0.0, 0.0)","(0.0, 0.0004886921905584125, 0.0)","(0.00022604189557506914, 0.17161329745869855, 0.002048716659998018)","(1.5313178821409106, -0.00043196505637142855, 0.0014760607042840377)","[0.00022596333411006354, 0.0016142350821797269, 0.0011338269769102832]","[-0.026750000193715096, 0.05299999937415123, 0.03999999910593033]","[0.0, -0.0, 0.5799985151929392]","[-0.06620762497186661, 0.11322537064552307, 0.03999999910593033]","[0.0, 0.0, -0.23448724447821923]","[0.026750000193715096, 0.05299999937415123, 0.03999999910593033]","[0.0, 0.0, -0.579756666837259]","[0.06619306653738022, 0.11323490738868713, 0.03999999910593033]","[0.0, -0.0, 0.23625967796539352]",0.5803592183377798,0.08659752204638947,"(0.0, 0.0, 0.0, 0.0, 0.0, 0.0)",0.037949033992214214,-0.8144897949908854,-0.0009985747278955515,"(0.0, 0.0, 0.0, 0.0, 0.0, 0.0)",0.0017177011387160158,-0.5800474604759878,-0.06978440782545003,"(0.0, 0.0, 0.0, 0.0, 0.0, 0.0)",-0.0007678583756654542,0.8160188395070221,0.0005912680615731657,"(0.0, 0.0, 0.0, 0.0, 0.0, 0.0)",0.020634794393277926,True,"(-0.031638806074307316, 0.18488710978076722, 0.04000047310421814)","(0.9999998783730639, 0.0001393781048004688, 0.0004731042181416061)",-0.0001169070729615316,0.0,True,"(0.03149728482378192, 0.18483675488371884, 0.03999952689578187)","(-0.999999878373064, -0.00013937810479479112, -0.000473104218133735)",-0.0006670155515854037,0.26939639552306166
67,Move,"(-9e-05, 0.0, -1e-05)","(0.0, 0.018053685782629343, 0.0)","(0.0002334840472456086, 0.17166565140779455, 0.0021057057447335034)","(1.5298992810755678, -0.00039843266029181726, 0.002437613115734679)","[0.000233405485780603, 0.001666589031275728, 0.0011908160616457687]","[-0.026750000193715096, 0.05299999937415123, 0.03999999910593033]","[0.0, -0.0, 0.5803591587963249]","[-0.06622935831546783, 0.11321113258600235, 0.03999999910593033]","[0.0, 0.0, -0.23413060972571312]","[0.026750000193715096, 0.05299999937415123, 0.03999999910593033]","[0.0, 0.0, -0.5800474536332868]","[0.06621058285236359, 0.11322344094514847, 0.03999999910593033]","[0.0, -0.0, 0.2359713738742889]",0.5807633780664233,0.09699833487444387,"(0.0, 0.0, 0.0, 0.0, 0.0, 0.0)",0.015413161107374746,-0.814489378918082,9.985747278928869e-05,"(0.0, 0.0, 0.0, 0.0, 0.0, 0.0)",0.00126115115785618,-0.5803734516240439,-0.07823787553344966,"(0.0, 0.0, 0.0, 0.0, 0.0, 0.0)",0.061826532011381295,0.8159983613274494,-0.004914763097463247,"(0.0, 0.0, 0.0, 0.0, 0.0, 0.0)",0.042850779369589774,True,"(-0.03168609638992756, 0.1848861734969019, 0.04000043196504294)","(0.9999988173257945, 0.0014760600305792862, 0.00043196504293325285)",-8.388402108303684e-05,0.0,True,"(0.03153544321575864, 0.1848336585376515, 0.03999956803495706)","(-0.9999988173257945, -0.00147606003057132, -0.00043196504294560733)",-0.0006147274096963933,0.5716414206962678
68,Move,"(-0.00016, 0.0, -1e-05)","(0.0, 0.018053685782629343, 0.0)","(0.0002445159023329207, 0.17166680872490728, 0.0021119149295153353)","(1.5300888707784062, -0.0003690368130041102, 0.002812700814126001)","[0.0002444373408679151, 0.0016677463483884547, 0.0011970252464276005]","[-0.026750000193715096, 0.05299999937415123, 0.03999999910593033]","[0.0, -0.0, 0.5807633626998849]","[-0.06625368446111679, 0.11319517344236374, 0.03999999910593033]","[0.0, 0.0, -0.2337259780450668]","[0.026750000193715096, 0.05299999937415123, 0.03999999910593033]","[0.0, 0.0, -0.5803735115307528]","[0.06623021513223648, 0.11321057379245758, 0.03999999910593033]","[0.0, -0.0, 0.23562491304824032]",0.5811510995359163,0.09305315267829518,"(0.0, 0.0, 0.0, 0.0, 0.0, 0.0)",-0.005780427131724868,-0.8144894205253623,-9.985747279728243e-06,"(0.0, 0.0, 0.0, 0.0, 0.0, 0.0)",-0.00044218213083268724,-0.5807583093840075,-0.09236586239127877,"(0.0, 0.0, 0.0, 0.0, 0.0, 0.0)",0.04848380759194193,0.8159848740869816,-0.0032369377122699393,"(0.0, 0.0, 0.0, 0.0, 0.0, 0.0)",0.037383607783235864,True,"(-0.03173943008192796, 0.1848847390898363, 0.04000039843264975)","(0.9999969496485646, 0.002437610508228913, 0.00039843264975261336)",-3.4504058093631346e-05,0.0,True,"(0.03157988857111105, 0.18483149309168678, 0.039999601567350246)","(-0.9999969496485643, -0.002437610508225255, -0.0003984326497571421)",-0.0005664989231052093,0.5252135271858741
69,Move,"(-0.00014000000000000001, 0.0, -1e-05)","(0.0, 0.0004886921905584125, 0.0)","(0.00025581604681367606, 0.17166275325371272, 0.0020669730334133478)","(1.5318992206028732, -0.0003403827572152179, 0.003175217443571077)","[0.00025573748534867045, 0.0016636908771938963, 0.001152083350325613]","[-0.026750000193715096, 0.05299999937415123, 0.03999999910593033]","[0.0, -0.0, 0.581151021421785]","[-0.06627701967954636, 0.11317984759807587, 0.03999999910593033]","[0.0, 0.0, -0.23333834871902226]","[0.026750000193715096, 0.05299999937415123, 0.03999999910593033]","[0.0, 0.0, -0.580758293135837]","[0.06625337898731232, 0.11319537460803986, 0.03999999910593033]","[0.0, -0.0, 0.235226568176512]",0.5815746091783482,0.1016423141836764,"(0.0, 0.0, 0.0, 0.0, 0.0, 0.0)",0.012630459189742305,-0.8144896161479354,-4.694941753363562e-05,"(0.0, 0.0, 0.0, 0.0, 0.0, 0.0)",0.000938535962712718,-0.5811308279223166,-0.08940444919418322,"(0.0, 0.0, 0.0, 0.0, 0.0, 0.0)",0.004711074952756009,0.8159860720052352,0.00028750038086721927,"(0.0, 0.0, 0.0, 0.0, 0.0, 0.0)",0.0007084509040661732,True,"(-0.03179056122032324, 0.18488278064077227, 0.040000369036804616)","(0.9999959762658586, 0.0028126969139185332, 0.00036903680461577705)",2.3794275783585838e-05,0.0,True,"(0.03163159260187937, 0.1848293180370522, 0.03999963096319538)","(-0.9999959762658585, -0.0028126969139193707, -0.0003690368046166514)",-0.0005220446715050309,0.0
70,Move,"(-0.00011999999999999999, 0.0, -1e-05)","(0.0, 0.0004886921905584125, 0.0)","(0.00026274807202240403, 0.1716553102871026, 0.0019717000655297347)","(1.53531557378127, -0.0003218072524413979, 0.00339382254908224)","[0.00026266951055739843, 0.0016562479105837746, 0.001056810382442]","[-0.026750000193715096, 0.05299999937415123, 0.03999999910593033]","[0.0, -0.0, 0.5815746817362807]","[-0.06630250811576843, 0.11316310614347458, 0.03999999910593033]","[0.0, 0.0, -0.23291501002470638]","[0.026750000193715096, 0.05299999937415123, 0.03999999910593033]","[0.0, 0.0, -0.5811307884408814]","[0.06627580523490906, 0.11318065226078033, 0.03999999910593033]","[0.0, -0.0, 0.23485525098911433]",0.5820578448092033,0.11597655140522001,"(0.0, 0.0, 0.0, 0.0, 0.0, 0.0)",0.02107772540197616,-0.8144895965856781,4.69494175270313e-06,"(0.0, 0.0, 0.0, 0.0, 0.0, 0.0)",0.0015776567027957766,-0.5814442236265742,-0.07521496902182953,"(0.0, 0.0, 0.0, 0.0, 0.0, 0.0)",0.07329018481292111,0.8159732449385414,-0.0030784960065100902,"(0.0, 0.0, 0.0, 0.0, 0.0, 0.0)",0.02791878705996373,True,"(-0.03184640016126378, 0.1848805665498487, 0.04000034038275064)","(0.9999949010714101, 0.003175211924196017, 0.00034038275063626785)",8.717211007932929e-05,0.0,True,"(0.031680617350532896, 0.18482671512989574, 0.039999659617249356)","(-0.9999949010714101, -0.0031752119242052066, -0.00034038275063585384)",-0.0004806481169616493,0.3986895735612444
71,Move,"(-0.00017, 0.0, -2e-05)","(0.0, 0.018053685782629343, 0.0)","(0.0002696236278071669, 0.17164478885686116, 0.0018253087587948849)","(1.5403547645378528, -0.00030306441587388695, 0.0036112137506548164)","[0.0002695450663421613, 0.0016457264803423355, 0.0009104190757071502]","[-0.026750000193715096, 0.05299999937415123, 0.03999999910593033]","[0.0, -0.0, 0.5820579219238101]","[-0.06633157283067703, 0.11314398795366287, 0.03999999910593033]","[0.0, 0.0, -0.2324317548680748]","[0.026750000193715096, 0.05299999937415123, 0.03999999910593033]","[0.0, 0.0, -0.5814442061907384]","[0.06629466265439987, 0.11316826194524765, 0.03999999910593033]","[0.0, -0.0, 0.23452903103705983]",0.5825245725079601,0.11201464770163394,"(0.0, 0.0, 0.0, 0.0, 0.0, 0.0)",-0.0057564261490595445,-0.8144883722464568,0.000293841413128619,"(0.0, 0.0, 0.0, 0.0, 0.0, 0.0)",-0.0003998960643664025,-0.5817541168267829,-0.07437436805008257,"(0.0, 0.0, 0.0, 0.0, 0.0, 0.0)",0.001551940540668072,0.8159732182456576,-6.406292115155449e-06,"(0.0, 0.0, 0.0, 0.0, 0.0, 0.0)",0.0004269963892028262,True,"(-0.031910129416447955, 0.18487782441459788, 0.040000321807246886)","(0.9999941892101252, 0.0033938158583185834, 0.00032180724688251196)",0.00015557868566034067,0.0,True,"(0.03172285187912195, 0.18482506205743487, 0.0399996781927531)","(-0.9999941892101253, -0.0033938158583254243, -0.00032180724689301256)",-0.0004431447983797023,0.0
72,Move,"(-0.0002, 0.0, -2e-05)","(0.0, 0.018053685782629343, 0.0)","(0.0002764614527183314, 0.1716318803883227, 0.0016278544304347367)","(1.547017906051717, -0.0002853393560328337, 0.0038275149332826605)","[0.0002763828912533258, 0.0016328180118038715, 0.000712964747347002]","[-0.026750000193715096, 0.05299999937415123, 0.03999999910593033]","[0.0, -0.0, 0.5825245944320252]","[-0.06635963916778564, 0.1131255030632019, 0.03999999910593033]","[0.0, 0.0, -0.2319638037062065]","[0.026750000193715096, 0.05299999937415123, 0.03999999910593033]","[0.0, 0.0, -0.5817541527639766]","[0.06631330400705338, 0.11315600574016571, 0.03999999910593033]","[0.0, -0.0, 0.23421912138716083]",0.5829232606232301,0.09568514766479107,"(0.0, 0.0, 0.0, 0.0, 0.0, 0.0)",-0.023973450128430617,-0.8144881090775029,6.316054892653252e-05,"(0.0, 0.0, 0.0, 0.0, 0.0, 0.0)",-0.0018114735539945883,-0.5820923814810202,-0.08118351701695392,"(0.0, 0.0, 0.0, 0.0, 0.0, 0.0)",-0.010011293522513834,0.8159733789272638,3.856358551061595e-05,"(0.0, 0.0, 0.0, 0.0, 0.0, 0.0)",-0.000742305498552659,True,"(-0.03197176678985716, 0.18487519321899454, 0.04000030306441124)","(0.9999934336509892, 0.0036112057359286047, 0.0003030644112381331)",0.00022183232636718077,0.0,True,"(0.03176370700239367, 0.18482298828874671, 0.03999969693558876)","(-0.9999934336509892, -0.0036112057359452376, -0.0003030644112433528)",-0.0004069641274828318,0.0
73,Move,"(-0.00019, 0.0, -2e-05)","(0.0, 0.0004886921905584125, 0.0)","(0.00028327170273439686, 0.17161752483383538, 0.0013793752185488888)","(1.5553059087610928, -0.00026935378419141976, 0.004042474487949734)","[0.00028319314126939126, 0.0016184624573165607, 0.0004644855354611541]","[-0.026750000193715096, 0.05299999937415123, 0.03999999910593033]","[0.0, -0.0, 0.5829233514988293]","[-0.06638360768556595, 0.11310970783233643, 0.03999999910593033]","[0.0, 0.0, -0.23156484688361562]","[0.026750000193715096, 0.05299999937415123, 0.03999999910593033]","[0.0, 0.0, -0.5820923820942308]","[0.06633365154266357, 0.11314261704683304, 0.03999999910593033]","[0.0, -0.0, 0.23388101335958988]",0.5833120813111737,0.09331696510648334,"(0.0, 0.0, 0.0, 0.0, 0.0, 0.0)",-0.003459391294217847,-0.8144880792838258,7.150482509218572e-06,"(0.0, 0.0, 0.0, 0.0, 0.0, 0.0)",-0.000263594554199175,-0.582391655842116,-0.07182584666301393,"(0.0, 0.0, 0.0, 0.0, 0.0, 0.0)",0.013709144513670607,0.8159731472284127,-5.560772427670222e-05,"(0.0, 0.0, 0.0, 0.0, 0.0, 0.0)",0.0010129833505904894,True,"(-0.03202436161060272, 0.1848729272753821, 0.04000028533935217)","(0.9999926343646848, 0.003827505432042508, 0.00028533935216472063)",0.0002789566149946782,0.0,True,"(0.03180828821790538, 0.1848207248378854, 0.03999971466064784)","(-0.9999926343646847, -0.003827505432042626, -0.00028533935215988335)",-0.0003669753000181766,0.0
74,Move,"(-0.00017, 0.0, -2e-05)","(0.0, 0.0004886921905584125, 0.0)","(0.0002868218396152204, 0.17160293620981057, 0.001080373112861552)","(1.565206649689343, -0.0002570301217644785, 0.004150287578154821)","[0.0002867432781502148, 0.0016038738332917468, 0.00016548342977381735]","[-0.026750000193715096, 0.05299999937415123, 0.03999999910593033]","[0.0, -0.0, 0.5833120948166512]","[-0.0664069801568985, 0.11309429258108139, 0.03999999910593033]","[0.0, 0.0, -0.23117600186874682]","[0.026750000193715096, 0.05299999937415123, 0.03999999910593033]","[0.0, 0.0, -0.5823916868212871]","[0.06635165214538574, 0.11313077062368393, 0.03999999910593033]","[0.0, -0.0, 0.2335814978912689]",0.583728683594203,0.0999845479270318,"(0.0, 0.0, 0.0, 0.0, 0.0, 0.0)",0.009812300404169277,-0.8144880822631936,-7.150482499440614e-07,"(0.0, 0.0, 0.0, 0.0, 0.0, 0.0)",0.0007312681058637559,-0.58260014185795,-0.05003664380013345,"(0.0, 0.0, 0.0, 0.0, 0.0, 0.0)",0.06958646425107876,0.815963880740753,-0.0022239570383538842,"(0.0, 0.0, 0.0, 0.0, 0.0, 0.0)",0.021403866085897012,True,"(-0.03207563754891003, 0.18487069365958642, 0.04000026935378094)","(0.9999917929357003, 0.004042463331227072, 0.00026935378094054753)",0.00033466635835563554,0.0,True,"(0.03184775710706597, 0.18481869865125647, 0.039999730646219075)","(-0.9999917929357001, -0.004042463331227188, -0.000269353780928367)",-0.0003320050363688975,0.2855905594237832
75,Move,"(-0.0002, 0.0, -2e-05)","(0.0, 0.018053685782629343, 0.0)","(0.00023889926276557792, 0.17164675523252895, 0.0009555953828471228)","(1.5712191964937214, 0.001528345714648238, 0.005741822414203911)","[0.00023882070130057232, 0.00164769285601013, 4.070569975938806e-05]","[-0.026750000193715096, 0.05299999937415123, 0.03999999910593033]","[0.0, -0.0, 0.583728801248261]","[-0.06643200665712357, 0.11307776719331741, 0.03999999910593033]","[0.0, 0.0, -0.23075938764119186]","[0.026750000193715096, 0.05299999937415123, 0.03999999910593033]","[0.0, 0.0, -0.5826001713416343]","[0.06636418402194977, 0.11312250792980194, 0.03999999910593033]","[0.0, -0.0, 0.23336378139729425]",0.5840949399411491,0.08790152326705947,"(0.0, 0.0, 0.0, 0.0, 0.0, 0.0)",-0.017716172704138194,-0.8144880819652568,7.150482606022024e-08,"(0.0, 0.0, 0.0, 0.0, 0.0, 0.0)",-0.001321299584338776,-0.5827756469104048,-0.04212121258918434,"(0.0, 0.0, 0.0, 0.0, 0.0, 0.0)",0.8130412653021243,0.8159408346150376,-0.005531070171683972,"(0.0, 0.0, 0.0, 0.0, 0.0, 0.0)",0.4188775422985147,True,"(-0.03213057317085583, 0.18486815465779463, 0.04000025703011893)","(0.9999913545369147, 0.004150275526368634, 0.0002570301189345272)",0.0003920576644296422,0.0,True,"(0.03187590500975565, 0.1848176270006503, 0.03999974296988107)","(-0.9999913545369146, -0.0041502755263690076, -0.00025703011893137093)",-0.00030634106285188164,6.061722870932317
76,Move,"(-0.00022000000000000003, 0.0, -2e-05)","(0.0, 0.018053685782629343, 0.0)","(0.00023869598903904316, 0.17164531218255194, 0.0010025896115560913)","(1.5726144188685671, 0.0014059892401534933, 0.005744206917947309)","[0.00023861742757403756, 0.0016462498060331177, 8.769992846835656e-05]","[-0.026750000193715096, 0.05299999937415123, 0.03999999910593033]","[0.0, -0.0, 0.5840949480199277]","[-0.06645400822162628, 0.11306323111057281, 0.03999999910593033]","[0.0, 0.0, -0.23039315020513917]","[0.026750000193715096, 0.05299999937415123, 0.03999999910593033]","[0.0, 0.0, -0.5827756230975989]","[0.06637473404407501, 0.11311555653810501, 0.03999999910593033]","[0.0, -0.0, 0.2331652002542029]",0.5843604287055332,0.0637173034521581,"(0.0, 0.0, 0.0, 0.0, 0.0, 0.0)",-0.03548727095122459,-0.8144880819777018,-2.986818675466689e-09,"(0.0, 0.0, 0.0, 0.0, 0.0, 0.0)",-0.0026470393391764303,-0.5829467450186172,-0.041063545970959396,"(0.0, 0.0, 0.0, 0.0, 0.0, 0.0)",0.0022153400595840006,0.8159433877037939,0.0006127413015235648,"(0.0, 0.0, 0.0, 0.0, 0.0, 0.0)",0.0007878306204814984,True,"(-0.03217887779840468, 0.1848674004097749, 0.039998471654880345)","(0.999982347882138, 0.005741784158400347, -0.001528345119653868)",0.0004409665283329968,0.0,True,"(0.03190070184448633, 0.1848157298023078, 0.04000152834511964)","(-0.999982347882138, -0.005741784158410622, 0.0015283451196457679)",-0.0002828177564489738,0.0
77,Move,"(-0.00022000000000000003, 0.0, -2e-05)","(0.0, 0.0004886921905584125, 0.0)","(0.0002386019706169592, 0.1716455663458575, 0.000998730640640004)","(1.5723767901961043, 0.0012935883637173338, 0.0057434991971321335)","[0.0002385234091519536, 0.0016465039693386863, 8.38409575522692e-05]","[-0.026750000193715096, 0.05299999937415123, 0.03999999910593033]","[0.0, -0.0, 0.5843604665410325]","[-0.0664699524641037, 0.11305268853902817, 0.03999999910593033]","[0.0, 0.0, -0.23012765478753838]","[0.026750000193715096, 0.05299999937415123, 0.03999999910593033]","[0.0, 0.0, -0.5829467930193912]","[0.06638502329587936, 0.11310877650976181, 0.03999999910593033]","[0.0, -0.0, 0.2329966461850405]",0.5846252536505672,0.06355798680815285,"(0.0, 0.0, 0.0, 0.0, 0.0, 0.0)",-0.00021811616786065227,-0.8144880819764573,2.9868113876051634e-10,"(0.0, 0.0, 0.0, 0.0, 0.0, 0.0)",-1.6211580141204137e-05,-0.5830774644589932,-0.03137266569024356,"(0.0, 0.0, 0.0, 0.0, 0.0, 0.0)",0.014152811793318497,0.8159434308065714,1.0344666579321384e-05,"(0.0, 0.0, 0.0, 0.0, 0.0, 0.0)",0.000994647951930002,True,"(-0.03221388519353083, 0.18486569135764996, 0.03999859401122307)","(0.9999825137024033, 0.005744169651213189, -0.0014059887769218458)",0.0004709023619924569,0.0,True,"(0.03192307290686512, 0.18481458768574954, 0.04000140598877692)","(-0.9999825137024032, -0.005744169651223715, 0.0014059887769243048)",-0.0002553616588644463,0.0
78,Move,"(-0.00022000000000000003, 0.0, -2e-05)","(0.0, 0.0004886921905584125, 0.0)","(0.00023843169637602092, 0.17164591220935452, 0.0009897934281484523)","(1.5719678416602478, 0.0011732570396914804, 0.00574065046484864)","[0.00023835313491101532, 0.001646849832835695, 7.490374506071763e-05]","[-0.026750000193715096, 0.05299999937415123, 0.03999999910593033]","[0.0, -0.0, 0.5846252198622157]","[-0.06648585945367813, 0.11304216831922531, 0.03999999910593033]","[0.0, 0.0, -0.22986280957297625]","[0.026750000193715096, 0.05299999937415123, 0.03999999910593033]","[0.0, 0.0, -0.5830774512486523]","[0.06639287620782852, 0.11310359835624695, 0.03999999910593033]","[0.0, -0.0, 0.23286593551220977]",0.5849386271964905,0.07520965102160293,"(0.0, 0.0, 0.0, 0.0, 0.0, 0.0)",0.01712365627572258,-0.8144880819765817,-2.986944025451521e-11,"(0.0, 0.0, 0.0, 0.0, 0.0, 0.0)",0.001277382482755571,-0.5831523353434603,-0.017969012272098003,"(0.0, 0.0, 0.0, 0.0, 0.0, 0.0)",0.09619885061468374,0.8159021073146404,-0.009917638063442142,"(0.0, 0.0, 0.0, 0.0, 0.0, 0.0)",0.044701796712888334,True,"(-0.03224880461403559, 0.1848639742336465, 0.039998706411997056)","(0.9999826694823172, 0.005743462814157589, -0.0012935880029405979)",0.0005013748389044357,0.0,True,"(0.03194030108714953, 0.1848137788860945, 0.040001293588002945)","(-0.9999826694823171, -0.00574346281416447, 0.0012935880029374914)",-0.00023367158756423746,0.5915214449367657
79,Move,"(-0.00022000000000000003, 0.0, -2e-05)","(0.0, 0.0004886921905584125, 0.0)","(0.00023815023174593108, 0.17164618699576523, 0.000989756743829898)","(1.5717030770436597, 0.0009100756745776146, 0.005738966457233066)","[0.00023807167028092548, 0.001647124619246404, 7.48670607421632e-05]","[-0.026750000193715096, 0.05299999937415123, 0.03999999910593033]","[0.0, -0.0, 0.5849386149114172]","[-0.06650467216968536, 0.11302971094846725, 0.03999999910593033]","[0.0, 0.0, -0.22954946422476097]","[0.026750000193715096, 0.05299999937415123, 0.03999999910593033]","[0.0, 0.0, -0.583152411585746]","[0.06639737635850906, 0.11310062557458878, 0.03999999910593033]","[0.0, -0.0, 0.23274977022633717]",0.5852475937176965,0.07415196508944534,"(0.0, 0.0, 0.0, 0.0, 0.0, 0.0)",-0.0015342770435378846,-0.8144880819665208,2.4146179502794334e-09,"(0.0, 0.0, 0.0, 0.0, 0.0, 0.0)",-0.00011436664515442181,-0.5832338278862749,-0.019558210275490318,"(0.0, 0.0, 0.0, 0.0, 0.0, 0.0)",-0.0011401987360780898,0.8159063514417143,0.0010185904977250155,"(0.0, 0.0, 0.0, 0.0, 0.0, 0.0)",0.0010232103249923896,True,"(-0.03229012501081163, 0.18486192836339405, 0.039998826743229486)","(0.999982834256751, 0.005740614983239986, -0.0011732567705218183)",0.0005378986936499334,0.0,True,"(0.03195313403379396, 0.18481469998730674, 0.040001173256770516)","(-0.9999828342567509, -0.005740614983236381, 0.0011732567705180755)",-0.00021601468288243573,0.0
80,Move,"(-0.00022000000000000003, 0.0, -2e-05)","(0.0, 0.0004886921905584125, 0.0)","(0.00023787750728204685, 0.1716464470515056, 0.0009897657907890084)","(1.57143965193406, 0.0006467057613924184, 0.005738540493985688)","[0.00023779894581704125, 0.0016473846749867904, 7.487610770127366e-05]","[-0.026750000193715096, 0.05299999937415123, 0.03999999910593033]","[0.0, -0.0, 0.585247510927584]","[-0.06652321666479111, 0.11301742494106293, 0.03999999910593033]","[0.0, 0.0, -0.22924047889397944]","[0.026750000193715096, 0.05299999937415123, 0.03999999910593033]","[0.0, 0.0, -0.5832338003601224]","[0.06640227138996124, 0.11309739947319031, 0.03999999910593033]","[0.0, -0.0, 0.23267248155029063]",0.5855574128752793,0.0743565978198646,"(0.0, 0.0, 0.0, 0.0, 0.0, 0.0)",0.00031889099387898183,-0.8144880819696237,-7.447215121202142e-10,"(0.0, 0.0, 0.0, 0.0, 0.0, 0.0)",2.3866007990412126e-05,-0.583319144164747,-0.020475906833299362,"(0.0, 0.0, 0.0, 0.0, 0.0, 0.0)",-0.0014729909419601934,0.8159060011200059,-8.407721001193785e-05,"(0.0, 0.0, 0.0, 0.0, 0.0, 0.0)",-0.0002216251057981546,True,"(-0.03233086356254555, 0.18485989971346928, 0.03999908992445105)","(0.9999831180651813, 0.005738932577836369, -0.0009100755489497907)",0.0005681336114614925,0.0,True,"(0.03196357171301138, 0.18481405380670174, 0.04000091007554895)","(-0.9999831180651813, -0.00573893257783536, 0.0009100755489488774)",-0.0001950468909745643,0.0
81,Move,"(-0.00022000000000000003, 0.0, -2e-05)","(0.0, 0.0004886921905584125, 0.0)","(0.0002376372131117373, 0.1716466794191781, 0.0009897783829127711)","(1.5711767089572897, 0.00038394875818325143, 0.005738381520355714)","[0.0002375586516467317, 0.0016476170426592829, 7.488869982503641e-05]","[-0.026750000193715096, 0.05299999937415123, 0.03999999910593033]","[0.0, -0.0, 0.5855574005318072]","[-0.06654180586338043, 0.11300510168075562, 0.03999999910593033]","[0.0, 0.0, -0.22893068053432084]","[0.026750000193715096, 0.05299999937415123, 0.03999999910593033]","[0.0, 0.0, -0.5833191855032243]","[0.06640740483999252, 0.1130940169095993, 0.03999999910593033]","[0.0, -0.0, 0.23258686697295033]",0.5858665211809714,0.07418599336611109,"(0.0, 0.0, 0.0, 0.0, 0.0, 0.0)",-0.00023200970751776945,-0.8144880819692005,1.0156851457270517e-10,"(0.0, 0.0, 0.0, 0.0, 0.0, 0.0)",-1.7227117677869646e-05,-0.5834078268420985,-0.02128384256435822,"(0.0, 0.0, 0.0, 0.0, 0.0, 0.0)",-0.0011810482711330616,0.8159060411536685,9.608079018960287e-06,"(0.0, 0.0, 0.0, 0.0, 0.0, 0.0)",-7.861130486228597e-05,True,"(-0.03237171398339931, 0.1848578540880419, 0.03999935329428368)","(0.9999833255109638, 0.005738507798202012, -0.000646705716318676)",0.0005984625145499945,0.0,True,"(0.03197484298399731, 0.18481353534651979, 0.04000064670571631)","(-0.9999833255109639, -0.005738507798209117, 0.0006467057163148895)",-0.00017323203057398163,0.0
82,Move,"(-0.00022000000000000003, 0.0, -2e-05)","(0.0, 0.018053685782629343, 0.0)","(0.00023738536953657, 0.17164691911350877, 0.0009897871463473344)","(1.570914373026811, 0.00012167427289422667, 0.005738374937690735)","[0.0002373068080715644, 0.0016478567369899444, 7.489746325959972e-05]","[-0.026750000193715096, 0.05299999937415123, 0.03999999910593033]","[0.0, -0.0, 0.5858665138507138]","[-0.06656035780906677, 0.1129927933216095, 0.03999999910593033]","[0.0, 0.0, -0.22862156195453542]","[0.026750000193715096, 0.05299999937415123, 0.03999999910593033]","[0.0, 0.0, -0.5834077906111954]","[0.06641273200511932, 0.11309049278497696, 0.03999999910593033]","[0.0, -0.0, 0.23249824982031203]",0.5861749582061558,0.07402488604426255,"(0.0, 0.0, 0.0, 0.0, 0.0, 0.0)",-0.0002181084490288472,-0.8144880819692428,-1.0157208407690632e-11,"(0.0, 0.0, 0.0, 0.0, 0.0, 0.0)",-1.619062600762028e-05,-0.5834999478565042,-0.022109043457375004,"(0.0, 0.0, 0.0, 0.0, 0.0, 0.0)",-0.0012180144775562694,0.8159060371503022,-9.608079025724692e-07,"(0.0, 0.0, 0.0, 0.0, 0.0, 0.0)",-9.193429443303002e-05,True,"(-0.032412470114169006, 0.18485580080915937, 0.03999961605125125)","(0.9999834618268333, 0.005738349604229164, -0.0003839487487543929)",0.0006287473872323714,0.0,True,"(0.03198653003777658, 0.18481298161392343, 0.04000038394874876)","(-0.9999834618268334, -0.0057383496042293786, 0.0003839487487557438)",-0.00015105666100993337,0.0
83,Move,"(-0.00022000000000000003, 0.0, -2e-05)","(0.0, 0.018053685782629343, 0.0)","(0.0002373055944536477, 0.17164700067166502, 0.0009898474635399515)","(1.570833801736191, 4.2996442792875086e-05, 0.005738365757384655)","[0.0002372270329886421, 0.0016479382951462007, 7.49577804522168e-05]","[-0.026750000193715096, 0.05299999937415123, 0.03999999910593033]","[0.0, -0.0, 0.5861749650460611]","[-0.06657885760068893, 0.11298051476478577, 0.03999999910593033]","[0.0, 0.0, -0.2283131219247751]","[0.026750000193715096, 0.05299999937415123, 0.03999999910593033]","[0.0, 0.0, -0.5835000266137093]","[0.06641826778650284, 0.11308684200048447, 0.03999999910593033]","[0.0, -0.0, 0.23240610117054938]",0.5864276915690974,0.060656007105950316,"(0.0, 0.0, 0.0, 0.0, 0.0, 0.0)",-0.01961084026509835,-0.8144880819692386,1.0151879337172431e-12,"(0.0, 0.0, 0.0, 0.0, 0.0, 0.0)",-0.0014627752410997302,-0.5836503555209551,-0.03609783946823519,"(0.0, 0.0, 0.0, 0.0, 0.0, 0.0)",-0.02054477291456529,0.8159060375506388,9.608079132306113e-08,"(0.0, 0.0, 0.0, 0.0, 0.0, 0.0)",-0.0015324197200337604,True,"(-0.03245313717130295, 0.18485373958395482, 0.039999878325727406)","(0.9999835281695246, 0.005738343402156861, -0.0001216742725925294)",0.0006589461326712811,0.0,True,"(0.03199867350632172, 0.18481240668064192, 0.0400001216742726)","(-0.9999835281695246, -0.005738343402146341, 0.00012167427259914935)",-0.00012843268390978077,0.0
84,Move,"(-0.00026, 0.0, -2e-05)","(0.0, 0.018053685782629343, 0.0)","(0.00023729073916217022, 0.17164701056717008, 0.0009897130566908984)","(1.570823450403342, 2.829656767124098e-05, 0.005738367164295078)","[0.00023721217769716462, 0.001647948190651255, 7.482337360316372e-05]","[-0.026750000193715096, 0.05299999937415123, 0.03999999910593033]","[0.0, -0.0, 0.586427752537633]","[-0.06659401208162308, 0.11297044903039932, 0.03999999910593033]","[0.0, 0.0, -0.22806038549914023]","[0.026750000193715096, 0.05299999937415123, 0.03999999910593033]","[0.0, 0.0, -0.5836504497065961]","[0.0664273053407669, 0.11308087408542633, 0.03999999910593033]","[0.0, -0.0, 0.23225567794591304]",0.5866853571331271,0.061839735367140485,"(0.0, 0.0, 0.0, 0.0, 0.0, 0.0)",0.0017530244984383884,-0.8144880840349582,-4.957726936056143e-07,"(0.0, 0.0, 0.0, 0.0, 0.0, 0.0)",0.0001307679287890378,-0.583798670078651,-0.03559549384702532,"(0.0, 0.0, 0.0, 0.0, 0.0, 0.0)",0.0007317315972743651,0.8159061539788454,2.794276956391628e-05,"(0.0, 0.0, 0.0, 0.0, 0.0, 0.0)",5.738659510215468e-05,True,"(-0.032486459339090536, 0.18485204126175378, 0.03999995700355722)","(0.9999835347000648, 0.005738334259175406, -4.2996442781845626e-05)",0.000689129297289506,0.0,True,"(0.03201849985964304, 0.18481146533947743, 0.04000004299644279)","(-0.9999835347000648, -0.005738334259177215, 4.299644278619408e-05)",-0.00010546341152028164,0.0
85,Move,"(-0.00026, 0.0, -2e-05)","(0.0, 0.0004886921905584125, 0.0)","(0.00023728151587929864, 0.17164701643722044, 0.0009896274796863018)","(1.5708171292993796, 1.9207294417128597e-05, 0.005738369077307546)","[0.00023720295441429304, 0.0016479540607016174, 7.473779659856713e-05]","[-0.026750000193715096, 0.05299999937415123, 0.03999999910593033]","[0.0, -0.0, 0.5866853697630967]","[-0.0666094645857811, 0.11296017467975616, 0.03999999910593033]","[0.0, 0.0, -0.2278027106380584]","[0.026750000193715096, 0.05299999937415123, 0.03999999910593033]","[0.0, 0.0, -0.5837986805795631]","[0.06643621623516083, 0.11307498812675476, 0.03999999910593033]","[0.0, -0.0, 0.2321074866833466]",0.5869521168831552,0.06402234000673346,"(0.0, 0.0, 0.0, 0.0, 0.0, 0.0)",0.0032199650467656014,-0.8144880876229182,-8.611104049444903e-07,"(0.0, 0.0, 0.0, 0.0, 0.0, 0.0)",0.00024020839977999644,-0.5839386250411687,-0.03358919100422853,"(0.0, 0.0, 0.0, 0.0, 0.0, 0.0)",0.0029389511868240527,0.8159063432832837,4.543306521194589e-05,"(0.0, 0.0, 0.0, 0.0, 0.0, 0.0)",0.00022098360505873817,True,"(-0.032520431218093365, 0.18485030106873782, 0.039999971703432335)","(0.9999835352159823, 0.005738335669069772, -2.829656766771669e-05)",0.0007225223632470772,0.0,True,"(0.03203804184766179, 0.1848105302924329, 0.04000002829656768)","(-0.9999835352159822, -0.0057383356690773124, 2.8296567682007814e-05)",-8.533883603470833e-05,0.0
86,Move,"(-0.00022000000000000003, 0.0, -2e-05)","(0.0, 0.0004886921905584125, 0.0)","(0.00023727750652825474, 0.1716470199775395, 0.0009896198561972372)","(1.5708134235128055, 1.5251675552532482e-05, 0.005738369817185153)","[0.00023719894506324914, 0.0016479576010206831, 7.473017310950249e-05]","[-0.026750000193715096, 0.05299999937415123, 0.03999999910593033]","[0.0, -0.0, 0.5869520877489758]","[-0.06662546098232269, 0.11294954270124435, 0.03999999910593033]","[0.0, 0.0, -0.22753596808925083]","[0.026750000193715096, 0.05299999937415123, 0.03999999910593033]","[0.0, 0.0, -0.583938713142797]","[0.06644462049007416, 0.11306943744421005, 0.03999999910593033]","[0.0, -0.0, 0.23196772296661308]",0.5872727625483108,0.07695495963735331,"(0.0, 0.0, 0.0, 0.0, 0.0, 0.0)",0.019004632564538125,-0.8144880889340864,-3.146803487818995e-07,"(0.0, 0.0, 0.0, 0.0, 0.0, 0.0)",0.0014177485549759794,-0.5840249312781719,-0.020713496880770066,"(0.0, 0.0, 0.0, 0.0, 0.0, 0.0)",0.01890889738970901,0.8159069916304444,0.00015560331856740854,"(0.0, 0.0, 0.0, 0.0, 0.0, 0.0)",0.001421644007623283,True,"(-0.03255560154122465, 0.184848490186793, 0.03999998079270558)","(0.999983535420889, 0.005738337583288744, -1.9207294415960772e-05)",0.0007573387176751567,0.0,True,"(0.032056476544922094, 0.1848096426386705, 0.040000019207294416)","(-0.9999835354208887, -0.005738337583287907, 1.9207294412374594e-05)",-6.654574084440814e-05,0.0
87,Move,"(-0.00022000000000000003, 0.0, -2e-05)","(0.0, 0.018053685782629343, 0.0)","(0.00023727505375568893, 0.17164702239342766, 0.0009896240858264158)","(1.5708108775421588, 1.2839720691433554e-05, 0.005738370463103208)","[0.00023719649229068333, 0.0016479600169088393, 7.473440273868107e-05]","[-0.026750000193715096, 0.05299999937415123, 0.03999999910593033]","[0.0, -0.0, 0.587272779071863]","[-0.06664468348026276, 0.11293675750494003, 0.03999999910593033]","[0.0, 0.0, -0.22721531324113836]","[0.026750000193715096, 0.05299999937415123, 0.03999999910593033]","[0.0, 0.0, -0.5840249089813028]","[0.06644980609416962, 0.11306601017713547, 0.03999999910593033]","[0.0, -0.0, 0.23188207877732575]",0.5875792285684752,0.0735518448394501,"(0.0, 0.0, 0.0, 0.0, 0.0, 0.0)",-0.0049775304265549545,-0.8144880883657761,1.3639447145874906e-07,"(0.0, 0.0, 0.0, 0.0, 0.0, 0.0)",-0.0003711639167050849,-0.5841256055017174,-0.024161813650931844,"(0.0, 0.0, 0.0, 0.0, 0.0, 0.0)",-0.005080179271758032,0.815907183441892,4.603474738969427e-05,"(0.0, 0.0, 0.0, 0.0, 0.0, 0.0)",-0.00039006039158391516,True,"(-0.03259787590316749, 0.1848463011852703, 0.039999984748324446)","(0.9999835354847953, 0.005738338323546724, -1.5251675551413331e-05)",0.0007994666382633061,0.0,True,"(0.03206780649272605, 0.1848090762170414, 0.040000015251675555)","(-0.9999835354847953, -0.005738338323537284, 1.5251675551882978e-05)",-5.506091896937898e-05,0.0
88,Move,"(-0.00026, 0.0, -2e-05)","(0.0, 0.018053685782629343, 0.0)","(0.00023727006962649856, 0.17164702791797498, 0.0009895880987406678)","(1.5708067537894053, 7.5611065402351346e-06, 0.005738360446888452)","[0.00023719150816149296, 0.001647965541456159, 7.469841565293307e-05]","[-0.026750000193715096, 0.05299999937415123, 0.03999999910593033]","[0.0, -0.0, 0.5875792890451743]","[-0.06666304916143417, 0.11292452365159988, 0.03999999910593033]","[0.0, 0.0, -0.22690889893412086]","[0.026750000193715096, 0.05299999937415123, 0.03999999910593033]","[0.0, 0.0, -0.5841255715827093]","[0.06645585596561432, 0.11306200921535492, 0.03999999910593033]","[0.0, -0.0, 0.2317816180136484]",0.5878315673584522,0.06056130959447772,"(0.0, 0.0, 0.0, 0.0, 0.0, 0.0)",-0.019055462078393686,-0.8144880884226071,-1.3639446905240003e-08,"(0.0, 0.0, 0.0, 0.0, 0.0, 0.0)",-0.0014213634863375908,-0.5842805514870921,-0.03718703648991205,"(0.0, 0.0, 0.0, 0.0, 0.0, 0.0)",-0.019136147160917678,0.8159071642607472,-4.6034747400724996e-06,"(0.0, 0.0, 0.0, 0.0, 0.0, 0.0)",-0.0014325845771183596,True,"(-0.032638280274385874, 0.18484419637716232, 0.03999998716027931)","(0.999983535514966, 0.005738338969646856, -1.2839720691019914e-05)",0.0008397858846779172,0.0,True,"(0.032081063051878064, 0.18480843310813092, 0.04000001283972069)","(-0.999983535514966, -0.005738338969642909, 1.283972068835539e-05)",-4.171172872525365e-05,0.0
89,Move,"(-0.00026, 0.0, -2e-05)","(0.0, 0.0004886921905584125, 0.0)","(0.000237266247025593, 0.17164703258448072, 0.0009895610516436702)","(1.5708034971706037, 3.4382036721234116e-06, 0.005738350467754436)","[0.0002371876855605874, 0.0016479702079618963, 7.467136855593545e-05]","[-0.026750000193715096, 0.05299999937415123, 0.03999999910593033]","[0.0, -0.0, 0.5878315404946077]","[-0.06667816638946533, 0.11291445046663284, 0.03999999910593033]","[0.0, 0.0, -0.22665651269042367]","[0.026750000193715096, 0.05299999937415123, 0.03999999910593033]","[0.0, 0.0, -0.5842805163571624]","[0.06646516174077988, 0.11305585503578186, 0.03999999910593033]","[0.0, -0.0, 0.231626624285669]",0.5880983534973976,0.06402867334687794,"(0.0, 0.0, 0.0, 0.0, 0.0, 0.0)",0.005106070262473151,-0.814488088416924,1.3639436247067732e-09,"(0.0, 0.0, 0.0, 0.0, 0.0, 0.0)",0.00038093712171177003,-0.584421235654674,-0.033764200219640536,"(0.0, 0.0, 0.0, 0.0, 0.0, 0.0)",0.005017060024326213,0.8159071661788616,4.6034747480661053e-07,"(0.0, 0.0, 0.0, 0.0, 0.0, 0.0)",0.0003747366227268393,True,"(-0.03267154800750326, 0.18484245399173638, 0.03999999243889346)","(0.9999835356262853, 0.0057383289539096275, -7.561106542703634e-06)",0.0008728523315948135,0.0,True,"(0.032101488428755265, 0.18480745120553801, 0.04000000756110654)","(-0.9999835356262854, -0.005738328953908123, 7.5611065402795225e-06)",-2.108157799223052e-05,0.0
90,Move,"(-0.00022000000000000003, 0.0, -2e-05)","(0.0, 0.0004886921905584125, 0.0)","(0.00023726275136265552, 0.17164703699069855, 0.0009895360427421207)","(1.5708005009834463, -3.590173235481089e-07, 0.005738340520889247)","[0.00023718418989764992, 0.0016479746141797313, 7.464635965438596e-05]","[-0.026750000193715096, 0.05299999937415123, 0.03999999910593033]","[0.0, -0.0, 0.5880984071211846]","[-0.06669414788484573, 0.11290379613637924, 0.03999999910593033]","[0.0, 0.0, -0.2263897404708635]","[0.026750000193715096, 0.05299999937415123, 0.03999999910593033]","[0.0, 0.0, -0.5844212797868238]","[0.06647361069917679, 0.11305027455091476, 0.03999999910593033]","[0.0, -0.0, 0.23148593011708746]",0.5884191696983626,0.07699588823159255,"(0.0, 0.0, 0.0, 0.0, 0.0, 0.0)",0.019055369640891426,-0.8144880884174923,-1.363948953817949e-10,"(0.0, 0.0, 0.0, 0.0, 0.0, 0.0)",0.0014214777364465428,-0.5845079044129651,-0.020800501989878914,"(0.0, 0.0, 0.0, 0.0, 0.0, 0.0)",0.019025945775502744,0.8159071659870502,-4.6034746681300793e-08,"(0.0, 0.0, 0.0, 0.0, 0.0, 0.0)",0.0014191565128760478,True,"(-0.032706719969438316, 0.1848406027215621, 0.03999999656179632)","(0.999983535706223, 0.0057383189750697065, -3.4382036738728294e-06)",0.0009078698401719985,0.0,True,"(0.03212003225695807, 0.18480655629557194, 0.04000000343820367)","(-0.9999835357062231, -0.005738318975062115, 3.438203670731524e-06)",-2.3786873063668666e-06,0.0
91,Move,"(-0.00022000000000000003, 0.0, -2e-05)","(0.0, 0.018053685782629343, 0.0)","(0.00023725956059475998, 0.17164704115813845, 0.0009895130336644257)","(1.5707977443677934, -3.852612607828106e-06, 0.005738330597588985)","[0.00023718099912975438, 0.0016479787816196245, 7.462335057669095e-05]","[-0.026750000193715096, 0.05299999937415123, 0.03999999910593033]","[0.0, -0.0, 0.5884191449106382]","[-0.0667133629322052, 0.11289098113775253, 0.03999999910593033]","[0.0, 0.0, -0.22606892279783244]","[0.026750000193715096, 0.05299999937415123, 0.03999999910593033]","[0.0, 0.0, -0.5845078751605726]","[0.06647881120443344, 0.11304682493209839, 0.03999999910593033]","[0.0, -0.0, 0.23139926461999388]",0.5887257453757909,0.07357816258279011,"(0.0, 0.0, 0.0, 0.0, 0.0, 0.0)",-0.004999022265001315,-0.8144880884174355,1.3639755990805428e-11,"(0.0, 0.0, 0.0, 0.0, 0.0, 0.0)",-0.00037281268899946575,-0.5846089945798965,-0.024261640063539213,"(0.0, 0.0, 0.0, 0.0, 0.0, 0.0)",-0.00508702291416078,0.8159071660062313,4.60347493458364e-09,"(0.0, 0.0, 0.0, 0.0, 0.0, 0.0)",-0.00037946321311050154,True,"(-0.03274901437095886, 0.18483836410402316, 0.040000000359017324)","(0.9999835357691474, 0.00573830902840059, 3.590173250262755e-07)",0.00095002492295575,0.0,True,"(0.032131456254623825, 0.1848060037355044, 0.03999999964098267)","(-0.9999835357691474, -0.005738309028394462, -3.590173284060108e-07)",9.193424224049806e-06,0.0
92,Move,"(-0.00022000000000000003, 0.0, -2e-05)","(0.0, 0.0004886921905584125, 0.0)","(0.00023725665034874822, 0.1716470451058357, 0.000989491861592099)","(1.5707952082763788, -7.066845273295224e-06, 0.005738320694182843)","[0.00023717808888374262, 0.001647982729316877, 7.460217850436429e-05]","[-0.026750000193715096, 0.05299999937415123, 0.03999999910593033]","[0.0, -0.0, 0.5887257014399745]","[-0.06673172861337662, 0.1128787249326706, 0.03999999910593033]","[0.0, 0.0, -0.2257623429941743]","[0.026750000193715096, 0.05299999937415123, 0.03999999910593033]","[0.0, 0.0, -0.5846089832320991]","[0.06648488342761993, 0.11304280906915665, 0.03999999910593033]","[0.0, -0.0, 0.23129818426363138]",0.5889786466738376,0.060696311531211834,"(0.0, 0.0, 0.0, 0.0, 0.0, 0.0)",-0.01889586030983448,-0.8144880884174411,-1.3642420519182385e-12,"(0.0, 0.0, 0.0, 0.0, 0.0, 0.0)",-0.0014094428704594672,-0.5847641636903461,-0.03724058650790884,"(0.0, 0.0, 0.0, 0.0, 0.0, 0.0)",-0.01906268047689178,0.8159071660043131,-4.603464276384039e-10,"(0.0, 0.0, 0.0, 0.0, 0.0, 0.0)",-0.0014219733491485983,True,"(-0.03278943071792732, 0.18483621217622592, 0.040000003852612605)","(0.9999835358187336, 0.00573829910521977, 3.8526126057352035e-06)",0.0009903136317654597,0.0,True,"(0.03214478109157505, 0.18480535797046874, 0.039999996147387404)","(-0.9999835358187334, -0.005738299105225604, -3.852612595873058e-06)",2.2653660850747075e-05,0.0
