OSUrobotics/InHand-Manipulation/AnalyseData/Data/new_hand_human_filt_josh_2v2_f_none_1_kpNone_kdNone_dp5_step5_save_data.csv
,Phase,human_cube_pos,human_cube_orn,Cube_Pos,Cube_Orn,Cube_pos_in_start_pos,b'l_prox_pin'_link_pos,b'l_prox_pin'_link_orn,b'l_distal_pin'_link_pos,b'l_distal_pin'_link_orn,b'r_prox_pin'_link_pos,b'r_prox_pin'_link_orn,b'r_distal_pin'_link_pos,b'r_distal_pin'_link_orn,b'l_prox_pin'_joint_angle,b'l_prox_pin'_joint_vel,b'l_prox_pin'_joint_react_forces,b'l_prox_pin'_joint_motor_torque,b'l_distal_pin'_joint_angle,b'l_distal_pin'_joint_vel,b'l_distal_pin'_joint_react_forces,b'l_distal_pin'_joint_motor_torque,b'r_prox_pin'_joint_angle,b'r_prox_pin'_joint_vel,b'r_prox_pin'_joint_react_forces,b'r_prox_pin'_joint_motor_torque,b'r_distal_pin'_joint_angle,b'r_distal_pin'_joint_vel,b'r_distal_pin'_joint_react_forces,b'r_distal_pin'_joint_motor_torque,in_contact_l,contact_point_l_dist,contact_normal_l_dist,contact_distance_l_dist,contact_norm_force_l_dist,in_contact_r,contact_point_r_dist,contact_normal_r_dist,contact_distance_r_dist,contact_norm_force_r_dist
0,Open,,,,,,"[-0.026750000193715096, 0.05299999937415123, 0.03999999910593033]","[0.0, -0.0, 0.42755761853039154]","[-0.056604765355587006, 0.1185186430811882, 0.03999999910593033]","[0.0, -0.0, 0.4463066270391506]","[0.026750000193715096, 0.05299999937415123, 0.03999999910593033]","[0.0, 0.0, -0.42757404208311445]","[0.05660583823919296, 0.1185181587934494, 0.03999999910593033]","[0.0, 0.0, -0.4465272228574986]",0.5418018724257314,27.418616735313837,"(0.0, 0.0, 0.0, 0.0, 0.0, 0.0)",-4.412236817968903,0.016874447698417276,-0.44988750389777044,"(0.0, 0.0, 0.0, 0.0, 0.0, 0.0)",-0.3112578673856835,-0.5418166170859073,-27.418223544375806,"(0.0, 0.0, 0.0, 0.0, 0.0, 0.0)",4.412120589674461,-0.017058187988154127,0.4547872631353701,"(0.0, 0.0, 0.0, 0.0, 0.0, 0.0)",0.31119999541872967,False,,,,,False,,,,
1,Open,,,,,,"[-0.026750000193715096, 0.05299999937415123, 0.03999999910593033]","[0.0, -0.0, 0.8953992050914552]","[-0.08294302970170975, 0.09801492840051651, 0.03999999910593033]","[0.0, -0.0, 0.9064715399310761]","[0.026750000193715096, 0.05299999937415123, 0.03999999910593033]","[0.0, 0.0, -0.8954089117450801]","[0.08294346183538437, 0.09801438450813293, 0.03999999910593033]","[0.0, 0.0, -0.9066016844299951]",0.9628592876486701,16.190418996035465,"(0.0, 0.0, 0.0, 0.0, 0.0, 0.0)",-2.616982039675733,0.009965290062605858,-0.26568209241480656,"(0.0, 0.0, 0.0, 0.0, 0.0, 0.0)",-0.18775783729375353,-0.9628679942230576,-16.190186820718473,"(0.0, 0.0, 0.0, 0.0, 0.0, 0.0)",2.6169116334278195,-0.010073786659150813,0.26857534621184953,"(0.0, 0.0, 0.0, 0.0, 0.0, 0.0)",0.187722108909745,False,,,,,False,,,,
2,Open,,,,,,"[-0.026750000193715096, 0.05299999937415123, 0.03999999910593033]","[0.0, -0.0, 1.17165497759142]","[-0.09309044480323792, 0.08098116517066956, 0.03999999910593033]","[0.0, -0.0, 1.1781937273122836]","[0.026750000193715096, 0.05299999937415123, 0.03999999910593033]","[0.0, 0.0, -1.1716605985979762]","[0.09309060126543045, 0.08098078519105911, 0.03999999910593033]","[0.0, 0.0, -1.178270796658152]",1.2114894807636634,9.56028051296898,"(0.0, 0.0, 0.0, 0.0, 0.0, 0.0)",-1.549346412635057,0.005885062316220725,-0.15689973638119079,"(0.0, 0.0, 0.0, 0.0, 0.0, 0.0)",-0.11225090666269867,-1.2114946219087734,-9.560143415766044,"(0.0, 0.0, 0.0, 0.0, 0.0, 0.0)",1.5493042197033076,-0.00594912834521185,0.1586081706180975,"(0.0, 0.0, 0.0, 0.0, 0.0, 0.0)",0.11222926703597672,False,,,,,False,,,,
3,Open,,,,,,"[-0.026750000193715096, 0.05299999937415123, 0.03999999910593033]","[0.0, -0.0, 1.3347813147466918]","[-0.09675397723913193, 0.06983575969934464, 0.03999999910593033]","[0.0, -0.0, 1.3386449621367835]","[0.026750000193715096, 0.05299999937415123, 0.03999999910593033]","[0.0, 0.0, -1.3347844615433213]","[0.0967540368437767, 0.06983552873134613, 0.03999999910593033]","[0.0, 0.0, -1.3386905382854437]",1.3583031234961356,5.645250040103052,"(0.0, 0.0, 0.0, 0.0, 0.0, 0.0)",-0.9162890978823036,0.0034783869891320215,-0.09247571818598516,"(0.0, 0.0, 0.0, 0.0, 0.0, 0.0)",-0.06677007440367574,-1.3583061592909116,-5.645169085575695,"(0.0, 0.0, 0.0, 0.0, 0.0, 0.0)",0.9162639666346021,-0.003516216695348753,0.09348456497972772,"(0.0, 0.0, 0.0, 0.0, 0.0, 0.0)",0.06675710630673855,False,,,,,False,,,,
4,Open,,,,,,"[-0.026750000193715096, 0.05299999937415123, 0.03999999910593033]","[0.0, -0.0, 1.4311058207082674]","[-0.09804865717887878, 0.06302504986524582, 0.03999999910593033]","[0.0, -0.0, 1.433390691262394]","[0.026750000193715096, 0.05299999937415123, 0.03999999910593033]","[0.0, 0.0, -1.4311075924426346]","[0.09804867953062057, 0.06302490830421448, 0.03999999910593033]","[0.0, 0.0, -1.433417470845748]",1.4449951113932331,3.333463696180452,"(0.0, 0.0, 0.0, 0.0, 0.0, 0.0)",-0.5415503506795546,0.0020570753203455715,-0.05468855210882702,"(0.0, 0.0, 0.0, 0.0, 0.0, 0.0)",-0.039594115216637325,-1.4449969039996904,-3.3334158933415914,"(0.0, 0.0, 0.0, 0.0, 0.0, 0.0)",0.541535435877482,-0.002079412775410495,0.055284250111531166,"(0.0, 0.0, 0.0, 0.0, 0.0, 0.0)",0.03958639191865308,False,,,,,False,,,,
5,Open,,,,,,"[-0.026750000193715096, 0.05299999937415123, 0.03999999910593033]","[0.0, -0.0, 1.4879842849605203]","[-0.09850326180458069, 0.05895565450191498, 0.03999999910593033]","[0.0, -0.0, 1.4893357278409396]","[0.026750000193715096, 0.05299999937415123, 0.03999999910593033]","[0.0, 0.0, -1.4879853833286059]","[0.09850326925516129, 0.05895556882023811, 0.03999999910593033]","[0.0, 0.0, -1.4893513332680077]",1.4961858633265903,1.9683769779575933,"(0.0, 0.0, 0.0, 0.0, 0.0, 0.0)",-0.31995094896823073,0.0012165319928285922,-0.03234212113369103,"(0.0, 0.0, 0.0, 0.0, 0.0, 0.0)",-0.02343792779000599,-1.4961869218427772,-1.9683487508592754,"(0.0, 0.0, 0.0, 0.0, 0.0, 0.0)",0.31994211580738524,-0.0012297216752996233,0.03269386530715718,"(0.0, 0.0, 0.0, 0.0, 0.0, 0.0)",0.02343334437795369,False,,,,,False,,,,
6,Open,,,,,,"[-0.026750000193715096, 0.05299999937415123, 0.03999999910593033]","[0.0, -0.0, 1.5215704989376362]","[-0.09866278618574142, 0.05654282495379448, 0.03999999910593033]","[0.0, -0.0, 1.522369838325666]","[0.026750000193715096, 0.05299999937415123, 0.03999999910593033]","[0.0, 0.0, -1.5215710825913402]","[0.09866278618574142, 0.0565427765250206, 0.03999999910593033]","[0.0, 0.0, -1.522379029767931]",1.5264134904357183,1.1623069217141797,"(0.0, 0.0, 0.0, 0.0, 0.0, 0.0)",-0.18898727227709852,0.000719444125508032,-0.019126791845346432,"(0.0, 0.0, 0.0, 0.0, 0.0, 0.0)",-0.013859938289241243,-1.5264141154789415,-1.162290253894895,"(0.0, 0.0, 0.0, 0.0, 0.0, 0.0)",0.18898204730565804,-0.0007272322869396521,0.019334487584604668,"(0.0, 0.0, 0.0, 0.0, 0.0, 0.0)",0.013857223880827028,False,,,,,False,,,,
7,Close,,,"(1.2478112216283415e-07, 0.16999960627914334, 0.0003375139776509844)","(1.5703757789650807, 0.0001088681168706304, -5.122612185789874e-06)",,"[-0.026750000193715096, 0.05299999937415123, 0.03999999910593033]","[0.0, -0.0, 1.2785329680082034]","[-0.09569678455591202, 0.07374466955661774, 0.03999999910593033]","[0.0, -0.0, 1.0351044933740032]","[0.026750000193715096, 0.05299999937415123, 0.03999999910593033]","[0.0, 0.0, -1.2785333261376617]","[0.09569679200649261, 0.07374463975429535, 0.03999999910593033]","[0.0, 0.0, -1.0351099865887758]",1.2106796019673873,-16.28478938579699,"(0.0, 0.0, 0.0, 0.0, 0.0, 0.0)",2.809472854136235,-0.3090860149933808,-15.757821278062295,"(0.0, 0.0, 0.0, 0.0, 0.0, 0.0)",0.3661538009495806,-1.2106799710491603,16.284799227977608,"(0.0, 0.0, 0.0, 0.0, 0.0, 0.0)",-2.8094757422584213,0.30908141619234186,15.75794391320213,"(0.0, 0.0, 0.0, 0.0, 0.0, 0.0)",-0.3661552191151056,False,,,,,False,,,,
8,Close,,,"(3.0991841452431125e-07, 0.1699991530873768, 0.0005600347089338349)","(1.5707725584893357, 0.0003276471180493337, -1.5390016504502985e-05)",,"[-0.026750000193715096, 0.05299999937415123, 0.03999999910593033]","[0.0, -0.0, 1.0006670909649218]","[-0.08736184239387512, 0.09186135232448578, 0.03999999910593033]","[0.0, -0.0, 0.48836557737534114]","[0.026750000193715096, 0.05299999937415123, 0.03999999910593033]","[0.0, 0.0, -1.0006671906734346]","[0.08736184984445572, 0.09186133742332458, 0.03999999910593033]","[0.0, 0.0, -0.4883688154364048]",0.9606001981650306,-9.616005284561718,"(0.0, 0.0, 0.0, 0.0, 0.0, 0.0)",1.667253264949997,-0.5510712009946406,-9.304767973476249,"(0.0, 0.0, 0.0, 0.0, 0.0, 0.0)",0.2218037572572205,-0.9606004161041268,9.616011096270952,"(0.0, 0.0, 0.0, 0.0, 0.0, 0.0)",-1.6672550198735234,0.5510684854486152,9.30484038803693,"(0.0, 0.0, 0.0, 0.0, 0.0, 0.0)",-0.22180464092959223,False,,,,,False,,,,
9,Close,,,"(2.933853975158492e-07, 0.16999904048792538, 0.0007066062154399696)","(1.5708337628024795, 0.00026866528465535426, -1.404448202163588e-05)",,"[-0.026750000193715096, 0.05299999937415123, 0.03999999910593033]","[0.0, -0.0, 0.8365897781630613]","[-0.08020010590553284, 0.1012398824095726, 0.03999999910593033]","[0.0, -0.0, 0.16552144688028117]","[0.026750000193715096, 0.05299999937415123, 0.03999999910593033]","[0.0, 0.0, -0.8365899294750984]","[0.08020011335611343, 0.101239874958992, 0.03999999910593033]","[0.0, 0.0, -0.1655233971102189]",0.8129308110141114,-5.678154960376304,"(0.0, 0.0, 0.0, 0.0, 0.0, 0.0)",0.9873874064507416,-0.6939616573792659,-5.494397555666588,"(0.0, 0.0, 0.0, 0.0, 0.0, 0.0)",0.13292457281458034,-0.8129309397049683,5.678158392132489,"(0.0, 0.0, 0.0, 0.0, 0.0, 0.0)",-0.987388459985631,0.6939600538790082,5.494440315842426,"(0.0, 0.0, 0.0, 0.0, 0.0, 0.0)",-0.13292511074891808,False,,,,,False,,,,
10,Close,,,"(1.9902477861274505e-07, 0.16999905216518962, 0.0008031506137060285)","(1.5708213694470277, 0.0001751880104672085, -1.4031272711042213e-05)",,"[-0.026750000193715096, 0.05299999937415123, 0.03999999910593033]","[0.0, -0.0, 0.7397039398326887]","[-0.075282983481884, 0.10618411004543304, 0.03999999910593033]","[0.0, 0.0, -0.025114755601520013]","[0.026750000193715096, 0.05299999937415123, 0.03999999910593033]","[0.0, 0.0, -0.7397039829241547]","[0.0752829909324646, 0.10618410259485245, 0.03999999910593033]","[0.0, -0.0, 0.025113617980755978]",0.7257335145957226,-3.3528937225526034,"(0.0, 0.0, 0.0, 0.0, 0.0, 0.0)",0.5840196078844049,-0.7783380408184963,-3.244652289205478,"(0.0, 0.0, 0.0, 0.0, 0.0, 0.0)",0.07914031685893824,-0.7257335905863868,3.3528957489703144,"(0.0, 0.0, 0.0, 0.0, 0.0, 0.0)",-0.5840202358821991,0.778337093974245,3.2446775397467595,"(0.0, 0.0, 0.0, 0.0, 0.0, 0.0)",-0.07914064000385382,False,,,,,False,,,,
11,Close,,,"(1.3069317882946781e-07, 0.16999905849316785, 0.0008666025578373041)","(1.570813038524343, 0.0001076496945073061, -1.4014808324094979e-05)",,"[-0.026750000193715096, 0.05299999937415123, 0.03999999910593033]","[0.0, -0.0, 0.6824937890365349]","[-0.07216256856918335, 0.10887216031551361, 0.03999999910593033]","[0.0, 0.0, -0.137687120736303]","[0.026750000193715096, 0.05299999937415123, 0.03999999910593033]","[0.0, 0.0, -0.6824937890365349]","[0.07216257601976395, 0.10887216031551361, 0.03999999910593033]","[0.0, -0.0, 0.1376864353718678]",0.6742443830336282,-1.9798502142300851,"(0.0, 0.0, 0.0, 0.0, 0.0, 0.0)",0.34523008433021124,-0.8281635344937409,-1.9158370237869804,"(0.0, 0.0, 0.0, 0.0, 0.0, 0.0)",0.046989708289177236,-0.6742444279053555,1.9798514108094807,"(0.0, 0.0, 0.0, 0.0, 0.0, 0.0)",-0.3452304573414294,0.8281629754068567,1.9158519335829844,"(0.0, 0.0, 0.0, 0.0, 0.0, 0.0)",-0.04698990114977892,False,,,,,False,,,,
12,Close,,,"(8.555941999099156e-08, 0.16999906193922792, 0.000908421947806545)","(1.5708075491537519, 6.311807488844542e-05, -1.4000595358663434e-05)",,"[-0.026750000193715096, 0.05299999937415123, 0.03999999910593033]","[0.0, -0.0, 0.6487117277688945]","[-0.070249542593956, 0.11037412285804749, 0.03999999910593033]","[0.0, 0.0, -0.20415830575541527]","[0.026750000193715096, 0.05299999937415123, 0.03999999910593033]","[0.0, 0.0, -0.6487117277688945]","[0.070249542593956, 0.11037411540746689, 0.03999999910593033]","[0.0, -0.0, 0.20415788801885543]",0.6438405657375271,-1.1690817530007243,"(0.0, 0.0, 0.0, 0.0, 0.0, 0.0)",0.20397674457790932,-0.8575834812137779,-1.1312243968345508,"(0.0, 0.0, 0.0, 0.0, 0.0, 0.0)",0.027828964636992654,-0.6438405922338334,1.1690824595688907,"(0.0, 0.0, 0.0, 0.0, 0.0, 0.0)",-0.20397696556653716,0.8575831510875931,1.1312332006820753,"(0.0, 0.0, 0.0, 0.0, 0.0, 0.0)",-0.027829079200348807,False,,,,,False,,,,
13,Close,,,"(5.567361934631568e-08, 0.16999906349286917, 0.0009359839309479349)","(1.5708039321322358, 3.37560108188707e-05, -1.3987283228090085e-05)",,"[-0.026750000193715096, 0.05299999937415123, 0.03999999910593033]","[0.0, -0.0, 0.62876384308693]","[-0.06909646838903427, 0.11123037338256836, 0.03999999910593033]","[0.0, 0.0, -0.24340789693353326]","[0.026750000193715096, 0.05299999937415123, 0.03999999910593033]","[0.0, 0.0, -0.62876384308693]","[0.06909646838903427, 0.11123037338256836, 0.03999999910593033]","[0.0, -0.0, 0.24340764580603796]",0.6258874156623524,-0.6903310843293964,"(0.0, 0.0, 0.0, 0.0, 0.0, 0.0)",0.12048853373387189,-0.8749547691894786,-0.6679421640099914,"(0.0, 0.0, 0.0, 0.0, 0.0, 0.0)",0.016461146679105913,-0.6258874313081562,0.6903315015508323,"(0.0, 0.0, 0.0, 0.0, 0.0, 0.0)",-0.12048866447898966,0.8749545742586229,0.6679473624521103,"(0.0, 0.0, 0.0, 0.0, 0.0, 0.0)",-0.016461214564379854,False,,,,,False,,,,
14,Move,,,"(0.0002849434880139787, 0.17128526654835666, 0.0018667775255450016)","(1.529867145493542, 0.001236551690390913, -0.0026252758006009144)","[0.0, 0.0, 0.0]","[-0.026750000193715096, 0.05299999937415123, 0.03999999910593033]","[0.0, -0.0, 0.5674368798319164]","[-0.06544800847768784, 0.113716259598732, 0.03999999910593033]","[0.0, 0.0, -0.23086444862254737]","[0.026750000193715096, 0.05299999937415123, 0.03999999910593033]","[0.0, 0.0, -0.5672775113046467]","[0.06543833017349243, 0.11372242867946625, 0.03999999910593033]","[0.0, -0.0, 0.2338230653212545]",0.5526433844132694,-3.5504372063580854,"(0.0, 0.0, 0.0, 0.0, 0.0, 0.0)",-74.66311326449657,-0.7739535469156117,5.843468067207706,"(0.0, 0.0, 0.0, 0.0, 0.0, 0.0)",-38.567738900473906,-0.5523653530093062,3.5789086898164406,"(0.0, 0.0, 0.0, 0.0, 0.0, 0.0)",70.97380681712595,0.7784689212282292,-5.431581853362886,"(0.0, 0.0, 0.0, 0.0, 0.0, 0.0)",36.631671368390464,True,"(-0.031139027298926508, 0.18549673152317092, 0.03999924353386678)","(0.9999971505660776, -0.0022642037706561637, -0.0007564661332230728)",-0.000503181178828863,565.4925793008347,True,"(0.030917119596597424, 0.1854085662421605, 0.04000075646613322)","(-0.9999971505660776, 0.002264203770598743, 0.0007564661332168607)",-0.0013606486484191646,538.0249494895718
15,Move,"(0.0, 0.0, 0.0)","(0.0, -0.0, 0.0)","(0.00016274991557831364, 0.17136475104845758, 0.0031640906121350575)","(1.4899865793592248, -0.0009251634143453488, -0.006053919932276661)","[-0.00012219357243566505, 7.948450010092367e-05, 0.001297313086590056]","[-0.026750000193715096, 0.05299999937415123, 0.03999999910593033]","[0.0, -0.0, 0.5448782568355026]","[-0.06406860798597336, 0.11457370966672897, 0.03999999910593033]","[0.0, 0.0, -0.2125956411648876]","[0.026750000193715096, 0.05299999937415123, 0.03999999910593033]","[0.0, 0.0, -0.5441825092896027]","[0.06402575969696045, 0.11459966003894806, 0.03999999910593033]","[0.0, -0.0, 0.21903630347083206]",0.5463765798653516,0.35960109272080254,"(0.0, 0.0, 0.0, 0.0, 0.0, 0.0)",-0.08406283938624641,-0.7590286933635231,-0.37315947580442554,"(0.0, 0.0, 0.0, 0.0, 0.0, 0.0)",-0.017297597694563044,-0.5456033040750284,-0.3409927387516254,"(0.0, 0.0, 0.0, 0.0, 0.0, 0.0)",0.7656171975284948,0.7645763731677416,0.32581485659360865,"(0.0, 0.0, 0.0, 0.0, 0.0, 0.0)",0.4026025408250114,True,"(-0.031076504252458274, 0.1869479334441972, 0.04000075744199429)","(0.9999871217005202, -0.0050182382101970815, 0.0007574419942935584)",-0.000622934270282677,0.221954412255134,True,"(0.03056815038234164, 0.1867763680017247, 0.03999924255800572)","(-0.9999871217005204, 0.005018238210180842, -0.0007574419942756659)",-0.0016523435419804678,5.374466445399798
16,Move,"(-0.0001, 0.0, -5e-05)","(0.0, -0.0, 0.0)","(-7.448586037214912e-05, 0.17133343675522095, 0.0031900660863803565)","(1.4927360337037991, -0.0006453849954101114, -0.010056728471325138)","[-0.0003594293483861278, 4.8170206864289744e-05, 0.0013232885608353549]","[-0.026750000193715096, 0.05299999937415123, 0.03999999910593033]","[0.0, -0.0, 0.5488816042995822]","[-0.06431480497121811, 0.11442381888628006, 0.03999999910593033]","[0.0, 0.0, -0.21069846889664753]","[0.026750000193715096, 0.05299999937415123, 0.03999999910593033]","[0.0, 0.0, -0.5479188724535542]","[0.06425565481185913, 0.11445995420217514, 0.03999999910593033]","[0.0, -0.0, 0.21700590237662123]",0.5491960430917245,0.07547534084792515,"(0.0, 0.0, 0.0, 0.0, 0.0, 0.0)",-0.33182901296631073,-0.7593196087634001,0.06249568190438463,"(0.0, 0.0, 0.0, 0.0, 0.0, 0.0)",-0.15911444892029797,-0.5481979536203041,-0.06697302093054215,"(0.0, 0.0, 0.0, 0.0, 0.0, 0.0)",0.684813150342741,0.7646873255527368,-0.056992626829892076,"(0.0, 0.0, 0.0, 0.0, 0.0, 0.0)",0.328266035536116,True,"(-0.03146011104829981, 0.18685400847325603, 0.04000069712986058)","(0.9999535201076241, -0.009616217256742004, 0.000697129860581936)",-0.00041358806686277616,2.3718774810713517,True,"(0.03094468938907996, 0.1867070128597243, 0.03999930287013942)","(-0.9999535201076242, 0.009616217256729315, -0.0006971298605774616)",-0.0011030978719516757,5.013256200734713
17,Move,"(-0.00021, 0.0, -0.00011000000000000002)","(0.0, -0.0, 0.0)","(-0.00020639200376884723, 0.1712270684522872, 0.002089300158056354)","(1.530789481542759, -0.00042293862042792874, -0.013553314145867688)","[-0.0004913354917828259, -5.819809606946724e-05, 0.0002225226325113525]","[-0.026750000193715096, 0.05299999937415123, 0.03999999910593033]","[0.0, -0.0, 0.5507794623424415]","[-0.0644313171505928, 0.11435241252183914, 0.03999999910593033]","[0.0, 0.0, -0.20835684604516336]","[0.026750000193715096, 0.05299999937415123, 0.03999999910593033]","[0.0, 0.0, -0.5498319387924464]","[0.06437316536903381, 0.11438809335231781, 0.03999999910593033]","[0.0, -0.0, 0.21469062179765436]",0.5511290698697999,0.08390023544762747,"(0.0, 0.0, 0.0, 0.0, 0.0, 0.0)",-0.013612231616693903,-0.7591544359901252,-0.004349716107941907,"(0.0, 0.0, 0.0, 0.0, 0.0, 0.0)",-0.0009669979725147945,-0.5502037510265391,-0.08923778609343369,"(0.0, 0.0, 0.0, 0.0, 0.0, 0.0)",0.014486991348869797,0.764538807292877,0.0039016042131414393,"(0.0, 0.0, 0.0, 0.0, 0.0, 0.0)",0.0010373154313741164,True,"(-0.031746369710604405, 0.18685384385673415, 0.04000048379777732)","(0.9999183672556636, -0.012768115149792114, 0.00048379777731588576)",-0.00021732623274290427,0.0,True,"(0.03122956619107528, 0.1867129180830662, 0.03999951620222268)","(-0.9999183672556636, 0.012768115149800415, -0.0004837977773190783)",-0.000730078253228599,0.0
18,Move,"(-0.00023, 0.0, -0.00011999999999999999)","(0.0, -0.0, 0.0)","(-0.00045796123262964656, 0.1712731052513423, 0.0010429783583127783)","(1.5820992291252427, 0.006342565966429916, -0.010336735355143954)","[-0.0007429047206436252, -1.2161297014368078e-05, -0.0008237991672322234]","[-0.026750000193715096, 0.05299999937415123, 0.03999999910593033]","[0.0, -0.0, 0.5521391039771995]","[-0.06451469659805298, 0.11430112272500992, 0.03999999910593033]","[0.0, 0.0, -0.20702703206222003]","[0.026750000193715096, 0.05299999937415123, 0.03999999910593033]","[0.0, 0.0, -0.551499172009063]","[0.06447545439004898, 0.11432527750730515, 0.03999999910593033]","[0.0, -0.0, 0.21291063704683727]",0.5523262618038353,0.044914813573902285,"(0.0, 0.0, 0.0, 0.0, 0.0, 0.0)",-0.07952720022181213,-0.7591636953856733,0.0005908541472585292,"(0.0, 0.0, 0.0, 0.0, 0.0, 0.0)",-0.03913743095898105,-0.5517560769640164,-0.06166791211830082,"(0.0, 0.0, 0.0, 0.0, 0.0, 0.0)",0.015625459184847784,0.7644226894191718,0.003096476632140188,"(0.0, 0.0, 0.0, 0.0, 0.0, 0.0)",0.004886471279044002,True,"(-0.03192620593801293, 0.18684576494570188, 0.039995081738922904)","(0.999920299034667, -0.011627823803254944, -0.004918261077100279)",-6.48207440756808e-05,0.5398097008601714,True,"(0.03146062185865898, 0.18670606714705662, 0.040004918261077105)","(-0.9999202990346671, 0.011627823803264171, 0.0049182610771015675)",-0.0004718258253744637,0.0
19,Move,"(-0.00019, 0.0, -0.0001)","(0.0, -0.0, 0.0)","(-0.00046133843896453545, 0.17127919706685993, 0.000979544907732519)","(1.5760318027122993, 0.004958308713801439, -0.010302836691309096)","[-0.0007462819269785141, -6.0694814967288124e-06, -0.0008872326178124825]","[-0.026750000193715096, 0.05299999937415123, 0.03999999910593033]","[0.0, -0.0, 0.5525888266211642]","[-0.064542256295681, 0.11428413540124893, 0.03999999910593033]","[0.0, 0.0, -0.20629280122282978]","[0.026750000193715096, 0.05299999937415123, 0.03999999910593033]","[0.0, 0.0, -0.5522903649229474]","[0.06452397257089615, 0.11429540812969208, 0.03999999910593033]","[0.0, -0.0, 0.2119466907951553]",0.5526199201547103,0.007467406601274737,"(0.0, 0.0, 0.0, 0.0, 0.0, 0.0)",-0.4534003824099774,-0.7587076092496992,0.04175845552842383,"(0.0, 0.0, 0.0, 0.0, 0.0, 0.0)",-0.25338823517795245,-0.5523679314642072,-0.01861281391820047,"(0.0, 0.0, 0.0, 0.0, 0.0, 0.0)",0.007360893470355697,0.7642556316679934,0.0044548733647582495,"(0.0, 0.0, 0.0, 0.0, 0.0, 0.0)",0.002832307991780196,True,"(-0.03200703875948149, 0.18685328406916707, 0.03999463209579622)","(0.9999326044916491, -0.010294274088334793, -0.00536790420378304)",-4.654633246365458e-05,3.4227189385875953,True,"(0.03157889786449748, 0.1867056918474762, 0.04000536790420379)","(-0.9999326044916493, 0.010294274088338695, 0.005367904203786432)",-0.000290339101649349,0.0
20,Move,"(-0.00015000000000000001, 0.0, -8e-05)","(0.0, -0.0, 0.0)","(-0.0004589944471575094, 0.17127907565338685, 0.0009831485363672903)","(1.574268331629066, 0.0033205013641823375, -0.010201856670540993)","[-0.0007439379351714881, -6.190894969809735e-06, -0.0008836289891777113]","[-0.026750000193715096, 0.05299999937415123, 0.03999999910593033]","[0.0, -0.0, 0.5528304514974565]","[-0.06455706804990768, 0.1142750009894371, 0.03999999910593033]","[0.0, 0.0, -0.2054874097025199]","[0.026750000193715096, 0.05299999937415123, 0.03999999910593033]","[0.0, 0.0, -0.5529394742773981]","[0.06456374377012253, 0.114270880818367, 0.03999999910593033]","[0.0, -0.0, 0.2113283635880331]",0.5528797295098958,0.011836996026748998,"(0.0, 0.0, 0.0, 0.0, 0.0, 0.0)",-0.2731901623714881,-0.7582404304428079,0.018573507061575772,"(0.0, 0.0, 0.0, 0.0, 0.0, 0.0)",-0.15203248891676402,-0.5530744016415803,-0.03239085635983408,"(0.0, 0.0, 0.0, 0.0, 0.0, 0.0)",0.005278987666774961,0.7642665923270482,-0.00029228424146054977,"(0.0, 0.0, 0.0, 0.0, 0.0, 0.0)",0.0003970487163534888,True,"(-0.032080299833997246, 0.18686961875683405, 0.039996403273892776)","(0.9999414936823615, -0.010201606422405755, -0.003596726107227394)",-4.089905940125927e-05,2.0304834767376136,True,"(0.03166343806667633, 0.18670080714956136, 0.040003596726107225)","(-0.9999414936823614, 0.010201606422396356, 0.0035967261072238224)",-0.00013739455216428025,0.0
21,Move,"(-0.00011000000000000002, 0.0, -5.9999999999999995e-05)","(0.0, -0.0, 0.0)","(-0.0004600761377525139, 0.17128009357868842, 0.0009853216800176626)","(1.5730932831520532, 0.0022203512078513427, -0.010201974818184582)","[-0.0007450196257664926, -5.17296966823233e-06, -0.0008814558455273391]","[-0.026750000193715096, 0.05299999937415123, 0.03999999910593033]","[0.0, -0.0, 0.5530675976187891]","[-0.06457159668207169, 0.11426603049039841, 0.03999999910593033]","[0.0, 0.0, -0.2049416862844833]","[0.026750000193715096, 0.05299999937415123, 0.03999999910593033]","[0.0, 0.0, -0.5537738458800616]","[0.06461485475301743, 0.11423930525779724, 0.03999999910593033]","[0.0, -0.0, 0.21049194341876912]",0.553106384869754,0.009310580126458579,"(0.0, 0.0, 0.0, 0.0, 0.0, 0.0)",-0.174020233493242,-0.7579625680838001,0.011209177217831434,"(0.0, 0.0, 0.0, 0.0, 0.0, 0.0)",-0.09675385663080975,-0.5539293159203625,-0.03731438248271601,"(0.0, 0.0, 0.0, 0.0, 0.0, 0.0)",0.006077077601465275,0.7642658731982077,1.9176769079365386e-05,"(0.0, 0.0, 0.0, 0.0, 0.0, 0.0)",0.0004530741718904938,True,"(-0.032134455783211224, 0.18687781669379555, 0.03999759407945693)","(0.999945065950644, -0.010201795298011272, -0.0024059205430686124)",-3.419010274391619e-05,1.2917506803262342,True,"(0.03177512992476475, 0.18669589089560024, 0.04000240592054308)","(-0.999945065950644, 0.010201795298016321, 0.0024059205430738066)",2.211101366801111e-05,0.0
22,Move,"(-7.000000000000001e-05, 0.0, -0.00011000000000000002)","(0.0, 0.06885498432042829, 0.0)","(-0.0003366124347425561, 0.17130139941141664, 0.0009864216641020532)","(1.5723160104823966, 0.0014774820132679668, -0.01197036529698771)","[-0.0006215559227565348, 1.6132863059986624e-05, -0.0008803558614429484]","[-0.026750000193715096, 0.05299999937415123, 0.03999999910593033]","[0.0, -0.0, 0.5523332338840434]","[-0.06452659517526627, 0.11429379135370255, 0.03999999910593033]","[0.0, 0.0, -0.20539706106237776]","[0.026750000193715096, 0.05299999937415123, 0.03999999910593033]","[0.0, 0.0, -0.5551851371720117]","[0.06470124423503876, 0.11418580263853073, 0.03999999910593033]","[0.0, -0.0, 0.20908077143765624]",0.5521153841779919,-0.05228324282807011,"(0.0, 0.0, 0.0, 0.0, 0.0, 0.0)",-0.5260611722986446,-0.7576899141471712,0.009688169362917356,"(0.0, 0.0, 0.0, 0.0, 0.0, 0.0)",-0.3134521253965494,-0.555485338901011,-0.07204414491054047,"(0.0, 0.0, 0.0, 0.0, 0.0, 0.0)",0.01173352355769313,0.7642659203802509,-1.258187817931855e-06,"(0.0, 0.0, 0.0, 0.0, 0.0, 0.0)",0.000875174341877695,True,"(-0.03205640162458836, 0.18688983634147405, 0.0399983965723996)","(0.9999312318621608, -0.01161725296927957, -0.001603427600400214)",-2.6111713750616e-05,4.027890967452195,True,"(0.03196380080671056, 0.18668866573544668, 0.040001603427600396)","(-0.9999312318621607, 0.011617252969273436, 0.0016034276003937626)",0.00012424512524272433,0.0
23,Move,"(-0.0006000000000000001, 0.0, -5.9999999999999995e-05)","(0.0, 0.1033252370473163, 0.0)","(-0.0001778209312739885, 0.17131646104266773, 0.0009870488949489684)","(1.5718014844108186, 0.0009819399689314106, -0.01396624946123527)","[-0.0004627644192879672, 3.119449431107646e-05, -0.0008797286305960333]","[-0.026750000193715096, 0.05299999937415123, 0.03999999910593033]","[0.0, -0.0, 0.5510032886543212]","[-0.06444504112005234, 0.11434397846460342, 0.03999999910593033]","[0.0, 0.0, -0.20648121521050875]","[0.026750000193715096, 0.05299999937415123, 0.03999999910593033]","[0.0, 0.0, -0.5566401400254365]","[0.06479022651910782, 0.11413052678108215, 0.03999999910593033]","[0.0, -0.0, 0.20762589062168085]",0.5507568387209716,-0.05914155275410628,"(0.0, 0.0, 0.0, 0.0, 0.0, 0.0)",-0.5280844507656114,-0.7574342305954255,0.012063230363998867,"(0.0, 0.0, 0.0, 0.0, 0.0, 0.0)",-0.3175585427523547,-0.5568779717123342,-0.05710580784916797,"(0.0, 0.0, 0.0, 0.0, 0.0, 0.0)",0.009300622063663206,0.7642659172846371,8.254970040866283e-08,"(0.0, 0.0, 0.0, 0.0, 0.0, 0.0)",0.0006937132499853525,True,"(-0.031896172566403036, 0.1869038580775918, 0.03999893445736679)","(0.999906664162895, -0.013620850984007097, -0.0010655426332173948)",-1.9214392319775048e-05,4.056056137631816,True,"(0.03215830287325053, 0.18668148792773576, 0.04000106554263322)","(-0.999906664162895, 0.013620850984003948, 0.0010655426332158273)",0.00015073947623855423,0.0
24,Move,"(-0.00256, 0.0, -0.00038)","(0.0, 0.17193762060171738, 0.0)","(-2.2494501211443573e-05, 0.17133217068230913, 0.0009882891438069974)","(1.571479533958661, 0.0006790802493747141, -0.015804354264372947)","[-0.00030743798922542226, 4.69041339524745e-05, -0.0008784883817380042]","[-0.026750000193715096, 0.05299999937415123, 0.03999999910593033]","[0.0, -0.0, 0.5494146036170063]","[-0.0643475353717804, 0.11440379172563553, 0.03999999910593033]","[0.0, 0.0, -0.20765032299009187]","[0.026750000193715096, 0.05299999937415123, 0.03999999910593033]","[0.0, 0.0, -0.5567295047141144]","[0.06479569524526596, 0.11412712186574936, 0.03999999910593033]","[0.0, -0.0, 0.20736909510606574]",0.5491246248526047,-0.06957729302900904,"(0.0, 0.0, 0.0, 0.0, 0.0, 0.0)",-0.9288479166039999,-0.7567046143785126,0.08645480774792247,"(0.0, 0.0, 0.0, 0.0, 0.0, 0.0)",-0.5067803339083836,-0.5566498131623695,0.019118585484092187,"(0.0, 0.0, 0.0, 0.0, 0.0, 0.0)",0.5059973405865357,0.7638161751343454,-0.0677754812341532,"(0.0, 0.0, 0.0, 0.0, 0.0, 0.0)",0.2439687995020158,True,"(-0.031713871987624036, 0.18692474736298267, 0.03999928381056237)","(0.9998779223501357, -0.015608570385058114, -0.0007161894376310138)",-1.4557932959631208e-05,7.065095643462501,True,"(0.032182426858851795, 0.18668819326785607, 0.040000716189437624)","(-0.9998779223501357, 0.01560857038506391, 0.0007161894376224337)",-1.3250662735280141e-05,3.8359988189373646
25,Move,"(-0.0062900000000000005, 0.0, -0.00118)","(0.0, 0.12143826402451346, 0.0)","(-0.0003244781927572544, 0.17134600725859347, 0.0009948841968027643)","(1.570651381881964, -0.00031115393820982677, -0.013221103629750416)","[-0.0006094216807712331, 6.0740710236817375e-05, -0.0008718933287422373]","[-0.026750000193715096, 0.05299999937415123, 0.03999999910593033]","[0.0, -0.0, 0.550823658016483]","[-0.06443402171134949, 0.11435075104236603, 0.03999999910593033]","[0.0, 0.0, -0.20493225024355205]","[0.026750000193715096, 0.05299999937415123, 0.03999999910593033]","[0.0, 0.0, -0.5537756141791514]","[0.06461496651172638, 0.11423923820257187, 0.03999999910593033]","[0.0, -0.0, 0.2089371982539123]",0.551352356715819,0.12689946841527253,"(0.0, 0.0, 0.0, 0.0, 0.0, 0.0)",-0.4376083938246832,-0.7555992074356174,0.03759656212923712,"(0.0, 0.0, 0.0, 0.0, 0.0, 0.0)",-0.20225084464629628,-0.5530251216195032,0.18010856117873517,"(0.0, 0.0, 0.0, 0.0, 0.0, 0.0)",0.9600004323501087,0.7625229721636412,-0.045558107289875374,"(0.0, 0.0, 0.0, 0.0, 0.0, 0.0)",0.5894689149675566,True,"(-0.03199760333861178, 0.18695943133480575, 0.04000031925176583)","(0.9999074606487549, -0.013600302102119882, 0.00031925176582889633)",-1.1827107947090122e-05,3.0751712973444447,True,"(0.031887946781427735, 0.18674863841674735, 0.03999968074823417)","(-0.9999074606487547, 0.013600302102124826, -0.00031925176582439375)",-2.5666433413815974e-05,7.425781489337825
26,Move,"(-0.010150000000000001, 0.0, -0.00487)","(0.0, -0.0, 0.0)","(-0.001268032077070489, 0.17140761238000957, 0.0009981699542022688)","(1.5706342436679177, -0.00043123343017810255, -0.010458271785128715)","[-0.0015529755650844678, 0.00012234583165290913, -0.0008686075713427329]","[-0.026750000193715096, 0.05299999937415123, 0.03999999910593033]","[0.0, -0.0, 0.5561765080085344]","[-0.06476188451051712, 0.11414815485477448, 0.03999999910593033]","[0.0, 0.0, -0.1975008362320216]","[0.026750000193715096, 0.05299999937415123, 0.03999999910593033]","[0.0, 0.0, -0.5456652105108212]","[0.06411705166101456, 0.11454431712627411, 0.03999999910593033]","[0.0, -0.0, 0.2146287910358023]",0.5573451099516568,0.2804797525492545,"(0.0, 0.0, 0.0, 0.0, 0.0, 0.0)",-1.5120383862602786,-0.7531301918540256,0.13130197360067847,"(0.0, 0.0, 0.0, 0.0, 0.0, 0.0)",-0.764833499861857,-0.5438647688433887,0.43211796585008483,"(0.0, 0.0, 0.0, 0.0, 0.0, 0.0)",1.8028588761426467,0.7597813770201853,-0.123035999654177,"(0.0, 0.0, 0.0, 0.0, 0.0, 0.0)",1.0420469437171658,True,"(-0.03286597628894918, 0.1869913508127676, 0.040000437737991244)","(0.9999426929634585, -0.010696689882259552, 0.00043773799124156604)",-2.0588006709886085e-05,10.8684690133224,True,"(0.030977905386745164, 0.186869064672902, 0.03999956226200876)","(-0.9999426929634586, 0.01069668988225651, -0.0004377379912475536)",-5.787972513153456e-05,14.003653637269213
27,Move,"(-0.013519999999999999, 0.0, -0.01119)","(0.0, 0.034222415973104825, 0.0)","(-0.0024573843895297153, 0.1716500314913948, 0.0009957525412641163)","(1.570588757430878, -0.00037490420885580804, -0.008707026621376488)","[-0.002742327877543694, 0.0003647649430381372, -0.0008710249842808853]","[-0.026750000193715096, 0.05299999937415123, 0.03999999910593033]","[0.0, -0.0, 0.561474631344622]","[-0.06508532166481018, 0.11394590139389038, 0.03999999910593033]","[0.0, 0.0, -0.18578376498810362]","[0.026750000193715096, 0.05299999937415123, 0.03999999910593033]","[0.0, 0.0, -0.5327256104837922]","[0.06331758201122284, 0.115022674202919, 0.03999999910593033]","[0.0, -0.0, 0.2211398404213956]",0.5623018270459118,0.1985242186140654,"(0.0, 0.0, 0.0, 0.0, 0.0, 0.0)",-4.3684994071169845,-0.7458109028573175,0.34740248922339256,"(0.0, 0.0, 0.0, 0.0, 0.0, 0.0)",-2.3202852853751255,-0.5301660080815903,0.6142928150336693,"(0.0, 0.0, 0.0, 0.0, 0.0, 0.0)",4.770615865742678,0.7524156204666328,-0.34794314882351235,"(0.0, 0.0, 0.0, 0.0, 0.0, 0.0)",2.6192506632395562,True,"(-0.03404513517394119, 0.1871477709069504, 0.040000385176869685)","(0.9999591938314992, -0.009025647380512654, 0.00038517686969079284)",-3.281014065717278e-05,32.19740804783279,True,"(0.029708261693532204, 0.18713495477030373, 0.039999614823130324)","(-0.9999591938314992, 0.00902564738050844, -0.00038517686967919627)",-0.00013627752407836528,36.281850758881134
28,Move,"(-0.01482, 0.0, -0.018490000000000003)","(0.0, 0.10187835909741304, 0.0)","(-0.003513944810125959, 0.17208291762931205, 0.0009924642637515486)","(1.5705135724229182, -0.0003104493760132097, -0.007089643654377253)","[-0.003798888298139938, 0.0007976510809553916, -0.0008743132617934531]","[-0.026750000193715096, 0.05299999937415123, 0.03999999910593033]","[0.0, -0.0, 0.5628956122277163]","[-0.06517188251018524, 0.1138913705945015, 0.03999999910593033]","[0.0, 0.0, -0.172156365824431]","[0.026750000193715096, 0.05299999937415123, 0.03999999910593033]","[0.0, 0.0, -0.5169482526112017]","[0.06233452260494232, 0.1155918687582016, 0.03999999910593033]","[0.0, -0.0, 0.2248951979974259]",0.5628542383703717,-0.009923459326848034,"(0.0, 0.0, 0.0, 0.0, 0.0, 0.0)",-7.8512205841952625,-0.7325008370861841,0.6122617857229574,"(0.0, 0.0, 0.0, 0.0, 0.0, 0.0)",-4.227324062094073,-0.5140121516994255,0.704667718389234,"(0.0, 0.0, 0.0, 0.0, 0.0, 0.0)",8.195325333939072,0.7393669218943512,-0.5943624485682162,"(0.0, 0.0, 0.0, 0.0, 0.0, 0.0)",4.467596314058987,True,"(-0.035132118239246515, 0.18749744310018684, 0.04000032326152101)","(0.999972713472022, -0.0073802312559048434, 0.000323261521011319)",-5.757770238446646e-05,58.17910274868165,True,"(0.028454645782979758, 0.18757953619323134, 0.039999676738478984)","(-0.999972713472022, 0.00738023125590054, -0.0003232615210192673)",-0.0002779977899735558,61.6959702067419
29,Move,"(-0.015490000000000002, 0.0, -0.023540000000000002)","(0.0, 0.12178209388715636, 0.0)","(-0.004451884991667698, 0.17266235809297947, 0.0009785186404389192)","(1.5710355160789127, -0.00022920506819608394, -0.005667998984895909)","[-0.0047368284796816765, 0.001377091544622816, -0.0008882588851060825]","[-0.026750000193715096, 0.05299999937415123, 0.03999999910593033]","[0.0, -0.0, 0.5607741212353488]","[-0.06504262238740921, 0.1139727383852005, 0.03999999910593033]","[0.0, 0.0, -0.15757077725407093]","[0.026750000193715096, 0.05299999937415123, 0.03999999910593033]","[0.0, 0.0, -0.49979232901603904]","[0.06125551462173462, 0.11619310826063156, 0.03999999910593033]","[0.0, -0.0, 0.22579336668984865]",0.560220397978227,-0.1329021120458947,"(0.0, 0.0, 0.0, 0.0, 0.0, 0.0)",-9.99697386580068,-0.7151531878745435,0.766019106853226,"(0.0, 0.0, 0.0, 0.0, 0.0, 0.0)",-5.400345270948543,-0.496680516676714,0.7468347239661588,"(0.0, 0.0, 0.0, 0.0, 0.0, 0.0)",10.423483032236128,0.722472151341151,-0.7472525504459585,"(0.0, 0.0, 0.0, 0.0, 0.0, 0.0)",5.634625873768107,True,"(-0.036079590255872325, 0.18799594853137153, 0.040000247991961925)","(0.9999821862551412, -0.0059636962007752455, 0.0002479919619187052)",-8.778074512195856e-05,73.93267704917038,True,"(0.02731098993279535, 0.18814980250841218, 0.03999975200803809)","(-0.999982186255141, 0.005963696200768855, -0.0002479919619108676)",-0.00044368432877226377,77.95215920858743
30,Move,"(-0.014860000000000002, 0.0, -0.025900000000000003)","(0.0, 0.12178209388715636, 0.0)","(-0.005207967484610379, 0.1732442059019515, 0.000978285608768886)","(1.5705990959757703, -0.00012470746301372903, -0.0042933449605821435)","[-0.005492910972624357, 0.0019589393535948407, -0.0008884919167761157]","[-0.026750000193715096, 0.05299999937415123, 0.03999999910593033]","[0.0, -0.0, 0.5562832543912216]","[-0.06476841121912003, 0.11414409428834915, 0.03999999910593033]","[0.0, 0.0, -0.14332547356210928]","[0.026750000193715096, 0.05299999937415123, 0.03999999910593033]","[0.0, 0.0, -0.4830985161761553]","[0.06019582226872444, 0.11676030606031418, 0.03999999910593033]","[0.0, -0.0, 0.22425942426567647]",0.5553573228349705,-0.2222258391163921,"(0.0, 0.0, 0.0, 0.0, 0.0, 0.0)",-10.784339999923432,-0.6962001336884782,0.8180643901433993,"(0.0, 0.0, 0.0, 0.0, 0.0, 0.0)",-5.828018084325565,-0.4801988606183785,0.6959198928638164,"(0.0, 0.0, 0.0, 0.0, 0.0, 0.0)",11.203758593973706,0.7040492623839641,-0.7940890883784391,"(0.0, 0.0, 0.0, 0.0, 0.0, 0.0)",6.019169728780389,True,"(-0.03686274525170696, 0.18855952990692965, 0.04000014669940816)","(0.9999896267899493, -0.004552448987242292, 0.00014669940816257224)",-0.00011196389646582228,79.47613293028927,True,"(0.02636169680120478, 0.18876603765180683, 0.03999985330059184)","(-0.9999896267899494, 0.004552448987250535, -0.00014669940816307322)",-0.0005851884276172241,83.28091289663607
31,Move,"(-0.013980000000000001, 0.0, -0.02754)","(0.0, 0.20944300089782356, 0.0)","(-0.005568005124838996, 0.17390426000797246, 0.0009753065312887459)","(1.570237476930402, -7.413031967639881e-06, -0.0035925281256241255)","[-0.005852948612852974, 0.0026189934596158038, -0.0008914709942562558]","[-0.026750000193715096, 0.05299999937415123, 0.03999999910593033]","[0.0, -0.0, 0.5479730162349515]","[-0.06425897777080536, 0.11445792764425278, 0.03999999910593033]","[0.0, 0.0, -0.1309112934060701]","[0.026750000193715096, 0.05299999937415123, 0.03999999910593033]","[0.0, 0.0, -0.46826500921611125]","[0.05924639105796814, 0.11724939197301865, 0.03999999910593033]","[0.0, -0.0, 0.21898156077244]",0.5462081637031361,-0.42354752310836663,"(0.0, 0.0, 0.0, 0.0, 0.0, 0.0)",-12.283393625159011,-0.6750221320140544,0.9269012652721924,"(0.0, 0.0, 0.0, 0.0, 0.0, 0.0)",-6.637334716255637,-0.46575640208967345,0.6020688128342451,"(0.0, 0.0, 0.0, 0.0, 0.0, 0.0)",12.452809460713699,0.683534535130809,-0.8908919874691446,"(0.0, 0.0, 0.0, 0.0, 0.0, 0.0)",6.65693104977317,True,"(-0.03727922169009837, 0.18920247457179173, 0.040000030814198846)","(0.999993127544662, -0.003707278507245532, 3.081419885101711e-05)",-0.00014096981131896574,90.25747244079011,True,"(0.025792728551258956, 0.18942656943040093, 0.039999969185801135)","(-0.999993127544662, 0.0037072785072452606, -3.081419886320159e-05)",-0.0007083425679983191,91.91125168844178
32,Move,"(-0.01334, 0.0, -0.029270000000000004)","(0.0, 0.18846763394735566, 0.0)","(-0.005808267662536959, 0.17457421462728567, 0.0009683975582450334)","(1.5701260491720805, 0.00011145067325751641, -0.0030717199052011025)","[-0.0060932111505509375, 0.003288948078929016, -0.0008983799672999682]","[-0.026750000193715096, 0.05299999937415123, 0.03999999910593033]","[0.0, -0.0, 0.5378636718552618]","[-0.06363577395677567, 0.11483396589756012, 0.03999999910593033]","[0.0, 0.0, -0.11946853193844932]","[0.026750000193715096, 0.05299999937415123, 0.03999999910593033]","[0.0, 0.0, -0.45470144857141526]","[0.058371976017951965, 0.11768423765897751, 0.03999999910593033]","[0.0, -0.0, 0.2117646887317455]",0.5360442505875698,-0.43665928578836033,"(0.0, 0.0, 0.0, 0.0, 0.0, 0.0)",-12.306286668449038,-0.6534946633454836,0.9210090652306917,"(0.0, 0.0, 0.0, 0.0, 0.0, 0.0)",-6.6650367238658905,-0.45233587795332814,0.5677335872164839,"(0.0, 0.0, 0.0, 0.0, 0.0, 0.0)",12.57191676056801,0.6627786655015595,-0.8849910267844013,"(0.0, 0.0, 0.0, 0.0, 0.0, 0.0)",6.602015364102939,True,"(-0.037513025370166285, 0.1898714138131079, 0.03999991532042643)","(0.9999949097162909, -0.0031895722090473574, -8.467957357182862e-05)",-0.00016229774787117674,90.03924696696092,True,"(0.02544001917224621, 0.19009322827483496, 0.040000084679573576)","(-0.999994909716291, 0.003189572209037692, 8.467957356990218e-05)",-0.0008056840437189004,92.33453987888576
33,Move,"(-0.012839999999999999, 0.0, -0.03026)","(0.0, 0.18846763394735566, 0.0)","(-0.0059473161154321354, 0.17523103157773476, 0.0009604042888806101)","(1.5700140647284204, 0.0002520800414233692, -0.0027930905133408757)","[-0.006232259603446114, 0.003945765029378101, -0.0009063732366643916]","[-0.026750000193715096, 0.05299999937415123, 0.03999999910593033]","[0.0, -0.0, 0.5271333948342094]","[-0.06297017633914948, 0.11522619426250458, 0.03999999910593033]","[0.0, 0.0, -0.10869142918246232]","[0.026750000193715096, 0.05299999937415123, 0.03999999910593033]","[0.0, 0.0, -0.44211506941641693]","[0.05755534768104553, 0.1180771142244339, 0.03999999910593033]","[0.0, -0.0, 0.20368142563317782]",0.5251753734332933,-0.46993381009083773,"(0.0, 0.0, 0.0, 0.0, 0.0, 0.0)",-12.372736184432538,-0.6319870032519427,0.921089539393184,"(0.0, 0.0, 0.0, 0.0, 0.0, 0.0)",-6.6873273534903985,-0.43993898329298187,0.5222423492858355,"(0.0, 0.0, 0.0, 0.0, 0.0, 0.0)",12.54173051083561,0.6421260245027749,-0.8808889663543602,"(0.0, 0.0, 0.0, 0.0, 0.0, 0.0)",6.539253457850968,True,"(-0.03765758384524895, 0.19053036645236968, 0.039999778611371904)","(0.9999959145629619, -0.0028498849908206642, -0.00022138862809658629)",-0.00017584339095899295,90.09994045188489,True,"(0.025209704583580815, 0.19074150977035625, 0.04000022138862809)","(-0.9999959145629618, 0.0028498849908043787, 0.00022138862808895963)",-0.0008777252303201524,91.64688703980352
34,Move,"(-0.012790000000000003, 0.0, -0.030600000000000002)","(0.0, 0.20944300089782356, 0.0)","(-0.005983729203456537, 0.17587400184831153, 0.0009513287053515777)","(1.569885419335072, 0.0004111691021995564, -0.0028557687350876087)","[-0.006268672691470516, 0.004588735299954877, -0.0009154488201934239]","[-0.026750000193715096, 0.05299999937415123, 0.03999999910593033]","[0.0, -0.0, 0.5156293243147625]","[-0.06225193291902542, 0.11563874781131744, 0.03999999910593033]","[0.0, 0.0, -0.09870777903181929]","[0.026750000193715096, 0.05299999937415123, 0.03999999910593033]","[0.0, 0.0, -0.4305389510318447]","[0.05679996311664581, 0.11842934787273407, 0.03999999910593033]","[0.0, -0.0, 0.1947216261038809]",0.5135323175052594,-0.5032647562283463,"(0.0, 0.0, 0.0, 0.0, 0.0, 0.0)",-12.471345084705545,-0.6104797079194212,0.9257554312169319,"(0.0, 0.0, 0.0, 0.0, 0.0, 0.0)",-6.730586226335511,-0.42853666029609283,0.4805472543580097,"(0.0, 0.0, 0.0, 0.0, 0.0, 0.0)",12.478728440726595,0.6216139019676002,-0.8751998392250802,"(0.0, 0.0, 0.0, 0.0, 0.0, 0.0)",6.472874123785384,True,"(-0.03769238195770166, 0.191181895579114, 0.039999623358929835)","(0.9999958700115047, -0.002849228217965286, -0.0003766410701657299)",-0.00018924803459456432,90.41297227855274,True,"(0.025106601920437843, 0.19137167484935808, 0.04000037664107014)","(-0.9999958700115046, 0.0028492282179790195, 0.00037664107014411934)",-0.0009325668320774109,90.74036913896555
35,Move,"(-0.012130000000000002, 0.0, -0.030730000000000004)","(0.0, 0.20944300089782356, 0.0)","(-0.005919992565071583, 0.17658739591194914, 0.0009046684019115284)","(1.5721983859834925, 0.0005659604067267943, -0.0031153366107081783)","[-0.006204936053085561, 0.005302129363592478, -0.0009621091236334732]","[-0.026750000193715096, 0.05299999937415123, 0.03999999910593033]","[0.0, -0.0, 0.5036385384104671]","[-0.061498310416936874, 0.11605992913246155, 0.03999999910593033]","[0.0, 0.0, -0.089596347699376]","[0.026750000193715096, 0.05299999937415123, 0.03999999910593033]","[0.0, 0.0, -0.4201456332761716]","[0.056118328124284744, 0.11873812973499298, 0.03999999910593033]","[0.0, -0.0, 0.18509433101456155]",0.5014780206645507,-0.518516079881387,"(0.0, 0.0, 0.0, 0.0, 0.0, 0.0)",-12.083686266204355,-0.5894937375267257,0.8978674496449041,"(0.0, 0.0, 0.0, 0.0, 0.0, 0.0)",-6.616831818465298,-0.4183686464053843,0.4264830502755773,"(0.0, 0.0, 0.0, 0.0, 0.0, 0.0)",12.120758224326078,0.601610392638056,-0.8711063562911795,"(0.0, 0.0, 0.0, 0.0, 0.0, 0.0)",6.4156871732198315,True,"(-0.037628062786227726, 0.19181435611357256, 0.039999452862196014)","(0.999995068514501, -0.003092504955807968, -0.0005471378039854581)",-0.0002003768876301298,87.5165003084947,True,"(0.025128586959507957, 0.19197280546664958, 0.040000547137803995)","(-0.9999950685145012, 0.00309250495581721, 0.0005471378039917117)",-0.0009637718318331257,87.64624682853166
36,Move,"(-0.01174, 0.0, -0.031330000000000004)","(0.0, 0.20944300089782356, 0.0)","(-0.005851128501026626, 0.17699500437002766, 0.0009511614176381)","(1.568821063129948, 0.0009476577579824953, -0.003833506773846124)","[-0.0061360719890406045, 0.0057097378216710015, -0.0009156161079069017]","[-0.026750000193715096, 0.05299999937415123, 0.03999999910593033]","[0.0, -0.0, 0.491410150585547]","[-0.060724616050720215, 0.11648011952638626, 0.03999999910593033]","[0.0, 0.0, -0.08117885843922128]","[0.026750000193715096, 0.05299999937415123, 0.03999999910593033]","[0.0, 0.0, -0.41065850948801175]","[0.05549335107207298, 0.11901378631591797, 0.03999999910593033]","[0.0, -0.0, 0.17564913179927247]",0.489214135165439,-0.527048511113394,"(0.0, 0.0, 0.0, 0.0, 0.0, 0.0)",-12.383852391663044,-0.5688098060057235,0.9070106193287644,"(0.0, 0.0, 0.0, 0.0, 0.0, 0.0)",-6.468225243539648,-0.4090034089683587,0.39723249397542804,"(0.0, 0.0, 0.0, 0.0, 0.0, 0.0)",11.548836068349315,0.5829698536802804,-0.8010760483998455,"(0.0, 0.0, 0.0, 0.0, 0.0, 0.0)",5.797047850167051,True,"(-0.03749286001431691, 0.19242380594161823, 0.03999911396122596)","(0.9999929256574173, -0.003655621754244176, -0.0008860387740366147)",-0.00023726773504493057,88.48234553466698,True,"(0.025196627328724623, 0.1925290156409014, 0.04000088603877404)","(-0.9999929256574172, 0.0036556217542330787, 0.0008860387740420851)",-0.0009940729633797752,83.30618953547811
37,Move,"(-0.011540000000000002, 0.0, -0.03177)","(0.0, 0.20944300089782356, 0.0)","(-0.005763657200235623, 0.17732693410217962, 0.0010371553449073187)","(1.5651812792556863, 0.0009500262322105448, -0.005522022127681075)","[-0.006048600688249602, 0.00604166755382296, -0.0008296221806376829]","[-0.026750000193715096, 0.05299999937415123, 0.03999999910593033]","[0.0, -0.0, 0.4790531838196045]","[-0.059937622398138046, 0.11689508706331253, 0.03999999910593033]","[0.0, 0.0, -0.07239671482853129]","[0.026750000193715096, 0.05299999937415123, 0.03999999910593033]","[0.0, 0.0, -0.401730675998586]","[0.05490284413099289, 0.1192677691578865, 0.03999999910593033]","[0.0, -0.0, 0.1661793920904233]",0.476842196500437,-0.5306442319223257,"(0.0, 0.0, 0.0, 0.0, 0.0, 0.0)",-12.14215629884762,-0.5477465615983345,0.8888070220707566,"(0.0, 0.0, 0.0, 0.0, 0.0, 0.0)",-6.605575548595384,-0.4001839599764948,0.37119290656516524,"(0.0, 0.0, 0.0, 0.0, 0.0, 0.0)",11.401488951246325,0.5645860892920698,-0.7977346721280841,"(0.0, 0.0, 0.0, 0.0, 0.0, 0.0)",5.728057380223778,True,"(-0.03737370058189231, 0.19302955509513847, 0.039999005553413146)","(0.9999860722169324, -0.0051832854579003515, -0.0009944465868571165)",-0.00025406892445530645,87.11344789638004,True,"(0.02530356754948871, 0.1930586602872299, 0.04000099444658685)","(-0.9999860722169323, 0.005183285457906704, 0.000994446586842549)",-0.0009896871154859961,81.93634235732428
38,Move,"(-0.011540000000000002, 0.0, -0.03177)","(0.0, 0.20944300089782356, 0.0)","(-0.005549626147033179, 0.17803482349077793, 0.0009688056248317953)","(1.5690133948174392, 0.0010447611885517712, -0.005976348947366843)","[-0.005834569635047158, 0.00674955694242127, -0.0008979719007132063]","[-0.026750000193715096, 0.05299999937415123, 0.03999999910593033]","[0.0, -0.0, 0.46677106429685994]","[-0.059150367975234985, 0.11729787290096283, 0.03999999910593033]","[0.0, 0.0, -0.06450760829993736]","[0.026750000193715096, 0.05299999937415123, 0.03999999910593033]","[0.0, 0.0, -0.3933635299879475]","[0.05434739589691162, 0.11950100213289261, 0.03999999910593033]","[0.0, -0.0, 0.15568524110445597]",0.46459620978279803,-0.5219676104586533,"(0.0, 0.0, 0.0, 0.0, 0.0, 0.0)",-11.461222307641153,-0.5277462012464286,0.8477954299025854,"(0.0, 0.0, 0.0, 0.0, 0.0, 0.0)",-6.293419829000833,-0.3918994612061634,0.35136296614375934,"(0.0, 0.0, 0.0, 0.0, 0.0, 0.0)",11.456876070872687,0.5455899157778158,-0.8301093633520144,"(0.0, 0.0, 0.0, 0.0, 0.0, 0.0)",6.024557387778863,True,"(-0.03718779150343313, 0.19359931976721256, 0.039998969305535335)","(0.9999817493455119, -0.005953036604144575, -0.0010306944646639264)",-0.00023092417430268343,82.12804881083734,True,"(0.02552400149905074, 0.19358872301113417, 0.04000103069446467)","(-0.9999817493455119, 0.005953036604138421, 0.0010306944646722527)",-0.0009783647738267711,81.84973797585468
39,Move,"(-0.01212, 0.0, -0.03128)","(0.0, 0.18846763394735566, 0.0)","(-0.0054940045953261185, 0.17851498345350528, 0.00096496391847813)","(1.5687661796477426, 0.0011335676229690854, -0.006590235876926174)","[-0.005778948083340097, 0.00722971690514862, -0.0009018136070668716]","[-0.026750000193715096, 0.05299999937415123, 0.03999999910593033]","[0.0, -0.0, 0.45597164925988887]","[-0.058454111218452454, 0.11764401942491531, 0.03999999910593033]","[0.0, 0.0, -0.05640373968645057]","[0.026750000193715096, 0.05299999937415123, 0.03999999910593033]","[0.0, 0.0, -0.3849308971085566]","[0.053785644471645355, 0.1197313591837883, 0.03999999910593033]","[0.0, -0.0, 0.14651648281740637]",0.4541763031723215,-0.4308825721900127,"(0.0, 0.0, 0.0, 0.0, 0.0, 0.0)",-10.6509216320828,-0.5091100789164843,0.7836762676855961,"(0.0, 0.0, 0.0, 0.0, 0.0, 0.0)",-5.809922497302242,-0.38341013107119093,0.3649703759870284,"(0.0, 0.0, 0.0, 0.0, 0.0, 0.0)",10.536098023291599,0.5284170448023725,-0.7272629357705994,"(0.0, 0.0, 0.0, 0.0, 0.0, 0.0)",5.331087816219994,True,"(-0.037110604786139, 0.19411230127960097, 0.03999888337111662)","(0.9999783088687845, -0.0064911425699053504, -0.0011166288833680976)",-0.00020482513912929294,75.90523847043279,True,"(0.025642650110044008, 0.1940716015502136, 0.04000111662888338)","(-0.9999783088687845, 0.006491142569905206, 0.0011166288833726976)",-0.0009630178373095531,75.16042155546918
40,Move,"(-0.013130000000000001, 0.0, -0.031130000000000005)","(0.0, 0.18846763394735566, 0.0)","(-0.0055314618106630745, 0.17896123582246926, 0.0009612415752009929)","(1.568589539456651, 0.0012039420118635552, -0.007004483884729356)","[-0.005816405298677053, 0.0076759692741125984, -0.0009055359503440087]","[-0.026750000193715096, 0.05299999937415123, 0.03999999910593033]","[0.0, -0.0, 0.446595849628537]","[-0.05784664303064346, 0.11793842166662216, 0.03999999910593033]","[0.0, 0.0, -0.04796928620189949]","[0.026750000193715096, 0.05299999937415123, 0.03999999910593033]","[0.0, 0.0, -0.3761427673990135]","[0.05319816619157791, 0.11996636539697647, 0.03999999910593033]","[0.0, -0.0, 0.13859196204611612]",0.4449911064246599,-0.385155488029619,"(0.0, 0.0, 0.0, 0.0, 0.0, 0.0)",-10.123003721390335,-0.49144020344552586,0.7500007244438711,"(0.0, 0.0, 0.0, 0.0, 0.0, 0.0)",-5.524416638057944,-0.37455665299082513,0.3806691918994697,"(0.0, 0.0, 0.0, 0.0, 0.0, 0.0)",10.272560773727628,0.5117834103925799,-0.7083224541693799,"(0.0, 0.0, 0.0, 0.0, 0.0, 0.0)",5.187984836120951,True,"(-0.03714887829409127, 0.1945751314122861, 0.03999880930319187)","(0.9999752849396982, -0.006929051225110834, -0.0011906968081263974)",-0.0001790911992940528,71.90716210453547,True,"(0.025645080042168644, 0.19451980883734282, 0.04000119069680814)","(-0.9999752849396984, 0.006929051225118899, 0.0011906968081322256)",-0.0009481203010365572,73.08685982828801
41,Move,"(-0.01447, 0.0, -0.031190000000000002)","(0.0, 0.20944300089782356, 0.0)","(-0.0056085810484769825, 0.17939270421447207, 0.000957829490827874)","(1.568444263524939, 0.001256929442014914, -0.007339660915410363)","[-0.005893524536490961, 0.008107437666115408, -0.0009089480347171276]","[-0.026750000193715096, 0.05299999937415123, 0.03999999910593033]","[0.0, -0.0, 0.43775936654114256]","[-0.057271603494882584, 0.11821067333221436, 0.03999999910593033]","[0.0, 0.0, -0.03933241973590794]","[0.026750000193715096, 0.05299999937415123, 0.03999999910593033]","[0.0, 0.0, -0.3670457718133008]","[0.05258788913488388, 0.12020419538021088, 0.03999999910593033]","[0.0, -0.0, 0.13110020742346415]",0.43620269428895386,-0.37360097943079157,"(0.0, 0.0, 0.0, 0.0, 0.0, 0.0)",-10.033193464537794,-0.47398718097940307,0.7451048313168043,"(0.0, 0.0, 0.0, 0.0, 0.0, 0.0)",-5.46984627818382,-0.3654092502979981,0.39276446464931464,"(0.0, 0.0, 0.0, 0.0, 0.0, 0.0)",10.274633700363992,0.49517585449591234,-0.7128270170229459,"(0.0, 0.0, 0.0, 0.0, 0.0, 0.0)",5.200898879426012,True,"(-0.03723858394728355, 0.19496207669638813, 0.03895093328355616)","(0.9999726090915635, -0.00729606096313426, -0.0012444119226153855)",-0.00015519670360174663,71.06937160607315,True,"(0.025594029338291323, 0.194954824774418, 0.040001249596243356)","(-0.9999726915766646, 0.007283859564095735, 0.0012495962433566104)",-0.0009351638972510612,72.89143692300712
42,Move,"(-0.0151, 0.0, -0.0316)","(0.0, 0.18846763394735566, 0.0)","(-0.005789559314153496, 0.17979760761303198, 0.0009557851675677996)","(1.568454768631666, 0.00120378084358773, -0.007367871690884606)","[-0.006074502802167475, 0.008512341064675327, -0.000910992357977202]","[-0.026750000193715096, 0.05299999937415123, 0.03999999910593033]","[0.0, -0.0, 0.43000741506898754]","[-0.05676518380641937, 0.11844531446695328, 0.03999999910593033]","[0.0, 0.0, -0.030362775295212384]","[0.026750000193715096, 0.05299999937415123, 0.03999999910593033]","[0.0, 0.0, -0.35748752659882055]","[0.05194436386227608, 0.12044808268547058, 0.03999999910593033]","[0.0, -0.0, 0.12424515101324948]",0.4287185128478971,-0.30933444739138033,"(0.0, 0.0, 0.0, 0.0, 0.0, 0.0)",-9.435999737834324,-0.45745529791514,0.6995721670200563,"(0.0, 0.0, 0.0, 0.0, 0.0, 0.0)",-5.140057134154595,-0.35575152263422855,0.4166456233807561,"(0.0, 0.0, 0.0, 0.0, 0.0, 0.0)",9.9434079139303,0.4788143492187341,-0.7004040841806667,"(0.0, 0.0, 0.0, 0.0, 0.0, 0.0)",5.0717286448485295,True,"(-0.037423070754110464, 0.1953098211057545, 0.03785808531948628)","(0.9999721786873818, -0.007358113411570922, -0.001224752315096598)",-0.0001317056946516509,66.64069967371124,True,"(0.025463482458668904, 0.19537522410265784, 0.04000122588479337)","(-0.9999721574265625, 0.007360813687320334, 0.001225884793372891)",-0.0009065990563067622,70.35946767265541
43,Move,"(-0.015220000000000001, 0.0, -0.03168000000000001)","(0.0, 0.18846763394735566, 0.0)","(-0.005958908822505214, 0.18018031287961753, 0.0009546011660957465)","(1.5685103412129802, 0.0011063210458860386, -0.007439676544612043)","[-0.006243852310519192, 0.00889504633126087, -0.0009121763594492551]","[-0.026750000193715096, 0.05299999937415123, 0.03999999910593033]","[0.0, -0.0, 0.42271945571777175]","[-0.05628742277622223, 0.11866232007741928, 0.03999999910593033]","[0.0, 0.0, -0.021589483634724026]","[0.026750000193715096, 0.05299999937415123, 0.03999999910593033]","[0.0, 0.0, -0.34810915018903205]","[0.0513107106089592, 0.12068139761686325, 0.03999999910593033]","[0.0, -0.0, 0.11766156543914678]",0.4214179013771531,-0.31236145961886247,"(0.0, 0.0, 0.0, 0.0, 0.0, 0.0)",-9.154007886689872,-0.4414784729662052,0.6792999218596105,"(0.0, 0.0, 0.0, 0.0, 0.0, 0.0)",-4.982153221839884,-0.34647358243704646,0.3925387532121921,"(0.0, 0.0, 0.0, 0.0, 0.0, 0.0)",9.594475379303203,0.4629568353666765,-0.6753315628331379,"(0.0, 0.0, 0.0, 0.0, 0.0, 0.0)",4.888590464332392,True,"(-0.03762043405511922, 0.19568452179604978, 0.03785400233135825)","(0.999971835423647, -0.0074201401510156865, -0.001126889347740753)",-0.00011330281580981726,64.48738227138806,True,"(0.02532362026154434, 0.19577472746688213, 0.04000112688934776)","(-0.9999718354236469, 0.007420140151030396, 0.0011268893477553805)",-0.0008675029482246299,67.70441592949341
44,Move,"(-0.014790000000000001, 0.0, -0.031490000000000004)","(0.0, 0.17612117481874778, 0.0)","(-0.006105534035201262, 0.18066582702141284, 0.000901976019760283)","(1.5717270963000587, 0.0011005682961889275, -0.007059170752633441)","[-0.0063904775232152405, 0.009380560473056188, -0.0009648015057847186]","[-0.026750000193715096, 0.05299999937415123, 0.03999999910593033]","[0.0, -0.0, 0.41559554185312053]","[-0.05581890791654587, 0.11887107789516449, 0.03999999910593033]","[0.0, 0.0, -0.013282914497129027]","[0.026750000193715096, 0.05299999937415123, 0.03999999910593033]","[0.0, 0.0, -0.33937224643535024]","[0.050718460232019424, 0.12089339643716812, 0.03999999910593033]","[0.0, -0.0, 0.11118829313580456]",0.4143381704952408,-0.3017711970947152,"(0.0, 0.0, 0.0, 0.0, 0.0, 0.0)",-8.6886064354855,-0.4262390870846539,0.633450622829262,"(0.0, 0.0, 0.0, 0.0, 0.0, 0.0)",-4.6965955157632155,-0.33787070114068374,0.3603854593752265,"(0.0, 0.0, 0.0, 0.0, 0.0, 0.0)",9.033556157174406,0.4478715783127989,-0.6453662742900975,"(0.0, 0.0, 0.0, 0.0, 0.0, 0.0)",4.632781852340968,True,"(-0.037798850058842016, 0.19554996229496374, 0.03537332385159773)","(0.9999744102527485, -0.007067488304744189, -0.0011088050911956945)",-0.00010435141479620867,61.22068024119716,True,"(0.025217935987887748, 0.1961465345959629, 0.04000111588235998)","(-0.9999744835820555, 0.007055989750576903, 0.0011158823599768703)",-0.0008098423581383065,63.55192210830096
45,Move,"(-0.014680000000000002, 0.0, -0.031219999999999998)","(0.0, 0.17612117481874778, 0.0)","(-0.006127690448772934, 0.18098613401044505, 0.0009103773518925501)","(1.5710217223758949, 0.000934852661450854, -0.0066100748434705725)","[-0.006412633936786912, 0.009700867462088397, -0.0009564001736524515]","[-0.026750000193715096, 0.05299999937415123, 0.03999999910593033]","[0.0, -0.0, 0.4085467094629341]","[-0.05535387620329857, 0.11907433718442917, 0.03999999910593033]","[0.0, 0.0, -0.005957693246163395]","[0.026750000193715096, 0.05299999937415123, 0.03999999910593033]","[0.0, 0.0, -0.33136032462254106]","[0.05017373710870743, 0.12108324468135834, 0.03999999910593033]","[0.0, -0.0, 0.10435190611903299]",0.40735849131141194,-0.28516634158229376,"(0.0, 0.0, 0.0, 0.0, 0.0, 0.0)",-9.11637333109217,-0.4121076489651847,0.5752148019568951,"(0.0, 0.0, 0.0, 0.0, 0.0, 0.0)",-4.375311773951044,-0.32997856432223643,0.331625591394359,"(0.0, 0.0, 0.0, 0.0, 0.0, 0.0)",9.201170612990898,0.4326004706250766,-0.7468235198013533,"(0.0, 0.0, 0.0, 0.0, 0.0, 0.0)",4.967480280855574,True,"(-0.0379047627593264, 0.1944066597483134, 0.031592534745627)","(0.9999748574430579, -0.007011793714010973, -0.0010579369773556116)",-8.684423550716445e-05,54.911268671565864,True,"(0.02518819229827188, 0.1965019644690335, 0.0400009958161412)","(-0.9999757226407232, 0.006896555616851549, 0.0009958161411997438)",-0.0007645544748800264,64.44631147671227
