OSUrobotics/InHand-Manipulation/AnalyseData/Data/new_hand_human_filt_josh_2v2_h_none_1_kpNone_kdNone_dp1_step1_save_data.csv
,Phase,human_cube_pos,human_cube_orn,Cube_Pos,Cube_Orn,Cube_pos_in_start_pos,b'l_prox_pin'_link_pos,b'l_prox_pin'_link_orn,b'l_distal_pin'_link_pos,b'l_distal_pin'_link_orn,b'r_prox_pin'_link_pos,b'r_prox_pin'_link_orn,b'r_distal_pin'_link_pos,b'r_distal_pin'_link_orn,b'l_prox_pin'_joint_angle,b'l_prox_pin'_joint_vel,b'l_prox_pin'_joint_react_forces,b'l_prox_pin'_joint_motor_torque,b'l_distal_pin'_joint_angle,b'l_distal_pin'_joint_vel,b'l_distal_pin'_joint_react_forces,b'l_distal_pin'_joint_motor_torque,b'r_prox_pin'_joint_angle,b'r_prox_pin'_joint_vel,b'r_prox_pin'_joint_react_forces,b'r_prox_pin'_joint_motor_torque,b'r_distal_pin'_joint_angle,b'r_distal_pin'_joint_vel,b'r_distal_pin'_joint_react_forces,b'r_distal_pin'_joint_motor_torque,in_contact_l,contact_point_l_dist,contact_normal_l_dist,contact_distance_l_dist,contact_norm_force_l_dist,in_contact_r,contact_point_r_dist,contact_normal_r_dist,contact_distance_r_dist,contact_norm_force_r_dist
0,Open,,,,,,"[-0.026750000193715096, 0.05299999937415123, 0.03999999910593033]","[0.0, -0.0, 0.0]","[-0.026750000193715096, 0.125, 0.03999999910593033]","[0.0, -0.0, 0.0]","[0.026750000193715096, 0.05299999937415123, 0.03999999910593033]","[0.0, -0.0, 0.0]","[0.026750000193715096, 0.125, 0.03999999910593033]","[0.0, -0.0, 0.0]",0.0028636982559538428,0.6872875814289223,"(0.0, 0.0, 0.0, 0.0, 0.0, 0.0)",-74.42376671286476,0.025717978913313098,6.172314939195144,"(0.0, 0.0, 0.0, 0.0, 0.0, 0.0)",-28.347758017338414,-0.0028861714462846827,-0.6926811471083238,"(0.0, 0.0, 0.0, 0.0, 0.0, 0.0)",77.31812537484876,-0.025998027583603027,-6.239526620064726,"(0.0, 0.0, 0.0, 0.0, 0.0, 0.0)",29.325432325549183,False,,,,,False,,,,
1,Open,,,,,,"[-0.026750000193715096, 0.05299999937415123, 0.03999999910593033]","[0.0, -0.0, 0.0028636982488144678]","[-0.026956185698509216, 0.12499970197677612, 0.03999999910593033]","[0.0, -0.0, 0.028581675581217755]","[0.026750000193715096, 0.05299999937415123, 0.03999999910593033]","[0.0, 0.0, -0.0028861714423951343]","[0.026957804337143898, 0.12499970197677612, 0.03999999910593033]","[0.0, 0.0, -0.028884201286240394]",0.1595773284303585,37.61127124185712,"(0.0, 0.0, 0.0, 0.0, 0.0, 0.0)",53.472225824972774,0.02314589095046895,-0.6173011110825959,"(0.0, 0.0, 0.0, 0.0, 0.0, 0.0)",3.3014509125464437,-0.15959755430165623,-37.61073188528917,"(0.0, 0.0, 0.0, 0.0, 0.0, 0.0)",-53.45543824447724,-0.023397935520559333,0.6240220951304867,"(0.0, 0.0, 0.0, 0.0, 0.0, 0.0)",-3.2927232380167535,False,,,,,False,,,,
2,Open,,,,,,"[-0.026750000193715096, 0.05299999937415123, 0.03999999910593033]","[0.0, -0.0, 0.15957730699277592]","[-0.03819086775183678, 0.1240852028131485, 0.03999999910593033]","[0.0, -0.0, 0.1827232399786182]","[0.026750000193715096, 0.05299999937415123, 0.03999999910593033]","[0.0, 0.0, -0.15959754249378824]","[0.03819230571389198, 0.12408497184515, 0.03999999910593033]","[0.0, 0.0, -0.1829954723320542]",0.30061959558732265,33.8501441176714,"(0.0, 0.0, 0.0, 0.0, 0.0, 0.0)",-5.433290843096747,0.020831748867960086,-0.555394099802127,"(0.0, 0.0, 0.0, 0.0, 0.0, 0.0)",-0.37949999689540415,-0.30063779887149056,-33.849658696760244,"(0.0, 0.0, 0.0, 0.0, 0.0, 0.0)",5.433149501288634,-0.02105858889910766,0.5614431891484022,"(0.0, 0.0, 0.0, 0.0, 0.0, 0.0)",0.37943043762158307,False,,,,,False,,,,
3,Open,,,,,,"[-0.026750000193715096, 0.05299999937415123, 0.03999999910593033]","[0.0, -0.0, 0.30061964608852465]","[-0.048070069402456284, 0.12177103012800217, 0.03999999910593033]","[0.0, -0.0, 0.3214513597309629]","[0.026750000193715096, 0.05299999937415123, 0.03999999910593033]","[0.0, 0.0, -0.30063782483534385]","[0.04807132109999657, 0.12177064269781113, 0.03999999910593033]","[0.0, 0.0, -0.32169639446592324]",0.4275576360285904,30.465129705904268,"(0.0, 0.0, 0.0, 0.0, 0.0, 0.0)",-4.896562760502833,0.018748978964657985,-0.49986477679250463,"(0.0, 0.0, 0.0, 0.0, 0.0, 0.0)",-0.3438186216350169,-0.4275740189843415,-30.464692827084228,"(0.0, 0.0, 0.0, 0.0, 0.0, 0.0)",4.8964345239877005,-0.018953134917884834,0.505308955493478,"(0.0, 0.0, 0.0, 0.0, 0.0, 0.0)",0.34375511365495653,False,,,,,False,,,,
4,Open,,,,,,"[-0.026750000193715096, 0.05299999937415123, 0.03999999910593033]","[0.0, -0.0, 0.42755761853039154]","[-0.056604765355587006, 0.1185186430811882, 0.03999999910593033]","[0.0, -0.0, 0.4463066270391506]","[0.026750000193715096, 0.05299999937415123, 0.03999999910593033]","[0.0, 0.0, -0.42757404208311445]","[0.05660583823919296, 0.1185181587934494, 0.03999999910593033]","[0.0, 0.0, -0.4465272228574986]",0.5418018724257314,27.418616735313837,"(0.0, 0.0, 0.0, 0.0, 0.0, 0.0)",-4.412236817968903,0.016874447698417276,-0.44988750389777044,"(0.0, 0.0, 0.0, 0.0, 0.0, 0.0)",-0.3112578673856835,-0.5418166170859073,-27.418223544375806,"(0.0, 0.0, 0.0, 0.0, 0.0, 0.0)",4.412120589674461,-0.017058187988154127,0.4547872631353701,"(0.0, 0.0, 0.0, 0.0, 0.0, 0.0)",0.31119999541872967,False,,,,,False,,,,
5,Open,,,,,,"[-0.026750000193715096, 0.05299999937415123, 0.03999999910593033]","[0.0, -0.0, 0.5418019400761332]","[-0.06387900561094284, 0.11468822509050369, 0.03999999910593033]","[0.0, -0.0, 0.5586763123738882]","[0.026750000193715096, 0.05299999937415123, 0.03999999910593033]","[0.0, 0.0, -0.5418166677071254]","[0.06387991458177567, 0.11468767374753952, 0.03999999910593033]","[0.0, 0.0, -0.5588748551425957]",0.6446216851831583,24.67675506178245,"(0.0, 0.0, 0.0, 0.0, 0.0, 0.0)",-3.975330693632137,0.015187334633278446,-0.4049071356333192,"(0.0, 0.0, 0.0, 0.0, 0.0, 0.0)",-0.2816071653694913,-0.6446349553773166,-24.67640118993823,"(0.0, 0.0, 0.0, 0.0, 0.0, 0.0)",3.975225427671302,-0.01535270083200906,0.409316917474816,"(0.0, 0.0, 0.0, 0.0, 0.0, 0.0)",0.28155450162657786,False,,,,,False,,,,
6,Open,,,,,,"[-0.026750000193715096, 0.05299999937415123, 0.03999999910593033]","[0.0, -0.0, 0.6446216983098856]","[-0.07001452147960663, 0.11055155843496323, 0.03999999910593033]","[0.0, -0.0, 0.6598089287160823]","[0.026750000193715096, 0.05299999937415123, 0.03999999910593033]","[0.0, 0.0, -0.644634967879878]","[0.07001528143882751, 0.11055097728967667, 0.03999999910593033]","[0.0, 0.0, -0.6599877329949964]",0.7371595166648425,22.209079555604205,"(0.0, 0.0, 0.0, 0.0, 0.0, 0.0)",-3.5812948349547464,0.013668901111545678,-0.3644240452158641,"(0.0, 0.0, 0.0, 0.0, 0.0, 0.0)",-0.25464125660078457,-0.737171459839585,-22.20876107094441,"(0.0, 0.0, 0.0, 0.0, 0.0, 0.0)",3.5811995605906057,-0.01381773063402154,0.3683928475170044,"(0.0, 0.0, 0.0, 0.0, 0.0, 0.0)",0.2545933902665499,False,,,,,False,,,,
7,Open,,,,,,"[-0.026750000193715096, 0.05299999937415123, 0.03999999910593033]","[0.0, -0.0, 0.7371595400859692]","[-0.07514750957489014, 0.10630742460489273, 0.03999999910593033]","[0.0, -0.0, 0.7508283868993905]","[0.026750000193715096, 0.05299999937415123, 0.03999999910593033]","[0.0, 0.0, -0.7371714711336782]","[0.07514814287424088, 0.10630684345960617, 0.03999999910593033]","[0.0, 0.0, -0.750989167509555]",0.8204435649983582,19.988171600043785,"(0.0, 0.0, 0.0, 0.0, 0.0, 0.0)",-3.2259980823944012,0.01230228208777883,-0.32798856570404317,"(0.0, 0.0, 0.0, 0.0, 0.0, 0.0)",-0.23014491551259536,-0.8204543138556265,-19.987884963849964,"(0.0, 0.0, 0.0, 0.0, 0.0, 0.0)",3.225911902119173,-0.012436228606816148,0.33156048652929415,"(0.0, 0.0, 0.0, 0.0, 0.0, 0.0)",0.23010145595163894,False,,,,,False,,,,
8,Open,,,,,,"[-0.026750000193715096, 0.05299999937415123, 0.03999999910593033]","[0.0, -0.0, 0.8204435774406766]","[-0.07941428571939468, 0.1020965725183487, 0.03999999910593033]","[0.0, -0.0, 0.8327459142786269]","[0.026750000193715096, 0.05299999937415123, 0.03999999910593033]","[0.0, 0.0, -0.8204543695347751]","[0.07941480726003647, 0.10209600627422333, 0.03999999910593033]","[0.0, 0.0, -0.8328905496331522]",0.8953992084985224,17.9893544400394,"(0.0, 0.0, 0.0, 0.0, 0.0, 0.0)",-2.905692777507757,0.011072298781000885,-0.2951959936267068,"(0.0, 0.0, 0.0, 0.0, 0.0, 0.0)",-0.20791432075989408,-0.8954088824700639,-17.989096467464968,"(0.0, 0.0, 0.0, 0.0, 0.0, 0.0)",2.9056148642503405,-0.011192850601700187,0.29841072122783063,"(0.0, 0.0, 0.0, 0.0, 0.0, 0.0)",0.20787489947010138,False,,,,,False,,,,
9,Open,,,,,,"[-0.026750000193715096, 0.05299999937415123, 0.03999999910593033]","[0.0, -0.0, 0.8953992050914552]","[-0.08294302970170975, 0.09801492840051651, 0.03999999910593033]","[0.0, -0.0, 0.9064715399310761]","[0.026750000193715096, 0.05299999937415123, 0.03999999910593033]","[0.0, 0.0, -0.8954089117450801]","[0.08294346183538437, 0.09801438450813293, 0.03999999910593033]","[0.0, 0.0, -0.9066016844299951]",0.9628592876486701,16.190418996035465,"(0.0, 0.0, 0.0, 0.0, 0.0, 0.0)",-2.616982039675733,0.009965290062605858,-0.26568209241480656,"(0.0, 0.0, 0.0, 0.0, 0.0, 0.0)",-0.18775783729375353,-0.9628679942230576,-16.190186820718473,"(0.0, 0.0, 0.0, 0.0, 0.0, 0.0)",2.6169116334278195,-0.010073786659150813,0.26857534621184953,"(0.0, 0.0, 0.0, 0.0, 0.0, 0.0)",0.187722108909745,False,,,,,False,,,,
10,Open,,,,,,"[-0.026750000193715096, 0.05299999937415123, 0.03999999910593033]","[0.0, -0.0, 0.9628592963772022]","[-0.08584962040185928, 0.09412462264299393, 0.03999999910593033]","[0.0, -0.0, 0.9728246761305416]","[0.026750000193715096, 0.05299999937415123, 0.03999999910593033]","[0.0, 0.0, -0.9628681466677605]","[0.08584997802972794, 0.09412410855293274, 0.03999999910593033]","[0.0, 0.0, -0.9729417790417357]",1.0235733588838032,14.57137709643192,"(0.0, 0.0, 0.0, 0.0, 0.0, 0.0)",-2.356789246056587,0.008968960705874744,-0.23911904561546746,"(0.0, 0.0, 0.0, 0.0, 0.0, 0.0)",-0.16949635495257384,-1.0235811948007518,-14.571168138646623,"(0.0, 0.0, 0.0, 0.0, 0.0, 0.0)",2.3567256501387286,-0.009066607604651448,0.24172297307984775,"(0.0, 0.0, 0.0, 0.0, 0.0, 0.0)",0.16946399753760524,False,,,,,False,,,,
11,Open,,,,,,"[-0.026750000193715096, 0.05299999937415123, 0.03999999910593033]","[0.0, -0.0, 1.0235732790301837]","[-0.08823604136705399, 0.09046287834644318, 0.03999999910593033]","[0.0, -0.0, 1.0325423083164225]","[0.026750000193715096, 0.05299999937415123, 0.03999999910593033]","[0.0, 0.0, -1.0235812274279317]","[0.08823633193969727, 0.09046239405870438, 0.03999999910593033]","[0.0, 0.0, -1.0326479037372749]",1.078216022995423,13.114239386788727,"(0.0, 0.0, 0.0, 0.0, 0.0, 0.0)",-2.1223296975724493,0.008072244810550301,-0.215211814877866,"(0.0, 0.0, 0.0, 0.0, 0.0, 0.0)",-0.1529632973210469,-1.0782230753206767,-13.114051324781958,"(0.0, 0.0, 0.0, 0.0, 0.0, 0.0)",2.122272274708909,-0.008160126984954354,0.21755534872730237,"(0.0, 0.0, 0.0, 0.0, 0.0, 0.0)",0.15293401213466845,False,,,,,False,,,,
12,Open,,,,,,"[-0.026750000193715096, 0.05299999937415123, 0.03999999910593033]","[0.0, -0.0, 1.078215882979514]","[-0.09019032120704651, 0.08704887330532074, 0.03999999910593033]","[0.0, -0.0, 1.0862882926740116]","[0.026750000193715096, 0.05299999937415123, 0.03999999910593033]","[0.0, 0.0, -1.078222977413882]","[0.09019055962562561, 0.08704842627048492, 0.03999999910593033]","[0.0, 0.0, -1.0863833790205233]",1.1273944206958806,11.802815448109852,"(0.0, 0.0, 0.0, 0.0, 0.0, 0.0)",-1.9110844168611731,0.007265182884681461,-0.19369486220852175,"(0.0, 0.0, 0.0, 0.0, 0.0, 0.0)",-0.13800439004610457,-1.127400767788609,-11.802646192303762,"(0.0, 0.0, 0.0, 0.0, 0.0, 0.0)",1.9110325851897776,-0.007344276810443619,0.19580404188257655,"(0.0, 0.0, 0.0, 0.0, 0.0, 0.0)",0.13797790093405082,False,,,,,False,,,,
13,Open,,,,,,"[-0.026750000193715096, 0.05299999937415123, 0.03999999910593033]","[0.0, -0.0, 1.1273943743462997]","[-0.0917874127626419, 0.08388907462358475, 0.03999999910593033]","[0.0, -0.0, 1.1346596248576977]","[0.026750000193715096, 0.05299999937415123, 0.03999999910593033]","[0.0, 0.0, -1.127400718904607]","[0.09178761392831802, 0.08388865739107132, 0.03999999910593033]","[0.0, 0.0, -1.134745111288055]",1.1716549786262926,10.622533903298867,"(0.0, 0.0, 0.0, 0.0, 0.0, 0.0)",-1.7207759982695574,0.00653881121780902,-0.17432920004938585,"(0.0, 0.0, 0.0, 0.0, 0.0, 0.0)",-0.12447725819906867,-1.1716606910097482,-10.622381573073383,"(0.0, 0.0, 0.0, 0.0, 0.0, 0.0)",1.7207292273800263,-0.006609995722787257,0.17622746103752684,"(0.0, 0.0, 0.0, 0.0, 0.0, 0.0)",0.12445331071934837,False,,,,,False,,,,
14,Open,,,,,,"[-0.026750000193715096, 0.05299999937415123, 0.03999999910593033]","[0.0, -0.0, 1.17165497759142]","[-0.09309044480323792, 0.08098116517066956, 0.03999999910593033]","[0.0, -0.0, 1.1781937273122836]","[0.026750000193715096, 0.05299999937415123, 0.03999999910593033]","[0.0, 0.0, -1.1716605985979762]","[0.09309060126543045, 0.08098078519105911, 0.03999999910593033]","[0.0, 0.0, -1.178270796658152]",1.2114894807636634,9.56028051296898,"(0.0, 0.0, 0.0, 0.0, 0.0, 0.0)",-1.549346412635057,0.005885062316220725,-0.15689973638119079,"(0.0, 0.0, 0.0, 0.0, 0.0, 0.0)",-0.11225090666269867,-1.2114946219087734,-9.560143415766044,"(0.0, 0.0, 0.0, 0.0, 0.0, 0.0)",1.5493042197033076,-0.00594912834521185,0.1586081706180975,"(0.0, 0.0, 0.0, 0.0, 0.0, 0.0)",0.11222926703597672,False,,,,,False,,,,
15,Open,,,,,,"[-0.026750000193715096, 0.05299999937415123, 0.03999999910593033]","[0.0, -0.0, 1.2114893406881728]","[-0.09415213763713837, 0.07831703126430511, 0.03999999910593033]","[0.0, -0.0, 1.2173745989650702]","[0.026750000193715096, 0.05299999937415123, 0.03999999910593033]","[0.0, 0.0, -1.2114945655338818]","[0.09415226429700851, 0.07831668108701706, 0.03999999910593033]","[0.0, 0.0, -1.2174436451143456]",1.247340532687297,8.604252461672083,"(0.0, 0.0, 0.0, 0.0, 0.0, 0.0)",-1.3949366588174594,0.00529667529397997,-0.14121288533778104,"(0.0, 0.0, 0.0, 0.0, 0.0, 0.0)",-0.1012051251161189,-1.2473451597178962,-8.604129074189437,"(0.0, 0.0, 0.0, 0.0, 0.0, 0.0)",1.394898604883462,-0.005354334697048719,0.1427504755591516,"(0.0, 0.0, 0.0, 0.0, 0.0, 0.0)",0.1011855790679586,False,,,,,False,,,,
16,Open,,,,,,"[-0.026750000193715096, 0.05299999937415123, 0.03999999910593033]","[0.0, -0.0, 1.2473405247091465]","[-0.09501627087593079, 0.07588484138250351, 0.03999999910593033]","[0.0, -0.0, 1.2526371614229614]","[0.026750000193715096, 0.05299999937415123, 0.03999999910593033]","[0.0, 0.0, -1.2473450561350814]","[0.09501637518405914, 0.07588452845811844, 0.03999999910593033]","[0.0, 0.0, -1.252699591080442]",1.2796064794185673,7.743827215504874,"(0.0, 0.0, 0.0, 0.0, 0.0, 0.0)",-1.2558681481324276,0.004767115224099335,-0.12709441677135241,"(0.0, 0.0, 0.0, 0.0, 0.0, 0.0)",-0.09122984935698081,-1.2796106437461066,-7.743716166770495,"(0.0, 0.0, 0.0, 0.0, 0.0, 0.0)",1.2558338345532607,-0.004819008666073119,0.128478247434144,"(0.0, 0.0, 0.0, 0.0, 0.0, 0.0)",0.09121220090323832,False,,,,,False,,,,
17,Open,,,,,,"[-0.026750000193715096, 0.05299999937415123, 0.03999999910593033]","[0.0, -0.0, 1.279606409124563]","[-0.09571900963783264, 0.0736706405878067, 0.03999999910593033]","[0.0, -0.0, 1.2843736758198352]","[0.026750000193715096, 0.05299999937415123, 0.03999999910593033]","[0.0, 0.0, -1.2796106525936015]","[0.0957190990447998, 0.07367035001516342, 0.03999999910593033]","[0.0, 0.0, -1.2844295613342638]",1.3086458314767107,6.969444493954387,"(0.0, 0.0, 0.0, 0.0, 0.0, 0.0)",-1.1305941221975622,0.00429170208951155,-0.1140991523010686,"(0.0, 0.0, 0.0, 0.0, 0.0, 0.0)",-0.082192919359827,-1.3086495793714958,-6.969344550093446,"(0.0, 0.0, 0.0, 0.0, 0.0, 0.0)",1.1305631934145834,-0.004338405935744441,0.11534465527888274,"(0.0, 0.0, 0.0, 0.0, 0.0, 0.0)",0.08217699569254354,False,,,,,False,,,,
18,Open,,,,,,"[-0.026750000193715096, 0.05299999937415123, 0.03999999910593033]","[0.0, -0.0, 1.308645825919811]","[-0.09629011154174805, 0.0716593861579895, 0.03999999910593033]","[0.0, -0.0, 1.3129373548657892]","[0.026750000193715096, 0.05299999937415123, 0.03999999910593033]","[0.0, 0.0, -1.308649569130343]","[0.09629017859697342, 0.07165912538766861, 0.03999999910593033]","[0.0, 0.0, -1.3129881167123505]",1.3347812483290395,6.272500044558946,"(0.0, 0.0, 0.0, 0.0, 0.0, 0.0)",-1.0178482622338179,0.003863702481573626,-0.10271990590510163,"(0.0, 0.0, 0.0, 0.0, 0.0, 0.0)",-0.07410352518858664,-1.3347846214343462,-6.272410095084102,"(0.0, 0.0, 0.0, 0.0, 0.0, 0.0)",1.0178203769740246,-0.0039057357160976183,0.10384085271523745,"(0.0, 0.0, 0.0, 0.0, 0.0, 0.0)",0.0740891498002037,False,,,,,False,,,,
19,Open,,,,,,"[-0.026750000193715096, 0.05299999937415123, 0.03999999910593033]","[0.0, -0.0, 1.3347813147466918]","[-0.09675397723913193, 0.06983575969934464, 0.03999999910593033]","[0.0, -0.0, 1.3386449621367835]","[0.026750000193715096, 0.05299999937415123, 0.03999999910593033]","[0.0, 0.0, -1.3347844615433213]","[0.0967540368437767, 0.06983552873134613, 0.03999999910593033]","[0.0, 0.0, -1.3386905382854437]",1.3583031234961356,5.645250040103052,"(0.0, 0.0, 0.0, 0.0, 0.0, 0.0)",-0.9162890978823036,0.0034783869891320215,-0.09247571818598516,"(0.0, 0.0, 0.0, 0.0, 0.0, 0.0)",-0.06677007440367574,-1.3583061592909116,-5.645169085575695,"(0.0, 0.0, 0.0, 0.0, 0.0, 0.0)",0.9162639666346021,-0.003516216695348753,0.09348456497972772,"(0.0, 0.0, 0.0, 0.0, 0.0, 0.0)",0.06675710630673855,False,,,,,False,,,,
20,Open,,,,,,"[-0.026750000193715096, 0.05299999937415123, 0.03999999910593033]","[0.0, -0.0, 1.3583030429358363]","[-0.09713058918714523, 0.06818463653326035, 0.03999999910593033]","[0.0, -0.0, 1.3617816714487538]","[0.026750000193715096, 0.05299999937415123, 0.03999999910593033]","[0.0, 0.0, -1.358306171033049]","[0.09713063389062881, 0.06818442046642303, 0.03999999910593033]","[0.0, 0.0, -1.361822351334537]",1.379472811146522,5.0807250360927485,"(0.0, 0.0, 0.0, 0.0, 0.0, 0.0)",-0.8248429295126702,0.003131498553648039,-0.08325322451615583,"(0.0, 0.0, 0.0, 0.0, 0.0, 0.0)",-0.06015531267018523,-1.3794755433618204,-5.080652177018124,"(0.0, 0.0, 0.0, 0.0, 0.0, 0.0)",0.8248202834423316,-0.003165545104486833,0.08416118180686077,"(0.0, 0.0, 0.0, 0.0, 0.0, 0.0)",0.06014361689139186,False,,,,,False,,,,
21,Open,,,,,,"[-0.026750000193715096, 0.05299999937415123, 0.03999999910593033]","[0.0, -0.0, 1.3794728975130914]","[-0.09743624925613403, 0.06669140607118607, 0.03999999910593033]","[0.0, -0.0, 1.382604304378769]","[0.026750000193715096, 0.05299999937415123, 0.03999999910593033]","[0.0, 0.0, -1.379475506721758]","[0.09743628650903702, 0.06669121235609055, 0.03999999910593033]","[0.0, 0.0, -1.3826409668082853]",1.3985255300318697,4.572652532483473,"(0.0, 0.0, 0.0, 0.0, 0.0, 0.0)",-0.7425066286387145,0.0028192047313806493,-0.07495051734417352,"(0.0, 0.0, 0.0, 0.0, 0.0, 0.0)",-0.054190171953983096,-1.3985279890256384,-4.57258695931631,"(0.0, 0.0, 0.0, 0.0, 0.0, 0.0)",0.7424862245436853,-0.0028498464605416357,0.07576767454684734,"(0.0, 0.0, 0.0, 0.0, 0.0, 0.0)",0.0541796259205944,False,,,,,False,,,,
22,Open,,,,,,"[-0.026750000193715096, 0.05299999937415123, 0.03999999910593033]","[0.0, -0.0, 1.398525454133583]","[-0.09768425673246384, 0.0653422400355339, 0.03999999910593033]","[0.0, -0.0, 1.4013447262228373]","[0.026750000193715096, 0.05299999937415123, 0.03999999910593033]","[0.0, 0.0, -1.3985280648022782]","[0.09768428653478622, 0.06534206122159958, 0.03999999910593033]","[0.0, 0.0, -1.4013779844801912]",1.4156729770286829,4.1153872792351285,"(0.0, 0.0, 0.0, 0.0, 0.0, 0.0)",-0.6683758137814145,0.002538055332395241,-0.06747585575649792,"(0.0, 0.0, 0.0, 0.0, 0.0, 0.0)",-0.04881194552870251,-1.4156751901230746,-4.115328263384682,"(0.0, 0.0, 0.0, 0.0, 0.0, 0.0)",0.6683574317692884,-0.002565632738451909,0.06821129330153437,"(0.0, 0.0, 0.0, 0.0, 0.0, 0.0)",0.0488024380394442,False,,,,,False,,,,
23,Open,,,,,,"[-0.026750000193715096, 0.05299999937415123, 0.03999999910593033]","[0.0, -0.0, 1.4156730334745993]","[-0.09788545966148376, 0.06412414461374283, 0.03999999910593033]","[0.0, -0.0, 1.418211036917125]","[0.026750000193715096, 0.05299999937415123, 0.03999999910593033]","[0.0, 0.0, -1.4156752315845986]","[0.09788548201322556, 0.0641239807009697, 0.03999999910593033]","[0.0, 0.0, -1.418240879504808]",1.4311056793258146,3.703848551311612,"(0.0, 0.0, 0.0, 0.0, 0.0, 0.0)",-0.6016352863054336,0.002284944287465684,-0.060746650783093666,"(0.0, 0.0, 0.0, 0.0, 0.0, 0.0)",-0.04396376851645251,-1.431107671110767,-3.7037954370462103,"(0.0, 0.0, 0.0, 0.0, 0.0, 0.0)",0.6016187276545472,-0.0023097638175418747,0.061408541018408244,"(0.0, 0.0, 0.0, 0.0, 0.0, 0.0)",0.043955198772734246,False,,,,,False,,,,
24,Open,,,,,,"[-0.026750000193715096, 0.05299999937415123, 0.03999999910593033]","[0.0, -0.0, 1.4311058207082674]","[-0.09804865717887878, 0.06302504986524582, 0.03999999910593033]","[0.0, -0.0, 1.433390691262394]","[0.026750000193715096, 0.05299999937415123, 0.03999999910593033]","[0.0, 0.0, -1.4311075924426346]","[0.09804867953062057, 0.06302490830421448, 0.03999999910593033]","[0.0, 0.0, -1.433417470845748]",1.4449951113932331,3.333463696180452,"(0.0, 0.0, 0.0, 0.0, 0.0, 0.0)",-0.5415503506795546,0.0020570753203455715,-0.05468855210882702,"(0.0, 0.0, 0.0, 0.0, 0.0, 0.0)",-0.039594115216637325,-1.4449969039996904,-3.3334158933415914,"(0.0, 0.0, 0.0, 0.0, 0.0, 0.0)",0.541535435877482,-0.002079412775410495,0.055284250111531166,"(0.0, 0.0, 0.0, 0.0, 0.0, 0.0)",0.03958639191865308,False,,,,,False,,,,
25,Open,,,,,,"[-0.026750000193715096, 0.05299999937415123, 0.03999999910593033]","[0.0, -0.0, 1.444995076522675]","[-0.09818101674318314, 0.062033817172050476, 0.03999999910593033]","[0.0, -0.0, 1.4470522962768402]","[0.026750000193715096, 0.05299999937415123, 0.03999999910593033]","[0.0, 0.0, -1.4449971061677662]","[0.09818103164434433, 0.06203368678689003, 0.03999999910593033]","[0.0, 0.0, -1.4470761943538692]",1.45749560025391,3.0001173265624064,"(0.0, 0.0, 0.0, 0.0, 0.0, 0.0)",-0.4874589573784058,0.001851931045420989,-0.04923462598189979,"(0.0, 0.0, 0.0, 0.0, 0.0, 0.0)",-0.03565633120497695,-1.4574972135997213,-3.000074304007432,"(0.0, 0.0, 0.0, 0.0, 0.0, 0.0)",0.4874455243270462,-0.0018720346450414762,0.04977075128856451,"(0.0, 0.0, 0.0, 0.0, 0.0, 0.0)",0.03564937171228022,False,,,,,False,,,,
26,Open,,,,,,"[-0.026750000193715096, 0.05299999937415123, 0.03999999910593033]","[0.0, -0.0, 1.4574954921785264]","[-0.09828835725784302, 0.061140209436416626, 0.03999999910593033]","[0.0, -0.0, 1.4593474823067423]","[0.026750000193715096, 0.05299999937415123, 0.03999999910593033]","[0.0, 0.0, -1.4574971848934346]","[0.09828837215900421, 0.061140093952417374, 0.03999999910593033]","[0.0, 0.0, -1.4593694397653831]",1.4687460402285188,2.700105593906164,"(0.0, 0.0, 0.0, 0.0, 0.0, 0.0)",-0.4387645947805427,0.0016672451487475934,-0.044324615201614966,"(0.0, 0.0, 0.0, 0.0, 0.0, 0.0)",-0.032108199676446195,-1.4687474922397492,-2.70006687360669,"(0.0, 0.0, 0.0, 0.0, 0.0, 0.0)",0.4387524971567325,-0.0016853382893528596,0.04480712536526797,"(0.0, 0.0, 0.0, 0.0, 0.0, 0.0)",0.03210192923147444,False,,,,,False,,,,
27,Open,,,,,,"[-0.026750000193715096, 0.05299999937415123, 0.03999999910593033]","[0.0, -0.0, 1.4687462228928074]","[-0.09837540984153748, 0.06033487245440483, 0.03999999910593033]","[0.0, -0.0, 1.4704133245237396]","[0.026750000193715096, 0.05299999937415123, 0.03999999910593033]","[0.0, 0.0, -1.4687474899518769]","[0.09837542474269867, 0.060334768146276474, 0.03999999910593033]","[0.0, 0.0, -1.4704329951986796]",1.478871436205667,2.430095034515549,"(0.0, 0.0, 0.0, 0.0, 0.0, 0.0)",-0.394929862139441,0.0015009773446580906,-0.03990427298148066,"(0.0, 0.0, 0.0, 0.0, 0.0, 0.0)",-0.028911540991871522,-1.4788727430157742,-2.430060186246021,"(0.0, 0.0, 0.0, 0.0, 0.0, 0.0)",0.39491896790015035,-0.001517261081966714,0.04033852977267494,"(0.0, 0.0, 0.0, 0.0, 0.0, 0.0)",0.02890589200411927,False,,,,,False,,,,
28,Open,,,,,,"[-0.026750000193715096, 0.05299999937415123, 0.03999999910593033]","[0.0, -0.0, 1.4788714352834713]","[-0.09844600409269333, 0.05960927531123161, 0.03999999910593033]","[0.0, -0.0, 1.480372508787761]","[0.026750000193715096, 0.05299999937415123, 0.03999999910593033]","[0.0, 0.0, -1.4788727099725336]","[0.09844601899385452, 0.05960918217897415, 0.03999999910593033]","[0.0, 0.0, -1.4803900544382056]",1.4879842925851003,2.1870855310639947,"(0.0, 0.0, 0.0, 0.0, 0.0, 0.0)",-0.3554706611703565,0.001351290830885638,-0.035924763305388616,"(0.0, 0.0, 0.0, 0.0, 0.0, 0.0)",-0.026031844038894282,-1.487985468714197,-2.1870541676214206,"(0.0, 0.0, 0.0, 0.0, 0.0, 0.0)",0.3554608511915877,-0.001365946114079445,0.03631559229294455,"(0.0, 0.0, 0.0, 0.0, 0.0, 0.0)",0.026026755426892093,False,,,,,False,,,,
29,Close,,,"(3.819349109750643e-09, 0.16999994350316286, 7.914305593764796e-05)","(1.5700606283751846, 1.2357610516186277e-06, -4.058049624060407e-09)",,"[-0.026750000193715096, 0.05299999937415123, 0.03999999910593033]","[0.0, -0.0, 1.4879842849605203]","[-0.09850326180458069, 0.05895565450191498, 0.03999999910593033]","[0.0, -0.0, 1.4893357278409396]","[0.026750000193715096, 0.05299999937415123, 0.03999999910593033]","[0.0, 0.0, -1.4879853833286059]","[0.09850326925516129, 0.05895556882023811, 0.03999999910593033]","[0.0, 0.0, -1.4893513332680077]",1.4961858633265903,1.9683769779575933,"(0.0, 0.0, 0.0, 0.0, 0.0, 0.0)",-0.31995094896823073,0.0012165319928285922,-0.03234212113369103,"(0.0, 0.0, 0.0, 0.0, 0.0, 0.0)",-0.02343792779000599,-1.4961869218427772,-1.9683487508592754,"(0.0, 0.0, 0.0, 0.0, 0.0, 0.0)",0.31994211580738524,-0.0012297216752996233,0.03269386530715718,"(0.0, 0.0, 0.0, 0.0, 0.0, 0.0)",0.02343334437795369,False,,,,,False,,,,
30,Close,,,"(1.09441459674075e-09, 0.16999988769159868, 0.0001519632082907279)","(1.5701173533571526, -2.5467641220651055e-06, -4.573996600559749e-08)",,"[-0.026750000193715096, 0.05299999937415123, 0.03999999910593033]","[0.0, -0.0, 1.4961860174198076]","[-0.09854969382286072, 0.05836696922779083, 0.03999999910593033]","[0.0, -0.0, 1.4974025341106605]","[0.026750000193715096, 0.05299999937415123, 0.03999999910593033]","[0.0, 0.0, -1.4961870219527165]","[0.09854969382286072, 0.05836689472198486, 0.03999999910593033]","[0.0, 0.0, -1.4974167044724178]",1.4065672769939312,-21.50846071983817,"(0.0, 0.0, 0.0, 0.0, 0.0, 0.0)",-36.83524610171859,-0.08890468746940376,-21.629092670935766,"(0.0, 0.0, 0.0, 0.0, 0.0, 0.0)",-4.936581214831643,-1.4065682296584996,21.508486124226657,"(0.0, 0.0, 0.0, 0.0, 0.0, 0.0)",36.83523814678565,0.0888928167555427,21.629409223402156,"(0.0, 0.0, 0.0, 0.0, 0.0, 0.0)",4.936577085092772,False,,,,,False,,,,
31,Close,,,"(3.541182821644653e-08, 0.1699998011443987, 0.00021906657187154062)","(1.570205104748116, 3.3042409171564205e-05, -8.114212850492596e-08)",,"[-0.026750000193715096, 0.05299999937415123, 0.03999999910593033]","[0.0, -0.0, 1.4065674382065954]","[-0.0977812185883522, 0.06477140635251999, 0.03999999910593033]","[0.0, -0.0, 1.3176625934179576]","[0.026750000193715096, 0.05299999937415123, 0.03999999910593033]","[0.0, 0.0, -1.4065680331882469]","[0.0977812260389328, 0.06477133929729462, 0.03999999910593033]","[0.0, 0.0, -1.3176753491400532]",1.3259105492945382,-19.357614647854348,"(0.0, 0.0, 0.0, 0.0, 0.0, 0.0)",3.3395407019063446,-0.17001473426920377,-19.466411231952,"(0.0, 0.0, 0.0, 0.0, 0.0, 0.0)",0.4376834422569755,-1.3259114066926496,19.35763751180399,"(0.0, 0.0, 0.0, 0.0, 0.0, 0.0)",-3.3395473112045253,0.1700040506304986,19.466696129989415,"(0.0, 0.0, 0.0, 0.0, 0.0, 0.0)",-0.43768664266468643,False,,,,,False,,,,
32,Close,,,"(3.361538948490201e-08, 0.16999974452330968, 0.00028077538773600935)","(1.5702911774727688, 7.027968338074274e-05, -7.017997684986258e-06)",,"[-0.026750000193715096, 0.05299999937415123, 0.03999999910593033]","[0.0, -0.0, 1.325910602539969]","[-0.09660188108682632, 0.07045608013868332, 0.03999999910593033]","[0.0, -0.0, 1.1558959321658662]","[0.026750000193715096, 0.05299999937415123, 0.03999999910593033]","[0.0, 0.0, -1.3259115331240872]","[0.09660189598798752, 0.07045602053403854, 0.03999999910593033]","[0.0, 0.0, -1.1559073716167563]",1.2533194943650845,-17.42185318306892,"(0.0, 0.0, 0.0, 0.0, 0.0, 0.0)",3.0100864599566086,-0.2430137284658432,-17.519758607193467,"(0.0, 0.0, 0.0, 0.0, 0.0, 0.0)",0.39699812510351973,-1.2533202660233846,17.42187376062359,"(0.0, 0.0, 0.0, 0.0, 0.0, 0.0)",-3.0100924602349655,0.24300411319445853,17.52001501535039,"(0.0, 0.0, 0.0, 0.0, 0.0, 0.0)",-0.39700105403357716,False,,,,,False,,,,
33,Close,,,"(1.2478111664315067e-07, 0.16999960627903704, 0.000337513976604643)","(1.5703757790333803, 0.0001088681261817636, -5.122611399447184e-06)",,"[-0.026750000193715096, 0.05299999937415123, 0.03999999910593033]","[0.0, -0.0, 1.2533194489161892]","[-0.0951518788933754, 0.07547627389431, 0.03999999910593033]","[0.0, -0.0, 1.0103057011386807]","[0.026750000193715096, 0.05299999937415123, 0.03999999910593033]","[0.0, 0.0, -1.2533201846969224]","[0.09515189379453659, 0.07547622174024582, 0.03999999910593033]","[0.0, 0.0, -1.010316110149499]",1.1879875449285762,-15.679667864762028,"(0.0, 0.0, 0.0, 0.0, 0.0, 0.0)",2.712712783767229,-0.30871235561933186,-15.767670516837281,"(0.0, 0.0, 0.0, 0.0, 0.0, 0.0)",0.3597856734528228,-1.1879882394210461,15.679686384561233,"(0.0, 0.0, 0.0, 0.0, 0.0, 0.0)",-2.712718226071338,0.30870370187508567,15.767901283350515,"(0.0, 0.0, 0.0, 0.0, 0.0, 0.0)",-0.35978834883250516,False,,,,,False,,,,
34,Close,,,"(1.2869376016944667e-07, 0.16999954011037416, 0.00038973303114976833)","(1.5704582297133343, 0.0001496263682483943, -9.931543136061158e-06)",,"[-0.026750000193715096, 0.05299999937415123, 0.03999999910593033]","[0.0, -0.0, 1.1879876003522736]","[-0.09353857487440109, 0.07989397644996643, 0.03999999910593033]","[0.0, -0.0, 0.8792752425767008]","[0.026750000193715096, 0.05299999937415123, 0.03999999910593033]","[0.0, 0.0, -1.1879882623869136]","[0.09353859722614288, 0.07989392429590225, 0.03999999910593033]","[0.0, 0.0, -0.8792844680170303]",1.1291887904356523,-14.1117010783017,"(0.0, 0.0, 0.0, 0.0, 0.0, 0.0)",2.44436472036771,-0.36784112005739866,-14.190903465136039,"(0.0, 0.0, 0.0, 0.0, 0.0, 0.0)",0.3258007578595482,-1.1291894154788755,14.111717746120975,"(0.0, 0.0, 0.0, 0.0, 0.0, 0.0)",-2.444369652349295,0.3678333316875771,14.191111154997946,"(0.0, 0.0, 0.0, 0.0, 0.0, 0.0)",-0.32580319741325486,False,,,,,False,,,,
35,Close,,,"(2.2147778895778094e-07, 0.169999403724105, 0.00043775502472391954)","(1.5705392813318275, 0.0001916771605813282, -8.19762937926826e-06)",,"[-0.026750000193715096, 0.05299999937415123, 0.03999999910593033]","[0.0, -0.0, 1.1291888000608494]","[-0.09184273332357407, 0.08377231657505035, 0.03999999910593033]","[0.0, -0.0, 0.7613476921786614]","[0.026750000193715096, 0.05299999937415123, 0.03999999910593033]","[0.0, 0.0, -1.1291894580384154]","[0.09184275567531586, 0.08377227932214737, 0.03999999910593033]","[0.0, 0.0, -0.7613561373098183]",1.0762699113920273,-12.700530970470014,"(0.0, 0.0, 0.0, 0.0, 0.0, 0.0)",2.202305891359772,-0.4210570080516588,-12.77181311862243,"(0.0, 0.0, 0.0, 0.0, 0.0, 0.0)",0.2948453788489373,-1.0762704739309281,12.700545971507374,"(0.0, 0.0, 0.0, 0.0, 0.0, 0.0)",-2.2023103576802145,0.4210499985188194,12.77200003949815,"(0.0, 0.0, 0.0, 0.0, 0.0, 0.0)",-0.2948476002056522,False,,,,,False,,,,
36,Close,,,"(2.1912693722736075e-07, 0.16999934361709654, 0.000481956449276018)","(1.5706184388641253, 0.00023565575873296478, -1.2845786801691941e-05)",,"[-0.026750000193715096, 0.05299999937415123, 0.03999999910593033]","[0.0, -0.0, 1.0762698553554748]","[-0.09012393653392792, 0.08717226982116699, 0.03999999910593033]","[0.0, -0.0, 0.6552128934948661]","[0.026750000193715096, 0.05299999937415123, 0.03999999910593033]","[0.0, 0.0, -1.0762704893583]","[0.09012395888566971, 0.08717223256826401, 0.03999999910593033]","[0.0, 0.0, -0.6552204147476549]",1.0286429202528247,-11.430477873408655,"(0.0, 0.0, 0.0, 0.0, 0.0, 0.0)",1.9840011930578276,-0.46895130724721834,-11.494631806934295,"(0.0, 0.0, 0.0, 0.0, 0.0, 0.0)",0.26667684533441977,-1.0286434265378352,11.430491374342276,"(0.0, 0.0, 0.0, 0.0, 0.0, 0.0)",-1.984005235051249,0.4689449986676629,11.494800035722442,"(0.0, 0.0, 0.0, 0.0, 0.0, 0.0)",-0.26667886541975433,False,,,,,False,,,,
37,Close,,,"(3.1131510586280866e-07, 0.1699992121070205, 0.0005226007520893923)","(1.5706964879884222, 0.0002806415891397876, -1.1307759452448239e-05)",,"[-0.026750000193715096, 0.05299999937415123, 0.03999999910593033]","[0.0, -0.0, 1.0286429345076582]","[-0.0884251669049263, 0.09015069156885147, 0.03999999910593033]","[0.0, -0.0, 0.5596916647508587]","[0.026750000193715096, 0.05299999937415123, 0.03999999910593033]","[0.0, 0.0, -1.0286435120859125]","[0.08842518925666809, 0.09015065431594849, 0.03999999910593033]","[0.0, 0.0, -0.5596984028120249]",0.9857786282275423,-10.287430086067793,"(0.0, 0.0, 0.0, 0.0, 0.0, 0.0)",1.787161045327472,-0.5120561765231523,-10.345168626224153,"(0.0, 0.0, 0.0, 0.0, 0.0, 0.0)",0.24107512437447856,-0.9857790838840517,10.28744223690805,"(0.0, 0.0, 0.0, 0.0, 0.0, 0.0)",-1.787164701188607,0.5120504988015524,10.345320032133483,"(0.0, 0.0, 0.0, 0.0, 0.0, 0.0)",-0.24107695935135354,False,,,,,False,,,,
38,Close,,,"(3.0991842655903425e-07, 0.169999153087261, 0.0005600347082356065)","(1.570772558536085, 0.00032764712563817383, -1.5390013302753274e-05)",,"[-0.026750000193715096, 0.05299999937415123, 0.03999999910593033]","[0.0, -0.0, 0.9857786218799983]","[-0.08677656948566437, 0.09275941550731659, 0.03999999910593033]","[0.0, -0.0, 0.4737224893055005]","[0.026750000193715096, 0.05299999937415123, 0.03999999910593033]","[0.0, 0.0, -0.9857791586690391]","[0.08677658438682556, 0.0927593931555748, 0.03999999910593033]","[0.0, 0.0, -0.47372859204714834]",0.9472007654041954,-9.258687077603232,"(0.0, 0.0, 0.0, 0.0, 0.0, 0.0)",1.6097085175776904,-0.550850558870837,-9.310651763444346,"(0.0, 0.0, 0.0, 0.0, 0.0, 0.0)",0.21783104241587867,-0.9472011754950539,9.258698013359455,"(0.0, 0.0, 0.0, 0.0, 0.0, 0.0)",-1.609711822487034,0.5508454489213972,9.310788028762744,"(0.0, 0.0, 0.0, 0.0, 0.0, 0.0)",-0.21783270758412676,False,,,,,False,,,,
39,Close,,,"(4.0106165104263135e-07, 0.169999026405202, 0.0005944331352702725)","(1.570848092729261, 0.0003750986118602944, -1.4060502423520339e-05)",,"[-0.026750000193715096, 0.05299999937415123, 0.03999999910593033]","[0.0, -0.0, 0.9472008140782049]","[-0.08519845455884933, 0.09504495561122894, 0.03999999910593033]","[0.0, -0.0, 0.39635019782230363]","[0.026750000193715096, 0.05299999937415123, 0.03999999910593033]","[0.0, 0.0, -0.9472011867132297]","[0.08519846946001053, 0.09504493325948715, 0.03999999910593033]","[0.0, 0.0, -0.3963557154153113]",0.9124806888632406,-8.332818369829143,"(0.0, 0.0, 0.0, 0.0, 0.0, 0.0)",1.4497611633824499,-0.5857655029837533,-8.379586587099913,"(0.0, 0.0, 0.0, 0.0, 0.0, 0.0)",0.19674731686213875,-0.9124810579450133,8.332828212009746,"(0.0, 0.0, 0.0, 0.0, 0.0, 0.0)",-1.4497641496546352,0.5857609040292575,8.379709225886469,"(0.0, 0.0, 0.0, 0.0, 0.0, 0.0)",-0.1967488266016999,False,,,,,False,,,,
40,Close,,,"(3.70657372146465e-07, 0.16999903038777142, 0.0006260749884053443)","(1.5708440552876382, 0.00034508120830118214, -1.4055585689260766e-05)",,"[-0.026750000193715096, 0.05299999937415123, 0.03999999910593033]","[0.0, -0.0, 0.9124807402838544]","[-0.08370371162891388, 0.09704854339361191, 0.03999999910593033]","[0.0, -0.0, 0.32671521193417863]","[0.026750000193715096, 0.05299999937415123, 0.03999999910593033]","[0.0, 0.0, -0.9124811663733811]","[0.08370373398065567, 0.09704852104187012, 0.03999999910593033]","[0.0, 0.0, -0.32672018954414506]",0.8812326199769166,-7.499536532717775,"(0.0, 0.0, 0.0, 0.0, 0.0, 0.0)",1.3056085801322186,-0.6171891619197363,-7.541678144635914,"(0.0, 0.0, 0.0, 0.0, 0.0, 0.0)",0.17763358199117588,-0.881232952150512,7.499545390680321,"(0.0, 0.0, 0.0, 0.0, 0.0, 0.0)",-1.305611277336412,0.617185022862301,7.541788519930457,"(0.0, 0.0, 0.0, 0.0, 0.0, 0.0)",-0.17763494969582577,False,,,,,False,,,,
41,Close,,,"(3.427044292909036e-07, 0.1699990340506735, 0.0006551854712062516)","(1.5708403346470328, 0.0003174583455114455, -1.4051356821419932e-05)",,"[-0.026750000193715096, 0.05299999937415123, 0.03999999910593033]","[0.0, -0.0, 0.8812326035131218]","[-0.08229970186948776, 0.09880644828081131, 0.03999999910593033]","[0.0, -0.0, 0.26404346611112495]","[0.026750000193715096, 0.05299999937415123, 0.03999999910593033]","[0.0, 0.0, -0.8812328730718287]","[0.08229971677064896, 0.09880642592906952, 0.03999999910593033]","[0.0, 0.0, -0.2640479150919315]",0.8531093579792249,-6.749582879446001,"(0.0, 0.0, 0.0, 0.0, 0.0, 0.0)",1.1757252455852583,-0.6454704345862542,-6.78750543996429,"(0.0, 0.0, 0.0, 0.0, 0.0, 0.0)",0.16033509317806058,-0.8531096569354608,6.7495908516122896,"(0.0, 0.0, 0.0, 0.0, 0.0, 0.0)",-1.1757276808922346,0.645466709436021,6.787604777692787,"(0.0, 0.0, 0.0, 0.0, 0.0, 0.0)",-0.16033633143309114,False,,,,,False,,,,
42,Close,,,"(3.170084497545684e-07, 0.16999903740907119, 0.0006819671107693073)","(1.570836911771951, 0.00029204530032808255, -1.4047683015968837e-05)",,"[-0.026750000193715096, 0.05299999937415123, 0.03999999910593033]","[0.0, -0.0, 0.8531093567174074]","[-0.08098968118429184, 0.10035036504268646, 0.03999999910593033]","[0.0, -0.0, 0.2076389231904772]","[0.026750000193715096, 0.05299999937415123, 0.03999999910593033]","[0.0, 0.0, -0.8531096230941355]","[0.08098969608545303, 0.10035035014152527, 0.03999999910593033]","[0.0, 0.0, -0.2076429742570099]",0.8277984221813024,-6.0746245915014,"(0.0, 0.0, 0.0, 0.0, 0.0, 0.0)",1.0586966037970245,-0.6709235615380169,-6.1087504684230565,"(0.0, 0.0, 0.0, 0.0, 0.0, 0.0)",0.14467321668423558,-0.8277986912419147,6.074631766451059,"(0.0, 0.0, 0.0, 0.0, 0.0, 0.0)",-1.0586988018726124,0.6709202089041267,6.108839872345364,"(0.0, 0.0, 0.0, 0.0, 0.0, 0.0)",-0.14467433700617466,False,,,,,False,,,,
43,Close,,,"(2.93385406087929e-07, 0.16999904048782613, 0.0007066062149797113)","(1.5708337628331848, 0.0002686652895538331, -1.4044478861914954e-05)",,"[-0.026750000193715096, 0.05299999937415123, 0.03999999910593033]","[0.0, -0.0, 0.8277984323872327]","[-0.07977395504713058, 0.10170790553092957, 0.03999999910593033]","[0.0, -0.0, 0.15687485461046338]","[0.026750000193715096, 0.05299999937415123, 0.03999999910593033]","[0.0, 0.0, -0.8277987052452376]","[0.07977396249771118, 0.10170789808034897, 0.03999999910593033]","[0.0, 0.0, -0.15687847762667875]",0.8050185799631722,-5.467162132351259,"(0.0, 0.0, 0.0, 0.0, 0.0, 0.0)",0.9532674830029981,-0.6938313591081322,-5.497871416827678,"(0.0, 0.0, 0.0, 0.0, 0.0, 0.0)",0.1305069121449798,-0.8050188221177232,5.467168589805953,"(0.0, 0.0, 0.0, 0.0, 0.0, 0.0)",-0.9532694663734236,0.6938283417388244,5.49795188032743,"(0.0, 0.0, 0.0, 0.0, 0.0, 0.0)",-0.13050792520753388,False,,,,,False,,,,
44,Close,,,"(2.716665250887489e-07, 0.16999904330973556, 0.0007292741870466809)","(1.5708308659078907, 0.0002471556717650467, -1.4041672069322908e-05)",,"[-0.026750000193715096, 0.05299999937415123, 0.03999999910593033]","[0.0, -0.0, 0.8050185839979388]","[-0.07865073531866074, 0.10290304571390152, 0.03999999910593033]","[0.0, -0.0, 0.11118723016400785]","[0.026750000193715096, 0.05299999937415123, 0.03999999910593033]","[0.0, 0.0, -0.8050187952188965]","[0.07865074276924133, 0.10290303081274033, 0.03999999910593033]","[0.0, 0.0, -0.11119048022217565]",0.784516721966855,-4.920445919116134,"(0.0, 0.0, 0.0, 0.0, 0.0, 0.0)",0.8582975670224743,-0.7144483618360385,-4.948080654697517,"(0.0, 0.0, 0.0, 0.0, 0.0, 0.0)",0.11770004006048959,-0.784516939905951,4.92045173082536,"(0.0, 0.0, 0.0, 0.0, 0.0, 0.0)",-0.8582993561887614,0.7144456462047399,4.948153071819748,"(0.0, 0.0, 0.0, 0.0, 0.0, 0.0)",-0.11770095568272418,False,,,,,False,,,,
45,Close,,,"(2.51696986958339e-07, 0.1699990458957082, 0.0007501287178850499)","(1.5708282008276007, 0.000227366816649173, -1.4039201474218165e-05)",,"[-0.026750000193715096, 0.05299999937415123, 0.03999999910593033]","[0.0, -0.0, 0.7845167193080385]","[-0.07761679589748383, 0.10395654290914536, 0.03999999910593033]","[0.0, -0.0, 0.07006835685702544]","[0.026750000193715096, 0.05299999937415123, 0.03999999910593033]","[0.0, 0.0, -0.7845169946958266]","[0.07761680334806442, 0.10395653545856476, 0.03999999910593033]","[0.0, 0.0, -0.0700712989357174]",0.7660650497701694,-4.42840132720452,"(0.0, 0.0, 0.0, 0.0, 0.0, 0.0)",0.7727568402429666,-0.7330036506599046,-4.453269317727849,"(0.0, 0.0, 0.0, 0.0, 0.0, 0.0)",0.106127525293464,-0.7660652459153559,4.428406557742824,"(0.0, 0.0, 0.0, 0.0, 0.0, 0.0)",-0.7727584538402424,0.7330012065927102,4.453334493112861,"(0.0, 0.0, 0.0, 0.0, 0.0, 0.0)",-0.10612835248484857,False,,,,,False,,,,
46,Close,,,"(2.3333473952068603e-07, 0.16999904826492518, 0.0007693148831029557)","(1.5708257490378412, 0.00020916106414766092, -1.403701531280991e-05)",,"[-0.026750000193715096, 0.05299999937415123, 0.03999999910593033]","[0.0, -0.0, 0.7660649977175382]","[-0.07666795700788498, 0.10488639771938324, 0.03999999910593033]","[0.0, -0.0, 0.03306140223906952]","[0.026750000193715096, 0.05299999937415123, 0.03999999910593033]","[0.0, 0.0, -0.7660653079646047]","[0.07666796445846558, 0.10488638281822205, 0.03999999910593033]","[0.0, 0.0, -0.033064041138401834]",0.7494585447931524,-3.985561194484066,"(0.0, 0.0, 0.0, 0.0, 0.0, 0.0)",0.6957152666369016,-0.7497033982890566,-4.007939430996486,"(0.0, 0.0, 0.0, 0.0, 0.0, 0.0)",0.09567473522853766,-0.7494587213238203,3.985565901968542,"(0.0, 0.0, 0.0, 0.0, 0.0, 0.0)",-0.6957167215859875,0.7497011986294615,4.007998088820328,"(0.0, 0.0, 0.0, 0.0, 0.0, 0.0)",-0.09567548223716564,False,,,,,False,,,,
47,Close,,,"(2.1644941757498085e-07, 0.1699990504349868, 0.0007869661522299996)","(1.5708234934689855, 0.0001924117668631307, -1.4035069780186692e-05)",,"[-0.026750000193715096, 0.05299999937415123, 0.03999999910593033]","[0.0, -0.0, 0.7494586090384826]","[-0.07579945772886276, 0.10570816695690155, 0.03999999910593033]","[0.0, 0.0, -0.000244853492999894]","[0.026750000193715096, 0.05299999937415123, 0.03999999910593033]","[0.0, 0.0, -0.7494587081400255]","[0.07579946517944336, 0.10570815205574036, 0.03999999910593033]","[0.0, -0.0, 0.00024247731079752444]",0.7345126903138371,-3.587005075035659,"(0.0, 0.0, 0.0, 0.0, 0.0, 0.0)",0.626333365984163,-0.764733160038395,-3.6071428198412123,"(0.0, 0.0, 0.0, 0.0, 0.0, 0.0)",0.08623682787405348,-0.7345128491914382,3.587009311771688,"(0.0, 0.0, 0.0, 0.0, 0.0, 0.0)",-0.6263346776346612,0.7647311803455538,3.607195611862134,"(0.0, 0.0, 0.0, 0.0, 0.0, 0.0)",-0.08623750223625977,False,,,,,False,,,,
48,Close,,,"(1.9902478529523268e-07, 0.16999905216510106, 0.0008031506134026157)","(1.5708213694672628, 0.00017518801369688713, -1.4031269556480368e-05)",,"[-0.026750000193715096, 0.05299999937415123, 0.03999999910593033]","[0.0, -0.0, 0.7345126628086843]","[-0.07500623911619186, 0.10643533617258072, 0.03999999910593033]","[0.0, 0.0, -0.03022046980229406]","[0.026750000193715096, 0.05299999937415123, 0.03999999910593033]","[0.0, 0.0, -0.7345128981556924]","[0.07500624656677246, 0.10643532872200012, 0.03999999910593033]","[0.0, -0.0, 0.03021832986745902]",0.7210614212824534,-3.228304567532092,"(0.0, 0.0, 0.0, 0.0, 0.0, 0.0)",0.5638237707840803,-0.7782610712626786,-3.246698693828069,"(0.0, 0.0, 0.0, 0.0, 0.0, 0.0)",0.07768823801248652,-0.7210615642722944,3.2283083805945183,"(0.0, 0.0, 0.0, 0.0, 0.0, 0.0)",-0.5638249528147553,0.7782592895487316,3.2467462087626835,"(0.0, 0.0, 0.0, 0.0, 0.0, 0.0)",-0.07768884636877696,False,,,,,False,,,,
49,Close,,,"(1.829952775457341e-07, 0.16999905372445717, 0.0008180403399689366)","(1.5708194143492393, 0.00015934185659229473, -1.4027683329641553e-05)",,"[-0.026750000193715096, 0.05299999937415123, 0.03999999910593033]","[0.0, -0.0, 0.7210614193238458]","[-0.07428312301635742, 0.10707958787679672, 0.03999999910593033]","[0.0, 0.0, -0.05719964992344959]","[0.026750000193715096, 0.05299999937415123, 0.03999999910593033]","[0.0, 0.0, -0.7210615729227128]","[0.07428313046693802, 0.10707958042621613, 0.03999999910593033]","[0.0, -0.0, 0.05719773186848648]",0.7089552791542081,-2.905474110778883,"(0.0, 0.0, 0.0, 0.0, 0.0, 0.0)",0.5075985242705942,-0.7904360705014085,-2.921999817295172,"(0.0, 0.0, 0.0, 0.0, 0.0, 0.0)",0.07003713951344083,-0.7089554078450649,2.905477542535066,"(0.0, 0.0, 0.0, 0.0, 0.0, 0.0)",-0.5075995897946305,0.7904344669675306,2.9220425805117625,"(0.0, 0.0, 0.0, 0.0, 0.0, 0.0)",-0.07003768863744474,False,,,,,False,,,,
50,Close,,,"(1.682467379846132e-07, 0.1699990551245469, 0.0008317388481303276)","(1.570817615731277, 0.00014476218910829968, -1.4024269510216624e-05)",,"[-0.026750000193715096, 0.05299999937415123, 0.03999999910593033]","[0.0, -0.0, 0.7089552779168017]","[-0.07362496107816696, 0.10765105485916138, 0.03999999910593033]","[0.0, 0.0, -0.08148078223376223]","[0.026750000193715096, 0.05299999937415123, 0.03999999910593033]","[0.0, 0.0, -0.7089554724698194]","[0.07362496852874756, 0.10765104740858078, 0.03999999910593033]","[0.0, -0.0, 0.0814790502780401]",0.6980597512387873,-2.6149266997009946,"(0.0, 0.0, 0.0, 0.0, 0.0, 0.0)",0.45693917814201784,-0.8013934602632394,-2.6297735428394082,"(0.0, 0.0, 0.0, 0.0, 0.0, 0.0)",0.06310201359777694,-0.6980598670605584,2.614929788281559,"(0.0, 0.0, 0.0, 0.0, 0.0, 0.0)",-0.45694013827892466,0.8013920170905735,2.6298120295302843,"(0.0, 0.0, 0.0, 0.0, 0.0, 0.0)",-0.06310250889925509,False,,,,,False,,,,
51,Close,,,"(1.546756367802499e-07, 0.16999905637827734, 0.0008443414385910609)","(1.5708159610857961, 0.00013134778772512943, -1.402100024143693e-05)",,"[-0.026750000193715096, 0.05299999937415123, 0.03999999910593033]","[0.0, -0.0, 0.6980597686270504]","[-0.07302673906087875, 0.10815852880477905, 0.03999999910593033]","[0.0, 0.0, -0.10333370902653251]","[0.026750000193715096, 0.05299999937415123, 0.03999999910593033]","[0.0, 0.0, -0.6980598246378259]","[0.07302674651145935, 0.10815852135419846, 0.03999999910593033]","[0.0, -0.0, 0.10333215264877679]",0.6882537761149086,-2.3534340297308955,"(0.0, 0.0, 0.0, 0.0, 0.0, 0.0)",0.41132662822933225,-0.8112550122446371,-2.3667724755354502,"(0.0, 0.0, 0.0, 0.0, 0.0, 0.0)",0.056847326346645,-0.6882538803545026,2.353436809453404,"(0.0, 0.0, 0.0, 0.0, 0.0, 0.0)",-0.4113274932960819,0.8112537133962935,2.3668071133728046,"(0.0, 0.0, 0.0, 0.0, 0.0, 0.0)",-0.0568477730004364,False,,,,,False,,,,
52,Close,,,"(1.4218689550358636e-07, 0.1699990574974972, 0.0008559357877458743)","(1.5708144388885392, 0.00011900551991941484, -1.4017852050493115e-05)",,"[-0.026750000193715096, 0.05299999937415123, 0.03999999910593033]","[0.0, -0.0, 0.6882538042795985]","[-0.07248363643884659, 0.10860966145992279, 0.03999999910593033]","[0.0, 0.0, -0.12300123728040792]","[0.026750000193715096, 0.05299999937415123, 0.03999999910593033]","[0.0, 0.0, -0.688253900607872]","[0.07248364388942719, 0.1086096540093422, 0.03999999910593033]","[0.0, -0.0, 0.12299984676553348]",0.6794283985034177,-2.118090626757806,"(0.0, 0.0, 0.0, 0.0, 0.0, 0.0)",0.3702598465395096,-0.8201303199370257,-2.1300738461732434,"(0.0, 0.0, 0.0, 0.0, 0.0, 0.0)",0.051207533272865695,-0.6794284923190523,2.1180931285080637,"(0.0, 0.0, 0.0, 0.0, 0.0, 0.0)",-0.37026062586363284,0.8201291509798778,2.130105020060234,"(0.0, 0.0, 0.0, 0.0, 0.0, 0.0)",-0.051207935975855504,False,,,,,False,,,,
53,Close,,,"(1.3069318416839e-07, 0.16999905849308636, 0.0008666025576372722)","(1.5708130385376784, 0.00010764969663878531, -1.401480516953977e-05)",,"[-0.026750000193715096, 0.05299999937415123, 0.03999999910593033]","[0.0, -0.0, 0.6794284238724229]","[-0.07199108600616455, 0.10901110619306564, 0.03999999910593033]","[0.0, 0.0, -0.14070193198542613]","[0.026750000193715096, 0.05299999937415123, 0.03999999910593033]","[0.0, 0.0, -0.6794284800706577]","[0.07199109345674515, 0.10901109874248505, 0.03999999910593033]","[0.0, -0.0, 0.1407006814892172]",0.6714855586530759,-1.9062815640820263,"(0.0, 0.0, 0.0, 0.0, 0.0, 0.0)",0.33328720146674756,-0.82811801654313,-1.9170471854650495,"(0.0, 0.0, 0.0, 0.0, 0.0, 0.0)",0.0461231568532664,-0.6714856430871471,1.9062838156572566,"(0.0, 0.0, 0.0, 0.0, 0.0, 0.0)",-0.33328790347714454,0.8281169644874314,1.917075241812861,"(0.0, 0.0, 0.0, 0.0, 0.0, 0.0)",-0.04612351986457081,False,,,,,False,,,,
54,Close,,,"(1.201142787701026e-07, 0.1699990593750365, 0.0008764159571233717)","(1.5708117502799854, 9.720147739875066e-05, -1.4011842957469135e-05)",,"[-0.026750000193715096, 0.05299999937415123, 0.03999999910593033]","[0.0, -0.0, 0.6714856028191667]","[-0.07154478132724762, 0.10936867445707321, 0.03999999910593033]","[0.0, 0.0, -0.1566324602805662]","[0.026750000193715096, 0.05299999937415123, 0.03999999910593033]","[0.0, 0.0, -0.6714856028191667]","[0.07154478132724762, 0.10936867445707321, 0.03999999910593033]","[0.0, -0.0, 0.15663130155257995]",0.6643370027877683,-1.7156534076738226,"(0.0, 0.0, 0.0, 0.0, 0.0, 0.0)",0.30000166468946887,-0.8353068710937589,-1.7253250921509458,"(0.0, 0.0, 0.0, 0.0, 0.0, 0.0)",0.041540284771796165,-0.6643370787784324,1.7156554340915304,"(0.0, 0.0, 0.0, 0.0, 0.0, 0.0)",-0.3000022969997827,0.8353059242487986,1.725350342728124,"(0.0, 0.0, 0.0, 0.0, 0.0, 0.0)",-0.041540611950472935,False,,,,,False,,,,
55,Close,,,"(1.1037647424359984e-07, 0.16999906015252483, 0.0008854442581506275)","(1.5708105651429114, 8.758832292823178e-05, -1.4008951415989527e-05)",,"[-0.026750000193715096, 0.05299999937415123, 0.03999999910593033]","[0.0, -0.0, 0.6643370606126838]","[-0.07114068418741226, 0.1096874549984932, 0.03999999910593033]","[0.0, 0.0, -0.17096987637179278]","[0.026750000193715096, 0.05299999937415123, 0.03999999910593033]","[0.0, 0.0, -0.6643370606126838]","[0.07114069163799286, 0.1096874475479126, 0.03999999910593033]","[0.0, -0.0, 0.17096884643662202]",0.6579033025089914,-1.5440880669064398,"(0.0, 0.0, 0.0, 0.0, 0.0, 0.0)",0.2700364572532802,-0.8417767749452665,-1.5527769243618206,"(0.0, 0.0, 0.0, 0.0, 0.0, 0.0)",0.03741008611729049,-0.6579033709005891,1.5440898906823783,"(0.0, 0.0, 0.0, 0.0, 0.0, 0.0)",-0.27003702673818186,0.8417759227894597,1.5527996497586782,"(0.0, 0.0, 0.0, 0.0, 0.0, 0.0)",-0.03741038095743008,False,,,,,False,,,,
56,Close,,,"(1.0141204673652616e-07, 0.16999906083398159, 0.0008937502707232629)","(1.570809474872104, 7.87434915574051e-05, -1.4006118772737545e-05)",,"[-0.026750000193715096, 0.05299999937415123, 0.03999999910593033]","[0.0, -0.0, 0.6579033304946226]","[-0.07077505439519882, 0.10997187346220016, 0.03999999910593033]","[0.0, 0.0, -0.18387348897538708]","[0.026750000193715096, 0.05299999937415123, 0.03999999910593033]","[0.0, 0.0, -0.6579033304946226]","[0.07077506184577942, 0.10997187346220016, 0.03999999910593033]","[0.0, -0.0, 0.1838725619548152]",0.6521129722580923,-1.3896792602157946,"(0.0, 0.0, 0.0, 0.0, 0.0, 0.0)",0.24306111081870946,-0.8475996296201711,-1.3974851219770965,"(0.0, 0.0, 0.0, 0.0, 0.0, 0.0)",0.033688362136148925,-0.6521130338105302,1.38968090161414,"(0.0, 0.0, 0.0, 0.0, 0.0, 0.0)",-0.24306162368353448,0.8475988626841415,1.3975055747236533,"(0.0, 0.0, 0.0, 0.0, 0.0, 0.0)",-0.03368862779939208,False,,,,,False,,,,
57,Close,,,"(9.31587620256511e-08, 0.16999906142715163, 0.0009013917798737923)","(1.570808471873919, 7.060557585400826e-05, -1.4003335136779464e-05)",,"[-0.026750000193715096, 0.05299999937415123, 0.03999999910593033]","[0.0, -0.0, 0.6521129301518677]","[-0.07044443488121033, 0.11022583395242691, 0.03999999910593033]","[0.0, 0.0, -0.19548665573955404]","[0.026750000193715096, 0.05299999937415123, 0.03999999910593033]","[0.0, 0.0, -0.6521129866161153]","[0.07044444233179092, 0.11022583395242691, 0.03999999910593033]","[0.0, -0.0, 0.19548582525750646]",0.646901675032283,-1.2507113341942153,"(0.0, 0.0, 0.0, 0.0, 0.0, 0.0)",0.2187779064062842,-0.8528401458571484,-1.2577238968745574,"(0.0, 0.0, 0.0, 0.0, 0.0, 0.0)",0.03033513071724496,-0.6469017304294772,1.2507128114527255,"(0.0, 0.0, 0.0, 0.0, 0.0, 0.0)",-0.2187783682505172,0.8528394556185027,1.2577423042466835,"(0.0, 0.0, 0.0, 0.0, 0.0, 0.0)",-0.03033537006280305,False,,,,,False,,,,
58,Close,,,"(8.555942447331213e-08, 0.16999906193915107, 0.000908421947674647)","(1.5708075491625393, 6.311807629477444e-05, -1.4000592203169427e-05)",,"[-0.026750000193715096, 0.05299999937415123, 0.03999999910593033]","[0.0, -0.0, 0.6469017074975589]","[-0.0701456218957901, 0.11045276373624802, 0.03999999910593033]","[0.0, 0.0, -0.20593848593871938]","[0.026750000193715096, 0.05299999937415123, 0.03999999910593033]","[0.0, 0.0, -0.6469017640113621]","[0.0701456293463707, 0.11045276373624802, 0.03999999910593033]","[0.0, -0.0, 0.2059377054983325]",0.6422115075290548,-1.1256402007747932,"(0.0, 0.0, 0.0, 0.0, 0.0, 0.0)",0.19691865600140895,-0.8575565627499749,-1.1319400542783593,"(0.0, 0.0, 0.0, 0.0, 0.0, 0.0)",0.027314243362735774,-0.6422115573865295,1.1256415303074527,"(0.0, 0.0, 0.0, 0.0, 0.0, 0.0)",-0.19691907187647334,0.8575559415385998,1.1319566208232932,"(0.0, 0.0, 0.0, 0.0, 0.0, 0.0)",-0.027314458975022625,False,,,,,False,,,,
59,Move,,,"(7.856146500561274e-08, 0.16999906237651882, 0.0009148896830877347)","(1.5708067003113224, 5.6229009009845055e-05, -1.399788300299107e-05)","[0.0, 0.0, 0.0]","[-0.026750000193715096, 0.05299999937415123, 0.03999999910593033]","[0.0, -0.0, 0.6422115222668433]","[-0.06987567991018295, 0.11065566539764404, 0.03999999910593033]","[0.0, 0.0, -0.21534502689171695]","[0.026750000193715096, 0.05299999937415123, 0.03999999910593033]","[0.0, 0.0, -0.6422115222668433]","[0.06987568736076355, 0.11065565794706345, 0.03999999910593033]","[0.0, -0.0, 0.2153443918565048]",0.6379903567761492,-1.0130761806973148,"(0.0, 0.0, 0.0, 0.0, 0.0, 0.0)",0.17724179525373857,-0.861801294967015,-1.0187357320896053,"(0.0, 0.0, 0.0, 0.0, 0.0, 0.0)",0.024593033118920006,-0.6379904016478766,1.0130773772767077,"(0.0, 0.0, 0.0, 0.0, 0.0, 0.0)",-0.1772421697155535,0.8618007358798453,1.0187506418989196,"(0.0, 0.0, 0.0, 0.0, 0.0, 0.0)",-0.024593227332916724,False,,,,,False,,,,
60,Move,,,"(7.401516452493873e-08, 0.16999906300717518, 0.0009208949427311885)","(1.5708059692049072, 5.171406878091127e-05, -1.3997173418156156e-05)","[-4.546300480674002e-09, 6.306563604674409e-10, 6.005259643453772e-06]","[-0.026750000193715096, 0.05299999937415123, 0.03999999910593033]","[0.0, -0.0, 0.6379903239810443]","[-0.06963192671537399, 0.1108371913433075, 0.03999999910593033]","[0.0, 0.0, -0.2238109552587812]","[0.026750000193715096, 0.05299999937415123, 0.03999999910593033]","[0.0, 0.0, -0.6379904179642307]","[0.06963192671537399, 0.1108371838927269, 0.03999999910593033]","[0.0, -0.0, 0.22381033482023305]",0.615110639462399,-5.491132155300077,"(0.0, 0.0, 0.0, 0.0, 0.0, 0.0)",-6.452665348763696,-0.8613763884842398,0.10197755586604229,"(0.0, 0.0, 0.0, 0.0, 0.0, 0.0)",-0.36782542138199165,-0.6151107211023208,5.491123330933392,"(0.0, 0.0, 0.0, 0.0, 0.0, 0.0)",6.4526488408560905,0.8613758231880564,-0.10197904602934349,"(0.0, 0.0, 0.0, 0.0, 0.0, 0.0)",0.36782252911949487,False,,,,,False,,,,
61,Move,,,"(6.525734425186348e-05, 0.17034549853437667, 0.001059997142676121)","(1.5643418998519334, 0.00019756355969089426, -0.0007979474479338168)","[6.517878278685787e-05, 0.00034643615785784343, 0.00014510745958838623]","[-0.026750000193715096, 0.05299999937415123, 0.03999999910593033]","[0.0, -0.0, 0.6151107619663475]","[-0.06829752027988434, 0.1118030920624733, 0.03999999910593033]","[0.0, 0.0, -0.24626574387408112]","[0.026750000193715096, 0.05299999937415123, 0.03999999910593033]","[0.0, 0.0, -0.6151107619663475]","[0.06829752773046494, 0.1118030920624733, 0.03999999910593033]","[0.0, -0.0, 0.24626510812228053]",0.59557520589455,-4.68850405628373,"(0.0, 0.0, 0.0, 0.0, 0.0, 0.0)",-45.004877301260535,-0.841587039207075,4.749443826519566,"(0.0, 0.0, 0.0, 0.0, 0.0, 0.0)",-23.059879711313982,-0.5955448471476087,4.6958097491309045,"(0.0, 0.0, 0.0, 0.0, 0.0, 0.0)",43.2331221848827,0.8422035798107438,-4.601338410555013,"(0.0, 0.0, 0.0, 0.0, 0.0, 0.0)",22.069611273367745,True,"(-0.03288698015965098, 0.18306432161630465, 0.039999948285931244)","(0.9999999985648672, -1.399717339714095e-05, -5.171406875791205e-05)",0.0009292587523792685,356.63318049990795,True,"(0.032887031061809374, 0.18306436848012048, 0.04000005171406876)","(-0.9999999985648671, 1.3997173395198976e-05, 5.171406875668148e-05)",0.0009247539911204204,342.7710504396539
62,Move,"(0.0, 0.0, 0.0)","(0.0, -0.0, 0.0)","(0.00016176697229314485, 0.17076934431250207, 0.001298992481510786)","(1.553459115144406, 0.0004787126916021603, -0.0016283617000435679)","[0.00016168841082813925, 0.0007702819359832469, 0.0003841027984230513]","[-0.026750000193715096, 0.05299999937415123, 0.03999999910593033]","[0.0, -0.0, 0.5955751094143519]","[-0.06714092195034027, 0.11260347068309784, 0.03999999910593033]","[0.0, 0.0, -0.24601185159459507]","[0.026750000193715096, 0.05299999937415123, 0.03999999910593033]","[0.0, 0.0, -0.5955448282145998]","[0.06713911145925522, 0.11260469257831573, 0.03999999910593033]","[0.0, -0.0, 0.24665872904210193]",0.5770970782178444,-4.434750642409365,"(0.0, 0.0, 0.0, 0.0, 0.0, 0.0)",-74.21698749878065,-0.811850997818181,7.136649933334551,"(0.0, 0.0, 0.0, 0.0, 0.0, 0.0)",-37.92588619525253,-0.5770027641966642,4.450099908226674,"(0.0, 0.0, 0.0, 0.0, 0.0, 0.0)",71.59541053355323,0.8135423707664626,-6.878690170627483,"(0.0, 0.0, 0.0, 0.0, 0.0, 0.0)",36.485404729774935,True,"(-0.03174847742362094, 0.1838726496858637, 0.03999980243644159)","(0.9999996621242782, -0.0007979473476813144, -0.0001975635584110712)",-0.00012778812911608492,569.3446982775357,True,"(0.031700570614753176, 0.18385320841010633, 0.0400001975635584)","(-0.9999996621242783, 0.0007979473476767542, 0.0001975635584049517)",-0.0003431682129125587,549.2893233704585
63,Move,"(0.0, 0.0, 0.0)","(0.0, -0.0, 0.0)","(0.00020568050408397375, 0.17108007690663649, 0.0015665957858292871)","(1.5453980212159237, 0.00011151380297923225, -0.0017071234802152205)","[0.00020560194261896815, 0.0010810145301176632, 0.0006517061027415524]","[-0.026750000193715096, 0.05299999937415123, 0.03999999910593033]","[0.0, -0.0, 0.5770971029289548]","[-0.06603273004293442, 0.11333960294723511, 0.03999999910593033]","[0.0, 0.0, -0.23475391897699402]","[0.026750000193715096, 0.05299999937415123, 0.03999999910593033]","[0.0, 0.0, -0.5770027543990871]","[0.06602703779935837, 0.11334330588579178, 0.03999999910593033]","[0.0, -0.0, 0.23653961426052006]",0.579404895675538,0.5538761898464655,"(0.0, 0.0, 0.0, 0.0, 0.0, 0.0)",6.4633983195225495,-0.8148246019570704,-0.7136649933334551,"(0.0, 0.0, 0.0, 0.0, 0.0, 0.0)",-0.3132438216507522,-0.5792909153140746,-0.5491562681785016,"(0.0, 0.0, 0.0, 0.0, 0.0, 0.0)",-6.16852739973914,0.8163981315451861,0.6853825868936365,"(0.0, 0.0, 0.0, 0.0, 0.0, 0.0)",0.4843271556067679,True,"(-0.03144479909141533, 0.18499061278782541, 0.039999521287326686)","(0.9999985596366134, -0.0016283607938474471, -0.0004787126733201028)",-0.00031179486038545077,0.0,True,"(0.0313112124765586, 0.1849374824167095, 0.040000478712673315)","(-0.9999985596366132, 0.0016283607938671909, 0.0004787126733090728)",-0.0008521962835819142,2.606367117194445
64,Move,"(0.0, 0.0, 0.0)","(0.0, -0.0, 0.0)","(0.0002286301636098697, 0.1713253442528434, 0.0017817810741192494)","(1.5389812495376074, -0.000511554387002508, -0.0015041162679156222)","[0.0002285516021448641, 0.001326281876324581, 0.0008668913910315147]","[-0.026750000193715096, 0.05299999937415123, 0.03999999910593033]","[0.0, -0.0, 0.579404963823502]","[-0.06617187708616257, 0.1132487803697586, 0.03999999910593033]","[0.0, 0.0, -0.23541970778940716]","[0.026750000193715096, 0.05299999937415123, 0.03999999910593033]","[0.0, 0.0, -0.5792908612503161]","[0.0661650076508522, 0.11325327306985855, 0.03999999910593033]","[0.0, -0.0, 0.23710723316040327]",0.5797513740576465,0.08315481170606276,"(0.0, 0.0, 0.0, 0.0, 0.0, 0.0)",-0.6050371588525649,-0.8145272415431815,0.0713664993333446,"(0.0, 0.0, 0.0, 0.0, 0.0, 0.0)",0.03442143396704877,-0.5795726203959736,-0.06760921965573785,"(0.0, 0.0, 0.0, 0.0, 0.0, 0.0)",0.7665056913582627,0.8161098046097013,-0.06919846451636869,"(0.0, 0.0, 0.0, 0.0, 0.0, 0.0)",0.05385507678343228,True,"(-0.03153624923514486, 0.18487733778001617, 0.039999888486197246)","(0.9999985366474105, -0.001707122640433851, -0.00011151380275540046)",-0.00019027644015300206,0.0,True,"(0.031408552968427136, 0.18482838253269274, 0.04000011151380275)","(-0.9999985366474103, 0.0017071226404405677, 0.0001115138027507468)",-0.000784928296535469,1.0848258206781705
65,Move,"(0.00045, 0.0, -0.00011000000000000002)","(0.0, -0.0, 0.0)","(0.00022379716863681287, 0.17150000086347655, 0.0019406498368261169)","(1.5343522193496357, -0.0004765094393025708, 0.00014207308519451227)","[0.00022371860717180727, 0.0015009384869577314, 0.0010257601537383822]","[-0.026750000193715096, 0.05299999937415123, 0.03999999910593033]","[0.0, -0.0, 0.5797513227663355]","[-0.06619274616241455, 0.11323511600494385, 0.03999999910593033]","[0.0, 0.0, -0.23477587649959936]","[0.026750000193715096, 0.05299999937415123, 0.03999999910593033]","[0.0, 0.0, -0.5795726052946306]","[0.066181980073452, 0.11324217170476913, 0.03999999910593033]","[0.0, -0.0, 0.23653717420671178]",0.5800025533587417,0.060283032262853836,"(0.0, 0.0, 0.0, 0.0, 0.0, 0.0)",-0.08748504235356536,-0.8144857885427594,0.009948720101281991,"(0.0, 0.0, 0.0, 0.0, 0.0, 0.0)",-0.03698135826994708,-0.579752547686338,-0.04318254968747053,"(0.0, 0.0, 0.0, 0.0, 0.0, 0.0)",0.48238923479540985,0.8160161726880292,-0.022471661201294325,"(0.0, 0.0, 0.0, 0.0, 0.0, 0.0)",0.2704515667978493,True,"(-0.03160324687828937, 0.18488551941779136, 0.040000511554364696)","(0.999998737973545, -0.0015041155039720849, 0.0005115543646937556)",-0.0001273172082404877,0.3600099641952665,True,"(0.0314663294688103, 0.18483630435861093, 0.039999488445635306)","(-0.999998737973545, 0.0015041155039789739, -0.0005115543647008311)",-0.0007231109159374579,3.369659756540658
66,Move,"(0.00072, 0.0, -0.00018)","(0.0, -0.0, 0.0)","(0.00022808974632945918, 0.17161369144047328, 0.0020491476984624015)","(1.5313063628216488, -0.00043855534449748173, 0.0014311457007157812)","[0.00022801118486445358, 0.0016146290639544592, 0.0011342580153746668]","[-0.026750000193715096, 0.05299999937415123, 0.03999999910593033]","[0.0, -0.0, 0.5800025345126305]","[-0.0662078782916069, 0.11322520673274994, 0.03999999910593033]","[0.0, 0.0, -0.2344832078059935]","[0.026750000193715096, 0.05299999937415123, 0.03999999910593033]","[0.0, 0.0, -0.5797525332723408]","[0.06619282066822052, 0.11323507130146027, 0.03999999910593033]","[0.0, -0.0, 0.23626364065370517]",0.5802514730286324,0.05974072077376835,"(0.0, 0.0, 0.0, 0.0, 0.0, 0.0)",-0.001988071947814781,-0.8144902518012953,-0.0010711820486204778,"(0.0, 0.0, 0.0, 0.0, 0.0, 0.0)",-0.0012649794453513232,-0.5801234822807322,-0.08902430265459493,"(0.0, 0.0, 0.0, 0.0, 0.0, 0.0)",-0.06459938434311573,0.8160260258756092,0.0023647650192113734,"(0.0, 0.0, 0.0, 0.0, 0.0, 0.0)",-0.002301885663177306,True,"(-0.03163934341019903, 0.18488708280981267, 0.04000047650942127)","(0.9999998763769996, 0.0001420730685829438, 0.00047650942126588347)",-0.00011690035875491202,0.0,True,"(0.03149675298742195, 0.18483678285391775, 0.039999523490578726)","(-0.9999998763769997, -0.00014207306859140775, -0.0004765094212733113)",-0.0006670170266508909,0.0
67,Move,"(0.0006000000000000001, 0.0, -0.00015000000000000001)","(0.0, -0.0, 0.0)","(0.00024131135357664831, 0.17166628994068064, 0.002107537507092149)","(1.5298433083418126, -0.00040523924286517974, 0.002371703067571239)","[0.00024123279211164271, 0.0016672275641618217, 0.0011926478240044144]","[-0.026750000193715096, 0.05299999937415123, 0.03999999910593033]","[0.0, -0.0, 0.5802514625230056]","[-0.06622286885976791, 0.1132153868675232, 0.03999999910593033]","[0.0, 0.0, -0.23423880331502897]","[0.026750000193715096, 0.05299999937415123, 0.03999999910593033]","[0.0, 0.0, -0.5801234761890776]","[0.0662151575088501, 0.11322043836116791, 0.03999999910593033]","[0.0, -0.0, 0.23590254247482517]",0.5804864615857379,0.05639725370530079,"(0.0, 0.0, 0.0, 0.0, 0.0, 0.0)",-0.004763991227108725,-0.8144897555170757,0.00011910821269306166,"(0.0, 0.0, 0.0, 0.0, 0.0, 0.0)",-0.00023469290398174094,-0.58056938282105,-0.1070161296762775,"(0.0, 0.0, 0.0, 0.0, 0.0, 0.0)",-0.026711508767882825,0.8160255183613063,-0.0001218034326881212,"(0.0, 0.0, 0.0, 0.0, 0.0, 0.0)",-0.0022446153500118495,True,"(-0.0316718535960059, 0.18488675207638433, 0.040000438555330434)","(0.9999988797458714, 0.0014311450745545019, 0.0004385553304363189)",-9.573099874428272e-05,0.0,True,"(0.031544950835898714, 0.18483302128721332, 0.03999956144466957)","(-0.9999988797458713, -0.0014311450745465083, -0.0004385553304369058)",-0.0006076110470146776,0.0
68,Move,"(0.00052, 0.0, -0.00017)","(0.0, -0.0, 0.0)","(0.0002615483501766, 0.17166612395476863, 0.002115797489361066)","(1.5299687921720917, -0.00037739330652121944, 0.003021781481304321)","[0.0002614697887115944, 0.0016670615782498066, 0.0012009078062733313]","[-0.026750000193715096, 0.05299999937415123, 0.03999999910593033]","[0.0, -0.0, 0.5804864716891398]","[-0.06623701751232147, 0.11320611089468002, 0.03999999910593033]","[0.0, 0.0, -0.23400329831611585]","[0.026750000193715096, 0.05299999937415123, 0.03999999910593033]","[0.0, 0.0, -0.5805694246970737]","[0.06624200940132141, 0.11320283263921738, 0.03999999910593033]","[0.0, -0.0, 0.235456126642016]",0.58078993861622,0.07283448731569654,"(0.0, 0.0, 0.0, 0.0, 0.0, 0.0)",0.024124118225297572,-0.8144901834281142,-0.0001026986492269973,"(0.0, 0.0, 0.0, 0.0, 0.0, 0.0)",0.0017770846597838313,-0.5810084523107785,-0.10537667753483859,"(0.0, 0.0, 0.0, 0.0, 0.0, 0.0)",0.002393988953479057,0.8160255284548062,2.4224399771430685e-06,"(0.0, 0.0, 0.0, 0.0, 0.0, 0.0)",0.00019100159838292177,True,"(-0.03170288232040344, 0.18488631406554623, 0.040000405239231776)","(0.999997105404408, 0.0023717006493662552, 0.00040523923177730427)",-6.260759673402112e-05,0.0,True,"(0.03160377343852408, 0.1848295007262675, 0.039999594760768226)","(-0.999997105404408, -0.0023717006493789673, -0.00040523923177248787)",-0.0005510533417380672,0.0
69,Move,"(0.00046, 0.0, -0.00015000000000000001)","(0.0, -0.0, 0.0)","(0.0002817141277520765, 0.171662240654596, 0.0020728269876820068)","(1.5317154329358917, -0.0003487502279310944, 0.003671010805954789)","[0.0002816355662870709, 0.0016631782780771875, 0.001157937304594272]","[-0.026750000193715096, 0.05299999937415123, 0.03999999910593033]","[0.0, -0.0, 0.580789955769831]","[-0.06625528633594513, 0.11319412291049957, 0.03999999910593033]","[0.0, 0.0, -0.23370023367303683]","[0.026750000193715096, 0.05299999937415123, 0.03999999910593033]","[0.0, 0.0, -0.5810085110063129]","[0.0662684366106987, 0.11318548768758774, 0.03999999910593033]","[0.0, -0.0, 0.23501705827230812]",0.5811222077579578,0.07974459401707622,"(0.0, 0.0, 0.0, 0.0, 0.0, 0.0)",0.010172146877791367,-0.8144903037651777,-2.88808952479001e-05,"(0.0, 0.0, 0.0, 0.0, 0.0, 0.0)",0.0007663385817913624,-0.581435236677861,-0.10242824809981865,"(0.0, 0.0, 0.0, 0.0, 0.0, 0.0)",0.004300673635718564,0.8160254595993718,-1.6525304266000133e-05,"(0.0, 0.0, 0.0, 0.0, 0.0, 0.0)",0.0003187252880436228,True,"(-0.031742876858969885, 0.1848851371659521, 0.04000037739329756)","(0.9999953632092858, 0.00302177666738372, 0.00037739329755833963)",-9.964669680075121e-06,0.0,True,"(0.03166165724442828, 0.18482626739166932, 0.03999962260670244)","(-0.9999953632092857, -0.003021776667387389, -0.0003773932975664828)",-0.0005059717742000338,0.0
70,Move,"(0.00041000000000000005, 0.0, -0.00013)","(0.0, -0.0, 0.0)","(0.0003018680118225285, 0.17165487021492576, 0.0019787884155643694)","(1.5350853827073818, -0.0003225757656581675, 0.00431932057030658)","[0.0003017894503575229, 0.0016558078384069363, 0.0010638987324766347]","[-0.026750000193715096, 0.05299999937415123, 0.03999999910593033]","[0.0, -0.0, 0.581122156433666]","[-0.06627528369426727, 0.11318099498748779, 0.03999999910593033]","[0.0, 0.0, -0.23336809926310473]","[0.026750000193715096, 0.05299999937415123, 0.03999999910593033]","[0.0, 0.0, -0.5814352427748886]","[0.0662941187620163, 0.1131686195731163, 0.03999999910593033]","[0.0, -0.0, 0.23459023227012085]",0.5814723033243796,0.08402293594125165,"(0.0, 0.0, 0.0, 0.0, 0.0, 0.0)",0.006302489245262875,-0.8144903919919421,-2.1174423445715948e-05,"(0.0, 0.0, 0.0, 0.0, 0.0, 0.0)",0.00047100061361102333,-0.5818460556240018,-0.09859654707378952,"(0.0, 0.0, 0.0, 0.0, 0.0, 0.0)",0.005600047154647033,0.8160253776636995,-1.9664561333135064e-05,"(0.0, 0.0, 0.0, 0.0, 0.0, 0.0)",0.0004172616264884241,True,"(-0.03178669041875273, 0.18488378383515347, 0.04000034875022087)","(0.999993201034448, 0.00367100233743155, 0.000348750220862699)",4.642377823455403e-05,0.0,True,"(0.03171792648029935, 0.18482308547104753, 0.039999651249779146)","(-0.999993201034448, -0.003671002337435777, -0.0003487502208520103)",-0.0004624600895366779,0.0
71,Move,"(0.00055, 0.0, -0.00017)","(0.0, -0.0, 0.0)","(0.00032201601682818674, 0.1716444454444103, 0.0018337245141962584)","(1.5400794165735954, -0.0003006255056999791, 0.004966623835098271)","[0.00032193745536318114, 0.0016453830678914705, 0.0009188348311085237]","[-0.026750000193715096, 0.05299999937415123, 0.03999999910593033]","[0.0, -0.0, 0.5814723976635191]","[-0.06629635393619537, 0.11316715180873871, 0.03999999910593033]","[0.0, 0.0, -0.23301810233561057]","[0.026750000193715096, 0.05299999937415123, 0.03999999910593033]","[0.0, 0.0, -0.581846137580794]","[0.06631883233785629, 0.11315236985683441, 0.03999999910593033]","[0.0, -0.0, 0.23417930136763251]",0.5818313510040112,0.0861714431115832,"(0.0, 0.0, 0.0, 0.0, 0.0, 0.0)",0.0031767559568509837,-0.8144904338732577,-1.0051515763724842e-05,"(0.0, 0.0, 0.0, 0.0, 0.0, 0.0)",0.00023819568400081645,-0.5822350521870714,-0.09335917513670379,"(0.0, 0.0, 0.0, 0.0, 0.0, 0.0)",0.007664460818912578,0.8160252643484056,-2.7195670551586347e-05,"(0.0, 0.0, 0.0, 0.0, 0.0, 0.0)",0.0005708206611617063,True,"(-0.031832856945159624, 0.18488230768915814, 0.04000032257576007)","(0.9999906197223316, 0.004319306915014582, 0.00032257576007141674)",0.00010502614812767475,0.0,True,"(0.03177209135813374, 0.1848199770563946, 0.039999677424239946)","(-0.9999906197223317, -0.004319306915012026, -0.00032257576005471016)",-0.00042094228771540374,0.0
72,Move,"(0.0005, 0.0, -0.00015000000000000001)","(0.0, -0.0, 0.0)","(0.0003421505104593116, 0.17163163861480488, 0.0016376476404981349)","(1.5466980609582925, -0.0002841971939429539, 0.005612621432705748)","[0.000342071948994306, 0.0016325762382860542, 0.0007227579574104002]","[-0.026750000193715096, 0.05299999937415123, 0.03999999910593033]","[0.0, -0.0, 0.5818313168048237]","[-0.06631795316934586, 0.11315295100212097, 0.03999999910593033]","[0.0, 0.0, -0.23265906911276574]","[0.026750000193715096, 0.05299999937415123, 0.03999999910593033]","[0.0, 0.0, -0.5822350750648326]","[0.06634223461151123, 0.11313696950674057, 0.03999999910593033]","[0.0, -0.0, 0.23379022437837646]",0.5821420148720241,0.07455932832309475,"(0.0, 0.0, 0.0, 0.0, 0.0, 0.0)",-0.017020075262899705,-0.8144901610816895,6.546997636385793e-05,"(0.0, 0.0, 0.0, 0.0, 0.0, 0.0)",-0.001261837118544378,-0.5826268702851738,-0.09403634354457946,"(0.0, 0.0, 0.0, 0.0, 0.0, 0.0)",-0.0010138932307065167,0.8160252910807463,6.41576174859415e-06,"(0.0, 0.0, 0.0, 0.0, 0.0, 0.0)",-7.23494662092787e-05,True,"(-0.031880207032492766, 0.18488076105222, 0.040000300625501174)","(0.999987621161904, 0.004966603191784624, 0.00030062550117104244)",0.00016461186101803766,0.0,True,"(0.0318233812209937, 0.18481698101546945, 0.03999969937449883)","(-0.999987621161904, -0.004966603191773346, -0.0003006255011738007)",-0.0003821275123837499,0.0
73,Move,"(0.00044000000000000007, 0.0, -0.00019)","(0.0, -0.0, 0.0)","(0.0003622137244546522, 0.1716173815819089, 0.0013905893082663038)","(1.5549421394722853, -0.00027169888816593973, 0.006254674208384747)","[0.0003621351629896466, 0.001618319205390073, 0.00047569962517856907]","[-0.026750000193715096, 0.05299999937415123, 0.03999999910593033]","[0.0, -0.0, 0.5821419940576643]","[-0.06633663922548294, 0.11314065009355545, 0.03999999910593033]","[0.0, 0.0, -0.23234818081359673]","[0.026750000193715096, 0.05299999937415123, 0.03999999910593033]","[0.0, 0.0, -0.5826269926747755]","[0.0663657933473587, 0.11312144994735718, 0.03999999910593033]","[0.0, -0.0, 0.2333984121997424]",0.5824510314064895,0.07416396827168015,"(0.0, 0.0, 0.0, 0.0, 0.0, 0.0)",-0.0005695720903615832,-0.8144901778348058,-4.02074793443893e-06,"(0.0, 0.0, 0.0, 0.0, 0.0, 0.0)",-4.9448915068185306e-05,-0.5829777330213458,-0.08420705668129003,"(0.0, 0.0, 0.0, 0.0, 0.0, 0.0)",0.014401911020002094,0.8160250610812605,-5.5199876578813826e-05,"(0.0, 0.0, 0.0, 0.0, 0.0, 0.0)",0.001067926404803562,True,"(-0.03192119876090098, 0.18487950536247028, 0.04000028419719013)","(0.999984208898288, 0.00561259173841848, 0.00028419719012161553)",0.0002175831877751919,0.0,True,"(0.031875032473885616, 0.1848139443571219, 0.03999971580280989)","(-0.9999842088982882, -0.005612591738406946, -0.00028419719010888017)",-0.00034272587201950077,0.0
74,Move,"(0.00054, 0.0, -0.00021)","(0.0, -0.0, 0.0)","(0.00038213355244804943, 0.17160283556281888, 0.001092542464726685)","(1.5648118018784731, -0.0002615095685813557, 0.0068905356312436924)","[0.00038205499098304383, 0.0016037731863000615, 0.00017765278163895033]","[-0.026750000193715096, 0.05299999937415123, 0.03999999910593033]","[0.0, -0.0, 0.5824510270685607]","[-0.06635522097349167, 0.1131284162402153, 0.03999999910593033]","[0.0, 0.0, -0.2320391860283506]","[0.026750000193715096, 0.05299999937415123, 0.03999999910593033]","[0.0, 0.0, -0.5829776791949518]","[0.0663868859410286, 0.11310754716396332, 0.03999999910593033]","[0.0, -0.0, 0.2330473644757261]",0.5827390714098879,0.06912960081563302,"(0.0, 0.0, 0.0, 0.0, 0.0, 0.0)",-0.007369876948897283,-0.8144900598504133,2.8316254185710374e-05,"(0.0, 0.0, 0.0, 0.0, 0.0, 0.0)",-0.000546393289798937,-0.5832716601511158,-0.07054251114477861,"(0.0, 0.0, 0.0, 0.0, 0.0, 0.0)",0.02004067919758014,0.8160247662204401,-7.07665969115743e-05,"(0.0, 0.0, 0.0, 0.0, 0.0, 0.0)",0.0014932367283060012,True,"(-0.0319619522832264, 0.18487823355054256, 0.04000027169888483)","(0.9999804026796214, 0.006254633196142825, 0.00027169888482760524)",0.0002701013792820305,0.0,True,"(0.031921302965807925, 0.18481115285886768, 0.03999972830111518)","(-0.9999804026796213, -0.006254633196145284, -0.00027169888482065475)",-0.00030851616119075047,0.0
75,Move,"(0.0005, 0.0, -0.00019)","(0.0, -0.0, 0.0)","(0.00034646304421927313, 0.17163408421696955, 0.0009556290613568208)","(1.5711238170702149, 0.0014334514793227684, 0.008082377811725473)","[0.00034638448275426753, 0.0016350218404507233, 4.0739378269086116e-05]","[-0.026750000193715096, 0.05299999937415123, 0.03999999910593033]","[0.0, -0.0, 0.5827391191901201]","[-0.06637253612279892, 0.11311700940132141, 0.03999999910593033]","[0.0, 0.0, -0.23175103860484617]","[0.026750000193715096, 0.05299999937415123, 0.03999999910593033]","[0.0, 0.0, -0.58327160596856]","[0.0664045512676239, 0.11309589445590973, 0.03999999910593033]","[0.0, -0.0, 0.23275309839221983]",0.5829657479467134,0.05440236883813565,"(0.0, 0.0, 0.0, 0.0, 0.0, 0.0)",-0.021609926709472115,-0.8144900716488526,-2.8316254194749035e-06,"(0.0, 0.0, 0.0, 0.0, 0.0, 0.0)",-0.0016150619005232065,-0.5835401791588308,-0.06444456185161622,"(0.0, 0.0, 0.0, 0.0, 0.0, 0.0)",0.7086925611416244,0.8160044062131758,-0.004886401743409833,"(0.0, 0.0, 0.0, 0.0, 0.0, 0.0)",0.3634438208853423,True,"(-0.0319999490725382, 0.18487707858006217, 0.0400002615095656)","(0.999976226160471, 0.006890480869251102, 0.0002615095655952299)",0.00031967293149946004,0.0,True,"(0.031960072734757275, 0.18480870727102794, 0.0399997384904344)","(-0.999976226160471, -0.0068904808692512014, -0.0002615095655990842)",-0.0002816413250316896,5.29040163114919
76,Move,"(0.00047000000000000004, 0.0, -0.00018)","(0.0, -0.0, 0.0)","(0.00034636346342246894, 0.17163255594999766, 0.0010055989698073264)","(1.5726228353003469, 0.0013187457577558965, 0.00808327620545872)","[0.00034628490195746334, 0.0016334935734788336, 9.070928671959166e-05]","[-0.026750000193715096, 0.05299999937415123, 0.03999999910593033]","[0.0, -0.0, 0.5829657015279215]","[-0.0663861632347107, 0.11310802400112152, 0.03999999910593033]","[0.0, 0.0, -0.2315243312310971]","[0.026750000193715096, 0.05299999937415123, 0.03999999910593033]","[0.0, 0.0, -0.5835401729364148]","[0.06642068177461624, 0.11308524757623672, 0.03999999910593033]","[0.0, -0.0, 0.23246422775102013]",0.5831612573686867,0.04692226127358801,"(0.0, 0.0, 0.0, 0.0, 0.0, 0.0)",-0.01096907447079632,-0.8144900704636483,2.844490119388566e-07,"(0.0, 0.0, 0.0, 0.0, 0.0, 0.0)",-0.0008178704920642022,-0.5837434106860224,-0.04877556652598525,"(0.0, 0.0, 0.0, 0.0, 0.0, 0.0)",0.02359160877146206,0.8160069193578867,0.0006031547306248565,"(0.0, 0.0, 0.0, 0.0, 0.0, 0.0)",0.0023160371679937252,True,"(-0.032029849858354706, 0.18487684988784808, 0.039998566549011585)","(0.9999663104044203, 0.008082281511678141, -0.0014334509884143234)",0.0003641573460923305,0.0,True,"(0.03199693782307525, 0.18480652372537698, 0.040001433450988416)","(-0.9999663104044204, -0.008082281511686096, 0.0014334509884109262)",-0.00026009758421339374,0.0
77,Move,"(0.00047000000000000004, 0.0, -0.00018)","(0.0, -0.0, 0.0)","(0.00034628955155530577, 0.17163270186286791, 0.0010047270041478229)","(1.5724888095292961, 0.0012133053252343523, 0.008082429970171773)","[0.00034621099009030017, 0.0016336394863490922, 8.983732106008818e-05]","[-0.026750000193715096, 0.05299999937415123, 0.03999999910593033]","[0.0, -0.0, 0.5831612150136113]","[-0.06639791280031204, 0.11310027539730072, 0.03999999910593033]","[0.0, 0.0, -0.2313288218497237]","[0.026750000193715096, 0.05299999937415123, 0.03999999910593033]","[0.0, 0.0, -0.5837434508055085]","[0.0664328932762146, 0.11307718604803085, 0.03999999910593033]","[0.0, -0.0, 0.23226352926234584]",0.5833486164596888,0.04496618184051027,"(0.0, 0.0, 0.0, 0.0, 0.0, 0.0)",-0.002860506143294688,-0.814490070563421,-2.3945463126667053e-08,"(0.0, 0.0, 0.0, 0.0, 0.0, 0.0)",-0.00021337666386468687,-0.5839074578410214,-0.03937131719975007,"(0.0, 0.0, 0.0, 0.0, 0.0, 0.0)",0.01372945826257841,0.8160069006076606,-4.500054264033968e-06,"(0.0, 0.0, 0.0, 0.0, 0.0, 0.0)",0.0009625253532376111,True,"(-0.03205563125918105, 0.18487562054351198, 0.03999868125462448)","(0.9999664609841241, 0.00808318115104317, -0.001318745375515146)",0.00038528465964335855,0.0,True,"(0.03202354614376496, 0.18480516657332136, 0.04000131874537552)","(-0.9999664609841242, -0.008083181151046588, 0.001318745375515645)",-0.00022882775718973232,0.0
78,Move,"(0.00047000000000000004, 0.0, -0.00018)","(0.0, -0.0, 0.0)","(0.0003461921723654184, 0.17163328348653023, 0.000989587290758758)","(1.5719055073837744, 0.0011072014343978184, 0.008081164984968362)","[0.0003461136109004128, 0.001634221110011408, 7.46976076710234e-05]","[-0.026750000193715096, 0.05299999937415123, 0.03999999910593033]","[0.0, -0.0, 0.5833486558479005]","[-0.066409170627594, 0.11309284716844559, 0.03999999910593033]","[0.0, 0.0, -0.23114144604162834]","[0.026750000193715096, 0.05299999937415123, 0.03999999910593033]","[0.0, 0.0, -0.5839074501318731]","[0.06644275039434433, 0.11307067424058914, 0.03999999910593033]","[0.0, -0.0, 0.23209945676163227]",0.5835278320808432,0.04301174907707051,"(0.0, 0.0, 0.0, 0.0, 0.0, 0.0)",-0.002858539300865833,-0.8144900705347118,6.89022094977739e-09,"(0.0, 0.0, 0.0, 0.0, 0.0, 0.0)",-0.0002131981519603901,-0.584069121775813,-0.03879934435001076,"(0.0, 0.0, 0.0, 0.0, 0.0, 0.0)",0.0008307137130412787,0.816006905212461,1.1051521083792492e-06,"(0.0, 0.0, 0.0, 0.0, 0.0, 0.0)",6.251216444863318e-05,True,"(-0.032080337582808496, 0.18487443596950714, 0.039998786694972456)","(0.9999666013099242, 0.008082336023050966, -0.0012133050275481723)",0.00040583248280282134,0.0,True,"(0.03204517085271101, 0.1848041371191279, 0.04000121330502755)","(-0.999966601309924, -0.008082336023052255, 0.001213305027552747)",-0.0002030352559760501,0.0
79,Move,"(0.00047000000000000004, 0.0, -0.00018)","(0.0, -0.0, 0.0)","(0.00034584099278940026, 0.17163363014913252, 0.0009896109226129714)","(1.5715612829949024, 0.0007634488163449528, 0.008080222241519754)","[0.00034576243132439466, 0.0016345677726136987, 7.47212395252367e-05]","[-0.026750000193715096, 0.05299999937415123, 0.03999999910593033]","[0.0, -0.0, 0.5835278184975279]","[-0.06641994416713715, 0.11308573931455612, 0.03999999910593033]","[0.0, 0.0, -0.23096224504602958]","[0.026750000193715096, 0.05299999937415123, 0.03999999910593033]","[0.0, 0.0, -0.5840691430993012]","[0.06645245850086212, 0.1130642518401146, 0.03999999910593033]","[0.0, -0.0, 0.23193779380609855]",0.5837078975528232,0.043215713275172256,"(0.0, 0.0, 0.0, 0.0, 0.0, 0.0)",0.00031009768996183095,-0.8144900705396173,-1.177334534609535e-09,"(0.0, 0.0, 0.0, 0.0, 0.0, 0.0)",2.3157210402365915e-05,-0.5842335170895209,-0.03945487528988779,"(0.0, 0.0, 0.0, 0.0, 0.0, 0.0)",-0.0009721800251723957,0.8160069058438514,1.515336897339717e-07,"(0.0, 0.0, 0.0, 0.0, 0.0, 0.0)",-7.263718210337066e-05,True,"(-0.03210396986023285, 0.18487329809946765, 0.03999889279879182)","(0.9999667346365099, 0.008081072074931453, -0.0011072012081812087)",0.00042528101521065534,0.0,True,"(0.03206647958869961, 0.18480311881018258, 0.04000110720120817)","(-0.9999667346365102, -0.008081072074920035, 0.0011072012081672971)",-0.00017753417284988488,0.0
80,Move,"(0.00047000000000000004, 0.0, -0.00018)","(0.0, -0.0, 0.0)","(0.00034552389902841105, 0.1716339374926272, 0.0009896357895065545)","(1.571217613875376, 0.0004202805869445427, 0.008079985085692786)","[0.00034544533756340545, 0.0016348751161083808, 7.474610641881982e-05]","[-0.026750000193715096, 0.05299999937415123, 0.03999999910593033]","[0.0, -0.0, 0.5837079403013339]","[-0.06643076241016388, 0.11307859420776367, 0.03999999910593033]","[0.0, 0.0, -0.23078217393304418]","[0.026750000193715096, 0.05299999937415123, 0.03999999910593033]","[0.0, 0.0, -0.5842335419979583]","[0.06646233052015305, 0.11305772513151169, 0.03999999910593033]","[0.0, -0.0, 0.23177339667732472]",0.5838904686135583,0.043817054576451395,"(0.0, 0.0, 0.0, 0.0, 0.0, 0.0)",0.0008936099265784033,-0.8144900705391267,1.177324904233501e-10,"(0.0, 0.0, 0.0, 0.0, 0.0, 0.0)",6.66850091184171e-05,-0.584402035847315,-0.040444501870598094,"(0.0, 0.0, 0.0, 0.0, 0.0, 0.0)",-0.0014628025033578994,0.8160069057807123,-1.515336922608407e-08,"(0.0, 0.0, 0.0, 0.0, 0.0, 0.0)",-0.00010915574149094381,True,"(-0.03212771380015761, 0.18487215089683356, 0.03999923655125781)","(0.9999670637643595, 0.00808013196076489, -0.0007634487421836392)",0.00043529890252591965,0.0,True,"(0.032088148272371636, 0.1848020795539015, 0.040000763448742184)","(-0.9999670637643594, -0.008080131960771788, 0.0007634487421827346)",-0.00014211758772883544,0.0
81,Move,"(0.00035000000000000005, 0.0, -0.00015000000000000001)","(0.0, -0.0, 0.0)","(0.00034519595919071564, 0.1716342504343722, 0.0009896567878064225)","(1.5708745643502666, 7.761951188867473e-05, 0.008080174963849855)","[0.00034511739772571004, 0.0016351880578533706, 7.476710471868782e-05]","[-0.026750000193715096, 0.05299999937415123, 0.03999999910593033]","[0.0, -0.0, 0.5838904371085601]","[-0.06644172966480255, 0.11307134479284286, 0.03999999910593033]","[0.0, 0.0, -0.23059958864154909]","[0.026750000193715096, 0.05299999937415123, 0.03999999910593033]","[0.0, 0.0, -0.5844020630256291]","[0.06647245585918427, 0.11305103451013565, 0.03999999910593033]","[0.0, -0.0, 0.23160487306256444]",0.5840717891179549,0.04351692105516492,"(0.0, 0.0, 0.0, 0.0, 0.0, 0.0)",-0.00042985671428713654,-0.8144900705391758,-1.1774464910644009e-11,"(0.0, 0.0, 0.0, 0.0, 0.0, 0.0)",-3.203724895297376e-05,-0.5845751385362925,-0.04154464535461067,"(0.0, 0.0, 0.0, 0.0, 0.0, 0.0)",-0.0016252983602335275,0.8160069057870263,1.5153376295240736e-09,"(0.0, 0.0, 0.0, 0.0, 0.0, 0.0)",-0.0001212595352914177,True,"(-0.03215178805202172, 0.18487098408372982, 0.03999957971942543)","(0.9999672687831006, 0.008079896453847381, -0.0004202805745704619)",0.00044569024154122235,0.0,True,"(0.032110360466156694, 0.1848010098285866, 0.040000420280574565)","(-0.9999672687831005, -0.008079896453852648, 0.00042028057456642274)",-0.00010620921725346343,0.0
82,Move,"(0.00035000000000000005, 0.0, -0.00015000000000000001)","(0.0, -0.0, 0.0)","(0.0003451701183514485, 0.17163427159978586, 0.0009895239536179162)","(1.5708531999200561, 5.196099341114398e-05, 0.008080172279182653)","[0.0003450915568864429, 0.0016352092232670423, 7.463427053018144e-05]","[-0.026750000193715096, 0.05299999937415123, 0.03999999910593033]","[0.0, -0.0, 0.5840718035050597]","[-0.06645262241363525, 0.11306414753198624, 0.03999999910593033]","[0.0, 0.0, -0.23041828677921514]","[0.026750000193715096, 0.05299999937415123, 0.03999999910593033]","[0.0, 0.0, -0.5845751168865466]","[0.06648284941911697, 0.11304415762424469, 0.03999999910593033]","[0.0, -0.0, 0.23143178200184364]",0.5842824328107901,0.05055448628045056,"(0.0, 0.0, 0.0, 0.0, 0.0, 0.0)",0.010343856048169684,-0.8144900705391709,1.177724584522366e-12,"(0.0, 0.0, 0.0, 0.0, 0.0, 0.0)",0.0007716183010954064,-0.584731075263843,-0.037424814612132984,"(0.0, 0.0, 0.0, 0.0, 0.0, 0.0)",0.0060388032277950005,0.8160069057863949,-1.5153478472029747e-10,"(0.0, 0.0, 0.0, 0.0, 0.0, 0.0)",0.0004504344311533139,True,"(-0.03217569731118145, 0.1848698213371554, 0.03999992238048819)","(0.9999673525515923, 0.008080087015070982, -7.761951181240186e-05)",0.00045591575058850545,0.0,True,"(0.03213317679439211, 0.18479990667318724, 0.040000077619511805)","(-0.9999673525515922, -0.008080087015070911, 7.761951180406804e-05)",-6.97044718441006e-05,0.0
83,Move,"(0.00034, 0.0, -0.00013)","(0.0, -0.0, 0.0)","(0.00034515039479016493, 0.17163428908399297, 0.0009894089690600306)","(1.5708370088025672, 3.20537353938014e-05, 0.008080160304669843)","[0.00034507183332515933, 0.0016352267074741522, 7.451928597229586e-05]","[-0.026750000193715096, 0.05299999937415123, 0.03999999910593033]","[0.0, -0.0, 0.584282423141807]","[-0.06646527349948883, 0.11305578052997589, 0.03999999910593033]","[0.0, 0.0, -0.2302076499386817]","[0.026750000193715096, 0.05299999937415123, 0.03999999910593033]","[0.0, 0.0, -0.5847310092465725]","[0.06649221479892731, 0.11303795874118805, 0.03999999910593033]","[0.0, -0.0, 0.23127587057791976]",0.5844891945679523,0.04962282171895943,"(0.0, 0.0, 0.0, 0.0, 0.0, 0.0)",-0.0013554383620284188,-0.8144900705391713,-1.1723955060632314e-13,"(0.0, 0.0, 0.0, 0.0, 0.0, 0.0)",-0.00010107108262185873,-0.5848936621610132,-0.03902085532084346,"(0.0, 0.0, 0.0, 0.0, 0.0, 0.0)",-0.0023526643019350243,0.8160069057864581,1.5153212018371488e-11,"(0.0, 0.0, 0.0, 0.0, 0.0, 0.0)",-0.00017551507419509113,True,"(-0.032203473010857145, 0.18486846488335754, 0.03999994803900661)","(0.9999673542356522, 0.008080084343918438, -5.1960993386599925e-05)",0.00048267498752733925,0.0,True,"(0.03215373042118333, 0.18479890970673485, 0.0400000519609934)","(-0.9999673542356522, -0.008080084343918208, 5.1960993393706464e-05)",-4.813294023931739e-05,0.0
84,Move,"(0.00034, 0.0, -0.00013)","(0.0, -0.0, 0.0)","(0.0003451381982606465, 0.17163430090410295, 0.0009893484019444412)","(1.5708265339529215, 1.962414255164099e-05, 0.008080149154640844)","[0.0003450596367956409, 0.0016352385275841264, 7.445871885670649e-05]","[-0.026750000193715096, 0.05299999937415123, 0.03999999910593033]","[0.0, -0.0, 0.584489206444207]","[-0.0664776861667633, 0.11304756999015808, 0.03999999910593033]","[0.0, 0.0, -0.23000088692133103]","[0.026750000193715096, 0.05299999937415123, 0.03999999910593033]","[0.0, 0.0, -0.5848936614803528]","[0.06650197505950928, 0.11303149908781052, 0.03999999910593033]","[0.0, -0.0, 0.23111323278185977]",0.584700742632057,0.050771535385117895,"(0.0, 0.0, 0.0, 0.0, 0.0, 0.0)",0.0016989040307291876,-0.8144900705391713,1.0658140771703707e-14,"(0.0, 0.0, 0.0, 0.0, 0.0, 0.0)",0.0001267636427832682,-0.5850570322279628,-0.03920881606788661,"(0.0, 0.0, 0.0, 0.0, 0.0, 0.0)",-0.0002856073065136369,0.8160069057864517,-1.5161205624281138e-12,"(0.0, 0.0, 0.0, 0.0, 0.0, 0.0)",-2.132649108078146e-05,True,"(-0.032230736556647356, 0.18486712772818636, 0.03999996794626461)","(0.9999673551686313, 0.008080072376552023, -3.205373538722037e-05)",0.0005091524684629746,0.0,True,"(0.032175160425007614, 0.1847978668192271, 0.04000003205373539)","(-0.9999673551686314, -0.008080072376553274, 3.2053735389566326e-05)",-2.5916019227828806e-05,0.0
85,Move,"(0.00033, 0.0, -0.00017)","(0.0, -0.0, 0.0)","(0.0003451306809450429, 0.17163430915472036, 0.0009893203412099133)","(1.5708196581774316, 1.1845683113148768e-05, 0.008080138416809282)","[0.0003450521194800373, 0.0016352467782015379, 7.443065812217861e-05]","[-0.026750000193715096, 0.05299999937415123, 0.03999999910593033]","[0.0, -0.0, 0.5847007624938132]","[-0.06649038940668106, 0.11303916573524475, 0.03999999910593033]","[0.0, 0.0, -0.22978933571402088]","[0.026750000193715096, 0.05299999937415123, 0.03999999910593033]","[0.0, 0.0, -0.5850569986175583]","[0.06651178002357483, 0.11302500218153, 0.03999999910593033]","[0.0, -0.0, 0.2309498697052514]",0.5849118366947362,0.05066257504301914,"(0.0, 0.0, 0.0, 0.0, 0.0, 0.0)",-0.000147424927269713,-0.8144900705391713,0.0,"(0.0, 0.0, 0.0, 0.0, 0.0, 0.0)",-1.0960035262451584e-05,-0.5852205501469069,-0.03924430054657016,"(0.0, 0.0, 0.0, 0.0, 0.0, 0.0)",-6.17763962959743e-05,0.8160069057864524,1.5187850974225164e-13,"(0.0, 0.0, 0.0, 0.0, 0.0, 0.0)",-4.630224502508584e-06,True,"(-0.03225863093728019, 0.18486575378616643, 0.039999980375857454)","(0.9999673555798813, 0.00808006122948572, -1.9624142548549337e-05)",0.0005365602163836601,0.0,True,"(0.03219669348512645, 0.18479681539788764, 0.04000001962414255)","(-0.9999673555798814, -0.008080061229483087, 1.9624142551581945e-05)",-3.895305396484575e-06,0.0
86,Move,"(0.00019, 0.0, -0.00018)","(0.0, -0.0, 0.0)","(0.00034512609225775787, 0.17163431514575933, 0.0009893118457752893)","(1.5708150609379652, 6.978817392910939e-06, 0.008080127886858985)","[0.00034504753079275227, 0.0016352527692405083, 7.44221626875546e-05]","[-0.026750000193715096, 0.05299999937415123, 0.03999999910593033]","[0.0, -0.0, 0.5849118392360564]","[-0.06650306284427643, 0.11303077638149261, 0.03999999910593033]","[0.0, 0.0, -0.22957825252451763]","[0.026750000193715096, 0.05299999937415123, 0.03999999910593033]","[0.0, 0.0, -0.5852205413518137]","[0.06652159243822098, 0.11301849782466888, 0.03999999910593033]","[0.0, -0.0, 0.23078634380803734]",0.5851192895344433,0.04978868152968672,"(0.0, 0.0, 0.0, 0.0, 0.0, 0.0)",-0.0012705873334617412,-0.8144900705391713,-3.1763735522036263e-22,"(0.0, 0.0, 0.0, 0.0, 0.0, 0.0)",-9.474153536522885e-05,-0.5853763858522733,-0.03740056928793978,"(0.0, 0.0, 0.0, 0.0, 0.0, 0.0)",0.0026974274158689747,0.8160069057864523,-1.5987212348695642e-14,"(0.0, 0.0, 0.0, 0.0, 0.0, 0.0)",0.00020119018968931757,True,"(-0.0322864651638925, 0.18486437691114882, 0.03999998815431689)","(0.9999673557890331, 0.008080050492991804, -1.1845683108998288e-05)",0.0005640939158690898,0.0,True,"(0.03221824586084754, 0.18479575950195715, 0.04000001184568312)","(-0.9999673557890331, -0.00808005049299089, 1.1845683116702962e-05)",1.795859350271681e-05,0.0
87,Move,"(0.00018, 0.0, -0.00022000000000000003)","(0.0, -0.0, 0.0)","(0.00034512229702391974, 0.17163432046382024, 0.0009893068467745568)","(1.570811139807233, 2.900869313843856e-06, 0.008080117435307104)","[0.00034504373555891413, 0.0016352580873014166, 7.441716368682214e-05]","[-0.026750000193715096, 0.05299999937415123, 0.03999999910593033]","[0.0, -0.0, 0.5851193418023508]","[-0.06651551276445389, 0.11302252858877182, 0.03999999910593033]","[0.0, 0.0, -0.22937077896492697]","[0.026750000193715096, 0.05299999937415123, 0.03999999910593033]","[0.0, 0.0, -0.5853763766080656]","[0.06653094291687012, 0.11301229894161224, 0.03999999910593033]","[0.0, -0.0, 0.2306305211679898]",0.5853558866066404,0.05678329732731683,"(0.0, 0.0, 0.0, 0.0, 0.0, 0.0)",0.01028235969001024,-0.8144900705391713,3.1234339930002325e-21,"(0.0, 0.0, 0.0, 0.0, 0.0, 0.0)",0.0007670394313268451,-0.5855014758219007,-0.030021592710589372,"(0.0, 0.0, 0.0, 0.0, 0.0, 0.0)",0.010825169384040424,0.8160069057864523,2.6645324003641787e-15,"(0.0, 0.0, 0.0, 0.0, 0.0, 0.0)",0.000807474196016938,True,"(-0.032313818986129214, 0.18486301806181293, 0.0399999930211826)","(0.999967355919922, 0.008080039963752807, -6.978817390930833e-06)",0.0005912635685777192,0.0,True,"(0.03223878552640065, 0.1847947499335086, 0.04000000697881739)","(-0.9999673559199221, -0.00808003996376448, 6.978817388699564e-06)",3.868369669728451e-05,0.0
88,Move,"(0.0002, 0.0, -0.0002)","(0.0, -0.0, 0.0)","(0.0003451188278076548, 0.17163432546951118, 0.0009893021767041852)","(1.570807532279831, -8.532206262563952e-07, 0.008080107026158937)","[0.0003450402663426492, 0.0016352630929923617, 7.44124936164505e-05]","[-0.026750000193715096, 0.05299999937415123, 0.03999999910593033]","[0.0, -0.0, 0.5853559379713345]","[-0.06652971357107162, 0.1130131185054779, 0.03999999910593033]","[0.0, 0.0, -0.22913419145859973]","[0.026750000193715096, 0.05299999937415123, 0.03999999910593033]","[0.0, 0.0, -0.5855014514800582]","[0.06653845310211182, 0.1130073219537735, 0.03999999910593033]","[0.0, -0.0, 0.23050542599581114]",0.5855860809493527,0.055246642250968064,"(0.0, 0.0, 0.0, 0.0, 0.0, 0.0)",-0.0022421738858668192,-0.8144900705391713,3.1763735522036263e-22,"(0.0, 0.0, 0.0, 0.0, 0.0, 0.0)",-0.0001672067653681627,-0.5856220130951412,-0.028928945577710287,"(0.0, 0.0, 0.0, 0.0, 0.0, 0.0)",0.0015969168286569474,0.8160069057864523,7.940933880509066e-22,"(0.0, 0.0, 0.0, 0.0, 0.0, 0.0)",0.00011910771106968528,True,"(-0.032345015294309915, 0.18486146138824594, 0.039999997099130685)","(0.9999673560245148, 0.008080029512709992, -2.900869315525149e-06)",0.000622308742379062,0.0,True,"(0.032255272687484904, 0.18479393723486842, 0.04000000290086932)","(-0.9999673560245148, -0.008080029512704662, 2.9008693212629745e-06)",5.5326454468022255e-05,0.0
89,Move,"(0.00011999999999999999, 0.0, -0.00023)","(0.0, 0.016268213957839145, 0.0)","(0.0003451156607972181, 0.1716343301882009, 0.0009892978790479918)","(1.570804213227324, -4.307148763235813e-06, 0.008080096650698742)","[0.0003450370993322125, 0.0016352678116820785, 7.440819596025712e-05]","[-0.026750000193715096, 0.05299999937415123, 0.03999999910593033]","[0.0, -0.0, 0.5855860829486126]","[-0.06654352694749832, 0.11300396174192429, 0.03999999910593033]","[0.0, 0.0, -0.22890400564504457]","[0.026750000193715096, 0.05299999937415123, 0.03999999910593033]","[0.0, 0.0, -0.5856220616426074]","[0.06654568761587143, 0.11300253123044968, 0.03999999910593033]","[0.0, -0.0, 0.23038489926823172]",0.5858149244075442,0.05492242996597018,"(0.0, 0.0, 0.0, 0.0, 0.0, 0.0)",-0.0004623548705405783,-0.8144900705391713,1.0587911840678754e-22,"(0.0, 0.0, 0.0, 0.0, 0.0, 0.0)",-3.4445155470588355e-05,-0.5857508911073569,-0.030930722931767605,"(0.0, 0.0, 0.0, 0.0, 0.0, 0.0)",-0.0029462903135235134,0.8160069057864523,-3.044024654195142e-22,"(0.0, 0.0, 0.0, 0.0, 0.0, 0.0)",-0.00021978802505592414,True,"(-0.03237536702167795, 0.18485993975673604, 0.04000000085322063)","(0.9999673561124643, 0.008080019103930894, 8.532206251266873e-07)",0.0006525220360098891,0.0,True,"(0.03227115969586902, 0.1847931521638913, 0.03999999914677937)","(-0.9999673561124642, -0.008080019103930072, -8.532206326848288e-07)",7.135634500023372e-05,0.0
90,Move,"(0.00014000000000000001, 0.0, -0.00029)","(0.0, -0.0, 0.0)","(0.0003451127718559547, 0.1716343346427846, 0.0009892939213956297)","(1.5708011596882185, -7.484896102260046e-06, 0.008080086303530892)","[0.0003450342103909491, 0.0016352722662657804, 7.440423830789504e-05]","[-0.026750000193715096, 0.05299999937415123, 0.03999999910593033]","[0.0, -0.0, 0.5858148465615454]","[-0.06655725836753845, 0.11299484968185425, 0.03999999910593033]","[0.0, 0.0, -0.2286751645895617]","[0.026750000193715096, 0.05299999937415123, 0.03999999910593033]","[0.0, 0.0, -0.5857509843846823]","[0.06655342131853104, 0.1129973977804184, 0.03999999910593033]","[0.0, -0.0, 0.23025603389441535]",0.5860072798132739,0.046165297375135014,"(0.0, 0.0, 0.0, 0.0, 0.0, 0.0)",-0.012844314245664986,-0.8144900705391713,1.2176098616780567e-21,"(0.0, 0.0, 0.0, 0.0, 0.0, 0.0)",-0.0009580673640227962,-0.5859090025076819,-0.03794673607797825,"(0.0, 0.0, 0.0, 0.0, 0.0, 0.0)",-0.0103090825879763,0.8160069057864523,5.1880768019325896e-21,"(0.0, 0.0, 0.0, 0.0, 0.0, 0.0)",-0.0007690109531577999,True,"(-0.03240554028340885, 0.18485842012944675, 0.040000004307148763)","(0.9999673561873869, 0.008080008728730515, 4.30714876379578e-06)",0.0006825688620788722,0.0,True,"(0.03228814592240195, 0.1847923106497979, 0.03999999569285123)","(-0.9999673561873869, -0.008080008728739171, -4.307148768009691e-06)",8.847295239089487e-05,0.0
91,Move,"(0.00013, 0.0, -0.00038)","(0.0, -0.0, 0.0)","(0.0003451101387403, 0.17163433885440044, 0.0009892902768460182)","(1.5707983504221759, -1.0408546789197788e-05, 0.008080075979968132)","[0.0003450315772752944, 0.0016352764778816142, 7.44005937582835e-05]","[-0.026750000193715096, 0.05299999937415123, 0.03999999910593033]","[0.0, -0.0, 0.5860073117530021]","[-0.06656879931688309, 0.11298719048500061, 0.03999999910593033]","[0.0, 0.0, -0.22848281613520827]","[0.026750000193715096, 0.05299999937415123, 0.03999999910593033]","[0.0, 0.0, -0.5859090007707715]","[0.06656290590763092, 0.112991102039814, 0.03999999910593033]","[0.0, -0.0, 0.23009790427313478]",0.5862400875531893,0.055873857579709196,"(0.0, 0.0, 0.0, 0.0, 0.0, 0.0)",0.01426628187955409,-0.8144900705391713,5.293955920339377e-23,"(0.0, 0.0, 0.0, 0.0, 0.0, 0.0)",0.001064211717523363,-0.5860084165854046,-0.023859378653458045,"(0.0, 0.0, 0.0, 0.0, 0.0, 0.0)",0.020674807007453482,0.8160069057864523,-3.1763735522036263e-22,"(0.0, 0.0, 0.0, 0.0, 0.0, 0.0)",0.0015421989205538405,True,"(-0.03243090228572823, 0.1848571374569643, 0.040000007484896107)","(0.9999673562522564, 0.008079998381753382, 7.4848961025866615e-06)",0.000707813720357085,0.0,True,"(0.03230898498485677, 0.1847912752624501, 0.039999992515103895)","(-0.9999673562522562, -0.008079998381758864, -7.484896106640016e-06)",0.00010942965358021328,0.0
92,Move,"(0.00011999999999999999, 0.0, -0.00047000000000000004)","(0.0, -0.0, 0.0)","(0.00034510774098696145, 0.17163434284249382, 0.0009892869206324154)","(1.570795765888163, -1.3098418720200301e-05, 0.00808006567607093)","[0.00034502917952195585, 0.0016352804659749975, 7.439723754468068e-05]","[-0.026750000193715096, 0.05299999937415123, 0.03999999910593033]","[0.0, -0.0, 0.5862400373991103]","[-0.06658276170492172, 0.11297792196273804, 0.03999999910593033]","[0.0, 0.0, -0.22824998284379663]","[0.026750000193715096, 0.05299999937415123, 0.03999999910593033]","[0.0, 0.0, -0.5860084077732709]","[0.06656886637210846, 0.11298714578151703, 0.03999999910593033]","[0.0, -0.0, 0.22999853553389993]",0.5864587944745064,0.05248966111611438,"(0.0, 0.0, 0.0, 0.0, 0.0, 0.0)",-0.00495510765886129,-0.8144900705391713,1.7470054537119944e-21,"(0.0, 0.0, 0.0, 0.0, 0.0, 0.0)",-0.0003695772162634121,-0.5860981672970053,-0.021540170784166306,"(0.0, 0.0, 0.0, 0.0, 0.0, 0.0)",0.0033993752978130343,0.8160069057864523,3.970466940254533e-22,"(0.0, 0.0, 0.0, 0.0, 0.0, 0.0)",0.00025356532875348887,True,"(-0.03246159758542087, 0.18485557851542017, 0.040000010408546796)","(0.9999673563095146, 0.008079988058318954, 1.0408546790422282e-05)",0.0007384040998846235,0.0,True,"(0.032322087663714055, 0.18479062256927978, 0.03999998959145321)","(-0.9999673563095145, -0.008079988058314645, -1.0408546787526677e-05)",0.000122643149633157,0.0
