OSUrobotics/InHand-Manipulation/AnalyseData/Data/new_hand_human_filt_josh_2v2_e_none_1_kpNone_kdNone_dp5_step5_save_data.csv
,Phase,human_cube_pos,human_cube_orn,Cube_Pos,Cube_Orn,Cube_pos_in_start_pos,b'l_prox_pin'_link_pos,b'l_prox_pin'_link_orn,b'l_distal_pin'_link_pos,b'l_distal_pin'_link_orn,b'r_prox_pin'_link_pos,b'r_prox_pin'_link_orn,b'r_distal_pin'_link_pos,b'r_distal_pin'_link_orn,b'l_prox_pin'_joint_angle,b'l_prox_pin'_joint_vel,b'l_prox_pin'_joint_react_forces,b'l_prox_pin'_joint_motor_torque,b'l_distal_pin'_joint_angle,b'l_distal_pin'_joint_vel,b'l_distal_pin'_joint_react_forces,b'l_distal_pin'_joint_motor_torque,b'r_prox_pin'_joint_angle,b'r_prox_pin'_joint_vel,b'r_prox_pin'_joint_react_forces,b'r_prox_pin'_joint_motor_torque,b'r_distal_pin'_joint_angle,b'r_distal_pin'_joint_vel,b'r_distal_pin'_joint_react_forces,b'r_distal_pin'_joint_motor_torque,in_contact_l,contact_point_l_dist,contact_normal_l_dist,contact_distance_l_dist,contact_norm_force_l_dist,in_contact_r,contact_point_r_dist,contact_normal_r_dist,contact_distance_r_dist,contact_norm_force_r_dist
0,Open,,,,,,"[-0.026750000193715096, 0.05299999937415123, 0.03999999910593033]","[0.0, -0.0, 0.42755761853039154]","[-0.056604765355587006, 0.1185186430811882, 0.03999999910593033]","[0.0, -0.0, 0.4463066270391506]","[0.026750000193715096, 0.05299999937415123, 0.03999999910593033]","[0.0, 0.0, -0.42757404208311445]","[0.05660583823919296, 0.1185181587934494, 0.03999999910593033]","[0.0, 0.0, -0.4465272228574986]",0.5418018724257314,27.418616735313837,"(0.0, 0.0, 0.0, 0.0, 0.0, 0.0)",-4.412236817968903,0.016874447698417276,-0.44988750389777044,"(0.0, 0.0, 0.0, 0.0, 0.0, 0.0)",-0.3112578673856835,-0.5418166170859073,-27.418223544375806,"(0.0, 0.0, 0.0, 0.0, 0.0, 0.0)",4.412120589674461,-0.017058187988154127,0.4547872631353701,"(0.0, 0.0, 0.0, 0.0, 0.0, 0.0)",0.31119999541872967,False,,,,,False,,,,
1,Open,,,,,,"[-0.026750000193715096, 0.05299999937415123, 0.03999999910593033]","[0.0, -0.0, 0.8953992050914552]","[-0.08294302970170975, 0.09801492840051651, 0.03999999910593033]","[0.0, -0.0, 0.9064715399310761]","[0.026750000193715096, 0.05299999937415123, 0.03999999910593033]","[0.0, 0.0, -0.8954089117450801]","[0.08294346183538437, 0.09801438450813293, 0.03999999910593033]","[0.0, 0.0, -0.9066016844299951]",0.9628592876486701,16.190418996035465,"(0.0, 0.0, 0.0, 0.0, 0.0, 0.0)",-2.616982039675733,0.009965290062605858,-0.26568209241480656,"(0.0, 0.0, 0.0, 0.0, 0.0, 0.0)",-0.18775783729375353,-0.9628679942230576,-16.190186820718473,"(0.0, 0.0, 0.0, 0.0, 0.0, 0.0)",2.6169116334278195,-0.010073786659150813,0.26857534621184953,"(0.0, 0.0, 0.0, 0.0, 0.0, 0.0)",0.187722108909745,False,,,,,False,,,,
2,Open,,,,,,"[-0.026750000193715096, 0.05299999937415123, 0.03999999910593033]","[0.0, -0.0, 1.17165497759142]","[-0.09309044480323792, 0.08098116517066956, 0.03999999910593033]","[0.0, -0.0, 1.1781937273122836]","[0.026750000193715096, 0.05299999937415123, 0.03999999910593033]","[0.0, 0.0, -1.1716605985979762]","[0.09309060126543045, 0.08098078519105911, 0.03999999910593033]","[0.0, 0.0, -1.178270796658152]",1.2114894807636634,9.56028051296898,"(0.0, 0.0, 0.0, 0.0, 0.0, 0.0)",-1.549346412635057,0.005885062316220725,-0.15689973638119079,"(0.0, 0.0, 0.0, 0.0, 0.0, 0.0)",-0.11225090666269867,-1.2114946219087734,-9.560143415766044,"(0.0, 0.0, 0.0, 0.0, 0.0, 0.0)",1.5493042197033076,-0.00594912834521185,0.1586081706180975,"(0.0, 0.0, 0.0, 0.0, 0.0, 0.0)",0.11222926703597672,False,,,,,False,,,,
3,Open,,,,,,"[-0.026750000193715096, 0.05299999937415123, 0.03999999910593033]","[0.0, -0.0, 1.3347813147466918]","[-0.09675397723913193, 0.06983575969934464, 0.03999999910593033]","[0.0, -0.0, 1.3386449621367835]","[0.026750000193715096, 0.05299999937415123, 0.03999999910593033]","[0.0, 0.0, -1.3347844615433213]","[0.0967540368437767, 0.06983552873134613, 0.03999999910593033]","[0.0, 0.0, -1.3386905382854437]",1.3583031234961356,5.645250040103052,"(0.0, 0.0, 0.0, 0.0, 0.0, 0.0)",-0.9162890978823036,0.0034783869891320215,-0.09247571818598516,"(0.0, 0.0, 0.0, 0.0, 0.0, 0.0)",-0.06677007440367574,-1.3583061592909116,-5.645169085575695,"(0.0, 0.0, 0.0, 0.0, 0.0, 0.0)",0.9162639666346021,-0.003516216695348753,0.09348456497972772,"(0.0, 0.0, 0.0, 0.0, 0.0, 0.0)",0.06675710630673855,False,,,,,False,,,,
4,Open,,,,,,"[-0.026750000193715096, 0.05299999937415123, 0.03999999910593033]","[0.0, -0.0, 1.4311058207082674]","[-0.09804865717887878, 0.06302504986524582, 0.03999999910593033]","[0.0, -0.0, 1.433390691262394]","[0.026750000193715096, 0.05299999937415123, 0.03999999910593033]","[0.0, 0.0, -1.4311075924426346]","[0.09804867953062057, 0.06302490830421448, 0.03999999910593033]","[0.0, 0.0, -1.433417470845748]",1.4449951113932331,3.333463696180452,"(0.0, 0.0, 0.0, 0.0, 0.0, 0.0)",-0.5415503506795546,0.0020570753203455715,-0.05468855210882702,"(0.0, 0.0, 0.0, 0.0, 0.0, 0.0)",-0.039594115216637325,-1.4449969039996904,-3.3334158933415914,"(0.0, 0.0, 0.0, 0.0, 0.0, 0.0)",0.541535435877482,-0.002079412775410495,0.055284250111531166,"(0.0, 0.0, 0.0, 0.0, 0.0, 0.0)",0.03958639191865308,False,,,,,False,,,,
5,Open,,,,,,"[-0.026750000193715096, 0.05299999937415123, 0.03999999910593033]","[0.0, -0.0, 1.4879842849605203]","[-0.09850326180458069, 0.05895565450191498, 0.03999999910593033]","[0.0, -0.0, 1.4893357278409396]","[0.026750000193715096, 0.05299999937415123, 0.03999999910593033]","[0.0, 0.0, -1.4879853833286059]","[0.09850326925516129, 0.05895556882023811, 0.03999999910593033]","[0.0, 0.0, -1.4893513332680077]",1.4961858633265903,1.9683769779575933,"(0.0, 0.0, 0.0, 0.0, 0.0, 0.0)",-0.31995094896823073,0.0012165319928285922,-0.03234212113369103,"(0.0, 0.0, 0.0, 0.0, 0.0, 0.0)",-0.02343792779000599,-1.4961869218427772,-1.9683487508592754,"(0.0, 0.0, 0.0, 0.0, 0.0, 0.0)",0.31994211580738524,-0.0012297216752996233,0.03269386530715718,"(0.0, 0.0, 0.0, 0.0, 0.0, 0.0)",0.02343334437795369,False,,,,,False,,,,
6,Open,,,,,,"[-0.026750000193715096, 0.05299999937415123, 0.03999999910593033]","[0.0, -0.0, 1.5215704989376362]","[-0.09866278618574142, 0.05654282495379448, 0.03999999910593033]","[0.0, -0.0, 1.522369838325666]","[0.026750000193715096, 0.05299999937415123, 0.03999999910593033]","[0.0, 0.0, -1.5215710825913402]","[0.09866278618574142, 0.0565427765250206, 0.03999999910593033]","[0.0, 0.0, -1.522379029767931]",1.5264134904357183,1.1623069217141797,"(0.0, 0.0, 0.0, 0.0, 0.0, 0.0)",-0.18898727227709852,0.000719444125508032,-0.019126791845346432,"(0.0, 0.0, 0.0, 0.0, 0.0, 0.0)",-0.013859938289241243,-1.5264141154789415,-1.162290253894895,"(0.0, 0.0, 0.0, 0.0, 0.0, 0.0)",0.18898204730565804,-0.0007272322869396521,0.019334487584604668,"(0.0, 0.0, 0.0, 0.0, 0.0, 0.0)",0.013857223880827028,False,,,,,False,,,,
7,Close,,,"(1.2478112216283415e-07, 0.16999960627914334, 0.0003375139776509844)","(1.5703757789650807, 0.0001088681168706304, -5.122612185789874e-06)",,"[-0.026750000193715096, 0.05299999937415123, 0.03999999910593033]","[0.0, -0.0, 1.2785329680082034]","[-0.09569678455591202, 0.07374466955661774, 0.03999999910593033]","[0.0, -0.0, 1.0351044933740032]","[0.026750000193715096, 0.05299999937415123, 0.03999999910593033]","[0.0, 0.0, -1.2785333261376617]","[0.09569679200649261, 0.07374463975429535, 0.03999999910593033]","[0.0, 0.0, -1.0351099865887758]",1.2106796019673873,-16.28478938579699,"(0.0, 0.0, 0.0, 0.0, 0.0, 0.0)",2.809472854136235,-0.3090860149933808,-15.757821278062295,"(0.0, 0.0, 0.0, 0.0, 0.0, 0.0)",0.3661538009495806,-1.2106799710491603,16.284799227977608,"(0.0, 0.0, 0.0, 0.0, 0.0, 0.0)",-2.8094757422584213,0.30908141619234186,15.75794391320213,"(0.0, 0.0, 0.0, 0.0, 0.0, 0.0)",-0.3661552191151056,False,,,,,False,,,,
8,Close,,,"(3.0991841452431125e-07, 0.1699991530873768, 0.0005600347089338349)","(1.5707725584893357, 0.0003276471180493337, -1.5390016504502985e-05)",,"[-0.026750000193715096, 0.05299999937415123, 0.03999999910593033]","[0.0, -0.0, 1.0006670909649218]","[-0.08736184239387512, 0.09186135232448578, 0.03999999910593033]","[0.0, -0.0, 0.48836557737534114]","[0.026750000193715096, 0.05299999937415123, 0.03999999910593033]","[0.0, 0.0, -1.0006671906734346]","[0.08736184984445572, 0.09186133742332458, 0.03999999910593033]","[0.0, 0.0, -0.4883688154364048]",0.9606001981650306,-9.616005284561718,"(0.0, 0.0, 0.0, 0.0, 0.0, 0.0)",1.667253264949997,-0.5510712009946406,-9.304767973476249,"(0.0, 0.0, 0.0, 0.0, 0.0, 0.0)",0.2218037572572205,-0.9606004161041268,9.616011096270952,"(0.0, 0.0, 0.0, 0.0, 0.0, 0.0)",-1.6672550198735234,0.5510684854486152,9.30484038803693,"(0.0, 0.0, 0.0, 0.0, 0.0, 0.0)",-0.22180464092959223,False,,,,,False,,,,
9,Close,,,"(2.933853975158492e-07, 0.16999904048792538, 0.0007066062154399696)","(1.5708337628024795, 0.00026866528465535426, -1.404448202163588e-05)",,"[-0.026750000193715096, 0.05299999937415123, 0.03999999910593033]","[0.0, -0.0, 0.8365897781630613]","[-0.08020010590553284, 0.1012398824095726, 0.03999999910593033]","[0.0, -0.0, 0.16552144688028117]","[0.026750000193715096, 0.05299999937415123, 0.03999999910593033]","[0.0, 0.0, -0.8365899294750984]","[0.08020011335611343, 0.101239874958992, 0.03999999910593033]","[0.0, 0.0, -0.1655233971102189]",0.8129308110141114,-5.678154960376304,"(0.0, 0.0, 0.0, 0.0, 0.0, 0.0)",0.9873874064507416,-0.6939616573792659,-5.494397555666588,"(0.0, 0.0, 0.0, 0.0, 0.0, 0.0)",0.13292457281458034,-0.8129309397049683,5.678158392132489,"(0.0, 0.0, 0.0, 0.0, 0.0, 0.0)",-0.987388459985631,0.6939600538790082,5.494440315842426,"(0.0, 0.0, 0.0, 0.0, 0.0, 0.0)",-0.13292511074891808,False,,,,,False,,,,
10,Close,,,"(1.9902477861274505e-07, 0.16999905216518962, 0.0008031506137060285)","(1.5708213694470277, 0.0001751880104672085, -1.4031272711042213e-05)",,"[-0.026750000193715096, 0.05299999937415123, 0.03999999910593033]","[0.0, -0.0, 0.7397039398326887]","[-0.075282983481884, 0.10618411004543304, 0.03999999910593033]","[0.0, 0.0, -0.025114755601520013]","[0.026750000193715096, 0.05299999937415123, 0.03999999910593033]","[0.0, 0.0, -0.7397039829241547]","[0.0752829909324646, 0.10618410259485245, 0.03999999910593033]","[0.0, -0.0, 0.025113617980755978]",0.7257335145957226,-3.3528937225526034,"(0.0, 0.0, 0.0, 0.0, 0.0, 0.0)",0.5840196078844049,-0.7783380408184963,-3.244652289205478,"(0.0, 0.0, 0.0, 0.0, 0.0, 0.0)",0.07914031685893824,-0.7257335905863868,3.3528957489703144,"(0.0, 0.0, 0.0, 0.0, 0.0, 0.0)",-0.5840202358821991,0.778337093974245,3.2446775397467595,"(0.0, 0.0, 0.0, 0.0, 0.0, 0.0)",-0.07914064000385382,False,,,,,False,,,,
11,Close,,,"(1.3069317882946781e-07, 0.16999905849316785, 0.0008666025578373041)","(1.570813038524343, 0.0001076496945073061, -1.4014808324094979e-05)",,"[-0.026750000193715096, 0.05299999937415123, 0.03999999910593033]","[0.0, -0.0, 0.6824937890365349]","[-0.07216256856918335, 0.10887216031551361, 0.03999999910593033]","[0.0, 0.0, -0.137687120736303]","[0.026750000193715096, 0.05299999937415123, 0.03999999910593033]","[0.0, 0.0, -0.6824937890365349]","[0.07216257601976395, 0.10887216031551361, 0.03999999910593033]","[0.0, -0.0, 0.1376864353718678]",0.6742443830336282,-1.9798502142300851,"(0.0, 0.0, 0.0, 0.0, 0.0, 0.0)",0.34523008433021124,-0.8281635344937409,-1.9158370237869804,"(0.0, 0.0, 0.0, 0.0, 0.0, 0.0)",0.046989708289177236,-0.6742444279053555,1.9798514108094807,"(0.0, 0.0, 0.0, 0.0, 0.0, 0.0)",-0.3452304573414294,0.8281629754068567,1.9158519335829844,"(0.0, 0.0, 0.0, 0.0, 0.0, 0.0)",-0.04698990114977892,False,,,,,False,,,,
12,Close,,,"(8.555941999099156e-08, 0.16999906193922792, 0.000908421947806545)","(1.5708075491537519, 6.311807488844542e-05, -1.4000595358663434e-05)",,"[-0.026750000193715096, 0.05299999937415123, 0.03999999910593033]","[0.0, -0.0, 0.6487117277688945]","[-0.070249542593956, 0.11037412285804749, 0.03999999910593033]","[0.0, 0.0, -0.20415830575541527]","[0.026750000193715096, 0.05299999937415123, 0.03999999910593033]","[0.0, 0.0, -0.6487117277688945]","[0.070249542593956, 0.11037411540746689, 0.03999999910593033]","[0.0, -0.0, 0.20415788801885543]",0.6438405657375271,-1.1690817530007243,"(0.0, 0.0, 0.0, 0.0, 0.0, 0.0)",0.20397674457790932,-0.8575834812137779,-1.1312243968345508,"(0.0, 0.0, 0.0, 0.0, 0.0, 0.0)",0.027828964636992654,-0.6438405922338334,1.1690824595688907,"(0.0, 0.0, 0.0, 0.0, 0.0, 0.0)",-0.20397696556653716,0.8575831510875931,1.1312332006820753,"(0.0, 0.0, 0.0, 0.0, 0.0, 0.0)",-0.027829079200348807,False,,,,,False,,,,
13,Close,,,"(5.567361934631568e-08, 0.16999906349286917, 0.0009359839309479349)","(1.5708039321322358, 3.37560108188707e-05, -1.3987283228090085e-05)",,"[-0.026750000193715096, 0.05299999937415123, 0.03999999910593033]","[0.0, -0.0, 0.62876384308693]","[-0.06909646838903427, 0.11123037338256836, 0.03999999910593033]","[0.0, 0.0, -0.24340789693353326]","[0.026750000193715096, 0.05299999937415123, 0.03999999910593033]","[0.0, 0.0, -0.62876384308693]","[0.06909646838903427, 0.11123037338256836, 0.03999999910593033]","[0.0, -0.0, 0.24340764580603796]",0.6258874156623524,-0.6903310843293964,"(0.0, 0.0, 0.0, 0.0, 0.0, 0.0)",0.12048853373387189,-0.8749547691894786,-0.6679421640099914,"(0.0, 0.0, 0.0, 0.0, 0.0, 0.0)",0.016461146679105913,-0.6258874313081562,0.6903315015508323,"(0.0, 0.0, 0.0, 0.0, 0.0, 0.0)",-0.12048866447898966,0.8749545742586229,0.6679473624521103,"(0.0, 0.0, 0.0, 0.0, 0.0, 0.0)",-0.016461214564379854,False,,,,,False,,,,
14,Move,,,"(0.0002849434880139787, 0.17128526654835666, 0.0018667775255450016)","(1.529867145493542, 0.001236551690390913, -0.0026252758006009144)","[0.0, 0.0, 0.0]","[-0.026750000193715096, 0.05299999937415123, 0.03999999910593033]","[0.0, -0.0, 0.5674368798319164]","[-0.06544800847768784, 0.113716259598732, 0.03999999910593033]","[0.0, 0.0, -0.23086444862254737]","[0.026750000193715096, 0.05299999937415123, 0.03999999910593033]","[0.0, 0.0, -0.5672775113046467]","[0.06543833017349243, 0.11372242867946625, 0.03999999910593033]","[0.0, -0.0, 0.2338230653212545]",0.5526433844132694,-3.5504372063580854,"(0.0, 0.0, 0.0, 0.0, 0.0, 0.0)",-74.66311326449657,-0.7739535469156117,5.843468067207706,"(0.0, 0.0, 0.0, 0.0, 0.0, 0.0)",-38.567738900473906,-0.5523653530093062,3.5789086898164406,"(0.0, 0.0, 0.0, 0.0, 0.0, 0.0)",70.97380681712595,0.7784689212282292,-5.431581853362886,"(0.0, 0.0, 0.0, 0.0, 0.0, 0.0)",36.631671368390464,True,"(-0.031139027298926508, 0.18549673152317092, 0.03999924353386678)","(0.9999971505660776, -0.0022642037706561637, -0.0007564661332230728)",-0.000503181178828863,565.4925793008347,True,"(0.030917119596597424, 0.1854085662421605, 0.04000075646613322)","(-0.9999971505660776, 0.002264203770598743, 0.0007564661332168607)",-0.0013606486484191646,538.0249494895718
15,Move,"(0.0, 0.0, 0.0)","(0.0, -0.0, 0.0)","(0.00016274991557831364, 0.17136475104845758, 0.0031640906121350575)","(1.4899865793592248, -0.0009251634143453488, -0.006053919932276661)","[-0.00012219357243566505, 7.948450010092367e-05, 0.001297313086590056]","[-0.026750000193715096, 0.05299999937415123, 0.03999999910593033]","[0.0, -0.0, 0.5448782568355026]","[-0.06406860798597336, 0.11457370966672897, 0.03999999910593033]","[0.0, 0.0, -0.2125956411648876]","[0.026750000193715096, 0.05299999937415123, 0.03999999910593033]","[0.0, 0.0, -0.5441825092896027]","[0.06402575969696045, 0.11459966003894806, 0.03999999910593033]","[0.0, -0.0, 0.21903630347083206]",0.5463765798653516,0.35960109272080254,"(0.0, 0.0, 0.0, 0.0, 0.0, 0.0)",-0.08406283938624641,-0.7590286933635231,-0.37315947580442554,"(0.0, 0.0, 0.0, 0.0, 0.0, 0.0)",-0.017297597694563044,-0.5456033040750284,-0.3409927387516254,"(0.0, 0.0, 0.0, 0.0, 0.0, 0.0)",0.7656171975284948,0.7645763731677416,0.32581485659360865,"(0.0, 0.0, 0.0, 0.0, 0.0, 0.0)",0.4026025408250114,True,"(-0.031076504252458274, 0.1869479334441972, 0.04000075744199429)","(0.9999871217005202, -0.0050182382101970815, 0.0007574419942935584)",-0.000622934270282677,0.221954412255134,True,"(0.03056815038234164, 0.1867763680017247, 0.03999924255800572)","(-0.9999871217005204, 0.005018238210180842, -0.0007574419942756659)",-0.0016523435419804678,5.374466445399798
16,Move,"(0.0, 0.0, 0.0)","(0.0, -0.0, 0.0)","(-6.337957008313859e-05, 0.17133241267644161, 0.0031880816687959806)","(1.4928112904341142, -0.0006545114769320461, -0.010066132815740028)","[-0.0003483230580971173, 4.714612808495722e-05, 0.001321304143250979]","[-0.026750000193715096, 0.05299999937415123, 0.03999999910593033]","[0.0, -0.0, 0.5488377527933422]","[-0.06431211531162262, 0.11442546546459198, 0.03999999910593033]","[0.0, 0.0, -0.21077310741645955]","[0.026750000193715096, 0.05299999937415123, 0.03999999910593033]","[0.0, 0.0, -0.547995687933414]","[0.06426037847995758, 0.11445707082748413, 0.03999999910593033]","[0.0, -0.0, 0.2169509060645669]",0.5491401313630154,0.07257638027151496,"(0.0, 0.0, 0.0, 0.0, 0.0, 0.0)",-0.3066840758721345,-0.7593620803589538,0.059702822107754495,"(0.0, 0.0, 0.0, 0.0, 0.0, 0.0)",-0.14686756004205834,-0.548295775753571,-0.07200558529027003,"(0.0, 0.0, 0.0, 0.0, 0.0, 0.0)",0.6643207661695938,0.7647109215877755,-0.05658230443565377,"(0.0, 0.0, 0.0, 0.0, 0.0, 0.0)",0.31795978197997554,True,"(-0.031452010065560435, 0.18685325265429348, 0.04000070146695575)","(0.9999532896982327, -0.009639832249190858, 0.0007014669557505881)",-0.00041340728276361165,2.188996256819944,True,"(0.030953383604334986, 0.1867059297891543, 0.03999929853304425)","(-0.9999532896982325, 0.009639832249198349, -0.0007014669557489135)",-0.0011026932160781453,4.854951800701028
17,Move,"(0.0, 0.0, 0.0)","(0.0, -0.0, 0.0)","(-0.00018503635318464252, 0.17122426474338426, 0.0020779038654625036)","(1.531170242882305, -0.00043878763907482236, -0.013303537154011802)","[-0.0004699798411986212, -6.1001804972399265e-05, 0.00021112633991750198]","[-0.026750000193715096, 0.05299999937415123, 0.03999999910593033]","[0.0, -0.0, 0.5506358975012704]","[-0.06442249566316605, 0.1143578290939331, 0.03999999910593033]","[0.0, 0.0, -0.20855083283645848]","[0.026750000193715096, 0.05299999937415123, 0.03999999910593033]","[0.0, 0.0, -0.5501015567963023]","[0.06438971310853958, 0.1143779456615448, 0.03999999910593033]","[0.0, -0.0, 0.21444578568664924]",0.550964684370257,0.07893443664831157,"(0.0, 0.0, 0.0, 0.0, 0.0, 0.0)",-0.012805702760149012,-0.7592039490970093,-0.004165241203613213,"(0.0, 0.0, 0.0, 0.0, 0.0, 0.0)",-0.0009088854239197933,-0.5505144833763652,-0.09910896464782581,"(0.0, 0.0, 0.0, 0.0, 0.0, 0.0)",0.016095086986517626,0.7645634140777361,0.003867817593457087,"(0.0, 0.0, 0.0, 0.0, 0.0, 0.0)",0.0011576950398015072,True,"(-0.0317234854629974, 0.1868532998353662, 0.0400004982027457)","(0.9999207622335561, -0.012578594845546423, 0.0004982027456894725)",-0.00022412003956257751,0.0,True,"(0.03126381973128947, 0.18671045140399978, 0.039999501797254304)","(-0.9999207622335559, 0.012578594845548739, -0.0004982027456943052)",-0.0007117677809595204,0.0
18,Move,"(0.0, 0.0, 0.0)","(0.0, -0.0, 0.0)","(-0.0004277538273214853, 0.17126797192516488, 0.0010311641756468666)","(1.58267588427068, 0.0064275966064735795, -0.009975418938230252)","[-0.000712697315335464, -1.7294623191776992e-05, -0.000835613349898135]","[-0.026750000193715096, 0.05299999937415123, 0.03999999910593033]","[0.0, -0.0, 0.5518777554812124]","[-0.064498670399189, 0.11431099474430084, 0.03999999910593033]","[0.0, 0.0, -0.2073373115301465]","[0.026750000193715096, 0.05299999937415123, 0.03999999910593033]","[0.0, 0.0, -0.5519942448843683]","[0.06450581550598145, 0.11430659145116806, 0.03999999910593033]","[0.0, -0.0, 0.21250639377830308]",0.5520437496503438,0.03985208879633559,"(0.0, 0.0, 0.0, 0.0, 0.0, 0.0)",-0.0790086018797588,-0.7592126439660251,0.0005663086930798626,"(0.0, 0.0, 0.0, 0.0, 0.0, 0.0)",-0.039238887150881335,-0.5522915816506297,-0.071355139069194,"(0.0, 0.0, 0.0, 0.0, 0.0, 0.0)",0.014569451659633744,0.7645069563132888,0.0015055403852617388,"(0.0, 0.0, 0.0, 0.0, 0.0, 0.0)",0.0030520617795980897,True,"(-0.031887665163757795, 0.18684622277729562, 0.039995032857574046)","(0.9999245374169422, -0.011235967587816038, -0.004967142425954457)",-7.92050836614995e-05,0.5421080363873477,True,"(0.03152023518786095, 0.18669992431467627, 0.040004967142425955)","(-0.999924537416942, 0.011235967587829097, 0.004967142425953457)",-0.0004360834064517454,0.0
19,Move,"(-2.9999999999999997e-05, 0.0, -5e-05)","(0.0, -0.0, 0.0)","(-0.00041850923313976077, 0.17128512450401592, 0.0009735197789249159)","(1.5763770070938994, 0.005107154310472677, -0.010313134952171342)","[-0.0007034527211537394, -1.4204434073405992e-07, -0.0008932577466200857]","[-0.026750000193715096, 0.05299999937415123, 0.03999999910593033]","[0.0, -0.0, 0.5522270688777455]","[-0.06452008336782455, 0.11429779976606369, 0.03999999910593033]","[0.0, 0.0, -0.20675659128908802]","[0.026750000193715096, 0.05299999937415123, 0.03999999910593033]","[0.0, 0.0, -0.5529285439435216]","[0.0645630732178688, 0.11427129060029984, 0.03999999910593033]","[0.0, -0.0, 0.21141903120615826]",0.5522432921648118,0.003901968210027736,"(0.0, 0.0, 0.0, 0.0, 0.0, 0.0)",-0.5023888823115705,-0.7587963337371498,0.04494194937000306,"(0.0, 0.0, 0.0, 0.0, 0.0, 0.0)",-0.28108238259645646,-0.5530245109640315,-0.023045923999380772,"(0.0, 0.0, 0.0, 0.0, 0.0, 0.0)",0.0073329243936751335,0.7643634654603765,0.0038264227443294274,"(0.0, 0.0, 0.0, 0.0, 0.0, 0.0)",0.002436894005573391,True,"(-0.03195120986974152, 0.18685234735678358, 0.03999447094774975)","(0.9999320118205599, -0.010266514389100055, -0.005529052250252877)",-5.601910047783116e-05,3.802478066630352,True,"(0.03165621059210774, 0.18669839369083627, 0.04000552905225026)","(-0.9999320118205599, 0.010266514389102319, 0.005529052250258394)",-0.00025936394126141926,0.0
20,Move,"(2e-05, 0.0, -2e-05)","(0.0, 0.03438473159354028, 0.0)","(-0.0003369422938150188, 0.1712996115436258, 0.000978805803542108)","(1.5744905736701929, 0.0034020668659304806, -0.011282706086415463)","[-0.0006218857818289976, 1.4344995269144345e-05, -0.0008879717220028937]","[-0.026750000193715096, 0.05299999937415123, 0.03999999910593033]","[0.0, -0.0, 0.5519743167162877]","[-0.06450459361076355, 0.11430734395980835, 0.03999999910593033]","[0.0, 0.0, -0.20647120620408663]","[0.026750000193715096, 0.05299999937415123, 0.03999999910593033]","[0.0, 0.0, -0.5539839490849908]","[0.06462772190570831, 0.11423134803771973, 0.03999999910593033]","[0.0, -0.0, 0.21038996020311254]",0.5518976362158602,-0.018395301972378094,"(0.0, 0.0, 0.0, 0.0, 0.0, 0.0)",-0.5223860812346542,-0.7583807878187839,0.015529703273051929,"(0.0, 0.0, 0.0, 0.0, 0.0, 0.0)",-0.3004451184986776,-0.5542187770333225,-0.05636183796078509,"(0.0, 0.0, 0.0, 0.0, 0.0, 0.0)",0.009182507428408652,0.764372879895236,-0.000251051596253049,"(0.0, 0.0, 0.0, 0.0, 0.0, 0.0)",0.0006877269714430906,True,"(-0.031956422775330576, 0.18687012163431274, 0.039996308881020154)","(0.9999322246325071, -0.011041819694317273, -0.003691118979848129)",-4.292656086557517e-05,3.947811194622009,True,"(0.03179539520067112, 0.1866920204234703, 0.04000369111897985)","(-0.9999322246325071, 0.01104181969431803, 0.0036911189798471996)",-0.0001276353308471447,0.0
21,Move,"(-0.00023999999999999998, 0.0, -0.00017)","(0.0, 0.03438473159354028, 0.0)","(-0.0003170436719893712, 0.1713031600123744, 0.0009830284695643602)","(1.573277374065707, 0.0023118978075998484, -0.011593673396735104)","[-0.0006019871600033499, 1.7893464017731953e-05, -0.0008837490559806414]","[-0.026750000193715096, 0.05299999937415123, 0.03999999910593033]","[0.0, -0.0, 0.5517182250785209]","[-0.06448889523744583, 0.11431701481342316, 0.03999999910593033]","[0.0, 0.0, -0.20611107864740677]","[0.026750000193715096, 0.05299999937415123, 0.03999999910593033]","[0.0, 0.0, -0.5550840318925493]","[0.06469505280256271, 0.11418964713811874, 0.03999999910593033]","[0.0, -0.0, 0.20928826016151802]",0.5516881645685775,-0.007214546393962786,"(0.0, 0.0, 0.0, 0.0, 0.0, 0.0)",-0.44962398222113303,-0.7577039977714258,0.03007557097730425,"(0.0, 0.0, 0.0, 0.0, 0.0, 0.0)",-0.2512417339044892,-0.5552598052733493,-0.04220974090986208,"(0.0, 0.0, 0.0, 0.0, 0.0, 0.0)",0.0068743932779410715,0.7643722622141648,1.6471495231762393e-05,"(0.0, 0.0, 0.0, 0.0, 0.0, 0.0)",0.000512572769997925,True,"(-0.03196686313464732, 0.18689062014546753, 0.039997506546337165)","(0.999930011459072, -0.011565244151826927, -0.0024934536628342828)",-3.650961633080807e-05,3.3713978808600595,True,"(0.031942567745957676, 0.18668586814813856, 0.04000249345366284)","(-0.9999300114590721, 0.011565244151822937, 0.0024934536628365453)",2.38247637727035e-05,0.0
22,Move,"(-0.00028000000000000003, 0.0, -0.00058)","(0.0, 0.05190783728356335, 0.0)","(-0.00023775063169478421, 0.17132054953459552, 0.0009848342966250515)","(1.5724513634160984, 0.0015510968304144393, -0.012806183557248576)","[-0.0005226941197087628, 3.528298623886594e-05, -0.0008819432289199501]","[-0.026750000193715096, 0.05299999937415123, 0.03999999910593033]","[0.0, -0.0, 0.5511476889525625]","[-0.06445389986038208, 0.11433853209018707, 0.03999999910593033]","[0.0, 0.0, -0.20617742475990575]","[0.026750000193715096, 0.05299999937415123, 0.03999999910593033]","[0.0, 0.0, -0.556063015318517]","[0.06475494801998138, 0.1141524687409401, 0.03999999910593033]","[0.0, -0.0, 0.2083093127417637]",0.5510093799174001,-0.03318371290594348,"(0.0, 0.0, 0.0, 0.0, 0.0, 0.0)",-0.5238578725786177,-0.7572488958593777,0.018278070461939057,"(0.0, 0.0, 0.0, 0.0, 0.0, 0.0)",-0.30586725337231163,-0.5562364924418656,-0.041636340794606326,"(0.0, 0.0, 0.0, 0.0, 0.0, 0.0)",0.0067812198086881995,0.7643723027402198,-1.0806948003150296e-06,"(0.0, 0.0, 0.0, 0.0, 0.0, 0.0)",0.0005058207332933795,True,"(-0.03192706725797166, 0.1869090493591669, 0.03999831850451161)","(0.9999196014573937, -0.012568340948963001, -0.0016814954883919587)",-2.845717422537039e-05,3.982300912561769,True,"(0.0320734442715265, 0.1866807406475063, 0.04000168149548839)","(-0.9999196014573938, 0.01256834094895359, 0.0016814954883918158)",0.00010668858518457993,0.0
23,Move,"(0.00038, 0.0, -0.0015400000000000001)","(0.0, 0.034222415973104825, 0.0)","(-8.13859344662483e-05, 0.17133831899661625, 0.0009858441473723364)","(1.5718899804251025, 0.001032792855948222, -0.014844964928663499)","[-0.000366329422480227, 5.305244825959399e-05, -0.0008809333781726653]","[-0.026750000193715096, 0.05299999937415123, 0.03999999910593033]","[0.0, -0.0, 0.5499222527503043]","[-0.06437870860099792, 0.11438469588756561, 0.03999999910593033]","[0.0, 0.0, -0.20708080499871873]","[0.026750000193715096, 0.05299999937415123, 0.03999999910593033]","[0.0, 0.0, -0.5569557205566749]","[0.06480952352285385, 0.11411851644515991, 0.03999999910593033]","[0.0, -0.0, 0.20741659382243102]",0.5496629643767147,-0.06222029974401598,"(0.0, 0.0, 0.0, 0.0, 0.0, 0.0)",-0.5289131226253203,-0.7569635313829491,0.009472371098522999,"(0.0, 0.0, 0.0, 0.0, 0.0, 0.0)",-0.3190872503126066,-0.5571071782708235,-0.03635289021202137,"(0.0, 0.0, 0.0, 0.0, 0.0, 0.0)",0.005920715836312342,0.7643723000813054,7.0904383697723e-08,"(0.0, 0.0, 0.0, 0.0, 0.0, 0.0)",0.00044162653033319433,True,"(-0.031786341056855946, 0.18692478863840525, 0.03999887924462721)","(0.9998945856093994, -0.014476241791362473, -0.0011207553727891036)",-1.982337697718308e-05,4.066483096866373,True,"(0.032192792897921686, 0.18667695065564588, 0.04000112075537278)","(-0.9998945856093993, 0.014476241791364662, 0.0011207553727816428)",7.579988315451784e-05,0.0
24,Move,"(0.0017600000000000003, 0.0, -0.0030700000000000002)","(0.0, -0.0, 0.0)","(0.00015824558302486146, 0.17135919482123088, 0.0009883635063691457)","(1.571519522892997, 0.0007471713263345777, -0.016923193010278965)","[-0.00012669790498911722, 7.39282728742241e-05, -0.0008784140191758559]","[-0.026750000193715096, 0.05299999937415123, 0.03999999910593033]","[0.0, -0.0, 0.5476448078076833]","[-0.06423880904912949, 0.1144702285528183, 0.03999999910593033]","[0.0, 0.0, -0.20854400036636242]","[0.026750000193715096, 0.05299999937415123, 0.03999999910593033]","[0.0, 0.0, -0.5577852606790953]","[0.06486020982265472, 0.11408691853284836, 0.03999999910593033]","[0.0, -0.0, 0.2059949564851421]",0.547169929362325,-0.11396340789259427,"(0.0, 0.0, 0.0, 0.0, 0.0, 0.0)",-1.0014962958702587,-0.7559052433668273,0.0680515131661656,"(0.0, 0.0, 0.0, 0.0, 0.0, 0.0)",-0.5902625764093256,-0.5579379471255955,-0.036642160843993334,"(0.0, 0.0, 0.0, 0.0, 0.0, 0.0)",0.49480522814359706,0.7635298554802061,-0.06008512563949388,"(0.0, 0.0, 0.0, 0.0, 0.0, 0.0)",0.23394750363957711,True,"(-0.031540347257046505, 0.18696183457356402, 0.03999920769049072)","(0.9998608421239608, -0.016663391995805497, -0.000792309509279623)",-1.6045626670254517e-05,7.664325896837032,True,"(0.03234667949840326, 0.18669241883459914, 0.04000079230950927)","(-0.9998608421239604, 0.01666339199581211, 0.0007923095092764909)",-2.1328253831831676e-05,3.626902912227053
25,Move,"(0.00337, 0.0, -0.004370000000000001)","(0.0, 0.034222415973104825, 0.0)","(0.0005779719835613715, 0.17142119088734786, 0.0009919859399988244)","(1.5711844799699874, 0.0007160807778703293, -0.018025047895339413)","[0.0002930284955473928, 0.0001359243389912057, -0.0008747915855461773]","[-0.026750000193715096, 0.05299999937415123, 0.03999999910593033]","[0.0, -0.0, 0.5433534666800485]","[-0.06397467851638794, 0.11463054269552231, 0.03999999910593033]","[0.0, 0.0, -0.2104566252062164]","[0.026750000193715096, 0.05299999937415123, 0.03999999910593033]","[0.0, 0.0, -0.5593235536876657]","[0.06495413184165955, 0.11402822285890579, 0.03999999910593033]","[0.0, -0.0, 0.20230220229248339]",0.5424407216832118,-0.2190560070213961,"(0.0, 0.0, 0.0, 0.0, 0.0, 0.0)",-1.7480680348565332,-0.7533192085046432,0.11780531514610423,"(0.0, 0.0, 0.0, 0.0, 0.0, 0.0)",-0.9975693921334161,-0.5596582337173991,-0.08033263158657707,"(0.0, 0.0, 0.0, 0.0, 0.0, 0.0)",1.2823669430526337,0.7611515140534683,-0.11380517646302407,"(0.0, 0.0, 0.0, 0.0, 0.0, 0.0)",0.6379959042998878,True,"(-0.031137614980289552, 0.18706013882312295, 0.039999286290384996)","(0.9998393476050201, -0.017910041857942788, -0.0007137096150039749)",-2.4182950365589614e-05,13.342639836512921,True,"(0.032708889130086995, 0.18675084741197148, 0.040000713709615)","(-0.9998393476050206, 0.017910041857923463, 0.0007137096149977573)",-5.403000725866197e-05,9.435936230042614
26,Move,"(0.0044, 0.0, -0.00525)","(0.0, 0.034222415973104825, 0.0)","(0.0010853169389917385, 0.17152298416888676, 0.0009939054254020038)","(1.5709499204063262, 0.0007352446201967177, -0.018785381893032062)","[0.0008003734509777599, 0.00023771762053009793, -0.0008728721001429979]","[-0.026750000193715096, 0.05299999937415123, 0.03999999910593033]","[0.0, -0.0, 0.5377127067290631]","[-0.06362643837928772, 0.11483953148126602, 0.03999999910593033]","[0.0, 0.0, -0.21286231034281503]","[0.026750000193715096, 0.05299999937415123, 0.03999999910593033]","[0.0, 0.0, -0.5612516237414915]","[0.0650717243552208, 0.11395445466041565, 0.03999999910593033]","[0.0, -0.0, 0.19734150276174373]",0.5366610334483735,-0.2523970809524826,"(0.0, 0.0, 0.0, 0.0, 0.0, 0.0)",-2.1641558848918065,-0.7499538094382068,0.14908327246915548,"(0.0, 0.0, 0.0, 0.0, 0.0, 0.0)",-1.2219261674886137,-0.5615986287146907,-0.08329526177214702,"(0.0, 0.0, 0.0, 0.0, 0.0, 0.0)",1.6956936217748346,0.7580114846056715,-0.13957669230279493,"(0.0, 0.0, 0.0, 0.0, 0.0, 0.0)",0.8608038278113423,True,"(-0.030615200381091126, 0.18719159771473598, 0.039999268581766736)","(0.9998258968294953, -0.01864513492746545, -0.0007314182332669051)",-3.597089724805846e-05,16.4635972949471,True,"(0.03318754615983257, 0.18683191343421213, 0.04000073141823328)","(-0.9998258968294956, 0.018645134927456227, 0.0007314182332765003)",-8.568390785311545e-05,12.504255512369623
27,Move,"(0.00485, 0.0, -0.00562)","(0.0, 0.034222415973104825, 0.0)","(0.0015899361404020035, 0.17163688711523198, 0.0009944663454404925)","(1.570792297920745, 0.0007588995062710022, -0.019574700387770663)","[0.0013049926523880247, 0.0003516205668753214, -0.0008723111801045092]","[-0.026750000193715096, 0.05299999937415123, 0.03999999910593033]","[0.0, -0.0, 0.5317888427856298]","[-0.06325946748256683, 0.11505690217018127, 0.03999999910593033]","[0.0, 0.0, -0.21511447995560132]","[0.026750000193715096, 0.05299999937415123, 0.03999999910593033]","[0.0, 0.0, -0.5630856084135798]","[0.06518345326185226, 0.11388406902551651, 0.03999999910593033]","[0.0, -0.0, 0.19210785357332671]",0.5307325387719916,-0.2535050558551294,"(0.0, 0.0, 0.0, 0.0, 0.0, 0.0)",-2.3383082662820565,-0.746234066008699,0.1606069762641873,"(0.0, 0.0, 0.0, 0.0, 0.0, 0.0)",-1.3129105198885707,-0.5634012882120364,-0.07577201859044833,"(0.0, 0.0, 0.0, 0.0, 0.0, 0.0)",1.8520711835204282,0.7545730862261473,-0.1488772170259428,"(0.0, 0.0, 0.0, 0.0, 0.0, 0.0)",0.9448794467546271,True,"(-0.03008533226313885, 0.187335897012424, 0.039999245924028454)","(0.9998108756719354, -0.019433071233003623, -0.00075407597154028)",-4.5387134107318855e-05,17.738538571610977,True,"(0.0336810264809542, 0.1869229560039232, 0.040000754075971555)","(-0.9998108756719356, 0.01943307123298864, 0.000754075971550534)",-0.00011228869433969912,13.663667909088968
28,Move,"(0.00491, 0.0, -0.0063100000000000005)","(0.0, 0.015685273987673044, 0.0)","(0.002018432545164149, 0.17176537875329437, 0.0009944108104032214)","(1.5707244484489344, 0.0007615340958985745, -0.020310871829218063)","[0.0017334890571501704, 0.00048011220493771045, -0.0008723667151417803]","[-0.026750000193715096, 0.05299999937415123, 0.03999999910593033]","[0.0, -0.0, 0.5261909507886308]","[-0.0629115179181099, 0.1152602955698967, 0.03999999910593033]","[0.0, 0.0, -0.21669371472431284]","[0.026750000193715096, 0.05299999937415123, 0.03999999910593033]","[0.0, 0.0, -0.5642802451331796]","[0.06525616347789764, 0.11383810639381409, 0.03999999910593033]","[0.0, -0.0, 0.18717925657676748]",0.5252240420894407,-0.23207218905272095,"(0.0, 0.0, 0.0, 0.0, 0.0, 0.0)",-2.5932092254809342,-0.7421359236477939,0.17971122651703306,"(0.0, 0.0, 0.0, 0.0, 0.0, 0.0)",-1.4366010222572738,-0.5645167555107564,-0.05674755351069008,"(0.0, 0.0, 0.0, 0.0, 0.0, 0.0)",2.00270863283446,0.7508430661010119,-0.14795798027567544,"(0.0, 0.0, 0.0, 0.0, 0.0, 0.0)",1.0346023746067965,True,"(-0.02962325678852451, 0.18748765624618063, 0.039999231032621096)","(0.9997962396328747, -0.020171462642397817, -0.000768967378907702)",-5.117072088980166e-05,19.57336117659439,True,"(0.034114005736388724, 0.18702718042678604, 0.040000768967378905)","(-0.9997962396328747, 0.020171462642396564, 0.0007689673789065148)",-0.0001352649716031943,14.991920667650287
29,Move,"(0.005390000000000001, 0.0, -0.00749)","(0.0, 0.12178209388715636, 0.0)","(0.0026458224820066455, 0.17195743309940412, 0.000993510670427621)","(1.5706970371233793, 0.0007546491853753955, -0.02129082062343154)","[0.0023608789939926667, 0.0006721665510474595, -0.0008732668551173807]","[-0.026750000193715096, 0.05299999937415123, 0.03999999910593033]","[0.0, -0.0, 0.5186024381881758]","[-0.062438007444143295, 0.11553291976451874, 0.03999999910593033]","[0.0, 0.0, -0.21854367895173196]","[0.026750000193715096, 0.05299999937415123, 0.03999999910593033]","[0.0, 0.0, -0.5659603008770784]","[0.06535831838846207, 0.11377333104610443, 0.03999999910593033]","[0.0, -0.0, 0.18057217875688655]",0.5170560652974143,-0.37112066965508667,"(0.0, 0.0, 0.0, 0.0, 0.0, 0.0)",-3.8893552829243268,-0.7359860374038323,0.27841104950114415,"(0.0, 0.0, 0.0, 0.0, 0.0, 0.0)",-2.1463979585763724,-0.5662903591448922,-0.07921337172110521,"(0.0, 0.0, 0.0, 0.0, 0.0, 0.0)",3.310204484393482,0.7455287026732157,-0.24090725572329813,"(0.0, 0.0, 0.0, 0.0, 0.0, 0.0)",1.7309175390391336,True,"(-0.029016170125593384, 0.18769947322290154, 0.03999924845702508)","(0.9997766989292471, -0.02111841521740191, -0.0007515429749199391)",-6.103857388933466e-05,29.3268730789082,True,"(0.0347002651733294, 0.1871609055945742, 0.04000075154297493)","(-0.9997766989292468, 0.021118415217412412, 0.0007515429749301477)",-0.00014537988781228856,24.464132937935947
30,Move,"(0.006320000000000001, 0.0, -0.008870000000000001)","(0.0, 0.17612117481874778, 0.0)","(0.0034450012798770665, 0.17221369183077143, 0.0009925926215815061)","(1.5705563134850724, 0.000779630741893488, -0.022474491547542615)","[0.0031600577918630877, 0.0009284252824147687, -0.0008741849039634955]","[-0.026750000193715096, 0.05299999937415123, 0.03999999910593033]","[0.0, -0.0, 0.5083080008888415]","[-0.061792388558387756, 0.11589698493480682, 0.03999999910593033]","[0.0, 0.0, -0.22081510599979234]","[0.026750000193715096, 0.05299999937415123, 0.03999999910593033]","[0.0, 0.0, -0.567804511741749]","[0.06547033041715622, 0.11370202898979187, 0.03999999910593033]","[0.0, -0.0, 0.17176418411744215]",0.5063278641330168,-0.4752312067596338,"(0.0, 0.0, 0.0, 0.0, 0.0, 0.0)",-5.213847706716552,-0.7275580866740043,0.3756027551553953,"(0.0, 0.0, 0.0, 0.0, 0.0, 0.0)",-2.858161225627339,-0.5679717072599614,-0.04013770692661227,"(0.0, 0.0, 0.0, 0.0, 0.0, 0.0)",4.637082863615048,0.7380566854506676,-0.3628696303380112,"(0.0, 0.0, 0.0, 0.0, 0.0, 0.0)",2.424483530551195,True,"(-0.02820669130567216, 0.18798855684126958, 0.03999923071242446)","(0.9997516648367685, -0.022271435803196786, -0.000769287575541094)",-8.138279853322876e-05,39.185759678204136,True,"(0.03545965457785078, 0.18734913619935595, 0.040000769287575545)","(-0.9997516648367683, 0.022271435803208405, 0.0007692875755497896)",-0.00017384065573186825,33.88206126977878
31,Move,"(0.00727, 0.0, -0.009890000000000001)","(0.0, 0.17612117481874778, 0.0)","(0.0042827091163472565, 0.17248597415007086, 0.0009928790276471239)","(1.570241695370087, 0.0008423392896804489, -0.023805030532154516)","[0.003997765628333278, 0.0012007076017142015, -0.0008738984978978778]","[-0.026750000193715096, 0.05299999937415123, 0.03999999910593033]","[0.0, -0.0, 0.49690530264517563]","[-0.061072926968336105, 0.11629246920347214, 0.03999999910593033]","[0.0, 0.0, -0.22298369345132288]","[0.026750000193715096, 0.05299999937415123, 0.03999999910593033]","[0.0, 0.0, -0.5688519179502688]","[0.06553389132022858, 0.11366143822669983, 0.03999999910593033]","[0.0, -0.0, 0.16209251216381973]",0.49484992516055193,-0.4932762205473707,"(0.0, 0.0, 0.0, 0.0, 0.0, 0.0)",-5.6610335279773984,-0.7182110482089822,0.4026917334736378,"(0.0, 0.0, 0.0, 0.0, 0.0, 0.0)",-3.088626461054383,-0.5690478059108922,-0.047016458951236746,"(0.0, 0.0, 0.0, 0.0, 0.0, 0.0)",4.929799462820721,0.7293946502878463,-0.3719469278711476,"(0.0, 0.0, 0.0, 0.0, 0.0, 0.0)",2.6174999563749224,True,"(-0.027330951514144698, 0.18831191246923862, 0.03999917060775562)","(0.999722010625592, -0.02356297050943619, -0.0008293922443860954)",-9.85633880395574e-05,42.41342941839403,True,"(0.036236663952864706, 0.18758697300617463, 0.040000829392244384)","(-0.9997220106255924, 0.02356297050942422, 0.0008293922443851657)",-0.00025441029276258864,36.40015496822578
32,Move,"(0.007520000000000001, 0.0, -0.01042)","(0.0, 0.18846763394735566, 0.0)","(0.005112173741615206, 0.17280214913177447, 0.0009814757256876247)","(1.570672615938101, 0.0009132045040300464, -0.024996107691203265)","[0.004827230253601228, 0.0015168825834178112, -0.000885301799857377]","[-0.026750000193715096, 0.05299999937415123, 0.03999999910593033]","[0.0, -0.0, 0.485287317487439]","[-0.060335300862789154, 0.11668694764375687, 0.03999999910593033]","[0.0, 0.0, -0.224658395435596]","[0.026750000193715096, 0.05299999937415123, 0.03999999910593033]","[0.0, 0.0, -0.5696190776273092]","[0.06558041274547577, 0.11363166570663452, 0.03999999910593033]","[0.0, -0.0, 0.15222365810484165]",0.4832002402397412,-0.5008923246952306,"(0.0, 0.0, 0.0, 0.0, 0.0, 0.0)",-5.699754398156985,-0.7082762433755361,0.40065561453382137,"(0.0, 0.0, 0.0, 0.0, 0.0, 0.0)",-3.0655756422435694,-0.5697376312653131,-0.028452885938238543,"(0.0, 0.0, 0.0, 0.0, 0.0, 0.0)",5.725684014663049,0.7200119175966704,-0.43939952205943816,"(0.0, 0.0, 0.0, 0.0, 0.0, 0.0)",3.1050877382370117,True,"(-0.026472754234375832, 0.1886500982009474, 0.039999097419859575)","(0.9996888991586228, -0.02492569453617783, -0.0009025801404251713)",-0.0001152116034375596,42.50275670164768,True,"(0.03701391741491469, 0.18783422449901088, 0.040000902580140434)","(-0.9996888991586231, 0.024925694536167328, 0.0009025801404369423)",-0.00031753129242704543,42.384552931014824
33,Move,"(0.007620000000000001, 0.0, -0.010680000000000002)","(0.0, 0.1553779366587952, 0.0)","(0.005790270643967978, 0.1731077529132755, 0.0009642347485097359)","(1.5714838752702744, 0.0009893510671081913, -0.026154530675073468)","[0.005505327155954, 0.0018224863649188294, -0.0009025427770352658]","[-0.026750000193715096, 0.05299999937415123, 0.03999999910593033]","[0.0, -0.0, 0.4748084492577795]","[-0.05966610088944435, 0.1170353814959526, 0.03999999910593033]","[0.0, 0.0, -0.22580201736219688]","[0.026750000193715096, 0.05299999937415123, 0.03999999910593033]","[0.0, 0.0, -0.5698959391476514]","[0.06559719890356064, 0.11362091451883316, 0.03999999910593033]","[0.0, -0.0, 0.14293153044296297]",0.4730568908526244,-0.4203704811411219,"(0.0, 0.0, 0.0, 0.0, 0.0, 0.0)",-5.668310670469649,-0.6989530613292726,0.3977776374383511,"(0.0, 0.0, 0.0, 0.0, 0.0, 0.0)",-3.064663634960857,-0.5699091409209636,-0.0031788346744445616,"(0.0, 0.0, 0.0, 0.0, 0.0, 0.0)",4.783690237370547,0.7113396195011377,-0.3570707025074327,"(0.0, 0.0, 0.0, 0.0, 0.0, 0.0)",2.5343217914305014,True,"(-0.025721271198482797, 0.1889599113092013, 0.03999902530655064)","(0.9996637178758077, -0.025913338947286646, -0.0009746934493579263)",-0.00012141883652476751,42.16446107212675,True,"(0.037721175161927946, 0.18807740979044033, 0.04000097469344936)","(-0.9996637178758078, 0.025913338947287805, 0.0009746934493556524)",-0.000354601080329605,35.187807842639515
34,Move,"(0.0076100000000000004, 0.0, -0.01117)","(0.0, 0.10187835909741304, 0.0)","(0.006249144045539306, 0.17333121606489635, 0.0009668338561536344)","(1.5709823540869225, 0.0010652885585286998, -0.027237453356830206)","[0.005964200557525327, 0.0020459495165396913, -0.0008999436693913673]","[-0.026750000193715096, 0.05299999937415123, 0.03999999910593033]","[0.0, -0.0, 0.4663898279310485]","[-0.05912584811449051, 0.11731021851301193, 0.03999999910593033]","[0.0, 0.0, -0.22559720098685285]","[0.026750000193715096, 0.05299999937415123, 0.03999999910593033]","[0.0, 0.0, -0.5693792332326595]","[0.06556586921215057, 0.11364097893238068, 0.03999999910593033]","[0.0, -0.0, 0.13570859978222563]",0.46502102443033144,-0.3284978186056077,"(0.0, 0.0, 0.0, 0.0, 0.0, 0.0)",-5.124531986884761,-0.6905094958835346,0.3545885300925574,"(0.0, 0.0, 0.0, 0.0, 0.0, 0.0)",-2.75508784967789,-0.5692330219292351,0.035095207077399236,"(0.0, 0.0, 0.0, 0.0, 0.0, 0.0)",4.227171060605819,0.7037735939184252,-0.31542126502164824,"(0.0, 0.0, 0.0, 0.0, 0.0, 0.0)",2.214565142246611,True,"(-0.025195788206214556, 0.18924036686491552, 0.039998950625137086)","(0.9996337363485782, -0.027042410509755328, -0.0010493748629204396)",-0.00012947451203295494,37.973406412166106,True,"(0.03822818315814717, 0.18829078352412493, 0.04000104937486293)","(-0.9996337363485781, 0.027042410509762936, 0.0010493748629288335)",-0.00036410557636677,31.02872169461949
35,Move,"(0.007850000000000001, 0.0, -0.01205)","(0.0, 0.06820921249719039, 0.0)","(0.00659282554993194, 0.1735540930010804, 0.0009678926820518156)","(1.5706342024465099, 0.0011151031280375214, -0.028220407439961966)","[0.006307882061917962, 0.002268826452723749, -0.0008988848434931861]","[-0.026750000193715096, 0.05299999937415123, 0.03999999910593033]","[0.0, -0.0, 0.4592107374763488]","[-0.05866333097219467, 0.11754098534584045, 0.03999999910593033]","[0.0, 0.0, -0.2245230777692599]","[0.026750000193715096, 0.05299999937415123, 0.03999999910593033]","[0.0, 0.0, -0.568084424685903]","[0.0654873251914978, 0.11369118094444275, 0.03999999910593033]","[0.0, -0.0, 0.12961774662173783]",0.45797871884604696,-0.2956791888136928,"(0.0, 0.0, 0.0, 0.0, 0.0, 0.0)",-5.073398688223249,-0.682267394619029,0.35193722346030004,"(0.0, 0.0, 0.0, 0.0, 0.0, 0.0)",-2.7150850510867617,-0.5678099566372248,0.06588239924631388,"(0.0, 0.0, 0.0, 0.0, 0.0, 0.0)",4.201621628848966,0.6963726538050344,-0.31909061714441206,"(0.0, 0.0, 0.0, 0.0, 0.0, 0.0)",2.1868297806030688,True,"(-0.024810607026738575, 0.18950547448637167, 0.039998884723739525)","(0.9996063926693592, -0.028032407913229973, -0.001115276260474063)",-0.00013555260478421248,37.47869309722795,True,"(0.03860466392629001, 0.1885010172694524, 0.04000111527626047)","(-0.9996063926693592, 0.028032407913223405, 0.0011152762604751563)",-0.00036598066851665714,30.791208238902353
36,Move,"(0.00816, 0.0, -0.013980000000000001)","(0.0, 0.06885498432042829, 0.0)","(0.006930666652827791, 0.17381093251016166, 0.0009672574725762663)","(1.5703564649960244, 0.001173829642591018, -0.029236154313109133)","[0.006645723164813813, 0.002525665961805007, -0.0008995200529687353]","[-0.026750000193715096, 0.05299999937415123, 0.03999999910593033]","[0.0, -0.0, 0.45177903166298056]","[-0.05818280950188637, 0.11777637153863907, 0.03999999910593033]","[0.0, 0.0, -0.2228759568462446]","[0.026750000193715096, 0.05299999937415123, 0.03999999910593033]","[0.0, 0.0, -0.566051581925015]","[0.06536386162042618, 0.11376980692148209, 0.03999999910593033]","[0.0, -0.0, 0.12343374159330583]",0.4504099316410882,-0.32858974263837637,"(0.0, 0.0, 0.0, 0.0, 0.0, 0.0)",-5.794067775024563,-0.6729583747080541,0.40719158935420036,"(0.0, 0.0, 0.0, 0.0, 0.0, 0.0)",-3.0897259282686425,-0.5656431631848247,0.09802010716166848,"(0.0, 0.0, 0.0, 0.0, 0.0, 0.0)",4.892860375942059,0.687945649089159,-0.369521340841093,"(0.0, 0.0, 0.0, 0.0, 0.0, 0.0)",2.550421495702921,True,"(-0.024448738073477402, 0.18979386864792136, 0.0399988322770111)","(0.999577608644898, -0.029038607383416955, -0.0011677229889002206)",-0.00014257074616334944,42.69803317301766,True,"(0.03894417636533784, 0.1887392762193532, 0.0400011677229889)","(-0.9995776086448981, 0.029038607383412997, 0.0011677229889066189)",-0.0003806686432878991,35.80892184823899
37,Move,"(0.00832, 0.0, -0.01578)","(0.0, 0.06885498432042829, 0.0)","(0.007255194418086326, 0.17410009387139946, 0.0009653152773111707)","(1.5701197926210995, 0.0012421037044999565, -0.03028066958763611)","[0.006970250930072348, 0.0028148273230428067, -0.000901462248233831]","[-0.026750000193715096, 0.05299999937415123, 0.03999999910593033]","[0.0, -0.0, 0.4438146973065454]","[-0.05766591429710388, 0.11802466213703156, 0.03999999910593033]","[0.0, 0.0, -0.2206427420110624]","[0.026750000193715096, 0.05299999937415123, 0.03999999910593033]","[0.0, 0.0, -0.5632528355545096]","[0.06519363075494766, 0.11387763917446136, 0.03999999910593033]","[0.0, -0.0, 0.1169515275492284]",0.4423721013055104,-0.34621381370645715,"(0.0, 0.0, 0.0, 0.0, 0.0, 0.0)",-6.4198460839226845,-0.6625781711336461,0.45100906966492305,"(0.0, 0.0, 0.0, 0.0, 0.0, 0.0)",-3.4133023503238884,-0.562706807332646,0.13103205154044167,"(0.0, 0.0, 0.0, 0.0, 0.0, 0.0)",5.51506381130401,0.6784839171515684,-0.41289295723954955,"(0.0, 0.0, 0.0, 0.0, 0.0, 0.0)",2.8746990780736676,True,"(-0.024092850898487846, 0.1901140419096126, 0.03999876410384764)","(0.9995468597995125, -0.030075698256800176, -0.001235896152361794)",-0.00015150984796870047,47.173547139544716,True,"(0.039260283519323695, 0.18901135077598757, 0.04000123589615236)","(-0.9995468597995129, 0.030075698256793692, 0.0012358961523497216)",-0.00041090081288615337,40.29174919366475
38,Move,"(0.008110000000000001, 0.0, -0.01689)","(0.0, 0.01863837108204745, 0.0)","(0.00742529628821001, 0.174394645191559, 0.0009644325382543269)","(1.5699309944906334, 0.001258794646126937, -0.03101510239119966)","[0.007140352800196032, 0.0031093786432023485, -0.0009023449872906747]","[-0.026750000193715096, 0.05299999937415123, 0.03999999910593033]","[0.0, -0.0, 0.43683907899827995]","[-0.05721157789230347, 0.11823873221874237, 0.03999999910593033]","[0.0, 0.0, -0.21735077271190817]","[0.026750000193715096, 0.05299999937415123, 0.03999999910593033]","[0.0, 0.0, -0.5592276556084534]","[0.06494827568531036, 0.11403188854455948, 0.03999999910593033]","[0.0, -0.0, 0.11124597680296826]",0.4356999846934319,-0.2733743473957973,"(0.0, 0.0, 0.0, 0.0, 0.0, 0.0)",-6.1931667964858015,-0.6523868300333295,0.43271798769784064,"(0.0, 0.0, 0.0, 0.0, 0.0, 0.0)",-3.2862257718109067,-0.5584228896238045,0.19314058003971665,"(0.0, 0.0, 0.0, 0.0, 0.0, 0.0)",5.730024473814497,0.6687283503803308,-0.4188633614604257,"(0.0, 0.0, 0.0, 0.0, 0.0, 0.0)",2.953351296798689,True,"(-0.02387612881123817, 0.19043415582410633, 0.03999873952289753)","(0.9995224718151081, -0.030874577472263003, -0.001260477102472702)",-0.00015239428128336003,45.32645580873155,True,"(0.03944386823172645, 0.18930743480481152, 0.04000126047710247)","(-0.9995224718151079, 0.030874577472265918, 0.0012604771024709673)",-0.00044306027877409154,41.763343359310305
39,Move,"(0.0065699999999999995, 0.0, -0.01564)","(0.0, 0.08774468281476293, 0.0)","(0.007585636843976159, 0.17467657612084686, 0.0009640197142181838)","(1.569828168129909, 0.0012217720959599482, -0.03184387992834643)","[0.00730069335596218, 0.003391309572490203, -0.0009027578113268178]","[-0.026750000193715096, 0.05299999937415123, 0.03999999910593033]","[0.0, -0.0, 0.4303823765251323]","[-0.056789714843034744, 0.11843405663967133, 0.03999999910593033]","[0.0, 0.0, -0.21382763644447114]","[0.026750000193715096, 0.05299999937415123, 0.03999999910593033]","[0.0, 0.0, -0.555069310994704]","[0.06469415873289108, 0.11419019848108292, 0.03999999910593033]","[0.0, -0.0, 0.1058378653118166]",0.42922759178519954,-0.2771312965341597,"(0.0, 0.0, 0.0, 0.0, 0.0, 0.0)",-6.068695254774343,-0.6424492892763554,0.42255307092068056,"(0.0, 0.0, 0.0, 0.0, 0.0, 0.0)",-3.216470902419486,-0.5543619671081234,0.16976251475377588,"(0.0, 0.0, 0.0, 0.0, 0.0, 0.0)",5.491360207801796,0.6592207763809231,-0.40473287384712275,"(0.0, 0.0, 0.0, 0.0, 0.0, 0.0)",2.8354682572263776,True,"(-0.02370895702012922, 0.19074215076677722, 0.03999876818909734)","(0.9994974037198099, -0.031676846422264544, -0.0012318109026569857)",-0.0001519535254554696,44.326431476712656,True,"(0.039597061548599974, 0.189597974399622, 0.04000123181090264)","(-0.9994974037198096, 0.03167684642227448, 0.0012318109026399498)",-0.00045760278847703094,39.92759187431448
40,Move,"(0.00485, 0.0, -0.014050000000000002)","(0.0, 0.12178209388715636, 0.0)","(0.00768379915882699, 0.17493656339918726, 0.0009645276261801107)","(1.5697959580477254, 0.0011345358742111873, -0.032516980179153915)","[0.007398855670813011, 0.0036512968508305987, -0.000902249899364891]","[-0.026750000193715096, 0.05299999937415123, 0.03999999910593033]","[0.0, -0.0, 0.4247004386051264]","[-0.05641744285821915, 0.1186036765575409, 0.03999999910593033]","[0.0, 0.0, -0.21027559667429113]","[0.026750000193715096, 0.05299999937415123, 0.03999999910593033]","[0.0, 0.0, -0.5509548360113546]","[0.06444206833839417, 0.11434580385684967, 0.03999999910593033]","[0.0, -0.0, 0.10085148670388494]",0.4237622559601674,-0.2251596780938902,"(0.0, 0.0, 0.0, 0.0, 0.0, 0.0)",-5.483181441291992,-0.6333916180296775,0.38025673062830034,"(0.0, 0.0, 0.0, 0.0, 0.0, 0.0)",-2.9078657550659988,-0.5502099580642227,0.17875676205052954,"(0.0, 0.0, 0.0, 0.0, 0.0, 0.0)",5.178628669894998,0.6502216459701468,-0.3803081877654081,"(0.0, 0.0, 0.0, 0.0, 0.0, 0.0)",2.660116426916794,True,"(-0.023593862362595933, 0.19102456220098515, 0.03999884810985489)","(0.9994747331664067, -0.03238720288993592, -0.001151890145105423)",-0.00014653349096826806,39.93718268212709,True,"(0.03972114553016616, 0.18987351076335396, 0.040001151890145116)","(-0.9994747331664064, 0.03238720288993852, 0.0011518901451085133)",-0.0004544375848004916,37.568733615542904
41,Move,"(0.00255, 0.0, -0.01251)","(0.0, 0.12178209388715636, 0.0)","(0.007602173162854933, 0.17517616249542411, 0.0009654750366711043)","(1.5699004924091893, 0.0009915961178836492, -0.032310771335308755)","[0.0073172296748409546, 0.0038908959470674576, -0.0009013024888738973]","[-0.026750000193715096, 0.05299999937415123, 0.03999999910593033]","[0.0, -0.0, 0.4212723910296137]","[-0.05619237944483757, 0.11870499700307846, 0.03999999910593033]","[0.0, 0.0, -0.20616174915005142]","[0.026750000193715096, 0.05299999937415123, 0.03999999910593033]","[0.0, 0.0, -0.5460609751850821]","[0.0641414076089859, 0.11452952772378922, 0.03999999910593033]","[0.0, -0.0, 0.09723381017528794]",0.4208307266762368,-0.10600655217883496,"(0.0, 0.0, 0.0, 0.0, 0.0, 0.0)",-4.325164889295151,-0.6261892037825272,0.29879529140727107,"(0.0, 0.0, 0.0, 0.0, 0.0, 0.0)",-2.3046261490089184,-0.5451249589725252,0.2246516111298813,"(0.0, 0.0, 0.0, 0.0, 0.0, 0.0)",4.6809834190927875,0.6418396067796386,-0.3492490918077106,"(0.0, 0.0, 0.0, 0.0, 0.0, 0.0)",2.433421369866816,True,"(-0.023667126794673386, 0.1912562265470038, 0.03999898093365066)","(0.9994763112078227, -0.032342925628018986, -0.0010190663493391838)",-0.00012373385165590533,31.367535998058127,True,"(0.03969375415798038, 0.190142509939429, 0.040001019066349355)","(-0.9994763112078223, 0.03234292562801989, 0.0010190663493511783)",-0.00043254618005226706,34.01658656486617
42,Move,"(0.00161, 0.0, -0.01209)","(0.0, 0.12178209388715636, 0.0)","(0.007438502554254966, 0.17540303211951924, 0.0009615750335918077)","(1.5700476769794307, 0.0006962878872041625, -0.03158893556709193)","[0.007153559066240988, 0.004117765571162585, -0.0009052024919531939]","[-0.026750000193715096, 0.05299999937415123, 0.03999999910593033]","[0.0, -0.0, 0.41932070679924976]","[-0.05606408789753914, 0.11876232922077179, 0.03999999910593033]","[0.0, 0.0, -0.201635920366912]","[0.026750000193715096, 0.05299999937415123, 0.03999999910593033]","[0.0, 0.0, -0.5406306011983165]","[0.06380672752857208, 0.11473166942596436, 0.03999999910593033]","[0.0, -0.0, 0.09468752974381249]",0.419021696291466,-0.07176753013588248,"(0.0, 0.0, 0.0, 0.0, 0.0, 0.0)",-3.9315253023674273,-0.6198350315468146,0.2691921293957578,"(0.0, 0.0, 0.0, 0.0, 0.0, 0.0)",-2.091122417411745,-0.5396481004258942,0.235798144788575,"(0.0, 0.0, 0.0, 0.0, 0.0, 0.0)",4.348785436661215,0.6339243160037333,-0.3345138841793137,"(0.0, 0.0, 0.0, 0.0, 0.0, 0.0)",2.277925980032528,True,"(-0.023867636550541513, 0.1914561362694271, 0.0399992836820932)","(0.9994969550963708, -0.03170683903734055, -0.0007163179068058616)",-9.823612491763541e-05,28.44625048911689,True,"(0.039551577721572806, 0.19040347684223133, 0.040000716317906804)","(-0.999496955096371, 0.03170683903732937, 0.0007163179068051039)",-0.00040107521626481945,31.608373065759682
43,Move,"(0.0005700000000000001, 0.0, -0.012220000000000002)","(0.0, 0.12178209388715636, 0.0)","(0.007211317611108039, 0.1756152849727641, 0.0009388958658202312)","(1.5701876669507129, -0.0002443258520768899, -0.030588517541950043)","[0.006926374123094061, 0.004330018424407445, -0.0009278816597247704]","[-0.026750000193715096, 0.05299999937415123, 0.03999999910593033]","[0.0, -0.0, 0.41815569415616605]","[-0.05598745495080948, 0.1187964379787445, 0.03999999910593033]","[0.0, 0.0, -0.19671256188088873]","[0.026750000193715096, 0.05299999937415123, 0.03999999910593033]","[0.0, 0.0, -0.534700317400349]","[0.0634399950504303, 0.11495033651590347, 0.03999999910593033]","[0.0, -0.0, 0.09294722659926816]",0.4179945145435585,-0.03868329492128606,"(0.0, 0.0, 0.0, 0.0, 0.0, 0.0)",-3.4216038782148948,-0.6138213856005903,0.25123977175938084,"(0.0, 0.0, 0.0, 0.0, 0.0, 0.0)",-1.7198393486425634,-0.5336114653215472,0.2613256664885666,"(0.0, 0.0, 0.0, 0.0, 0.0, 0.0)",4.597638769025943,0.6263066988725029,-0.32180366502025315,"(0.0, 0.0, 0.0, 0.0, 0.0, 0.0)",2.4392468115848898,True,"(-0.02414940470146873, 0.19164394928101117, 0.04000020876741288)","(0.9995281748186209, -0.03071455941282562, 0.0002087674128771146)",-8.037682393778886e-05,24.65979784753523,True,"(0.039316483613841074, 0.19066151157716088, 0.03999979123258712)","(-0.999528174818621, 0.03071455941281983, -0.00020876741288011449)",-0.0003735029885230835,33.445892408093975
44,Move,"(-0.00015000000000000001, 0.0, -0.012400000000000001)","(0.0, 0.12178209388715636, 0.0)","(0.006902820559652366, 0.17582492534849425, 0.0009401915089695378)","(1.57030762922015, -0.00039873145839797836, -0.029725402462813987)","[0.006617877071638387, 0.004539658800137597, -0.0009265860165754638]","[-0.026750000193715096, 0.05299999937415123, 0.03999999910593033]","[0.0, -0.0, 0.41749709817607006]","[-0.05594411492347717, 0.11881568282842636, 0.03999999910593033]","[0.0, 0.0, -0.19157954980831726]","[0.026750000193715096, 0.05299999937415123, 0.03999999910593033]","[0.0, 0.0, -0.5284001053167391]","[0.06304895877838135, 0.11518026888370514, 0.03999999910593033]","[0.0, -0.0, 0.09180012038630204]",0.41740215733169883,-0.022782657125639323,"(0.0, 0.0, 0.0, 0.0, 0.0, 0.0)",-3.296433126324173,-0.6080540131697318,0.2454333632471808,"(0.0, 0.0, 0.0, 0.0, 0.0, 0.0)",-1.6632614763172986,-0.5272618233177546,0.2731656037307518,"(0.0, 0.0, 0.0, 0.0, 0.0, 0.0)",4.52450778211753,0.6188763792079843,-0.31769986285582036,"(0.0, 0.0, 0.0, 0.0, 0.0, 0.0)",2.408123056002073,True,"(-0.024480524090564115, 0.19182136336714023, 0.040000371162201294)","(0.9995535950947525, -0.02987428278262193, 0.00037116220129473866)",-7.0120009618406e-05,23.70540331138044,True,"(0.03901225531589767, 0.19091707447826584, 0.039999628837798715)","(-0.9995535950947527, 0.029874282782612255, -0.00037116220128648376)",-0.000358427743195562,32.89962826952638
45,Move,"(-0.0007000000000000001, 0.0, -0.012770000000000002)","(0.0, 0.1553779366587952, 0.0)","(0.006670729302841026, 0.1760427550804798, 0.0009403977294329609)","(1.5703392817496005, -0.0004858034261088519, -0.028971735349499025)","[0.006385785814827048, 0.004757488532123155, -0.0009263797961120407]","[-0.026750000193715096, 0.05299999937415123, 0.03999999910593033]","[0.0, -0.0, 0.4161334590130978]","[-0.05585433915257454, 0.11885543167591095, 0.03999999910593033]","[0.0, 0.0, -0.1866675630031475]","[0.026750000193715096, 0.05299999937415123, 0.03999999910593033]","[0.0, 0.0, -0.5221774486092747]","[0.06266134232282639, 0.11540493369102478, 0.03999999910593033]","[0.0, -0.0, 0.09012816307629118]",0.41581489290198315,-0.07645633180059097,"(0.0, 0.0, 0.0, 0.0, 0.0, 0.0)",-3.7980529525454467,-0.6016425624940179,0.2780299073352857,"(0.0, 0.0, 0.0, 0.0, 0.0, 0.0)",-1.9099667813177632,-0.5210856260456916,0.26204204207789816,"(0.0, 0.0, 0.0, 0.0, 0.0, 0.0)",4.894363523326472,0.6108504204675257,-0.3492487933694812,"(0.0, 0.0, 0.0, 0.0, 0.0, 0.0)",2.5732324203859473,True,"(-0.02474984353075925, 0.1920106470078166, 0.04000047122481806)","(0.9995764782148813, -0.02909711577985001, 0.0004712248180590284)",-6.73394017103674e-05,27.325525502644442,True,"(0.038751223710123746, 0.19117937531579274, 0.039999528775181925)","(-0.999576478214881, 0.0290971157798487, -0.00047122481807172415)",-0.00035429865576133273,35.437139729760624
46,Move,"(-0.00072, 0.0, -0.01248)","(0.0, 0.1553779366587952, 0.0)","(0.006477602350854882, 0.17624658092196185, 0.0009402965365353423)","(1.5703555661039494, -0.0005597370268389696, -0.028273987971482614)","[0.006192658862840904, 0.004961314373605197, -0.0009264809890096594]","[-0.026750000193715096, 0.05299999937415123, 0.03999999910593033]","[0.0, -0.0, 0.4143795559137896]","[-0.05573878809809685, 0.11890637129545212, 0.03999999910593033]","[0.0, 0.0, -0.18221227961528005]","[0.026750000193715096, 0.05299999937415123, 0.03999999910593033]","[0.0, 0.0, -0.5163875340956774]","[0.062299419194459915, 0.11561181396245956, 0.03999999910593033]","[0.0, -0.0, 0.08809119233446479]",0.4140703459877311,-0.07420992977274132,"(0.0, 0.0, 0.0, 0.0, 0.0, 0.0)",-3.5772586128476176,-0.59551867044617,0.25756098197254756,"(0.0, 0.0, 0.0, 0.0, 0.0, 0.0)",-1.7889329716136169,-0.5153882515934732,0.2398206146209771,"(0.0, 0.0, 0.0, 0.0, 0.0, 0.0)",4.652588839427508,0.6031092313566854,-0.32867357345759346,"(0.0, 0.0, 0.0, 0.0, 0.0, 0.0)",2.4403823315681974,True,"(-0.024960628010249414, 0.19219569738893771, 0.04000054543916106)","(0.9995967583158853, -0.02839054878819417, 0.0005454391610560942)",-6.859142163158927e-05,25.697016937132947,True,"(0.038543618528205995, 0.19143205749840123, 0.039999454560838955)","(-0.9995967583158856, 0.028390548788190268, -0.000545439161048278)",-0.0003510884162360255,33.613657306753566
47,Move,"(-0.00033, 0.0, -0.012180000000000002)","(0.0, 0.1553779366587952, 0.0)","(0.006345395651680177, 0.17642828244294997, 0.0009411295833763901)","(1.5703534734676838, -0.0005896527927599151, -0.02765472672292993)","[0.006060452163666199, 0.005143015894593317, -0.0009256479421686115]","[-0.026750000193715096, 0.05299999937415123, 0.03999999910593033]","[0.0, -0.0, 0.4123769159964588]","[-0.055606741458177567, 0.1189642995595932, 0.03999999910593033]","[0.0, 0.0, -0.17832489270387317]","[0.026750000193715096, 0.05299999937415123, 0.03999999910593033]","[0.0, 0.0, -0.5113134588521221]","[0.061981264501810074, 0.11579138785600662, 0.03999999910593033]","[0.0, -0.0, 0.08582118237261895]",0.4119956471847267,-0.09149233693394945,"(0.0, 0.0, 0.0, 0.0, 0.0, 0.0)",-3.464731740943069,-0.5896698258133253,0.24766399294187058,"(0.0, 0.0, 0.0, 0.0, 0.0, 0.0)",-1.7219524280200604,-0.5104594440505243,0.20495973590280858,"(0.0, 0.0, 0.0, 0.0, 0.0, 0.0)",4.346232683494862,0.5958485729315128,-0.3086510853666319,"(0.0, 0.0, 0.0, 0.0, 0.0, 0.0)",2.2597414085165717,True,"(-0.025113801513318816, 0.19236945396017208, 0.04000058677426385)","(0.9996143332604306, -0.027764013331437406, 0.0005867742638533592)",-7.124209354545318e-05,24.87209238949422,True,"(0.03839755635957581, 0.1916624659143149, 0.039999413225736156)","(-0.9996143332604305, 0.02776401333143876, -0.00058677426384738)",-0.0003422644925156898,31.29612093093084
48,Move,"(-0.00054, 0.0, -0.011430000000000001)","(0.0, 0.17612117481874778, 0.0)","(0.006272613494487138, 0.17659478223369227, 0.0009422362734690435)","(1.5703157732895092, -0.000545188309151588, -0.02712458290295327)","[0.005987670006473159, 0.0053095156853356085, -0.0009245412520759582]","[-0.026750000193715096, 0.05299999937415123, 0.03999999910593033]","[0.0, -0.0, 0.4099243516287014]","[-0.055444877594709396, 0.11903487145900726, 0.03999999910593033]","[0.0, 0.0, -0.17494018047430498]","[0.026750000193715096, 0.05299999937415123, 0.03999999910593033]","[0.0, 0.0, -0.5069395193349491]","[0.06170628219842911, 0.11594488471746445, 0.03999999910593033]","[0.0, -0.0, 0.08327590019163318]",0.4094587473378925,-0.11175087345777962,"(0.0, 0.0, 0.0, 0.0, 0.0, 0.0)",-3.5152930852900273,-0.5838255600979195,0.24935388403148254,"(0.0, 0.0, 0.0, 0.0, 0.0, 0.0)",-1.739961519836878,-0.5061983111254615,0.17788651643097544,"(0.0, 0.0, 0.0, 0.0, 0.0, 0.0)",4.101147791518388,0.5889855623037767,-0.2951654196411672,"(0.0, 0.0, 0.0, 0.0, 0.0, 0.0)",2.1121602035424223,True,"(-0.025200642474170212, 0.19253998283983992, 0.04000055028071895)","(0.9996294844759913, -0.027213800862685978, 0.0005502807189443478)",-7.434154536228566e-05,25.22163995764393,True,"(0.038315673578321496, 0.19187265066432366, 0.03999944971928106)","(-0.9996294844759916, 0.02721380086268192, -0.0005502807189471873)",-0.00033471452151682344,29.433988769760216
49,Move,"(-0.0007700000000000001, 0.0, -0.01123)","(0.0, 0.18846763394735566, 0.0)","(0.006219762886490069, 0.17678456228718983, 0.0009357729843383639)","(1.5707668167173625, -0.0005225862663702589, -0.026876464826075017)","[0.005934819398476091, 0.0054992957388331765, -0.0009310045412066377]","[-0.026750000193715096, 0.05299999937415123, 0.03999999910593033]","[0.0, -0.0, 0.4071386989216242]","[-0.05526081100106239, 0.11911454796791077, 0.03999999910593033]","[0.0, 0.0, -0.17164226697721255]","[0.026750000193715096, 0.05299999937415123, 0.03999999910593033]","[0.0, 0.0, -0.5029102165919435]","[0.06145237758755684, 0.1160852238535881, 0.03999999910593033]","[0.0, -0.0, 0.08061833565614811]",0.4066261348132889,-0.12300618633689611,"(0.0, 0.0, 0.0, 0.0, 0.0, 0.0)",-3.636134342807892,-0.577711719766408,0.25661112868539804,"(0.0, 0.0, 0.0, 0.0, 0.0, 0.0)",-1.8170004571544502,-0.5022083672944717,0.16844275235437242,"(0.0, 0.0, 0.0, 0.0, 0.0, 0.0)",3.997141087870137,0.5823367318261284,-0.28603506085650876,"(0.0, 0.0, 0.0, 0.0, 0.0, 0.0)",2.071954384879446,True,"(-0.025259228850144616, 0.19271600344844858, 0.040000516570371195)","(0.9996375122381019, -0.026917973205090512, 0.0005165703711988939)",-7.645205461359227e-05,26.04289867831029,True,"(0.03826354979844604, 0.19207193033333814, 0.039999483429628814)","(-0.999637512238102, 0.026917973205092177, -0.0005165703711859897)",-0.0003264572950544264,28.70192812930751
50,Move,"(-0.00102, 0.0, -0.01132)","(0.0, 0.1553779366587952, 0.0)","(0.006087878513515199, 0.1769172621576386, 0.0009455499443445729)","(1.5705255517457901, -0.0005040524362994281, -0.025977331003781225)","[0.0058029350255012204, 0.005631995609281931, -0.0009212275812004288]","[-0.026750000193715096, 0.05299999937415123, 0.03999999910593033]","[0.0, -0.0, 0.405358415621414]","[-0.05514306575059891, 0.11916520446538925, 0.03999999910593033]","[0.0, 0.0, -0.16823169867879292]","[0.026750000193715096, 0.05299999937415123, 0.03999999910593033]","[0.0, 0.0, -0.4986424663654294]","[0.06118283048272133, 0.1162327453494072, 0.03999999910593033]","[0.0, -0.0, 0.07855789583896673]",0.40514085357821383,-0.05220885282415999,"(0.0, 0.0, 0.0, 0.0, 0.0, 0.0)",-2.7243623743687886,-0.5727322800921996,0.20588050669229996,"(0.0, 0.0, 0.0, 0.0, 0.0, 0.0)",-1.3570914104082465,-0.4978532760886424,0.18940197506431838,"(0.0, 0.0, 0.0, 0.0, 0.0, 0.0)",3.830301617480828,0.5761035480828227,-0.2632320737561906,"(0.0, 0.0, 0.0, 0.0, 0.0, 0.0)",2.0253768399976817,True,"(-0.02539274282687613, 0.19286590701234974, 0.04000051142533605)","(0.9996578822925385, -0.026150656101191768, 0.0005114253360464863)",-6.572414261102947e-05,19.464599083555584,True,"(0.03815053877466472, 0.19226424762418315, 0.03999948857466395)","(-0.9996578822925387, 0.02615065610118367, -0.0005114253360502425)",-0.000316998650597546,27.54231029413538
51,Move,"(-0.0008900000000000001, 0.0, -0.01199)","(0.0, 0.10187835909741304, 0.0)","(0.005785011773722603, 0.17704906001877097, 0.0009525828528646216)","(1.5704194784329708, -0.0004411800176030568, -0.024782917858796685)","[0.005500068285708625, 0.005763793470414308, -0.00091419467268038]","[-0.026750000193715096, 0.05299999937415123, 0.03999999910593033]","[0.0, -0.0, 0.4052408413742138]","[-0.05513529106974602, 0.11916853487491608, 0.03999999910593033]","[0.0, 0.0, -0.16400430324799647]","[0.026750000193715096, 0.05299999937415123, 0.03999999910593033]","[0.0, 0.0, -0.49366648400600527]","[0.060867760330438614, 0.11640330404043198, 0.03999999910593033]","[0.0, -0.0, 0.07795715823985297]",0.40531979655775663,0.018941659286375152,"(0.0, 0.0, 0.0, 0.0, 0.0, 0.0)",-2.223116200686794,-0.5685066985436169,0.17723284230776268,"(0.0, 0.0, 0.0, 0.0, 0.0, 0.0)",-1.1158110545030409,-0.4927309140527497,0.22453434196733008,"(0.0, 0.0, 0.0, 0.0, 0.0, 0.0)",3.4104980778809866,0.5706743687159245,-0.22782368523708793,"(0.0, 0.0, 0.0, 0.0, 0.0, 0.0)",1.849869125198297,True,"(-0.025696868252649052, 0.19299129198989234, 0.040000455618657386)","(0.999687743479329, -0.02498415395497907, 0.00045561865738298916)",-4.75017097825747e-05,15.802981962532295,True,"(0.03788110243272649, 0.19244685666044617, 0.03999954438134263)","(-0.9996877434793295, 0.024984153954964883, -0.0004556186573734026)",-0.0003007767774082954,24.641596066655982
52,Move,"(-0.00011000000000000002, 0.0, -0.01235)","(0.0, 0.08774468281476293, 0.0)","(0.005527054036059715, 0.17717778562603348, 0.0009577096931007654)","(1.5703645261186931, -0.00040506959288014, -0.02383531342445209)","[0.005242110548045737, 0.005892519077676822, -0.0009090678324442362]","[-0.026750000193715096, 0.05299999937415123, 0.03999999910593033]","[0.0, -0.0, 0.4052284749777195]","[-0.05513446405529976, 0.11916889250278473, 0.03999999910593033]","[0.0, 0.0, -0.1599074317847255]","[0.026750000193715096, 0.05299999937415123, 0.03999999910593033]","[0.0, 0.0, -0.4888779069415611]","[0.06056375801563263, 0.11656595021486282, 0.03999999910593033]","[0.0, -0.0, 0.07752043000729048]",0.40518457370626904,-0.010513715268879835,"(0.0, 0.0, 0.0, 0.0, 0.0, 0.0)",-2.180570248452032,-0.5644109392561864,0.17396980471091,"(0.0, 0.0, 0.0, 0.0, 0.0, 0.0)",-1.088252748659258,-0.4880679651688222,0.19438509056184708,"(0.0, 0.0, 0.0, 0.0, 0.0, 0.0)",3.317503734970115,0.5654698764780756,-0.22283194534375544,"(0.0, 0.0, 0.0, 0.0, 0.0, 0.0)",1.7827445379067057,True,"(-0.02599879946430262, 0.19310851885721714, 0.040000412326300014)","(0.9997118396654264, -0.02400140870430478, 0.00041232630001728827)",-3.332084454234002e-05,15.512952423465308,True,"(0.037610278095921, 0.19261811657316796, 0.03999958767369998)","(-0.9997118396654263, 0.02400140870430997, -0.0004123263000224771)",-0.00028415958024425545,23.88963408907437
53,Move,"(0.0010500000000000002, 0.0, -0.01266)","(0.0, 0.06820921249719039, 0.0)","(0.00535818249646395, 0.17729502179395354, 0.0009618272058861369)","(1.570321179972582, -0.00039317935702050226, -0.023069013104719795)","[0.005073239008449972, 0.006009755245596882, -0.0009049503196588648]","[-0.026750000193715096, 0.05299999937415123, 0.03999999910593033]","[0.0, -0.0, 0.40457191753194705]","[-0.0550910159945488, 0.11918751150369644, 0.03999999910593033]","[0.0, 0.0, -0.1565774805159834]","[0.026750000193715096, 0.05299999937415123, 0.03999999910593033]","[0.0, 0.0, -0.48483859417046393]","[0.060306720435619354, 0.11670201271772385, 0.03999999910593033]","[0.0, -0.0, 0.07652284079239109]",0.4044170692310024,-0.03714471872506393,"(0.0, 0.0, 0.0, 0.0, 0.0, 0.0)",-2.1401579927684926,-0.5604551135951035,0.16660885970349842,"(0.0, 0.0, 0.0, 0.0, 0.0, 0.0)",-1.0598971474375583,-0.484166164203165,0.1613794631630767,"(0.0, 0.0, 0.0, 0.0, 0.0, 0.0)",3.1598679761087247,0.5604657888433524,-0.21495151676989332,"(0.0, 0.0, 0.0, 0.0, 0.0, 0.0)",1.6737621080080995,True,"(-0.026201783042014058, 0.19322121287367255, 0.04000039674658968)","(0.9997305351216186, -0.023209906022773754, 0.0003967465896767239)",-2.7098993103524763e-05,15.23515736369102,True,"(0.037429077242750006, 0.19277525407017637, 0.039999603253410315)","(-0.9997305351216182, 0.023209906022777657, -0.00039674658968570474)",-0.0002688350346184651,22.66375167542522
54,Move,"(0.00243, 0.0, -0.0126)","(0.0, 0.1553779366587952, 0.0)","(0.005574192790164812, 0.17744018368814465, 0.0009582449343554677)","(1.5702815171031705, -0.0002784479480006351, -0.023524561356122724)","[0.005289249302150833, 0.0061549171397879965, -0.0009085325911895339]","[-0.026750000193715096, 0.05299999937415123, 0.03999999910593033]","[0.0, -0.0, 0.40043156480323067]","[-0.05481673777103424, 0.11930428445339203, 0.03999999910593033]","[0.0, 0.0, -0.15504480911328958]","[0.026750000193715096, 0.05299999937415123, 0.03999999910593033]","[0.0, 0.0, -0.48311560368488987]","[0.06019691377878189, 0.11675973981618881, 0.03999999910593033]","[0.0, -0.0, 0.07307988832968967]",0.3993969513095893,-0.24830729452469041,"(0.0, 0.0, 0.0, 0.0, 0.0, 0.0)",-3.9744648475750153,-0.5543072899318543,0.28058393993742786,"(0.0, 0.0, 0.0, 0.0, 0.0, 0.0)",-2.0832553325384864,-0.48299569484604277,0.028776503622865428,"(0.0, 0.0, 0.0, 0.0, 0.0, 0.0)",2.86364732278812,0.5552639685374995,-0.22356287123452667,"(0.0, 0.0, 0.0, 0.0, 0.0, 0.0)",1.494048510305783,True,"(-0.02604104747259803, 0.19338044057147188, 0.040000305622965526)","(0.9997258526577902, -0.023412093504363466, 0.00030562296551894986)",-4.2387155397209626e-05,28.545869850827316,True,"(0.037581240977132814, 0.19290805312229886, 0.039999694377034475)","(-0.9997258526577905, 0.023412093504360795, -0.00030562296552577865)",-0.00026170526139776475,20.347060954301636
55,Move,"(0.0033000000000000004, 0.0, -0.012580000000000001)","(0.0, 0.17612117481874778, 0.0)","(0.005981871064091309, 0.17759479109890555, 0.0009525062489489891)","(1.57025855050714, -0.00013685931920352966, -0.024343761458190113)","[0.005696927576077331, 0.006309524550548895, -0.0009142712765960125]","[-0.026750000193715096, 0.05299999937415123, 0.03999999910593033]","[0.0, -0.0, 0.3938153910910706]","[-0.05437744781374931, 0.11948852986097336, 0.03999999910593033]","[0.0, 0.0, -0.15482319246782708]","[0.026750000193715096, 0.05299999937415123, 0.03999999910593033]","[0.0, 0.0, -0.48298329953221747]","[0.060188475996255875, 0.11676415801048279, 0.03999999910593033]","[0.0, -0.0, 0.06772292912983399]",0.39256468642518794,-0.3001701627518557,"(0.0, 0.0, 0.0, 0.0, 0.0, 0.0)",-4.3193964076505535,-0.5473908633079181,0.2994566551230589,"(0.0, 0.0, 0.0, 0.0, 0.0, 0.0)",-2.279037746410612,-0.4830087591610374,-0.006109650319536536,"(0.0, 0.0, 0.0, 0.0, 0.0, 0.0)",3.0207473671931924,0.5497139882780767,-0.2381395969882114,"(0.0, 0.0, 0.0, 0.0, 0.0, 0.0)",1.5864773738881195,True,"(-0.025618197311282377, 0.19357005188547677, 0.0400001659334324)","(0.9997072093900718, -0.02419644518542334, 0.0001659334323973722)",-6.457819025244645e-05,31.029745463486545,True,"(0.037980929706373304, 0.1930279644607692, 0.039999834066567604)","(-0.999707209390072, 0.024196445185421096, -0.00016593343239570984)",-0.0002617978632540112,21.418382520653672
56,Move,"(0.0036200000000000004, 0.0, -0.012410000000000001)","(0.0, 0.20944300089782356, 0.0)","(0.006520648356331701, 0.17776341159087275, 0.0009451488663593561)","(1.5702869587539117, 3.5794432406717145e-05, -0.025352429332860988)","[0.006235704868317722, 0.0064781450425160925, -0.0009216286591856455]","[-0.026750000193715096, 0.05299999937415123, 0.03999999910593033]","[0.0, -0.0, 0.3858504741797734]","[-0.05384700000286102, 0.11970646679401398, 0.03999999910593033]","[0.0, 0.0, -0.1551996037532988]","[0.026750000193715096, 0.05299999937415123, 0.03999999910593033]","[0.0, 0.0, -0.48347868880898875]","[0.06022006273269653, 0.11674758791923523, 0.03999999910593033]","[0.0, -0.0, 0.06117984714987943]",0.3843477518589117,-0.36065297600316587,"(0.0, 0.0, 0.0, 0.0, 0.0, 0.0)",-4.84099970191704,-0.5396385554530074,0.33876465235775255,"(0.0, 0.0, 0.0, 0.0, 0.0, 0.0)",-2.5587826951987998,-0.48359845281600683,-0.028740435078540665,"(0.0, 0.0, 0.0, 0.0, 0.0, 0.0)",3.3874190212912834,0.5435516040611433,-0.265667086058492,"(0.0, 0.0, 0.0, 0.0, 0.0, 0.0)",1.7881341652051148,True,"(-0.02505988335961368, 0.19377656156700757, 0.039999999305248425)","(0.9996831345747514, -0.02517201712848521, -6.947515805244599e-07)",-8.447389109132317e-05,34.75987660471253,True,"(0.03851183100633216, 0.19314949856361496, 0.04000000069475158)","(-0.999683134574751, 0.025172017128500698, 6.947515814530181e-07)",-0.00026816935816966863,23.981699928217846
57,Move,"(0.0036700000000000005, 0.0, -0.011970000000000001)","(0.0, 0.20944300089782356, 0.0)","(0.007028698635763054, 0.17792695646459072, 0.0009402252864663615)","(1.5704760145101175, 0.0003236074739550974, -0.026247026503951373)","[0.006743755147749076, 0.006641689916234067, -0.0009265522390786401]","[-0.026750000193715096, 0.05299999937415123, 0.03999999910593033]","[0.0, -0.0, 0.37785870893422346]","[-0.053313035517930984, 0.11992088705301285, 0.03999999910593033]","[0.0, 0.0, -0.15554827533510804]","[0.026750000193715096, 0.05299999937415123, 0.03999999910593033]","[0.0, 0.0, -0.48406948933336097]","[0.060257721692323685, 0.1167277991771698, 0.03999999910593033]","[0.0, -0.0, 0.05460743984150776]",0.3764767961049699,-0.33164779672116435,"(0.0, 0.0, 0.0, 0.0, 0.0, 0.0)",-4.6469039176827875,-0.5320696996861896,0.3209349883263481,"(0.0, 0.0, 0.0, 0.0, 0.0, 0.0)",-2.450049597561906,-0.48416635988116735,-0.023229242384046625,"(0.0, 0.0, 0.0, 0.0, 0.0, 0.0)",3.1938744701470254,0.5376255998506781,-0.2523390892051551,"(0.0, 0.0, 0.0, 0.0, 0.0, 0.0)",1.679383534773189,True,"(-0.024500109467252288, 0.1939803589727745, 0.039999739044970825)","(0.9996592201234583, -0.026103170777359123, -0.0002609550291790379)",-0.00010032596597529992,33.30142559570124,True,"(0.03905193836938257, 0.19326509656353386, 0.040000260955029183)","(-0.9996592201234582, 0.02610317077736179, 0.00026095502918612547)",-0.00027061135334317804,22.573115604022213
58,Move,"(0.0034200000000000003, 0.0, -0.01171)","(0.0, 0.17612117481874778, 0.0)","(0.007355448004402914, 0.17805658247091327, 0.0009408720558107262)","(1.5705030629388166, 0.0003366977957190931, -0.027067639342444154)","[0.007070504516388936, 0.006771315922556614, -0.0009259054697342754]","[-0.026750000193715096, 0.05299999937415123, 0.03999999910593033]","[0.0, -0.0, 0.3716711875720679]","[-0.05289845913648605, 0.12008396536111832, 0.03999999910593033]","[0.0, 0.0, -0.15515166381886053]","[0.026750000193715096, 0.05299999937415123, 0.03999999910593033]","[0.0, 0.0, -0.48403323330195264]","[0.06025540456175804, 0.1167290210723877, 0.03999999910593033]","[0.0, -0.0, 0.04947570762896732]",0.3707129689965256,-0.22997404887765713,"(0.0, 0.0, 0.0, 0.0, 0.0, 0.0)",-3.8848183448733935,-0.5257266769924052,0.263089432136185,"(0.0, 0.0, 0.0, 0.0, 0.0, 0.0)",-2.0309535091325905,-0.4839737758387863,0.014268712043991902,"(0.0, 0.0, 0.0, 0.0, 0.0, 0.0)",2.586384121806355,0.5326584894260735,-0.2041079659341709,"(0.0, 0.0, 0.0, 0.0, 0.0, 0.0)",1.3561371219736353,True,"(-0.024114937304509698, 0.19415364560924414, 0.03999965058457959)","(0.9996376191872206, -0.026916690260309163, -0.00034941542041147343)",-0.00010564771994657419,27.750313577578208,True,"(0.03944254310412798, 0.19336981229002165, 0.04000034941542042)","(-0.9996376191872203, 0.026916690260317476, 0.0003494154204134697)",-0.00025880430589907285,18.28198186350023
59,Move,"(0.00404, 0.0, -0.01187)","(0.0, 0.17612117481874778, 0.0)","(0.007698252462861681, 0.17818879795982953, 0.0009422781424886273)","(1.5707657398072115, 0.000580799062315946, -0.027735668166979893)","[0.007413308974847703, 0.006903531411472874, -0.0009244993830563743]","[-0.026750000193715096, 0.05299999937415123, 0.03999999910593033]","[0.0, -0.0, 0.36589968787898103]","[-0.05251085013151169, 0.12023375928401947, 0.03999999910593033]","[0.0, 0.0, -0.1546702195762875]","[0.026750000193715096, 0.05299999937415123, 0.03999999910593033]","[0.0, 0.0, -0.4839591013161108]","[0.06025068089365959, 0.11673150211572647, 0.03999999910593033]","[0.0, -0.0, 0.044668475820326695]",0.3648362982284202,-0.2552155044541252,"(0.0, 0.0, 0.0, 0.0, 0.0, 0.0)",-3.9231676437276035,-0.5194487776533379,0.2690743983296542,"(0.0, 0.0, 0.0, 0.0, 0.0, 0.0)",-2.0597527180640185,-0.48397006473175785,-0.0026350279859759388,"(0.0, 0.0, 0.0, 0.0, 0.0, 0.0)",2.614400213604359,0.5277439170631034,-0.2120740403831182,"(0.0, 0.0, 0.0, 0.0, 0.0, 0.0)",1.3661228488962367,True,"(-0.023763026379882854, 0.19431610575128055, 0.039999473067791856)","(0.9996182857840213, -0.027622546382669932, -0.0005269322081479448)",-0.00010710824080562638,28.021847763301256,True,"(0.039806365848736355, 0.19346736342488152, 0.04000052693220815)","(-0.9996182857840216, 0.027622546382660252, 0.0005269322081534045)",-0.00024431937988874476,18.432026144870292
60,Move,"(0.00464, 0.0, -0.013139999999999999)","(0.0, 0.06820921249719039, 0.0)","(0.0077423403901486, 0.17827152000979715, 0.000951152753737093)","(1.5706374789433137, 0.0004157112728259346, -0.028280219784206258)","[0.007457396902134622, 0.006986253461440495, -0.0009156247718079087]","[-0.026750000193715096, 0.05299999937415123, 0.03999999910593033]","[0.0, -0.0, 0.3627153952291751]","[-0.052296627312898636, 0.12031544744968414, 0.03999999910593033]","[0.0, 0.0, -0.15325427950507248]","[0.026750000193715096, 0.05299999937415123, 0.03999999910593033]","[0.0, 0.0, -0.48243563489383173]","[0.060153547674417496, 0.11678246408700943, 0.03999999910593033]","[0.0, -0.0, 0.041682024807995884]",0.36240220919951804,-0.07516989684965712,"(0.0, 0.0, 0.0, 0.0, 0.0, 0.0)",-2.3942318868017187,-0.5152685420061988,0.16827807503266037,"(0.0, 0.0, 0.0, 0.0, 0.0, 0.0)",-1.183753350556643,-0.4820199367312611,0.09976117289972619,"(0.0, 0.0, 0.0, 0.0, 0.0, 0.0)",2.549492066363546,0.5233821630351767,-0.17651289237368167,"(0.0, 0.0, 0.0, 0.0, 0.0, 0.0)",1.2997287676406752,True,"(-0.023653781963683902, 0.19443651606984247, 0.03999953510667162)","(0.9996045453893349, -0.02811648468735833, -0.0004648933283799136)",-9.819861987932659e-05,16.976244431672995,True,"(0.03993841882315124, 0.19357654932660917, 0.04000046489332837)","(-0.9996045453893351, 0.028116484687352644, 0.00046489332837305045)",-0.00023056799033446934,17.984291648623948
61,Move,"(0.00547, 0.0, -0.015300000000000001)","(0.0, 0.03438473159354028, 0.0)","(0.007707715078184388, 0.1783784651297723, 0.0009574792681035728)","(1.5704747892141635, 0.0002534261910283528, -0.028686005463645706)","[0.00742277159017041, 0.007093198581415633, -0.0009092982574414289]","[-0.026750000193715096, 0.05299999937415123, 0.03999999910593033]","[0.0, -0.0, 0.36064700237678343]","[-0.052157338708639145, 0.12036814540624619, 0.03999999910593033]","[0.0, 0.0, -0.15075442284699106]","[0.026750000193715096, 0.05299999937415123, 0.03999999910593033]","[0.0, 0.0, -0.4795544180207773]","[0.059969641268253326, 0.116878442466259, 0.03999999910593033]","[0.0, -0.0, 0.03967937041772741]",0.3602506840084924,-0.09512377318485662,"(0.0, 0.0, 0.0, 0.0, 0.0, 0.0)",-2.845935217104156,-0.5105350216264143,0.2079433652719679,"(0.0, 0.0, 0.0, 0.0, 0.0, 0.0)",-1.426899187134251,-0.4789920250031209,0.13497385690849498,"(0.0, 0.0, 0.0, 0.0, 0.0, 0.0)",3.1297930810326418,0.5182924545039189,-0.22591981901721814,"(0.0, 0.0, 0.0, 0.0, 0.0, 0.0)",1.6057476591378559,True,"(-0.023699956663258685, 0.19455757606326934, 0.03999972044039271)","(0.999590173410573, -0.02862528720286424, -0.00027955960728896073)",-8.451916783697141e-05,20.168311336663336,True,"(0.039908299371078676, 0.19371136338835296, 0.04000027955960728)","(-0.9995901734105729, 0.02862528720286576, 0.0002795596072772669)",-0.0002290686054701358,22.096316945727047
62,Move,"(0.004920000000000001, 0.0, -0.01666)","(0.0, 0.18846763394735566, 0.0)","(0.00816295714949057, 0.17856075276174302, 0.0009557875310888603)","(1.5703236749572789, 0.0003100903526604295, -0.029645457988366385)","[0.00787801366147659, 0.007275486213386362, -0.0009109899944561413]","[-0.026750000193715096, 0.05299999937415123, 0.03999999910593033]","[0.0, -0.0, 0.3538983352112114]","[-0.051702115684747696, 0.12053807824850082, 0.03999999910593033]","[0.0, 0.0, -0.14964201627312373]","[0.026750000193715096, 0.05299999937415123, 0.03999999910593033]","[0.0, 0.0, -0.47799635621225595]","[0.059870075434446335, 0.11693012714385986, 0.03999999910593033]","[0.0, -0.0, 0.03402355584628938]",0.35228522190842954,-0.3871441964598126,"(0.0, 0.0, 0.0, 0.0, 0.0, 0.0)",-5.636673682054765,-0.5018530979669905,0.40493682637396494,"(0.0, 0.0, 0.0, 0.0, 0.0, 0.0)",-2.9917949199192186,-0.4778639986457921,0.031765519968112964,"(0.0, 0.0, 0.0, 0.0, 0.0, 0.0)",4.384236659607152,0.510572132805706,-0.3474665919824079,"(0.0, 0.0, 0.0, 0.0, 0.0, 0.0)",2.3180387868860004,True,"(-0.02332733500493995, 0.1947571828134128, 0.039999708442217195)","(0.9995662654156395, -0.029448192424843866, -0.00029155778280435336)",-9.080566621663269e-05,40.15819094134029,True,"(0.040243449980516696, 0.19387044773113646, 0.04000029155778283)","(-0.9995662654156396, 0.029448192424838895, 0.0002915577828197279)",-0.0002598679985705898,30.914507640419266
63,Move,"(0.00377, 0.0, -0.01717)","(0.0, 0.20944300089782356, 0.0)","(0.008588529305501596, 0.17876941392881465, 0.0009526627535469936)","(1.5701924768074116, 0.0003940303491637124, -0.03057357190799586)","[0.008303585817487616, 0.007484147380457995, -0.000914114771998008]","[-0.026750000193715096, 0.05299999937415123, 0.03999999910593033]","[0.0, -0.0, 0.34539488769178195]","[-0.05112691596150398, 0.12074781209230423, 0.03999999910593033]","[0.0, 0.0, -0.14839937871889997]","[0.026750000193715096, 0.05299999937415123, 0.03999999910593033]","[0.0, 0.0, -0.4763727698868505]","[0.05976623296737671, 0.1169838160276413, 0.03999999910593033]","[0.0, -0.0, 0.027124597881782165]",0.3439316292442909,-0.3511824310365265,"(0.0, 0.0, 0.0, 0.0, 0.0, 0.0)",-6.0467005583658295,-0.4920303973186298,0.42332960892648874,"(0.0, 0.0, 0.0, 0.0, 0.0, 0.0)",-3.190795852707711,-0.4760032951576042,0.08866658523411441,"(0.0, 0.0, 0.0, 0.0, 0.0, 0.0)",4.824445252142162,0.5019467862674094,-0.3721322283188772,"(0.0, 0.0, 0.0, 0.0, 0.0, 0.0)",2.541480493184502,True,"(-0.022844447680836842, 0.1949999172865859, 0.03999961825053449)","(0.9995374969620545, -0.03040799950960727, -0.000381749465511959)",-0.00010342226461507136,42.93017289978162,True,"(0.04067068111100259, 0.1940517734772269, 0.04000038174946553)","(-0.9995374969620543, 0.03040799950961598, 0.00038174946552707866)",-0.0003019923961040767,33.99010854081739
64,Move,"(0.00271, 0.0, -0.016380000000000002)","(0.0, 0.17612117481874778, 0.0)","(0.008743115807498949, 0.17895107176938782, 0.0009526310393169407)","(1.5700918538535804, 0.000374668479401921, -0.03116351245471931)","[0.00845817231948497, 0.007665805221031163, -0.000914146486228061]","[-0.026750000193715096, 0.05299999937415123, 0.03999999910593033]","[0.0, -0.0, 0.33938735633939854]","[-0.0507194809615612, 0.12089303135871887, 0.03999999910593033]","[0.0, 0.0, -0.1458756510172536]","[0.026750000193715096, 0.05299999937415123, 0.03999999910593033]","[0.0, 0.0, -0.47350295132636805]","[0.05958247557282448, 0.11707829684019089, 0.03999999910593033]","[0.0, -0.0, 0.022173490564265468]",0.33852173955340326,-0.20774446639907818,"(0.0, 0.0, 0.0, 0.0, 0.0, 0.0)",-4.867028149146699,-0.48388266989082707,0.33127518442532317,"(0.0, 0.0, 0.0, 0.0, 0.0, 0.0)",-2.5164597277104934,-0.4729175940702605,0.14048611266088024,"(0.0, 0.0, 0.0, 0.0, 0.0, 0.0)",4.229285812169255,0.49436345989746827,-0.3151163329454979,"(0.0, 0.0, 0.0, 0.0, 0.0, 0.0)",2.1813392805935825,True,"(-0.022624587478856994, 0.19521313794895567, 0.03999961810112762)","(0.9995184491172571, -0.031027794434739724, -0.00038189887238500715)",-0.00010554340154617209,34.415228057162096,True,"(0.0408685859189423, 0.19423552989548412, 0.040000381898872374)","(-0.9995184491172571, 0.031027794434737636, 0.0003818988723775388)",-0.0003215240418865956,29.692044408524172
65,Move,"(0.00221, 0.0, -0.01553)","(0.0, 0.18846763394735566, 0.0)","(0.008856891202066966, 0.17912181055201243, 0.0009526436850663714)","(1.5700392484854961, 0.0003222296054465512, -0.031904110064712374)","[0.008571947714052987, 0.007836544003655771, -0.0009141338404786302]","[-0.026750000193715096, 0.05299999937415123, 0.03999999910593033]","[0.0, -0.0, 0.3345104429949357]","[-0.050388090312480927, 0.12100911885499954, 0.03999999910593033]","[0.0, 0.0, -0.14308044364369427]","[0.026750000193715096, 0.05299999937415123, 0.03999999910593033]","[0.0, 0.0, -0.4704038961637457]","[0.059383735060691833, 0.1171797439455986, 0.03999999910593033]","[0.0, -0.0, 0.018044570357637037]",0.33364122089736936,-0.20861389020976218,"(0.0, 0.0, 0.0, 0.0, 0.0, 0.0)",-4.731940087043883,-0.4762291093292017,0.32682115794164285,"(0.0, 0.0, 0.0, 0.0, 0.0, 0.0)",-2.4442014595897676,-0.4698690301389661,0.1283652437717584,"(0.0, 0.0, 0.0, 0.0, 0.0, 0.0)",4.017590095984075,0.4871766894992997,-0.30522353246808764,"(0.0, 0.0, 0.0, 0.0, 0.0, 0.0)",2.074617856795724,True,"(-0.022501152809735976, 0.19540394851824017, 0.03999966556187531)","(0.9994956876321262, -0.03175308734476158, -0.0003344381246962109)",-0.0001069105533705088,33.42106450356879,True,"(0.040988466586911604, 0.19441018102444918, 0.04000033443812469)","(-0.9994956876321265, 0.03175308734475267, 0.00033443812469261425)",-0.0003239320655037845,28.17036285163922
66,Move,"(0.00216, 0.0, -0.01454)","(0.0, 0.12178209388715636, 0.0)","(0.008768349479066578, 0.1792587255421654, 0.0009541922204277882)","(1.570177358450869, 0.00014991266981725433, -0.0317891619406715)","[0.008483405991052599, 0.007973458993808746, -0.0009125853051172134]","[-0.026750000193715096, 0.05299999937415123, 0.03999999910593033]","[0.0, -0.0, 0.3321007331196673]","[-0.05022413656115532, 0.1210658848285675, 0.03999999910593033]","[0.0, 0.0, -0.1400309389470753]","[0.026750000193715096, 0.05299999937415123, 0.03999999910593033]","[0.0, 0.0, -0.46681472468416607]","[0.05915317311882973, 0.11729645729064941, 0.03999999910593033]","[0.0, -0.0, 0.015429391612991183]",0.3318965476495763,-0.04899948425091821,"(0.0, 0.0, 0.0, 0.0, 0.0, 0.0)",-2.640693368355623,-0.4713485847038507,0.18793329328453406,"(0.0, 0.0, 0.0, 0.0, 0.0, 0.0)",-1.3168652098329392,-0.4661226530656298,0.16609389059349325,"(0.0, 0.0, 0.0, 0.0, 0.0, 0.0)",3.499680295344754,0.48122487272764713,-0.2446151087802642,"(0.0, 0.0, 0.0, 0.0, 0.0, 0.0)",1.838825494753341,True,"(-0.02256429035091712, 0.19554229440851795, 0.039999813953662026)","(0.9994936623527599, -0.031817987105208, -0.00018604633797393336)",-9.410702256403992e-05,18.549052417333378,True,"(0.04095985414846838, 0.19457218945528676, 0.04000018604633796)","(-0.9994936623527598, 0.031817987105210506, 0.00018604633796355963)",-0.0003030448038146636,24.652810152988764
67,Move,"(0.0022700000000000003, 0.0, -0.01346)","(0.0, 0.06820921249719039, 0.0)","(0.00846490748527037, 0.17938104704863478, 0.0009575140867495664)","(1.5705952270799381, -0.00021474807755696095, -0.031076556004018183)","[0.00817996399725639, 0.008095780500278121, -0.0009092634387954352]","[-0.026750000193715096, 0.05299999937415123, 0.03999999910593033]","[0.0, -0.0, 0.33250413615802826]","[-0.050251591950654984, 0.12105641514062881, 0.03999999910593033]","[0.0, 0.0, -0.1362036793554535]","[0.026750000193715096, 0.05299999937415123, 0.03999999910593033]","[0.0, 0.0, -0.46255253728687]","[0.05887884274125099, 0.11743398010730743, 0.03999999910593033]","[0.0, -0.0, 0.01509938006279054]",0.3327160823213434,0.05087202711717237,"(0.0, 0.0, 0.0, 0.0, 0.0, 0.0)",-1.6150297353848073,-0.46817847955522746,0.12703477924141438,"(0.0, 0.0, 0.0, 0.0, 0.0, 0.0)",-0.8046230484764398,-0.4617611869519802,0.18993416661631632,"(0.0, 0.0, 0.0, 0.0, 0.0, 0.0)",2.5752122370400614,0.4769375091799683,-0.17146806613630527,"(0.0, 0.0, 0.0, 0.0, 0.0, 0.0)",1.3988076879017404,True,"(-0.02287708272382831, 0.19563494599850278, 0.04000017781286346)","(0.9995137302203618, -0.031181268151943203, 0.0001778128634618894)",-7.126249508388213e-05,11.241811264122902,True,"(0.04071099293442237, 0.19471474486686435, 0.039999822187136526)","(-0.9995137302203618, 0.03118126815194608, -0.00017781286347562394)",-0.00026288820876046277,18.314265095199758
68,Move,"(0.00348, 0.0, -0.012790000000000003)","(0.0, -0.0, 0.0)","(0.008013973371871918, 0.17945761009815053, 0.0009640857678209599)","(1.5709600249466695, -0.0005251818413517621, -0.029566877014070545)","[0.007729029883857939, 0.008172343549793876, -0.0009026917577240418]","[-0.026750000193715096, 0.05299999937415123, 0.03999999910593033]","[0.0, -0.0, 0.33464592369517554]","[-0.05039730295538902, 0.12100592255592346, 0.03999999910593033]","[0.0, 0.0, -0.13173411353483008]","[0.026750000193715096, 0.05299999937415123, 0.03999999910593033]","[0.0, 0.0, -0.4579154684910052]","[0.0585797056555748, 0.11758226901292801, 0.03999999910593033]","[0.0, -0.0, 0.016623885321524912]",0.335112978310049,0.11209319913624517,"(0.0, 0.0, 0.0, 0.0, 0.0, 0.0)",-1.0129336999103133,-0.46601265220777793,0.08816809198219878,"(0.0, 0.0, 0.0, 0.0, 0.0, 0.0)",-0.49621237779927,-0.45707356190049947,0.2020497323117247,"(0.0, 0.0, 0.0, 0.0, 0.0, 0.0)",1.8305753273329761,0.47406929899079275,-0.11280495297337224,"(0.0, 0.0, 0.0, 0.0, 0.0, 0.0)",1.025538076602147,True,"(-0.023356486451926027, 0.19570298892784144, 0.04000056521646009)","(0.9995561419841915, -0.029785895186014308, 0.0005652164600854859)",-5.261366540333804e-05,6.952205116017004,True,"(0.040294069270998815, 0.19483537929586048, 0.03999943478353992)","(-0.9995561419841917, 0.029785895186004056, -0.0005652164600784879)",-0.0002192389079803971,13.157603146842776
69,Move,"(0.00554, 0.0, -0.01233)","(0.0, 0.03438473159354028, 0.0)","(0.007928461976969508, 0.17947947042876927, 0.0009695893099640712)","(1.5707801550313356, -0.00036444658449009867, -0.02932136122500797)","[0.00764351848895553, 0.008194203880412615, -0.0008971882155809304]","[-0.026750000193715096, 0.05299999937415123, 0.03999999910593033]","[0.0, -0.0, 0.3347428451673794]","[-0.050403892993927, 0.12100362777709961, 0.03999999910593033]","[0.0, 0.0, -0.12940125212879589]","[0.026750000193715096, 0.05299999937415123, 0.03999999910593033]","[0.0, 0.0, -0.4556234923086045]","[0.058431606739759445, 0.11765505373477936, 0.03999999910593033]","[0.0, -0.0, 0.01652463449631145]",0.3345300024965117,-0.05107673638157055,"(0.0, 0.0, 0.0, 0.0, 0.0, 0.0)",-1.3858681390498013,-0.46374147927125847,0.0966179286222168,"(0.0, 0.0, 0.0, 0.0, 0.0, 0.0)",-0.686722886533888,-0.45543789883584357,0.044550328023513504,"(0.0, 0.0, 0.0, 0.0, 0.0, 0.0)",1.4037538855040577,0.4717354782500757,-0.09904262521152137,"(0.0, 0.0, 0.0, 0.0, 0.0, 0.0)",0.6992134223376524,True,"(-0.023537461513739887, 0.19576167565126099, 0.040000393173816616)","(0.999568978235299, -0.029354780939236415, 0.00039317381661698955)",-4.4781226799846777e-05,9.74129219712064,True,"(0.04015362092149772, 0.19490944465803756, 0.039999606826183386)","(-0.9995689782352986, 0.029354780939240745, -0.0003931738166203673)",-0.00018657021332669086,9.75531079739145
70,Move,"(0.00739, 0.0, -0.01186)","(0.0, 0.034222415973104825, 0.0)","(0.008081664947668304, 0.17950358452977858, 0.0009723543077650149)","(1.5706985958890458, -0.0002745558136236738, -0.029993298937499822)","[0.007796721459654325, 0.008218317981421919, -0.0008944232177799867]","[-0.026750000193715096, 0.05299999937415123, 0.03999999910593033]","[0.0, -0.0, 0.33258375255036826]","[-0.050257012248039246, 0.12105453759431839, 0.03999999910593033]","[0.0, 0.0, -0.1292001061767562]","[0.026750000193715096, 0.05299999937415123, 0.03999999910593033]","[0.0, 0.0, -0.45571455016531265]","[0.058437492698431015, 0.11765217036008835, 0.03999999910593033]","[0.0, -0.0, 0.014511821845325196]",0.33211173924991255,-0.11327627597379707,"(0.0, 0.0, 0.0, 0.0, 0.0, 0.0)",-1.6546009293692303,-0.4613467723537984,0.10489533980626886,"(0.0, 0.0, 0.0, 0.0, 0.0, 0.0)",-0.8877053114605351,-0.4558334320957373,-0.028528592388710635,"(0.0, 0.0, 0.0, 0.0, 0.0, 0.0)",0.7629425969348718,0.46992052332964285,-0.07340651817838519,"(0.0, 0.0, 0.0, 0.0, 0.0, 0.0)",0.3816463022532182,True,"(-0.023405636838467563, 0.1958172757579382, 0.04000028930399639)","(0.9995538092715139, -0.029868020925457806, 0.00028930399639328264)",-4.31296592971519e-05,11.705066206516543,True,"(0.040314996217860055, 0.19494169511605103, 0.039999710696003624)","(-0.999553809271514, 0.029868020925454403, -0.00028930399637747253)",-0.00015851552407959143,5.249607377738479
71,Move,"(0.008069999999999999, 0.0, -0.010870000000000001)","(0.0, 0.06820921249719039, 0.0)","(0.00847221109450686, 0.17950836188466815, 0.0009729684843326022)","(1.5706429214496564, -0.0002171712361092361, -0.031165681488474938)","[0.00818726760649288, 0.008223095336311492, -0.0008938090412123995]","[-0.026750000193715096, 0.05299999937415123, 0.03999999910593033]","[0.0, -0.0, 0.32884225089202346]","[-0.05000222474336624, 0.12114201486110687, 0.03999999910593033]","[0.0, 0.0, -0.13069123664371032]","[0.026750000193715096, 0.05299999937415123, 0.03999999910593033]","[0.0, 0.0, -0.4575836264501054]","[0.058558277785778046, 0.11759282648563385, 0.03999999910593033]","[0.0, -0.0, 0.011019504073004557]",0.3280776680326971,-0.1835060213358562,"(0.0, 0.0, 0.0, 0.0, 0.0, 0.0)",-1.520116669182027,-0.4591602091573325,0.08959027482865752,"(0.0, 0.0, 0.0, 0.0, 0.0, 0.0)",-0.8356363370891229,-0.45802493904610386,-0.10591126692227551,"(0.0, 0.0, 0.0, 0.0, 0.0, 0.0)",0.7009279311586395,0.4683150843439331,-0.06913446722000305,"(0.0, 0.0, 0.0, 0.0, 0.0, 0.0)",0.3452981850318896,True,"(-0.02303939078222083, 0.19586494306707541, 0.04000023105624333)","(0.9995180138576938, -0.031043301805440564, 0.00023105624332320316)",-4.2924559229309214e-05,10.841907218713049,True,"(0.04070573580615476, 0.19494285857522653, 0.03999976894375666)","(-0.999518013857694, 0.031043301805432688, -0.0002310562433380499)",-0.00013404705721519833,4.731853871996662
72,Move,"(0.00776, 0.0, -0.00997)","(0.0, 0.053339007270198704, 0.0)","(0.008761928435169965, 0.17950367546520188, 0.0009755451106982325)","(1.5706431362695474, -0.00017280268144793633, -0.03232183165728573)","[0.008476984947155985, 0.008218408916845221, -0.0008912324148467692]","[-0.026750000193715096, 0.05299999937415123, 0.03999999910593033]","[0.0, -0.0, 0.3256745228705901]","[-0.04978625103831291, 0.1212153285741806, 0.03999999910593033]","[0.0, 0.0, -0.13232395420083373]","[0.026750000193715096, 0.05299999937415123, 0.03999999910593033]","[0.0, 0.0, -0.45953042876669314]","[0.05868396535515785, 0.11753078550100327, 0.03999999910593033]","[0.0, -0.0, 0.00792817248704693]",0.32521293915830124,-0.11078307855279797,"(0.0, 0.0, 0.0, 0.0, 0.0, 0.0)",-1.0709503887462406,-0.45777128393511096,0.05452772924070538,"(0.0, 0.0, 0.0, 0.0, 0.0, 0.0)",-0.5985583653860779,-0.45982882640907297,-0.07161907020908855,"(0.0, 0.0, 0.0, 0.0, 0.0, 0.0)",0.31898266715841744,0.46729737136134636,-0.03869149866257326,"(0.0, 0.0, 0.0, 0.0, 0.0, 0.0)",0.1539471320592895,True,"(-0.02270143291764347, 0.19589473819699046, 0.04000018041655205)","(0.9994855225993786, -0.0320726918750946, 0.00018041655205630025)",-4.0336680009496034e-05,7.616840865278032,True,"(0.04107055408587872, 0.19493357089064403, 0.039999819583447935)","(-0.9994855225993788, 0.0320726918750896, -0.00018041655205989614)",-0.00010965678237930557,2.1213848278938645
73,Move,"(0.00698, 0.0, -0.009210000000000001)","(0.0, 0.06820921249719039, 0.0)","(0.00898803164168745, 0.17948874519019525, 0.0009789502121151277)","(1.5706769605687334, -0.00013225163702098048, -0.03383724964491146)","[0.008703088153673471, 0.008203478641838596, -0.000887827313429874]","[-0.026750000193715096, 0.05299999937415123, 0.03999999910593033]","[0.0, -0.0, 0.32336412849868756]","[-0.04962858557701111, 0.1212683692574501, 0.03999999910593033]","[0.0, 0.0, -0.13356140125239488]","[0.026750000193715096, 0.05299999937415123, 0.03999999910593033]","[0.0, 0.0, -0.4610969388517325]","[0.05878501385450363, 0.11748068034648895, 0.03999999910593033]","[0.0, -0.0, 0.0056088896497669665]",0.3229785332604189,-0.09255041969845476,"(0.0, 0.0, 0.0, 0.0, 0.0, 0.0)",-0.8995036902821604,-0.4567497063938114,0.042205829527574464,"(0.0, 0.0, 0.0, 0.0, 0.0, 0.0)",-0.5073419134999924,-0.46136583609645637,-0.06454198189338425,"(0.0, 0.0, 0.0, 0.0, 0.0, 0.0)",0.18126773844878816,0.4665850021366379,-0.028991704242641313,"(0.0, 0.0, 0.0, 0.0, 0.0, 0.0)",0.08577565201012802,True,"(-0.022451385105279043, 0.19591395665559497, 0.04000014002502178)","(0.9994367668788047, -0.03355785159743307, 0.00014002502177607763)",-3.1720187914941e-05,6.396738855281361,True,"(0.04135114000830235, 0.194923276677954, 0.039999859974978215)","(-0.9994367668788048, 0.033557851597425026, -0.00014002502177983456)",-8.844371896889227e-05,1.1774244063759107
