OSUrobotics/InHand-Manipulation/AnalyseData/Data/new_hand_human_filt_josh_2v2_f_none_1_kpNone_kdNone_dp1_step1_save_data.csv
,Phase,human_cube_pos,human_cube_orn,Cube_Pos,Cube_Orn,Cube_pos_in_start_pos,b'l_prox_pin'_link_pos,b'l_prox_pin'_link_orn,b'l_distal_pin'_link_pos,b'l_distal_pin'_link_orn,b'r_prox_pin'_link_pos,b'r_prox_pin'_link_orn,b'r_distal_pin'_link_pos,b'r_distal_pin'_link_orn,b'l_prox_pin'_joint_angle,b'l_prox_pin'_joint_vel,b'l_prox_pin'_joint_react_forces,b'l_prox_pin'_joint_motor_torque,b'l_distal_pin'_joint_angle,b'l_distal_pin'_joint_vel,b'l_distal_pin'_joint_react_forces,b'l_distal_pin'_joint_motor_torque,b'r_prox_pin'_joint_angle,b'r_prox_pin'_joint_vel,b'r_prox_pin'_joint_react_forces,b'r_prox_pin'_joint_motor_torque,b'r_distal_pin'_joint_angle,b'r_distal_pin'_joint_vel,b'r_distal_pin'_joint_react_forces,b'r_distal_pin'_joint_motor_torque,in_contact_l,contact_point_l_dist,contact_normal_l_dist,contact_distance_l_dist,contact_norm_force_l_dist,in_contact_r,contact_point_r_dist,contact_normal_r_dist,contact_distance_r_dist,contact_norm_force_r_dist
0,Open,,,,,,"[-0.026750000193715096, 0.05299999937415123, 0.03999999910593033]","[0.0, -0.0, 0.0]","[-0.026750000193715096, 0.125, 0.03999999910593033]","[0.0, -0.0, 0.0]","[0.026750000193715096, 0.05299999937415123, 0.03999999910593033]","[0.0, -0.0, 0.0]","[0.026750000193715096, 0.125, 0.03999999910593033]","[0.0, -0.0, 0.0]",0.0028636982559538428,0.6872875814289223,"(0.0, 0.0, 0.0, 0.0, 0.0, 0.0)",-74.42376671286476,0.025717978913313098,6.172314939195144,"(0.0, 0.0, 0.0, 0.0, 0.0, 0.0)",-28.347758017338414,-0.0028861714462846827,-0.6926811471083238,"(0.0, 0.0, 0.0, 0.0, 0.0, 0.0)",77.31812537484876,-0.025998027583603027,-6.239526620064726,"(0.0, 0.0, 0.0, 0.0, 0.0, 0.0)",29.325432325549183,False,,,,,False,,,,
1,Open,,,,,,"[-0.026750000193715096, 0.05299999937415123, 0.03999999910593033]","[0.0, -0.0, 0.0028636982488144678]","[-0.026956185698509216, 0.12499970197677612, 0.03999999910593033]","[0.0, -0.0, 0.028581675581217755]","[0.026750000193715096, 0.05299999937415123, 0.03999999910593033]","[0.0, 0.0, -0.0028861714423951343]","[0.026957804337143898, 0.12499970197677612, 0.03999999910593033]","[0.0, 0.0, -0.028884201286240394]",0.1595773284303585,37.61127124185712,"(0.0, 0.0, 0.0, 0.0, 0.0, 0.0)",53.472225824972774,0.02314589095046895,-0.6173011110825959,"(0.0, 0.0, 0.0, 0.0, 0.0, 0.0)",3.3014509125464437,-0.15959755430165623,-37.61073188528917,"(0.0, 0.0, 0.0, 0.0, 0.0, 0.0)",-53.45543824447724,-0.023397935520559333,0.6240220951304867,"(0.0, 0.0, 0.0, 0.0, 0.0, 0.0)",-3.2927232380167535,False,,,,,False,,,,
2,Open,,,,,,"[-0.026750000193715096, 0.05299999937415123, 0.03999999910593033]","[0.0, -0.0, 0.15957730699277592]","[-0.03819086775183678, 0.1240852028131485, 0.03999999910593033]","[0.0, -0.0, 0.1827232399786182]","[0.026750000193715096, 0.05299999937415123, 0.03999999910593033]","[0.0, 0.0, -0.15959754249378824]","[0.03819230571389198, 0.12408497184515, 0.03999999910593033]","[0.0, 0.0, -0.1829954723320542]",0.30061959558732265,33.8501441176714,"(0.0, 0.0, 0.0, 0.0, 0.0, 0.0)",-5.433290843096747,0.020831748867960086,-0.555394099802127,"(0.0, 0.0, 0.0, 0.0, 0.0, 0.0)",-0.37949999689540415,-0.30063779887149056,-33.849658696760244,"(0.0, 0.0, 0.0, 0.0, 0.0, 0.0)",5.433149501288634,-0.02105858889910766,0.5614431891484022,"(0.0, 0.0, 0.0, 0.0, 0.0, 0.0)",0.37943043762158307,False,,,,,False,,,,
3,Open,,,,,,"[-0.026750000193715096, 0.05299999937415123, 0.03999999910593033]","[0.0, -0.0, 0.30061964608852465]","[-0.048070069402456284, 0.12177103012800217, 0.03999999910593033]","[0.0, -0.0, 0.3214513597309629]","[0.026750000193715096, 0.05299999937415123, 0.03999999910593033]","[0.0, 0.0, -0.30063782483534385]","[0.04807132109999657, 0.12177064269781113, 0.03999999910593033]","[0.0, 0.0, -0.32169639446592324]",0.4275576360285904,30.465129705904268,"(0.0, 0.0, 0.0, 0.0, 0.0, 0.0)",-4.896562760502833,0.018748978964657985,-0.49986477679250463,"(0.0, 0.0, 0.0, 0.0, 0.0, 0.0)",-0.3438186216350169,-0.4275740189843415,-30.464692827084228,"(0.0, 0.0, 0.0, 0.0, 0.0, 0.0)",4.8964345239877005,-0.018953134917884834,0.505308955493478,"(0.0, 0.0, 0.0, 0.0, 0.0, 0.0)",0.34375511365495653,False,,,,,False,,,,
4,Open,,,,,,"[-0.026750000193715096, 0.05299999937415123, 0.03999999910593033]","[0.0, -0.0, 0.42755761853039154]","[-0.056604765355587006, 0.1185186430811882, 0.03999999910593033]","[0.0, -0.0, 0.4463066270391506]","[0.026750000193715096, 0.05299999937415123, 0.03999999910593033]","[0.0, 0.0, -0.42757404208311445]","[0.05660583823919296, 0.1185181587934494, 0.03999999910593033]","[0.0, 0.0, -0.4465272228574986]",0.5418018724257314,27.418616735313837,"(0.0, 0.0, 0.0, 0.0, 0.0, 0.0)",-4.412236817968903,0.016874447698417276,-0.44988750389777044,"(0.0, 0.0, 0.0, 0.0, 0.0, 0.0)",-0.3112578673856835,-0.5418166170859073,-27.418223544375806,"(0.0, 0.0, 0.0, 0.0, 0.0, 0.0)",4.412120589674461,-0.017058187988154127,0.4547872631353701,"(0.0, 0.0, 0.0, 0.0, 0.0, 0.0)",0.31119999541872967,False,,,,,False,,,,
5,Open,,,,,,"[-0.026750000193715096, 0.05299999937415123, 0.03999999910593033]","[0.0, -0.0, 0.5418019400761332]","[-0.06387900561094284, 0.11468822509050369, 0.03999999910593033]","[0.0, -0.0, 0.5586763123738882]","[0.026750000193715096, 0.05299999937415123, 0.03999999910593033]","[0.0, 0.0, -0.5418166677071254]","[0.06387991458177567, 0.11468767374753952, 0.03999999910593033]","[0.0, 0.0, -0.5588748551425957]",0.6446216851831583,24.67675506178245,"(0.0, 0.0, 0.0, 0.0, 0.0, 0.0)",-3.975330693632137,0.015187334633278446,-0.4049071356333192,"(0.0, 0.0, 0.0, 0.0, 0.0, 0.0)",-0.2816071653694913,-0.6446349553773166,-24.67640118993823,"(0.0, 0.0, 0.0, 0.0, 0.0, 0.0)",3.975225427671302,-0.01535270083200906,0.409316917474816,"(0.0, 0.0, 0.0, 0.0, 0.0, 0.0)",0.28155450162657786,False,,,,,False,,,,
6,Open,,,,,,"[-0.026750000193715096, 0.05299999937415123, 0.03999999910593033]","[0.0, -0.0, 0.6446216983098856]","[-0.07001452147960663, 0.11055155843496323, 0.03999999910593033]","[0.0, -0.0, 0.6598089287160823]","[0.026750000193715096, 0.05299999937415123, 0.03999999910593033]","[0.0, 0.0, -0.644634967879878]","[0.07001528143882751, 0.11055097728967667, 0.03999999910593033]","[0.0, 0.0, -0.6599877329949964]",0.7371595166648425,22.209079555604205,"(0.0, 0.0, 0.0, 0.0, 0.0, 0.0)",-3.5812948349547464,0.013668901111545678,-0.3644240452158641,"(0.0, 0.0, 0.0, 0.0, 0.0, 0.0)",-0.25464125660078457,-0.737171459839585,-22.20876107094441,"(0.0, 0.0, 0.0, 0.0, 0.0, 0.0)",3.5811995605906057,-0.01381773063402154,0.3683928475170044,"(0.0, 0.0, 0.0, 0.0, 0.0, 0.0)",0.2545933902665499,False,,,,,False,,,,
7,Open,,,,,,"[-0.026750000193715096, 0.05299999937415123, 0.03999999910593033]","[0.0, -0.0, 0.7371595400859692]","[-0.07514750957489014, 0.10630742460489273, 0.03999999910593033]","[0.0, -0.0, 0.7508283868993905]","[0.026750000193715096, 0.05299999937415123, 0.03999999910593033]","[0.0, 0.0, -0.7371714711336782]","[0.07514814287424088, 0.10630684345960617, 0.03999999910593033]","[0.0, 0.0, -0.750989167509555]",0.8204435649983582,19.988171600043785,"(0.0, 0.0, 0.0, 0.0, 0.0, 0.0)",-3.2259980823944012,0.01230228208777883,-0.32798856570404317,"(0.0, 0.0, 0.0, 0.0, 0.0, 0.0)",-0.23014491551259536,-0.8204543138556265,-19.987884963849964,"(0.0, 0.0, 0.0, 0.0, 0.0, 0.0)",3.225911902119173,-0.012436228606816148,0.33156048652929415,"(0.0, 0.0, 0.0, 0.0, 0.0, 0.0)",0.23010145595163894,False,,,,,False,,,,
8,Open,,,,,,"[-0.026750000193715096, 0.05299999937415123, 0.03999999910593033]","[0.0, -0.0, 0.8204435774406766]","[-0.07941428571939468, 0.1020965725183487, 0.03999999910593033]","[0.0, -0.0, 0.8327459142786269]","[0.026750000193715096, 0.05299999937415123, 0.03999999910593033]","[0.0, 0.0, -0.8204543695347751]","[0.07941480726003647, 0.10209600627422333, 0.03999999910593033]","[0.0, 0.0, -0.8328905496331522]",0.8953992084985224,17.9893544400394,"(0.0, 0.0, 0.0, 0.0, 0.0, 0.0)",-2.905692777507757,0.011072298781000885,-0.2951959936267068,"(0.0, 0.0, 0.0, 0.0, 0.0, 0.0)",-0.20791432075989408,-0.8954088824700639,-17.989096467464968,"(0.0, 0.0, 0.0, 0.0, 0.0, 0.0)",2.9056148642503405,-0.011192850601700187,0.29841072122783063,"(0.0, 0.0, 0.0, 0.0, 0.0, 0.0)",0.20787489947010138,False,,,,,False,,,,
9,Open,,,,,,"[-0.026750000193715096, 0.05299999937415123, 0.03999999910593033]","[0.0, -0.0, 0.8953992050914552]","[-0.08294302970170975, 0.09801492840051651, 0.03999999910593033]","[0.0, -0.0, 0.9064715399310761]","[0.026750000193715096, 0.05299999937415123, 0.03999999910593033]","[0.0, 0.0, -0.8954089117450801]","[0.08294346183538437, 0.09801438450813293, 0.03999999910593033]","[0.0, 0.0, -0.9066016844299951]",0.9628592876486701,16.190418996035465,"(0.0, 0.0, 0.0, 0.0, 0.0, 0.0)",-2.616982039675733,0.009965290062605858,-0.26568209241480656,"(0.0, 0.0, 0.0, 0.0, 0.0, 0.0)",-0.18775783729375353,-0.9628679942230576,-16.190186820718473,"(0.0, 0.0, 0.0, 0.0, 0.0, 0.0)",2.6169116334278195,-0.010073786659150813,0.26857534621184953,"(0.0, 0.0, 0.0, 0.0, 0.0, 0.0)",0.187722108909745,False,,,,,False,,,,
10,Open,,,,,,"[-0.026750000193715096, 0.05299999937415123, 0.03999999910593033]","[0.0, -0.0, 0.9628592963772022]","[-0.08584962040185928, 0.09412462264299393, 0.03999999910593033]","[0.0, -0.0, 0.9728246761305416]","[0.026750000193715096, 0.05299999937415123, 0.03999999910593033]","[0.0, 0.0, -0.9628681466677605]","[0.08584997802972794, 0.09412410855293274, 0.03999999910593033]","[0.0, 0.0, -0.9729417790417357]",1.0235733588838032,14.57137709643192,"(0.0, 0.0, 0.0, 0.0, 0.0, 0.0)",-2.356789246056587,0.008968960705874744,-0.23911904561546746,"(0.0, 0.0, 0.0, 0.0, 0.0, 0.0)",-0.16949635495257384,-1.0235811948007518,-14.571168138646623,"(0.0, 0.0, 0.0, 0.0, 0.0, 0.0)",2.3567256501387286,-0.009066607604651448,0.24172297307984775,"(0.0, 0.0, 0.0, 0.0, 0.0, 0.0)",0.16946399753760524,False,,,,,False,,,,
11,Open,,,,,,"[-0.026750000193715096, 0.05299999937415123, 0.03999999910593033]","[0.0, -0.0, 1.0235732790301837]","[-0.08823604136705399, 0.09046287834644318, 0.03999999910593033]","[0.0, -0.0, 1.0325423083164225]","[0.026750000193715096, 0.05299999937415123, 0.03999999910593033]","[0.0, 0.0, -1.0235812274279317]","[0.08823633193969727, 0.09046239405870438, 0.03999999910593033]","[0.0, 0.0, -1.0326479037372749]",1.078216022995423,13.114239386788727,"(0.0, 0.0, 0.0, 0.0, 0.0, 0.0)",-2.1223296975724493,0.008072244810550301,-0.215211814877866,"(0.0, 0.0, 0.0, 0.0, 0.0, 0.0)",-0.1529632973210469,-1.0782230753206767,-13.114051324781958,"(0.0, 0.0, 0.0, 0.0, 0.0, 0.0)",2.122272274708909,-0.008160126984954354,0.21755534872730237,"(0.0, 0.0, 0.0, 0.0, 0.0, 0.0)",0.15293401213466845,False,,,,,False,,,,
12,Open,,,,,,"[-0.026750000193715096, 0.05299999937415123, 0.03999999910593033]","[0.0, -0.0, 1.078215882979514]","[-0.09019032120704651, 0.08704887330532074, 0.03999999910593033]","[0.0, -0.0, 1.0862882926740116]","[0.026750000193715096, 0.05299999937415123, 0.03999999910593033]","[0.0, 0.0, -1.078222977413882]","[0.09019055962562561, 0.08704842627048492, 0.03999999910593033]","[0.0, 0.0, -1.0863833790205233]",1.1273944206958806,11.802815448109852,"(0.0, 0.0, 0.0, 0.0, 0.0, 0.0)",-1.9110844168611731,0.007265182884681461,-0.19369486220852175,"(0.0, 0.0, 0.0, 0.0, 0.0, 0.0)",-0.13800439004610457,-1.127400767788609,-11.802646192303762,"(0.0, 0.0, 0.0, 0.0, 0.0, 0.0)",1.9110325851897776,-0.007344276810443619,0.19580404188257655,"(0.0, 0.0, 0.0, 0.0, 0.0, 0.0)",0.13797790093405082,False,,,,,False,,,,
13,Open,,,,,,"[-0.026750000193715096, 0.05299999937415123, 0.03999999910593033]","[0.0, -0.0, 1.1273943743462997]","[-0.0917874127626419, 0.08388907462358475, 0.03999999910593033]","[0.0, -0.0, 1.1346596248576977]","[0.026750000193715096, 0.05299999937415123, 0.03999999910593033]","[0.0, 0.0, -1.127400718904607]","[0.09178761392831802, 0.08388865739107132, 0.03999999910593033]","[0.0, 0.0, -1.134745111288055]",1.1716549786262926,10.622533903298867,"(0.0, 0.0, 0.0, 0.0, 0.0, 0.0)",-1.7207759982695574,0.00653881121780902,-0.17432920004938585,"(0.0, 0.0, 0.0, 0.0, 0.0, 0.0)",-0.12447725819906867,-1.1716606910097482,-10.622381573073383,"(0.0, 0.0, 0.0, 0.0, 0.0, 0.0)",1.7207292273800263,-0.006609995722787257,0.17622746103752684,"(0.0, 0.0, 0.0, 0.0, 0.0, 0.0)",0.12445331071934837,False,,,,,False,,,,
14,Open,,,,,,"[-0.026750000193715096, 0.05299999937415123, 0.03999999910593033]","[0.0, -0.0, 1.17165497759142]","[-0.09309044480323792, 0.08098116517066956, 0.03999999910593033]","[0.0, -0.0, 1.1781937273122836]","[0.026750000193715096, 0.05299999937415123, 0.03999999910593033]","[0.0, 0.0, -1.1716605985979762]","[0.09309060126543045, 0.08098078519105911, 0.03999999910593033]","[0.0, 0.0, -1.178270796658152]",1.2114894807636634,9.56028051296898,"(0.0, 0.0, 0.0, 0.0, 0.0, 0.0)",-1.549346412635057,0.005885062316220725,-0.15689973638119079,"(0.0, 0.0, 0.0, 0.0, 0.0, 0.0)",-0.11225090666269867,-1.2114946219087734,-9.560143415766044,"(0.0, 0.0, 0.0, 0.0, 0.0, 0.0)",1.5493042197033076,-0.00594912834521185,0.1586081706180975,"(0.0, 0.0, 0.0, 0.0, 0.0, 0.0)",0.11222926703597672,False,,,,,False,,,,
15,Open,,,,,,"[-0.026750000193715096, 0.05299999937415123, 0.03999999910593033]","[0.0, -0.0, 1.2114893406881728]","[-0.09415213763713837, 0.07831703126430511, 0.03999999910593033]","[0.0, -0.0, 1.2173745989650702]","[0.026750000193715096, 0.05299999937415123, 0.03999999910593033]","[0.0, 0.0, -1.2114945655338818]","[0.09415226429700851, 0.07831668108701706, 0.03999999910593033]","[0.0, 0.0, -1.2174436451143456]",1.247340532687297,8.604252461672083,"(0.0, 0.0, 0.0, 0.0, 0.0, 0.0)",-1.3949366588174594,0.00529667529397997,-0.14121288533778104,"(0.0, 0.0, 0.0, 0.0, 0.0, 0.0)",-0.1012051251161189,-1.2473451597178962,-8.604129074189437,"(0.0, 0.0, 0.0, 0.0, 0.0, 0.0)",1.394898604883462,-0.005354334697048719,0.1427504755591516,"(0.0, 0.0, 0.0, 0.0, 0.0, 0.0)",0.1011855790679586,False,,,,,False,,,,
16,Open,,,,,,"[-0.026750000193715096, 0.05299999937415123, 0.03999999910593033]","[0.0, -0.0, 1.2473405247091465]","[-0.09501627087593079, 0.07588484138250351, 0.03999999910593033]","[0.0, -0.0, 1.2526371614229614]","[0.026750000193715096, 0.05299999937415123, 0.03999999910593033]","[0.0, 0.0, -1.2473450561350814]","[0.09501637518405914, 0.07588452845811844, 0.03999999910593033]","[0.0, 0.0, -1.252699591080442]",1.2796064794185673,7.743827215504874,"(0.0, 0.0, 0.0, 0.0, 0.0, 0.0)",-1.2558681481324276,0.004767115224099335,-0.12709441677135241,"(0.0, 0.0, 0.0, 0.0, 0.0, 0.0)",-0.09122984935698081,-1.2796106437461066,-7.743716166770495,"(0.0, 0.0, 0.0, 0.0, 0.0, 0.0)",1.2558338345532607,-0.004819008666073119,0.128478247434144,"(0.0, 0.0, 0.0, 0.0, 0.0, 0.0)",0.09121220090323832,False,,,,,False,,,,
17,Open,,,,,,"[-0.026750000193715096, 0.05299999937415123, 0.03999999910593033]","[0.0, -0.0, 1.279606409124563]","[-0.09571900963783264, 0.0736706405878067, 0.03999999910593033]","[0.0, -0.0, 1.2843736758198352]","[0.026750000193715096, 0.05299999937415123, 0.03999999910593033]","[0.0, 0.0, -1.2796106525936015]","[0.0957190990447998, 0.07367035001516342, 0.03999999910593033]","[0.0, 0.0, -1.2844295613342638]",1.3086458314767107,6.969444493954387,"(0.0, 0.0, 0.0, 0.0, 0.0, 0.0)",-1.1305941221975622,0.00429170208951155,-0.1140991523010686,"(0.0, 0.0, 0.0, 0.0, 0.0, 0.0)",-0.082192919359827,-1.3086495793714958,-6.969344550093446,"(0.0, 0.0, 0.0, 0.0, 0.0, 0.0)",1.1305631934145834,-0.004338405935744441,0.11534465527888274,"(0.0, 0.0, 0.0, 0.0, 0.0, 0.0)",0.08217699569254354,False,,,,,False,,,,
18,Open,,,,,,"[-0.026750000193715096, 0.05299999937415123, 0.03999999910593033]","[0.0, -0.0, 1.308645825919811]","[-0.09629011154174805, 0.0716593861579895, 0.03999999910593033]","[0.0, -0.0, 1.3129373548657892]","[0.026750000193715096, 0.05299999937415123, 0.03999999910593033]","[0.0, 0.0, -1.308649569130343]","[0.09629017859697342, 0.07165912538766861, 0.03999999910593033]","[0.0, 0.0, -1.3129881167123505]",1.3347812483290395,6.272500044558946,"(0.0, 0.0, 0.0, 0.0, 0.0, 0.0)",-1.0178482622338179,0.003863702481573626,-0.10271990590510163,"(0.0, 0.0, 0.0, 0.0, 0.0, 0.0)",-0.07410352518858664,-1.3347846214343462,-6.272410095084102,"(0.0, 0.0, 0.0, 0.0, 0.0, 0.0)",1.0178203769740246,-0.0039057357160976183,0.10384085271523745,"(0.0, 0.0, 0.0, 0.0, 0.0, 0.0)",0.0740891498002037,False,,,,,False,,,,
19,Open,,,,,,"[-0.026750000193715096, 0.05299999937415123, 0.03999999910593033]","[0.0, -0.0, 1.3347813147466918]","[-0.09675397723913193, 0.06983575969934464, 0.03999999910593033]","[0.0, -0.0, 1.3386449621367835]","[0.026750000193715096, 0.05299999937415123, 0.03999999910593033]","[0.0, 0.0, -1.3347844615433213]","[0.0967540368437767, 0.06983552873134613, 0.03999999910593033]","[0.0, 0.0, -1.3386905382854437]",1.3583031234961356,5.645250040103052,"(0.0, 0.0, 0.0, 0.0, 0.0, 0.0)",-0.9162890978823036,0.0034783869891320215,-0.09247571818598516,"(0.0, 0.0, 0.0, 0.0, 0.0, 0.0)",-0.06677007440367574,-1.3583061592909116,-5.645169085575695,"(0.0, 0.0, 0.0, 0.0, 0.0, 0.0)",0.9162639666346021,-0.003516216695348753,0.09348456497972772,"(0.0, 0.0, 0.0, 0.0, 0.0, 0.0)",0.06675710630673855,False,,,,,False,,,,
20,Open,,,,,,"[-0.026750000193715096, 0.05299999937415123, 0.03999999910593033]","[0.0, -0.0, 1.3583030429358363]","[-0.09713058918714523, 0.06818463653326035, 0.03999999910593033]","[0.0, -0.0, 1.3617816714487538]","[0.026750000193715096, 0.05299999937415123, 0.03999999910593033]","[0.0, 0.0, -1.358306171033049]","[0.09713063389062881, 0.06818442046642303, 0.03999999910593033]","[0.0, 0.0, -1.361822351334537]",1.379472811146522,5.0807250360927485,"(0.0, 0.0, 0.0, 0.0, 0.0, 0.0)",-0.8248429295126702,0.003131498553648039,-0.08325322451615583,"(0.0, 0.0, 0.0, 0.0, 0.0, 0.0)",-0.06015531267018523,-1.3794755433618204,-5.080652177018124,"(0.0, 0.0, 0.0, 0.0, 0.0, 0.0)",0.8248202834423316,-0.003165545104486833,0.08416118180686077,"(0.0, 0.0, 0.0, 0.0, 0.0, 0.0)",0.06014361689139186,False,,,,,False,,,,
21,Open,,,,,,"[-0.026750000193715096, 0.05299999937415123, 0.03999999910593033]","[0.0, -0.0, 1.3794728975130914]","[-0.09743624925613403, 0.06669140607118607, 0.03999999910593033]","[0.0, -0.0, 1.382604304378769]","[0.026750000193715096, 0.05299999937415123, 0.03999999910593033]","[0.0, 0.0, -1.379475506721758]","[0.09743628650903702, 0.06669121235609055, 0.03999999910593033]","[0.0, 0.0, -1.3826409668082853]",1.3985255300318697,4.572652532483473,"(0.0, 0.0, 0.0, 0.0, 0.0, 0.0)",-0.7425066286387145,0.0028192047313806493,-0.07495051734417352,"(0.0, 0.0, 0.0, 0.0, 0.0, 0.0)",-0.054190171953983096,-1.3985279890256384,-4.57258695931631,"(0.0, 0.0, 0.0, 0.0, 0.0, 0.0)",0.7424862245436853,-0.0028498464605416357,0.07576767454684734,"(0.0, 0.0, 0.0, 0.0, 0.0, 0.0)",0.0541796259205944,False,,,,,False,,,,
22,Open,,,,,,"[-0.026750000193715096, 0.05299999937415123, 0.03999999910593033]","[0.0, -0.0, 1.398525454133583]","[-0.09768425673246384, 0.0653422400355339, 0.03999999910593033]","[0.0, -0.0, 1.4013447262228373]","[0.026750000193715096, 0.05299999937415123, 0.03999999910593033]","[0.0, 0.0, -1.3985280648022782]","[0.09768428653478622, 0.06534206122159958, 0.03999999910593033]","[0.0, 0.0, -1.4013779844801912]",1.4156729770286829,4.1153872792351285,"(0.0, 0.0, 0.0, 0.0, 0.0, 0.0)",-0.6683758137814145,0.002538055332395241,-0.06747585575649792,"(0.0, 0.0, 0.0, 0.0, 0.0, 0.0)",-0.04881194552870251,-1.4156751901230746,-4.115328263384682,"(0.0, 0.0, 0.0, 0.0, 0.0, 0.0)",0.6683574317692884,-0.002565632738451909,0.06821129330153437,"(0.0, 0.0, 0.0, 0.0, 0.0, 0.0)",0.0488024380394442,False,,,,,False,,,,
23,Open,,,,,,"[-0.026750000193715096, 0.05299999937415123, 0.03999999910593033]","[0.0, -0.0, 1.4156730334745993]","[-0.09788545966148376, 0.06412414461374283, 0.03999999910593033]","[0.0, -0.0, 1.418211036917125]","[0.026750000193715096, 0.05299999937415123, 0.03999999910593033]","[0.0, 0.0, -1.4156752315845986]","[0.09788548201322556, 0.0641239807009697, 0.03999999910593033]","[0.0, 0.0, -1.418240879504808]",1.4311056793258146,3.703848551311612,"(0.0, 0.0, 0.0, 0.0, 0.0, 0.0)",-0.6016352863054336,0.002284944287465684,-0.060746650783093666,"(0.0, 0.0, 0.0, 0.0, 0.0, 0.0)",-0.04396376851645251,-1.431107671110767,-3.7037954370462103,"(0.0, 0.0, 0.0, 0.0, 0.0, 0.0)",0.6016187276545472,-0.0023097638175418747,0.061408541018408244,"(0.0, 0.0, 0.0, 0.0, 0.0, 0.0)",0.043955198772734246,False,,,,,False,,,,
24,Open,,,,,,"[-0.026750000193715096, 0.05299999937415123, 0.03999999910593033]","[0.0, -0.0, 1.4311058207082674]","[-0.09804865717887878, 0.06302504986524582, 0.03999999910593033]","[0.0, -0.0, 1.433390691262394]","[0.026750000193715096, 0.05299999937415123, 0.03999999910593033]","[0.0, 0.0, -1.4311075924426346]","[0.09804867953062057, 0.06302490830421448, 0.03999999910593033]","[0.0, 0.0, -1.433417470845748]",1.4449951113932331,3.333463696180452,"(0.0, 0.0, 0.0, 0.0, 0.0, 0.0)",-0.5415503506795546,0.0020570753203455715,-0.05468855210882702,"(0.0, 0.0, 0.0, 0.0, 0.0, 0.0)",-0.039594115216637325,-1.4449969039996904,-3.3334158933415914,"(0.0, 0.0, 0.0, 0.0, 0.0, 0.0)",0.541535435877482,-0.002079412775410495,0.055284250111531166,"(0.0, 0.0, 0.0, 0.0, 0.0, 0.0)",0.03958639191865308,False,,,,,False,,,,
25,Open,,,,,,"[-0.026750000193715096, 0.05299999937415123, 0.03999999910593033]","[0.0, -0.0, 1.444995076522675]","[-0.09818101674318314, 0.062033817172050476, 0.03999999910593033]","[0.0, -0.0, 1.4470522962768402]","[0.026750000193715096, 0.05299999937415123, 0.03999999910593033]","[0.0, 0.0, -1.4449971061677662]","[0.09818103164434433, 0.06203368678689003, 0.03999999910593033]","[0.0, 0.0, -1.4470761943538692]",1.45749560025391,3.0001173265624064,"(0.0, 0.0, 0.0, 0.0, 0.0, 0.0)",-0.4874589573784058,0.001851931045420989,-0.04923462598189979,"(0.0, 0.0, 0.0, 0.0, 0.0, 0.0)",-0.03565633120497695,-1.4574972135997213,-3.000074304007432,"(0.0, 0.0, 0.0, 0.0, 0.0, 0.0)",0.4874455243270462,-0.0018720346450414762,0.04977075128856451,"(0.0, 0.0, 0.0, 0.0, 0.0, 0.0)",0.03564937171228022,False,,,,,False,,,,
26,Open,,,,,,"[-0.026750000193715096, 0.05299999937415123, 0.03999999910593033]","[0.0, -0.0, 1.4574954921785264]","[-0.09828835725784302, 0.061140209436416626, 0.03999999910593033]","[0.0, -0.0, 1.4593474823067423]","[0.026750000193715096, 0.05299999937415123, 0.03999999910593033]","[0.0, 0.0, -1.4574971848934346]","[0.09828837215900421, 0.061140093952417374, 0.03999999910593033]","[0.0, 0.0, -1.4593694397653831]",1.4687460402285188,2.700105593906164,"(0.0, 0.0, 0.0, 0.0, 0.0, 0.0)",-0.4387645947805427,0.0016672451487475934,-0.044324615201614966,"(0.0, 0.0, 0.0, 0.0, 0.0, 0.0)",-0.032108199676446195,-1.4687474922397492,-2.70006687360669,"(0.0, 0.0, 0.0, 0.0, 0.0, 0.0)",0.4387524971567325,-0.0016853382893528596,0.04480712536526797,"(0.0, 0.0, 0.0, 0.0, 0.0, 0.0)",0.03210192923147444,False,,,,,False,,,,
27,Open,,,,,,"[-0.026750000193715096, 0.05299999937415123, 0.03999999910593033]","[0.0, -0.0, 1.4687462228928074]","[-0.09837540984153748, 0.06033487245440483, 0.03999999910593033]","[0.0, -0.0, 1.4704133245237396]","[0.026750000193715096, 0.05299999937415123, 0.03999999910593033]","[0.0, 0.0, -1.4687474899518769]","[0.09837542474269867, 0.060334768146276474, 0.03999999910593033]","[0.0, 0.0, -1.4704329951986796]",1.478871436205667,2.430095034515549,"(0.0, 0.0, 0.0, 0.0, 0.0, 0.0)",-0.394929862139441,0.0015009773446580906,-0.03990427298148066,"(0.0, 0.0, 0.0, 0.0, 0.0, 0.0)",-0.028911540991871522,-1.4788727430157742,-2.430060186246021,"(0.0, 0.0, 0.0, 0.0, 0.0, 0.0)",0.39491896790015035,-0.001517261081966714,0.04033852977267494,"(0.0, 0.0, 0.0, 0.0, 0.0, 0.0)",0.02890589200411927,False,,,,,False,,,,
28,Open,,,,,,"[-0.026750000193715096, 0.05299999937415123, 0.03999999910593033]","[0.0, -0.0, 1.4788714352834713]","[-0.09844600409269333, 0.05960927531123161, 0.03999999910593033]","[0.0, -0.0, 1.480372508787761]","[0.026750000193715096, 0.05299999937415123, 0.03999999910593033]","[0.0, 0.0, -1.4788727099725336]","[0.09844601899385452, 0.05960918217897415, 0.03999999910593033]","[0.0, 0.0, -1.4803900544382056]",1.4879842925851003,2.1870855310639947,"(0.0, 0.0, 0.0, 0.0, 0.0, 0.0)",-0.3554706611703565,0.001351290830885638,-0.035924763305388616,"(0.0, 0.0, 0.0, 0.0, 0.0, 0.0)",-0.026031844038894282,-1.487985468714197,-2.1870541676214206,"(0.0, 0.0, 0.0, 0.0, 0.0, 0.0)",0.3554608511915877,-0.001365946114079445,0.03631559229294455,"(0.0, 0.0, 0.0, 0.0, 0.0, 0.0)",0.026026755426892093,False,,,,,False,,,,
29,Close,,,"(3.819349109750643e-09, 0.16999994350316286, 7.914305593764796e-05)","(1.5700606283751846, 1.2357610516186277e-06, -4.058049624060407e-09)",,"[-0.026750000193715096, 0.05299999937415123, 0.03999999910593033]","[0.0, -0.0, 1.4879842849605203]","[-0.09850326180458069, 0.05895565450191498, 0.03999999910593033]","[0.0, -0.0, 1.4893357278409396]","[0.026750000193715096, 0.05299999937415123, 0.03999999910593033]","[0.0, 0.0, -1.4879853833286059]","[0.09850326925516129, 0.05895556882023811, 0.03999999910593033]","[0.0, 0.0, -1.4893513332680077]",1.4961858633265903,1.9683769779575933,"(0.0, 0.0, 0.0, 0.0, 0.0, 0.0)",-0.31995094896823073,0.0012165319928285922,-0.03234212113369103,"(0.0, 0.0, 0.0, 0.0, 0.0, 0.0)",-0.02343792779000599,-1.4961869218427772,-1.9683487508592754,"(0.0, 0.0, 0.0, 0.0, 0.0, 0.0)",0.31994211580738524,-0.0012297216752996233,0.03269386530715718,"(0.0, 0.0, 0.0, 0.0, 0.0, 0.0)",0.02343334437795369,False,,,,,False,,,,
30,Close,,,"(1.09441459674075e-09, 0.16999988769159868, 0.0001519632082907279)","(1.5701173533571526, -2.5467641220651055e-06, -4.573996600559749e-08)",,"[-0.026750000193715096, 0.05299999937415123, 0.03999999910593033]","[0.0, -0.0, 1.4961860174198076]","[-0.09854969382286072, 0.05836696922779083, 0.03999999910593033]","[0.0, -0.0, 1.4974025341106605]","[0.026750000193715096, 0.05299999937415123, 0.03999999910593033]","[0.0, 0.0, -1.4961870219527165]","[0.09854969382286072, 0.05836689472198486, 0.03999999910593033]","[0.0, 0.0, -1.4974167044724178]",1.4065672769939312,-21.50846071983817,"(0.0, 0.0, 0.0, 0.0, 0.0, 0.0)",-36.83524610171859,-0.08890468746940376,-21.629092670935766,"(0.0, 0.0, 0.0, 0.0, 0.0, 0.0)",-4.936581214831643,-1.4065682296584996,21.508486124226657,"(0.0, 0.0, 0.0, 0.0, 0.0, 0.0)",36.83523814678565,0.0888928167555427,21.629409223402156,"(0.0, 0.0, 0.0, 0.0, 0.0, 0.0)",4.936577085092772,False,,,,,False,,,,
31,Close,,,"(3.541182821644653e-08, 0.1699998011443987, 0.00021906657187154062)","(1.570205104748116, 3.3042409171564205e-05, -8.114212850492596e-08)",,"[-0.026750000193715096, 0.05299999937415123, 0.03999999910593033]","[0.0, -0.0, 1.4065674382065954]","[-0.0977812185883522, 0.06477140635251999, 0.03999999910593033]","[0.0, -0.0, 1.3176625934179576]","[0.026750000193715096, 0.05299999937415123, 0.03999999910593033]","[0.0, 0.0, -1.4065680331882469]","[0.0977812260389328, 0.06477133929729462, 0.03999999910593033]","[0.0, 0.0, -1.3176753491400532]",1.3259105492945382,-19.357614647854348,"(0.0, 0.0, 0.0, 0.0, 0.0, 0.0)",3.3395407019063446,-0.17001473426920377,-19.466411231952,"(0.0, 0.0, 0.0, 0.0, 0.0, 0.0)",0.4376834422569755,-1.3259114066926496,19.35763751180399,"(0.0, 0.0, 0.0, 0.0, 0.0, 0.0)",-3.3395473112045253,0.1700040506304986,19.466696129989415,"(0.0, 0.0, 0.0, 0.0, 0.0, 0.0)",-0.43768664266468643,False,,,,,False,,,,
32,Close,,,"(3.361538948490201e-08, 0.16999974452330968, 0.00028077538773600935)","(1.5702911774727688, 7.027968338074274e-05, -7.017997684986258e-06)",,"[-0.026750000193715096, 0.05299999937415123, 0.03999999910593033]","[0.0, -0.0, 1.325910602539969]","[-0.09660188108682632, 0.07045608013868332, 0.03999999910593033]","[0.0, -0.0, 1.1558959321658662]","[0.026750000193715096, 0.05299999937415123, 0.03999999910593033]","[0.0, 0.0, -1.3259115331240872]","[0.09660189598798752, 0.07045602053403854, 0.03999999910593033]","[0.0, 0.0, -1.1559073716167563]",1.2533194943650845,-17.42185318306892,"(0.0, 0.0, 0.0, 0.0, 0.0, 0.0)",3.0100864599566086,-0.2430137284658432,-17.519758607193467,"(0.0, 0.0, 0.0, 0.0, 0.0, 0.0)",0.39699812510351973,-1.2533202660233846,17.42187376062359,"(0.0, 0.0, 0.0, 0.0, 0.0, 0.0)",-3.0100924602349655,0.24300411319445853,17.52001501535039,"(0.0, 0.0, 0.0, 0.0, 0.0, 0.0)",-0.39700105403357716,False,,,,,False,,,,
33,Close,,,"(1.2478111664315067e-07, 0.16999960627903704, 0.000337513976604643)","(1.5703757790333803, 0.0001088681261817636, -5.122611399447184e-06)",,"[-0.026750000193715096, 0.05299999937415123, 0.03999999910593033]","[0.0, -0.0, 1.2533194489161892]","[-0.0951518788933754, 0.07547627389431, 0.03999999910593033]","[0.0, -0.0, 1.0103057011386807]","[0.026750000193715096, 0.05299999937415123, 0.03999999910593033]","[0.0, 0.0, -1.2533201846969224]","[0.09515189379453659, 0.07547622174024582, 0.03999999910593033]","[0.0, 0.0, -1.010316110149499]",1.1879875449285762,-15.679667864762028,"(0.0, 0.0, 0.0, 0.0, 0.0, 0.0)",2.712712783767229,-0.30871235561933186,-15.767670516837281,"(0.0, 0.0, 0.0, 0.0, 0.0, 0.0)",0.3597856734528228,-1.1879882394210461,15.679686384561233,"(0.0, 0.0, 0.0, 0.0, 0.0, 0.0)",-2.712718226071338,0.30870370187508567,15.767901283350515,"(0.0, 0.0, 0.0, 0.0, 0.0, 0.0)",-0.35978834883250516,False,,,,,False,,,,
34,Close,,,"(1.2869376016944667e-07, 0.16999954011037416, 0.00038973303114976833)","(1.5704582297133343, 0.0001496263682483943, -9.931543136061158e-06)",,"[-0.026750000193715096, 0.05299999937415123, 0.03999999910593033]","[0.0, -0.0, 1.1879876003522736]","[-0.09353857487440109, 0.07989397644996643, 0.03999999910593033]","[0.0, -0.0, 0.8792752425767008]","[0.026750000193715096, 0.05299999937415123, 0.03999999910593033]","[0.0, 0.0, -1.1879882623869136]","[0.09353859722614288, 0.07989392429590225, 0.03999999910593033]","[0.0, 0.0, -0.8792844680170303]",1.1291887904356523,-14.1117010783017,"(0.0, 0.0, 0.0, 0.0, 0.0, 0.0)",2.44436472036771,-0.36784112005739866,-14.190903465136039,"(0.0, 0.0, 0.0, 0.0, 0.0, 0.0)",0.3258007578595482,-1.1291894154788755,14.111717746120975,"(0.0, 0.0, 0.0, 0.0, 0.0, 0.0)",-2.444369652349295,0.3678333316875771,14.191111154997946,"(0.0, 0.0, 0.0, 0.0, 0.0, 0.0)",-0.32580319741325486,False,,,,,False,,,,
35,Close,,,"(2.2147778895778094e-07, 0.169999403724105, 0.00043775502472391954)","(1.5705392813318275, 0.0001916771605813282, -8.19762937926826e-06)",,"[-0.026750000193715096, 0.05299999937415123, 0.03999999910593033]","[0.0, -0.0, 1.1291888000608494]","[-0.09184273332357407, 0.08377231657505035, 0.03999999910593033]","[0.0, -0.0, 0.7613476921786614]","[0.026750000193715096, 0.05299999937415123, 0.03999999910593033]","[0.0, 0.0, -1.1291894580384154]","[0.09184275567531586, 0.08377227932214737, 0.03999999910593033]","[0.0, 0.0, -0.7613561373098183]",1.0762699113920273,-12.700530970470014,"(0.0, 0.0, 0.0, 0.0, 0.0, 0.0)",2.202305891359772,-0.4210570080516588,-12.77181311862243,"(0.0, 0.0, 0.0, 0.0, 0.0, 0.0)",0.2948453788489373,-1.0762704739309281,12.700545971507374,"(0.0, 0.0, 0.0, 0.0, 0.0, 0.0)",-2.2023103576802145,0.4210499985188194,12.77200003949815,"(0.0, 0.0, 0.0, 0.0, 0.0, 0.0)",-0.2948476002056522,False,,,,,False,,,,
36,Close,,,"(2.1912693722736075e-07, 0.16999934361709654, 0.000481956449276018)","(1.5706184388641253, 0.00023565575873296478, -1.2845786801691941e-05)",,"[-0.026750000193715096, 0.05299999937415123, 0.03999999910593033]","[0.0, -0.0, 1.0762698553554748]","[-0.09012393653392792, 0.08717226982116699, 0.03999999910593033]","[0.0, -0.0, 0.6552128934948661]","[0.026750000193715096, 0.05299999937415123, 0.03999999910593033]","[0.0, 0.0, -1.0762704893583]","[0.09012395888566971, 0.08717223256826401, 0.03999999910593033]","[0.0, 0.0, -0.6552204147476549]",1.0286429202528247,-11.430477873408655,"(0.0, 0.0, 0.0, 0.0, 0.0, 0.0)",1.9840011930578276,-0.46895130724721834,-11.494631806934295,"(0.0, 0.0, 0.0, 0.0, 0.0, 0.0)",0.26667684533441977,-1.0286434265378352,11.430491374342276,"(0.0, 0.0, 0.0, 0.0, 0.0, 0.0)",-1.984005235051249,0.4689449986676629,11.494800035722442,"(0.0, 0.0, 0.0, 0.0, 0.0, 0.0)",-0.26667886541975433,False,,,,,False,,,,
37,Close,,,"(3.1131510586280866e-07, 0.1699992121070205, 0.0005226007520893923)","(1.5706964879884222, 0.0002806415891397876, -1.1307759452448239e-05)",,"[-0.026750000193715096, 0.05299999937415123, 0.03999999910593033]","[0.0, -0.0, 1.0286429345076582]","[-0.0884251669049263, 0.09015069156885147, 0.03999999910593033]","[0.0, -0.0, 0.5596916647508587]","[0.026750000193715096, 0.05299999937415123, 0.03999999910593033]","[0.0, 0.0, -1.0286435120859125]","[0.08842518925666809, 0.09015065431594849, 0.03999999910593033]","[0.0, 0.0, -0.5596984028120249]",0.9857786282275423,-10.287430086067793,"(0.0, 0.0, 0.0, 0.0, 0.0, 0.0)",1.787161045327472,-0.5120561765231523,-10.345168626224153,"(0.0, 0.0, 0.0, 0.0, 0.0, 0.0)",0.24107512437447856,-0.9857790838840517,10.28744223690805,"(0.0, 0.0, 0.0, 0.0, 0.0, 0.0)",-1.787164701188607,0.5120504988015524,10.345320032133483,"(0.0, 0.0, 0.0, 0.0, 0.0, 0.0)",-0.24107695935135354,False,,,,,False,,,,
38,Close,,,"(3.0991842655903425e-07, 0.169999153087261, 0.0005600347082356065)","(1.570772558536085, 0.00032764712563817383, -1.5390013302753274e-05)",,"[-0.026750000193715096, 0.05299999937415123, 0.03999999910593033]","[0.0, -0.0, 0.9857786218799983]","[-0.08677656948566437, 0.09275941550731659, 0.03999999910593033]","[0.0, -0.0, 0.4737224893055005]","[0.026750000193715096, 0.05299999937415123, 0.03999999910593033]","[0.0, 0.0, -0.9857791586690391]","[0.08677658438682556, 0.0927593931555748, 0.03999999910593033]","[0.0, 0.0, -0.47372859204714834]",0.9472007654041954,-9.258687077603232,"(0.0, 0.0, 0.0, 0.0, 0.0, 0.0)",1.6097085175776904,-0.550850558870837,-9.310651763444346,"(0.0, 0.0, 0.0, 0.0, 0.0, 0.0)",0.21783104241587867,-0.9472011754950539,9.258698013359455,"(0.0, 0.0, 0.0, 0.0, 0.0, 0.0)",-1.609711822487034,0.5508454489213972,9.310788028762744,"(0.0, 0.0, 0.0, 0.0, 0.0, 0.0)",-0.21783270758412676,False,,,,,False,,,,
39,Close,,,"(4.0106165104263135e-07, 0.169999026405202, 0.0005944331352702725)","(1.570848092729261, 0.0003750986118602944, -1.4060502423520339e-05)",,"[-0.026750000193715096, 0.05299999937415123, 0.03999999910593033]","[0.0, -0.0, 0.9472008140782049]","[-0.08519845455884933, 0.09504495561122894, 0.03999999910593033]","[0.0, -0.0, 0.39635019782230363]","[0.026750000193715096, 0.05299999937415123, 0.03999999910593033]","[0.0, 0.0, -0.9472011867132297]","[0.08519846946001053, 0.09504493325948715, 0.03999999910593033]","[0.0, 0.0, -0.3963557154153113]",0.9124806888632406,-8.332818369829143,"(0.0, 0.0, 0.0, 0.0, 0.0, 0.0)",1.4497611633824499,-0.5857655029837533,-8.379586587099913,"(0.0, 0.0, 0.0, 0.0, 0.0, 0.0)",0.19674731686213875,-0.9124810579450133,8.332828212009746,"(0.0, 0.0, 0.0, 0.0, 0.0, 0.0)",-1.4497641496546352,0.5857609040292575,8.379709225886469,"(0.0, 0.0, 0.0, 0.0, 0.0, 0.0)",-0.1967488266016999,False,,,,,False,,,,
40,Close,,,"(3.70657372146465e-07, 0.16999903038777142, 0.0006260749884053443)","(1.5708440552876382, 0.00034508120830118214, -1.4055585689260766e-05)",,"[-0.026750000193715096, 0.05299999937415123, 0.03999999910593033]","[0.0, -0.0, 0.9124807402838544]","[-0.08370371162891388, 0.09704854339361191, 0.03999999910593033]","[0.0, -0.0, 0.32671521193417863]","[0.026750000193715096, 0.05299999937415123, 0.03999999910593033]","[0.0, 0.0, -0.9124811663733811]","[0.08370373398065567, 0.09704852104187012, 0.03999999910593033]","[0.0, 0.0, -0.32672018954414506]",0.8812326199769166,-7.499536532717775,"(0.0, 0.0, 0.0, 0.0, 0.0, 0.0)",1.3056085801322186,-0.6171891619197363,-7.541678144635914,"(0.0, 0.0, 0.0, 0.0, 0.0, 0.0)",0.17763358199117588,-0.881232952150512,7.499545390680321,"(0.0, 0.0, 0.0, 0.0, 0.0, 0.0)",-1.305611277336412,0.617185022862301,7.541788519930457,"(0.0, 0.0, 0.0, 0.0, 0.0, 0.0)",-0.17763494969582577,False,,,,,False,,,,
41,Close,,,"(3.427044292909036e-07, 0.1699990340506735, 0.0006551854712062516)","(1.5708403346470328, 0.0003174583455114455, -1.4051356821419932e-05)",,"[-0.026750000193715096, 0.05299999937415123, 0.03999999910593033]","[0.0, -0.0, 0.8812326035131218]","[-0.08229970186948776, 0.09880644828081131, 0.03999999910593033]","[0.0, -0.0, 0.26404346611112495]","[0.026750000193715096, 0.05299999937415123, 0.03999999910593033]","[0.0, 0.0, -0.8812328730718287]","[0.08229971677064896, 0.09880642592906952, 0.03999999910593033]","[0.0, 0.0, -0.2640479150919315]",0.8531093579792249,-6.749582879446001,"(0.0, 0.0, 0.0, 0.0, 0.0, 0.0)",1.1757252455852583,-0.6454704345862542,-6.78750543996429,"(0.0, 0.0, 0.0, 0.0, 0.0, 0.0)",0.16033509317806058,-0.8531096569354608,6.7495908516122896,"(0.0, 0.0, 0.0, 0.0, 0.0, 0.0)",-1.1757276808922346,0.645466709436021,6.787604777692787,"(0.0, 0.0, 0.0, 0.0, 0.0, 0.0)",-0.16033633143309114,False,,,,,False,,,,
42,Close,,,"(3.170084497545684e-07, 0.16999903740907119, 0.0006819671107693073)","(1.570836911771951, 0.00029204530032808255, -1.4047683015968837e-05)",,"[-0.026750000193715096, 0.05299999937415123, 0.03999999910593033]","[0.0, -0.0, 0.8531093567174074]","[-0.08098968118429184, 0.10035036504268646, 0.03999999910593033]","[0.0, -0.0, 0.2076389231904772]","[0.026750000193715096, 0.05299999937415123, 0.03999999910593033]","[0.0, 0.0, -0.8531096230941355]","[0.08098969608545303, 0.10035035014152527, 0.03999999910593033]","[0.0, 0.0, -0.2076429742570099]",0.8277984221813024,-6.0746245915014,"(0.0, 0.0, 0.0, 0.0, 0.0, 0.0)",1.0586966037970245,-0.6709235615380169,-6.1087504684230565,"(0.0, 0.0, 0.0, 0.0, 0.0, 0.0)",0.14467321668423558,-0.8277986912419147,6.074631766451059,"(0.0, 0.0, 0.0, 0.0, 0.0, 0.0)",-1.0586988018726124,0.6709202089041267,6.108839872345364,"(0.0, 0.0, 0.0, 0.0, 0.0, 0.0)",-0.14467433700617466,False,,,,,False,,,,
43,Close,,,"(2.93385406087929e-07, 0.16999904048782613, 0.0007066062149797113)","(1.5708337628331848, 0.0002686652895538331, -1.4044478861914954e-05)",,"[-0.026750000193715096, 0.05299999937415123, 0.03999999910593033]","[0.0, -0.0, 0.8277984323872327]","[-0.07977395504713058, 0.10170790553092957, 0.03999999910593033]","[0.0, -0.0, 0.15687485461046338]","[0.026750000193715096, 0.05299999937415123, 0.03999999910593033]","[0.0, 0.0, -0.8277987052452376]","[0.07977396249771118, 0.10170789808034897, 0.03999999910593033]","[0.0, 0.0, -0.15687847762667875]",0.8050185799631722,-5.467162132351259,"(0.0, 0.0, 0.0, 0.0, 0.0, 0.0)",0.9532674830029981,-0.6938313591081322,-5.497871416827678,"(0.0, 0.0, 0.0, 0.0, 0.0, 0.0)",0.1305069121449798,-0.8050188221177232,5.467168589805953,"(0.0, 0.0, 0.0, 0.0, 0.0, 0.0)",-0.9532694663734236,0.6938283417388244,5.49795188032743,"(0.0, 0.0, 0.0, 0.0, 0.0, 0.0)",-0.13050792520753388,False,,,,,False,,,,
44,Close,,,"(2.716665250887489e-07, 0.16999904330973556, 0.0007292741870466809)","(1.5708308659078907, 0.0002471556717650467, -1.4041672069322908e-05)",,"[-0.026750000193715096, 0.05299999937415123, 0.03999999910593033]","[0.0, -0.0, 0.8050185839979388]","[-0.07865073531866074, 0.10290304571390152, 0.03999999910593033]","[0.0, -0.0, 0.11118723016400785]","[0.026750000193715096, 0.05299999937415123, 0.03999999910593033]","[0.0, 0.0, -0.8050187952188965]","[0.07865074276924133, 0.10290303081274033, 0.03999999910593033]","[0.0, 0.0, -0.11119048022217565]",0.784516721966855,-4.920445919116134,"(0.0, 0.0, 0.0, 0.0, 0.0, 0.0)",0.8582975670224743,-0.7144483618360385,-4.948080654697517,"(0.0, 0.0, 0.0, 0.0, 0.0, 0.0)",0.11770004006048959,-0.784516939905951,4.92045173082536,"(0.0, 0.0, 0.0, 0.0, 0.0, 0.0)",-0.8582993561887614,0.7144456462047399,4.948153071819748,"(0.0, 0.0, 0.0, 0.0, 0.0, 0.0)",-0.11770095568272418,False,,,,,False,,,,
45,Close,,,"(2.51696986958339e-07, 0.1699990458957082, 0.0007501287178850499)","(1.5708282008276007, 0.000227366816649173, -1.4039201474218165e-05)",,"[-0.026750000193715096, 0.05299999937415123, 0.03999999910593033]","[0.0, -0.0, 0.7845167193080385]","[-0.07761679589748383, 0.10395654290914536, 0.03999999910593033]","[0.0, -0.0, 0.07006835685702544]","[0.026750000193715096, 0.05299999937415123, 0.03999999910593033]","[0.0, 0.0, -0.7845169946958266]","[0.07761680334806442, 0.10395653545856476, 0.03999999910593033]","[0.0, 0.0, -0.0700712989357174]",0.7660650497701694,-4.42840132720452,"(0.0, 0.0, 0.0, 0.0, 0.0, 0.0)",0.7727568402429666,-0.7330036506599046,-4.453269317727849,"(0.0, 0.0, 0.0, 0.0, 0.0, 0.0)",0.106127525293464,-0.7660652459153559,4.428406557742824,"(0.0, 0.0, 0.0, 0.0, 0.0, 0.0)",-0.7727584538402424,0.7330012065927102,4.453334493112861,"(0.0, 0.0, 0.0, 0.0, 0.0, 0.0)",-0.10612835248484857,False,,,,,False,,,,
46,Close,,,"(2.3333473952068603e-07, 0.16999904826492518, 0.0007693148831029557)","(1.5708257490378412, 0.00020916106414766092, -1.403701531280991e-05)",,"[-0.026750000193715096, 0.05299999937415123, 0.03999999910593033]","[0.0, -0.0, 0.7660649977175382]","[-0.07666795700788498, 0.10488639771938324, 0.03999999910593033]","[0.0, -0.0, 0.03306140223906952]","[0.026750000193715096, 0.05299999937415123, 0.03999999910593033]","[0.0, 0.0, -0.7660653079646047]","[0.07666796445846558, 0.10488638281822205, 0.03999999910593033]","[0.0, 0.0, -0.033064041138401834]",0.7494585447931524,-3.985561194484066,"(0.0, 0.0, 0.0, 0.0, 0.0, 0.0)",0.6957152666369016,-0.7497033982890566,-4.007939430996486,"(0.0, 0.0, 0.0, 0.0, 0.0, 0.0)",0.09567473522853766,-0.7494587213238203,3.985565901968542,"(0.0, 0.0, 0.0, 0.0, 0.0, 0.0)",-0.6957167215859875,0.7497011986294615,4.007998088820328,"(0.0, 0.0, 0.0, 0.0, 0.0, 0.0)",-0.09567548223716564,False,,,,,False,,,,
47,Close,,,"(2.1644941757498085e-07, 0.1699990504349868, 0.0007869661522299996)","(1.5708234934689855, 0.0001924117668631307, -1.4035069780186692e-05)",,"[-0.026750000193715096, 0.05299999937415123, 0.03999999910593033]","[0.0, -0.0, 0.7494586090384826]","[-0.07579945772886276, 0.10570816695690155, 0.03999999910593033]","[0.0, 0.0, -0.000244853492999894]","[0.026750000193715096, 0.05299999937415123, 0.03999999910593033]","[0.0, 0.0, -0.7494587081400255]","[0.07579946517944336, 0.10570815205574036, 0.03999999910593033]","[0.0, -0.0, 0.00024247731079752444]",0.7345126903138371,-3.587005075035659,"(0.0, 0.0, 0.0, 0.0, 0.0, 0.0)",0.626333365984163,-0.764733160038395,-3.6071428198412123,"(0.0, 0.0, 0.0, 0.0, 0.0, 0.0)",0.08623682787405348,-0.7345128491914382,3.587009311771688,"(0.0, 0.0, 0.0, 0.0, 0.0, 0.0)",-0.6263346776346612,0.7647311803455538,3.607195611862134,"(0.0, 0.0, 0.0, 0.0, 0.0, 0.0)",-0.08623750223625977,False,,,,,False,,,,
48,Close,,,"(1.9902478529523268e-07, 0.16999905216510106, 0.0008031506134026157)","(1.5708213694672628, 0.00017518801369688713, -1.4031269556480368e-05)",,"[-0.026750000193715096, 0.05299999937415123, 0.03999999910593033]","[0.0, -0.0, 0.7345126628086843]","[-0.07500623911619186, 0.10643533617258072, 0.03999999910593033]","[0.0, 0.0, -0.03022046980229406]","[0.026750000193715096, 0.05299999937415123, 0.03999999910593033]","[0.0, 0.0, -0.7345128981556924]","[0.07500624656677246, 0.10643532872200012, 0.03999999910593033]","[0.0, -0.0, 0.03021832986745902]",0.7210614212824534,-3.228304567532092,"(0.0, 0.0, 0.0, 0.0, 0.0, 0.0)",0.5638237707840803,-0.7782610712626786,-3.246698693828069,"(0.0, 0.0, 0.0, 0.0, 0.0, 0.0)",0.07768823801248652,-0.7210615642722944,3.2283083805945183,"(0.0, 0.0, 0.0, 0.0, 0.0, 0.0)",-0.5638249528147553,0.7782592895487316,3.2467462087626835,"(0.0, 0.0, 0.0, 0.0, 0.0, 0.0)",-0.07768884636877696,False,,,,,False,,,,
49,Close,,,"(1.829952775457341e-07, 0.16999905372445717, 0.0008180403399689366)","(1.5708194143492393, 0.00015934185659229473, -1.4027683329641553e-05)",,"[-0.026750000193715096, 0.05299999937415123, 0.03999999910593033]","[0.0, -0.0, 0.7210614193238458]","[-0.07428312301635742, 0.10707958787679672, 0.03999999910593033]","[0.0, 0.0, -0.05719964992344959]","[0.026750000193715096, 0.05299999937415123, 0.03999999910593033]","[0.0, 0.0, -0.7210615729227128]","[0.07428313046693802, 0.10707958042621613, 0.03999999910593033]","[0.0, -0.0, 0.05719773186848648]",0.7089552791542081,-2.905474110778883,"(0.0, 0.0, 0.0, 0.0, 0.0, 0.0)",0.5075985242705942,-0.7904360705014085,-2.921999817295172,"(0.0, 0.0, 0.0, 0.0, 0.0, 0.0)",0.07003713951344083,-0.7089554078450649,2.905477542535066,"(0.0, 0.0, 0.0, 0.0, 0.0, 0.0)",-0.5075995897946305,0.7904344669675306,2.9220425805117625,"(0.0, 0.0, 0.0, 0.0, 0.0, 0.0)",-0.07003768863744474,False,,,,,False,,,,
50,Close,,,"(1.682467379846132e-07, 0.1699990551245469, 0.0008317388481303276)","(1.570817615731277, 0.00014476218910829968, -1.4024269510216624e-05)",,"[-0.026750000193715096, 0.05299999937415123, 0.03999999910593033]","[0.0, -0.0, 0.7089552779168017]","[-0.07362496107816696, 0.10765105485916138, 0.03999999910593033]","[0.0, 0.0, -0.08148078223376223]","[0.026750000193715096, 0.05299999937415123, 0.03999999910593033]","[0.0, 0.0, -0.7089554724698194]","[0.07362496852874756, 0.10765104740858078, 0.03999999910593033]","[0.0, -0.0, 0.0814790502780401]",0.6980597512387873,-2.6149266997009946,"(0.0, 0.0, 0.0, 0.0, 0.0, 0.0)",0.45693917814201784,-0.8013934602632394,-2.6297735428394082,"(0.0, 0.0, 0.0, 0.0, 0.0, 0.0)",0.06310201359777694,-0.6980598670605584,2.614929788281559,"(0.0, 0.0, 0.0, 0.0, 0.0, 0.0)",-0.45694013827892466,0.8013920170905735,2.6298120295302843,"(0.0, 0.0, 0.0, 0.0, 0.0, 0.0)",-0.06310250889925509,False,,,,,False,,,,
51,Close,,,"(1.546756367802499e-07, 0.16999905637827734, 0.0008443414385910609)","(1.5708159610857961, 0.00013134778772512943, -1.402100024143693e-05)",,"[-0.026750000193715096, 0.05299999937415123, 0.03999999910593033]","[0.0, -0.0, 0.6980597686270504]","[-0.07302673906087875, 0.10815852880477905, 0.03999999910593033]","[0.0, 0.0, -0.10333370902653251]","[0.026750000193715096, 0.05299999937415123, 0.03999999910593033]","[0.0, 0.0, -0.6980598246378259]","[0.07302674651145935, 0.10815852135419846, 0.03999999910593033]","[0.0, -0.0, 0.10333215264877679]",0.6882537761149086,-2.3534340297308955,"(0.0, 0.0, 0.0, 0.0, 0.0, 0.0)",0.41132662822933225,-0.8112550122446371,-2.3667724755354502,"(0.0, 0.0, 0.0, 0.0, 0.0, 0.0)",0.056847326346645,-0.6882538803545026,2.353436809453404,"(0.0, 0.0, 0.0, 0.0, 0.0, 0.0)",-0.4113274932960819,0.8112537133962935,2.3668071133728046,"(0.0, 0.0, 0.0, 0.0, 0.0, 0.0)",-0.0568477730004364,False,,,,,False,,,,
52,Close,,,"(1.4218689550358636e-07, 0.1699990574974972, 0.0008559357877458743)","(1.5708144388885392, 0.00011900551991941484, -1.4017852050493115e-05)",,"[-0.026750000193715096, 0.05299999937415123, 0.03999999910593033]","[0.0, -0.0, 0.6882538042795985]","[-0.07248363643884659, 0.10860966145992279, 0.03999999910593033]","[0.0, 0.0, -0.12300123728040792]","[0.026750000193715096, 0.05299999937415123, 0.03999999910593033]","[0.0, 0.0, -0.688253900607872]","[0.07248364388942719, 0.1086096540093422, 0.03999999910593033]","[0.0, -0.0, 0.12299984676553348]",0.6794283985034177,-2.118090626757806,"(0.0, 0.0, 0.0, 0.0, 0.0, 0.0)",0.3702598465395096,-0.8201303199370257,-2.1300738461732434,"(0.0, 0.0, 0.0, 0.0, 0.0, 0.0)",0.051207533272865695,-0.6794284923190523,2.1180931285080637,"(0.0, 0.0, 0.0, 0.0, 0.0, 0.0)",-0.37026062586363284,0.8201291509798778,2.130105020060234,"(0.0, 0.0, 0.0, 0.0, 0.0, 0.0)",-0.051207935975855504,False,,,,,False,,,,
53,Close,,,"(1.3069318416839e-07, 0.16999905849308636, 0.0008666025576372722)","(1.5708130385376784, 0.00010764969663878531, -1.401480516953977e-05)",,"[-0.026750000193715096, 0.05299999937415123, 0.03999999910593033]","[0.0, -0.0, 0.6794284238724229]","[-0.07199108600616455, 0.10901110619306564, 0.03999999910593033]","[0.0, 0.0, -0.14070193198542613]","[0.026750000193715096, 0.05299999937415123, 0.03999999910593033]","[0.0, 0.0, -0.6794284800706577]","[0.07199109345674515, 0.10901109874248505, 0.03999999910593033]","[0.0, -0.0, 0.1407006814892172]",0.6714855586530759,-1.9062815640820263,"(0.0, 0.0, 0.0, 0.0, 0.0, 0.0)",0.33328720146674756,-0.82811801654313,-1.9170471854650495,"(0.0, 0.0, 0.0, 0.0, 0.0, 0.0)",0.0461231568532664,-0.6714856430871471,1.9062838156572566,"(0.0, 0.0, 0.0, 0.0, 0.0, 0.0)",-0.33328790347714454,0.8281169644874314,1.917075241812861,"(0.0, 0.0, 0.0, 0.0, 0.0, 0.0)",-0.04612351986457081,False,,,,,False,,,,
54,Close,,,"(1.201142787701026e-07, 0.1699990593750365, 0.0008764159571233717)","(1.5708117502799854, 9.720147739875066e-05, -1.4011842957469135e-05)",,"[-0.026750000193715096, 0.05299999937415123, 0.03999999910593033]","[0.0, -0.0, 0.6714856028191667]","[-0.07154478132724762, 0.10936867445707321, 0.03999999910593033]","[0.0, 0.0, -0.1566324602805662]","[0.026750000193715096, 0.05299999937415123, 0.03999999910593033]","[0.0, 0.0, -0.6714856028191667]","[0.07154478132724762, 0.10936867445707321, 0.03999999910593033]","[0.0, -0.0, 0.15663130155257995]",0.6643370027877683,-1.7156534076738226,"(0.0, 0.0, 0.0, 0.0, 0.0, 0.0)",0.30000166468946887,-0.8353068710937589,-1.7253250921509458,"(0.0, 0.0, 0.0, 0.0, 0.0, 0.0)",0.041540284771796165,-0.6643370787784324,1.7156554340915304,"(0.0, 0.0, 0.0, 0.0, 0.0, 0.0)",-0.3000022969997827,0.8353059242487986,1.725350342728124,"(0.0, 0.0, 0.0, 0.0, 0.0, 0.0)",-0.041540611950472935,False,,,,,False,,,,
55,Close,,,"(1.1037647424359984e-07, 0.16999906015252483, 0.0008854442581506275)","(1.5708105651429114, 8.758832292823178e-05, -1.4008951415989527e-05)",,"[-0.026750000193715096, 0.05299999937415123, 0.03999999910593033]","[0.0, -0.0, 0.6643370606126838]","[-0.07114068418741226, 0.1096874549984932, 0.03999999910593033]","[0.0, 0.0, -0.17096987637179278]","[0.026750000193715096, 0.05299999937415123, 0.03999999910593033]","[0.0, 0.0, -0.6643370606126838]","[0.07114069163799286, 0.1096874475479126, 0.03999999910593033]","[0.0, -0.0, 0.17096884643662202]",0.6579033025089914,-1.5440880669064398,"(0.0, 0.0, 0.0, 0.0, 0.0, 0.0)",0.2700364572532802,-0.8417767749452665,-1.5527769243618206,"(0.0, 0.0, 0.0, 0.0, 0.0, 0.0)",0.03741008611729049,-0.6579033709005891,1.5440898906823783,"(0.0, 0.0, 0.0, 0.0, 0.0, 0.0)",-0.27003702673818186,0.8417759227894597,1.5527996497586782,"(0.0, 0.0, 0.0, 0.0, 0.0, 0.0)",-0.03741038095743008,False,,,,,False,,,,
56,Close,,,"(1.0141204673652616e-07, 0.16999906083398159, 0.0008937502707232629)","(1.570809474872104, 7.87434915574051e-05, -1.4006118772737545e-05)",,"[-0.026750000193715096, 0.05299999937415123, 0.03999999910593033]","[0.0, -0.0, 0.6579033304946226]","[-0.07077505439519882, 0.10997187346220016, 0.03999999910593033]","[0.0, 0.0, -0.18387348897538708]","[0.026750000193715096, 0.05299999937415123, 0.03999999910593033]","[0.0, 0.0, -0.6579033304946226]","[0.07077506184577942, 0.10997187346220016, 0.03999999910593033]","[0.0, -0.0, 0.1838725619548152]",0.6521129722580923,-1.3896792602157946,"(0.0, 0.0, 0.0, 0.0, 0.0, 0.0)",0.24306111081870946,-0.8475996296201711,-1.3974851219770965,"(0.0, 0.0, 0.0, 0.0, 0.0, 0.0)",0.033688362136148925,-0.6521130338105302,1.38968090161414,"(0.0, 0.0, 0.0, 0.0, 0.0, 0.0)",-0.24306162368353448,0.8475988626841415,1.3975055747236533,"(0.0, 0.0, 0.0, 0.0, 0.0, 0.0)",-0.03368862779939208,False,,,,,False,,,,
57,Close,,,"(9.31587620256511e-08, 0.16999906142715163, 0.0009013917798737923)","(1.570808471873919, 7.060557585400826e-05, -1.4003335136779464e-05)",,"[-0.026750000193715096, 0.05299999937415123, 0.03999999910593033]","[0.0, -0.0, 0.6521129301518677]","[-0.07044443488121033, 0.11022583395242691, 0.03999999910593033]","[0.0, 0.0, -0.19548665573955404]","[0.026750000193715096, 0.05299999937415123, 0.03999999910593033]","[0.0, 0.0, -0.6521129866161153]","[0.07044444233179092, 0.11022583395242691, 0.03999999910593033]","[0.0, -0.0, 0.19548582525750646]",0.646901675032283,-1.2507113341942153,"(0.0, 0.0, 0.0, 0.0, 0.0, 0.0)",0.2187779064062842,-0.8528401458571484,-1.2577238968745574,"(0.0, 0.0, 0.0, 0.0, 0.0, 0.0)",0.03033513071724496,-0.6469017304294772,1.2507128114527255,"(0.0, 0.0, 0.0, 0.0, 0.0, 0.0)",-0.2187783682505172,0.8528394556185027,1.2577423042466835,"(0.0, 0.0, 0.0, 0.0, 0.0, 0.0)",-0.03033537006280305,False,,,,,False,,,,
58,Close,,,"(8.555942447331213e-08, 0.16999906193915107, 0.000908421947674647)","(1.5708075491625393, 6.311807629477444e-05, -1.4000592203169427e-05)",,"[-0.026750000193715096, 0.05299999937415123, 0.03999999910593033]","[0.0, -0.0, 0.6469017074975589]","[-0.0701456218957901, 0.11045276373624802, 0.03999999910593033]","[0.0, 0.0, -0.20593848593871938]","[0.026750000193715096, 0.05299999937415123, 0.03999999910593033]","[0.0, 0.0, -0.6469017640113621]","[0.0701456293463707, 0.11045276373624802, 0.03999999910593033]","[0.0, -0.0, 0.2059377054983325]",0.6422115075290548,-1.1256402007747932,"(0.0, 0.0, 0.0, 0.0, 0.0, 0.0)",0.19691865600140895,-0.8575565627499749,-1.1319400542783593,"(0.0, 0.0, 0.0, 0.0, 0.0, 0.0)",0.027314243362735774,-0.6422115573865295,1.1256415303074527,"(0.0, 0.0, 0.0, 0.0, 0.0, 0.0)",-0.19691907187647334,0.8575559415385998,1.1319566208232932,"(0.0, 0.0, 0.0, 0.0, 0.0, 0.0)",-0.027314458975022625,False,,,,,False,,,,
59,Move,,,"(7.856146500561274e-08, 0.16999906237651882, 0.0009148896830877347)","(1.5708067003113224, 5.6229009009845055e-05, -1.399788300299107e-05)","[0.0, 0.0, 0.0]","[-0.026750000193715096, 0.05299999937415123, 0.03999999910593033]","[0.0, -0.0, 0.6422115222668433]","[-0.06987567991018295, 0.11065566539764404, 0.03999999910593033]","[0.0, 0.0, -0.21534502689171695]","[0.026750000193715096, 0.05299999937415123, 0.03999999910593033]","[0.0, 0.0, -0.6422115222668433]","[0.06987568736076355, 0.11065565794706345, 0.03999999910593033]","[0.0, -0.0, 0.2153443918565048]",0.6379903567761492,-1.0130761806973148,"(0.0, 0.0, 0.0, 0.0, 0.0, 0.0)",0.17724179525373857,-0.861801294967015,-1.0187357320896053,"(0.0, 0.0, 0.0, 0.0, 0.0, 0.0)",0.024593033118920006,-0.6379904016478766,1.0130773772767077,"(0.0, 0.0, 0.0, 0.0, 0.0, 0.0)",-0.1772421697155535,0.8618007358798453,1.0187506418989196,"(0.0, 0.0, 0.0, 0.0, 0.0, 0.0)",-0.024593227332916724,False,,,,,False,,,,
60,Move,,,"(7.401516452493873e-08, 0.16999906300717518, 0.0009208949427311885)","(1.5708059692049072, 5.171406878091127e-05, -1.3997173418156156e-05)","[-4.546300480674002e-09, 6.306563604674409e-10, 6.005259643453772e-06]","[-0.026750000193715096, 0.05299999937415123, 0.03999999910593033]","[0.0, -0.0, 0.6379903239810443]","[-0.06963192671537399, 0.1108371913433075, 0.03999999910593033]","[0.0, 0.0, -0.2238109552587812]","[0.026750000193715096, 0.05299999937415123, 0.03999999910593033]","[0.0, 0.0, -0.6379904179642307]","[0.06963192671537399, 0.1108371838927269, 0.03999999910593033]","[0.0, -0.0, 0.22381033482023305]",0.615110639462399,-5.491132155300077,"(0.0, 0.0, 0.0, 0.0, 0.0, 0.0)",-6.452665348763696,-0.8613763884842398,0.10197755586604229,"(0.0, 0.0, 0.0, 0.0, 0.0, 0.0)",-0.36782542138199165,-0.6151107211023208,5.491123330933392,"(0.0, 0.0, 0.0, 0.0, 0.0, 0.0)",6.4526488408560905,0.8613758231880564,-0.10197904602934349,"(0.0, 0.0, 0.0, 0.0, 0.0, 0.0)",0.36782252911949487,False,,,,,False,,,,
61,Move,,,"(6.525734425186348e-05, 0.17034549853437667, 0.001059997142676121)","(1.5643418998519334, 0.00019756355969089426, -0.0007979474479338168)","[6.517878278685787e-05, 0.00034643615785784343, 0.00014510745958838623]","[-0.026750000193715096, 0.05299999937415123, 0.03999999910593033]","[0.0, -0.0, 0.6151107619663475]","[-0.06829752027988434, 0.1118030920624733, 0.03999999910593033]","[0.0, 0.0, -0.24626574387408112]","[0.026750000193715096, 0.05299999937415123, 0.03999999910593033]","[0.0, 0.0, -0.6151107619663475]","[0.06829752773046494, 0.1118030920624733, 0.03999999910593033]","[0.0, -0.0, 0.24626510812228053]",0.59557520589455,-4.68850405628373,"(0.0, 0.0, 0.0, 0.0, 0.0, 0.0)",-45.004877301260535,-0.841587039207075,4.749443826519566,"(0.0, 0.0, 0.0, 0.0, 0.0, 0.0)",-23.059879711313982,-0.5955448471476087,4.6958097491309045,"(0.0, 0.0, 0.0, 0.0, 0.0, 0.0)",43.2331221848827,0.8422035798107438,-4.601338410555013,"(0.0, 0.0, 0.0, 0.0, 0.0, 0.0)",22.069611273367745,True,"(-0.03288698015965098, 0.18306432161630465, 0.039999948285931244)","(0.9999999985648672, -1.399717339714095e-05, -5.171406875791205e-05)",0.0009292587523792685,356.63318049990795,True,"(0.032887031061809374, 0.18306436848012048, 0.04000005171406876)","(-0.9999999985648671, 1.3997173395198976e-05, 5.171406875668148e-05)",0.0009247539911204204,342.7710504396539
62,Move,"(0.0, 0.0, 0.0)","(0.0, -0.0, 0.0)","(0.00016176697229314485, 0.17076934431250207, 0.001298992481510786)","(1.553459115144406, 0.0004787126916021603, -0.0016283617000435679)","[0.00016168841082813925, 0.0007702819359832469, 0.0003841027984230513]","[-0.026750000193715096, 0.05299999937415123, 0.03999999910593033]","[0.0, -0.0, 0.5955751094143519]","[-0.06714092195034027, 0.11260347068309784, 0.03999999910593033]","[0.0, 0.0, -0.24601185159459507]","[0.026750000193715096, 0.05299999937415123, 0.03999999910593033]","[0.0, 0.0, -0.5955448282145998]","[0.06713911145925522, 0.11260469257831573, 0.03999999910593033]","[0.0, -0.0, 0.24665872904210193]",0.5770970782178444,-4.434750642409365,"(0.0, 0.0, 0.0, 0.0, 0.0, 0.0)",-74.21698749878065,-0.811850997818181,7.136649933334551,"(0.0, 0.0, 0.0, 0.0, 0.0, 0.0)",-37.92588619525253,-0.5770027641966642,4.450099908226674,"(0.0, 0.0, 0.0, 0.0, 0.0, 0.0)",71.59541053355323,0.8135423707664626,-6.878690170627483,"(0.0, 0.0, 0.0, 0.0, 0.0, 0.0)",36.485404729774935,True,"(-0.03174847742362094, 0.1838726496858637, 0.03999980243644159)","(0.9999996621242782, -0.0007979473476813144, -0.0001975635584110712)",-0.00012778812911608492,569.3446982775357,True,"(0.031700570614753176, 0.18385320841010633, 0.0400001975635584)","(-0.9999996621242783, 0.0007979473476767542, 0.0001975635584049517)",-0.0003431682129125587,549.2893233704585
63,Move,"(0.0, 0.0, 0.0)","(0.0, -0.0, 0.0)","(0.00020568050408397375, 0.17108007690663649, 0.0015665957858292871)","(1.5453980212159237, 0.00011151380297923225, -0.0017071234802152205)","[0.00020560194261896815, 0.0010810145301176632, 0.0006517061027415524]","[-0.026750000193715096, 0.05299999937415123, 0.03999999910593033]","[0.0, -0.0, 0.5770971029289548]","[-0.06603273004293442, 0.11333960294723511, 0.03999999910593033]","[0.0, 0.0, -0.23475391897699402]","[0.026750000193715096, 0.05299999937415123, 0.03999999910593033]","[0.0, 0.0, -0.5770027543990871]","[0.06602703779935837, 0.11334330588579178, 0.03999999910593033]","[0.0, -0.0, 0.23653961426052006]",0.579404895675538,0.5538761898464655,"(0.0, 0.0, 0.0, 0.0, 0.0, 0.0)",6.4633983195225495,-0.8148246019570704,-0.7136649933334551,"(0.0, 0.0, 0.0, 0.0, 0.0, 0.0)",-0.3132438216507522,-0.5792909153140746,-0.5491562681785016,"(0.0, 0.0, 0.0, 0.0, 0.0, 0.0)",-6.16852739973914,0.8163981315451861,0.6853825868936365,"(0.0, 0.0, 0.0, 0.0, 0.0, 0.0)",0.4843271556067679,True,"(-0.03144479909141533, 0.18499061278782541, 0.039999521287326686)","(0.9999985596366134, -0.0016283607938474471, -0.0004787126733201028)",-0.00031179486038545077,0.0,True,"(0.0313112124765586, 0.1849374824167095, 0.040000478712673315)","(-0.9999985596366132, 0.0016283607938671909, 0.0004787126733090728)",-0.0008521962835819142,2.606367117194445
64,Move,"(0.0, 0.0, 0.0)","(0.0, -0.0, 0.0)","(0.0002286301636098697, 0.1713253442528434, 0.0017817810741192494)","(1.5389812495376074, -0.000511554387002508, -0.0015041162679156222)","[0.0002285516021448641, 0.001326281876324581, 0.0008668913910315147]","[-0.026750000193715096, 0.05299999937415123, 0.03999999910593033]","[0.0, -0.0, 0.579404963823502]","[-0.06617187708616257, 0.1132487803697586, 0.03999999910593033]","[0.0, 0.0, -0.23541970778940716]","[0.026750000193715096, 0.05299999937415123, 0.03999999910593033]","[0.0, 0.0, -0.5792908612503161]","[0.0661650076508522, 0.11325327306985855, 0.03999999910593033]","[0.0, -0.0, 0.23710723316040327]",0.5797513740576465,0.08315481170606276,"(0.0, 0.0, 0.0, 0.0, 0.0, 0.0)",-0.6050371588525649,-0.8145272415431815,0.0713664993333446,"(0.0, 0.0, 0.0, 0.0, 0.0, 0.0)",0.03442143396704877,-0.5795726203959736,-0.06760921965573785,"(0.0, 0.0, 0.0, 0.0, 0.0, 0.0)",0.7665056913582627,0.8161098046097013,-0.06919846451636869,"(0.0, 0.0, 0.0, 0.0, 0.0, 0.0)",0.05385507678343228,True,"(-0.03153624923514486, 0.18487733778001617, 0.039999888486197246)","(0.9999985366474105, -0.001707122640433851, -0.00011151380275540046)",-0.00019027644015300206,0.0,True,"(0.031408552968427136, 0.18482838253269274, 0.04000011151380275)","(-0.9999985366474103, 0.0017071226404405677, 0.0001115138027507468)",-0.000784928296535469,1.0848258206781705
65,Move,"(0.0, 0.0, 0.0)","(0.0, -0.0, 0.0)","(0.00022379716863681287, 0.17150000086347655, 0.0019406498368261169)","(1.5343522193496357, -0.0004765094393025708, 0.00014207308519451227)","[0.00022371860717180727, 0.0015009384869577314, 0.0010257601537383822]","[-0.026750000193715096, 0.05299999937415123, 0.03999999910593033]","[0.0, -0.0, 0.5797513227663355]","[-0.06619274616241455, 0.11323511600494385, 0.03999999910593033]","[0.0, 0.0, -0.23477587649959936]","[0.026750000193715096, 0.05299999937415123, 0.03999999910593033]","[0.0, 0.0, -0.5795726052946306]","[0.066181980073452, 0.11324217170476913, 0.03999999910593033]","[0.0, -0.0, 0.23653717420671178]",0.5800025533587417,0.060283032262853836,"(0.0, 0.0, 0.0, 0.0, 0.0, 0.0)",-0.08748504235356536,-0.8144857885427594,0.009948720101281991,"(0.0, 0.0, 0.0, 0.0, 0.0, 0.0)",-0.03698135826994708,-0.579752547686338,-0.04318254968747053,"(0.0, 0.0, 0.0, 0.0, 0.0, 0.0)",0.48238923479540985,0.8160161726880292,-0.022471661201294325,"(0.0, 0.0, 0.0, 0.0, 0.0, 0.0)",0.2704515667978493,True,"(-0.03160324687828937, 0.18488551941779136, 0.040000511554364696)","(0.999998737973545, -0.0015041155039720849, 0.0005115543646937556)",-0.0001273172082404877,0.3600099641952665,True,"(0.0314663294688103, 0.18483630435861093, 0.039999488445635306)","(-0.999998737973545, 0.0015041155039789739, -0.0005115543647008311)",-0.0007231109159374579,3.369659756540658
66,Move,"(-0.00011000000000000002, 0.0, -5.9999999999999995e-05)","(0.0, -0.0, 0.0)","(0.00022550251992795294, 0.17161324039349843, 0.002048639848363159)","(1.5313204547710155, -0.00043510199965190717, 0.0014801799255481508)","[0.00022542395846294734, 0.001614178016979606, 0.0011337501652754242]","[-0.026750000193715096, 0.05299999937415123, 0.03999999910593033]","[0.0, -0.0, 0.5800025345126305]","[-0.0662078782916069, 0.11322520673274994, 0.03999999910593033]","[0.0, 0.0, -0.2344832078059935]","[0.026750000193715096, 0.05299999937415123, 0.03999999910593033]","[0.0, 0.0, -0.5797525332723408]","[0.06619282066822052, 0.11323507130146027, 0.03999999910593033]","[0.0, -0.0, 0.23626364065370517]",0.5803647968076553,0.08693842773926175,"(0.0, 0.0, 0.0, 0.0, 0.0, 0.0)",0.037954102653977584,-0.8144899338428017,-0.0009948720101284891,"(0.0, 0.0, 0.0, 0.0, 0.0, 0.0)",0.0017222074022811887,-0.5800418787004894,-0.06943944339633472,"(0.0, 0.0, 0.0, 0.0, 0.0, 0.0)",-7.86709254790071e-05,0.8160185417619099,0.0005685777313749751,"(0.0, 0.0, 0.0, 0.0, 0.0, 0.0)",0.021043563204933297,True,"(-0.03163934341019903, 0.18488708280981267, 0.04000047650942127)","(0.9999998763769996, 0.0001420730685829438, 0.00047650942126588347)",-0.00011690035875491202,0.0,True,"(0.03149675298742195, 0.18483678285391775, 0.039999523490578726)","(-0.9999998763769997, -0.00014207306859140775, -0.0004765094212733113)",-0.0006670170266508909,0.27460436656730614
67,Move,"(-0.0001, 0.0, -5e-05)","(0.0, -0.0, 0.0)","(0.00022966398591863188, 0.17166592350956542, 0.002105010809937175)","(1.5299253648920061, -0.0004050303416701166, 0.002439040447946553)","[0.00022958542445362628, 0.0016668611330465932, 0.0011901211268494404]","[-0.026750000193715096, 0.05299999937415123, 0.03999999910593033]","[0.0, -0.0, 0.5803648224707226]","[-0.0662296935915947, 0.11321090906858444, 0.03999999910593033]","[0.0, 0.0, -0.23412515320946845]","[0.026750000193715096, 0.05299999937415123, 0.03999999910593033]","[0.0, 0.0, -0.580041927182697]","[0.06621024757623672, 0.11322365701198578, 0.03999999910593033]","[0.0, -0.0, 0.23597666604666073]",0.5807856499209386,0.10100474718799025,"(0.0, 0.0, 0.0, 0.0, 0.0, 0.0)",0.020794787286221444,-0.8144895193127974,9.948720101338182e-05,"(0.0, 0.0, 0.0, 0.0, 0.0, 0.0)",0.0016621770640998404,-0.5803346034675628,-0.07025394409762489,"(0.0, 0.0, 0.0, 0.0, 0.0, 0.0)",0.12431602585611283,0.8159845137578893,-0.008166720964962767,"(0.0, 0.0, 0.0, 0.0, 0.0, 0.0)",0.07392867354103337,True,"(-0.031686822160058116, 0.18488613984224478, 0.04000043510198592)","(0.9999988098771241, 0.0014801792449422473, 0.0004351019859183338)",-8.387166015081183e-05,0.0,True,"(0.03153472867097123, 0.18483369673614605, 0.03999956489801407)","(-0.9999988098771241, -0.0014801792449397621, -0.00043510198592709785)",-0.0006147291316199805,0.9658650952054655
68,Move,"(-0.00016, 0.0, -9e-05)","(0.0, -0.0, 0.0)","(0.00023388155238513714, 0.17167164425668768, 0.002109937705484565)","(1.530163852375015, -0.0003848737505789178, 0.0026665846315398448)","[0.00023380299092013154, 0.0016725818801688608, 0.0011950480223968303]","[-0.026750000193715096, 0.05299999937415123, 0.03999999910593033]","[0.0, -0.0, 0.5807856168036677]","[-0.06625502556562424, 0.1131942942738533, 0.03999999910593033]","[0.0, 0.0, -0.23370387075542295]","[0.026750000193715096, 0.05299999937415123, 0.03999999910593033]","[0.0, 0.0, -0.5803346669760623]","[0.06622787564992905, 0.11321210116147995, 0.03999999910593033]","[0.0, -0.0, 0.23564990179736753]",0.5812340823097218,0.10762377330797968,"(0.0, 0.0, 0.0, 0.0, 0.0, 0.0)",0.009731842567506432,-0.8144895607657978,-9.948720101071729e-06,"(0.0, 0.0, 0.0, 0.0, 0.0, 0.0)",0.0007149950677095576,-0.5806563245437922,-0.07721305829505767,"(0.0, 0.0, 0.0, 0.0, 0.0, 0.0)",0.16009518415690313,0.8159346749183675,-0.011961321485235502,"(0.0, 0.0, 0.0, 0.0, 0.0, 0.0)",0.09338093268818416,True,"(-0.031742357285406156, 0.1848846023837996, 0.04000040503033059)","(0.9999969435177776, 0.0024390378296195725, 0.0004050303305877691)",-3.5665281251509724e-05,0.0,True,"(0.031575758862253056, 0.18483218405208823, 0.039999594969669414)","(-0.9999969435177775, -0.0024390378295959052, -0.00040503033059064537)",-0.0005665386577403591,1.2971906233715085
69,Move,"(-0.00021, 0.0, -0.00011999999999999999)","(0.0, -0.0, 0.0)","(0.00023389497186325365, 0.17166748518996966, 0.0020646399366675734)","(1.5319927347596827, -0.0003625389175076121, 0.0026656214282362953)","[0.00023381641039824804, 0.0016684228134508372, 0.0011497502535798387]","[-0.026750000193715096, 0.05299999937415123, 0.03999999910593033]","[0.0, -0.0, 0.5812341457789009]","[-0.06628201901912689, 0.11317656934261322, 0.03999999910593033]","[0.0, 0.0, -0.23325552855851753]","[0.026750000193715096, 0.05299999937415123, 0.03999999910593033]","[0.0, 0.0, -0.5806563628814622]","[0.06624723970890045, 0.1131993979215622, 0.03999999910593033]","[0.0, -0.0, 0.23527836582823577]",0.581704656318652,0.11293776214322993,"(0.0, 0.0, 0.0, 0.0, 0.0, 0.0)",0.007830558103769383,-0.8144895566204978,9.948720087749052e-07,"(0.0, 0.0, 0.0, 0.0, 0.0, 0.0)",0.0005853890479274941,-0.5809645477904062,-0.07397357918734433,"(0.0, 0.0, 0.0, 0.0, 0.0, 0.0)",0.07488362956934104,0.8159216149192416,-0.0031343997901968,"(0.0, 0.0, 0.0, 0.0, 0.0, 0.0)",0.035813513537368946,True,"(-0.03180149451508121, 0.18488212811354648, 0.04000038487374107)","(0.9999963706016705, 0.0026665812738264853, 0.000384873741076748)",2.545074252135383e-05,0.0,True,"(0.03162174327412956, 0.1848317513625109, 0.03999961512625893)","(-0.9999963706016705, -0.0026665812738392845, -0.00038487374106576755)",-0.0005225761490219881,0.5214276682788501
70,Move,"(-0.00019, 0.0, -0.0001)","(0.0, -0.0, 0.0)","(0.00023398027906558808, 0.17165988906074084, 0.0019682790713764103)","(1.5354390781972567, -0.0003381580416362882, 0.0026653091205686404)","[0.00023390171760058248, 0.0016608266842220165, 0.0010533893882886756]","[-0.026750000193715096, 0.05299999937415123, 0.03999999910593033]","[0.0, -0.0, 0.5817046892053228]","[-0.0663103312253952, 0.1131579577922821, 0.03999999910593033]","[0.0, 0.0, -0.23278490426878679]","[0.026750000193715096, 0.05299999937415123, 0.03999999910593033]","[0.0, 0.0, -0.580964573881635]","[0.06626579165458679, 0.11318722367286682, 0.03999999910593033]","[0.0, -0.0, 0.23495705489229501]",0.5821806330112226,0.11423440621693891,"(0.0, 0.0, 0.0, 0.0, 0.0, 0.0)",0.0019320193968719328,-0.8144895570350278,-9.948719981167642e-08,"(0.0, 0.0, 0.0, 0.0, 0.0, 0.0)",0.00014418952672076767,-0.5812555119820663,-0.06983140599842257,"(0.0, 0.0, 0.0, 0.0, 0.0, 0.0)",0.017724529455327428,0.8159177535708921,-0.0009267236038768933,"(0.0, 0.0, 0.0, 0.0, 0.0, 0.0)",0.00645509213293294,True,"(-0.031863553176059475, 0.18487926501310792, 0.04000036253890957)","(0.9999963815163053, 0.0026656180962838054, 0.00036253890956721173)",8.836208016273447e-05,0.0,True,"(0.03166331310741253, 0.1848303751113674, 0.039999637461090434)","(-0.9999963815163051, -0.0026656180962759575, -0.0003625389095685077)",-0.0004818546298578464,0.08613813451828627
71,Move,"(-0.00023, 0.0, -0.00011999999999999999)","(0.0, -0.0, 0.0)","(0.00023406425054739484, 0.1716492740736097, 0.0018208378228222902)","(1.5405088130088398, -0.0003138409942905805, 0.002663810936239057)","[0.00023398568908238924, 0.0016502116970908698, 0.0009059481397345555]","[-0.026750000193715096, 0.05299999937415123, 0.03999999910593033]","[0.0, -0.0, 0.5821805989671389]","[-0.06633895635604858, 0.11313912272453308, 0.03999999910593033]","[0.0, 0.0, -0.23230892323636118]","[0.026750000193715096, 0.05299999937415123, 0.03999999910593033]","[0.0, 0.0, -0.581255532079159]","[0.06628330796957016, 0.11317571997642517, 0.03999999910593033]","[0.0, -0.0, 0.2346622420776832]",0.582644932020622,0.11143176225585981,"(0.0, 0.0, 0.0, 0.0, 0.0, 0.0)",-0.004063690643578673,-0.8144886925342648,0.00020748018312018718,"(0.0, 0.0, 0.0, 0.0, 0.0, 0.0)",-0.0002819009698637191,-0.5815457332710258,-0.06965310935028855,"(0.0, 0.0, 0.0, 0.0, 0.0, 0.0)",0.0003463937342974889,0.8159177713768813,4.2734373948305916e-06,"(0.0, 0.0, 0.0, 0.0, 0.0, 0.0)",0.0001201123727396158,True,"(-0.03192632262966257, 0.18487633984141233, 0.04000033815803519)","(0.9999963908905216, 0.002665305812509028, 0.0003381580351939537)",0.00015210092043178966,0.0,True,"(0.0317019482287641, 0.18482877895172498, 0.0399996618419648)","(-0.9999963908905217, -0.0026653058125137557, -0.00033815803519534926)",-0.00044418507397960124,0.0
72,Move,"(-0.00021, 0.0, -0.00011000000000000002)","(0.0, -0.0, 0.0)","(0.0002341384566456994, 0.1716363065507649, 0.0016223777242264869)","(1.547203108835381, -0.0002895561755862161, 0.0026615530438190123)","[0.0002340598951806938, 0.001637244174246072, 0.0007074880411387522]","[-0.026750000193715096, 0.05299999937415123, 0.03999999910593033]","[0.0, -0.0, 0.5826449420389226]","[-0.06636687368154526, 0.11312073469161987, 0.03999999910593033]","[0.0, 0.0, -0.23184376647492763]","[0.026750000193715096, 0.05299999937415123, 0.03999999910593033]","[0.0, 0.0, -0.5815457137519616]","[0.06630077213048935, 0.11316424608230591, 0.03999999910593033]","[0.0, -0.0, 0.23437205787592166]",0.5830982371093439,0.10879322129327473,"(0.0, 0.0, 0.0, 0.0, 0.0, 0.0)",-0.0038694533386892612,-0.8144887129991941,-4.911583027300152e-06,"(0.0, 0.0, 0.0, 0.0, 0.0, 0.0)",-0.0003099830323354834,-0.5818065932209333,-0.06260638797779981,"(0.0, 0.0, 0.0, 0.0, 0.0, 0.0)",0.010324454162222949,0.8159176066182319,-3.954207585923886e-05,"(0.0, 0.0, 0.0, 0.0, 0.0, 0.0)",0.0007656333672363158,True,"(-0.03198761279426067, 0.1848734853267448, 0.04000031384098914)","(0.9999964028098364, 0.0026638076546927738, 0.0003138409891421767)",0.00021435290884572262,0.0,True,"(0.031740206981249686, 0.1848270469193131, 0.03999968615901086)","(-0.9999964028098361, -0.0026638076547145766, -0.00031384098914544314)",-0.0004068846519609218,0.0
73,Move,"(-0.00023999999999999998, 0.0, -0.00013)","(0.0, -0.0, 0.0)","(0.00023420100285922017, 0.17162191345978073, 0.0013728957639904597)","(1.5555223127697244, -0.00026528278121969986, 0.002658671641979098)","[0.00023412244139421457, 0.0016228510832619059, 0.000458006080902725]","[-0.026750000193715096, 0.05299999937415123, 0.03999999910593033]","[0.0, -0.0, 0.5830982551582733]","[-0.0663941279053688, 0.11310277134180069, 0.03999999910593033]","[0.0, 0.0, -0.23139051042853498]","[0.026750000193715096, 0.05299999937415123, 0.03999999910593033]","[0.0, 0.0, -0.5818066648621492]","[0.06631646305322647, 0.11315392702817917, 0.03999999910593033]","[0.0, -0.0, 0.23411098786197213]",0.5835232038427097,0.10199201600778009,"(0.0, 0.0, 0.0, 0.0, 0.0, 0.0)",-0.009954102704545583,-0.8144885538613248,3.8193088628916e-05,"(0.0, 0.0, 0.0, 0.0, 0.0, 0.0)",-0.0007379791270914104,-0.5820491113657451,-0.058204354754831655,"(0.0, 0.0, 0.0, 0.0, 0.0, 0.0)",0.006449947206206671,0.8159175202838271,-2.0720257144177274e-05,"(0.0, 0.0, 0.0, 0.0, 0.0, 0.0)",0.0004829789823842118,True,"(-0.03204738838378425, 0.18487064129777686, 0.04000028955617154)","(0.9999964161485477, 0.0026615497899037874, 0.0002895561715423605)",0.0002750755573652272,0.0,True,"(0.031774607664394425, 0.1848254876139847, 0.03999971044382846)","(-0.9999964161485477, -0.0026615497898975758, -0.000289556171537781)",-0.0003734269617644997,0.0
74,Move,"(-0.00022000000000000003, 0.0, -0.00011999999999999999)","(0.0, -0.0, 0.0)","(0.0002342915279048063, 0.17160725438024954, 0.0010726887846102414)","(1.565460740538693, -0.00025213350402154415, 0.002658042743253853)","[0.0002342129664398007, 0.0016081920037307185, 0.00015779910152250668]","[-0.026750000193715096, 0.05299999937415123, 0.03999999910593033]","[0.0, -0.0, 0.5835232740606753]","[-0.06641966104507446, 0.11308591812849045, 0.03999999910593033]","[0.0, 0.0, -0.23096536611715568]","[0.026750000193715096, 0.05299999937415123, 0.03999999910593033]","[0.0, 0.0, -0.5820491185496506]","[0.06633105129003525, 0.11314433068037033, 0.03999999910593033]","[0.0, -0.0, 0.2338684454577838]",0.5839188257570628,0.09494925944472943,"(0.0, 0.0, 0.0, 0.0, 0.0, 0.0)",-0.010319828121969668,-0.8144885697751117,-3.81930886383941e-06,"(0.0, 0.0, 0.0, 0.0, 0.0, 0.0)",-0.0007739068501921136,-0.5822489553617687,-0.047962559045668526,"(0.0, 0.0, 0.0, 0.0, 0.0, 0.0)",0.03426935675268163,0.8159089845476455,-0.002048576683605882,"(0.0, 0.0, 0.0, 0.0, 0.0, 0.0)",0.010789323296946495,True,"(-0.032103438726461, 0.18486795563184877, 0.040000265282778114)","(0.9999964305472795, 0.002658668416272426, 0.00026528277811299394)",0.00033206110300283963,0.0,True,"(0.0318065843793362, 0.18482402843714352, 0.039999734717221895)","(-0.9999964305472796, -0.0026586684162753066, -0.00026528277810458975)",-0.00034238142716814103,0.14690859041524337
75,Move,"(-0.0002, 0.0, -0.00011000000000000002)","(0.0, -0.0, 0.0)","(0.00018224803251008757, 0.17165547093682584, 0.0009556113455199326)","(1.5713284151590707, 0.0016364771469298497, 0.004387763317832948)","[0.00018216947104508197, 0.001656408560307021, 4.072166243219793e-05]","[-0.026750000193715096, 0.05299999937415123, 0.03999999910593033]","[0.0, -0.0, 0.5839188796931578]","[-0.06644343584775925, 0.11307021975517273, 0.03999999910593033]","[0.0, 0.0, -0.23056974821666215]","[0.026750000193715096, 0.05299999937415123, 0.03999999910593033]","[0.0, 0.0, -0.5822489709672235]","[0.06634306907653809, 0.1131364181637764, 0.03999999910593033]","[0.0, -0.0, 0.23366002886494353]",0.5842693331751884,0.08412178035014152,"(0.0, 0.0, 0.0, 0.0, 0.0, 0.0)",-0.01587359135213545,-0.814488568183733,3.819308869168472e-07,"(0.0, 0.0, 0.0, 0.0, 0.0, 0.0)",-0.0011835218561202958,-0.582414097074638,-0.039634011088632376,"(0.0, 0.0, 0.0, 0.0, 0.0, 0.0)",0.848290561352214,0.8158842926476888,-0.005926055989602483,"(0.0, 0.0, 0.0, 0.0, 0.0, 0.0)",0.4379389125355156,True,"(-0.03215560588154717, 0.18486543059555155, 0.040000252133501356)","(0.999996435620928, 0.0026580395288294156, 0.0002521335013519474)",0.00038472707149197696,0.0,True,"(0.03183354094515268, 0.18482310209342642, 0.03999974786649866)","(-0.9999964356209279, -0.002658039528833869, -0.0002521335013437766)",-0.00031591934190392055,6.325921256793906
76,Move,"(-0.00023, 0.0, -0.00011999999999999999)","(0.0, -0.0, 0.0)","(0.0001815374871503783, 0.17165398983420233, 0.0010015067446249909)","(1.572680255530592, 0.0015050093651610885, 0.004397771415175257)","[0.0001814589256853727, 0.0016549274576835027, 8.661706153725618e-05]","[-0.026750000193715096, 0.05299999937415123, 0.03999999910593033]","[0.0, -0.0, 0.5842693494581]","[-0.06646448373794556, 0.11305630207061768, 0.03999999910593033]","[0.0, 0.0, -0.23021924403020894]","[0.026750000193715096, 0.05299999937415123, 0.03999999910593033]","[0.0, 0.0, -0.5824140892879067]","[0.06635300070047379, 0.1131298840045929, 0.03999999910593033]","[0.0, -0.0, 0.23347023048852214]",0.584566075325574,0.07121811609255425,"(0.0, 0.0, 0.0, 0.0, 0.0, 0.0)",-0.018925263827780033,-0.8144885682188406,-8.425812912717631e-09,"(0.0, 0.0, 0.0, 0.0, 0.0, 0.0)",-0.0014116518893137677,-0.5825325686517739,-0.028433178512639413,"(0.0, 0.0, 0.0, 0.0, 0.0, 0.0)",0.0358475044908874,0.8158798746068644,-0.0010603297978519829,"(0.0, 0.0, 0.0, 0.0, 0.0, 0.0)",0.01178280755144081,True,"(-0.032201831882196885, 0.1848649070412057, 0.0399983635235835)","(0.9999890347664397, 0.004387743363316368, -0.001636476416500107)",0.00042965855450084116,0.0,True,"(0.03185708848762708, 0.18482119304602657, 0.0400016364764165)","(-0.9999890347664399, -0.004387743363302311, 0.0016364764164899688)",-0.0002916361451642496,0.14287341348376334
77,Move,"(-0.00023, 0.0, -0.00011999999999999999)","(0.0, -0.0, 0.0)","(0.00018099411014260383, 0.17165410864595806, 0.0009988366427259793)","(1.5724767596241493, 0.001381337991346324, 0.0044055866627924645)","[0.00018091554867759823, 0.001655046269439242, 8.394695963824463e-05]","[-0.026750000193715096, 0.05299999937415123, 0.03999999910593033]","[0.0, -0.0, 0.5845660623585737]","[-0.0664823055267334, 0.11304451525211334, 0.03999999910593033]","[0.0, 0.0, -0.2299225178331337]","[0.026750000193715096, 0.05299999937415123, 0.03999999910593033]","[0.0, 0.0, -0.5825325642783854]","[0.06636012345552444, 0.11312519013881683, 0.03999999910593033]","[0.0, -0.0, 0.23334731004787804]",0.5848583456562542,0.07014487936324532,"(0.0, 0.0, 0.0, 0.0, 0.0, 0.0)",-0.001558116541177724,-0.8144885682153299,8.425820041679799e-10,"(0.0, 0.0, 0.0, 0.0, 0.0, 0.0)",-0.00011615263026292759,-0.5826143161270186,-0.019619394058722123,"(0.0, 0.0, 0.0, 0.0, 0.0, 0.0)",0.13991732595058534,0.8158191310988323,-0.014578441927702492,"(0.0, 0.0, 0.0, 0.0, 0.0, 0.0)",0.07661629987830562,True,"(-0.03224096000655141, 0.184862996716201, 0.039998494991203)","(0.9999891973034463, 0.004397752258839643, -0.0015050087970025737)",0.000462748925034577,0.0,True,"(0.031873022639045595, 0.18482060654502425, 0.04000150500879701)","(-0.9999891973034463, -0.004397752258842462, 0.0015050087970099658)",-0.0002696482124725161,0.9831896499440388
78,Move,"(-0.00023, 0.0, -0.00011999999999999999)","(0.0, -0.0, 0.0)","(0.00018080611369051812, 0.17165445393512807, 0.0009896761549175461)","(1.5720544227360194, 0.0012554026720305804, 0.004402112988218139)","[0.00018072755222551252, 0.0016553915586092482, 7.478647182981141e-05]","[-0.026750000193715096, 0.05299999937415123, 0.03999999910593033]","[0.0, -0.0, 0.5848583676706607]","[-0.06649985164403915, 0.11303289979696274, 0.03999999910593033]","[0.0, 0.0, -0.2296302290949421]","[0.026750000193715096, 0.05299999937415123, 0.03999999910593033]","[0.0, 0.0, -0.5826142613930904]","[0.06636503338813782, 0.11312194913625717, 0.03999999910593033]","[0.0, -0.0, 0.23320478253381213]",0.5851430964850445,0.06834019890968346,"(0.0, 0.0, 0.0, 0.0, 0.0, 0.0)",-0.0026323515439588096,-0.8144885682156809,-8.425793396327208e-11,"(0.0, 0.0, 0.0, 0.0, 0.0, 0.0)",-0.00019628748472040968,-0.5826942200132099,-0.01917693268589531,"(0.0, 0.0, 0.0, 0.0, 0.0, 0.0)",0.09665116797158126,0.8157738384606662,-0.010870233159878284,"(0.0, 0.0, 0.0, 0.0, 0.0, 0.0)",0.05499925732016791,True,"(-0.032279497941264904, 0.1848611017886147, 0.03999861866244794)","(0.9999893413808619, 0.004405568208200991, -0.0013813375520585055)",0.0004958344329156468,0.0,True,"(0.031888154362153906, 0.18482213138403472, 0.040001381337552065)","(-0.9999893413808619, -0.004405568208209817, 0.0013813375520643214)",-0.0002490399485876475,0.7284160441275576
79,Move,"(-0.00023, 0.0, -0.00011999999999999999)","(0.0, -0.0, 0.0)","(0.00018053286427177889, 0.17165472259009085, 0.0009896387623632107)","(1.5717798210743612, 0.0009830720621070474, 0.004401367866058979)","[0.00018045430280677328, 0.0016556602135720244, 7.474907927547598e-05]","[-0.026750000193715096, 0.05299999937415123, 0.03999999910593033]","[0.0, -0.0, 0.5851432288152615]","[-0.0665169432759285, 0.11302158236503601, 0.03999999910593033]","[0.0, 0.0, -0.2293454648029875]","[0.026750000193715096, 0.05299999937415123, 0.03999999910593033]","[0.0, 0.0, -0.5826942000729475]","[0.06636983901262283, 0.11311878263950348, 0.03999999910593033]","[0.0, -0.0, 0.2330796143570741]",0.5854287533208609,0.06855764059592673,"(0.0, 0.0, 0.0, 0.0, 0.0, 0.0)",0.00033623289759225985,-0.8144885682178554,-5.218665858475321e-10,"(0.0, 0.0, 0.0, 0.0, 0.0, 0.0)",2.5148001190686866e-05,-0.5827746896532378,-0.01931271360668596,"(0.0, 0.0, 0.0, 0.0, 0.0, 0.0)",0.001108766733528251,0.8157784983139971,0.001118364799402062,"(0.0, 0.0, 0.0, 0.0, 0.0, 0.0)",0.001297614878491867,True,"(-0.03231704379822205, 0.18485923369313562, 0.039998744597657725)","(0.999989522706071, 0.0044020953015048055, -0.0012554023422730067)",0.0005283536105689206,0.0,True,"(0.03190193545920866, 0.18482315989830395, 0.04000125540234226)","(-0.999989522706071, -0.0044020953014938784, 0.0012554023422636084)",-0.00023020752417408257,0.0
80,Move,"(-0.00023, 0.0, -0.00011999999999999999)","(0.0, -0.0, 0.0)","(0.00018025297801757252, 0.17165499094169193, 0.0009896573350850132)","(1.5715067658743402, 0.0007103738667977481, 0.004400943888758097)","[0.00018017441655256692, 0.0016559285651731037, 7.476765199727854e-05]","[-0.026750000193715096, 0.05299999937415123, 0.03999999910593033]","[0.0, -0.0, 0.5854286833883302]","[-0.06653408706188202, 0.1130102202296257, 0.03999999910593033]","[0.0, 0.0, -0.22905981228755395]","[0.026750000193715096, 0.05299999937415123, 0.03999999910593033]","[0.0, 0.0, -0.5827747781606688]","[0.06637467443943024, 0.113115593791008, 0.03999999910593033]","[0.0, -0.0, 0.23300380379783628]",0.5857158016538064,0.06889159990694527,"(0.0, 0.0, 0.0, 0.0, 0.0, 0.0)",0.0005073680471159614,-0.8144885682209692,-7.473015680009252e-10,"(0.0, 0.0, 0.0, 0.0, 0.0, 0.0)",3.791413044541492e-05,-0.5828587009043694,-0.02016270027161049,"(0.0, 0.0, 0.0, 0.0, 0.0, 0.0)",-0.001385203803426791,0.8157781189070298,-9.105767214267753e-05,"(0.0, 0.0, 0.0, 0.0, 0.0, 0.0)",-0.00022589496132493277,True,"(-0.03235470845552116, 0.18485735165169126, 0.039999016928096244)","(0.99998983078547, 0.004401351528693651, -0.0009830719037614598)",0.000555150885218305,0.0,True,"(0.031912209083088505, 0.18482250924260737, 0.040000983071903765)","(-0.99998983078547, -0.0044013515286983485, 0.0009830719037662637)",-0.0002090405547930655,0.0
81,Move,"(-0.00019, 0.0, -0.0001)","(0.0, -0.0, 0.0)","(0.00017997727274594028, 0.17165525444879595, 0.0009896740038810967)","(1.5712343021627486, 0.0004382147434213103, 0.004400822349291988)","[0.00017989871128093468, 0.0016561920722771295, 7.478432079336197e-05]","[-0.026750000193715096, 0.05299999937415123, 0.03999999910593033]","[0.0, -0.0, 0.585715828152096]","[-0.0665513128042221, 0.11299879848957062, 0.03999999910593033]","[0.0, 0.0, -0.22877281499416333]","[0.026750000193715096, 0.05299999937415123, 0.03999999910593033]","[0.0, 0.0, -0.5828586903513038]","[0.06637972593307495, 0.11311226338148117, 0.03999999910593033]","[0.0, -0.0, 0.23291941669755153]",0.5860019594086184,0.06867786115489292,"(0.0, 0.0, 0.0, 0.0, 0.0, 0.0)",-0.0002967211728199667,-0.8144885682206577,7.472955587672914e-11,"(0.0, 0.0, 0.0, 0.0, 0.0, 0.0)",-2.2065453849679545e-05,-0.5829463362445055,-0.02103248163267889,"(0.0, 0.0, 0.0, 0.0, 0.0, 0.0)",-0.0012710681999439965,0.8157781568477265,9.105767214911964e-06,"(0.0, 0.0, 0.0, 0.0, 0.0, 0.0)",-8.466961030193538e-05,True,"(-0.03239255611948892, 0.18485544992889763, 0.039999289626192945)","(0.9999900635490132, 0.004400928571877769, -0.000710373807053877)",0.000582103394488247,0.0,True,"(0.03192331098109892, 0.18482200419992104, 0.04000071037380705)","(-0.9999900635490132, -0.004400928571872099, 0.00071037380705175)",-0.00018702194444923886,0.0
82,Move,"(-0.00019, 0.0, -0.0001)","(0.0, -0.0, 0.0)","(0.00017972320525941647, 0.17165549791966175, 0.0009896919566416357)","(1.5709623519143898, 0.00016661781323303027, 0.00440097323207805)","[0.00017964464379441086, 0.0016564355431429312, 7.4802273553901e-05]","[-0.026750000193715096, 0.05299999937415123, 0.03999999910593033]","[0.0, -0.0, 0.5860020136798094]","[-0.06656847894191742, 0.11298740655183792, 0.03999999910593033]","[0.0, 0.0, -0.22848662950003554]","[0.026750000193715096, 0.05299999937415123, 0.03999999910593033]","[0.0, 0.0, -0.5829463020380808]","[0.06638499349355698, 0.113108791410923, 0.03999999910593033]","[0.0, -0.0, 0.23283180503678755]",0.5862816769557533,0.06713221131236137,"(0.0, 0.0, 0.0, 0.0, 0.0, 0.0)",-0.0022523919411845087,-0.8144885682206884,-7.364372662446745e-12,"(0.0, 0.0, 0.0, 0.0, 0.0, 0.0)",-0.0001679475600145767,-0.583049047354102,-0.02465066630316493,"(0.0, 0.0, 0.0, 0.0, 0.0, 0.0)",-0.005318770755313763,0.815778153055055,-9.102411740146137e-07,"(0.0, 0.0, 0.0, 0.0, 0.0, 0.0)",-0.0003977705295836721,True,"(-0.032430285890348465, 0.1848535435935868, 0.0399995617852706)","(0.9999902203818043, 0.0044008077214642465, -0.00043821472940260036)",0.0006089566330300315,0.0,True,"(0.031934860731402795, 0.1848214615461033, 0.04000043821472939)","(-0.9999902203818044, -0.004400807721459255, 0.0004382147293938102)",-0.00016457942638600225,0.0
83,Move,"(-0.00019, 0.0, -0.0001)","(0.0, -0.0, 0.0)","(0.00017959768880913908, 0.17165562515786195, 0.0009897592632550657)","(1.5708359643780172, 4.231145405707062e-05, 0.004400965575035666)","[0.00017951912734413348, 0.0016565627813431294, 7.486958016733104e-05]","[-0.026750000193715096, 0.05299999937415123, 0.03999999910593033]","[0.0, -0.0, 0.5862816565382533]","[-0.06658525764942169, 0.11297626048326492, 0.03999999910593033]","[0.0, 0.0, -0.22820692332473147]","[0.026750000193715096, 0.05299999937415123, 0.03999999910593033]","[0.0, 0.0, -0.5830490542318797]","[0.06639117002487183, 0.11310472339391708, 0.03999999910593033]","[0.0, -0.0, 0.23272912808191695]",0.5865613202662989,0.06711439453094313,"(0.0, 0.0, 0.0, 0.0, 0.0, 0.0)",-9.49624238775104e-06,-0.8144885682206853,7.354117315117037e-13,"(0.0, 0.0, 0.0, 0.0, 0.0, 0.0)",-6.436729124072431e-07,-0.58315415851846,-0.02522667944590573,"(0.0, 0.0, 0.0, 0.0, 0.0, 0.0)",-0.000851702355820597,0.8157781534343221,9.10241162443981e-08,"(0.0, 0.0, 0.0, 0.0, 0.0, 0.0)",-6.343926578827942e-05,True,"(-0.03246716606586796, 0.184851669996341, 0.039999833382187544)","(0.9999903018523228, 0.004400958964244358, -0.00016661781246051004)",0.0006349974406267831,0.0,True,"(0.03194840086989292, 0.18482082557344198, 0.04000016661781247)","(-0.9999903018523226, -0.004400958964246242, 0.00016661781246874935)",-0.00014018939467076887,0.0
84,Move,"(-0.00015000000000000001, 0.0, -8e-05)","(0.0, -0.0, 0.0)","(0.00017958501045430694, 0.17165563530461284, 0.0009896895597781203)","(1.5708256259770215, 2.9713156224869414e-05, 0.00440096571205705)","[0.00017950644898930134, 0.0016565729280940134, 7.479987669038561e-05]","[-0.026750000193715096, 0.05299999937415123, 0.03999999910593033]","[0.0, -0.0, 0.5865613338299133]","[-0.06660202890634537, 0.11296512186527252, 0.03999999910593033]","[0.0, 0.0, -0.22792724432393152]","[0.026750000193715096, 0.05299999937415123, 0.03999999910593033]","[0.0, 0.0, -0.5831542385032839]","[0.06639748811721802, 0.1131005585193634, 0.03999999910593033]","[0.0, -0.0, 0.23262398139183993]",0.5868403600395325,0.06696954557606728,"(0.0, 0.0, 0.0, 0.0, 0.0, 0.0)",-0.00019601892583804,-0.8144885682035392,4.115067442543916e-09,"(0.0, 0.0, 0.0, 0.0, 0.0, 0.0)",-1.4556791496715389e-05,-0.5832627017137567,-0.026050366871206872,"(0.0, 0.0, 0.0, 0.0, 0.0, 0.0)",-0.0011981597162286555,0.8157788176515058,0.00015941212408120343,"(0.0, 0.0, 0.0, 0.0, 0.0, 0.0)",-7.3236832038333e-05,True,"(-0.032504035996526355, 0.18484978642566832, 0.039999957688545945)","(0.9999903148715136, 0.004400951364427967, -4.231145404925468e-05)",0.0006669016675469647,0.0,True,"(0.031962257098457195, 0.18482017332002282, 0.04000004231145404)","(-0.9999903148715137, -0.0044009513644226615, 4.231145404450794e-05)",-0.00012136164387486966,0.0
85,Move,"(-0.00015000000000000001, 0.0, -8e-05)","(0.0, -0.0, 0.0)","(0.00017957713234598827, 0.17165564186764914, 0.0009896556881962963)","(1.5708189057094353, 2.1893296634538742e-05, 0.004400966117260816)","[0.00017949857088098267, 0.0016565794911303222, 7.476600510856156e-05]","[-0.026750000193715096, 0.05299999937415123, 0.03999999910593033]","[0.0, -0.0, 0.5868403715841595]","[-0.06661876291036606, 0.11295399814844131, 0.03999999910593033]","[0.0, 0.0, -0.2276482290129222]","[0.026750000193715096, 0.05299999937415123, 0.03999999910593033]","[0.0, 0.0, -0.5832626655462876]","[0.06640400737524033, 0.11309625208377838, 0.03999999910593033]","[0.0, -0.0, 0.2325161133500156]",0.5871134194896768,0.06553426803460471,"(0.0, 0.0, 0.0, 0.0, 0.0, 0.0)",-0.0020907604533311063,-0.814488568021631,4.3657954100176626e-08,"(0.0, 0.0, 0.0, 0.0, 0.0, 0.0)",-0.00015589010707295456,-0.583384239583047,-0.029169088629664056,"(0.0, 0.0, 0.0, 0.0, 0.0, 0.0)",-0.004594475915053243,0.8157791426932829,7.801002649330689e-05,"(0.0, 0.0, 0.0, 0.0, 0.0, 0.0)",-0.0003509784355453855,True,"(-0.032540825840348064, 0.1848478966514772, 0.03999997028684379)","(0.9999903153245997, 0.004400951503451469, -2.971315621893114e-05)",0.0007031953916206699,0.0,True,"(0.031976518079162186, 0.18481947604304166, 0.04000002971315623)","(-0.9999903153245998, -0.004400951503455197, 2.971315622651391e-05)",-0.00010659975869069283,0.0
86,Move,"(-0.00011000000000000002, 0.0, -5.9999999999999995e-05)","(0.0, -0.0, 0.0)","(0.0001795721935020423, 0.17165564618505386, 0.0009896422688150071)","(1.5708144500683867, 1.7000584387656972e-05, 0.004400966651488919)","[0.0001794936320370367, 0.0016565838085350337, 7.475258572727243e-05]","[-0.026750000193715096, 0.05299999937415123, 0.03999999910593033]","[0.0, -0.0, 0.5871134610573753]","[-0.0666351318359375, 0.11294311285018921, 0.03999999910593033]","[0.0, 0.0, -0.22737514534025113]","[0.026750000193715096, 0.05299999937415123, 0.03999999910593033]","[0.0, 0.0, -0.583384280541038]","[0.06641131639480591, 0.11309143155813217, 0.03999999910593033]","[0.0, -0.0, 0.23239489205709987]",0.5873870885932051,0.06568058484679895,"(0.0, 0.0, 0.0, 0.0, 0.0, 0.0)",0.00023108971805597657,-0.8144885680601928,-9.254798565275267e-09,"(0.0, 0.0, 0.0, 0.0, 0.0, 0.0)",1.7294225598455506e-05,-0.5835046320783763,-0.028894198879056535,"(0.0, 0.0, 0.0, 0.0, 0.0, 0.0)",0.00039404168769492187,0.8157793767333447,5.616961483926348e-05,"(0.0, 0.0, 0.0, 0.0, 0.0, 0.0)",2.716874835975878e-05,True,"(-0.03257682671205398, 0.18484603744617248, 0.039999978106703374)","(0.9999903155245923, 0.004400951909533884, -2.189329663024649e-05)",0.0007388911949833694,0.0,True,"(0.031992516310273576, 0.1848187074499542, 0.04000002189329663)","(-0.9999903155245923, -0.004400951909531942, 2.18932966235568e-05)",-9.029214938964243e-05,0.0
87,Move,"(-0.00015000000000000001, 0.0, -8e-05)","(0.0, -0.0, 0.0)","(0.00017956722315653253, 0.17165564888517018, 0.0009895879470433336)","(1.5708113414472646, 1.2136463743585462e-05, 0.004400968742824571)","[0.00017948866169152693, 0.0016565865086513587, 7.469826395559891e-05]","[-0.026750000193715096, 0.05299999937415123, 0.03999999910593033]","[0.0, -0.0, 0.5873871210933507]","[-0.06665153056383133, 0.11293219029903412, 0.03999999910593033]","[0.0, 0.0, -0.22710151391218017]","[0.026750000193715096, 0.05299999937415123, 0.03999999910593033]","[0.0, 0.0, -0.5835046281360837]","[0.06641855090856552, 0.11308665573596954, 0.03999999910593033]","[0.0, -0.0, 0.23227476600912386]",0.5876550867193137,0.06431955026605962,"(0.0, 0.0, 0.0, 0.0, 0.0, 0.0)",-0.001982017327162128,-0.8144885657227151,5.609946298562333e-07,"(0.0, 0.0, 0.0, 0.0, 0.0, 0.0)",-0.00014772717108798092,-0.5836365818539414,-0.03166794613562374,"(0.0, 0.0, 0.0, 0.0, 0.0, 0.0)",-0.004080264307582066,0.8157795911188811,5.145252875747811e-05,"(0.0, 0.0, 0.0, 0.0, 0.0, 0.0)",-0.0003048529158618229,True,"(-0.03261290743555852, 0.18484416421943545, 0.039999982999415616)","(0.9999903156173884, 0.004400952444172897, -1.7000584389062667e-05)",0.0007747840232713862,0.0,True,"(0.032008369988837826, 0.18481794712380573, 0.04000001700058439)","(-0.9999903156173886, -0.004400952444174945, 1.7000584389955586e-05)",-7.424617438115094e-05,0.0
88,Move,"(-0.00011000000000000002, 0.0, -5.9999999999999995e-05)","(0.0, -0.0, 0.0)","(0.0001795640814327312, 0.17165565027490656, 0.000989549040823732)","(1.5708095557562134, 9.093803500142676e-06, 0.00440097086592662)","[0.0001794855199677256, 0.0016565878983877402, 7.465935773599722e-05]","[-0.026750000193715096, 0.05299999937415123, 0.03999999910593033]","[0.0, -0.0, 0.5876550836716655]","[-0.0666675940155983, 0.11292149871587753, 0.03999999910593033]","[0.0, 0.0, -0.22683349937646505]","[0.026750000193715096, 0.05299999937415123, 0.03999999910593033]","[0.0, 0.0, -0.5836365652684335]","[0.06642647832632065, 0.1130814179778099, 0.03999999910593033]","[0.0, -0.0, 0.23214300260639575]",0.5879294167176281,0.06583919959547035,"(0.0, 0.0, 0.0, 0.0, 0.0, 0.0)",0.0022470878892749038,-0.8144885686032549,-6.913295550299358e-07,"(0.0, 0.0, 0.0, 0.0, 0.0, 0.0)",0.00016755206847560977,-0.5837560036476316,-0.02866123048563729,"(0.0, 0.0, 0.0, 0.0, 0.0, 0.0)",0.0044068789754155855,0.8157798048616051,5.1298253747949616e-05,"(0.0, 0.0, 0.0, 0.0, 0.0, 0.0)",0.0003286982698349262,True,"(-0.03264824016622216, 0.18484232032043077, 0.039999987863536264)","(0.9999903156790471, 0.004400954535802153, -1.2136463739855744e-05)",0.0008099297924140452,0.0,True,"(0.03202574848344854, 0.184817113024283, 0.04000001213646374)","(-0.999990315679047, -0.004400954535804581, 1.2136463739219955e-05)",-5.667678042720073e-05,0.0
89,Move,"(-0.00011000000000000002, 0.0, -5.9999999999999995e-05)","(0.0, -0.0, 0.0)","(0.00017956017231490737, 0.17165565525046722, 0.0009895268750914183)","(1.5708060382476285, 4.868471239971994e-06, 0.004400960830087136)","[0.00017948161084990177, 0.0016565928739483982, 7.463719200368358e-05]","[-0.026750000193715096, 0.05299999937415123, 0.03999999910593033]","[0.0, -0.0, 0.587929383233142]","[-0.06668402999639511, 0.11291054636240005, 0.03999999910593033]","[0.0, 0.0, -0.22655918693085106]","[0.026750000193715096, 0.05299999937415123, 0.03999999910593033]","[0.0, 0.0, -0.5837560678704553]","[0.06643365323543549, 0.11307667940855026, 0.03999999910593033]","[0.0, -0.0, 0.23202383862891135]",0.5881975086372978,0.06434206072073921,"(0.0, 0.0, 0.0, 0.0, 0.0, 0.0)",-0.002181795652826549,-0.8144885683152009,6.91329553603741e-08,"(0.0, 0.0, 0.0, 0.0, 0.0, 0.0)",-0.0001626098993840709,-0.5838880411143945,-0.03168899202311421,"(0.0, 0.0, 0.0, 0.0, 0.0, 0.0)",-0.004458834122782584,0.8157797834873327,-5.129825375149694e-06,"(0.0, 0.0, 0.0, 0.0, 0.0, 0.0)",-0.00033833307508897406,True,"(-0.03268440679518891, 0.18484042287510488, 0.0399999909061965)","(0.9999903157020013, 0.004400956659025736, -9.093803502169831e-06)",0.0008459825638736569,0.0,True,"(0.032041475465509076, 0.18481635548485195, 0.0400000090938035)","(-0.9999903157020013, -0.004400956659019951, 9.093803504263177e-06)",-4.0831425176089115e-05,0.0
90,Move,"(-0.00011000000000000002, 0.0, -5.9999999999999995e-05)","(0.0, -0.0, 0.0)","(0.00017955656876396544, 0.17165565986668593, 0.0009895046003055496)","(1.570802838877758, 9.56897583880505e-07, 0.004400951098174772)","[0.00017947800729895984, 0.001656597490167111, 7.461491721781491e-05]","[-0.026750000193715096, 0.05299999937415123, 0.03999999910593033]","[0.0, -0.0, 0.5881975289970964]","[-0.06670008599758148, 0.11289983242750168, 0.03999999910593033]","[0.0, 0.0, -0.22629109701668584]","[0.026750000193715096, 0.05299999937415123, 0.03999999910593033]","[0.0, 0.0, -0.583888062110764]","[0.06644158065319061, 0.11307144165039062, 0.03999999910593033]","[0.0, -0.0, 0.23189174860207046]",0.588466141892282,0.06447198119618956,"(0.0, 0.0, 0.0, 0.0, 0.0, 0.0)",0.00020671294685938534,-0.8144885683440063,-6.913296601851471e-09,"(0.0, 0.0, 0.0, 0.0, 0.0, 0.0)",1.5471294343823442e-05,-0.5840192114392587,-0.03148087796741166,"(0.0, 0.0, 0.0, 0.0, 0.0, 0.0)",0.00029838017184624665,0.81577978562476,5.129825364491572e-07,"(0.0, 0.0, 0.0, 0.0, 0.0, 0.0)",2.2814835123941872e-05,True,"(-0.032719750738411636, 0.18483855908101493, 0.03999999513152876)","(0.9999903157756658, 0.004400946623412037, -4.868471241885075e-06)",0.0008811657828813991,0.0,True,"(0.032058882222861386, 0.18481552435014265, 0.04000000486847124)","(-0.9999903157756658, -0.004400946623421091, 4.868471238576885e-06)",-2.3259904652079924e-05,0.0
91,Move,"(-8e-05, 0.0, -4e-05)","(0.0, -0.0, 0.0)","(0.00017955327902531055, 0.17165566422754885, 0.0009894841056098634)","(1.5707998953711675, -2.641897053984792e-06, 0.00440094139286853)","[0.00017947471756030495, 0.0016566018510300318, 7.45944225221287e-05]","[-0.026750000193715096, 0.05299999937415123, 0.03999999910593033]","[0.0, -0.0, 0.5884661881812393]","[-0.06671617925167084, 0.11288910359144211, 0.03999999910593033]","[0.0, 0.0, -0.22602240138558316]","[0.026750000193715096, 0.05299999937415123, 0.03999999910593033]","[0.0, 0.0, -0.5840192912064066]","[0.06644946336746216, 0.11306623369455338, 0.03999999910593033]","[0.0, -0.0, 0.23176057725057056]",0.5887348724077888,0.0644953237216428,"(0.0, 0.0, 0.0, 0.0, 0.0, 0.0)",5.0268630083119855e-05,-0.8144885683411257,6.913296601851471e-10,"(0.0, 0.0, 0.0, 0.0, 0.0, 0.0)",3.8101812219888025e-06,-0.5841503520582526,-0.03147374855854115,"(0.0, 0.0, 0.0, 0.0, 0.0, 0.0)",2.6505680027902193e-06,0.8157797854110173,-5.129825364491591e-08,"(0.0, 0.0, 0.0, 0.0, 0.0, 0.0)",1.263077194153643e-07,True,"(-0.03275516552339526, 0.18483668200930192, 0.03999999904310242)","(0.9999903158298886, 0.0044009368916412914, -9.568975852692116e-07)",0.0009164324403579781,0.0,True,"(0.03207617287754169, 0.18481469561765937, 0.04000000095689758)","(-0.9999903158298884, -0.004400936891647545, 9.568975807525388e-07)",-5.817015416153511e-06,0.0
92,Move,"(-0.00011000000000000002, 0.0, -5.9999999999999995e-05)","(0.0, -0.0, 0.0)","(0.00017955027791924233, 0.1716556683534127, 0.0009894652492050244)","(1.5707971872252189, -5.952949335962778e-06, 0.00440093171009388)","[0.00017947171645423673, 0.0016566059768938768, 7.457556611728967e-05]","[-0.026750000193715096, 0.05299999937415123, 0.03999999910593033]","[0.0, -0.0, 0.5887348819327174]","[-0.06673227250576019, 0.11287835985422134, 0.03999999910593033]","[0.0, 0.0, -0.22575370712748802]","[0.026750000193715096, 0.05299999937415123, 0.03999999910593033]","[0.0, 0.0, -0.5841503490464164]","[0.0664573386311531, 0.11306102573871613, 0.03999999910593033]","[0.0, -0.0, 0.23162944723734125]",0.5890000437612118,0.06364112482155028,"(0.0, 0.0, 0.0, 0.0, 0.0, 0.0)",-0.0012382018939822354,-0.8144885683414138,-6.913403183240659e-11,"(0.0, 0.0, 0.0, 0.0, 0.0, 0.0)",-9.230298274193894e-05,-0.5842909802807221,-0.033750773392688845,"(0.0, 0.0, 0.0, 0.0, 0.0, 0.0)",-0.0033510549592943445,0.8157797854323915,5.12982456513275e-09,"(0.0, 0.0, 0.0, 0.0, 0.0, 0.0)",-0.0002499775865485695,True,"(-0.03279059262704698, 0.18483479474036843, 0.040000002641897056)","(0.9999903158695688, 0.004400927186420839, 2.6418970548248404e-06)",0.0009517239745569893,0.0,True,"(0.03209345967630915, 0.18481386488403792, 0.039999997358102946)","(-0.999990315869569, -0.004400927186411885, -2.6418970572506907e-06)",1.1609494824486126e-05,0.0
