OSUrobotics/InHand-Manipulation/AnalyseData/Data/new_hand_human_filt_josh_2v2_g_none_1_kpNone_kdNone_dp5_step5_save_data.csv
,Phase,human_cube_pos,human_cube_orn,Cube_Pos,Cube_Orn,Cube_pos_in_start_pos,b'l_prox_pin'_link_pos,b'l_prox_pin'_link_orn,b'l_distal_pin'_link_pos,b'l_distal_pin'_link_orn,b'r_prox_pin'_link_pos,b'r_prox_pin'_link_orn,b'r_distal_pin'_link_pos,b'r_distal_pin'_link_orn,b'l_prox_pin'_joint_angle,b'l_prox_pin'_joint_vel,b'l_prox_pin'_joint_react_forces,b'l_prox_pin'_joint_motor_torque,b'l_distal_pin'_joint_angle,b'l_distal_pin'_joint_vel,b'l_distal_pin'_joint_react_forces,b'l_distal_pin'_joint_motor_torque,b'r_prox_pin'_joint_angle,b'r_prox_pin'_joint_vel,b'r_prox_pin'_joint_react_forces,b'r_prox_pin'_joint_motor_torque,b'r_distal_pin'_joint_angle,b'r_distal_pin'_joint_vel,b'r_distal_pin'_joint_react_forces,b'r_distal_pin'_joint_motor_torque,in_contact_l,contact_point_l_dist,contact_normal_l_dist,contact_distance_l_dist,contact_norm_force_l_dist,in_contact_r,contact_point_r_dist,contact_normal_r_dist,contact_distance_r_dist,contact_norm_force_r_dist
0,Open,,,,,,"[-0.026750000193715096, 0.05299999937415123, 0.03999999910593033]","[0.0, -0.0, 0.42755761853039154]","[-0.056604765355587006, 0.1185186430811882, 0.03999999910593033]","[0.0, -0.0, 0.4463066270391506]","[0.026750000193715096, 0.05299999937415123, 0.03999999910593033]","[0.0, 0.0, -0.42757404208311445]","[0.05660583823919296, 0.1185181587934494, 0.03999999910593033]","[0.0, 0.0, -0.4465272228574986]",0.5418018724257314,27.418616735313837,"(0.0, 0.0, 0.0, 0.0, 0.0, 0.0)",-4.412236817968903,0.016874447698417276,-0.44988750389777044,"(0.0, 0.0, 0.0, 0.0, 0.0, 0.0)",-0.3112578673856835,-0.5418166170859073,-27.418223544375806,"(0.0, 0.0, 0.0, 0.0, 0.0, 0.0)",4.412120589674461,-0.017058187988154127,0.4547872631353701,"(0.0, 0.0, 0.0, 0.0, 0.0, 0.0)",0.31119999541872967,False,,,,,False,,,,
1,Open,,,,,,"[-0.026750000193715096, 0.05299999937415123, 0.03999999910593033]","[0.0, -0.0, 0.8953992050914552]","[-0.08294302970170975, 0.09801492840051651, 0.03999999910593033]","[0.0, -0.0, 0.9064715399310761]","[0.026750000193715096, 0.05299999937415123, 0.03999999910593033]","[0.0, 0.0, -0.8954089117450801]","[0.08294346183538437, 0.09801438450813293, 0.03999999910593033]","[0.0, 0.0, -0.9066016844299951]",0.9628592876486701,16.190418996035465,"(0.0, 0.0, 0.0, 0.0, 0.0, 0.0)",-2.616982039675733,0.009965290062605858,-0.26568209241480656,"(0.0, 0.0, 0.0, 0.0, 0.0, 0.0)",-0.18775783729375353,-0.9628679942230576,-16.190186820718473,"(0.0, 0.0, 0.0, 0.0, 0.0, 0.0)",2.6169116334278195,-0.010073786659150813,0.26857534621184953,"(0.0, 0.0, 0.0, 0.0, 0.0, 0.0)",0.187722108909745,False,,,,,False,,,,
2,Open,,,,,,"[-0.026750000193715096, 0.05299999937415123, 0.03999999910593033]","[0.0, -0.0, 1.17165497759142]","[-0.09309044480323792, 0.08098116517066956, 0.03999999910593033]","[0.0, -0.0, 1.1781937273122836]","[0.026750000193715096, 0.05299999937415123, 0.03999999910593033]","[0.0, 0.0, -1.1716605985979762]","[0.09309060126543045, 0.08098078519105911, 0.03999999910593033]","[0.0, 0.0, -1.178270796658152]",1.2114894807636634,9.56028051296898,"(0.0, 0.0, 0.0, 0.0, 0.0, 0.0)",-1.549346412635057,0.005885062316220725,-0.15689973638119079,"(0.0, 0.0, 0.0, 0.0, 0.0, 0.0)",-0.11225090666269867,-1.2114946219087734,-9.560143415766044,"(0.0, 0.0, 0.0, 0.0, 0.0, 0.0)",1.5493042197033076,-0.00594912834521185,0.1586081706180975,"(0.0, 0.0, 0.0, 0.0, 0.0, 0.0)",0.11222926703597672,False,,,,,False,,,,
3,Open,,,,,,"[-0.026750000193715096, 0.05299999937415123, 0.03999999910593033]","[0.0, -0.0, 1.3347813147466918]","[-0.09675397723913193, 0.06983575969934464, 0.03999999910593033]","[0.0, -0.0, 1.3386449621367835]","[0.026750000193715096, 0.05299999937415123, 0.03999999910593033]","[0.0, 0.0, -1.3347844615433213]","[0.0967540368437767, 0.06983552873134613, 0.03999999910593033]","[0.0, 0.0, -1.3386905382854437]",1.3583031234961356,5.645250040103052,"(0.0, 0.0, 0.0, 0.0, 0.0, 0.0)",-0.9162890978823036,0.0034783869891320215,-0.09247571818598516,"(0.0, 0.0, 0.0, 0.0, 0.0, 0.0)",-0.06677007440367574,-1.3583061592909116,-5.645169085575695,"(0.0, 0.0, 0.0, 0.0, 0.0, 0.0)",0.9162639666346021,-0.003516216695348753,0.09348456497972772,"(0.0, 0.0, 0.0, 0.0, 0.0, 0.0)",0.06675710630673855,False,,,,,False,,,,
4,Open,,,,,,"[-0.026750000193715096, 0.05299999937415123, 0.03999999910593033]","[0.0, -0.0, 1.4311058207082674]","[-0.09804865717887878, 0.06302504986524582, 0.03999999910593033]","[0.0, -0.0, 1.433390691262394]","[0.026750000193715096, 0.05299999937415123, 0.03999999910593033]","[0.0, 0.0, -1.4311075924426346]","[0.09804867953062057, 0.06302490830421448, 0.03999999910593033]","[0.0, 0.0, -1.433417470845748]",1.4449951113932331,3.333463696180452,"(0.0, 0.0, 0.0, 0.0, 0.0, 0.0)",-0.5415503506795546,0.0020570753203455715,-0.05468855210882702,"(0.0, 0.0, 0.0, 0.0, 0.0, 0.0)",-0.039594115216637325,-1.4449969039996904,-3.3334158933415914,"(0.0, 0.0, 0.0, 0.0, 0.0, 0.0)",0.541535435877482,-0.002079412775410495,0.055284250111531166,"(0.0, 0.0, 0.0, 0.0, 0.0, 0.0)",0.03958639191865308,False,,,,,False,,,,
5,Open,,,,,,"[-0.026750000193715096, 0.05299999937415123, 0.03999999910593033]","[0.0, -0.0, 1.4879842849605203]","[-0.09850326180458069, 0.05895565450191498, 0.03999999910593033]","[0.0, -0.0, 1.4893357278409396]","[0.026750000193715096, 0.05299999937415123, 0.03999999910593033]","[0.0, 0.0, -1.4879853833286059]","[0.09850326925516129, 0.05895556882023811, 0.03999999910593033]","[0.0, 0.0, -1.4893513332680077]",1.4961858633265903,1.9683769779575933,"(0.0, 0.0, 0.0, 0.0, 0.0, 0.0)",-0.31995094896823073,0.0012165319928285922,-0.03234212113369103,"(0.0, 0.0, 0.0, 0.0, 0.0, 0.0)",-0.02343792779000599,-1.4961869218427772,-1.9683487508592754,"(0.0, 0.0, 0.0, 0.0, 0.0, 0.0)",0.31994211580738524,-0.0012297216752996233,0.03269386530715718,"(0.0, 0.0, 0.0, 0.0, 0.0, 0.0)",0.02343334437795369,False,,,,,False,,,,
6,Open,,,,,,"[-0.026750000193715096, 0.05299999937415123, 0.03999999910593033]","[0.0, -0.0, 1.5215704989376362]","[-0.09866278618574142, 0.05654282495379448, 0.03999999910593033]","[0.0, -0.0, 1.522369838325666]","[0.026750000193715096, 0.05299999937415123, 0.03999999910593033]","[0.0, 0.0, -1.5215710825913402]","[0.09866278618574142, 0.0565427765250206, 0.03999999910593033]","[0.0, 0.0, -1.522379029767931]",1.5264134904357183,1.1623069217141797,"(0.0, 0.0, 0.0, 0.0, 0.0, 0.0)",-0.18898727227709852,0.000719444125508032,-0.019126791845346432,"(0.0, 0.0, 0.0, 0.0, 0.0, 0.0)",-0.013859938289241243,-1.5264141154789415,-1.162290253894895,"(0.0, 0.0, 0.0, 0.0, 0.0, 0.0)",0.18898204730565804,-0.0007272322869396521,0.019334487584604668,"(0.0, 0.0, 0.0, 0.0, 0.0, 0.0)",0.013857223880827028,False,,,,,False,,,,
7,Close,,,"(1.2478112216283415e-07, 0.16999960627914334, 0.0003375139776509844)","(1.5703757789650807, 0.0001088681168706304, -5.122612185789874e-06)",,"[-0.026750000193715096, 0.05299999937415123, 0.03999999910593033]","[0.0, -0.0, 1.2785329680082034]","[-0.09569678455591202, 0.07374466955661774, 0.03999999910593033]","[0.0, -0.0, 1.0351044933740032]","[0.026750000193715096, 0.05299999937415123, 0.03999999910593033]","[0.0, 0.0, -1.2785333261376617]","[0.09569679200649261, 0.07374463975429535, 0.03999999910593033]","[0.0, 0.0, -1.0351099865887758]",1.2106796019673873,-16.28478938579699,"(0.0, 0.0, 0.0, 0.0, 0.0, 0.0)",2.809472854136235,-0.3090860149933808,-15.757821278062295,"(0.0, 0.0, 0.0, 0.0, 0.0, 0.0)",0.3661538009495806,-1.2106799710491603,16.284799227977608,"(0.0, 0.0, 0.0, 0.0, 0.0, 0.0)",-2.8094757422584213,0.30908141619234186,15.75794391320213,"(0.0, 0.0, 0.0, 0.0, 0.0, 0.0)",-0.3661552191151056,False,,,,,False,,,,
8,Close,,,"(3.0991841452431125e-07, 0.1699991530873768, 0.0005600347089338349)","(1.5707725584893357, 0.0003276471180493337, -1.5390016504502985e-05)",,"[-0.026750000193715096, 0.05299999937415123, 0.03999999910593033]","[0.0, -0.0, 1.0006670909649218]","[-0.08736184239387512, 0.09186135232448578, 0.03999999910593033]","[0.0, -0.0, 0.48836557737534114]","[0.026750000193715096, 0.05299999937415123, 0.03999999910593033]","[0.0, 0.0, -1.0006671906734346]","[0.08736184984445572, 0.09186133742332458, 0.03999999910593033]","[0.0, 0.0, -0.4883688154364048]",0.9606001981650306,-9.616005284561718,"(0.0, 0.0, 0.0, 0.0, 0.0, 0.0)",1.667253264949997,-0.5510712009946406,-9.304767973476249,"(0.0, 0.0, 0.0, 0.0, 0.0, 0.0)",0.2218037572572205,-0.9606004161041268,9.616011096270952,"(0.0, 0.0, 0.0, 0.0, 0.0, 0.0)",-1.6672550198735234,0.5510684854486152,9.30484038803693,"(0.0, 0.0, 0.0, 0.0, 0.0, 0.0)",-0.22180464092959223,False,,,,,False,,,,
9,Close,,,"(2.933853975158492e-07, 0.16999904048792538, 0.0007066062154399696)","(1.5708337628024795, 0.00026866528465535426, -1.404448202163588e-05)",,"[-0.026750000193715096, 0.05299999937415123, 0.03999999910593033]","[0.0, -0.0, 0.8365897781630613]","[-0.08020010590553284, 0.1012398824095726, 0.03999999910593033]","[0.0, -0.0, 0.16552144688028117]","[0.026750000193715096, 0.05299999937415123, 0.03999999910593033]","[0.0, 0.0, -0.8365899294750984]","[0.08020011335611343, 0.101239874958992, 0.03999999910593033]","[0.0, 0.0, -0.1655233971102189]",0.8129308110141114,-5.678154960376304,"(0.0, 0.0, 0.0, 0.0, 0.0, 0.0)",0.9873874064507416,-0.6939616573792659,-5.494397555666588,"(0.0, 0.0, 0.0, 0.0, 0.0, 0.0)",0.13292457281458034,-0.8129309397049683,5.678158392132489,"(0.0, 0.0, 0.0, 0.0, 0.0, 0.0)",-0.987388459985631,0.6939600538790082,5.494440315842426,"(0.0, 0.0, 0.0, 0.0, 0.0, 0.0)",-0.13292511074891808,False,,,,,False,,,,
10,Close,,,"(1.9902477861274505e-07, 0.16999905216518962, 0.0008031506137060285)","(1.5708213694470277, 0.0001751880104672085, -1.4031272711042213e-05)",,"[-0.026750000193715096, 0.05299999937415123, 0.03999999910593033]","[0.0, -0.0, 0.7397039398326887]","[-0.075282983481884, 0.10618411004543304, 0.03999999910593033]","[0.0, 0.0, -0.025114755601520013]","[0.026750000193715096, 0.05299999937415123, 0.03999999910593033]","[0.0, 0.0, -0.7397039829241547]","[0.0752829909324646, 0.10618410259485245, 0.03999999910593033]","[0.0, -0.0, 0.025113617980755978]",0.7257335145957226,-3.3528937225526034,"(0.0, 0.0, 0.0, 0.0, 0.0, 0.0)",0.5840196078844049,-0.7783380408184963,-3.244652289205478,"(0.0, 0.0, 0.0, 0.0, 0.0, 0.0)",0.07914031685893824,-0.7257335905863868,3.3528957489703144,"(0.0, 0.0, 0.0, 0.0, 0.0, 0.0)",-0.5840202358821991,0.778337093974245,3.2446775397467595,"(0.0, 0.0, 0.0, 0.0, 0.0, 0.0)",-0.07914064000385382,False,,,,,False,,,,
11,Close,,,"(1.3069317882946781e-07, 0.16999905849316785, 0.0008666025578373041)","(1.570813038524343, 0.0001076496945073061, -1.4014808324094979e-05)",,"[-0.026750000193715096, 0.05299999937415123, 0.03999999910593033]","[0.0, -0.0, 0.6824937890365349]","[-0.07216256856918335, 0.10887216031551361, 0.03999999910593033]","[0.0, 0.0, -0.137687120736303]","[0.026750000193715096, 0.05299999937415123, 0.03999999910593033]","[0.0, 0.0, -0.6824937890365349]","[0.07216257601976395, 0.10887216031551361, 0.03999999910593033]","[0.0, -0.0, 0.1376864353718678]",0.6742443830336282,-1.9798502142300851,"(0.0, 0.0, 0.0, 0.0, 0.0, 0.0)",0.34523008433021124,-0.8281635344937409,-1.9158370237869804,"(0.0, 0.0, 0.0, 0.0, 0.0, 0.0)",0.046989708289177236,-0.6742444279053555,1.9798514108094807,"(0.0, 0.0, 0.0, 0.0, 0.0, 0.0)",-0.3452304573414294,0.8281629754068567,1.9158519335829844,"(0.0, 0.0, 0.0, 0.0, 0.0, 0.0)",-0.04698990114977892,False,,,,,False,,,,
12,Close,,,"(8.555941999099156e-08, 0.16999906193922792, 0.000908421947806545)","(1.5708075491537519, 6.311807488844542e-05, -1.4000595358663434e-05)",,"[-0.026750000193715096, 0.05299999937415123, 0.03999999910593033]","[0.0, -0.0, 0.6487117277688945]","[-0.070249542593956, 0.11037412285804749, 0.03999999910593033]","[0.0, 0.0, -0.20415830575541527]","[0.026750000193715096, 0.05299999937415123, 0.03999999910593033]","[0.0, 0.0, -0.6487117277688945]","[0.070249542593956, 0.11037411540746689, 0.03999999910593033]","[0.0, -0.0, 0.20415788801885543]",0.6438405657375271,-1.1690817530007243,"(0.0, 0.0, 0.0, 0.0, 0.0, 0.0)",0.20397674457790932,-0.8575834812137779,-1.1312243968345508,"(0.0, 0.0, 0.0, 0.0, 0.0, 0.0)",0.027828964636992654,-0.6438405922338334,1.1690824595688907,"(0.0, 0.0, 0.0, 0.0, 0.0, 0.0)",-0.20397696556653716,0.8575831510875931,1.1312332006820753,"(0.0, 0.0, 0.0, 0.0, 0.0, 0.0)",-0.027829079200348807,False,,,,,False,,,,
13,Close,,,"(5.567361934631568e-08, 0.16999906349286917, 0.0009359839309479349)","(1.5708039321322358, 3.37560108188707e-05, -1.3987283228090085e-05)",,"[-0.026750000193715096, 0.05299999937415123, 0.03999999910593033]","[0.0, -0.0, 0.62876384308693]","[-0.06909646838903427, 0.11123037338256836, 0.03999999910593033]","[0.0, 0.0, -0.24340789693353326]","[0.026750000193715096, 0.05299999937415123, 0.03999999910593033]","[0.0, 0.0, -0.62876384308693]","[0.06909646838903427, 0.11123037338256836, 0.03999999910593033]","[0.0, -0.0, 0.24340764580603796]",0.6258874156623524,-0.6903310843293964,"(0.0, 0.0, 0.0, 0.0, 0.0, 0.0)",0.12048853373387189,-0.8749547691894786,-0.6679421640099914,"(0.0, 0.0, 0.0, 0.0, 0.0, 0.0)",0.016461146679105913,-0.6258874313081562,0.6903315015508323,"(0.0, 0.0, 0.0, 0.0, 0.0, 0.0)",-0.12048866447898966,0.8749545742586229,0.6679473624521103,"(0.0, 0.0, 0.0, 0.0, 0.0, 0.0)",-0.016461214564379854,False,,,,,False,,,,
14,Move,,,"(0.0002849434880139787, 0.17128526654835666, 0.0018667775255450016)","(1.529867145493542, 0.001236551690390913, -0.0026252758006009144)","[0.0, 0.0, 0.0]","[-0.026750000193715096, 0.05299999937415123, 0.03999999910593033]","[0.0, -0.0, 0.5674368798319164]","[-0.06544800847768784, 0.113716259598732, 0.03999999910593033]","[0.0, 0.0, -0.23086444862254737]","[0.026750000193715096, 0.05299999937415123, 0.03999999910593033]","[0.0, 0.0, -0.5672775113046467]","[0.06543833017349243, 0.11372242867946625, 0.03999999910593033]","[0.0, -0.0, 0.2338230653212545]",0.5526433844132694,-3.5504372063580854,"(0.0, 0.0, 0.0, 0.0, 0.0, 0.0)",-74.66311326449657,-0.7739535469156117,5.843468067207706,"(0.0, 0.0, 0.0, 0.0, 0.0, 0.0)",-38.567738900473906,-0.5523653530093062,3.5789086898164406,"(0.0, 0.0, 0.0, 0.0, 0.0, 0.0)",70.97380681712595,0.7784689212282292,-5.431581853362886,"(0.0, 0.0, 0.0, 0.0, 0.0, 0.0)",36.631671368390464,True,"(-0.031139027298926508, 0.18549673152317092, 0.03999924353386678)","(0.9999971505660776, -0.0022642037706561637, -0.0007564661332230728)",-0.000503181178828863,565.4925793008347,True,"(0.030917119596597424, 0.1854085662421605, 0.04000075646613322)","(-0.9999971505660776, 0.002264203770598743, 0.0007564661332168607)",-0.0013606486484191646,538.0249494895718
15,Move,"(0.0, 0.0, 0.0)","(0.0, -0.0, 0.0)","(0.00016274991557831364, 0.17136475104845758, 0.0031640906121350575)","(1.4899865793592248, -0.0009251634143453488, -0.006053919932276661)","[-0.00012219357243566505, 7.948450010092367e-05, 0.001297313086590056]","[-0.026750000193715096, 0.05299999937415123, 0.03999999910593033]","[0.0, -0.0, 0.5448782568355026]","[-0.06406860798597336, 0.11457370966672897, 0.03999999910593033]","[0.0, 0.0, -0.2125956411648876]","[0.026750000193715096, 0.05299999937415123, 0.03999999910593033]","[0.0, 0.0, -0.5441825092896027]","[0.06402575969696045, 0.11459966003894806, 0.03999999910593033]","[0.0, -0.0, 0.21903630347083206]",0.5463765798653516,0.35960109272080254,"(0.0, 0.0, 0.0, 0.0, 0.0, 0.0)",-0.08406283938624641,-0.7590286933635231,-0.37315947580442554,"(0.0, 0.0, 0.0, 0.0, 0.0, 0.0)",-0.017297597694563044,-0.5456033040750284,-0.3409927387516254,"(0.0, 0.0, 0.0, 0.0, 0.0, 0.0)",0.7656171975284948,0.7645763731677416,0.32581485659360865,"(0.0, 0.0, 0.0, 0.0, 0.0, 0.0)",0.4026025408250114,True,"(-0.031076504252458274, 0.1869479334441972, 0.04000075744199429)","(0.9999871217005202, -0.0050182382101970815, 0.0007574419942935584)",-0.000622934270282677,0.221954412255134,True,"(0.03056815038234164, 0.1867763680017247, 0.03999924255800572)","(-0.9999871217005204, 0.005018238210180842, -0.0007574419942756659)",-0.0016523435419804678,5.374466445399798
16,Move,"(0.0, 0.0, 0.0)","(0.0, -0.0, 0.0)","(-6.337957008313859e-05, 0.17133241267644161, 0.0031880816687959806)","(1.4928112904341142, -0.0006545114769320461, -0.010066132815740028)","[-0.0003483230580971173, 4.714612808495722e-05, 0.001321304143250979]","[-0.026750000193715096, 0.05299999937415123, 0.03999999910593033]","[0.0, -0.0, 0.5488377527933422]","[-0.06431211531162262, 0.11442546546459198, 0.03999999910593033]","[0.0, 0.0, -0.21077310741645955]","[0.026750000193715096, 0.05299999937415123, 0.03999999910593033]","[0.0, 0.0, -0.547995687933414]","[0.06426037847995758, 0.11445707082748413, 0.03999999910593033]","[0.0, -0.0, 0.2169509060645669]",0.5491401313630154,0.07257638027151496,"(0.0, 0.0, 0.0, 0.0, 0.0, 0.0)",-0.3066840758721345,-0.7593620803589538,0.059702822107754495,"(0.0, 0.0, 0.0, 0.0, 0.0, 0.0)",-0.14686756004205834,-0.548295775753571,-0.07200558529027003,"(0.0, 0.0, 0.0, 0.0, 0.0, 0.0)",0.6643207661695938,0.7647109215877755,-0.05658230443565377,"(0.0, 0.0, 0.0, 0.0, 0.0, 0.0)",0.31795978197997554,True,"(-0.031452010065560435, 0.18685325265429348, 0.04000070146695575)","(0.9999532896982327, -0.009639832249190858, 0.0007014669557505881)",-0.00041340728276361165,2.188996256819944,True,"(0.030953383604334986, 0.1867059297891543, 0.03999929853304425)","(-0.9999532896982325, 0.009639832249198349, -0.0007014669557489135)",-0.0011026932160781453,4.854951800701028
17,Move,"(0.0, 0.0, 0.0)","(0.0, -0.0, 0.0)","(-0.00018503635318464252, 0.17122426474338426, 0.0020779038654625036)","(1.531170242882305, -0.00043878763907482236, -0.013303537154011802)","[-0.0004699798411986212, -6.1001804972399265e-05, 0.00021112633991750198]","[-0.026750000193715096, 0.05299999937415123, 0.03999999910593033]","[0.0, -0.0, 0.5506358975012704]","[-0.06442249566316605, 0.1143578290939331, 0.03999999910593033]","[0.0, 0.0, -0.20855083283645848]","[0.026750000193715096, 0.05299999937415123, 0.03999999910593033]","[0.0, 0.0, -0.5501015567963023]","[0.06438971310853958, 0.1143779456615448, 0.03999999910593033]","[0.0, -0.0, 0.21444578568664924]",0.550964684370257,0.07893443664831157,"(0.0, 0.0, 0.0, 0.0, 0.0, 0.0)",-0.012805702760149012,-0.7592039490970093,-0.004165241203613213,"(0.0, 0.0, 0.0, 0.0, 0.0, 0.0)",-0.0009088854239197933,-0.5505144833763652,-0.09910896464782581,"(0.0, 0.0, 0.0, 0.0, 0.0, 0.0)",0.016095086986517626,0.7645634140777361,0.003867817593457087,"(0.0, 0.0, 0.0, 0.0, 0.0, 0.0)",0.0011576950398015072,True,"(-0.0317234854629974, 0.1868532998353662, 0.0400004982027457)","(0.9999207622335561, -0.012578594845546423, 0.0004982027456894725)",-0.00022412003956257751,0.0,True,"(0.03126381973128947, 0.18671045140399978, 0.039999501797254304)","(-0.9999207622335559, 0.012578594845548739, -0.0004982027456943052)",-0.0007117677809595204,0.0
18,Move,"(0.0, 0.0, 0.0)","(0.0, -0.0, 0.0)","(-0.0004277538273214853, 0.17126797192516488, 0.0010311641756468666)","(1.58267588427068, 0.0064275966064735795, -0.009975418938230252)","[-0.000712697315335464, -1.7294623191776992e-05, -0.000835613349898135]","[-0.026750000193715096, 0.05299999937415123, 0.03999999910593033]","[0.0, -0.0, 0.5518777554812124]","[-0.064498670399189, 0.11431099474430084, 0.03999999910593033]","[0.0, 0.0, -0.2073373115301465]","[0.026750000193715096, 0.05299999937415123, 0.03999999910593033]","[0.0, 0.0, -0.5519942448843683]","[0.06450581550598145, 0.11430659145116806, 0.03999999910593033]","[0.0, -0.0, 0.21250639377830308]",0.5520437496503438,0.03985208879633559,"(0.0, 0.0, 0.0, 0.0, 0.0, 0.0)",-0.0790086018797588,-0.7592126439660251,0.0005663086930798626,"(0.0, 0.0, 0.0, 0.0, 0.0, 0.0)",-0.039238887150881335,-0.5522915816506297,-0.071355139069194,"(0.0, 0.0, 0.0, 0.0, 0.0, 0.0)",0.014569451659633744,0.7645069563132888,0.0015055403852617388,"(0.0, 0.0, 0.0, 0.0, 0.0, 0.0)",0.0030520617795980897,True,"(-0.031887665163757795, 0.18684622277729562, 0.039995032857574046)","(0.9999245374169422, -0.011235967587816038, -0.004967142425954457)",-7.92050836614995e-05,0.5421080363873477,True,"(0.03152023518786095, 0.18669992431467627, 0.040004967142425955)","(-0.999924537416942, 0.011235967587829097, 0.004967142425953457)",-0.0004360834064517454,0.0
19,Move,"(0.0, 0.0, 0.0)","(0.0, -0.0, 0.0)","(-0.00041778291509190216, 0.1712858287849603, 0.0009736516888248238)","(1.576376882617879, 0.005111791454885032, -0.010346600353356963)","[-0.0007027264031058808, 5.622366036350801e-07, -0.0008931258367201779]","[-0.026750000193715096, 0.05299999937415123, 0.03999999910593033]","[0.0, -0.0, 0.5522260863292079]","[-0.06452002376317978, 0.11429783701896667, 0.03999999910593033]","[0.0, 0.0, -0.20678545028574688]","[0.026750000193715096, 0.05299999937415123, 0.03999999910593033]","[0.0, 0.0, -0.5529631109328542]","[0.06456519663333893, 0.11426998674869537, 0.03999999910593033]","[0.0, -0.0, 0.21141555793991523]",0.5522425362611322,0.003963918503771326,"(0.0, 0.0, 0.0, 0.0, 0.0, 0.0)",-0.5037441888725221,-0.7588208643827545,0.045739669225345024,"(0.0, 0.0, 0.0, 0.0, 0.0, 0.0)",-0.2817833896017783,-0.553069050596091,-0.025432112892186606,"(0.0, 0.0, 0.0, 0.0, 0.0, 0.0)",0.007183279559051825,0.7643914749138225,0.003079503985766509,"(0.0, 0.0, 0.0, 0.0, 0.0, 0.0)",0.002142800571303537,True,"(-0.03194905333843053, 0.18685143297040394, 0.03999446620302089)","(0.9999315606046366, -0.010307822164258532, -0.005533796979109445)",-5.607961400218357e-05,3.816629944616403,True,"(0.03165858252404758, 0.1866972376303868, 0.040005533796979104)","(-0.9999315606046367, 0.010307822164254925, 0.0055337969791041325)",-0.0002591079968947621,0.0
20,Move,"(-0.00087, 0.0, 0.00049)","(0.0, 0.13771171397010862, 0.0)","(-0.00023528467225573583, 0.17130368172656205, 0.0009836848792497278)","(1.5744864160932044, 0.003569215639998521, -0.012420445510680451)","[-0.0005202281602697146, 1.8415178205388738e-05, -0.0008830926462952738]","[-0.026750000193715096, 0.05299999937415123, 0.03999999910593033]","[0.0, -0.0, 0.5510523148647849]","[-0.0644480511546135, 0.11434213072061539, 0.03999999910593033]","[0.0, 0.0, -0.2070537838867298]","[0.026750000193715096, 0.05299999937415123, 0.03999999910593033]","[0.0, 0.0, -0.5541515194787524]","[0.06463798135519028, 0.11422500014305115, 0.03999999910593033]","[0.0, -0.0, 0.20975054858089662]",0.5507280250936244,-0.07782959841622344,"(0.0, 0.0, 0.0, 0.0, 0.0, 0.0)",-0.7545018798428916,-0.7579568956168216,0.035806468066189256,"(0.0, 0.0, 0.0, 0.0, 0.0, 0.0)",-0.44330722184279486,-0.5544174577799651,-0.06383801294866312,"(0.0, 0.0, 0.0, 0.0, 0.0, 0.0)",0.24600163919040594,0.7637591742603167,-0.03428363064449487,"(0.0, 0.0, 0.0, 0.0, 0.0, 0.0)",0.1269920909495828,True,"(-0.031857620375051805, 0.18688565600504314, 0.039996133183528404)","(0.9999217302403275, -0.011898786642545772, -0.0038668164716000185)",-4.2941544989845984e-05,5.762606936280296,True,"(0.03185199645816386, 0.18670687075423686, 0.040003866816471605)","(-0.9999217302403274, 0.0118987866425578, 0.003866816471600497)",-0.00017032911273950286,1.7565747999505235
21,Move,"(-0.00252, 0.0, 0.0024100000000000002)","(0.0, 0.13771171397010862, 0.0)","(-0.00020111603642623417, 0.1713115385640292, 0.0009851843303549698)","(1.573053243107043, 0.0022043683177845248, -0.01289191600484374)","[-0.0004860595244402129, 2.627201567254045e-05, -0.0008815931951900318]","[-0.026750000193715096, 0.05299999937415123, 0.03999999910593033]","[0.0, -0.0, 0.5510744451256987]","[-0.06444941461086273, 0.11434129625558853, 0.03999999910593033]","[0.0, 0.0, -0.2067837779648398]","[0.026750000193715096, 0.05299999937415123, 0.03999999910593033]","[0.0, 0.0, -0.5552639074769725]","[0.06470606476068497, 0.11418281495571136, 0.03999999910593033]","[0.0, -0.0, 0.2084006098443058]",0.5512461719263497,0.04120485010103562,"(0.0, 0.0, 0.0, 0.0, 0.0, 0.0)",-0.006681762085516114,-0.7578681304886197,-0.002367070085383283,"(0.0, 0.0, 0.0, 0.0, 0.0, 0.0)",-0.00047159746801295427,-0.5554271611022075,-0.03918529593928023,"(0.0, 0.0, 0.0, 0.0, 0.0, 0.0)",0.006354227580061852,0.7636739708290885,0.0022720914994192047,"(0.0, 0.0, 0.0, 0.0, 0.0, 0.0)",0.00044843552886112683,True,"(-0.03187857868031215, 0.1868923567918105, 0.03999752269809084)","(0.9999138679031486, -0.012888745098550897, -0.002477301909159716)",1.2570294635722409e-05,0.0,True,"(0.0320179481452751, 0.1867085186709476, 0.04000247730190915)","(-0.9999138679031487, 0.0128887450985554, 0.002477301909154368)",-3.918821981734807e-05,0.0
22,Move,"(-0.00572, 0.0, 0.004900000000000001)","(0.0, -0.0, 0.0)","(-0.00020568060289994259, 0.171313825794859, 0.0009959694273620231)","(1.5705652678918205, -0.0005707936295596004, -0.012854077028494663)","[-0.0004906240909139213, 2.8559246502329882e-05, -0.0008708080981829785]","[-0.026750000193715096, 0.05299999937415123, 0.03999999910593033]","[0.0, -0.0, 0.5568229957927645]","[-0.0648014098405838, 0.11412356793880463, 0.03999999910593033]","[0.0, 0.0, -0.20105164503492315]","[0.026750000193715096, 0.05299999937415123, 0.03999999910593033]","[0.0, 0.0, -0.5545699002652674]","[0.0646635964512825, 0.1142091453075409, 0.03999999910593033]","[0.0, -0.0, 0.2088064648732705]",0.5582815609471815,0.3500660571711372,"(0.0, 0.0, 0.0, 0.0, 0.0, 0.0)",-0.057009298287912985,-0.7578739543686811,0.00015530346830416875,"(0.0, 0.0, 0.0, 0.0, 0.0, 0.0)",-0.004252132097890939,-0.554302807591805,0.06409456273391256,"(0.0, 0.0, 0.0, 0.0, 0.0, 0.0)",0.5577451485342724,0.7632530379612205,-0.029586645018676198,"(0.0, 0.0, 0.0, 0.0, 0.0, 0.0)",0.30906477991026626,True,"(-0.03264703145288593, 0.1868544380457431, 0.03999993242674963)","(0.9999173437072711, -0.01285695093133659, -6.757325036364202e-05)",0.0006817648480369469,0.0,True,"(0.03194604793062589, 0.1867219483590416, 0.04000006757325038)","(-0.9999173437072709, 0.012856950931346133, 6.757325037381101e-05)",-1.2319462295924705e-05,4.249568615945105
23,Move,"(-0.00965, 0.0, 0.008069999999999999)","(0.0, 0.05190783728356335, 0.0)","(-0.00043640950946701135, 0.1713562053549214, 0.0009927554365717572)","(1.5707077853449567, -0.0002895112467067183, -0.009208545753241308)","[-0.00072135299748099, 7.093880656475204e-05, -0.0008740220889732445]","[-0.026750000193715096, 0.05299999937415123, 0.03999999910593033]","[0.0, -0.0, 0.5675674283163109]","[-0.06545593589544296, 0.11371120810508728, 0.03999999910593033]","[0.0, 0.0, -0.19030611235463796]","[0.026750000193715096, 0.05299999937415123, 0.03999999910593033]","[0.0, 0.0, -0.5524946968795887]","[0.06453649699687958, 0.11428768932819366, 0.03999999910593033]","[0.0, -0.0, 0.21042505383646373]",0.5697122223245542,0.5147514319497458,"(0.0, 0.0, 0.0, 0.0, 0.0, 0.0)",-0.08382043507205228,-0.7578735722639103,-1.0189460555309893e-05,"(0.0, 0.0, 0.0, 0.0, 0.0, 0.0)",-0.006247703937443495,-0.5520728816608977,0.10124649476758975,"(0.0, 0.0, 0.0, 0.0, 0.0, 0.0)",0.5152926795545275,0.762914798097016,-0.0011948475303232649,"(0.0, 0.0, 0.0, 0.0, 0.0, 0.0)",0.3188862142602442,False,,,,,True,"(0.03170161098770128, 0.18674617965204554, 0.03999963597865622)","(-0.9999501593481481, 0.009977289615629947, -0.00036402134378355763)",-9.865912589333542e-06,4.0013917696409385
24,Move,"(-0.00965, 0.0, 0.008069999999999999)","(0.0, 0.05190783728356335, 0.0)","(-0.0016338968380713783, 0.17289384313731257, 0.0020624376462504523)","(1.5381569391567929, -0.009127760828947661, 0.02775663627396276)","[-0.0019188403260853568, 0.0016085765889559123, 0.0001956601207054507]","[-0.026750000193715096, 0.05299999937415123, 0.03999999910593033]","[0.0, -0.0, 0.5164569563050323]","[-0.06230377033352852, 0.11560934036970139, 0.03999999910593033]","[0.0, 0.0, -0.1839449879774431]","[0.026750000193715096, 0.05299999937415123, 0.03999999910593033]","[0.0, 0.0, -0.49741569903183624]","[0.06110523268580437, 0.11627493798732758, 0.03999999910593033]","[0.0, -0.0, 0.20752191164134276]",0.5022703104616827,-3.404815331772644,"(0.0, 0.0, 0.0, 0.0, 0.0, 0.0)",-71.50015247711063,-0.675687030809372,5.93159720044262,"(0.0, 0.0, 0.0, 0.0, 0.0, 0.0)",-36.98888509566077,-0.4834003143929812,3.363688037451227,"(0.0, 0.0, 0.0, 0.0, 0.0, 0.0)",68.18185142035149,0.6804880861382978,-5.8678761958032135,"(0.0, 0.0, 0.0, 0.0, 0.0, 0.0)",37.28113523591582,True,"(-0.0314181441748025, 0.18879497295080544, 0.042156058520285464)","(0.9996307216670177, 0.024762631699775137, 0.011190726999546747)",-0.0032324794881083206,528.081700388183,True,"(0.02848083421034666, 0.1888277698003823, 0.03999978039548066)","(-0.9999637646888357, 0.008510057766304998, -0.00021960451933812178)",-0.0007914677487992245,500.94789524065794
25,Move,"(-0.01434, 0.0, 0.0104)","(0.0, 0.034222415973104825, 0.0)","(-0.0021168036625458368, 0.1735737298931866, 0.002797328830116122)","(1.5128080793615706, -0.006837786307360848, 0.038305522036049734)","[-0.0024017471505598156, 0.002288463344829933, 0.0009305513045711204]","[-0.026750000193715096, 0.05299999937415123, 0.03999999910593033]","[0.0, -0.0, 0.5061736286121192]","[-0.06165806204080582, 0.115971639752388, 0.03999999910593033]","[0.0, 0.0, -0.15313686020988868]","[0.026750000193715096, 0.05299999937415123, 0.03999999910593033]","[0.0, 0.0, -0.47201861446023075]","[0.05948732793331146, 0.11712696403265, 0.03999999910593033]","[0.0, -0.0, 0.19221871699361331]",0.5106561412424357,1.0758152222481954,"(0.0, 0.0, 0.0, 0.0, 0.0, 0.0)",-0.17038401239378734,-0.6609480993209275,-0.3930381730251869,"(0.0, 0.0, 0.0, 0.0, 0.0, 0.0)",-0.008284663444180138,-0.4723480628129149,-0.079069867339082,"(0.0, 0.0, 0.0, 0.0, 0.0, 0.0)",0.5103902281170151,0.6658363669882907,0.38377163241496215,"(0.0, 0.0, 0.0, 0.0, 0.0, 0.0)",0.2978280983819715,True,"(-0.03304144585339237, 0.1900739204737555, 0.042156058520285464)","(0.9996307216670177, 0.024762631699775137, 0.011190726999546747)",-0.0018015822058017464,0.0,True,"(0.027982550617533103, 0.19007855065824625, 0.039447525002164106)","(-0.9992572167347509, -0.037810563547286624, -0.007441511120431713)",-0.0011666811178808797,3.708791337628338
26,Move,"(-0.01931, 0.0, 0.01192)","(0.0, 0.053339007270198704, 0.0)","(-0.0034237341197954204, 0.17378489241130973, 0.00226746376505416)","(1.5300967140777249, -0.004805964639072368, 0.039682158654201036)","[-0.0037086776078093992, 0.0024996258629530754, 0.0004006862395091585]","[-0.026750000193715096, 0.05299999937415123, 0.03999999910593033]","[0.0, -0.0, 0.5296196657797058]","[-0.06312476843595505, 0.11513594537973404, 0.03999999910593033]","[0.0, 0.0, -0.13240290316687361]","[0.026750000193715096, 0.05299999937415123, 0.03999999910593033]","[0.0, 0.0, -0.4677046512968915]","[0.05921038240194321, 0.11726759374141693, 0.03999999910593033]","[0.0, -0.0, 0.19912566436525536]",0.5336356697524869,0.9638429603958987,"(0.0, 0.0, 0.0, 0.0, 0.0, 0.0)",-0.1572334768016941,-0.6619151206158843,0.025787234532182346,"(0.0, 0.0, 0.0, 0.0, 0.0, 0.0)",-0.012001107095755845,-0.4663748632723645,0.31914529477977394,"(0.0, 0.0, 0.0, 0.0, 0.0, 0.0)",0.331235955212522,0.6667251590381421,-0.025229179056112307,"(0.0, 0.0, 0.0, 0.0, 0.0, 0.0)",0.19415122571372623,True,"(-0.036050628250731714, 0.18981559616071866, 0.042156058520285464)","(0.9996307216670177, 0.024762631699775137, 0.011190726999546747)",3.759669805553317e-05,0.0,True,"(0.02719690174737338, 0.1900312055675408, 0.039994285337428895)","(-0.9991839352296017, -0.039985074850318054, -0.005714662571105892)",-0.0007731109051598782,2.7810021678071157
27,Move,"(-0.023930000000000003, 0.0, 0.01157)","(0.0, 0.06820921249719039, 0.0)","(-0.005143391320606872, 0.1739411941732286, 0.0005573174156671797)","(1.5831068268346875, -0.0011184596423349975, 0.03941730552802456)","[-0.005428334808620851, 0.0026559276248719343, -0.0013094601098778218]","[-0.026750000193715096, 0.05299999937415123, 0.03999999910593033]","[0.0, -0.0, 0.5539960664690662]","[-0.064628466963768, 0.11423089355230331, 0.03999999910593033]","[0.0, 0.0, -0.1078485656404475]","[0.026750000193715096, 0.05299999937415123, 0.03999999910593033]","[0.0, 0.0, -0.45841468076934344]","[0.05861194059252739, 0.11756637692451477, 0.03999999910593033]","[0.0, -0.0, 0.20821920369199373]",0.5585007972548157,1.081135603806831,"(0.0, 0.0, 0.0, 0.0, 0.0, 0.0)",-0.17598883832261142,-0.6618516743487222,-0.0016919004576569918,"(0.0, 0.0, 0.0, 0.0, 0.0, 0.0)",-0.01308807812791258,-0.4565949485912531,0.4367180518990886,"(0.0, 0.0, 0.0, 0.0, 0.0, 0.0)",0.29836791558198333,0.6666383843520188,0.0010893404344730663,"(0.0, 0.0, 0.0, 0.0, 0.0, 0.0)",0.18344775914085845,False,,,,,True,"(0.025937700430098333, 0.19004477872774056, 0.03999756961244613)","(-0.9991905272403883, -0.04015449525785109, -0.0024303875538658026)",-0.0005135370960014952,2.6855339601270236
28,Move,"(-0.023930000000000003, 0.0, 0.01157)","(0.0, 0.06820921249719039, 0.0)","(-0.0068160845023495925, 0.17561871689074085, 0.0013706175240813673)","(1.5577003304659423, -0.0033812394045737485, 0.07834419072641217)","[-0.007101027990363571, 0.004333450342384193, -0.0004961600014636344]","[-0.026750000193715096, 0.05299999937415123, 0.03999999910593033]","[0.0, -0.0, 0.5091251909543919]","[-0.06184377521276474, 0.11586833000183105, 0.03999999910593033]","[0.0, 0.0, -0.09477931874707922]","[0.026750000193715096, 0.05299999937415123, 0.03999999910593033]","[0.0, 0.0, -0.4038770368258144]","[0.05504501983523369, 0.11920718848705292, 0.03999999910593033]","[0.0, -0.0, 0.20763247360053572]",0.4954863009717645,-3.2733237965541493,"(0.0, 0.0, 0.0, 0.0, 0.0, 0.0)",-68.70802878803167,-0.5798592329687355,5.770856138018155,"(0.0, 0.0, 0.0, 0.0, 0.0, 0.0)",-36.1660324733915,-0.39065748389089894,3.1726951229845857,"(0.0, 0.0, 0.0, 0.0, 0.0, 0.0)",65.64302342921903,0.588485702781752,-5.525712499401088,"(0.0, 0.0, 0.0, 0.0, 0.0, 0.0)",34.9577151794855,True,"(-0.037584193365418496, 0.19158369364759004, 0.040005091562755404)","(0.9969872942206359, 0.07739774627769173, 0.005091564960691403)",-0.0028827878435236693,497.33088789693954,True,"(0.02241554189610387, 0.1916669229658093, 0.0399949084350393)","(-0.9969872942206344, -0.07739774627771145, -0.005091564960701604)",-0.001211846908100086,475.3850310243682
29,Move,"(-0.027880000000000002, 0.0, 0.010320000000000001)","(0.0, 0.06820921249719039, 0.0)","(-0.008445816753811425, 0.17614489301448544, 0.0020560115302689927)","(1.5397992726991756, -0.008261865837415158, 0.0852560965328291)","[-0.008730760241825404, 0.00485962646612878, 0.0001892340047239911]","[-0.026750000193715096, 0.05299999937415123, 0.03999999910593033]","[0.0, -0.0, 0.5058635899087526]","[-0.061638541519641876, 0.11598245799541473, 0.03999999910593033]","[0.0, 0.0, -0.058046399792683834]","[0.026750000193715096, 0.05299999937415123, 0.03999999910593033]","[0.0, 0.0, -0.3730010903287891]","[0.05298764631152153, 0.1200491264462471, 0.03999999910593033]","[0.0, -0.0, 0.2001150158882375]",0.5119563224735927,1.4622512061758304,"(0.0, 0.0, 0.0, 0.0, 0.0, 0.0)",-0.23339056397608707,-0.5655049253320378,-0.38278153697860606,"(0.0, 0.0, 0.0, 0.0, 0.0, 0.0)",-0.013088392327898175,-0.3714485941624848,0.37259368130372816,"(0.0, 0.0, 0.0, 0.0, 0.0, 0.0)",0.3409070606251694,0.5746294765169792,0.36321790806534127,"(0.0, 0.0, 0.0, 0.0, 0.0, 0.0)",0.22073386607056497,True,"(-0.040173438901467205, 0.1925130800405812, 0.040006192596998294)","(0.996413291604698, 0.08439315171213674, 0.00619259699829445)",-0.001610540750620551,0.0,True,"(0.020905356455167487, 0.19273255658598348, 0.03999595161903329)","(-0.996599579484117, -0.0822975624403885, -0.004048380966712593)",-0.001433978682335243,2.5590457214280518
30,Move,"(-0.03096, 0.0, 0.00893)","(0.0, 0.08774468281476293, 0.0)","(-0.010988035908756145, 0.17637167423358902, 0.0013689080040901634)","(1.5633478851590088, -0.00797065571855589, 0.08482312046602425)","[-0.011272979396770124, 0.005086407685232358, -0.0004978695214548383]","[-0.026750000193715096, 0.05299999937415123, 0.03999999910593033]","[0.0, -0.0, 0.534747429301431]","[-0.06344291567802429, 0.11494860798120499, 0.03999999910593033]","[0.0, 0.0, -0.031803882500741794]","[0.026750000193715096, 0.05299999937415123, 0.03999999910593033]","[0.0, 0.0, -0.3599171128811629]","[0.05210815742611885, 0.12038667500019073, 0.03999999910593033]","[0.0, -0.0, 0.21557661086021612]",0.5394033127704823,1.1174011067088774,"(0.0, 0.0, 0.0, 0.0, 0.0, 0.0)",-0.18221457254429674,-0.5664467114560815,0.02511429664116616,"(0.0, 0.0, 0.0, 0.0, 0.0, 0.0)",-0.013851188207929023,-0.3571886162945023,0.6548377418034061,"(0.0, 0.0, 0.0, 0.0, 0.0, 0.0)",0.18787558797225634,0.5754030231680961,-0.021766115231089404,"(0.0, 0.0, 0.0, 0.0, 0.0, 0.0)",0.14337324242292043,True,"(-0.04399332660059692, 0.19201611655835715, 0.040006192596998294)","(0.996413291604698, 0.08439315171213674, 0.00619259699829445)",-0.00026215012117476044,0.0,True,"(0.018905944395078138, 0.19256538839718731, 0.03999595161903329)","(-0.996599579484117, -0.0822975624403885, -0.004048380966712593)",-0.0009436615721762104,2.098287632203874
31,Move,"(-0.03343, 0.0, 0.00778)","(0.0, 0.08774468281476293, 0.0)","(-0.013690245730327821, 0.17656740473034757, 0.000942968978473559)","(1.5759672427007747, 0.005157867631714536, 0.11514580984293758)","[-0.0139751892183418, 0.005282138181990914, -0.0009238085470714426]","[-0.026750000193715096, 0.05299999937415123, 0.03999999910593033]","[0.0, -0.0, 0.560677093317979]","[-0.06503669172525406, 0.11397646367549896, 0.03999999910593033]","[0.0, 0.0, -0.005701073660451071]","[0.026750000193715096, 0.05299999937415123, 0.03999999910593033]","[0.0, 0.0, -0.34429637573567523]","[0.051052480936050415, 0.12077455222606659, 0.03999999910593033]","[0.0, -0.0, 0.23088607928758315]",0.5652724828678231,1.102920364675497,"(0.0, 0.0, 0.0, 0.0, 0.0, 0.0)",-0.1795288491548719,-0.5663847100334234,-0.0015971485883201104,"(0.0, 0.0, 0.0, 0.0, 0.0, 0.0)",-0.01334666634813482,-0.3414860949450809,0.6744684776432162,"(0.0, 0.0, 0.0, 0.0, 0.0, 0.0)",-0.10973020801074437,0.5752048544553323,0.005383995868276858,"(0.0, 0.0, 0.0, 0.0, 0.0, 0.0)",-0.008148207558580279,True,"(-0.04760082789286722, 0.1914905654573886, 0.03999581112584199)","(0.9942954757404435, 0.10657842302911635, -0.004188874158010888)",0.0007933370009564181,0.0,True,"(0.01674764765587159, 0.19244998997186866, 0.040004188874158006)","(-0.9942954757404444, -0.10657842302910792, 0.004188874158008996)",-0.0006297184111770534,0.0
32,Move,"(-0.035840000000000004, 0.0, 0.00672)","(0.0, 0.08774468281476293, 0.0)","(-0.0157196067555794, 0.17644182164330768, 0.0008573830644207014)","(1.5619040878330537, -0.0050860392440106325, 0.1389390204325599)","[-0.01600455024359338, 0.005156555094951026, -0.0010093944611243002]","[-0.026750000193715096, 0.05299999937415123, 0.03999999910593033]","[0.0, -0.0, 0.5865998931973792]","[-0.06660433858633041, 0.11296358704566956, 0.03999999910593033]","[0.0, -0.0, 0.020210785084870824]","[0.026750000193715096, 0.05299999937415123, 0.03999999910593033]","[0.0, 0.0, -0.3270992431171057]","[0.049883414059877396, 0.12118244171142578, 0.03999999910593033]","[0.0, -0.0, 0.2480666609498801]",0.5912244366643575,1.1098946743175526,"(0.0, 0.0, 0.0, 0.0, 0.0, 0.0)",-0.18069051134186162,-0.5663886533621594,0.00010515543296119034,"(0.0, 0.0, 0.0, 0.0, 0.0, 0.0)",-0.01345780179604296,-0.32391359047099644,0.7645589200152889,"(0.0, 0.0, 0.0, 0.0, 0.0, 0.0)",1.3265385156723217,0.5750848332490367,-0.019459304047923866,"(0.0, 0.0, 0.0, 0.0, 0.0, 0.0)",0.7703476977564213,True,"(-0.05118344658228831, 0.19090937900713784, 0.040002885345400994)","(0.9903902573008282, 0.1382707959965388, 0.002885345400992851)",0.001418144711131451,0.0,True,"(0.014354206355502767, 0.19224332688371615, 0.03999711465459901)","(-0.9903902573008291, -0.13827079599653191, -0.002885345400994213)",-0.0002458607484654745,10.42210833590951
33,Move,"(-0.03767, 0.0, 0.00557)","(0.0, 0.10187835909741304, 0.0)","(-0.018107602932997978, 0.17625939526175777, 0.0009396693308631411)","(1.5664000143754164, -0.006025396190689793, 0.15271967741265902)","[-0.018392546421011957, 0.00497412871340111, -0.0009271081946818605]","[-0.026750000193715096, 0.05299999937415123, 0.03999999910593033]","[0.0, -0.0, 0.6119589521657772]","[-0.06811198592185974, 0.11193374544382095, 0.03999999910593033]","[0.0, -0.0, 0.04557057015996787]","[0.026750000193715096, 0.05299999937415123, 0.03999999910593033]","[0.0, 0.0, -0.309082538511963]","[0.048651304095983505, 0.12158814072608948, 0.03999999910593033]","[0.0, -0.0, 0.26581642005852185]",0.6164169756000664,1.0699286758859712,"(0.0, 0.0, 0.0, 0.0, 0.0, 0.0)",-0.1741855092140437,-0.5663883946403611,-6.89924795427288e-06,"(0.0, 0.0, 0.0, 0.0, 0.0, 0.0)",-0.01297285591637271,-0.3058623243542673,0.7728539789681104,"(0.0, 0.0, 0.0, 0.0, 0.0, 0.0)",0.1664249218428917,0.5749039304453326,0.0011927261845222907,"(0.0, 0.0, 0.0, 0.0, 0.0, 0.0)",0.14857811984092223,False,,,,,True,"(0.01189366944135236, 0.19190980362514265, 0.03784791465454031)","(-0.9886489389899982, -0.1500707348852254, -0.007214566165685813)",-0.0001674730917635348,2.090566147199516
34,Move,"(-0.03767, 0.0, 0.00557)","(0.0, 0.10187835909741304, 0.0)","(-0.020850624153416094, 0.17704516730187753, 0.0009753707443071602)","(1.564726905676394, -0.008119652961765016, 0.15011488001283432)","[-0.021135567641430073, 0.005759900753520869, -0.0008914067812378414]","[-0.026750000193715096, 0.05299999937415123, 0.03999999910593033]","[0.0, -0.0, 0.5698602907862521]","[-0.06559503823518753, 0.11362230032682419, 0.03999999910593033]","[0.0, -0.0, 0.05993656775622136]","[0.026750000193715096, 0.05299999937415123, 0.03999999910593033]","[0.0, 0.0, -0.25400171572022484]","[0.044842105358839035, 0.12268985062837601, 0.03999999910593033]","[0.0, -0.0, 0.2714024693411543]",0.556839784475792,-3.124907357716914,"(0.0, 0.0, 0.0, 0.0, 0.0, 0.0)",-64.35887528919511,-0.48629619766739673,5.6705928995475885,"(0.0, 0.0, 0.0, 0.0, 0.0, 0.0)",-35.37079167888762,-0.2414155404627234,3.020676330115208,"(0.0, 0.0, 0.0, 0.0, 0.0, 0.0)",62.47312284464876,0.5038864038394102,-5.164254645782521,"(0.0, 0.0, 0.0, 0.0, 0.0, 0.0)",31.989625884205026,True,"(-0.05327100797785969, 0.19198465008950175, 0.04215528559905751)","(0.9886538910855979, 0.149849975199778, 0.010414824719239399)",-0.0026586794999501847,458.06832302198353,True,"(0.007691369185385939, 0.1928108336181837, 0.03784471439598676)","(-0.9886538910855986, -0.14984997519977356, -0.010414824719239124)",-0.0009117177475771059,444.6794826684246
35,Move,"(-0.03889000000000001, 0.0, 0.00479)","(0.0, 0.08774468281476293, 0.0)","(-0.023134499454234316, 0.17707342109546625, 0.001627623451755772)","(1.547118189249012, -0.008546550262875425, 0.14779576153134188)","[-0.023419442942248295, 0.005788154547109597, -0.0002391540737892296]","[-0.026750000193715096, 0.05299999937415123, 0.03999999910593033]","[0.0, -0.0, 0.565098674604556]","[-0.0653059333562851, 0.1138065755367279, 0.03999999910593033]","[0.0, -0.0, 0.09455100810590868]","[0.026750000193715096, 0.05299999937415123, 0.03999999910593033]","[0.0, 0.0, -0.22174866890915845]","[0.042585380375385284, 0.12323703616857529, 0.03999999910593033]","[0.0, -0.0, 0.26737583903047535]",0.5704718187703164,1.2895633438822631,"(0.0, 0.0, 0.0, 0.0, 0.0, 0.0)",-0.3010879202013046,-0.4720267962728228,-0.35500233311432094,"(0.0, 0.0, 0.0, 0.0, 0.0, 0.0)",-0.06649930333694326,-0.21949906749589687,0.5399074258234003,"(0.0, 0.0, 0.0, 0.0, 0.0, 0.0)",0.3215239791814245,0.49052164815524224,0.3353097335740644,"(0.0, 0.0, 0.0, 0.0, 0.0, 0.0)",0.1898196875001732,True,"(-0.05569620696397263, 0.19251943647324432, 0.04215346151052167)","(0.9885508821437868, 0.1506431304272454, 0.008590731506751187)",-0.001873740944047423,0.46603586103477246,True,"(0.005717785117391239, 0.19350363106197965, 0.03784614777089822)","(-0.9887554083811403, -0.14927181902956374, -0.008981449807779884)",-0.0012143492281972968,2.7899977899384947
36,Move,"(-0.03968, 0.0, 0.00466)","(0.0, 0.08774468281476293, 0.0)","(-0.026112821063079175, 0.17680063683318006, 0.0009095056855437822)","(1.568802268205889, -0.003045459196567308, 0.13356492232108452)","[-0.026397764551093154, 0.0055153702848234065, -0.0009572718400012194]","[-0.026750000193715096, 0.05299999937415123, 0.03999999910593033]","[0.0, -0.0, 0.5891583266754067]","[-0.06675761938095093, 0.11286142468452454, 0.03999999910593033]","[0.0, -0.0, 0.11614092936678064]","[0.026750000193715096, 0.05299999937415123, 0.03999999910593033]","[0.0, 0.0, -0.20700540824160266]","[0.041548170149326324, 0.12346285581588745, 0.03999999910593033]","[0.0, -0.0, 0.28442219422002446]",0.5928845280536434,0.894299818843563,"(0.0, 0.0, 0.0, 0.0, 0.0, 0.0)",-0.14589100668116858,-0.4729182851931863,0.023773037876359645,"(0.0, 0.0, 0.0, 0.0, 0.0, 0.0)",-0.011134821753515786,-0.2041892497058041,0.6758765259468106,"(0.0, 0.0, 0.0, 0.0, 0.0, 0.0)",0.1877494181893318,0.49133358736672117,-0.02256570577002875,"(0.0, 0.0, 0.0, 0.0, 0.0, 0.0)",0.1417660568528011,True,"(-0.05884940336216885, 0.19176339829259112, 0.04215346151052167)","(0.9885508821437868, 0.1506431304272454, 0.008590731506751187)",-0.0012049547643768475,0.0,True,"(0.0034854950304077786, 0.19310768856586946, 0.037847666239839775)","(-0.9897062481715815, -0.14291901989141295, -0.007462980866221079)",-0.0007986878026179919,0.0
37,Move,"(-0.040080000000000005, 0.0, 0.005000000000000001)","(0.0, 0.08774468281476293, 0.0)","(-0.028400357112538684, 0.1764778383449644, 0.000680383113712204)","(1.5756976774076037, 0.005101744480666488, 0.14864438327363486)","[-0.028685300600552664, 0.005192571796607731, -0.0011863944118327976]","[-0.026750000193715096, 0.05299999937415123, 0.03999999910593033]","[0.0, -0.0, 0.6087346922201929]","[-0.06792175024747849, 0.11206679791212082, 0.03999999910593033]","[0.0, -0.0, 0.13589827386868084]","[0.026750000193715096, 0.05299999937415123, 0.03999999910593033]","[0.0, 0.0, -0.19315243063681148]","[0.040570665150880814, 0.1236610859632492, 0.03999999910593033]","[0.0, -0.0, 0.29807542876705223]",0.6120957210143961,0.8066505333585008,"(0.0, 0.0, 0.0, 0.0, 0.0, 0.0)",-0.13161866228672414,-0.4728445780613258,-0.0019655235162798768,"(0.0, 0.0, 0.0, 0.0, 0.0, 0.0)",-0.009899718074206323,-0.1908646368024217,0.5490717868835993,"(0.0, 0.0, 0.0, 0.0, 0.0, 0.0)",0.019379292013405373,0.49123512866253544,0.0017421395897972694,"(0.0, 0.0, 0.0, 0.0, 0.0, 0.0)",0.05457556801036788,True,"(-0.061564494139551264, 0.19105493425105766, 0.042145140768385214)","(0.9916998835308154, 0.12857397913597368, 0.00026998909120926474)",-0.0007066980050318446,0.0,True,"(0.0015606873951569677, 0.1927797663187835, 0.037847666239839775)","(-0.9897062481715815, -0.14291901989141295, -0.007462980866221079)",-0.0004577766053485974,0.7205175506758258
38,Move,"(-0.04071, 0.0, 0.0053)","(0.0, 0.08774468281476293, 0.0)","(-0.029991457332965633, 0.1761157149909425, 0.0006494985651825422)","(1.5672378904940847, 0.0013941676155740615, 0.16354825502829168)","[-0.030276400820979613, 0.004830448442585844, -0.0012172789603624593]","[-0.026750000193715096, 0.05299999937415123, 0.03999999910593033]","[0.0, -0.0, 0.6271414543674841]","[-0.0690019503235817, 0.11129899322986603, 0.03999999910593033]","[0.0, -0.0, 0.15429157980188185]","[0.026750000193715096, 0.05299999937415123, 0.03999999910593033]","[0.0, 0.0, -0.18042745943493488]","[0.03967040777206421, 0.12383122742176056, 0.03999999910593033]","[0.0, -0.0, 0.3106558797990648]",0.6303751615883562,0.7760766234031795,"(0.0, 0.0, 0.0, 0.0, 0.0, 0.0)",-0.1263624300789853,-0.4728494139862472,0.00012895799790424434,"(0.0, 0.0, 0.0, 0.0, 0.0, 0.0)",-0.00941666997493564,-0.17817181151005343,0.5413534860399467,"(0.0, 0.0, 0.0, 0.0, 0.0, 0.0)",0.364146335753387,0.4910776166402678,-0.0013781364926827113,"(0.0, 0.0, 0.0, 0.0, 0.0, 0.0)",0.23636318843657964,True,"(-0.064098534285621, 0.19039069276284132, 0.042145140768385214)","(0.9916998835308154, 0.12857397913597368, 0.00026998909120926474)",-0.00019656247438726068,0.0,True,"(-0.00020600437534012972, 0.19245368785524603, 0.037847666239839775)","(-0.9897062481715815, -0.14291901989141295, -0.007462980866221079)",-0.0002942783779783915,3.1853769309187854
39,Move,"(-0.041170000000000005, 0.0, 0.00508)","(0.0, 0.06820921249719039, 0.0)","(-0.031603226681798956, 0.17591774935342117, 0.0007966759031984435)","(1.5704192295720156, -0.005866974625424744, 0.1685302302446576)","[-0.031888170169812935, 0.004632482805064508, -0.0010701016223465581]","[-0.026750000193715096, 0.05299999937415123, 0.03999999910593033]","[0.0, -0.0, 0.6450351246206111]","[-0.0700383111834526, 0.11053366214036942, 0.03999999910593033]","[0.0, -0.0, 0.17218611997157438]","[0.026750000193715096, 0.05299999937415123, 0.03999999910593033]","[0.0, 0.0, -0.16736731275885453]","[0.03874426335096359, 0.12399392575025558, 0.03999999910593033]","[0.0, -0.0, 0.32351355256260694]",0.6481962601684108,0.7586616622993055,"(0.0, 0.0, 0.0, 0.0, 0.0, 0.0)",-0.12690558371660723,-0.47284688894642274,0.0005214002154411698,"(0.0, 0.0, 0.0, 0.0, 0.0, 0.0)",-0.010153950359603375,-0.16500346851824207,0.5673171330483349,"(0.0, 0.0, 0.0, 0.0, 0.0, 0.0)",0.263226813893023,0.490887613884741,0.00162380020752261,"(0.0, 0.0, 0.0, 0.0, 0.0, 0.0)",0.1617495506522867,True,"(-0.06655091698884391, 0.1897004350183184, 0.042145140768385214)","(0.9916998835308154, 0.12857397913597368, 0.00026998909120926474)",0.000300101477868067,0.0,True,"(-0.002011150374810422, 0.192098009925878, 0.037847666239839775)","(-0.9897062481715815, -0.14291901989141295, -0.007462980866221079)",-0.000197435939458045,2.536037809155501
40,Move,"(-0.04099, 0.0, 0.0046300000000000004)","(0.0, 0.08774468281476293, 0.0)","(-0.03309941990414537, 0.17583396115226188, 0.0008628288585544005)","(1.5717873526069304, -0.005100786496220835, 0.18378411125609617)","[-0.03338436339215935, 0.004548694603905223, -0.0010039486669906012]","[-0.026750000193715096, 0.05299999937415123, 0.03999999910593033]","[0.0, -0.0, 0.6611166192105242]","[-0.07095789909362793, 0.1098301112651825, 0.03999999910593033]","[0.0, -0.0, 0.18827427626350207]","[0.026750000193715096, 0.05299999937415123, 0.03999999910593033]","[0.0, 0.0, -0.15585057976338862]","[0.03792586922645569, 0.1241273507475853, 0.03999999910593033]","[0.0, -0.0, 0.33490497900385646]",0.6638267429436587,0.6504230456419551,"(0.0, 0.0, 0.0, 0.0, 0.0, 0.0)",-0.10590590078796241,-0.47284281967962827,-0.00010851378118603705,"(0.0, 0.0, 0.0, 0.0, 0.0, 0.0)",-0.007891246299982101,-0.1539591222416273,0.453951052339823,"(0.0, 0.0, 0.0, 0.0, 0.0, 0.0)",0.3373838972396924,0.4907429495310656,-0.0030317800178915385,"(0.0, 0.0, 0.0, 0.0, 0.0, 0.0)",0.2227793093892908,True,"(-0.06874455095722729, 0.18904274395649986, 0.042145140768385214)","(0.9916998835308154, 0.12857397913597368, 0.00026998909120926474)",0.0007786109559010108,0.0,True,"(-0.00360268626383798, 0.19176276172134138, 0.037847666239839775)","(-0.9897062481715815, -0.14291901989141295, -0.007462980866221079)",-0.00010739758715876374,0.35332529167948257
41,Move,"(-0.041530000000000004, 0.0, 0.00429)","(0.0, 0.10187835909741304, 0.0)","(-0.034636665072457364, 0.17567385442228672, 0.000763985637299017)","(1.57018393588451, -4.408838592613877e-05, 0.19807372103230464)","[-0.03492160856047134, 0.0043885878739300666, -0.0011027918882459847]","[-0.026750000193715096, 0.05299999937415123, 0.03999999910593033]","[0.0, -0.0, 0.6757924046236166]","[-0.07178713381290436, 0.10917523503303528, 0.03999999910593033]","[0.0, -0.0, 0.20294925072985087]","[0.026750000193715096, 0.05299999937415123, 0.03999999910593033]","[0.0, 0.0, -0.14553401136252964]","[0.03719149902462959, 0.12423885613679886, 0.03999999910593033]","[0.0, -0.0, 0.3450823410623197]",0.6783550381778782,0.6150415742754785,"(0.0, 0.0, 0.0, 0.0, 0.0, 0.0)",-0.10014760545448793,-0.47284308666422264,7.119589183535169e-06,"(0.0, 0.0, 0.0, 0.0, 0.0, 0.0)",-0.007463801549362317,-0.14372371209387488,0.43447152006845857,"(0.0, 0.0, 0.0, 0.0, 0.0, 0.0)",0.20297474869943538,0.4906233386260547,0.0016675487925537436,"(0.0, 0.0, 0.0, 0.0, 0.0, 0.0)",0.14250658110823367,True,"(-0.07073642266673949, 0.18841181514792754, 0.042145140768385214)","(0.9916998835308154, 0.12857397913597368, 0.00026998909120926474)",0.0012445252489255805,0.0,True,"(-0.005023247514635794, 0.19144812378413356, 0.037847666239839775)","(-0.9897062481715815, -0.14291901989141295, -0.007462980866221079)",-9.788627748338346e-06,0.0
42,Move,"(-0.04159, 0.0, 0.00337)","(0.0, 0.10187835909741304, 0.0)","(-0.03606817047183007, 0.17552625270587766, 0.000782486640506427)","(1.5708794433861162, 0.00234075977913283, 0.20731719850120384)","[-0.03635311395984405, 0.004240986157520998, -0.0010842908850385747]","[-0.026750000193715096, 0.05299999937415123, 0.03999999910593033]","[0.0, -0.0, 0.6893166682992502]","[-0.0725427195429802, 0.10856101661920547, 0.03999999910593033]","[0.0, -0.0, 0.2164735369146555]","[0.026750000193715096, 0.05299999937415123, 0.03999999910593033]","[0.0, 0.0, -0.13556735717473675]","[0.03648097813129425, 0.12433938682079315, 0.03999999910593033]","[0.0, -0.0, 0.35495415952711895]",0.691644916949569,0.5587869767411631,"(0.0, 0.0, 0.0, 0.0, 0.0, 0.0)",-0.09098957896221281,-0.4728430691473634,-4.6711624568374077e-07,"(0.0, 0.0, 0.0, 0.0, 0.0, 0.0)",-0.006781751460587113,-0.1338119265103886,0.4213017695631315,"(0.0, 0.0, 0.0, 0.0, 0.0, 0.0)",0.458761227682756,0.49048659248071486,-0.00837937695760977,"(0.0, 0.0, 0.0, 0.0, 0.0, 0.0)",0.2859418598101194,True,"(-0.061719443847554935, 0.13849454207224418, 0.02902493653090683)","(0.976655621611895, 0.21479602138470133, -0.002542827399924566)",0.0010269610293247953,0.0,True,"(-0.006435396370347388, 0.1912429182016307, 0.04000254391950928)","(-0.9788531790346349, -0.20454823970721267, 0.0025439195092861345)",-7.022112176769007e-05,3.6946789564734166
43,Move,"(-0.041870000000000004, 0.0, 0.00283)","(0.0, 0.08774468281476293, 0.0)","(-0.03739889063031049, 0.17528807059499724, 0.0008570841650373908)","(1.5708440518345705, 0.0014105953458477085, 0.2141353257622189)","[-0.03768383411832447, 0.004002804046640579, -0.0010096933605076108]","[-0.026750000193715096, 0.05299999937415123, 0.03999999910593033]","[0.0, -0.0, 0.7019111963899116]","[-0.07323883473873138, 0.10797988623380661, 0.03999999910593033]","[0.0, -0.0, 0.22906818164784323]","[0.026750000193715096, 0.05299999937415123, 0.03999999910593033]","[0.0, 0.0, -0.12544113897827794]","[0.03575809299945831, 0.12443426251411438, 0.03999999910593033]","[0.0, -0.0, 0.3648301275644747]",0.7041092246530652,0.5275182147030684,"(0.0, 0.0, 0.0, 0.0, 0.0, 0.0)",-0.08589902839530153,-0.4728430702966445,3.064749654058119e-08,"(0.0, 0.0, 0.0, 0.0, 0.0, 0.0)",-0.006402633711632223,-0.12361257933390479,0.43885555346335897,"(0.0, 0.0, 0.0, 0.0, 0.0, 0.0)",0.4483984152619375,0.49024836946832323,-0.005487456411603629,"(0.0, 0.0, 0.0, 0.0, 0.0, 0.0)",0.2825514737265924,True,"(-0.06279956737118488, 0.13807376060267063, 0.029026055270243666)","(0.9738758843134789, 0.22707579144990092, -0.0015319562789372213)",0.001026642669165804,0.0,True,"(-0.007817508148282928, 0.1909134311791555, 0.040001532987846304)","(-0.9773820217467517, -0.21147584617278484, 0.0015329878463033145)",-5.041701403292802e-05,3.6370853737894295
44,Move,"(-0.042230000000000004, 0.0, 0.0017600000000000003)","(0.0, 0.10187835909741304, 0.0)","(-0.038563194413820195, 0.17505417195981532, 0.0009077058242022743)","(1.5700436879318183, -0.0007768965306316568, 0.2187725542513688)","[-0.038848137901834175, 0.0037689054114586618, -0.0009590717013427273]","[-0.026750000193715096, 0.05299999937415123, 0.03999999910593033]","[0.0, -0.0, 0.7130774780868815]","[-0.07384984195232391, 0.10745736211538315, 0.03999999910593033]","[0.0, -0.0, 0.2402343835159779]","[0.026750000193715096, 0.05299999937415123, 0.03999999910593033]","[0.0, 0.0, -0.11597716284594413]","[0.035081647336483, 0.1245163157582283, 0.03999999910593033]","[0.0, -0.0, 0.3741168850098815]",0.714957799059928,0.4512828954806647,"(0.0, 0.0, 0.0, 0.0, 0.0, 0.0)",-0.07348738380575068,-0.47284307022124017,-2.0107822074066917e-09,"(0.0, 0.0, 0.0, 0.0, 0.0, 0.0)",-0.005478119646760874,-0.11436470382662374,0.386991198099483,"(0.0, 0.0, 0.0, 0.0, 0.0, 0.0)",0.39920820909598614,0.49008248104330926,-0.0027680745193273872,"(0.0, 0.0, 0.0, 0.0, 0.0, 0.0)",0.2371477568659447,True,"(-0.06375364264832721, 0.13769201594184474, 0.029026727808741288)","(0.9729202913520844, 0.23113886099791117, -0.000966235977380346)",0.0009233222067378932,0.0,True,"(-0.00911034713818288, 0.19059198465872296, 0.03999956423203723)","(-0.9762814195825874, -0.2165049650333461, -0.00043576796276417713)",-3.69164339412549e-05,3.244482647988821
45,Move,"(-0.04322, 0.0, 0.0011)","(0.0, 0.10187835909741304, 0.0)","(-0.03976478382350064, 0.17477005624604058, 0.0009475445204200769)","(1.5708571720766773, -0.0014374437891275355, 0.2250484765033175)","[-0.04004972731151462, 0.0034847896976839265, -0.0009192330051249248]","[-0.026750000193715096, 0.05299999937415123, 0.03999999910593033]","[0.0, -0.0, 0.7232537363896848]","[-0.07440156489610672, 0.106975257396698, 0.03999999910593033]","[0.0, -0.0, 0.25041064118309087]","[0.026750000193715096, 0.05299999937415123, 0.03999999910593033]","[0.0, 0.0, -0.10673532833000839]","[0.03442035987973213, 0.12459026277065277, 0.03999999910593033]","[0.0, -0.0, 0.38317480302664425]",0.7250301093704428,0.4263346043043903,"(0.0, 0.0, 0.0, 0.0, 0.0, 0.0)",-0.06942546426170938,-0.47284307022618743,1.319264697485778e-10,"(0.0, 0.0, 0.0, 0.0, 0.0, 0.0)",-0.005175512254159161,-0.10507149386756683,0.399320281320889,"(0.0, 0.0, 0.0, 0.0, 0.0, 0.0)",0.4018779765132819,0.48989573569792166,-0.0034479645286663147,"(0.0, 0.0, 0.0, 0.0, 0.0, 0.0)",0.25951175247780556,True,"(-0.0646135599126151, 0.13731107853792304, 0.029026727808741288)","(0.9729202913520844, 0.23113886099791117, -0.000966235977380346)",0.0007758764902245393,0.0,True,"(-0.010369071238561144, 0.19026619997739014, 0.03999843822914041)","(-0.9750282729523096, -0.22207527511053102, -0.001561770859588142)",-2.829776191180167e-05,3.253340596964896
46,Move,"(-0.044640000000000006, 0.0, 0.00036)","(0.0, 0.12178209388715636, 0.0)","(-0.0409646899202557, 0.17435854307948623, 0.0009627655944967396)","(1.57085748461826, -0.0009537952207031503, 0.22899441145674435)","[-0.041249633408269676, 0.0030732765311295707, -0.0009040119310482621]","[-0.026750000193715096, 0.05299999937415123, 0.03999999910593033]","[0.0, -0.0, 0.732689345470352]","[-0.07490873336791992, 0.10652323812246323, 0.03999999910593033]","[0.0, -0.0, 0.25984631133058517]","[0.026750000193715096, 0.05299999937415123, 0.03999999910593033]","[0.0, 0.0, -0.0976293324217059]","[0.033768150955438614, 0.12465713918209076, 0.03999999910593033]","[0.0, -0.0, 0.39210797327603963]",0.7343196446473714,0.39127041528564716,"(0.0, 0.0, 0.0, 0.0, 0.0, 0.0)",-0.06371640373998874,-0.47284307022586286,-8.65574278918757e-12,"(0.0, 0.0, 0.0, 0.0, 0.0, 0.0)",-0.004750157796164981,-0.09602981539795616,0.3838838640982674,"(0.0, 0.0, 0.0, 0.0, 0.0, 0.0)",0.47364551473032845,0.48969601296407955,-0.009901300770472384,"(0.0, 0.0, 0.0, 0.0, 0.0, 0.0)",0.28584584571858906,True,"(-0.06540739125439174, 0.1369500639362025, 0.029026727808741288)","(0.9729202913520844, 0.23113886099791117, -0.000966235977380346)",0.0005103827484960636,0.0,True,"(-0.01160721553802925, 0.18993475876695315, 0.03999896402957992)","(-0.9740412185625562, -0.2263683531469434, -0.001035970420079202)",-2.1469070125663557e-05,3.758620454462785
47,Move,"(-0.045040000000000004, 0.0, 0.00021)","(0.0, 0.12178209388715636, 0.0)","(-0.042168855840682924, 0.17400132403919935, 0.0008932472369116826)","(1.5700014551889674, 0.0010714168506228967, 0.2330902835994014)","[-0.0424537993286969, 0.0027160574908426938, -0.0009735302886333191]","[-0.026750000193715096, 0.05299999937415123, 0.03999999910593033]","[0.0, -0.0, 0.7412728219214171]","[-0.07536636292934418, 0.10610789805650711, 0.03999999910593033]","[0.0, -0.0, 0.26842978023665476]","[0.026750000193715096, 0.05299999937415123, 0.03999999910593033]","[0.0, 0.0, -0.08895609277955815]","[0.03314639627933502, 0.12471531331539154, 0.03999999910593033]","[0.0, -0.0, 0.40054744833779726]",0.7427485607633498,0.3541758197681508,"(0.0, 0.0, 0.0, 0.0, 0.0, 0.0)",-0.05767658491509944,-0.4728430702258842,5.688782778179302e-13,"(0.0, 0.0, 0.0, 0.0, 0.0, 0.0)",-0.004300112690524047,-0.08743839560848869,0.3642490836373051,"(0.0, 0.0, 0.0, 0.0, 0.0, 0.0)",0.35731460768188555,0.4894983212409151,-0.0012741372769548237,"(0.0, 0.0, 0.0, 0.0, 0.0, 0.0)",0.22033176148486336,True,"(-0.06609442727878045, 0.13649840974715405, 0.02902627943946791)","(0.9641871371011469, 0.2652212170963334, -0.0009330866165504039)",0.0002165294107434931,0.0,True,"(-0.012779203771307174, 0.18961158861098912, 0.040000893130629524)","(-0.9730351546546838, -0.2306551324462864, 0.0008931306295241367)",-1.7141111660257494e-05,2.9193077054991385
48,Move,"(-0.045110000000000004, 0.0, 0.00032)","(0.0, 0.12178209388715636, 0.0)","(-0.04315993524006104, 0.17379260356969944, 0.0009263378215598303)","(1.5702520128356459, 0.0006923356855572491, 0.23871327299223996)","[-0.043444878728075016, 0.002507337021342787, -0.0009404397039851713]","[-0.026750000193715096, 0.05299999937415123, 0.03999999910593033]","[0.0, -0.0, 0.7490434183446875]","[-0.0757775753736496, 0.10572851449251175, 0.03999999910593033]","[0.0, -0.0, 0.2762647001821381]","[0.026750000193715096, 0.05299999937415123, 0.03999999910593033]","[0.0, 0.0, -0.08097229644778066]","[0.0325736366212368, 0.1247640922665596, 0.03999999910593033]","[0.0, -0.0, 0.40810238954645883]",0.750382520639659,0.3213636979929581,"(0.0, 0.0, 0.0, 0.0, 0.0, 0.0)",-0.23564715173855041,-0.47274785360021787,0.007441106838975694,"(0.0, 0.0, 0.0, 0.0, 0.0, 0.0)",-0.04834466491458334,-0.07960144520310676,0.32900189789627077,"(0.0, 0.0, 0.0, 0.0, 0.0, 0.0)",0.7944227308033952,0.4889393428941859,-0.03247367315330754,"(0.0, 0.0, 0.0, 0.0, 0.0, 0.0)",0.47191612094350704,True,"(-0.06674728592595408, 0.13620223059159686, 0.02902648120238012)","(0.962079880512711, 0.2727667445739008, -0.0007788242444918052)",-1.1114118084586994e-05,1.9207654704305674,True,"(-0.013841681899151324, 0.18931465650794296, 0.04000075647348295)","(-0.9720182199812022, -0.23490425235070744, 0.000756473482945815)",-1.4882599735785964e-05,5.8788321049696215
49,Move,"(-0.04507, 0.0, -2.9999999999999997e-05)","(0.0, 0.1553779366587952, 0.0)","(-0.04386515477860348, 0.17367612414529757, 0.0009479644714083814)","(1.570422151882881, 0.00043840179435656256, 0.24419618132934376)","[-0.044150098266617456, 0.0023908575969409096, -0.0009188130541366202]","[-0.026750000193715096, 0.05299999937415123, 0.03999999910593033]","[0.0, -0.0, 0.7554090853240791]","[-0.07611223310232162, 0.10541536659002304, 0.03999999910593033]","[0.0, -0.0, 0.28273400207197164]","[0.026750000193715096, 0.05299999937415123, 0.03999999910593033]","[0.0, 0.0, -0.07489680504170194]","[0.03213752806186676, 0.12479814887046814, 0.03999999910593033]","[0.0, -0.0, 0.4136508093618946]",0.7564382217870954,0.24699821675686864,"(0.0, 0.0, 0.0, 0.0, 0.0, 0.0)",-0.11744718772725361,-0.4726592087235114,0.003808355709580462,"(0.0, 0.0, 0.0, 0.0, 0.0, 0.0)",-0.024950002498617754,-0.07396390599380014,0.22389266963237603,"(0.0, 0.0, 0.0, 0.0, 0.0, 0.0)",0.7013665068918128,0.48845882959650955,-0.02128233585104878,"(0.0, 0.0, 0.0, 0.0, 0.0, 0.0)",0.4100389297033098,True,"(-0.06727384242497243, 0.13592817965513665, 0.029026685581924585)","(0.9602956249428515, 0.278983988085488, -0.0004970991195861745)",-1.2593494242252982e-05,0.8442576584222452,True,"(-0.01463505341322574, 0.18908951220552683, 0.04000048162259218)","(-0.9705314263913632, -0.2409741032277625, 0.0004816225921773288)",-1.3821685953557975e-05,5.134051441081731
50,Move,"(-0.04498, 0.0, -0.00015000000000000001)","(0.0, 0.12178209388715636, 0.0)","(-0.04464371821621511, 0.17356774418777776, 0.0009649018527197109)","(1.5702738608576197, -6.572056726800228e-05, 0.2525508544496156)","[-0.044928661704229086, 0.0022824776394211044, -0.0009018756728252907]","[-0.026750000193715096, 0.05299999937415123, 0.03999999910593033]","[0.0, -0.0, 0.7613107793846757]","[-0.07642070949077606, 0.1051231324672699, 0.03999999910593033]","[0.0, -0.0, 0.28881030996727963]","[0.026750000193715096, 0.05299999937415123, 0.03999999910593033]","[0.0, 0.0, -0.06863661036031164]","[0.03168795630335808, 0.1248304694890976, 0.03999999910593033]","[0.0, -0.0, 0.41905524240980385]",0.7623697189568576,0.254155652790883,"(0.0, 0.0, 0.0, 0.0, 0.0, 0.0)",-0.22993866721286335,-0.47248250933447106,0.004300678115354844,"(0.0, 0.0, 0.0, 0.0, 0.0, 0.0)",-0.05451289890975428,-0.067424059681698,0.2910111750484183,"(0.0, 0.0, 0.0, 0.0, 0.0, 0.0)",0.6889195551514442,0.48760224218686826,-0.02150966963614409,"(0.0, 0.0, 0.0, 0.0, 0.0, 0.0)",0.4105383499710795,True,"(-0.06775116392127839, 0.1356328054857862, 0.029026731840881295)","(0.9585831234911576, 0.2848128299714954, -0.00021735124531369174)",-1.4678306360771356e-05,0.5389386399492198,True,"(-0.015430919197000695, 0.18886619852091505, 0.04000020659044942)","(-0.9687274674056688, -0.24812708682081708, 0.00020659044942673247)",-1.4168441912335468e-05,5.111294813135588
51,Move,"(-0.044300000000000006, 0.0, -0.00046)","(0.0, 0.08774468281476293, 0.0)","(-0.045566947244405465, 0.17353953731289046, 0.0009770679947141677)","(1.5704468528978757, -0.00015134311767618606, 0.26591089933743184)","[-0.045851890732419444, 0.0022542707645338, -0.000889709530830834]","[-0.026750000193715096, 0.05299999937415123, 0.03999999910593033]","[0.0, -0.0, 0.766828160583159]","[-0.07670753449201584, 0.10484828799962997, 0.03999999910593033]","[0.0, -0.0, 0.2945299030124528]","[0.026750000193715096, 0.05299999937415123, 0.03999999910593033]","[0.0, 0.0, -0.06125317729517078]","[0.031157471239566803, 0.12486497312784195, 0.03999999910593033]","[0.0, -0.0, 0.4254704970088172]",0.7677662887175333,0.22515523367483128,"(0.0, 0.0, 0.0, 0.0, 0.0, 0.0)",-0.29071964435569325,-0.4722773134834684,0.005023461898944551,"(0.0, 0.0, 0.0, 0.0, 0.0, 0.0)",-0.06343998536060962,-0.05988077756941008,0.3293766685781952,"(0.0, 0.0, 0.0, 0.0, 0.0, 0.0)",0.7941630611838044,0.4866195874621632,-0.024987546331599587,"(0.0, 0.0, 0.0, 0.0, 0.0, 0.0)",0.4752567070479118,True,"(-0.06821263450331547, 0.13540704703194906, 0.029026731840881295)","(0.9585831234911576, 0.2848128299714954, -0.00021735124531369174)",-1.060644262321709e-05,2.2833448422988494,True,"(-0.016369682796376572, 0.1885912637108431, 0.039999838975786586)","(-0.9655610341330448, -0.2601766004757685, -0.00016102421341146022)",-1.4973266118270775e-05,5.892457065614876
52,Move,"(-0.044360000000000004, 0.0, -0.00022000000000000003)","(0.0, 0.08774468281476293, 0.0)","(-0.04654410391983665, 0.1735373886258009, 0.0009486637579539639)","(1.5718533397042904, 3.6220305371648903e-07, 0.28115934000527365)","[-0.04682904740785063, 0.0022521220774442408, -0.0009181137675910377]","[-0.026750000193715096, 0.05299999937415123, 0.03999999910593033]","[0.0, -0.0, 0.7719861807671319]","[-0.0769743025302887, 0.10458991676568985, 0.03999999910593033]","[0.0, -0.0, 0.2998361106323442]","[0.026750000193715096, 0.05299999937415123, 0.03999999910593033]","[0.0, 0.0, -0.053596589885037696]","[0.030607108026742935, 0.12489660829305649, 0.03999999910593033]","[0.0, -0.0, 0.43240990064725404]",0.7728921353463755,0.21743282671706995,"(0.0, 0.0, 0.0, 0.0, 0.0, 0.0)",-0.2477730934936253,-0.47213124503973464,0.00452105198333682,"(0.0, 0.0, 0.0, 0.0, 0.0, 0.0)",-0.05505247473079399,-0.05223603925167835,0.32653220952532375,"(0.0, 0.0, 0.0, 0.0, 0.0, 0.0)",0.6357486298689574,0.48590920783973957,-0.023345659263341714,"(0.0, 0.0, 0.0, 0.0, 0.0, 0.0)",0.38627250694833554,True,"(-0.06864167269418919, 0.13519332143211035, 0.029026731840881295)","(0.9585831234911576, 0.2848128299714954, -0.00021735124531369174)",-1.0291605199282451e-05,1.717491502544664,True,"(-0.017358897008965556, 0.18828366256788248, 0.04000000087482992)","(-0.9615096919820967, -0.27477101780160207, 8.748299141881466e-07)",-1.537512664435433e-05,4.815097868633255
53,Move,"(-0.04435, 0.0, -0.0002)","(0.0, 0.08774468281476293, 0.0)","(-0.047475969833141736, 0.1734510972582297, 0.0009642503711706175)","(1.5715064404600931, -4.6211322436889175e-05, 0.29682938944179466)","[-0.047760913321155715, 0.002165830709873029, -0.0009025271543743841]","[-0.026750000193715096, 0.05299999937415123, 0.03999999910593033]","[0.0, -0.0, 0.776812490931657]","[-0.07722270488739014, 0.10434692353010178, 0.03999999910593033]","[0.0, -0.0, 0.3048757217357266]","[0.026750000193715096, 0.05299999937415123, 0.03999999910593033]","[0.0, 0.0, -0.04593825785133483]","[0.030056390911340714, 0.12492404133081436, 0.03999999910593033]","[0.0, -0.0, 0.4390384732822658]",0.7776437712170857,0.19953027273998744,"(0.0, 0.0, 0.0, 0.0, 0.0, 0.0)",-0.36410181413617676,-0.47190725684777673,0.007060607184428758,"(0.0, 0.0, 0.0, 0.0, 0.0, 0.0)",-0.08084225089773535,-0.044569431020030366,0.3285187286259091,"(0.0, 0.0, 0.0, 0.0, 0.0, 0.0)",0.9023049532314922,0.48482612754681176,-0.03615891657469604,"(0.0, 0.0, 0.0, 0.0, 0.0, 0.0)",0.5390757991887546,True,"(-0.06904440679990088, 0.13499193213478206, 0.029026731840881295)","(0.9585831234911576, 0.2848128299714954, -0.00021735124531369174)",-6.813119207604196e-06,0.8927331921359687,True,"(-0.018326188829884855, 0.18798323380978565, 0.03999995067331331)","(-0.9571302220841319, -0.28965796301855434, -4.9326686691895656e-05)",-1.6220951774908595e-05,6.669076598530207
54,Move,"(-0.04422, 0.0, -0.00032)","(0.0, 0.08774468281476293, 0.0)","(-0.048293447799023406, 0.17317219907169926, 0.0009540175053831018)","(1.5705950004257685, -4.730412267741116e-05, 0.3120366758491333)","[-0.048578391287037385, 0.0018869325233425993, -0.0009127600201618998]","[-0.026750000193715096, 0.05299999937415123, 0.03999999910593033]","[0.0, -0.0, 0.7811020318929153]","[-0.07744249701499939, 0.10412994027137756, 0.03999999910593033]","[0.0, -0.0, 0.30940608814524406]","[0.026750000193715096, 0.05299999937415123, 0.03999999910593033]","[0.0, 0.0, -0.03826474741890806]","[0.02950439043343067, 0.12494729459285736, 0.03999999910593033]","[0.0, -0.0, 0.4454713121314682]",0.7818774243621783,0.18609073093167286,"(0.0, 0.0, 0.0, 0.0, 0.0, 0.0)",-1.8237111990056178,-0.47116203495407316,0.1281429028444321,"(0.0, 0.0, 0.0, 0.0, 0.0, 0.0)",-0.8392693194466759,-0.03693332043769248,0.31954278580134027,"(0.0, 0.0, 0.0, 0.0, 0.0, 0.0)",1.6646898878750114,0.48295642500929986,-0.18710234306279996,"(0.0, 0.0, 0.0, 0.0, 0.0, 0.0)",0.9352655644765773,True,"(-0.0694031186243827, 0.13481168613300085, 0.029026731840881295)","(0.9585831234911576, 0.2848128299714954, -0.00021735124531369174)",1.3259283741448817e-06,0.0,True,"(-0.01927973925853301, 0.18768414997554983, 0.0399999622357876)","(-0.9521562848090985, -0.3056115309872958, -3.776421240837173e-05)",-1.640141926965849e-05,12.249168364111355
55,Move,"(-0.04422, 0.0, -0.00032)","(0.0, 0.08774468281476293, 0.0)","(-0.04886497891405153, 0.17293236295741216, 0.0009638135896466022)","(1.5705363586234127, 0.00010978785382523934, 0.3182977481251883)","[-0.04914992240206551, 0.0016470964090554985, -0.0009029639358983995]","[-0.026750000193715096, 0.05299999937415123, 0.03999999910593033]","[0.0, -0.0, 0.7851262477104799]","[-0.07764784246683121, 0.10392552614212036, 0.03999999910593033]","[0.0, -0.0, 0.3161141480389986]","[0.026750000193715096, 0.05299999937415123, 0.03999999910593033]","[0.0, 0.0, -0.030669321822945746]","[0.028957845643162727, 0.12496613711118698, 0.03999999910593033]","[0.0, -0.0, 0.4476828292776061]",0.785813906300336,0.16502888845482577,"(0.0, 0.0, 0.0, 0.0, 0.0, 0.0)",-1.960412624753848,-0.4685336490011174,0.11484003516779738,"(0.0, 0.0, 0.0, 0.0, 0.0, 0.0)",-0.6758476668756468,-0.029305574600117006,0.3272985532129821,"(0.0, 0.0, 0.0, 0.0, 0.0, 0.0)",3.2649449164438678,0.4773354872075791,-0.24399728945065513,"(0.0, 0.0, 0.0, 0.0, 0.0, 0.0)",1.8563985971079995,True,"(-0.06981446087807143, 0.13466051179165758, 0.029026731840881295)","(0.9585831234911576, 0.2848128299714954, -0.00021735124531369174)",2.764596363448914e-05,0.0,True,"(-0.01996353887059149, 0.18759074327372172, 0.04000009053204444)","(-0.9501062728627359, -0.31192637283633035, 9.053204443892809e-05)",-4.1045738438505944e-05,23.19621925204354
56,Move,"(-0.04428000000000001, 0.0, -0.00036)","(0.0, 0.08774468281476293, 0.0)","(-0.04941064896530869, 0.17272378797203675, 0.0009702614649994671)","(1.5705533053220349, 0.00017569699434558193, 0.3243111345189862)","[-0.04969559245332267, 0.0014385214236800892, -0.0008965160605455345]","[-0.026750000193715096, 0.05299999937415123, 0.03999999910593033]","[0.0, -0.0, 0.7887154044264616]","[-0.07783029228448868, 0.10374252498149872, 0.03999999910593033]","[0.0, -0.0, 0.32253687578469825]","[0.026750000193715096, 0.05299999937415123, 0.03999999910593033]","[0.0, 0.0, -0.02304667218061442]","[0.028409212827682495, 0.1249808818101883, 0.03999999910593033]","[0.0, -0.0, 0.44927093060108375]",0.7893287126433547,0.14720855885350925,"(0.0, 0.0, 0.0, 0.0, 0.0, 0.0)",-2.1572541901916806,-0.4656606128593562,0.12428767227604917,"(0.0, 0.0, 0.0, 0.0, 0.0, 0.0)",-0.7460987636279198,-0.021693516200403176,0.3247578608476135,"(0.0, 0.0, 0.0, 0.0, 0.0, 0.0)",3.508684760272284,0.471218627322608,-0.2637732518561086,"(0.0, 0.0, 0.0, 0.0, 0.0, 0.0)",1.9969093482830502,True,"(-0.07019447000291139, 0.13452718631147206, 0.029026731840881295)","(0.9585831234911576, 0.2848128299714954, -0.00021735124531369174)",3.608598750367754e-05,0.0,True,"(-0.020610164629677075, 0.18752348750760828, 0.0400001633320829)","(-0.9482066030700903, -0.31765423217220146, 0.0001633320829020263)",-5.929469363473101e-05,24.875650590503152
57,Move,"(-0.04465, 0.0, -0.0002)","(0.0, 0.08774468281476293, 0.0)","(-0.04995901415088258, 0.17250665552095698, 0.0009742747702778406)","(1.5705685611125308, 0.00022381161122923398, 0.33052107656590357)","[-0.05024395763889656, 0.0012213889726003235, -0.0008925027552671611]","[-0.026750000193715096, 0.05299999937415123, 0.03999999910593033]","[0.0, -0.0, 0.7921567572376248]","[-0.0780046135187149, 0.10356643795967102, 0.03999999910593033]","[0.0, -0.0, 0.3290389841754317]","[0.026750000193715096, 0.05299999937415123, 0.03999999910593033]","[0.0, 0.0, -0.015237887738445342]","[0.027847085148096085, 0.12499164044857025, 0.03999999910593033]","[0.0, -0.0, 0.45059622699068225]",0.7927683311193655,0.14676681859265026,"(0.0, 0.0, 0.0, 0.0, 0.0, 0.0)",-2.348837071912978,-0.46256020527728187,0.13383055172771108,"(0.0, 0.0, 0.0, 0.0, 0.0, 0.0)",-0.8187822861011183,-0.01382934081193901,0.33805128936748285,"(0.0, 0.0, 0.0, 0.0, 0.0, 0.0)",3.7350919653245667,0.46465624821495644,-0.2826962571743461,"(0.0, 0.0, 0.0, 0.0, 0.0, 0.0)",2.1276949950602746,True,"(-0.07056912058152345, 0.1344000932530672, 0.029026731840881295)","(0.9585831234911576, 0.2848128299714954, -0.00021735124531369174)",4.605650513483342e-05,0.0,True,"(-0.021253578637084977, 0.1874646441553151, 0.040000213710485594)","(-0.9462289409011446, -0.32349767499771376, 0.0002137104855919103)",-7.2824776313678e-05,26.449955313890772
