OSUrobotics/InHand-Manipulation/AnalyseData/Data/new_hand_human_filt_josh_2v2_c_none_1_kpNone_kdNone_dp5_step5_save_data.csv
,Phase,human_cube_pos,human_cube_orn,Cube_Pos,Cube_Orn,Cube_pos_in_start_pos,b'l_prox_pin'_link_pos,b'l_prox_pin'_link_orn,b'l_distal_pin'_link_pos,b'l_distal_pin'_link_orn,b'r_prox_pin'_link_pos,b'r_prox_pin'_link_orn,b'r_distal_pin'_link_pos,b'r_distal_pin'_link_orn,b'l_prox_pin'_joint_angle,b'l_prox_pin'_joint_vel,b'l_prox_pin'_joint_react_forces,b'l_prox_pin'_joint_motor_torque,b'l_distal_pin'_joint_angle,b'l_distal_pin'_joint_vel,b'l_distal_pin'_joint_react_forces,b'l_distal_pin'_joint_motor_torque,b'r_prox_pin'_joint_angle,b'r_prox_pin'_joint_vel,b'r_prox_pin'_joint_react_forces,b'r_prox_pin'_joint_motor_torque,b'r_distal_pin'_joint_angle,b'r_distal_pin'_joint_vel,b'r_distal_pin'_joint_react_forces,b'r_distal_pin'_joint_motor_torque,in_contact_l,contact_point_l_dist,contact_normal_l_dist,contact_distance_l_dist,contact_norm_force_l_dist,in_contact_r,contact_point_r_dist,contact_normal_r_dist,contact_distance_r_dist,contact_norm_force_r_dist
0,Open,,,,,,"[-0.026750000193715096, 0.05299999937415123, 0.03999999910593033]","[0.0, -0.0, 0.42755761853039154]","[-0.056604765355587006, 0.1185186430811882, 0.03999999910593033]","[0.0, -0.0, 0.4463066270391506]","[0.026750000193715096, 0.05299999937415123, 0.03999999910593033]","[0.0, 0.0, -0.42757404208311445]","[0.05660583823919296, 0.1185181587934494, 0.03999999910593033]","[0.0, 0.0, -0.4465272228574986]",0.5418018724257314,27.418616735313837,"(0.0, 0.0, 0.0, 0.0, 0.0, 0.0)",-4.412236817968903,0.016874447698417276,-0.44988750389777044,"(0.0, 0.0, 0.0, 0.0, 0.0, 0.0)",-0.3112578673856835,-0.5418166170859073,-27.418223544375806,"(0.0, 0.0, 0.0, 0.0, 0.0, 0.0)",4.412120589674461,-0.017058187988154127,0.4547872631353701,"(0.0, 0.0, 0.0, 0.0, 0.0, 0.0)",0.31119999541872967,False,,,,,False,,,,
1,Open,,,,,,"[-0.026750000193715096, 0.05299999937415123, 0.03999999910593033]","[0.0, -0.0, 0.8953992050914552]","[-0.08294302970170975, 0.09801492840051651, 0.03999999910593033]","[0.0, -0.0, 0.9064715399310761]","[0.026750000193715096, 0.05299999937415123, 0.03999999910593033]","[0.0, 0.0, -0.8954089117450801]","[0.08294346183538437, 0.09801438450813293, 0.03999999910593033]","[0.0, 0.0, -0.9066016844299951]",0.9628592876486701,16.190418996035465,"(0.0, 0.0, 0.0, 0.0, 0.0, 0.0)",-2.616982039675733,0.009965290062605858,-0.26568209241480656,"(0.0, 0.0, 0.0, 0.0, 0.0, 0.0)",-0.18775783729375353,-0.9628679942230576,-16.190186820718473,"(0.0, 0.0, 0.0, 0.0, 0.0, 0.0)",2.6169116334278195,-0.010073786659150813,0.26857534621184953,"(0.0, 0.0, 0.0, 0.0, 0.0, 0.0)",0.187722108909745,False,,,,,False,,,,
2,Open,,,,,,"[-0.026750000193715096, 0.05299999937415123, 0.03999999910593033]","[0.0, -0.0, 1.17165497759142]","[-0.09309044480323792, 0.08098116517066956, 0.03999999910593033]","[0.0, -0.0, 1.1781937273122836]","[0.026750000193715096, 0.05299999937415123, 0.03999999910593033]","[0.0, 0.0, -1.1716605985979762]","[0.09309060126543045, 0.08098078519105911, 0.03999999910593033]","[0.0, 0.0, -1.178270796658152]",1.2114894807636634,9.56028051296898,"(0.0, 0.0, 0.0, 0.0, 0.0, 0.0)",-1.549346412635057,0.005885062316220725,-0.15689973638119079,"(0.0, 0.0, 0.0, 0.0, 0.0, 0.0)",-0.11225090666269867,-1.2114946219087734,-9.560143415766044,"(0.0, 0.0, 0.0, 0.0, 0.0, 0.0)",1.5493042197033076,-0.00594912834521185,0.1586081706180975,"(0.0, 0.0, 0.0, 0.0, 0.0, 0.0)",0.11222926703597672,False,,,,,False,,,,
3,Open,,,,,,"[-0.026750000193715096, 0.05299999937415123, 0.03999999910593033]","[0.0, -0.0, 1.3347813147466918]","[-0.09675397723913193, 0.06983575969934464, 0.03999999910593033]","[0.0, -0.0, 1.3386449621367835]","[0.026750000193715096, 0.05299999937415123, 0.03999999910593033]","[0.0, 0.0, -1.3347844615433213]","[0.0967540368437767, 0.06983552873134613, 0.03999999910593033]","[0.0, 0.0, -1.3386905382854437]",1.3583031234961356,5.645250040103052,"(0.0, 0.0, 0.0, 0.0, 0.0, 0.0)",-0.9162890978823036,0.0034783869891320215,-0.09247571818598516,"(0.0, 0.0, 0.0, 0.0, 0.0, 0.0)",-0.06677007440367574,-1.3583061592909116,-5.645169085575695,"(0.0, 0.0, 0.0, 0.0, 0.0, 0.0)",0.9162639666346021,-0.003516216695348753,0.09348456497972772,"(0.0, 0.0, 0.0, 0.0, 0.0, 0.0)",0.06675710630673855,False,,,,,False,,,,
4,Open,,,,,,"[-0.026750000193715096, 0.05299999937415123, 0.03999999910593033]","[0.0, -0.0, 1.4311058207082674]","[-0.09804865717887878, 0.06302504986524582, 0.03999999910593033]","[0.0, -0.0, 1.433390691262394]","[0.026750000193715096, 0.05299999937415123, 0.03999999910593033]","[0.0, 0.0, -1.4311075924426346]","[0.09804867953062057, 0.06302490830421448, 0.03999999910593033]","[0.0, 0.0, -1.433417470845748]",1.4449951113932331,3.333463696180452,"(0.0, 0.0, 0.0, 0.0, 0.0, 0.0)",-0.5415503506795546,0.0020570753203455715,-0.05468855210882702,"(0.0, 0.0, 0.0, 0.0, 0.0, 0.0)",-0.039594115216637325,-1.4449969039996904,-3.3334158933415914,"(0.0, 0.0, 0.0, 0.0, 0.0, 0.0)",0.541535435877482,-0.002079412775410495,0.055284250111531166,"(0.0, 0.0, 0.0, 0.0, 0.0, 0.0)",0.03958639191865308,False,,,,,False,,,,
5,Open,,,,,,"[-0.026750000193715096, 0.05299999937415123, 0.03999999910593033]","[0.0, -0.0, 1.4879842849605203]","[-0.09850326180458069, 0.05895565450191498, 0.03999999910593033]","[0.0, -0.0, 1.4893357278409396]","[0.026750000193715096, 0.05299999937415123, 0.03999999910593033]","[0.0, 0.0, -1.4879853833286059]","[0.09850326925516129, 0.05895556882023811, 0.03999999910593033]","[0.0, 0.0, -1.4893513332680077]",1.4961858633265903,1.9683769779575933,"(0.0, 0.0, 0.0, 0.0, 0.0, 0.0)",-0.31995094896823073,0.0012165319928285922,-0.03234212113369103,"(0.0, 0.0, 0.0, 0.0, 0.0, 0.0)",-0.02343792779000599,-1.4961869218427772,-1.9683487508592754,"(0.0, 0.0, 0.0, 0.0, 0.0, 0.0)",0.31994211580738524,-0.0012297216752996233,0.03269386530715718,"(0.0, 0.0, 0.0, 0.0, 0.0, 0.0)",0.02343334437795369,False,,,,,False,,,,
6,Open,,,,,,"[-0.026750000193715096, 0.05299999937415123, 0.03999999910593033]","[0.0, -0.0, 1.5215704989376362]","[-0.09866278618574142, 0.05654282495379448, 0.03999999910593033]","[0.0, -0.0, 1.522369838325666]","[0.026750000193715096, 0.05299999937415123, 0.03999999910593033]","[0.0, 0.0, -1.5215710825913402]","[0.09866278618574142, 0.0565427765250206, 0.03999999910593033]","[0.0, 0.0, -1.522379029767931]",1.5264134904357183,1.1623069217141797,"(0.0, 0.0, 0.0, 0.0, 0.0, 0.0)",-0.18898727227709852,0.000719444125508032,-0.019126791845346432,"(0.0, 0.0, 0.0, 0.0, 0.0, 0.0)",-0.013859938289241243,-1.5264141154789415,-1.162290253894895,"(0.0, 0.0, 0.0, 0.0, 0.0, 0.0)",0.18898204730565804,-0.0007272322869396521,0.019334487584604668,"(0.0, 0.0, 0.0, 0.0, 0.0, 0.0)",0.013857223880827028,False,,,,,False,,,,
7,Close,,,"(1.2478112216283415e-07, 0.16999960627914334, 0.0003375139776509844)","(1.5703757789650807, 0.0001088681168706304, -5.122612185789874e-06)",,"[-0.026750000193715096, 0.05299999937415123, 0.03999999910593033]","[0.0, -0.0, 1.2785329680082034]","[-0.09569678455591202, 0.07374466955661774, 0.03999999910593033]","[0.0, -0.0, 1.0351044933740032]","[0.026750000193715096, 0.05299999937415123, 0.03999999910593033]","[0.0, 0.0, -1.2785333261376617]","[0.09569679200649261, 0.07374463975429535, 0.03999999910593033]","[0.0, 0.0, -1.0351099865887758]",1.2106796019673873,-16.28478938579699,"(0.0, 0.0, 0.0, 0.0, 0.0, 0.0)",2.809472854136235,-0.3090860149933808,-15.757821278062295,"(0.0, 0.0, 0.0, 0.0, 0.0, 0.0)",0.3661538009495806,-1.2106799710491603,16.284799227977608,"(0.0, 0.0, 0.0, 0.0, 0.0, 0.0)",-2.8094757422584213,0.30908141619234186,15.75794391320213,"(0.0, 0.0, 0.0, 0.0, 0.0, 0.0)",-0.3661552191151056,False,,,,,False,,,,
8,Close,,,"(3.0991841452431125e-07, 0.1699991530873768, 0.0005600347089338349)","(1.5707725584893357, 0.0003276471180493337, -1.5390016504502985e-05)",,"[-0.026750000193715096, 0.05299999937415123, 0.03999999910593033]","[0.0, -0.0, 1.0006670909649218]","[-0.08736184239387512, 0.09186135232448578, 0.03999999910593033]","[0.0, -0.0, 0.48836557737534114]","[0.026750000193715096, 0.05299999937415123, 0.03999999910593033]","[0.0, 0.0, -1.0006671906734346]","[0.08736184984445572, 0.09186133742332458, 0.03999999910593033]","[0.0, 0.0, -0.4883688154364048]",0.9606001981650306,-9.616005284561718,"(0.0, 0.0, 0.0, 0.0, 0.0, 0.0)",1.667253264949997,-0.5510712009946406,-9.304767973476249,"(0.0, 0.0, 0.0, 0.0, 0.0, 0.0)",0.2218037572572205,-0.9606004161041268,9.616011096270952,"(0.0, 0.0, 0.0, 0.0, 0.0, 0.0)",-1.6672550198735234,0.5510684854486152,9.30484038803693,"(0.0, 0.0, 0.0, 0.0, 0.0, 0.0)",-0.22180464092959223,False,,,,,False,,,,
9,Close,,,"(2.933853975158492e-07, 0.16999904048792538, 0.0007066062154399696)","(1.5708337628024795, 0.00026866528465535426, -1.404448202163588e-05)",,"[-0.026750000193715096, 0.05299999937415123, 0.03999999910593033]","[0.0, -0.0, 0.8365897781630613]","[-0.08020010590553284, 0.1012398824095726, 0.03999999910593033]","[0.0, -0.0, 0.16552144688028117]","[0.026750000193715096, 0.05299999937415123, 0.03999999910593033]","[0.0, 0.0, -0.8365899294750984]","[0.08020011335611343, 0.101239874958992, 0.03999999910593033]","[0.0, 0.0, -0.1655233971102189]",0.8129308110141114,-5.678154960376304,"(0.0, 0.0, 0.0, 0.0, 0.0, 0.0)",0.9873874064507416,-0.6939616573792659,-5.494397555666588,"(0.0, 0.0, 0.0, 0.0, 0.0, 0.0)",0.13292457281458034,-0.8129309397049683,5.678158392132489,"(0.0, 0.0, 0.0, 0.0, 0.0, 0.0)",-0.987388459985631,0.6939600538790082,5.494440315842426,"(0.0, 0.0, 0.0, 0.0, 0.0, 0.0)",-0.13292511074891808,False,,,,,False,,,,
10,Close,,,"(1.9902477861274505e-07, 0.16999905216518962, 0.0008031506137060285)","(1.5708213694470277, 0.0001751880104672085, -1.4031272711042213e-05)",,"[-0.026750000193715096, 0.05299999937415123, 0.03999999910593033]","[0.0, -0.0, 0.7397039398326887]","[-0.075282983481884, 0.10618411004543304, 0.03999999910593033]","[0.0, 0.0, -0.025114755601520013]","[0.026750000193715096, 0.05299999937415123, 0.03999999910593033]","[0.0, 0.0, -0.7397039829241547]","[0.0752829909324646, 0.10618410259485245, 0.03999999910593033]","[0.0, -0.0, 0.025113617980755978]",0.7257335145957226,-3.3528937225526034,"(0.0, 0.0, 0.0, 0.0, 0.0, 0.0)",0.5840196078844049,-0.7783380408184963,-3.244652289205478,"(0.0, 0.0, 0.0, 0.0, 0.0, 0.0)",0.07914031685893824,-0.7257335905863868,3.3528957489703144,"(0.0, 0.0, 0.0, 0.0, 0.0, 0.0)",-0.5840202358821991,0.778337093974245,3.2446775397467595,"(0.0, 0.0, 0.0, 0.0, 0.0, 0.0)",-0.07914064000385382,False,,,,,False,,,,
11,Close,,,"(1.3069317882946781e-07, 0.16999905849316785, 0.0008666025578373041)","(1.570813038524343, 0.0001076496945073061, -1.4014808324094979e-05)",,"[-0.026750000193715096, 0.05299999937415123, 0.03999999910593033]","[0.0, -0.0, 0.6824937890365349]","[-0.07216256856918335, 0.10887216031551361, 0.03999999910593033]","[0.0, 0.0, -0.137687120736303]","[0.026750000193715096, 0.05299999937415123, 0.03999999910593033]","[0.0, 0.0, -0.6824937890365349]","[0.07216257601976395, 0.10887216031551361, 0.03999999910593033]","[0.0, -0.0, 0.1376864353718678]",0.6742443830336282,-1.9798502142300851,"(0.0, 0.0, 0.0, 0.0, 0.0, 0.0)",0.34523008433021124,-0.8281635344937409,-1.9158370237869804,"(0.0, 0.0, 0.0, 0.0, 0.0, 0.0)",0.046989708289177236,-0.6742444279053555,1.9798514108094807,"(0.0, 0.0, 0.0, 0.0, 0.0, 0.0)",-0.3452304573414294,0.8281629754068567,1.9158519335829844,"(0.0, 0.0, 0.0, 0.0, 0.0, 0.0)",-0.04698990114977892,False,,,,,False,,,,
12,Close,,,"(8.555941999099156e-08, 0.16999906193922792, 0.000908421947806545)","(1.5708075491537519, 6.311807488844542e-05, -1.4000595358663434e-05)",,"[-0.026750000193715096, 0.05299999937415123, 0.03999999910593033]","[0.0, -0.0, 0.6487117277688945]","[-0.070249542593956, 0.11037412285804749, 0.03999999910593033]","[0.0, 0.0, -0.20415830575541527]","[0.026750000193715096, 0.05299999937415123, 0.03999999910593033]","[0.0, 0.0, -0.6487117277688945]","[0.070249542593956, 0.11037411540746689, 0.03999999910593033]","[0.0, -0.0, 0.20415788801885543]",0.6438405657375271,-1.1690817530007243,"(0.0, 0.0, 0.0, 0.0, 0.0, 0.0)",0.20397674457790932,-0.8575834812137779,-1.1312243968345508,"(0.0, 0.0, 0.0, 0.0, 0.0, 0.0)",0.027828964636992654,-0.6438405922338334,1.1690824595688907,"(0.0, 0.0, 0.0, 0.0, 0.0, 0.0)",-0.20397696556653716,0.8575831510875931,1.1312332006820753,"(0.0, 0.0, 0.0, 0.0, 0.0, 0.0)",-0.027829079200348807,False,,,,,False,,,,
13,Close,,,"(5.567361934631568e-08, 0.16999906349286917, 0.0009359839309479349)","(1.5708039321322358, 3.37560108188707e-05, -1.3987283228090085e-05)",,"[-0.026750000193715096, 0.05299999937415123, 0.03999999910593033]","[0.0, -0.0, 0.62876384308693]","[-0.06909646838903427, 0.11123037338256836, 0.03999999910593033]","[0.0, 0.0, -0.24340789693353326]","[0.026750000193715096, 0.05299999937415123, 0.03999999910593033]","[0.0, 0.0, -0.62876384308693]","[0.06909646838903427, 0.11123037338256836, 0.03999999910593033]","[0.0, -0.0, 0.24340764580603796]",0.6258874156623524,-0.6903310843293964,"(0.0, 0.0, 0.0, 0.0, 0.0, 0.0)",0.12048853373387189,-0.8749547691894786,-0.6679421640099914,"(0.0, 0.0, 0.0, 0.0, 0.0, 0.0)",0.016461146679105913,-0.6258874313081562,0.6903315015508323,"(0.0, 0.0, 0.0, 0.0, 0.0, 0.0)",-0.12048866447898966,0.8749545742586229,0.6679473624521103,"(0.0, 0.0, 0.0, 0.0, 0.0, 0.0)",-0.016461214564379854,False,,,,,False,,,,
14,Move,,,"(0.0002849434880139787, 0.17128526654835666, 0.0018667775255450016)","(1.529867145493542, 0.001236551690390913, -0.0026252758006009144)","[0.0, 0.0, 0.0]","[-0.026750000193715096, 0.05299999937415123, 0.03999999910593033]","[0.0, -0.0, 0.5674368798319164]","[-0.06544800847768784, 0.113716259598732, 0.03999999910593033]","[0.0, 0.0, -0.23086444862254737]","[0.026750000193715096, 0.05299999937415123, 0.03999999910593033]","[0.0, 0.0, -0.5672775113046467]","[0.06543833017349243, 0.11372242867946625, 0.03999999910593033]","[0.0, -0.0, 0.2338230653212545]",0.5526433844132694,-3.5504372063580854,"(0.0, 0.0, 0.0, 0.0, 0.0, 0.0)",-74.66311326449657,-0.7739535469156117,5.843468067207706,"(0.0, 0.0, 0.0, 0.0, 0.0, 0.0)",-38.567738900473906,-0.5523653530093062,3.5789086898164406,"(0.0, 0.0, 0.0, 0.0, 0.0, 0.0)",70.97380681712595,0.7784689212282292,-5.431581853362886,"(0.0, 0.0, 0.0, 0.0, 0.0, 0.0)",36.631671368390464,True,"(-0.031139027298926508, 0.18549673152317092, 0.03999924353386678)","(0.9999971505660776, -0.0022642037706561637, -0.0007564661332230728)",-0.000503181178828863,565.4925793008347,True,"(0.030917119596597424, 0.1854085662421605, 0.04000075646613322)","(-0.9999971505660776, 0.002264203770598743, 0.0007564661332168607)",-0.0013606486484191646,538.0249494895718
15,Move,"(0.0, 0.0, 0.0)","(0.0, -0.0, 0.0)","(0.00016274991557831364, 0.17136475104845758, 0.0031640906121350575)","(1.4899865793592248, -0.0009251634143453488, -0.006053919932276661)","[-0.00012219357243566505, 7.948450010092367e-05, 0.001297313086590056]","[-0.026750000193715096, 0.05299999937415123, 0.03999999910593033]","[0.0, -0.0, 0.5448782568355026]","[-0.06406860798597336, 0.11457370966672897, 0.03999999910593033]","[0.0, 0.0, -0.2125956411648876]","[0.026750000193715096, 0.05299999937415123, 0.03999999910593033]","[0.0, 0.0, -0.5441825092896027]","[0.06402575969696045, 0.11459966003894806, 0.03999999910593033]","[0.0, -0.0, 0.21903630347083206]",0.5463765798653516,0.35960109272080254,"(0.0, 0.0, 0.0, 0.0, 0.0, 0.0)",-0.08406283938624641,-0.7590286933635231,-0.37315947580442554,"(0.0, 0.0, 0.0, 0.0, 0.0, 0.0)",-0.017297597694563044,-0.5456033040750284,-0.3409927387516254,"(0.0, 0.0, 0.0, 0.0, 0.0, 0.0)",0.7656171975284948,0.7645763731677416,0.32581485659360865,"(0.0, 0.0, 0.0, 0.0, 0.0, 0.0)",0.4026025408250114,True,"(-0.031076504252458274, 0.1869479334441972, 0.04000075744199429)","(0.9999871217005202, -0.0050182382101970815, 0.0007574419942935584)",-0.000622934270282677,0.221954412255134,True,"(0.03056815038234164, 0.1867763680017247, 0.03999924255800572)","(-0.9999871217005204, 0.005018238210180842, -0.0007574419942756659)",-0.0016523435419804678,5.374466445399798
16,Move,"(0.0, 0.0, 0.0)","(0.0, -0.0, 0.0)","(-6.337957008313859e-05, 0.17133241267644161, 0.0031880816687959806)","(1.4928112904341142, -0.0006545114769320461, -0.010066132815740028)","[-0.0003483230580971173, 4.714612808495722e-05, 0.001321304143250979]","[-0.026750000193715096, 0.05299999937415123, 0.03999999910593033]","[0.0, -0.0, 0.5488377527933422]","[-0.06431211531162262, 0.11442546546459198, 0.03999999910593033]","[0.0, 0.0, -0.21077310741645955]","[0.026750000193715096, 0.05299999937415123, 0.03999999910593033]","[0.0, 0.0, -0.547995687933414]","[0.06426037847995758, 0.11445707082748413, 0.03999999910593033]","[0.0, -0.0, 0.2169509060645669]",0.5491401313630154,0.07257638027151496,"(0.0, 0.0, 0.0, 0.0, 0.0, 0.0)",-0.3066840758721345,-0.7593620803589538,0.059702822107754495,"(0.0, 0.0, 0.0, 0.0, 0.0, 0.0)",-0.14686756004205834,-0.548295775753571,-0.07200558529027003,"(0.0, 0.0, 0.0, 0.0, 0.0, 0.0)",0.6643207661695938,0.7647109215877755,-0.05658230443565377,"(0.0, 0.0, 0.0, 0.0, 0.0, 0.0)",0.31795978197997554,True,"(-0.031452010065560435, 0.18685325265429348, 0.04000070146695575)","(0.9999532896982327, -0.009639832249190858, 0.0007014669557505881)",-0.00041340728276361165,2.188996256819944,True,"(0.030953383604334986, 0.1867059297891543, 0.03999929853304425)","(-0.9999532896982325, 0.009639832249198349, -0.0007014669557489135)",-0.0011026932160781453,4.854951800701028
17,Move,"(0.0, 0.0, 0.0)","(0.0, -0.0, 0.0)","(-0.00018503635318464252, 0.17122426474338426, 0.0020779038654625036)","(1.531170242882305, -0.00043878763907482236, -0.013303537154011802)","[-0.0004699798411986212, -6.1001804972399265e-05, 0.00021112633991750198]","[-0.026750000193715096, 0.05299999937415123, 0.03999999910593033]","[0.0, -0.0, 0.5506358975012704]","[-0.06442249566316605, 0.1143578290939331, 0.03999999910593033]","[0.0, 0.0, -0.20855083283645848]","[0.026750000193715096, 0.05299999937415123, 0.03999999910593033]","[0.0, 0.0, -0.5501015567963023]","[0.06438971310853958, 0.1143779456615448, 0.03999999910593033]","[0.0, -0.0, 0.21444578568664924]",0.550964684370257,0.07893443664831157,"(0.0, 0.0, 0.0, 0.0, 0.0, 0.0)",-0.012805702760149012,-0.7592039490970093,-0.004165241203613213,"(0.0, 0.0, 0.0, 0.0, 0.0, 0.0)",-0.0009088854239197933,-0.5505144833763652,-0.09910896464782581,"(0.0, 0.0, 0.0, 0.0, 0.0, 0.0)",0.016095086986517626,0.7645634140777361,0.003867817593457087,"(0.0, 0.0, 0.0, 0.0, 0.0, 0.0)",0.0011576950398015072,True,"(-0.0317234854629974, 0.1868532998353662, 0.0400004982027457)","(0.9999207622335561, -0.012578594845546423, 0.0004982027456894725)",-0.00022412003956257751,0.0,True,"(0.03126381973128947, 0.18671045140399978, 0.039999501797254304)","(-0.9999207622335559, 0.012578594845548739, -0.0004982027456943052)",-0.0007117677809595204,0.0
18,Move,"(-0.00011999999999999999, 0.0, -5e-05)","(0.0, -0.0, 0.0)","(-0.00043015857610207873, 0.17126912831056362, 0.001030661406210531)","(1.5826650060824181, 0.006409121406691708, -0.009924974159722145)","[-0.0007151020641160574, -1.6138237793034138e-05, -0.0008361161193344707]","[-0.026750000193715096, 0.05299999937415123, 0.03999999910593033]","[0.0, -0.0, 0.5519312107415121]","[-0.06450194865465164, 0.11430897563695908, 0.03999999910593033]","[0.0, 0.0, -0.20728386216798775]","[0.026750000193715096, 0.05299999937415123, 0.03999999910593033]","[0.0, 0.0, -0.5519052075919214]","[0.0645003542304039, 0.11430995911359787, 0.03999999910593033]","[0.0, -0.0, 0.2125567926849379]",0.5521116533403689,0.043305952840528704,"(0.0, 0.0, 0.0, 0.0, 0.0, 0.0)",-0.07581732431585218,-0.759212785124957,0.0005515664785243423,"(0.0, 0.0, 0.0, 0.0, 0.0, 0.0)",-0.03727284879752618,-0.5521781175100777,-0.06550568684107548,"(0.0, 0.0, 0.0, 0.0, 0.0, 0.0)",0.015163467674050893,0.7644721193019374,0.00243452735463379,"(0.0, 0.0, 0.0, 0.0, 0.0, 0.0)",0.004128303687770435,True,"(-0.03189482213926491, 0.18684591364852568, 0.03999504158115641)","(0.9999248279207008, -0.011213946242432977, -0.00495841884358591)",-7.35810602589312e-05,0.5140390562079221,True,"(0.03151112602365094, 0.186701654124021, 0.04000495841884357)","(-0.999924827920701, 0.01121394624243529, 0.004958418843572453)",-0.00044366696463221395,0.0
19,Move,"(-0.00011999999999999999, 0.0, -5e-05)","(0.0, -0.0, 0.0)","(-0.00042895457508838685, 0.17128001513005925, 0.0009721580971778427)","(1.5763720306616995, 0.005059382909028344, -0.01003473861734158)","[-0.0007138980631023655, -5.251418297408383e-06, -0.0008946194283671589]","[-0.026750000193715096, 0.05299999937415123, 0.03999999910593033]","[0.0, -0.0, 0.5523571247309876]","[-0.06452806293964386, 0.11429288983345032, 0.03999999910593033]","[0.0, 0.0, -0.20662096220056206]","[0.026750000193715096, 0.05299999937415123, 0.03999999910593033]","[0.0, 0.0, -0.5527484965325679]","[0.06455203890800476, 0.11427810043096542, 0.03999999910593033]","[0.0, -0.0, 0.21156882911512795]",0.5523866389597013,0.007082143964349927,"(0.0, 0.0, 0.0, 0.0, 0.0, 0.0)",-0.46335563797119,-0.7587916910867836,0.04474121275379389,"(0.0, 0.0, 0.0, 0.0, 0.0, 0.0)",-0.2589424591165156,-0.5528325028459381,-0.020173559023609396,"(0.0, 0.0, 0.0, 0.0, 0.0, 0.0)",0.006881241062556901,0.7643327560621155,0.0037163530619181966,"(0.0, 0.0, 0.0, 0.0, 0.0, 0.0)",0.0024121603901106395,True,"(-0.03196901967073933, 0.18685195573300076, 0.039994522932034954)","(0.9999347667037606, -0.010023176322999107, -0.005477067965050923)",-5.232910326278306e-05,3.5061505436009988,True,"(0.0316343290465886, 0.18670017709822506, 0.04000547706796506)","(-0.9999347667037606, 0.010023176322995767, 0.00547706796506199)",-0.0002670083055881072,0.0
20,Move,"(-0.00011999999999999999, 0.0, -5e-05)","(0.0, -0.0, 0.0)","(-0.00042576853559531423, 0.1712790421715724, 0.0009782832845722682)","(1.574492379324936, 0.003387695345123405, -0.00990191723099144)","[-0.000710712023609293, -6.22437678426957e-06, -0.0008884942409727334]","[-0.026750000193715096, 0.05299999937415123, 0.03999999910593033]","[0.0, -0.0, 0.552609450588822]","[-0.06454352289438248, 0.11428335309028625, 0.03999999910593033]","[0.0, 0.0, -0.2057877072180624]","[0.026750000193715096, 0.05299999937415123, 0.03999999910593033]","[0.0, 0.0, -0.55340806813642]","[0.06459245085716248, 0.11425315588712692, 0.03999999910593033]","[0.0, -0.0, 0.21093486619870808]",0.5526623747881704,0.012717146321074556,"(0.0, 0.0, 0.0, 0.0, 0.0, 0.0)",-0.27539250811655874,-0.7583190092438992,0.018741169635385465,"(0.0, 0.0, 0.0, 0.0, 0.0, 0.0)",-0.15342274976683443,-0.5535425282608326,-0.03227396758201717,"(0.0, 0.0, 0.0, 0.0, 0.0, 0.0)",0.005259361850880821,0.7643418996842801,-0.00024382992438987117,"(0.0, 0.0, 0.0, 0.0, 0.0, 0.0)",0.00039504017916076336,True,"(-0.03204495127091493, 0.186868817732842, 0.03999633032598468)","(0.9999442445270776, -0.00990158218637265, -0.0036696740153237674)",-4.474795603693291e-05,2.046187814393793,True,"(0.031720643758231956, 0.18669532780887732, 0.040003669674015314)","(-0.9999442445270775, 0.009901582186377954, 0.0036696740153211627)",-0.0001115197815588913,0.0
21,Move,"(0.0, 0.0, 0.0)","(0.0, -0.0, 0.0)","(-0.0004268643248682337, 0.171280095421057, 0.000982209636001711)","(1.573246573249295, 0.0022706701727071483, -0.009902017374512516)","[-0.0007118078128822123, -5.171127299669065e-06, -0.0008845678895432905]","[-0.026750000193715096, 0.05299999937415123, 0.03999999910593033]","[0.0, -0.0, 0.552832825694872]","[-0.06455720961093903, 0.11427491158246994, 0.03999999910593033]","[0.0, 0.0, -0.20520849113139322]","[0.026750000193715096, 0.05299999937415123, 0.03999999910593033]","[0.0, 0.0, -0.554302117223955]","[0.06464719772338867, 0.1142193004488945, 0.03999999910593033]","[0.0, -0.0, 0.21003918458070348]",0.5528660518992357,0.007974224692086054,"(0.0, 0.0, 0.0, 0.0, 0.0, 0.0)",-0.21009185294716862,-0.7579821759303369,0.014182901186421713,"(0.0, 0.0, 0.0, 0.0, 0.0, 0.0)",-0.11709491946656109,-0.5544737923559175,-0.04122099911180488,"(0.0, 0.0, 0.0, 0.0, 0.0, 0.0)",0.006713367796566007,0.7643412997712299,1.599768133964119e-05,"(0.0, 0.0, 0.0, 0.0, 0.0, 0.0)",0.0005005679989920684,True,"(-0.03210069699209883, 0.1868786052206317, 0.03999754121995204)","(0.9999479521322596, -0.009901890080983982, -0.002458780047957517)",-3.724363326359411e-05,1.5632608284276963,True,"(0.031840272304737995, 0.18668999059753266, 0.04000245878004797)","(-0.9999479521322598, 0.0099018900809834, 0.0024587800479663577)",5.6742111492641914e-05,0.0
22,Move,"(0.0, 0.0, 0.0)","(0.0, -0.0, 0.0)","(-0.0004276020526074885, 0.17128081668593942, 0.0009845928236629532)","(1.572411679979553, 0.001517663600972103, -0.009902016109226733)","[-0.0007125455406214672, -4.449862417238437e-06, -0.0008821847018820484]","[-0.026750000193715096, 0.05299999937415123, 0.03999999910593033]","[0.0, -0.0, 0.553009942577234]","[-0.06456806510686874, 0.1142682135105133, 0.03999999910593033]","[0.0, 0.0, -0.20481916861113858]","[0.026750000193715096, 0.05299999937415123, 0.03999999910593033]","[0.0, 0.0, -0.5553012253080685]","[0.06470835208892822, 0.11418139934539795, 0.03999999910593033]","[0.0, -0.0, 0.20904005819236832]",0.5530407703504827,0.007394807535672272,"(0.0, 0.0, 0.0, 0.0, 0.0, 0.0)",-0.12003355677213796,-0.7577998816385094,0.007019889490274943,"(0.0, 0.0, 0.0, 0.0, 0.0, 0.0)",-0.0667736882352627,-0.5554822841995027,-0.04344304607049131,"(0.0, 0.0, 0.0, 0.0, 0.0, 0.0)",0.007075467933980445,0.7643413391315251,-1.0496078726163205e-06,"(0.0, 0.0, 0.0, 0.0, 0.0, 0.0)",0.0005277668476447932,True,"(-0.03213981740352431, 0.1868841470860214, 0.039998355139251554)","(0.9999496225668675, -0.00990185646722106, -0.0016448607484444659)",-3.058106674747154e-05,0.8901898619234198,True,"(0.03197383716726669, 0.18668383477317085, 0.04000164486074844)","(-0.9999496225668677, 0.009901856467210214, 0.0016448607484406202)",0.00022298543126758375,0.0
23,Move,"(0.0, 0.0, 0.0)","(0.0, -0.0, 0.0)","(-0.00042810445556987046, 0.17128133632471287, 0.0009860416288797436)","(1.5718517482314829, 0.001008084188824963, -0.009902110778233525)","[-0.0007130479435838491, -3.930223643783259e-06, -0.000880735896665258]","[-0.026750000193715096, 0.05299999937415123, 0.03999999910593033]","[0.0, -0.0, 0.5531732063126825]","[-0.06457807123661041, 0.11426203697919846, 0.03999999910593033]","[0.0, 0.0, -0.2045722411849135]","[0.026750000193715096, 0.05299999937415123, 0.03999999910593033]","[0.0, 0.0, -0.5563458219714835]","[0.06477224081754684, 0.11414171755313873, 0.03999999910593033]","[0.0, -0.0, 0.2079955478370669]",0.5532014832019436,0.00678445412250759,"(0.0, 0.0, 0.0, 0.0, 0.0, 0.0)",-0.05681172131389513,-0.7577361255475793,0.002231701310402055,"(0.0, 0.0, 0.0, 0.0, 0.0, 0.0)",-0.03140691688247563,-0.5565342956365804,-0.04523318944584531,"(0.0, 0.0, 0.0, 0.0, 0.0, 0.0)",0.007367005086187412,0.7643413365490962,6.886477255108048e-08,"(0.0, 0.0, 0.0, 0.0, 0.0, 0.0)",0.0005494984268190887,True,"(-0.032167755391630914, 0.18688573158318744, 0.03999890582340999)","(0.9999503760981924, -0.00990192499837856, -0.001094176590010517)",-2.4636746146622352e-05,0.41770246907946146,True,"(0.03211346295993395, 0.18667726107495533, 0.040001094176589994)","(-0.9999503760981925, 0.009901924998375935, 0.0010941765899987938)",0.0003847287001744491,0.0
24,Move,"(-0.00011999999999999999, 0.0, -5e-05)","(0.0, -0.0, 0.0)","(-0.0004284808912903736, 0.17128174018087924, 0.0009869527491441555)","(1.5714360719830165, 0.0006232726029048322, -0.009902134178058792)","[-0.0007134243793043523, -3.526367477413306e-06, -0.0008798247764008461]","[-0.026750000193715096, 0.05299999937415123, 0.03999999910593033]","[0.0, -0.0, 0.5533800921783191]","[-0.06459073722362518, 0.11425421386957169, 0.03999999910593033]","[0.0, 0.0, -0.20435007226969482]","[0.026750000193715096, 0.05299999937415123, 0.03999999910593033]","[0.0, 0.0, -0.5573329271548448]","[0.06483256816864014, 0.11410415917634964, 0.03999999910593033]","[0.0, -0.0, 0.20700848608617692]",0.5534212566686213,0.009883897374818318,"(0.0, 0.0, 0.0, 0.0, 0.0, 0.0)",-0.0016299468535517696,-0.7577318607330792,-0.0004209068359234005,"(0.0, 0.0, 0.0, 0.0, 0.0, 0.0)",-0.00014023982782658412,-0.5575020553365753,-0.040605333386353415,"(0.0, 0.0, 0.0, 0.0, 0.0, 0.0)",0.006613291840541095,0.7643413367185297,-4.518227585275167e-09,"(0.0, 0.0, 0.0, 0.0, 0.0, 0.0)",0.0004932836949054039,True,"(-0.032196565090352444, 0.18688488194693884, 0.039999301801364406)","(0.999950730042171, -0.009902020339022292, -0.000698198635593997)",-1.1665915056720781e-05,0.0,True,"(0.03224539480576696, 0.1866709150844288, 0.040000698198635595)","(-0.9999507300421713, 0.009902020339018554, 0.0006981986355928741)",0.0005325701102298279,0.0
25,Move,"(-0.00011999999999999999, 0.0, -5e-05)","(0.0, -0.0, 0.0)","(-0.00042885788029188907, 0.17128216673930613, 0.000987563749120689)","(1.571059296205924, 0.00026590417768794077, -0.009902468419508677)","[-0.0007138013683058678, -3.0998090505274245e-06, -0.0008792137764243126]","[-0.026750000193715096, 0.05299999937415123, 0.03999999910593033]","[0.0, -0.0, 0.5536048589977349]","[-0.0646045058965683, 0.11424570530653, 0.03999999910593033]","[0.0, 0.0, -0.2041274829619069]","[0.026750000193715096, 0.05299999937415123, 0.03999999910593033]","[0.0, 0.0, -0.5583043946606205]","[0.06489191204309464, 0.11406712979078293, 0.03999999910593033]","[0.0, -0.0, 0.20603701586988163]",0.5536442952059846,0.009461470610593993,"(0.0, 0.0, 0.0, 0.0, 0.0, 0.0)",-0.0015411270851808589,-0.7577322971460845,1.16376801422291e-05,"(0.0, 0.0, 0.0, 0.0, 0.0, 0.0)",-0.00011508831045790002,-0.5584791763664091,-0.04196450600318169,"(0.0, 0.0, 0.0, 0.0, 0.0, 0.0)",0.006834653235375549,0.7643413367074177,2.9632030162924074e-10,"(0.0, 0.0, 0.0, 0.0, 0.0, 0.0)",0.0005097939163867611,True,"(-0.03222650147957637, 0.18688335831270517, 0.03999966493334009)","(0.9999509093610727, -0.009902858087313999, -0.000335066659910064)",3.718533511129489e-06,0.0,True,"(0.03237523757847407, 0.1866645429000312, 0.04000033506665991)","(-0.9999509093610726, 0.009902858087320075, 0.0003350666599122849)",0.0006770174797712476,0.0
26,Move,"(-0.00058, 0.0, -0.00014000000000000001)","(0.0, 0.016334536469414934, 0.0)","(-0.00042899416647741186, 0.17128234576794812, 0.0009872827242209425)","(1.5708815777675926, 0.00012304526177767217, -0.00990256375541447)","[-0.0007139376544913905, -2.9207804085329414e-06, -0.0008794948013240592]","[-0.026750000193715096, 0.05299999937415123, 0.03999999910593033]","[0.0, -0.0, 0.5538793398502663]","[-0.06462131440639496, 0.11423531174659729, 0.03999999910593033]","[0.0, 0.0, -0.20385294145786478]","[0.026750000193715096, 0.05299999937415123, 0.03999999910593033]","[0.0, 0.0, -0.5591325351882596]","[0.06494247913360596, 0.11403551697731018, 0.03999999910593033]","[0.0, -0.0, 0.20520874311887544]",0.5539330077795873,0.012883245423068068,"(0.0, 0.0, 0.0, 0.0, 0.0, 0.0)",-0.002098290981945116,-0.7577322635691829,-2.3603679769255536e-07,"(0.0, 0.0, 0.0, 0.0, 0.0, 0.0)",-0.00015652201693738122,-0.5592660392117254,-0.032025766509983455,"(0.0, 0.0, 0.0, 0.0, 0.0, 0.0)",0.005216012123539539,0.7643413244182427,-1.3113634292202799e-06,"(0.0, 0.0, 0.0, 0.0, 0.0, 0.0)",0.0003890989009979736,True,"(-0.03226325491707704, 0.18688157879337902, 0.03999986522532585)","(0.9999509605262306, -0.009902443054924973, -0.0001347746741525169)",3.2441749736232715e-05,0.0,True,"(0.032485938435653824, 0.18665900938109736, 0.04000013477467416)","(-0.9999509605262307, 0.009902443054924506, 0.00013477467415539128)",0.0007957819036665121,0.0
27,Move,"(-0.0010500000000000002, 0.0, -0.00023)","(0.0, 0.016334536469414934, 0.0)","(-0.0004290449498503031, 0.171282393194543, 0.0009880388849388448)","(1.5708433490839393, 7.739180528744602e-05, -0.00990244526904449)","[-0.0007139884378642818, -2.873353813659385e-06, -0.0008787386406061569]","[-0.026750000193715096, 0.05299999937415123, 0.03999999910593033]","[0.0, -0.0, 0.554424452320186]","[-0.06465469300746918, 0.11421465873718262, 0.03999999910593033]","[0.0, 0.0, -0.20330784743446154]","[0.026750000193715096, 0.05299999937415123, 0.03999999910593033]","[0.0, 0.0, -0.5595873745638478]","[0.0649702325463295, 0.11401814222335815, 0.03999999910593033]","[0.0, -0.0, 0.2047539935226715]",0.554543651423309,0.028608756784959333,"(0.0, 0.0, 0.0, 0.0, 0.0, 0.0)",-0.00465950252306287,-0.7577322827214494,1.97497052425156e-06,"(0.0, 0.0, 0.0, 0.0, 0.0, 0.0)",-0.00034759579984739716,-0.5596414484510213,-0.012989094242508157,"(0.0, 0.0, 0.0, 0.0, 0.0, 0.0)",0.002115533640159651,0.7643413002400302,-2.0025362296311566e-08,"(0.0, 0.0, 0.0, 0.0, 0.0, 0.0)",0.00015781114778275706,True,"(-0.032336238892828786, 0.18687800766453516, 0.03999991493313625)","(0.9999509673362532, -0.009902307151386605, -8.506686374153424e-05)",0.0001033902478713024,0.0,True,"(0.032546713962724, 0.18665593335400527, 0.040000085066863734)","(-0.9999509673362532, 0.009902307151382694, 8.506686372879323e-05)",0.0008585818796701943,0.0
28,Move,"(-0.0016400000000000002, 0.0, -0.00036)","(0.0, 0.03438473159354028, 0.0)","(-0.00042908030466623905, 0.17128242744308927, 0.0009885372151775503)","(1.5708181505436385, 4.730101765645986e-05, -0.009902326295869021)","[-0.0007140237926802177, -2.8391052673826245e-06, -0.0008782403103674513]","[-0.026750000193715096, 0.05299999937415123, 0.03999999910593033]","[0.0, -0.0, 0.5551565878972516]","[-0.06469950079917908, 0.11418689042329788, 0.03999999910593033]","[0.0, 0.0, -0.20257574113082288]","[0.026750000193715096, 0.05299999937415123, 0.03999999910593033]","[0.0, 0.0, -0.5596537326054791]","[0.06497427821159363, 0.1140156090259552, 0.03999999910593033]","[0.0, -0.0, 0.20468758811835297]",0.5552925836928235,0.0326440780888806,"(0.0, 0.0, 0.0, 0.0, 0.0, 0.0)",-0.005316719149726068,-0.7577322834394623,1.689883480594438e-06,"(0.0, 0.0, 0.0, 0.0, 0.0, 0.0)",-0.00039661505294561063,-0.5596439044120816,0.002353140385395136,"(0.0, 0.0, 0.0, 0.0, 0.0, 0.0)",-0.0003832646041664549,0.7643412828941885,5.830207820479013e-07,"(0.0, 0.0, 0.0, 0.0, 0.0, 0.0)",-2.859710914887553e-05,True,"(-0.032434258956258066, 0.18687315004577348, 0.0399999476404219)","(0.9999509707610884, -0.009902188264790595, -5.235957810748504e-05)",0.0002000413481931937,0.0,True,"(0.03255558706927973, 0.18665548238879487, 0.040000052359578105)","(-0.9999509707610884, 0.009902188264796953, 5.235957810396142e-05)",0.0008687752777309378,0.0
29,Move,"(-0.0009900000000000002, 0.0, -0.00027)","(0.0, 0.016334536469414934, 0.0)","(-0.000429105490753329, 0.17128245300511172, 0.000988865658221275)","(1.570801542485464, 2.746846022944881e-05, -0.009902207159561105)","[-0.0007140489787673078, -2.8135432449394315e-06, -0.0008779118673237266]","[-0.026750000193715096, 0.05299999937415123, 0.03999999910593033]","[0.0, -0.0, 0.5557847853381698]","[-0.06473793089389801, 0.11416303366422653, 0.03999999910593033]","[0.0, 0.0, -0.20194747301658392]","[0.026750000193715096, 0.05299999937415123, 0.03999999910593033]","[0.0, 0.0, -0.5599016127597527]","[0.06498940289020538, 0.11400613188743591, 0.03999999910593033]","[0.0, -0.0, 0.20443971201811265]",0.5558842914919624,0.02387537566246767,"(0.0, 0.0, 0.0, 0.0, 0.0, 0.0)",-0.003888575511259214,-0.7577322702050401,8.690340825483941e-07,"(0.0, 0.0, 0.0, 0.0, 0.0, 0.0)",-0.0002900783994060545,-0.5599733057524763,-0.0172073143129774,"(0.0, 0.0, 0.0, 0.0, 0.0, 0.0)",0.002802568547115952,0.7643413068382116,-1.519241632150929e-06,"(0.0, 0.0, 0.0, 0.0, 0.0, 0.0)",0.0002090769589536416,True,"(-0.03251837007280649, 0.18686892494873475, 0.039999969197490194)","(0.9999509728369146, -0.00990206916325087, -3.080250981234665e-05)",0.00028323656790606226,0.0,True,"(0.03258871514751286, 0.18665379004715285, 0.04000003080250982)","(-0.9999509728369144, 0.009902069163250161, 3.0802509816587005e-05)",0.0009027885379439054,0.0
30,Move,"(0.00023999999999999998, 0.0, 0.00011000000000000002)","(0.0, -0.0, 0.0)","(-0.00042912397570006014, 0.17128247284337902, 0.000989082130990425)","(1.5707905963162088, 1.4397011593231266e-05, -0.009902087973428791)","[-0.0007140674637140388, -2.7937049776327605e-06, -0.0008776953945545767]","[-0.026750000193715096, 0.05299999937415123, 0.03999999910593033]","[0.0, -0.0, 0.5559461739665628]","[-0.06474779546260834, 0.11415690928697586, 0.03999999910593033]","[0.0, 0.0, -0.2017861466670205]","[0.026750000193715096, 0.05299999937415123, 0.03999999910593033]","[0.0, 0.0, -0.5610138956663149]","[0.06505723297595978, 0.11396355926990509, 0.03999999910593033]","[0.0, -0.0, 0.20332756178295272]",0.5559386652397176,-0.0017887185416949336,"(0.0, 0.0, 0.0, 0.0, 0.0, 0.0)",0.00029134098685831155,-0.7577322392016651,-9.183514714560482e-07,"(0.0, 0.0, 0.0, 0.0, 0.0, 0.0)",2.174363167420773e-05,-0.5612763609207628,-0.06301041387689921,"(0.0, 0.0, 0.0, 0.0, 0.0, 0.0)",0.01026235607037574,0.7643413565394105,-4.550146751547458e-06,"(0.0, 0.0, 0.0, 0.0, 0.0, 0.0)",0.0007655287878538475,True,"(-0.03253996843467035, 0.18686783274534086, 0.039999983405549215)","(0.9999509743537383, -0.009901949991462775, -1.6594450789451175e-05)",0.00030424715421878445,0.0,True,"(0.03273734628025021, 0.18664609929260173, 0.04000001659445079)","(-0.9999509743537384, 0.009901949991461665, 1.659445079211262e-05)",0.001052064513609793,0.0
31,Move,"(0.00324, 0.0, 0.0009599999999999999)","(0.0, 0.08772548419299099, 0.0)","(-0.0003311952929103767, 0.17129102565908305, 0.0009907347078229119)","(1.5708184161088008, 4.107922189479739e-05, -0.01124183534617002)","[-0.0006161387809243554, 5.759110726394345e-06, -0.0008760428177220897]","[-0.026750000193715096, 0.05299999937415123, 0.03999999910593033]","[0.0, -0.0, 0.5532504454524986]","[-0.06458280235528946, 0.11425911635160446, 0.03999999910593033]","[0.0, 0.0, -0.20418933340353376]","[0.026750000193715096, 0.05299999937415123, 0.03999999910593033]","[0.0, 0.0, -0.565047142844091]","[0.06530281156301498, 0.11380855739116669, 0.03999999910593033]","[0.0, -0.0, 0.19929446323883476]",0.5525287005516678,-0.17321792515993795,"(0.0, 0.0, 0.0, 0.0, 0.0, 0.0)",-1.0337225678869313,-0.7573943539629715,0.010899220465160411,"(0.0, 0.0, 0.0, 0.0, 0.0, 0.0)",-0.6455043197917009,-0.5659979998937308,-0.22819331845474178,"(0.0, 0.0, 0.0, 0.0, 0.0, 0.0)",0.03716261429815514,0.7643416257033537,-7.177705152905389e-06,"(0.0, 0.0, 0.0, 0.0, 0.0, 0.0)",0.0027712713572614184,True,"(-0.03220030222101567, 0.18689444645192038, 0.03999999841411695)","(0.9999470902735884, -0.010286722066274722, -1.5858830493880395e-06)",-7.415957511752792e-06,7.969620987219518,True,"(0.03327627662357644, 0.18661720604306167, 0.040000001585883044)","(-0.9999470902735885, 0.010286722066275398, 1.5858830407112674e-06)",0.0015633839716957107,0.0
32,Move,"(0.00766, 0.0, 0.00317)","(0.0, 0.03438473159354028, 0.0)","(0.0002473549455513105, 0.17129615049897481, 0.0009900093627435284)","(1.5708076901592103, 1.1169599540857841e-05, -0.017780447842774966)","[-3.7588542462668175e-05, 1.0883950618156835e-05, -0.0008767681628014732]","[-0.026750000193715096, 0.05299999937415123, 0.03999999910593033]","[0.0, -0.0, 0.5483612963323431]","[-0.0642828419804573, 0.1144433543086052, 0.03999999910593033]","[0.0, 0.0, -0.208948763543741]","[0.026750000193715096, 0.05299999937415123, 0.03999999910593033]","[0.0, 0.0, -0.5732946840432009]","[0.06580300629138947, 0.11348853260278702, 0.03999999910593033]","[0.0, -0.0, 0.19104694683511403]",0.5474146976375386,-0.2271896659003314,"(0.0, 0.0, 0.0, 0.0, 0.0, 0.0)",-0.4905390315056356,-0.7572958654546412,0.0034078926045205083,"(0.0, 0.0, 0.0, 0.0, 0.0, 0.0)",-0.3203797294543486,-0.5750272911054286,-0.41583226349534824,"(0.0, 0.0, 0.0, 0.0, 0.0, 0.0)",0.0677155112443814,0.7643416080435074,4.709292369398099e-07,"(0.0, 0.0, 0.0, 0.0, 0.0, 0.0)",0.005048111218714891,True,"(-0.0315550386878885, 0.18692219020979048, 0.03999998742040332)","(0.9998623051704847, -0.016594292419944364, -1.257959668879768e-05)",-1.0044891351144464e-05,3.993661602486877,False,,,,
33,Move,"(0.00766, 0.0, 0.00317)","(0.0, 0.03438473159354028, 0.0)","(0.00199530560420237, 0.17240919834514043, 0.0022365779873722335)","(1.531147022456285, 0.00849122155366059, -0.05634562269228186)","[0.0017103621161883914, 0.0011239317967837725, 0.00036980046182723183]","[-0.026750000193715096, 0.05299999937415123, 0.03999999910593033]","[0.0, -0.0, 0.49296940261663735]","[-0.060823552310466766, 0.11642707139253616, 0.03999999910593033]","[0.0, 0.0, -0.20475387229739422]","[0.026750000193715096, 0.05299999937415123, 0.03999999910593033]","[0.0, 0.0, -0.5209704911976939]","[0.0625859871506691, 0.1154482364654541, 0.03999999910593033]","[0.0, -0.0, 0.18830106655740553]",0.4792155086296199,-3.300926951996635,"(0.0, 0.0, 0.0, 0.0, 0.0, 0.0)",-71.05500564966027,-0.6720929798254474,6.151258376059569,"(0.0, 0.0, 0.0, 0.0, 0.0, 0.0)",-38.63500450113077,-0.5065697807398204,3.4561631118074576,"(0.0, 0.0, 0.0, 0.0, 0.0, 0.0)",68.38218235536769,0.6857504810208522,-5.645045168718134,"(0.0, 0.0, 0.0, 0.0, 0.0, 0.0)",35.151803267645015,True,"(-0.02840008001995393, 0.18904208164127664, 0.03999998993928332)","(0.9998224358466938, -0.018844009031136085, -1.006071668253071e-05)",-0.00019191697402870528,525.5765722062685,True,"(0.0313833593657052, 0.18853634471145586, 0.042157808079413966)","(-0.9987562222238674, 0.048151364050640716, 0.012940429249889595)",-0.003988361601931966,504.39032228190877
34,Move,"(0.01318, 0.0, 0.00547)","(0.0, -0.0, 0.0)","(0.0028276686132947273, 0.17265541818534982, 0.0033345475038415087)","(1.4913893153544984, 0.0036183216755453964, -0.061088553142599346)","[0.0025427251252807485, 0.0013701516369931666, 0.001467769978296507]","[-0.026750000193715096, 0.05299999937415123, 0.03999999910593033]","[0.0, -0.0, 0.46612303499183955]","[-0.05910869687795639, 0.11731885373592377, 0.03999999910593033]","[0.0, 0.0, -0.18896397729394182]","[0.026750000193715096, 0.05299999937415123, 0.03999999910593033]","[0.0, 0.0, -0.5083818745201468]","[0.06179703399538994, 0.11589439958333969, 0.03999999910593033]","[0.0, -0.0, 0.1617304856299356]",0.465932184416723,-0.04580916828103564,"(0.0, 0.0, 0.0, 0.0, 0.0, 0.0)",-0.5034298800556812,-0.6567363823196307,-0.39584489814589,"(0.0, 0.0, 0.0, 0.0, 0.0, 0.0)",-0.3068494229308994,-0.5123555397306772,-0.9536835754428774,"(0.0, 0.0, 0.0, 0.0, 0.0, 0.0)",0.16691865190645175,0.6716388595558431,0.366365840905008,"(0.0, 0.0, 0.0, 0.0, 0.0, 0.0)",0.01625011377976509,True,"(-0.027837759365189924, 0.19037139068841166, 0.03999516001960429)","(0.9980362887240976, -0.062451108713928775, -0.004839980395705633)",-0.0003118850553294658,3.8341967682354903,True,"(0.03254718242467597, 0.18978568530002646, 0.042157808079413966)","(-0.9987562222238674, 0.048151364050640716, 0.012940429249889595)",-0.003320640907901907,0.02765698330617971
35,Move,"(0.018740000000000003, 0.0, 0.007620000000000001)","(0.0, -0.0, 0.0)","(0.004479685390129217, 0.17258238181123187, 0.003182554979556702)","(1.4948853308359153, -0.0002595327776976431, -0.05397763914066964)","[0.0041947419021152385, 0.0012971152628752092, 0.0013157774540117004]","[-0.026750000193715096, 0.05299999937415123, 0.03999999910593033]","[0.0, -0.0, 0.45877066198614885]","[-0.0586349219083786, 0.11755502969026566, 0.03999999910593033]","[0.0, 0.0, -0.19892479125522136]","[0.026750000193715096, 0.05299999937415123, 0.03999999910593033]","[0.0, 0.0, -0.5296321861571551]","[0.06312554329633713, 0.11513549089431763, 0.03999999910593033]","[0.0, -0.0, 0.1429855776136811]",0.45688791786250044,-0.4518404595103758,"(0.0, 0.0, 0.0, 0.0, 0.0, 0.0)",-0.0853522514289296,-0.6575938954010794,0.02435713154386526,"(0.0, 0.0, 0.0, 0.0, 0.0, 0.0)",-0.07303220243295824,-0.5333171340419536,-0.8843986451536859,"(0.0, 0.0, 0.0, 0.0, 0.0, 0.0)",0.14427614533176059,0.672519810073487,-0.023492013803836365,"(0.0, 0.0, 0.0, 0.0, 0.0, 0.0)",0.011011535574123458,True,"(-0.026636860072036216, 0.19030814979370309, 0.04000027666990064)","(0.9983910804382918, -0.056702503957290575, 0.0002766699006375218)",-0.0002093887966117934,0.8999441456060213,True,"(0.03526583666550504, 0.1895620546157058, 0.042157808079413966)","(-0.9987562222238674, 0.048151364050640716, 0.012940429249889595)",-0.0018644971614645229,0.0
36,Move,"(0.023790000000000002, 0.0, 0.00789)","(0.0, 0.03446676206838401, 0.0)","(0.006409421638127209, 0.17268749530366426, 0.002026647680557439)","(1.5357333825713098, 0.0015556235636972346, -0.0510900877538716)","[0.006124478150113231, 0.0014022287553075996, 0.00015987015501243724]","[-0.026750000193715096, 0.05299999937415123, 0.03999999910593033]","[0.0, -0.0, 0.44566519292924406]","[-0.05778618901968002, 0.11796733736991882, 0.03999999910593033]","[0.0, 0.0, -0.2118062443891853]","[0.026750000193715096, 0.05299999937415123, 0.03999999910593033]","[0.0, 0.0, -0.5528005104947863]","[0.06455522775650024, 0.11427613347768784, 0.03999999910593033]","[0.0, -0.0, 0.11965511090688041]",0.44310116338076716,-0.6153701334855851,"(0.0, 0.0, 0.0, 0.0, 0.0, 0.0)",-0.21673763597464993,-0.6574748344727245,-0.0008154917097816584,"(0.0, 0.0, 0.0, 0.0, 0.0, 0.0)",-0.15290707827878602,-0.5571494274115355,-1.043746466082206,"(0.0, 0.0, 0.0, 0.0, 0.0, 0.0)",0.1699062102063653,0.6724620109100244,0.00154131102566879,"(0.0, 0.0, 0.0, 0.0, 0.0, 0.0)",0.012637441455402968,True,"(-0.024852567302149527, 0.19031999407910888, 0.03999800556357116)","(0.9986546113180322, -0.05181688447370621, -0.001994436428847761)",-0.00014167251485879215,2.298030041950699,True,"(0.038439351489957314, 0.18933235920846553, 0.042157808079413966)","(-0.9987562222238674, 0.048151364050640716, 0.012940429249889595)",-0.0005210117044152186,0.0
37,Move,"(0.028460000000000003, 0.0, 0.0076)","(0.0, 0.1033252370473163, 0.0)","(0.008897706768304382, 0.17327956031240882, 0.0010359733779040218)","(1.5880768367811224, -0.002394033217541068, -0.07675565069752134)","[0.008612763280290403, 0.001994293764052163, -0.0008308041476409798]","[-0.026750000193715096, 0.05299999937415123, 0.03999999910593033]","[0.0, -0.0, 0.4273802090496451]","[-0.056593138724565506, 0.11852394044399261, 0.03999999910593033]","[0.0, 0.0, -0.22997308924653087]","[0.026750000193715096, 0.05299999937415123, 0.03999999910593033]","[0.0, 0.0, -0.5782454220268901]","[0.06610199064016342, 0.11329445242881775, 0.03999999910593033]","[0.0, -0.0, 0.094220868386451]",0.42376950794327645,-0.8665571288791603,"(0.0, 0.0, 0.0, 0.0, 0.0, 0.0)",-0.058906709434258624,-0.6573594217077735,-0.0014827733207811097,"(0.0, 0.0, 0.0, 0.0, 0.0, 0.0)",-0.10866637720315378,-0.5828673517724522,-1.1092776940358986,"(0.0, 0.0, 0.0, 0.0, 0.0, 0.0)",0.1805900632683947,0.6724658031131392,-0.00010112541639273329,"(0.0, 0.0, 0.0, 0.0, 0.0, 0.0)",0.01345028810137304,True,"(-0.022350267954413278, 0.19027132671796312, 0.039998020449133705)","(0.997882206180548, -0.06501679757270258, -0.001979550866298365)",-9.299456839905907e-05,1.4391224435334538,True,"(0.04188375662371643, 0.18901041369575655, 0.0400019795508663)","(-0.9978822061805486, 0.06501679757269442, 0.001979550866293947)",0.00035295903819543625,0.0
38,Move,"(0.03232, 0.0, 0.006320000000000001)","(0.0, 0.06893701479527203, 0.0)","(0.01147278425374021, 0.17383754094543008, 0.0010257318094955617)","(1.5815055561689024, -0.002457449157293699, -0.12660960403078778)","[0.01118784076572623, 0.002552274397073423, -0.0008410457160494399]","[-0.026750000193715096, 0.05299999937415123, 0.03999999910593033]","[0.0, -0.0, 0.4055897179258801]","[-0.05515836924314499, 0.11915863305330276, 0.03999999910593033]","[0.0, 0.0, -0.25169531718155397]","[0.026750000193715096, 0.05299999937415123, 0.03999999910593033]","[0.0, 0.0, -0.6037120297771448]","[0.06762456148862839, 0.11227284371852875, 0.03999999910593033]","[0.0, -0.0, 0.0687529093134239]",0.4015720759570792,-0.9642320542938145,"(0.0, 0.0, 0.0, 0.0, 0.0, 0.0)",0.15700739355157087,-0.6572926487579313,-0.0018299672448248913,"(0.0, 0.0, 0.0, 0.0, 0.0, 0.0)",0.01171641073177132,-0.6082003079841524,-1.0771901493870601,"(0.0, 0.0, 0.0, 0.0, 0.0, 0.0)",0.17536827702011057,0.6724648101093891,-2.8542678960699646e-05,"(0.0, 0.0, 0.0, 0.0, 0.0, 0.0)",0.013061822006657045,True,"(-0.01936829074622054, 0.19011501551303353, 0.040002650373406515)","(0.993131202625949, -0.116976022720652, 0.0026503734065171044)",9.94890066272458e-06,0.0,True,"(0.045345075772662495, 0.1886075446872245, 0.03999734962659349)","(-0.9931312026259493, 0.11697602272064733, -0.002650373406512313)",0.0005152401312599988,0.0
39,Move,"(0.034749999999999996, 0.0, 0.00424)","(0.0, 0.1033252370473163, 0.0)","(0.014588531099239879, 0.17406130041400603, 0.0008406376922567426)","(1.5680434581718932, 0.0010895922917868771, -0.1580141569117594)","[0.0143035876112259, 0.002776033865649369, -0.001026139833288259]","[-0.026750000193715096, 0.05299999937415123, 0.03999999910593033]","[0.0, -0.0, 0.3799299324707659]","[-0.05345159024000168, 0.11986572295427322, 0.03999999910593033]","[0.0, 0.0, -0.2771458612243563]","[0.026750000193715096, 0.05299999937415123, 0.03999999910593033]","[0.0, 0.0, -0.628246829493235]","[0.0690663605928421, 0.11125225573778152, 0.03999999910593033]","[0.0, -0.0, 0.04421795457877163]",0.37507702651533265,-1.1646965138694998,"(0.0, 0.0, 0.0, 0.0, 0.0, 0.0)",0.030552768621051288,-0.6570855015217906,-0.0023353488091849353,"(0.0, 0.0, 0.0, 0.0, 0.0, 0.0)",-0.08211987112842556,-0.6325527461038113,-1.0334277744700937,"(0.0, 0.0, 0.0, 0.0, 0.0, 0.0)",0.16824562134364376,0.6724647533975865,1.5123147347750887e-06,"(0.0, 0.0, 0.0, 0.0, 0.0, 0.0)",0.012531195903632487,True,"(-0.015869158175815808, 0.18987670233355367, 0.0399988171025487)","(0.9880918368389509, -0.1538607250920382, -0.0011828974513053436)",-1.5541343547441575e-05,1.1811837154854268,True,"(0.04866813175816, 0.18812311115973426, 0.0400011828974513)","(-0.9880918368389501, 0.15386072509204302, 0.0011828974513008867)",0.0001341183324820644,0.0
40,Move,"(0.03711, 0.0, 0.0024200000000000003)","(0.0, 0.1033252370473163, 0.0)","(0.018043908140826816, 0.1739417746264136, 0.0008468586873430442)","(1.5722793873841212, 0.00248388571804908, -0.16231076020185548)","[0.017758964652812837, 0.0026565080780569517, -0.0010199188382019574]","[-0.026750000193715096, 0.05299999937415123, 0.03999999910593033]","[0.0, -0.0, 0.3518721572527355]","[-0.05156521871685982, 0.12058849632740021, 0.03999999910593033]","[0.0, 0.0, -0.3015951553117236]","[0.026750000193715096, 0.05299999937415123, 0.03999999910593033]","[0.0, 0.0, -0.6515851068076927]","[0.0704142153263092, 0.11024889349937439, 0.03999999910593033]","[0.0, -0.0, 0.01750431414424558]",0.34680541217211946,-1.2160089072640914,"(0.0, 0.0, 0.0, 0.0, 0.0, 0.0)",-2.6405689459911006,-0.6526815637198459,0.18856973246995018,"(0.0, 0.0, 0.0, 0.0, 0.0, 0.0)",-1.475931400304532,-0.6556564966086303,-0.9771511939197807,"(0.0, 0.0, 0.0, 0.0, 0.0, 0.0)",2.732319403132139,0.668188218872581,-0.21627039074700144,"(0.0, 0.0, 0.0, 0.0, 0.0, 0.0)",1.4576135435355493,True,"(-0.012279596786031535, 0.18967649594015068, 0.03999726910518243)","(0.9869095553579248, -0.16125157908286714, -0.0027308948175746956)",-2.4938555184006675e-05,20.53245911239429,True,"(0.05207324333058791, 0.18761822093496183, 0.04000273089481757)","(-0.9869095553579249, 0.16125157908286772, 0.0027308948175673365)",-5.274181766449169e-05,18.834774974055467
41,Move,"(0.038540000000000005, 0.0, 0.00092)","(0.0, 0.12196360812936376, 0.0)","(0.021414796551137254, 0.1735854930525194, 0.0008768292275123766)","(1.5709055064432196, 0.0019297388142395426, -0.16565822112159423)","[0.021129853063123274, 0.0023002265041627556, -0.000989948298032625]","[-0.026750000193715096, 0.05299999937415123, 0.03999999910593033]","[0.0, -0.0, 0.3233381022896215]","[-0.04962680861353874, 0.12126896530389786, 0.03999999910593033]","[0.0, 0.0, -0.3238747440850891]","[0.026750000193715096, 0.05299999937415123, 0.03999999910593033]","[0.0, 0.0, -0.6726034618524644]","[0.07160776853561401, 0.1093185618519783, 0.03999999910593033]","[0.0, 0.0, -0.010292952570628656]",0.3182448236881434,-1.2223903112269099,"(0.0, 0.0, 0.0, 0.0, 0.0, 0.0)",-3.943415857889074,-0.6460935649484828,0.2686231321708231,"(0.0, 0.0, 0.0, 0.0, 0.0, 0.0)",-2.102881866865721,-0.6761836340381306,-0.8592414087794045,"(0.0, 0.0, 0.0, 0.0, 0.0, 0.0)",4.53338793864119,0.6607905380802177,-0.36479298740790256,"(0.0, 0.0, 0.0, 0.0, 0.0, 0.0)",2.517284443630689,True,"(-0.008808489444594399, 0.18948345325310684, 0.03999802416218803)","(0.9863970033532558, -0.1643686339927974, -0.0019758378119807633)",-6.549090999215854e-05,29.947738233669746,True,"(0.05541990567981803, 0.18714351371650484, 0.04000197583781199)","(-0.9863970033532566, 0.16436863399279053, 0.001975837811984995)",-0.00011520612927322301,32.21549873067452
42,Move,"(0.040170000000000004, 0.0, 0.0008200000000000001)","(0.0, 0.1033252370473163, 0.0)","(0.024544787630871538, 0.1732406683017019, 0.0009001426323835377)","(1.5703404926732067, 0.0013100456082494347, -0.1685673284260539)","[0.02425984414285756, 0.001955401753345243, -0.0009666348931614639]","[-0.026750000193715096, 0.05299999937415123, 0.03999999910593033]","[0.0, -0.0, 0.2960583120281274]","[-0.04775616526603699, 0.12186755985021591, 0.03999999910593033]","[0.0, 0.0, -0.34413744394709794]","[0.026750000193715096, 0.05299999937415123, 0.03999999910593033]","[0.0, 0.0, -0.6917343922049601]","[0.07267691940069199, 0.10845014452934265, 0.03999999910593033]","[0.0, 0.0, -0.03691107175941479]",0.2913202918093009,-1.1371270010967072,"(0.0, 0.0, 0.0, 0.0, 0.0, 0.0)",-4.262782431685495,-0.6389418372620936,0.30094315510848996,"(0.0, 0.0, 0.0, 0.0, 0.0, 0.0)",-2.2458601956459887,-0.6950514989888454,-0.7961102083341867,"(0.0, 0.0, 0.0, 0.0, 0.0, 0.0)",4.078767800501886,0.653522918559304,-0.31209161632381643,"(0.0, 0.0, 0.0, 0.0, 0.0, 0.0)",2.283173335883066,True,"(-0.005561080794363078, 0.18925794687530717, 0.03999856104240404)","(0.9858903874140346, -0.16738600122364358, -0.0014389575959571942)",-9.851027864200844e-05,32.17852179429033,True,"(0.05856188306565497, 0.18665518373924161, 0.040001438957595954)","(-0.9858903874140335, 0.16738600122365097, 0.0014389575959595868)",-0.00016761244454984283,29.012344069445348
43,Move,"(0.040580000000000005, 0.0, 0.00058)","(0.0, 0.12196360812936376, 0.0)","(0.027471691926558982, 0.17295669163860333, 0.000898015537300263)","(1.5711449178859747, 0.0010210949939377532, -0.17116837094898274)","[0.027186748438545003, 0.0016714250902466754, -0.0009687619882447386]","[-0.026750000193715096, 0.05299999937415123, 0.03999999910593033]","[0.0, -0.0, 0.2699900335171234]","[-0.04595397040247917, 0.12239169329404831, 0.03999999910593033]","[0.0, 0.0, -0.362253136776711]","[0.026750000193715096, 0.05299999937415123, 0.03999999910593033]","[0.0, 0.0, -0.7087739219258006]","[0.07361505180597305, 0.10765955597162247, 0.03999999910593033]","[0.0, 0.0, -0.06231843676978314]",0.2654037953051726,-1.1006913814908437,"(0.0, 0.0, 0.0, 0.0, 0.0, 0.0)",-5.167992443006544,-0.6307164333975994,0.3664141545366374,"(0.0, 0.0, 0.0, 0.0, 0.0, 0.0)",-2.682081598495184,-0.711656372245276,-0.6917932058415419,"(0.0, 0.0, 0.0, 0.0, 0.0, 0.0)",4.767005196295041,0.6449141780501613,-0.36990861826017124,"(0.0, 0.0, 0.0, 0.0, 0.0, 0.0)",2.7043598382087044,True,"(-0.0025422906998429223, 0.18902197372516827, 0.03999888289291737)","(0.9854579017450561, -0.16991608505376132, -0.0011171070826259915)",-0.00012392371518199792,38.69251874407897,True,"(0.06148720209057953, 0.18617548348601393, 0.04000111710708263)","(-0.9854579017450572, 0.1699160850537556, 0.0011171070826344243)",-0.00021404306560521717,34.26488023917634
44,Move,"(0.04127, 0.0, 0.00051)","(0.0, 0.1033252370473163, 0.0)","(0.030101090967111995, 0.172605075636577, 0.0009122985960199715)","(1.5706072845291703, 0.0006731182143184928, -0.1736723860785481)","[0.029816147479098016, 0.0013198090882203528, -0.0009544789295250301]","[-0.026750000193715096, 0.05299999937415123, 0.03999999910593033]","[0.0, -0.0, 0.24592312028246466]","[-0.04427852854132652, 0.1228337362408638, 0.03999999910593033]","[0.0, 0.0, -0.3782123222214351]","[0.026750000193715096, 0.05299999937415123, 0.03999999910593033]","[0.0, 0.0, -0.723860584544058]","[0.0744343101978302, 0.10694632679224014, 0.03999999910593033]","[0.0, 0.0, -0.08578731906594873]",0.24179561531659363,-0.9906027059996315,"(0.0, 0.0, 0.0, 0.0, 0.0, 0.0)",-4.922247365872196,-0.622724789669836,0.33856144011314376,"(0.0, 0.0, 0.0, 0.0, 0.0, 0.0)",-2.5352489916320184,-0.7264401031835048,-0.6190953542704511,"(0.0, 0.0, 0.0, 0.0, 0.0, 0.0)",4.48084411700895,0.6366109533993025,-0.35094527463945435,"(0.0, 0.0, 0.0, 0.0, 0.0, 0.0)",2.5592559239268806,True,"(0.00019334571610897522, 0.18877594605571157, 0.039999255096777715)","(0.9850236704939609, -0.17241755619946122, -0.0007449032222871337)",-0.00014722586565656906,36.79651868512573,True,"(0.0641484932487347, 0.1857046557105439, 0.04000074490322228)","(-0.9850236704939603, 0.1724175561994639, 0.000744903222279946)",-0.0002458950764040863,32.31040853364743
45,Move,"(0.041780000000000005, 0.0, 0.00043000000000000004)","(0.0, 0.1033252370473163, 0.0)","(0.032520894283908704, 0.17228719756353722, 0.0009115587887355434)","(1.570896413415591, 0.0005149465366856258, -0.17590850765249247)","[0.032235950795894724, 0.0010019310151805627, -0.0009552187368094583]","[-0.026750000193715096, 0.05299999937415123, 0.03999999910593033]","[0.0, -0.0, 0.2236521273513338]","[-0.0427190437912941, 0.12320676445960999, 0.03999999910593033]","[0.0, 0.0, -0.3922530508121364]","[0.026750000193715096, 0.05299999937415123, 0.03999999910593033]","[0.0, 0.0, -0.7372294180346294]","[0.0751512348651886, 0.10630404204130173, 0.03999999910593033]","[0.0, 0.0, -0.10751491314334294]",0.21975482553998923,-0.9353559111893757,"(0.0, 0.0, 0.0, 0.0, 0.0, 0.0)",-4.6289964064279685,-0.614656940153671,0.2995838883224361,"(0.0, 0.0, 0.0, 0.0, 0.0, 0.0)",-2.323093939231556,-0.7395266253906265,-0.5513213087998298,"(0.0, 0.0, 0.0, 0.0, 0.0, 0.0)",5.006120891723731,0.6279903501324292,-0.4138048983324011,"(0.0, 0.0, 0.0, 0.0, 0.0, 0.0)",2.8741065410066584,True,"(0.002676406243174133, 0.18852959377096506, 0.03999955739402281)","(0.9846192443988026, -0.17471332994216598, -0.0004426059771932992)",-0.00016372685203511499,34.58796879535132,True,"(0.06657536318910005, 0.18524818127519846, 0.040000442605977175)","(-0.9846192443988007, 0.17471332994217678, 0.00044260597717693474)",-0.0002668227073081611,36.395206392209694
46,Move,"(0.042190000000000005, 0.0, 4e-05)","(0.0, 0.06893701479527203, 0.0)","(0.03459297443308367, 0.17197022759820543, 0.0009202167092566146)","(1.5706866326336704, 0.00024267799304968736, -0.17790632707457923)","[0.03430803094506969, 0.0006849610498487757, -0.0009465608162883871]","[-0.026750000193715096, 0.05299999937415123, 0.03999999910593033]","[0.0, -0.0, 0.2040094932927228]","[-0.04133700206875801, 0.12350687384605408, 0.03999999910593033]","[0.0, 0.0, -0.4045864181853157]","[0.026750000193715096, 0.05299999937415123, 0.03999999910593033]","[0.0, 0.0, -0.7488446280028761]","[0.07576709240674973, 0.10573826730251312, 0.03999999910593033]","[0.0, 0.0, -0.12703800610242966]",0.2007127727610913,-0.7912063539915138,"(0.0, 0.0, 0.0, 0.0, 0.0, 0.0)",-4.533048506957713,-0.6073484489338555,0.29938026117333566,"(0.0, 0.0, 0.0, 0.0, 0.0, 0.0)",-2.306685303515999,-0.7507997626411999,-0.4692411057558302,"(0.0, 0.0, 0.0, 0.0, 0.0, 0.0)",3.963490662698626,0.6204819669753506,-0.31791431447471646,"(0.0, 0.0, 0.0, 0.0, 0.0, 0.0)",2.2864948701834935,True,"(0.004862505081162122, 0.1882750593422602, 0.03999970891933223)","(0.9842723495460056, -0.17665745721941867, -0.00029108066776829827)",-0.00017076975344775886,33.75264904742991,True,"(0.0687307347154309, 0.18481753948223634, 0.04000029108066775)","(-0.9842723495460053, 0.1766574572194201, 0.0002910806677580359)",-0.0002746996833467032,28.769732078435574
47,Move,"(0.042280000000000005, 0.0, 5e-05)","(0.0, 0.1033252370473163, 0.0)","(0.03657094593103825, 0.17168131424505445, 0.0009243950154847922)","(1.5705244724039762, 8.721823267623966e-05, -0.1798634653909579)","[0.03628600244302427, 0.00039604769669779327, -0.0009423825100602094]","[-0.026750000193715096, 0.05299999937415123, 0.03999999910593033]","[0.0, -0.0, 0.1851203942664535]","[-0.040002670139074326, 0.12376981228590012, 0.03999999910593033]","[0.0, 0.0, -0.4152694758152596]","[0.026750000193715096, 0.05299999937415123, 0.03999999910593033]","[0.0, 0.0, -0.7588763053634993]","[0.07629366219043732, 0.10524389892816544, 0.03999999910593033]","[0.0, 0.0, -0.14552333075486024]",0.18172286852108555,-0.8154071979487775,"(0.0, 0.0, 0.0, 0.0, 0.0, 0.0)",-5.490859397439851,-0.5988528229308863,0.368879003149972,"(0.0, 0.0, 0.0, 0.0, 0.0, 0.0)",-2.7677802424914097,-0.7605756062788023,-0.40784775251197897,"(0.0, 0.0, 0.0, 0.0, 0.0, 0.0)",4.744511281362245,0.6117249122458719,-0.3907254465184415,"(0.0, 0.0, 0.0, 0.0, 0.0, 0.0)",2.759021919036442,True,"(0.006887703917129673, 0.1880493451559242, 0.039999887539486356)","(0.9839253519886274, -0.1785802034568456, -0.0001124605136455658)",-0.00018322153810927647,40.7271456659844,True,"(0.07071714960525324, 0.18442348253687235, 0.040000112460513645)","(-0.9839253519886274, 0.17858020345684528, 0.00011246051364176122)",-0.00028585976460418836,34.6752302930548
48,Move,"(0.04246, 0.0, -0.00054)","(0.0, 0.1033252370473163, 0.0)","(0.03840301089484836, 0.17144563442475505, 0.0009165672675998661)","(1.571042985367312, 7.573245718066953e-05, -0.1815305703566495)","[0.038118067406834384, 0.0001603678763983929, -0.0009502102579451356]","[-0.026750000193715096, 0.05299999937415123, 0.03999999910593033]","[0.0, -0.0, 0.16694193840220042]","[-0.03871406614780426, 0.12399902194738388, 0.03999999910593033]","[0.0, 0.0, -0.42477941826133125]","[0.026750000193715096, 0.05299999937415123, 0.03999999910593033]","[0.0, 0.0, -0.7673165185930231]","[0.07673284411430359, 0.10482388734817505, 0.03999999910593033]","[0.0, 0.0, -0.16350622437253057]",0.16379578029834369,-0.7550735443775803,"(0.0, 0.0, 0.0, 0.0, 0.0, 0.0)",-5.769016224517522,-0.5901102615953335,0.38667121359136203,"(0.0, 0.0, 0.0, 0.0, 0.0, 0.0)",-2.8893494607161596,-0.7687105870760518,-0.3345894058087727,"(0.0, 0.0, 0.0, 0.0, 0.0, 0.0)",4.909420776363645,0.6021559373310392,-0.39703869588565244,"(0.0, 0.0, 0.0, 0.0, 0.0, 0.0)",2.869760196731049,True,"(0.008786923374829662, 0.187837417107186, 0.039999899851964345)","(0.9836236491114602, -0.180234588464662, -0.00010014803565378773)",-0.00018775180503356954,42.67316851995097,True,"(0.07257796422588261, 0.18407493152286564, 0.040000100148035664)","(-0.9836236491114617, 0.18023458846465407, 0.00010014803565960521)",-0.0003077401691621107,36.027162287789416
49,Move,"(0.04343, 0.0, -0.0011400000000000002)","(0.0, 0.1375493983496731, 0.0)","(0.04023614236496368, 0.17120508185453334, 0.0009185032065409796)","(1.5707040359744406, 3.0619878328721724e-05, -0.18329678163334892)","[0.0399511988769497, -8.018469382331528e-05, -0.000948274319004022]","[-0.026750000193715096, 0.05299999937415123, 0.03999999910593033]","[0.0, -0.0, 0.14808922962461887]","[-0.03737349435687065, 0.12421194463968277, 0.03999999910593033]","[0.0, 0.0, -0.433098182489056]","[0.026750000193715096, 0.05299999937415123, 0.03999999910593033]","[0.0, 0.0, -0.7745402513387633]","[0.07710590213537216, 0.10446146875619888, 0.03999999910593033]","[0.0, 0.0, -0.1815868762446962]",0.14462469072701062,-0.8314866837205199,"(0.0, 0.0, 0.0, 0.0, 0.0, 0.0)",-7.133489153028577,-0.5792088104912264,0.47484927264019955,"(0.0, 0.0, 0.0, 0.0, 0.0, 0.0)",-3.5447528439838796,-0.7757705592611392,-0.2952656041868502,"(0.0, 0.0, 0.0, 0.0, 0.0, 0.0)",6.07120977674525,0.590839763421612,-0.5072702942926163,"(0.0, 0.0, 0.0, 0.0, 0.0, 0.0)",3.5669663500125997,True,"(0.01065810398328141, 0.18765941460474553, 0.0399999630044975)","(0.9833005673315183, -0.18198899119684964, -3.6995502508257994e-05)",-0.00021348305347303938,52.65682478735289,True,"(0.07438206372831481, 0.18376200744116414, 0.04000004211767411)","(-0.9833592965888163, 0.1816713847540396, 4.2117674112732205e-05)",-0.0003374252521450746,44.63613242118972
50,Move,"(0.04433000000000001, 0.0, -0.0018100000000000002)","(0.0, 0.1375493983496731, 0.0)","(0.0415416003913664, 0.17101297754724806, 0.0009330421628578712)","(1.5707960979664968, -0.00034358669718391124, -0.19514507967714978)","[0.04125665690335242, -0.00027228900110859433, -0.0009337353626871304]","[-0.026750000193715096, 0.05299999937415123, 0.03999999910593033]","[0.0, -0.0, 0.12912023521030713]","[-0.03602084517478943, 0.12440063804388046, 0.03999999910593033]","[0.0, 0.0, -0.4344522821156205]","[0.026750000193715096, 0.05299999937415123, 0.03999999910593033]","[0.0, 0.0, -0.7812321456983582]","[0.07744914293289185, 0.10412334650754929, 0.03999999910593033]","[0.0, 0.0, -0.19947439735712974]",0.1257905144847338,-0.7991310348005661,"(0.0, 0.0, 0.0, 0.0, 0.0, 0.0)",-10.305607572145755,-0.5603342569836194,0.7771803594250752,"(0.0, 0.0, 0.0, 0.0, 0.0, 0.0)",-5.836792175425083,-0.7823683996848951,-0.2727133094475893,"(0.0, 0.0, 0.0, 0.0, 0.0, 0.0)",7.960513645354747,0.5797480682083218,-0.48232061142195987,"(0.0, 0.0, 0.0, 0.0, 0.0, 0.0)",3.2793270842036195,True,"(0.012095014397808239, 0.18777456528600442, 0.04000028040687282)","(0.9814412340228807, -0.19176294097564986, 0.0002804068728151554)",-8.92402578914542e-05,73.07444317809473,True,"(0.07614414933065514, 0.18345991946242707, 0.04000004211767411)","(-0.9833592965888163, 0.1816713847540396, 4.2117674112732205e-05)",-0.00014011050565020293,33.461563525503145
51,Move,"(0.0446, 0.0, -0.00223)","(0.0, 0.1375493983496731, 0.0)","(0.04275788366978746, 0.17068858818244761, 0.0009431559889696104)","(1.5706670507329252, -0.000508055315824192, -0.2094702395417588)","[0.04247294018177348, -0.0005966783659090424, -0.0009236215365753912]","[-0.026750000193715096, 0.05299999937415123, 0.03999999910593033]","[0.0, -0.0, 0.11029585292134207]","[-0.03467521071434021, 0.12456249445676804, 0.03999999910593033]","[0.0, 0.0, -0.43490106248923033]","[0.026750000193715096, 0.05299999937415123, 0.03999999910593033]","[0.0, 0.0, -0.7869232752268998]","[0.07773927599191666, 0.10383398085832596, 0.03999999910593033]","[0.0, 0.0, -0.2164110138582661]",0.10691954281585973,-0.8103145434269656,"(0.0, 0.0, 0.0, 0.0, 0.0, 0.0)",-10.03361237273723,-0.542017593668461,0.7630277696869934,"(0.0, 0.0, 0.0, 0.0, 0.0, 0.0)",-5.6493700862665746,-0.7878636786835683,-0.22569290751373744,"(0.0, 0.0, 0.0, 0.0, 0.0, 0.0)",7.609883143092361,0.5685872591057313,-0.462014606112418,"(0.0, 0.0, 0.0, 0.0, 0.0, 0.0)",3.158940931213504,True,"(0.013466483029082807, 0.1879019931333779, 0.04000048785859303)","(0.9787545615415933, -0.20503480254707235, 0.0004878585930238751)",-9.488979239050434e-06,71.02937764942014,True,"(0.0777780956406103, 0.18318127687158126, 0.04000004211767411)","(-0.9833592965888163, 0.1816713847540396, 4.2117674112732205e-05)",2.161112042445384e-05,31.802856297018774
52,Move,"(0.04444000000000001, 0.0, -0.00229)","(0.0, 0.1375493983496731, 0.0)","(0.043878419524546665, 0.1703337431198656, 0.0009485197702468924)","(1.570451594100516, -0.0003409408250656054, -0.2255447565570886)","[0.043593476036532686, -0.0009515234284910579, -0.0009182577552981092]","[-0.026750000193715096, 0.05299999937415123, 0.03999999910593033]","[0.0, -0.0, 0.0914260573100181]","[-0.0333235077559948, 0.12469929456710815, 0.03999999910593033]","[0.0, 0.0, -0.435740414640228]","[0.026750000193715096, 0.05299999937415123, 0.03999999910593033]","[0.0, 0.0, -0.7914708264468749]","[0.07796991616487503, 0.10360158234834671, 0.03999999910593033]","[0.0, 0.0, -0.23186276670830325]",0.08807648230071388,-0.8038976072567512,"(0.0, 0.0, 0.0, 0.0, 0.0, 0.0)",-9.902700861479508,-0.5239632334826163,0.7687766444041856,"(0.0, 0.0, 0.0, 0.0, 0.0, 0.0)",-5.597196402802829,-0.7922135721646395,-0.17825205808939135,"(0.0, 0.0, 0.0, 0.0, 0.0, 0.0)",7.678945510778579,0.5576262600551909,-0.47563920040366714,"(0.0, 0.0, 0.0, 0.0, 0.0, 0.0)",3.190390607561001,True,"(0.014868072669025373, 0.18798342609962201, 0.04000034831049911)","(0.9753214646996324, -0.22078930946936656, 0.000348310499105842)",9.966088782146596e-06,69.92749996308999,True,"(0.07923474297588731, 0.18293880303978532, 0.04000004211767411)","(-0.9833592965888163, 0.1816713847540396, 4.2117674112732205e-05)",2.131092368162718e-05,31.808070444030225
53,Move,"(0.043680000000000004, 0.0, -0.00237)","(0.0, 0.14120411780334924, 0.0)","(0.04498274067167688, 0.16986452488034512, 0.0009553167618691687)","(1.570603240984462, 0.00019377512120985645, -0.2537943581478929)","[0.0446977971836629, -0.0014207416680115381, -0.000911460763675833]","[-0.026750000193715096, 0.05299999937415123, 0.03999999910593033]","[0.0, -0.0, 0.07268898511212549]","[-0.031978998333215714, 0.1248098686337471, 0.03999999910593033]","[0.0, 0.0, -0.4395525047603129]","[0.026750000193715096, 0.05299999937415123, 0.03999999910593033]","[0.0, 0.0, -0.7944387845222389]","[0.07811987400054932, 0.10344934463500977, 0.03999999910593033]","[0.0, 0.0, -0.2435365360861833]",0.06942995446875797,-0.7821666283973282,"(0.0, 0.0, 0.0, 0.0, 0.0, 0.0)",-10.453303557910013,-0.5085414019620492,0.8880177690810014,"(0.0, 0.0, 0.0, 0.0, 0.0, 0.0)",-5.8589589988917385,-0.7949408626473023,-0.12051796362788544,"(0.0, 0.0, 0.0, 0.0, 0.0, 0.0)",8.111536010251427,0.5487486440611826,-0.5168529593060396,"(0.0, 0.0, 0.0, 0.0, 0.0, 0.0)",3.2228084851909005,True,"(0.016447825750270317, 0.18788658051090296, 0.03999976018021973)","(0.9688221228257653, -0.24775721343656298, -0.00023981978027508256)",1.441453979070396e-06,73.86309309648018,True,"(0.06794466054074914, 0.13299715210931692, 0.05097526754304514)","(-0.9720535842499968, 0.2347590876175484, 1.1300903749180037e-05)",-0.0004213409080325486,31.959202756267025
54,Move,"(0.04358000000000001, 0.0, -0.0025700000000000002)","(0.0, 0.15666424431751502, 0.0)","(0.04588025807749302, 0.1696067447956326, 0.0009669559943107927)","(1.5702053325519223, 5.384775925905597e-05, -0.27087351136949356)","[0.04559531458947904, -0.001678521752724066, -0.0008998215312342089]","[-0.026750000193715096, 0.05299999937415123, 0.03999999910593033]","[0.0, -0.0, 0.053024602685988236]","[-0.030565982684493065, 0.12489880621433258, 0.03999999910593033]","[0.0, 0.0, -0.43640303514765294]","[0.026750000193715096, 0.05299999937415123, 0.03999999910593033]","[0.0, 0.0, -0.7965025448886471]","[0.07822388410568237, 0.10334321856498718, 0.03999999910593033]","[0.0, 0.0, -0.25899816776263895]",0.04942323286825657,-0.8643296062432008,"(0.0, 0.0, 0.0, 0.0, 0.0, 0.0)",-13.365775676409136,-0.48514515332784736,1.0277917422646343,"(0.0, 0.0, 0.0, 0.0, 0.0, 0.0)",-7.242037515571405,-0.796840156492239,-0.08102005758167259,"(0.0, 0.0, 0.0, 0.0, 0.0, 0.0)",10.681304686756777,0.5346487256498454,-0.6853772355209548,"(0.0, 0.0, 0.0, 0.0, 0.0, 0.0)",4.686392866751309,True,"(0.01765614650733289, 0.18810580330080282, 0.03999996690520485)","(0.9638008919388497, -0.2666230290177736, -3.309479514513602e-05)",5.9505307778053074e-06,94.64663685553596,True,"(0.08164242347558227, 0.18262278297524182, 0.04000003309479515)","(-0.963800891938853, 0.26662302901776114, 3.309479514615869e-05)",-0.0007940186093177754,53.02333716957532
55,Move,"(0.04299, 0.0, -0.00243)","(0.0, 0.12196360812936376, 0.0)","(0.04673171001333334, 0.16976688471022375, 0.0009664581502298059)","(1.5701888256148449, 0.00014699489539639056, -0.2762592731533885)","[0.04644676652531936, -0.0015183818381329095, -0.0009003193753151957]","[-0.026750000193715096, 0.05299999937415123, 0.03999999910593033]","[0.0, -0.0, 0.03455436244455729]","[-0.029237419366836548, 0.12495701760053635, 0.03999999910593033]","[0.0, 0.0, -0.4313514869182057]","[0.026750000193715096, 0.05299999937415123, 0.03999999910593033]","[0.0, 0.0, -0.7978201020186098]","[0.07829016447067261, 0.1032753586769104, 0.03999999910593033]","[0.0, 0.0, -0.27457287273689635]",0.03142709979971502,-0.7505425430373841,"(0.0, 0.0, 0.0, 0.0, 0.0, 0.0)",-12.80069905684585,-0.4617979548159914,0.985888202278324,"(0.0, 0.0, 0.0, 0.0, 0.0, 0.0)",-7.108987512508599,-0.7980006466222601,-0.0433332959658011,"(0.0, 0.0, 0.0, 0.0, 0.0, 0.0)",10.378805902840105,0.5208718501456756,-0.5701001625366925,"(0.0, 0.0, 0.0, 0.0, 0.0, 0.0)",4.384427481772802,True,"(0.018662003545365628, 0.1883966939106355, 0.039999868249032566)","(0.962335749328107, -0.27186373095136046, -0.00013175096743202008)",-9.03709317038208e-06,89.75402513442339,True,"(0.08294121437979579, 0.18248591169798795, 0.04000010097219255)","(-0.9629379137221339, 0.26972312492828726, 0.00010097219255160482)",-0.00044585101596084347,46.752269291174116
56,Move,"(0.04338, 0.0, -0.00268)","(0.0, 0.15666424431751502, 0.0)","(0.047674319200938134, 0.16988782895520133, 0.000958047137245933)","(1.570858992709969, 0.0002725352074327888, -0.28466891002148026)","[0.047389375712924155, -0.0013974375931553318, -0.0009087303882990686]","[-0.026750000193715096, 0.05299999937415123, 0.03999999910593033]","[0.0, -0.0, 0.014909760186470642]","[-0.027823463082313538, 0.1249919980764389, 0.03999999910593033]","[0.0, 0.0, -0.42539184182568224]","[0.026750000193715096, 0.05299999937415123, 0.03999999910593033]","[0.0, 0.0, -0.7987806620853736]","[0.07833843678236008, 0.10322581976652145, 0.03999999910593033]","[0.0, 0.0, -0.2906829196807041]",0.011208718049389364,-0.8882502314039098,"(0.0, 0.0, 0.0, 0.0, 0.0, 0.0)",-14.274354295348745,-0.43551743429265954,1.1482134879319896,"(0.0, 0.0, 0.0, 0.0, 0.0, 0.0)",-8.027302878477645,-0.7989490116958853,-0.040396215942396244,"(0.0, 0.0, 0.0, 0.0, 0.0, 0.0)",11.604600107107578,0.5053415871323838,-0.6614918697598448,"(0.0, 0.0, 0.0, 0.0, 0.0, 0.0)",4.7216461291348475,True,"(0.01969325885822819, 0.18870267411520453, 0.0399996674375059)","(0.9601595229326053, -0.279452285594552, -0.00033256249409748065)",1.628221997459959e-05,99.46992406087323,True,"(0.08426491388952491, 0.18235117470226536, 0.04000010097219255)","(-0.9629379137221339, 0.26972312492828726, 0.00010097219255160482)",-0.00016086261076757817,50.67706150864488
57,Move,"(0.043280000000000006, 0.0, -0.0027)","(0.0, 0.15666424431751502, 0.0)","(0.04860340879391363, 0.16993745543449285, 0.000964752934987792)","(1.570773775994798, -0.00015600080332656333, -0.2953904843673804)","[0.04831846530589965, -0.0013478111138638116, -0.0009020245905572097]","[-0.026750000193715096, 0.05299999937415123, 0.03999999910593033]","[0.0, 0.0, -0.005733207416566549]","[-0.026337211951613426, 0.12499881535768509, 0.03999999910593033]","[0.0, 0.0, -0.4192145722800615]","[0.026750000193715096, 0.05299999937415123, 0.03999999910593033]","[0.0, 0.0, -0.7994552748232651]","[0.0783722996711731, 0.10319101810455322, 0.03999999910593033]","[0.0, 0.0, -0.3067673058218422]",-0.009398678092771232,-0.879712870382736,"(0.0, 0.0, 0.0, 0.0, 0.0, 0.0)",-14.363858652562657,-0.4089299025251583,1.0923571709946254,"(0.0, 0.0, 0.0, 0.0, 0.0, 0.0)",-8.123991136211,-0.7995169513564871,-0.014823006406791841,"(0.0, 0.0, 0.0, 0.0, 0.0, 0.0)",10.957149436367102,0.4902035183000291,-0.596247854477685,"(0.0, 0.0, 0.0, 0.0, 0.0, 0.0)",4.200396621531422,True,"(0.020780599689275103, 0.18898661983160153, 0.04000014024925776)","(0.9574205099090698, -0.28869698220730083, 0.00014024925775643033)",1.9193383857624727e-05,99.53726664078539,True,"(0.08557064262117649, 0.18221081237157022, 0.04000010097219255)","(-0.9629379137221339, 0.26972312492828726, 0.00010097219255160482)",5.431892850710792e-05,38.79292783084908
