OSUrobotics/InHand-Manipulation/AnalyseData/Data/new_hand_human_filt_josh_2v2_b_none_1_kpNone_kdNone_dp5_step5_save_data.csv
,Phase,human_cube_pos,human_cube_orn,Cube_Pos,Cube_Orn,Cube_pos_in_start_pos,b'l_prox_pin'_link_pos,b'l_prox_pin'_link_orn,b'l_distal_pin'_link_pos,b'l_distal_pin'_link_orn,b'r_prox_pin'_link_pos,b'r_prox_pin'_link_orn,b'r_distal_pin'_link_pos,b'r_distal_pin'_link_orn,b'l_prox_pin'_joint_angle,b'l_prox_pin'_joint_vel,b'l_prox_pin'_joint_react_forces,b'l_prox_pin'_joint_motor_torque,b'l_distal_pin'_joint_angle,b'l_distal_pin'_joint_vel,b'l_distal_pin'_joint_react_forces,b'l_distal_pin'_joint_motor_torque,b'r_prox_pin'_joint_angle,b'r_prox_pin'_joint_vel,b'r_prox_pin'_joint_react_forces,b'r_prox_pin'_joint_motor_torque,b'r_distal_pin'_joint_angle,b'r_distal_pin'_joint_vel,b'r_distal_pin'_joint_react_forces,b'r_distal_pin'_joint_motor_torque,in_contact_l,contact_point_l_dist,contact_normal_l_dist,contact_distance_l_dist,contact_norm_force_l_dist,in_contact_r,contact_point_r_dist,contact_normal_r_dist,contact_distance_r_dist,contact_norm_force_r_dist
0,Open,,,,,,"[-0.026750000193715096, 0.05299999937415123, 0.03999999910593033]","[0.0, -0.0, 0.4275568030609407]","[-0.05660470947623253, 0.11851867288351059, 0.03999999910593033]","[0.0, -0.0, 0.44641275859988006]","[0.026750000193715096, 0.05299999937415123, 0.03999999910593033]","[0.0, 0.0, -0.42922170746952415]","[0.05671375244855881, 0.11846887320280075, 0.03999999910593033]","[0.0, 0.0, -0.4444288405985523]",0.5418011007136411,27.418644606321166,"(0.0, 0.0, 0.0, 0.0, 0.0, 0.0)",-4.412212205947213,0.016970457050626598,-0.45254552135004267,"(0.0, 0.0, 0.0, 0.0, 0.0, 0.0)",-0.3112280840921608,-0.5432995098342603,-27.378679737753068,"(0.0, 0.0, 0.0, 0.0, 0.0, 0.0)",4.406802284245525,-0.01368682141078277,0.3648786536995069,"(0.0, 0.0, 0.0, 0.0, 0.0, 0.0)",0.3117507403479851,False,,,,,False,,,,
1,Open,,,,,,"[-0.026750000193715096, 0.05299999937415123, 0.03999999910593033]","[0.0, -0.0, 0.8953988890858954]","[-0.08294300734996796, 0.0980149507522583, 0.03999999910593033]","[0.0, -0.0, 0.9065331216813005]","[0.026750000193715096, 0.05299999937415123, 0.03999999910593033]","[0.0, 0.0, -0.8963818692659563]","[0.0829872339963913, 0.09795968979597092, 0.03999999910593033]","[0.0, 0.0, -0.9053626951195597]",0.9628589138128638,16.190433363698823,"(0.0, 0.0, 0.0, 0.0, 0.0, 0.0)",-2.6169667313000695,0.0100208851838245,-0.2672236049019866,"(0.0, 0.0, 0.0, 0.0, 0.0, 0.0)",-0.18773974201207141,-0.9637436275620325,-16.166836598345807,"(0.0, 0.0, 0.0, 0.0, 0.0, 0.0)",2.613763978553102,-0.008083077601982886,0.2154874960311196,"(0.0, 0.0, 0.0, 0.0, 0.0, 0.0)",0.1880620823292031,False,,,,,False,,,,
2,Open,,,,,,"[-0.026750000193715096, 0.05299999937415123, 0.03999999910593033]","[0.0, -0.0, 1.171654746440673]","[-0.09309043735265732, 0.08098118007183075, 0.03999999910593033]","[0.0, -0.0, 1.1782299642376715]","[0.026750000193715096, 0.05299999937415123, 0.03999999910593033]","[0.0, 0.0, -1.1722352295604779]","[0.09310666471719742, 0.08094266802072525, 0.03999999910593033]","[0.0, 0.0, -1.1775390524213425]",1.211489269787228,9.56028613900726,"(0.0, 0.0, 0.0, 0.0, 0.0, 0.0)",-1.549337098301,0.005917759637133422,-0.15777166812948473,"(0.0, 0.0, 0.0, 0.0, 0.0, 0.0)",-0.11224074888564566,-1.2120116746391048,-9.546355342957211,"(0.0, 0.0, 0.0, 0.0, 0.0, 0.0)",1.5474430073653431,-0.004773640245651633,0.12726175663058897,"(0.0, 0.0, 0.0, 0.0, 0.0, 0.0)",0.11243513970013509,False,,,,,False,,,,
3,Open,,,,,,"[-0.026750000193715096, 0.05299999937415123, 0.03999999910593033]","[0.0, -0.0, 1.3347812409634636]","[-0.09675397723913193, 0.06983577460050583, 0.03999999910593033]","[0.0, -0.0, 1.3386661671041578]","[0.026750000193715096, 0.05299999937415123, 0.03999999910593033]","[0.0, 0.0, -1.3351239017917176]","[0.09675974398851395, 0.06981177628040314, 0.03999999910593033]","[0.0, 0.0, -1.3382585716552708]",1.3583029989166602,5.6452533622223955,"(0.0, 0.0, 0.0, 0.0, 0.0, 0.0)",-0.9162835097086138,0.003497694128215609,-0.09299060087094417,"(0.0, 0.0, 0.0, 0.0, 0.0, 0.0)",-0.06676398709252121,-1.3586114737576451,-5.637027366462802,"(0.0, 0.0, 0.0, 0.0, 0.0, 0.0)",0.9151640733655525,-0.002822108847108452,0.0749745026400094,"(0.0, 0.0, 0.0, 0.0, 0.0, 0.0)",0.06688048229686887,False,,,,,False,,,,
4,Open,,,,,,"[-0.026750000193715096, 0.05299999937415123, 0.03999999910593033]","[0.0, -0.0, 1.4311057425028282]","[-0.09804865717887878, 0.06302505731582642, 0.03999999910593033]","[0.0, -0.0, 1.4334032734733582]","[0.026750000193715096, 0.05299999937415123, 0.03999999910593033]","[0.0, 0.0, -1.431308104335954]","[0.09805068373680115, 0.06301062554121017, 0.03999999910593033]","[0.0, 0.0, -1.4331623791082226]",1.4449950378302985,3.333465657858707,"(0.0, 0.0, 0.0, 0.0, 0.0, 0.0)",-0.5415470204270642,0.00206847570742907,-0.05499257770288074,"(0.0, 0.0, 0.0, 0.0, 0.0, 0.0)",-0.039590489847429466,-1.445177189139152,-3.3286082896226152,"(0.0, 0.0, 0.0, 0.0, 0.0, 0.0)",0.5408856529797128,-0.0016695548180384117,0.044354395054195694,"(0.0, 0.0, 0.0, 0.0, 0.0, 0.0)",0.03965987043162498,False,,,,,False,,,,
5,Open,,,,,,"[-0.026750000193715096, 0.05299999937415123, 0.03999999910593033]","[0.0, -0.0, 1.4879842849605203]","[-0.09850326180458069, 0.058955658227205276, 0.03999999910593033]","[0.0, -0.0, 1.489343065607469]","[0.026750000193715096, 0.05299999937415123, 0.03999999910593033]","[0.0, 0.0, -1.4881038326190874]","[0.0985039696097374, 0.05894708260893822, 0.03999999910593033]","[0.0, 0.0, -1.4892007432451406]",1.4961858198884128,1.9683781363089925,"(0.0, 0.0, 0.0, 0.0, 0.0, 0.0)",-0.31994897187883825,0.0012232636377678136,-0.032521640728513185,"(0.0, 0.0, 0.0, 0.0, 0.0, 0.0)",-0.02343577630428664,-1.4962933784147776,-1.965509908939262,"(0.0, 0.0, 0.0, 0.0, 0.0, 0.0)",0.3195583180161899,-0.0009877080880928023,0.026239985957649457,"(0.0, 0.0, 0.0, 0.0, 0.0, 0.0)",0.023476950585051323,False,,,,,False,,,,
6,Open,,,,,,"[-0.026750000193715096, 0.05299999937415123, 0.03999999910593033]","[0.0, -0.0, 1.5215704989376362]","[-0.09866278618574142, 0.05654282867908478, 0.03999999910593033]","[0.0, -0.0, 1.522374224394668]","[0.026750000193715096, 0.05299999937415123, 0.03999999910593033]","[0.0, 0.0, -1.5216409844702297]","[0.09866303205490112, 0.056537751108407974, 0.03999999910593033]","[0.0, 0.0, -1.5222901571906298]",1.5264134647859087,1.1623076057091044,"(0.0, 0.0, 0.0, 0.0, 0.0, 0.0)",-0.18898610114019695,0.0007234189939949569,-0.019232793705726413,"(0.0, 0.0, 0.0, 0.0, 0.0, 0.0)",-0.013858664126722889,-1.526476977020142,-1.1606139461295462,"(0.0, 0.0, 0.0, 0.0, 0.0, 0.0)",0.18875538079362908,-0.0005843277214356538,0.015523590384805355,"(0.0, 0.0, 0.0, 0.0, 0.0, 0.0)",0.013883048604503997,False,,,,,False,,,,
7,Close,,,"(1.2476534259310138e-07, 0.1699996062949193, 0.0003375140015152146)","(1.5703757633578967, 0.00010885300924042728, -5.122647217740456e-06)",,"[-0.026750000193715096, 0.05299999937415123, 0.03999999910593033]","[0.0, -0.0, 1.2785329680082034]","[-0.09569678455591202, 0.07374466955661774, 0.03999999910593033]","[0.0, -0.0, 1.0351070515061207]","[0.026750000193715096, 0.05299999937415123, 0.03999999910593033]","[0.0, 0.0, -1.2785746443123736]","[0.09569764882326126, 0.07374180108308792, 0.03999999910593033]","[0.0, 0.0, -1.0350574587065848]",1.2106795868214313,-16.284788981904832,"(0.0, 0.0, 0.0, 0.0, 0.0, 0.0)",2.8094734595110054,-0.30908366788756025,-15.757883867759954,"(0.0, 0.0, 0.0, 0.0, 0.0, 0.0)",0.3661544666467596,-1.2107170901606237,16.285789070949974,"(0.0, 0.0, 0.0, 0.0, 0.0, 0.0)",-2.8096100855561628,0.30916579961995716,15.755693684227662,"(0.0, 0.0, 0.0, 0.0, 0.0, 0.0)",-0.3661417266907691,False,,,,,False,,,,
8,Close,,,"(3.0915685033505156e-07, 0.16999915379393807, 0.0005600354167281548)","(1.5707724107730383, 0.00032752216579713883, -1.5437530246358717e-05)",,"[-0.026750000193715096, 0.05299999937415123, 0.03999999910593033]","[0.0, -0.0, 1.0006669242927304]","[-0.08736184239387512, 0.09186135232448578, 0.03999999910593033]","[0.0, -0.0, 0.48836713866702536]","[0.026750000193715096, 0.05299999937415123, 0.03999999910593033]","[0.0, 0.0, -1.0006915750230592]","[0.08736279606819153, 0.0918598622083664, 0.03999999910593033]","[0.0, 0.0, -0.48833779242040054]",0.9606001892214949,-9.616005046067434,"(0.0, 0.0, 0.0, 0.0, 0.0, 0.0)",1.6672536439987788,-0.5510698150521247,-9.304804931943343,"(0.0, 0.0, 0.0, 0.0, 0.0, 0.0)",0.2218041720594121,-0.9606223345682547,9.616595588647689,"(0.0, 0.0, 0.0, 0.0, 0.0, 0.0)",-1.6673342356558218,0.5511183130187877,9.303511652832327,"(0.0, 0.0, 0.0, 0.0, 0.0, 0.0)",-0.22179623368097987,False,,,,,False,,,,
9,Close,,,"(2.92643147680763e-07, 0.16999904117294537, 0.0007066066571906229)","(1.5708336300897037, 0.0002685467811410993, -1.4091911649463073e-05)",,"[-0.026750000193715096, 0.05299999937415123, 0.03999999910593033]","[0.0, -0.0, 0.8365897781630613]","[-0.08020010590553284, 0.1012398824095726, 0.03999999910593033]","[0.0, -0.0, 0.16552236759011107]","[0.026750000193715096, 0.05299999937415123, 0.03999999910593033]","[0.0, 0.0, -0.836604448062181]","[0.08020080626010895, 0.10123910009860992, 0.03999999910593033]","[0.0, 0.0, -0.16550506770161633]",0.812930805733043,-5.678154819547815,"(0.0, 0.0, 0.0, 0.0, 0.0, 0.0)",0.9873876378023712,-0.6939608389952502,-5.494419379319652,"(0.0, 0.0, 0.0, 0.0, 0.0, 0.0)",0.13292482532483338,-0.8129438823388511,5.678503529036031,"(0.0, 0.0, 0.0, 0.0, 0.0, 0.0)",-0.9874351968086077,0.693989476536993,5.493655710021931,"(0.0, 0.0, 0.0, 0.0, 0.0, 0.0)",-0.13291999285082937,False,,,,,False,,,,
10,Close,,,"(1.9832256981737961e-07, 0.16999905280453884, 0.0008031508720500746)","(1.5708212822508671, 0.00017510911967758876, -1.4078695567516163e-05)",,"[-0.026750000193715096, 0.05299999937415123, 0.03999999910593033]","[0.0, -0.0, 0.7397039398326887]","[-0.075282983481884, 0.10618411004543304, 0.03999999910593033]","[0.0, 0.0, -0.025114222927030666]","[0.026750000193715096, 0.05299999937415123, 0.03999999910593033]","[0.0, 0.0, -0.7397124515830813]","[0.07528343796730042, 0.10618369281291962, 0.03999999910593033]","[0.0, -0.0, 0.02512443054911456]",0.7257335114773046,-3.352893639394789,"(0.0, 0.0, 0.0, 0.0, 0.0, 0.0)",0.5840197470607513,-0.7783375575740245,-3.2446651763637075,"(0.0, 0.0, 0.0, 0.0, 0.0, 0.0)",0.0791404685454862,-0.7257412330822681,3.353099548860486,"(0.0, 0.0, 0.0, 0.0, 0.0, 0.0)",-0.5840478210004445,0.7783544676966149,3.244214227532712,"(0.0, 0.0, 0.0, 0.0, 0.0, 0.0)",-0.07913756560963638,False,,,,,False,,,,
11,Close,,,"(1.30017400381082e-07, 0.16999905910251797, 0.0008666026992090587)","(1.5708129813202494, 0.0001075970307095789, -1.4062228891238364e-05)",,"[-0.026750000193715096, 0.05299999937415123, 0.03999999910593033]","[0.0, -0.0, 0.6824937890365349]","[-0.07216256856918335, 0.10887216031551361, 0.03999999910593033]","[0.0, 0.0, -0.13768679215257298]","[0.026750000193715096, 0.05299999937415123, 0.03999999910593033]","[0.0, 0.0, -0.6824988409827923]","[0.07216285169124603, 0.1088719293475151, 0.03999999910593033]","[0.0, -0.0, 0.13769283896303514]",0.6742443811922335,-1.9798501651262281,"(0.0, 0.0, 0.0, 0.0, 0.0, 0.0)",0.345230167467548,-0.8281632491498374,-1.9158446333391002,"(0.0, 0.0, 0.0, 0.0, 0.0, 0.0)",0.04698979881933002,-0.6742489407227484,1.9799717526066263,"(0.0, 0.0, 0.0, 0.0, 0.0, 0.0)",-0.34524674048915466,0.8281732342717794,1.9155783561223352,"(0.0, 0.0, 0.0, 0.0, 0.0, 0.0)",-0.046988066278232765,False,,,,,False,,,,
12,Close,,,"(8.490101970702517e-08, 0.16999906252885066, 0.0009084220121475245)","(1.5708075117164364, 6.308269835997821e-05, -1.4048015423045396e-05)",,"[-0.026750000193715096, 0.05299999937415123, 0.03999999910593033]","[0.0, -0.0, 0.6487117277688945]","[-0.070249542593956, 0.11037412285804749, 0.03999999910593033]","[0.0, 0.0, -0.20415814001995317]","[0.026750000193715096, 0.05299999937415123, 0.03999999910593033]","[0.0, 0.0, -0.6487146870449065]","[0.07024971395730972, 0.11037398874759674, 0.03999999910593033]","[0.0, -0.0, 0.20416169233035947]",0.643840564650202,-1.1690817240053875,"(0.0, 0.0, 0.0, 0.0, 0.0, 0.0)",0.2039767939874109,-0.8575833127252949,-1.1312288900873007,"(0.0, 0.0, 0.0, 0.0, 0.0, 0.0)",0.027829018413854982,-0.6438432570073757,1.1691535201966865,"(0.0, 0.0, 0.0, 0.0, 0.0, 0.0)",-0.2039865789635558,0.8575892087588354,1.131071658190867,"(0.0, 0.0, 0.0, 0.0, 0.0, 0.0)",-0.02782798924720269,False,,,,,False,,,,
13,Close,,,"(5.502665671292819e-08, 0.16999906406952328, 0.0009359839445606871)","(1.5708039077225389, 3.373202901848668e-05, -1.4034703559606167e-05)",,"[-0.026750000193715096, 0.05299999937415123, 0.03999999910593033]","[0.0, -0.0, 0.62876384308693]","[-0.06909646838903427, 0.11123037338256836, 0.03999999910593033]","[0.0, 0.0, -0.2434077786060054]","[0.026750000193715096, 0.05299999937415123, 0.03999999910593033]","[0.0, 0.0, -0.6287655578503194]","[0.06909657269716263, 0.11123029887676239, 0.03999999910593033]","[0.0, -0.0, 0.24340989307357086]",0.6258874150202979,-0.6903310672079428,"(0.0, 0.0, 0.0, 0.0, 0.0, 0.0)",0.12048856302013489,-0.8749546697012278,-0.6679448171642461,"(0.0, 0.0, 0.0, 0.0, 0.0, 0.0)",0.016461178544940728,-0.6258890048302853,0.6903734621409416,"(0.0, 0.0, 0.0, 0.0, 0.0, 0.0)",-0.1204943405292655,0.8749581512019659,0.6678519745756254,"(0.0, 0.0, 0.0, 0.0, 0.0, 0.0)",-0.016460568705478986,False,,,,,False,,,,
14,Move,,,"(0.00028490367293800445, 0.17128528261346418, 0.0018667715907022436)","(1.5298672115643812, 0.001236444856009662, -0.0026260984739967376)","[0.0, 0.0, 0.0]","[-0.026750000193715096, 0.05299999937415123, 0.03999999910593033]","[0.0, -0.0, 0.5674369609054164]","[-0.06544800847768784, 0.113716259598732, 0.03999999910593033]","[0.0, 0.0, -0.2308640489687053]","[0.026750000193715096, 0.05299999937415123, 0.03999999910593033]","[0.0, 0.0, -0.5672788130712568]","[0.0654384195804596, 0.11372236907482147, 0.03999999910593033]","[0.0, -0.0, 0.23382475156320584]",0.5526433989730287,-3.5504370953171867,"(0.0, 0.0, 0.0, 0.0, 0.0, 0.0)",-74.66322024604403,-0.7739531095654736,5.843475654975501,"(0.0, 0.0, 0.0, 0.0, 0.0, 0.0)",-38.56783045591241,-0.5523667295894997,3.5789115746871,"(0.0, 0.0, 0.0, 0.0, 0.0, 0.0)",70.97391517166263,0.7784720417252632,-5.43157592246931,"(0.0, 0.0, 0.0, 0.0, 0.0, 0.0)",36.63168401876257,True,"(-0.03113905829288962, 0.18549674432077143, 0.039999243627221105)","(0.999997149185068, -0.002264844797376416, -0.0007563727788975179)",-0.0005031799820246284,565.4932912544347,True,"(0.030917081539576403, 0.1854084559334869, 0.04000075637277887)","(-0.999997149185068, 0.0022648447973549874, 0.0007563727788695216)",-0.0013606566583459017,538.0262544015998
15,Move,"(0.0, 0.0, 0.0)","(0.0, -0.0, 0.0)","(0.00016270838996999885, 0.1713647672289721, 0.0031640793174369346)","(1.489986810437336, -0.0009251126809960673, -0.006054792035964939)","[-0.0001221952829680056, 7.948461550791319e-05, 0.001297307726734691]","[-0.026750000193715096, 0.05299999937415123, 0.03999999910593033]","[0.0, -0.0, 0.5448782568355026]","[-0.06406860798597336, 0.11457370966672897, 0.03999999910593033]","[0.0, 0.0, -0.2125952114702822]","[0.026750000193715096, 0.05299999937415123, 0.03999999910593033]","[0.0, 0.0, -0.544183951247959]","[0.06402584165334702, 0.11459960788488388, 0.03999999910593033]","[0.0, -0.0, 0.2190380180849033]",0.5463765481378697,0.359598682601126,"(0.0, 0.0, 0.0, 0.0, 0.0, 0.0)",-0.08405768024410744,-0.7590282548998936,-0.373160671912454,"(0.0, 0.0, 0.0, 0.0, 0.0, 0.0)",-0.017294817629784402,-0.5456047366229528,-0.3409961664683659,"(0.0, 0.0, 0.0, 0.0, 0.0, 0.0)",0.7656031707325326,0.7645794961342903,0.32581370464821713,"(0.0, 0.0, 0.0, 0.0, 0.0, 0.0)",0.40259438775361683,True,"(-0.03107653344838232, 0.18694794687880967, 0.040000757429776115)","(0.9999871173549767, -0.005019105918225618, 0.000757429776116237)",-0.0006229329916199746,0.22191724172775878,True,"(0.030568114373838093, 0.18677626051601565, 0.039999242570223865)","(-0.9999871173549767, 0.005019105918220507, -0.0007574297761375611)",-0.0016523511451968073,5.374362454726446
16,Move,"(0.0, 0.0, 0.0)","(0.0, -0.0, 0.0)","(-6.341343479020365e-05, 0.1713324314796163, 0.003188067381999108)","(1.4928116682534822, -0.0006544817075086552, -0.010066911307979739)","[-0.0003483171077282081, 4.7148866152119107e-05, 0.0013212957912968643]","[-0.026750000193715096, 0.05299999937415123, 0.03999999910593033]","[0.0, -0.0, 0.5488376703487587]","[-0.06431210786104202, 0.11442546546459198, 0.03999999910593033]","[0.0, 0.0, -0.2107727369542321]","[0.026750000193715096, 0.05299999937415123, 0.03999999910593033]","[0.0, 0.0, -0.5479972514871396]","[0.06426046788692474, 0.11445701122283936, 0.03999999910593033]","[0.0, -0.0, 0.21695257809110738]",0.5491400554941442,0.0725745738968108,"(0.0, 0.0, 0.0, 0.0, 0.0, 0.0)",-0.3066863387678389,-0.7593616399281851,0.05970280712280276,"(0.0, 0.0, 0.0, 0.0, 0.0, 0.0)",-0.14686885689884505,-0.548297262904521,-0.07200773449592457,"(0.0, 0.0, 0.0, 0.0, 0.0, 0.0)",0.6643234953803918,0.7647140401857955,-0.05658278233062221,"(0.0, 0.0, 0.0, 0.0, 0.0, 0.0)",0.3179608503746901,True,"(-0.03145203283290361, 0.18685326628264148, 0.04000070143292406)","(0.9999532820528333, -0.009640627760675351, 0.000701432924063189)",-0.0004134064564165868,2.189014711329554,True,"(0.030953355812358058, 0.18670582207593608, 0.03999929856707594)","(-0.9999532820528334, 0.00964062776067638, -0.0007014329240559101)",-0.001102698256836946,4.854974308907008
17,Move,"(0.0, 0.0, 0.0)","(0.0, -0.0, 0.0)","(-0.0001850656657420761, 0.1712242836693887, 0.0020778872684213447)","(1.5311707249369433, -0.00043877212864636654, -0.013304189486256125)","[-0.00046996933868008055, -6.0998944075491e-05, 0.0002111156777191011]","[-0.026750000193715096, 0.05299999937415123, 0.03999999910593033]","[0.0, -0.0, 0.550635700469206]","[-0.06442249566316605, 0.1143578290939331, 0.03999999910593033]","[0.0, 0.0, -0.20855049197132766]","[0.026750000193715096, 0.05299999937415123, 0.03999999910593033]","[0.0, 0.0, -0.5501030306670673]","[0.06438980251550674, 0.11437788605690002, 0.03999999910593033]","[0.0, -0.0, 0.21444737095425298]",0.5509645754304117,0.07893309881967969,"(0.0, 0.0, 0.0, 0.0, 0.0, 0.0)",-0.012805484874822807,-0.7592035087160035,-0.004165240799322129,"(0.0, 0.0, 0.0, 0.0, 0.0, 0.0)",-0.0009088691686205159,-0.5505160208748098,-0.09911111569520605,"(0.0, 0.0, 0.0, 0.0, 0.0, 0.0)",0.016095436922693617,0.7645665313984215,0.0038678501942523346,"(0.0, 0.0, 0.0, 0.0, 0.0, 0.0)",0.0011577207858247225,True,"(-0.03172350356547731, 0.18685331373181382, 0.04000049818420384)","(0.9999207536806748, -0.01257927546285221, 0.000498184203839819)",-0.00022412111561672304,0.0,True,"(0.03126379866723161, 0.18671034351391186, 0.03999950181579615)","(-0.9999207536806746, 0.012579275462866635, -0.0004981842038508582)",-0.0007117685757231204,0.0
18,Move,"(0.0, 0.0, 0.0)","(0.0, -0.0, 0.0)","(-0.00042778040252984897, 0.17126799092341596, 0.0010311499840079963)","(1.5826763893962548, 0.0064276410397424875, -0.009975990450143907)","[-0.0007126840754678534, -1.7291690048215624e-05, -0.0008356216066942473]","[-0.026750000193715096, 0.05299999937415123, 0.03999999910593033]","[0.0, -0.0, 0.5518776656528058]","[-0.0644986629486084, 0.11431099474430084, 0.03999999910593033]","[0.0, 0.0, -0.20733698794966118]","[0.026750000193715096, 0.05299999937415123, 0.03999999910593033]","[0.0, 0.0, -0.5519958085467984]","[0.0645059123635292, 0.11430653184652328, 0.03999999910593033]","[0.0, -0.0, 0.21250798967870835]",0.5520436175060691,0.03985116332650404,"(0.0, 0.0, 0.0, 0.0, 0.0, 0.0)",-0.0790078159386886,-0.7592122035996175,0.0005663051992461734,"(0.0, 0.0, 0.0, 0.0, 0.0, 0.0)",-0.039238556393483996,-0.5522931543480687,-0.07135650525518768,"(0.0, 0.0, 0.0, 0.0, 0.0, 0.0)",0.014569960817199305,0.7645100672652501,0.0015057102179030224,"(0.0, 0.0, 0.0, 0.0, 0.0, 0.0)",0.003052291370007914,True,"(-0.031887679946107236, 0.18684623691320273, 0.03999503282547144)","(0.999924530825499, -0.011236539974940478, -0.004967174528554778)",-7.92070545377103e-05,0.5421032458405637,True,"(0.03152021955928339, 0.18669981636182284, 0.040004967174528575)","(-0.999924530825499, 0.011236539974947444, 0.004967174528577122)",-0.00043608124473262246,0.0
19,Move,"(0.0, 0.0, 0.0)","(0.0, -0.0, 0.0)","(-0.00041780715451643314, 0.1712858499979351, 0.0009736432429571916)","(1.5763772156835414, 0.00511185097664618, -0.010347224263125709)","[-0.0007027108274544376, 5.673844709341846e-07, -0.0008931283477450519]","[-0.026750000193715096, 0.05299999937415123, 0.03999999910593033]","[0.0, -0.0, 0.5522258244427782]","[-0.06452001631259918, 0.11429784446954727, 0.03999999910593033]","[0.0, 0.0, -0.20678515637223435]","[0.026750000193715096, 0.05299999937415123, 0.03999999910593033]","[0.0, 0.0, -0.5529646994205819]","[0.06456529349088669, 0.1142699271440506, 0.03999999910593033]","[0.0, -0.0, 0.21141709453020538]",0.5522423790741428,0.0039626635926902545,"(0.0, 0.0, 0.0, 0.0, 0.0, 0.0)",-0.5037542019761545,-0.758820427413781,0.045739596172849,"(0.0, 0.0, 0.0, 0.0, 0.0, 0.0)",-0.28178925277813444,-0.5530706476471353,-0.025433074736076478,"(0.0, 0.0, 0.0, 0.0, 0.0, 0.0)",0.0071834456718082315,0.7643945821415663,0.0030796032982340904,"(0.0, 0.0, 0.0, 0.0, 0.0, 0.0)",0.0021428182070734993,True,"(-0.03194906473415865, 0.18685144708775514, 0.03999446613749334)","(0.9999315537494226, -0.010308451970250496, -0.005533862506660312)",-5.6080889597215864e-05,3.8167038306869623,True,"(0.03165857051399413, 0.18669712971939398, 0.04000553386250665)","(-0.9999315537494227, 0.01030845197024991, 0.005533862506660061)",-0.0002591064180409658,0.0
20,Move,"(0.0, 0.0, 0.0)","(0.0, -0.0, 0.0)","(-0.00041415284575294537, 0.17128414262056246, 0.0009794363451372057)","(1.5745056249688048, 0.0034336376259986624, -0.010192661461699823)","[-0.0006990565186909498, -1.1399929017164023e-06, -0.0008873352455650379]","[-0.026750000193715096, 0.05299999937415123, 0.03999999910593033]","[0.0, -0.0, 0.5524157871130173]","[-0.06453165411949158, 0.11429066956043243, 0.03999999910593033]","[0.0, 0.0, -0.2059211702060911]","[0.026750000193715096, 0.05299999937415123, 0.03999999910593033]","[0.0, 0.0, -0.5537468029321688]","[0.06461319327354431, 0.11424033343791962, 0.03999999910593033]","[0.0, -0.0, 0.21065627605787998]",0.5524582996457477,0.01019670313355011,"(0.0, 0.0, 0.0, 0.0, 0.0, 0.0)",-0.33555327031801485,-0.7582396068130738,0.023372332688241133,"(0.0, 0.0, 0.0, 0.0, 0.0, 0.0)",-0.18707031820537826,-0.5539029438868143,-0.03749110490255526,"(0.0, 0.0, 0.0, 0.0, 0.0, 0.0)",0.006108546940673513,0.7644021591205311,-0.00020205277239604416,"(0.0, 0.0, 0.0, 0.0, 0.0, 0.0)",0.0004579082824566287,True,"(-0.03202340200531567, 0.1868716368246796, 0.039996283467240275)","(0.9999411487071054, -0.010192473034571154, -0.003716532759727644)",-4.844495169797724e-05,2.4988905421242107,True,"(0.03176157005347103, 0.1866916752392203, 0.040003716532759734)","(-0.9999411487071052, 0.010192473034589008, 0.0037165327597330385)",-8.852856677426728e-05,0.0
21,Move,"(-5.9999999999999995e-05, 0.0, -0.00014000000000000001)","(0.0, 0.018053685782629343, 0.0)","(-0.0004082374463602837, 0.1712845147542316, 0.0009834548491713907)","(1.5732854905978495, 0.0023344845718486244, -0.01029964973278294)","[-0.0006931411192982881, -7.678592325865985e-07, -0.0008833167415308529]","[-0.026750000193715096, 0.05299999937415123, 0.03999999910593033]","[0.0, -0.0, 0.5524202984232556]","[-0.06453192979097366, 0.1142905056476593, 0.03999999910593033]","[0.0, 0.0, -0.20528053356878387]","[0.026750000193715096, 0.05299999937415123, 0.03999999910593033]","[0.0, 0.0, -0.5547428003375491]","[0.06467417627573013, 0.1142025887966156, 0.03999999910593033]","[0.0, -0.0, 0.20965879691949657]",0.5523996432704881,-0.004949233822025427,"(0.0, 0.0, 0.0, 0.0, 0.0, 0.0)",-0.4334056334488144,-0.7575806448142051,0.028838454315324006,"(0.0, 0.0, 0.0, 0.0, 0.0, 0.0)",-0.24201537624127137,-0.5549309307441579,-0.04514645729405942,"(0.0, 0.0, 0.0, 0.0, 0.0, 0.0)",0.007352719316338197,0.7644016619949413,1.3256682394491293e-05,"(0.0, 0.0, 0.0, 0.0, 0.0, 0.0)",0.0005482846863518017,True,"(-0.03207018306816545, 0.18689155909791072, 0.039997481104711456)","(0.9999440634963331, -0.010272538389647956, -0.0025188952885447486)",-4.2798810705248395e-05,3.247227849275012,True,"(0.03189482390831195, 0.18668574529149962, 0.040002518895288545)","(-0.9999440634963331, 0.010272538389646006, 0.002518895288543649)",8.633097133430216e-05,0.0
22,Move,"(5.9999999999999995e-05, 0.0, -0.00025)","(0.0, 0.03438473159354028, 0.0)","(-0.00035188488036352357, 0.17130052228965761, 0.0009852178364543728)","(1.5724745856847755, 0.0015741470451147096, -0.011226417755924577)","[-0.000636788553301528, 1.5239676193434804e-05, -0.0008815537542478707]","[-0.026750000193715096, 0.05299999937415123, 0.03999999910593033]","[0.0, -0.0, 0.5519823816667394]","[-0.06450508534908295, 0.11430704593658447, 0.03999999910593033]","[0.0, 0.0, -0.20511716418386242]","[0.026750000193715096, 0.05299999937415123, 0.03999999910593033]","[0.0, 0.0, -0.5559855795255815]","[0.06475020945072174, 0.11415540426969528, 0.03999999910593033]","[0.0, -0.0, 0.20841607802166362]",0.551875073789004,-0.025737685739972163,"(0.0, 0.0, 0.0, 0.0, 0.0, 0.0)",-0.5188054168378798,-0.7569855836551522,0.02732972997996218,"(0.0, 0.0, 0.0, 0.0, 0.0, 0.0)",-0.2982973217680684,-0.5562237819418043,-0.05716099299493571,"(0.0, 0.0, 0.0, 0.0, 0.0, 0.0)",0.009309621239053243,0.7644016946113513,-8.697709326099813e-07,"(0.0, 0.0, 0.0, 0.0, 0.0, 0.0)",0.0006943951286302739,True,"(-0.032055208621195944, 0.186912464111404, 0.039998296795413515)","(0.9999375177823708, -0.011048059801026444, -0.0017032045864867312)",-3.1160635017047124e-05,3.9296926487680675,True,"(0.032060949657988946, 0.18667877802319274, 0.040001703204586486)","(-0.9999375177823709, 0.011048059801022156, 0.001703204586488253)",0.00022589039295071656,0.0
23,Move,"(0.00064, 0.0, 0.00017)","(0.0, 0.13771171397010862, 0.0)","(-9.521964519690237e-06, 0.17130604781608602, 0.0009887657734981752)","(1.5718971564388327, 0.0011389878730310814, -0.015053484813899733)","[-0.00029442563745769466, 2.0765202621841894e-05, -0.0008780058172040684]","[-0.026750000193715096, 0.05299999937415123, 0.03999999910593033]","[0.0, -0.0, 0.5495267212172609]","[-0.06435441970825195, 0.11439957469701767, 0.03999999910593033]","[0.0, 0.0, -0.2071991949214791]","[0.026750000193715096, 0.05299999937415123, 0.03999999910593033]","[0.0, 0.0, -0.558210289536006]","[0.06488616019487381, 0.11407072097063065, 0.03999999910593033]","[0.0, -0.0, 0.20619148732186798]",0.5489192011182583,-0.14579351588823344,"(0.0, 0.0, 0.0, 0.0, 0.0, 0.0)",-0.49872668884265475,-0.7567201647347974,0.0013663559242058881,"(0.0, 0.0, 0.0, 0.0, 0.0, 0.0)",-0.31256978134733454,-0.5586869025414629,-0.11440658697653294,"(0.0, 0.0, 0.0, 0.0, 0.0, 0.0)",0.01863257658612116,0.7644016924713886,5.7065672187661676e-08,"(0.0, 0.0, 0.0, 0.0, 0.0, 0.0)",0.0013896485624456734,True,"(-0.031753464821379605, 0.1869361357500193, 0.03999876362421291)","(0.9998974568933612, -0.014266992433657534, -0.001236375787085435)",-2.187597340431149e-05,3.9463127139812664,True,"(0.032358331163508725, 0.18666762722460373, 0.04000123637578707)","(-0.9998974568933613, 0.014266992433662867, 0.0012363757870699453)",0.0002109271098488928,0.0
24,Move,"(0.00218, 0.0, 0.0018200000000000002)","(0.0, 0.01863837108204745, 0.0)","(8.594341431918016e-05, 0.17130742748381592, 0.0009893555500044189)","(1.571563197166683, 0.000798465206400275, -0.016092812706628667)","[-0.0001989602586188243, 2.2144870351736845e-05, -0.0008774160406978247]","[-0.026750000193715096, 0.05299999937415123, 0.03999999910593033]","[0.0, -0.0, 0.5480089674444504]","[-0.06426119059324265, 0.11445657163858414, 0.03999999910593033]","[0.0, 0.0, -0.2083439517663328]","[0.026750000193715096, 0.05299999937415123, 0.03999999910593033]","[0.0, 0.0, -0.5616814515316491]","[0.06509792804718018, 0.11393797397613525, 0.03999999910593033]","[0.0, -0.0, 0.20272024126619598]",0.5479164765039206,-0.02219678105825346,"(0.0, 0.0, 0.0, 0.0, 0.0, 0.0)",-0.46114090921084067,-0.7562078908057969,0.03480210835972713,"(0.0, 0.0, 0.0, 0.0, 0.0, 0.0)",-0.24801281222879468,-0.5623715843311091,-0.16563238272787828,"(0.0, 0.0, 0.0, 0.0, 0.0, 0.0)",0.026974806277455188,0.7644016926117915,-3.744077048394564e-09,"(0.0, 0.0, 0.0, 0.0, 0.0, 0.0)",0.002011676538193681,True,"(-0.031577229543607935, 0.18695511872431314, 0.039999146994869214)","(0.999870617869044, -0.016062997989875722, -0.0008530051307888464)",-1.8232887208661217e-05,3.459964791740984,True,"(0.03282226024961614, 0.18664567928175588, 0.04000085300513079)","(-0.9998706178690443, 0.016062997989871305, 0.0008530051307846201)",0.000494361229557528,0.0
25,Move,"(0.0047, 0.0, 0.00547)","(0.0, 0.016268213957839145, 0.0)","(0.00016282727246725028, 0.17131986488484854, 0.000988286162472612)","(1.571332416742302, 0.0005283535686207838, -0.017219321688428456)","[-0.00012207640047075418, 3.458227138436465e-05, -0.0008784854282296315]","[-0.026750000193715096, 0.05299999937415123, 0.03999999910593033]","[0.0, -0.0, 0.5471975784592384]","[-0.06421131640672684, 0.11448698490858078, 0.03999999910593033]","[0.0, 0.0, -0.208514721456096]","[0.026750000193715096, 0.05299999937415123, 0.03999999910593033]","[0.0, 0.0, -0.5683085810650897]","[0.06550092250108719, 0.11368250101804733, 0.03999999910593033]","[0.0, -0.0, 0.19609317796798373]",0.5470246961250819,-0.04149734713015001,"(0.0, 0.0, 0.0, 0.0, 0.0, 0.0)",-0.5274448649433898,-0.7555987165035308,0.02726508394719393,"(0.0, 0.0, 0.0, 0.0, 0.0, 0.0)",-0.30946125921273826,-0.569738505409229,-0.343194273195718,"(0.0, 0.0, 0.0, 0.0, 0.0, 0.0)",0.05588851269066878,0.7644016926025796,2.4564883460698184e-10,"(0.0, 0.0, 0.0, 0.0, 0.0, 0.0)",0.004166868678075195,True,"(-0.031514985005665644, 0.18697919729671802, 0.039999423131880964)","(0.999855541194272, -0.016987170637951562, -0.0005768681190417464)",-1.4448904906272056e-05,4.017716080471504,True,"(0.03370768768885764, 0.18659680184762334, 0.04000057686811903)","(-0.9998555411942718, 0.01698717063796147, 0.000576868119031651)",0.0013141963836554177,0.0
26,Move,"(0.00757, 0.0, 0.010730000000000002)","(0.0, 0.034222415973104825, 0.0)","(0.00023284520090526996, 0.1713347499623297, 0.0009876512372367372)","(1.5712261240854053, 0.00036161584077215814, -0.018325581741238602)","[-5.2058472032734496e-05, 4.946734886551729e-05, -0.0008791203534655064]","[-0.026750000193715096, 0.05299999937415123, 0.03999999910593033]","[0.0, -0.0, 0.546235818308245]","[-0.06415215879678726, 0.11452299356460571, 0.03999999910593033]","[0.0, 0.0, -0.20878166442402707]","[0.026750000193715096, 0.05299999937415123, 0.03999999910593033]","[0.0, 0.0, -0.5799269347885921]","[0.06620332598686218, 0.1132281944155693, 0.03999999910593033]","[0.0, -0.0, 0.18447476725202874]",0.5460639465746615,-0.04123330681207258,"(0.0, 0.0, 0.0, 0.0, 0.0, 0.0)",-0.504844022088377,-0.7548465169448905,0.041016661161755064,"(0.0, 0.0, 0.0, 0.0, 0.0, 0.0)",-0.2824848051781083,-0.5823214805614019,-0.5746867025241277,"(0.0, 0.0, 0.0, 0.0, 0.0, 0.0)",0.09357801266433032,0.7644016926031839,-1.6115109247039072e-11,"(0.0, 0.0, 0.0, 0.0, 0.0, 0.0)",0.0069745193355632085,True,"(-0.03143649156035164, 0.18700558181286014, 0.03999962092196689)","(0.99983534023082, -0.018142456431399376, -0.00037907803311013066)",-6.4323514179742385e-06,3.827023415544102,False,,,,
27,Move,"(0.00757, 0.0, 0.010730000000000002)","(0.0, 0.034222415973104825, 0.0)","(0.0019115541571084328, 0.17246442168891332, 0.002232590280075835)","(1.5323895729885308, 0.009660710838559211, -0.05602164135986057)","[0.0016266504841704285, 0.0011791390754491426, 0.0003658186893735914]","[-0.026750000193715096, 0.05299999937415123, 0.03999999910593033]","[0.0, -0.0, 0.49219526982357636]","[-0.06077444180846214, 0.11645342409610748, 0.03999999910593033]","[0.0, 0.0, -0.20349098782740235]","[0.026750000193715096, 0.05299999937415123, 0.03999999910593033]","[0.0, 0.0, -0.5281267134164788]","[0.06303197145462036, 0.11519018560647964, 0.03999999910593033]","[0.0, -0.0, 0.1819662706960208]",0.4784123089776345,-3.3079104897512632,"(0.0, 0.0, 0.0, 0.0, 0.0, 0.0)",-70.55240690752468,-0.6702320250306245,6.109011910867971,"(0.0, 0.0, 0.0, 0.0, 0.0, 0.0)",-38.29645282264426,-0.513509353162609,3.508181440854917,"(0.0, 0.0, 0.0, 0.0, 0.0, 0.0)",66.86745834669156,0.6872271335156848,-5.487814924985489,"(0.0, 0.0, 0.0, 0.0, 0.0, 0.0)",34.478361539292806,True,"(-0.028442719780846983, 0.18910779294386748, 0.03999965058015628)","(0.9998298216743206, -0.0184446630890723, -0.000349419843720364)",-0.0001982450198907668,521.505110254358,True,"(0.032292210114436136, 0.1884618678497476, 0.04215677684932416)","(-0.9985853471973775, 0.05182196267402656, 0.011907499624384126)",-0.0030260787297659185,495.7104537268739
28,Move,"(0.01042, 0.0, 0.01632)","(0.0, 0.034222415973104825, 0.0)","(0.002129186775531968, 0.17277025437737184, 0.0032769759344664137)","(1.489652840770112, 7.713220711179106e-05, -0.06033654534956587)","[0.0018442831025939637, 0.001484971763907661, 0.00141020434376417]","[-0.026750000193715096, 0.05299999937415123, 0.03999999910593033]","[0.0, -0.0, 0.46994101399723587]","[-0.0593540221452713, 0.11719483882188797, 0.03999999910593033]","[0.0, 0.0, -0.18341218169303117]","[0.026750000193715096, 0.05299999937415123, 0.03999999910593033]","[0.0, 0.0, -0.5177596151130078]","[0.06238529458642006, 0.11556297540664673, 0.03999999910593033]","[0.0, -0.0, 0.1542032373313333]",0.47100009062793025,0.2541914791417332,"(0.0, 0.0, 0.0, 0.0, 0.0, 0.0)",-0.5731494791515312,-0.6550173213173185,-0.3994081896677583,"(0.0, 0.0, 0.0, 0.0, 0.0, 0.0)",-0.31929870716577013,-0.5224400651924485,-1.1233119579000403,"(0.0, 0.0, 0.0, 0.0, 0.0, 0.0)",0.17843733241347343,0.6734892375399041,0.3663438926874835,"(0.0, 0.0, 0.0, 0.0, 0.0, 0.0)",0.009183614950225827,True,"(-0.028489393273968662, 0.19041542575443537, 0.03999786703692552)","(0.998114221431274, -0.061346975843675135, -0.0021329630744808476)",-0.0003362281012310633,3.9750520238358935,True,"(0.03369136536664572, 0.1896597437962343, 0.04215677684932416)","(-0.9985853471973775, 0.05182196267402656, 0.011907499624384126)",-0.0014827592545359485,0.0
29,Move,"(0.013139999999999999, 0.0, 0.02101)","(0.0, -0.0, 0.0)","(0.002334296307067045, 0.17279539306955977, 0.0032052185939143384)","(1.4928906917750644, -0.0014924607402064126, -0.05605986467963444)","[0.0020493926341290407, 0.001510110456095587, 0.0013384470032120949]","[-0.026750000193715096, 0.05299999937415123, 0.03999999910593033]","[0.0, -0.0, 0.472212799582602]","[-0.05949977785348892, 0.11712060868740082, 0.03999999910593033]","[0.0, 0.0, -0.18390343588578187]","[0.026750000193715096, 0.05299999937415123, 0.03999999910593033]","[0.0, 0.0, -0.5422534749779965]","[0.06390685588121414, 0.11467145383358002, 0.03999999910593033]","[0.0, -0.0, 0.13223707761091663]",0.4722827175884673,0.016780709402072432,"(0.0, 0.0, 0.0, 0.0, 0.0, 0.0)",-0.003048310849200696,-0.6560067757873123,0.02626714395607662,"(0.0, 0.0, 0.0, 0.0, 0.0, 0.0)",-0.0005346564205840599,-0.5464501795903742,-1.007216954502371,"(0.0, 0.0, 0.0, 0.0, 0.0, 0.0)",0.1642769991154282,0.674390368833686,-0.024034095707830064,"(0.0, 0.0, 0.0, 0.0, 0.0, 0.0)",0.012504918010269993,True,"(-0.028598838813234304, 0.19033182228084394, 0.04000162204496876)","(0.9984276213285237, -0.056032614952234806, 0.0016220449687585836)",-0.00015319847586154527,0.0,True,"(0.03682958897624266, 0.18944123130589124, 0.03999837795503125)","(-0.998427621328524, 0.056032614952230005, -0.0016220449687547624)",0.001608646502532235,0.0
30,Move,"(0.01596, 0.0, 0.02438)","(0.0, 0.01863837108204745, 0.0)","(0.002368107903489659, 0.17267462397264763, 0.0019592458409889812)","(1.5353174425879257, -0.0009284365935145156, -0.055863509817295015)","[0.0020832042305516545, 0.0013893413591834491, 9.247425028673767e-05]","[-0.026750000193715096, 0.05299999937415123, 0.03999999910593033]","[0.0, -0.0, 0.4719965530354237]","[-0.05948590859770775, 0.1171276867389679, 0.03999999910593033]","[0.0, 0.0, -0.18356602889652282]","[0.026750000193715096, 0.05299999937415123, 0.03999999910593033]","[0.0, 0.0, -0.5691643036150494]","[0.06555283814668655, 0.11364931613206863, 0.03999999910593033]","[0.0, -0.0, 0.1051603221514915]",0.4719020069419751,-0.022680881215698,"(0.0, 0.0, 0.0, 0.0, 0.0, 0.0)",-0.4301491221558395,-0.6554783714339885,0.020201641289147098,"(0.0, 0.0, 0.0, 0.0, 0.0, 0.0)",-0.21943493268967929,-0.5742584979834702,-1.2225962030261872,"(0.0, 0.0, 0.0, 0.0, 0.0, 0.0)",0.1990089196280677,0.6743312369101995,0.0015768512929739131,"(0.0, 0.0, 0.0, 0.0, 0.0, 0.0)",0.01480076395606603,True,"(-0.028609683426743547, 0.19034910812971456, 0.04000102887296921)","(0.99843509963554, -0.055913265297089156, 0.0010288729692165671)",-9.080170141990239e-05,3.129232255729128,False,,,,
31,Move,"(0.01596, 0.0, 0.02438)","(0.0, 0.01863837108204745, 0.0)","(0.004755074641502366, 0.17512608078206154, 0.0013110826555361524)","(1.573842339181188, 0.015945773497988074, -0.07751828791432426)","[0.004470170968564361, 0.0038407981685973647, -0.0005556889351660912]","[-0.026750000193715096, 0.05299999937415123, 0.03999999910593033]","[0.0, -0.0, 0.4207825843916087]","[-0.05616019293665886, 0.11871940642595291, 0.03999999910593033]","[0.0, 0.0, -0.18484304043744745]","[0.026750000193715096, 0.05299999937415123, 0.03999999910593033]","[0.0, 0.0, -0.5225065760090255]","[0.06268186867237091, 0.11539311707019806, 0.03999999910593033]","[0.0, -0.0, 0.10119507633113231]",0.4076969637966811,-3.1405457661567717,"(0.0, 0.0, 0.0, 0.0, 0.0, 0.0)",-63.265732667873515,-0.5827542005586644,5.489135535320384,"(0.0, 0.0, 0.0, 0.0, 0.0, 0.0)",-33.87950660801378,-0.5079797362388495,3.486420478012343,"(0.0, 0.0, 0.0, 0.0, 0.0, 0.0)",62.872992166988574,0.6003669253681287,-5.600313554897229,"(0.0, 0.0, 0.0, 0.0, 0.0, 0.0)",34.39586997914717,True,"(-0.025190478604733148, 0.1919014984055521, 0.040000831282561586)","(0.9984436825280488, -0.055763086259027476, 0.0008312825615840871)",-0.0002156625194983048,457.81920431188814,True,"(0.037948437893364, 0.19085159891694956, 0.04216078780749242)","(-0.9968485404481958, 0.07771509261162009, 0.01591702819840795)",-0.0007090969287089278,457.91879912706713
32,Move,"(0.01808, 0.0, 0.026910000000000003)","(0.0, 0.01863837108204745, 0.0)","(0.005335364705407176, 0.17742322780150038, 0.0009167499381296854)","(1.5689308473353183, 0.005050172113045436, -0.09462725898586329)","[0.0050504610324691715, 0.0061379451880362035, -0.0009500216525725582]","[-0.026750000193715096, 0.05299999937415123, 0.03999999910593033]","[0.0, -0.0, 0.39830411162032475]","[-0.05467560887336731, 0.11936384439468384, 0.03999999910593033]","[0.0, 0.0, -0.1694004144582014]","[0.026750000193715096, 0.05299999937415123, 0.03999999910593033]","[0.0, 0.0, -0.5195792044808815]","[0.06249907612800598, 0.11549802869558334, 0.03999999910593033]","[0.0, -0.0, 0.0654710912574879]",0.39894536162976224,0.15392068372024353,"(0.0, 0.0, 0.0, 0.0, 0.0, 0.0)",-0.9706164727573606,-0.5691769704623525,-0.353406165873159,"(0.0, 0.0, 0.0, 0.0, 0.0, 0.0)",-0.5458561107937425,-0.5262153419094137,-1.592672357106407,"(0.0, 0.0, 0.0, 0.0, 0.0, 0.0)",0.2547924347942914,0.586581959195762,0.367599097929781,"(0.0, 0.0, 0.0, 0.0, 0.0, 0.0)",0.014849792064396771,True,"(-0.024860858106652443, 0.19286243789208585, 0.037845986594740304)","(0.9959711989335434, -0.08920640831987192, -0.009142625965692089)",-0.0002962619271359043,6.892492867457892,True,"(0.04047399304714326, 0.1917676950459208, 0.04215401340525969)","(-0.9959711989335442, 0.08920640831986389, 0.009142625965687703)",0.0015061649849264249,0.0
33,Move,"(0.019960000000000002, 0.0, 0.028120000000000003)","(0.0, 0.06885498432042829, 0.0)","(0.0063179646834264636, 0.1782370378909774, 0.0007508608032983503)","(1.5709873314764518, -0.004224623693521118, -0.12082457355471893)","[0.006033061010488459, 0.006951755277513211, -0.0011159107874038933]","[-0.026750000193715096, 0.05299999937415123, 0.03999999910593033]","[0.0, -0.0, 0.3952654301498826]","[-0.05447382852435112, 0.11944839358329773, 0.03999999910593033]","[0.0, 0.0, -0.17477695250807773]","[0.026750000193715096, 0.05299999937415123, 0.03999999910593033]","[0.0, 0.0, -0.5538986125345489]","[0.06462249904870987, 0.11423458158969879, 0.03999999910593033]","[0.0, -0.0, 0.03368822917678076]",0.39411988097447387,-0.2749331635608561,"(0.0, 0.0, 0.0, 0.0, 0.0, 0.0)",-0.22480494280528707,-0.5699265609706362,0.027798169489982576,"(0.0, 0.0, 0.0, 0.0, 0.0, 0.0)",-0.15646351492653018,-0.5597389384372013,-1.4016679601640645,"(0.0, 0.0, 0.0, 0.0, 0.0, 0.0)",0.22845463555611228,0.5874863893088548,-0.02411813634914317,"(0.0, 0.0, 0.0, 0.0, 0.0, 0.0)",0.0172763436266491,True,"(-0.024264745791620263, 0.19278117547741247, 0.03785007907005973)","(0.9955134857154412, -0.09448489687321493, -0.005050150646264375)",-0.00012771702087354363,0.15560240621755383,False,,,,
34,Move,"(0.019960000000000002, 0.0, 0.028120000000000003)","(0.0, 0.06885498432042829, 0.0)","(0.0085603977838462, 0.1789389952625016, 0.0017776743121799231)","(1.5410996017743313, 0.006152999557865169, -0.14463198398902932)","[0.008275494110908195, 0.007653712649037414, -8.909727852232045e-05]","[-0.026750000193715096, 0.05299999937415123, 0.03999999910593033]","[0.0, -0.0, 0.34424772356294164]","[-0.05104918032884598, 0.1207757294178009, 0.03999999910593033]","[0.0, 0.0, -0.1752294660726429]","[0.026750000193715096, 0.05299999937415123, 0.03999999910593033]","[0.0, 0.0, -0.5101036061204698]","[0.06190526857972145, 0.11583396047353745, 0.03999999910593033]","[0.0, -0.0, 0.03098306469969573]",0.33177124063675284,-2.9943480126116606,"(0.0, 0.0, 0.0, 0.0, 0.0, 0.0)",-63.75660479267872,-0.4964076001841789,5.536689818513875,"(0.0, 0.0, 0.0, 0.0, 0.0, 0.0)",-33.72396516664125,-0.4959449456964341,3.3980704767891647,"(0.0, 0.0, 0.0, 0.0, 0.0, 0.0)",60.20048082972904,0.5197816391693817,-5.113200149055985,"(0.0, 0.0, 0.0, 0.0, 0.0, 0.0)",31.676680948828533,True,"(-0.020809345633436005, 0.1940729259853014, 0.04214875729966408)","(0.9924199202134669, -0.12283157950180806, 0.0038865203700714033)",-0.00033702717538937587,452.6657375070926,True,"(0.04252582608613592, 0.19283757888248687, 0.042153889446122424)","(-0.98963122442672, 0.14334818899556784, 0.009018666828415367)",-0.0007040864234667023,430.32622004093577
35,Move,"(0.02126, 0.0, 0.028499999999999998)","(0.0, 0.03438473159354028, 0.0)","(0.009786233888136535, 0.1786255832190808, 0.002683036448018441)","(1.5063811152339825, -0.0006539374090427895, -0.1326782622171367)","[0.00950133021519853, 0.007340300605616634, 0.0008162648573161976]","[-0.026750000193715096, 0.05299999937415123, 0.03999999910593033]","[0.0, -0.0, 0.31914842137628147]","[-0.04934058338403702, 0.12136421352624893, 0.03999999910593033]","[0.0, 0.0, -0.1618148321238927]","[0.026750000193715096, 0.05299999937415123, 0.03999999910593033]","[0.0, 0.0, -0.5112425618778447]","[0.06197681277990341, 0.11579388380050659, 0.03999999910593033]","[0.0, 0.0, -0.005754685365025058]",0.3187669748369437,-0.09154864607989555,"(0.0, 0.0, 0.0, 0.0, 0.0, 0.0)",-0.4200562273655527,-0.4824984824456596,-0.36845234466026866,"(0.0, 0.0, 0.0, 0.0, 0.0, 0.0)",-0.21956500541671628,-0.5187933567580489,-1.8121952241789483,"(0.0, 0.0, 0.0, 0.0, 0.0, 0.0)",0.2907981868473168,0.5069172364725482,0.34305073858222723,"(0.0, 0.0, 0.0, 0.0, 0.0, 0.0)",0.017800233825315447,True,"(-0.020086694644062958, 0.19506045476124126, 0.04214875729966408)","(0.9924199202134669, -0.12283157950180806, 0.0038865203700714033)",-0.00039053891559392696,3.0546665709833496,True,"(0.045438749099548294, 0.19345733577639582, 0.042153889446122424)","(-0.98963122442672, 0.14334818899556784, 0.009018666828415367)",0.001633560126410503,0.0
36,Move,"(0.022420000000000002, 0.0, 0.02844)","(0.0, 0.051312680008633295, 0.0)","(0.011229111239523255, 0.17840058877085618, 0.0025337629634963705)","(1.514620526705756, -0.0003321426359290165, -0.11700549384426584)","[0.01094420756658525, 0.007115306157392004, 0.000666991372794127]","[-0.026750000193715096, 0.05299999937415123, 0.03999999910593033]","[0.0, -0.0, 0.31279623029043185]","[-0.0489058680832386, 0.12150633335113525, 0.03999999910593033]","[0.0, 0.0, -0.17060135061664766]","[0.026750000193715096, 0.05299999937415123, 0.03999999910593033]","[0.0, 0.0, -0.547997775048701]","[0.06426049768924713, 0.11445699632167816, 0.03999999910593033]","[0.0, 0.0, -0.04014265650050399]",0.31128130706571244,-0.3635808228903905,"(0.0, 0.0, 0.0, 0.0, 0.0, 0.0)",-0.1832923252093005,-0.48328649130852913,0.02666035156247287,"(0.0, 0.0, 0.0, 0.0, 0.0, 0.0)",-0.11710676672751305,-0.5540257073000752,-1.4467201989674663,"(0.0, 0.0, 0.0, 0.0, 0.0, 0.0)",0.2357644600705687,0.5077612690097337,-0.022507534324948786,"(0.0, 0.0, 0.0, 0.0, 0.0, 0.0)",0.017801239702510796,True,"(-0.019005583258832184, 0.1949426933487075, 0.04214875729966408)","(0.9924199202134669, -0.12283157950180806, 0.0038865203700714033)",-0.00023555246455332532,1.5359766473048158,False,,,,
37,Move,"(0.022420000000000002, 0.0, 0.02844)","(0.0, 0.051312680008633295, 0.0)","(0.014367060233861025, 0.18027827950538974, 0.0021955554053087506)","(1.5483889750952928, 0.017086102404791324, -0.11803664322923649)","[0.01408215656092302, 0.008992996891925564, 0.00032878381460650706]","[-0.026750000193715096, 0.05299999937415123, 0.03999999910593033]","[0.0, -0.0, 0.26366757785787354]","[-0.04551486298441887, 0.12251172214746475, 0.03999999910593033]","[0.0, 0.0, -0.17668540043009748]","[0.026750000193715096, 0.05299999937415123, 0.03999999910593033]","[0.0, 0.0, -0.5075046048694605]","[0.061741847544908524, 0.11592511832714081, 0.03999999910593033]","[0.0, 0.0, -0.04578953663114212]",0.25190572197322114,-2.822844432035871,"(0.0, 0.0, 0.0, 0.0, 0.0, 0.0)",-58.34841800181826,-0.419453724802029,5.015819719869285,"(0.0, 0.0, 0.0, 0.0, 0.0, 0.0)",-30.227433535250434,-0.49413960506147875,3.2076056386160876,"(0.0, 0.0, 0.0, 0.0, 0.0, 0.0)",57.87063961774545,0.4396983335887111,-5.284021857798841,"(0.0, 0.0, 0.0, 0.0, 0.0, 0.0)",32.244378051141815,True,"(-0.015173112848027512, 0.19573099811416336, 0.03785304318765807)","(0.9901712532279887, -0.1398446915225498, -0.002086033047919385)",-0.00020176549140689092,404.65958381035415,True,"(0.04829402487096571, 0.1937738684453589, 0.044224455905010354)","(-0.992720974462696, 0.11929489262447482, 0.016546765712681075)",-0.0005430921128348809,410.61731148873616
38,Move,"(0.023710000000000002, 0.0, 0.02832)","(0.0, 0.06885498432042829, 0.0)","(0.015654086982650924, 0.182752682696691, 0.0016065934693349822)","(1.5774786040615256, 0.014407442099225494, -0.13504182651338)","[0.015369183309712918, 0.01146740008322683, -0.0002601781213672613]","[-0.026750000193715096, 0.05299999937415123, 0.03999999910593033]","[0.0, -0.0, 0.23915052233677814]","[-0.04380517080426216, 0.12295084446668625, 0.03999999910593033]","[0.0, 0.0, -0.16645394798458402]","[0.026750000193715096, 0.05299999937415123, 0.03999999910593033]","[0.0, 0.0, -0.5086392080326326]","[0.061813220381736755, 0.11588537693023682, 0.03999999910593033]","[0.0, 0.0, -0.08338860418605597]",0.23856595319224236,-0.1402934184455711,"(0.0, 0.0, 0.0, 0.0, 0.0, 0.0)",0.025982372935878247,-0.40698988186950885,-0.3325028437112269,"(0.0, 0.0, 0.0, 0.0, 0.0, 0.0)",0.005164967518070564,-0.5157735049231873,-1.7122247455637891,"(0.0, 0.0, 0.0, 0.0, 0.0, 0.0)",0.2744856519655359,0.4266951401227535,0.3466821488782159,"(0.0, 0.0, 0.0, 0.0, 0.0, 0.0)",0.01654054975433729,True,"(-0.014214135547953456, 0.19647672370685648, 0.03785304318765807)","(0.9901712532279887, -0.1398446915225498, -0.002086033047919385)",-0.0002100634548404616,0.0,True,"(0.051301252750639105, 0.19418461198278197, 0.044224455905010354)","(-0.992720974462696, 0.11929489262447482, 0.016546765712681075)",0.0014554972689130767,0.0
39,Move,"(0.02481, 0.0, 0.028210000000000002)","(0.0, 0.1033252370473163, 0.0)","(0.01798952786883065, 0.18399841887635116, 0.0007981834302271924)","(1.569561133707341, -0.004133930073755231, -0.1890583982557591)","[0.017704624195892648, 0.012713136262886976, -0.0010685881604750513]","[-0.026750000193715096, 0.05299999937415123, 0.03999999910593033]","[0.0, -0.0, 0.22977558264069847]","[-0.043148647993803024, 0.1231076642870903, 0.03999999910593033]","[0.0, 0.0, -0.1780237397436383]","[0.026750000193715096, 0.05299999937415123, 0.03999999910593033]","[0.0, 0.0, -0.544206866222804]","[0.06402725726366043, 0.11459875106811523, 0.03999999910593033]","[0.0, 0.0, -0.1165638439730479]",0.22755070229124857,-0.5339685479744558,"(0.0, 0.0, 0.0, 0.0, 0.0, 0.0)",-0.5027842203102322,-0.4077170606800755,0.01973852088165173,"(0.0, 0.0, 0.0, 0.0, 0.0, 0.0)",-0.24475471479388167,-0.5501283705204917,-1.4211505174003989,"(0.0, 0.0, 0.0, 0.0, 0.0, 0.0)",0.231607612119108,0.4275482795313921,-0.022750414807138675,"(0.0, 0.0, 0.0, 0.0, 0.0, 0.0)",0.017495199643647347,True,"(-0.012854960336362194, 0.1954744135295577, 0.03388552327661584)","(0.9877275585323642, -0.15610529359913602, -0.005040577945304492)",-0.00011047430634805746,0.0,False,,,,
40,Move,"(0.02481, 0.0, 0.028210000000000002)","(0.0, 0.1033252370473163, 0.0)","(0.020997325396217372, 0.1848323882766894, 0.0008391088617600547)","(1.5674691553662128, 0.005858459662094974, -0.13351268012429776)","[0.02071242172327937, 0.013547105663225228, -0.0010276627289421889]","[-0.026750000193715096, 0.05299999937415123, 0.03999999910593033]","[0.0, -0.0, 0.18087001148868004]","[-0.03970175236463547, 0.12382550537586212, 0.03999999910593033]","[0.0, 0.0, -0.18885687548382687]","[0.026750000193715096, 0.05299999937415123, 0.03999999910593033]","[0.0, 0.0, -0.5059343693756703]","[0.06164299324154854, 0.11597999185323715, 0.03999999910593033]","[0.0, 0.0, -0.12451998078015529]",0.16945474143803202,-2.7396649330359115,"(0.0, 0.0, 0.0, 0.0, 0.0, 0.0)",-54.9648769745497,-0.3490237385703261,4.968756054562312,"(0.0, 0.0, 0.0, 0.0, 0.0, 0.0)",-27.69351897791496,-0.49327445495617883,3.03836316314579,"(0.0, 0.0, 0.0, 0.0, 0.0, 0.0)",56.69079274334502,0.3594941827542604,-5.260834832247012,"(0.0, 0.0, 0.0, 0.0, 0.0, 0.0)",31.802549059956736,True,"(-0.00852674199715163, 0.196382762259269, 0.03578294374115132)","(0.9879511386297742, -0.15449555943150117, -0.009147119551004307)",-0.001071189647608962,376.2893509203895,True,"(0.05435369746984088, 0.19461398722838708, 0.04421705625884869)","(-0.9879511386297704, 0.15449555943152476, 0.009147119551006621)",-0.00036851034935778153,394.4502531526078
41,Move,"(0.02648, 0.0, 0.02769)","(0.0, 0.12143826402451346, 0.0)","(0.022565451408171632, 0.18615543359623923, 0.0010682104311743844)","(1.5731667365575828, 0.012608413378880249, -0.16388422534166253)","[0.02228054773523363, 0.014870150982775054, -0.0007985611595278592]","[-0.026750000193715096, 0.05299999937415123, 0.03999999910593033]","[0.0, -0.0, 0.15302093577853224]","[-0.037724561989307404, 0.12415868788957596, 0.03999999910593033]","[0.0, 0.0, -0.178925701647999]","[0.026750000193715096, 0.05299999937415123, 0.03999999910593033]","[0.0, 0.0, -0.5096257755093956]","[0.06187524273991585, 0.11585075408220291, 0.03999999910593033]","[0.0, 0.0, -0.16322781723280408]",0.15129712518028146,-0.4137141269504161,"(0.0, 0.0, 0.0, 0.0, 0.0, 0.0)",-0.49792252321496255,-0.3336134285742047,-0.4000325955060916,"(0.0, 0.0, 0.0, 0.0, 0.0, 0.0)",-0.3089241429153524,-0.5169694810508291,-1.762489574004108,"(0.0, 0.0, 0.0, 0.0, 0.0, 0.0)",0.2830606393052284,0.34770756434215927,0.31430982432269733,"(0.0, 0.0, 0.0, 0.0, 0.0, 0.0)",0.017546908163375376,True,"(-0.0073635057410727615, 0.1965118666537452, 0.03387902812474096)","(0.9894522887539827, -0.14439908315851757, -0.011535729820193555)",-0.0007629910640043838,0.8541289313327879,True,"(0.05763440205764959, 0.19470793321196997, 0.04421705625884869)","(-0.9879511386297704, 0.15449555943152476, 0.009147119551006621)",0.0012145019884918953,0.0
42,Move,"(0.02719, 0.0, 0.02732)","(0.0, 0.1033252370473163, 0.0)","(0.025199340556934176, 0.18686904068251028, 0.000832073983659056)","(1.5687696636880395, 0.004901608995857908, -0.20144932898194406)","[0.024914436883996173, 0.015583758069046105, -0.0010346976070431876]","[-0.026750000193715096, 0.05299999937415123, 0.03999999910593033]","[0.0, -0.0, 0.1398053057409439]","[-0.03678322210907936, 0.12429750710725784, 0.03999999910593033]","[0.0, 0.0, -0.19475218828281993]","[0.026750000193715096, 0.05299999937415123, 0.03999999910593033]","[0.0, 0.0, -0.5454558326659662]","[0.06410416215658188, 0.11455214768648148, 0.03999999910593033]","[0.0, 0.0, -0.19688901759705377]",0.13712825667839904,-0.6424896458415686,"(0.0, 0.0, 0.0, 0.0, 0.0, 0.0)",-0.486809813584373,-0.3344637691729777,0.022491675261983892,"(0.0, 0.0, 0.0, 0.0, 0.0, 0.0)",-0.23607496707315126,-0.5513408133981352,-1.4123986327364302,"(0.0, 0.0, 0.0, 0.0, 0.0, 0.0)",0.23015808156538903,0.34848088437617725,-0.02062186757381213,"(0.0, 0.0, 0.0, 0.0, 0.0, 0.0)",0.017363720279550642,True,"(-0.006066630482646652, 0.19217544190565417, 0.0290960208443892)","(0.9820277986556328, -0.18845678440893882, -0.010268547989595277)",-0.0005279721066057422,0.0,False,,,,
43,Move,"(0.02719, 0.0, 0.02732)","(0.0, 0.1033252370473163, 0.0)","(0.028666002460177607, 0.18748654186348193, 0.0005644676600724845)","(1.572187766153253, -0.019529324979692897, -0.16650355419702823)","[0.028381098787239604, 0.016201259250017752, -0.001302303930629759]","[-0.026750000193715096, 0.05299999937415123, 0.03999999910593033]","[0.0, -0.0, 0.09342979798084834]","[-0.033467162400484085, 0.12468598037958145, 0.03999999910593033]","[0.0, 0.0, -0.19096779241682207]","[0.026750000193715096, 0.05299999937415123, 0.03999999910593033]","[0.0, 0.0, -0.511506575571038]","[0.06199339032173157, 0.11578457802534103, 0.03999999910593033]","[0.0, 0.0, -0.20850531509174403]",0.08310124963219309,-2.4788499046326633,"(0.0, 0.0, 0.0, 0.0, 0.0, 0.0)",-67.84536351737079,-0.26024437310997267,5.796769672964065,"(0.0, 0.0, 0.0, 0.0, 0.0, 0.0)",-34.19153691624759,-0.5005253753184344,2.6354777349532448,"(0.0, 0.0, 0.0, 0.0, 0.0, 0.0)",69.62914893181059,0.2818973096015586,-5.064941054688744,"(0.0, 0.0, 0.0, 0.0, 0.0, 0.0)",31.149298077473638,True,"(-0.003007666871903937, 0.19267967280727627, 0.0290960208443892)","(0.9820277986556328, -0.18845678440893882, -0.010268547989595277)",-0.00011971529059600502,476.58867108450465,True,"(0.06131955770340907, 0.19472581138366094, 0.04421016746659294)","(-0.9791832915462736, 0.20296546877346577, 0.0022583272952651566)",-0.00034056593504346256,302.1340175993918
44,Move,"(0.02844, 0.0, 0.026790000000000005)","(0.0, 0.13771171397010862, 0.0)","(0.03025041418113455, 0.18806863018725492, 0.0006162034001399749)","(1.5848182679929417, 0.0019488187337953862, -0.15761394243047455)","[0.029965510508196548, 0.01678334757379074, -0.0012505681905622687]","[-0.026750000193715096, 0.05299999937415123, 0.03999999910593033]","[0.0, -0.0, 0.0639024617247995]","[-0.0313478447496891, 0.12485304474830627, 0.03999999910593033]","[0.0, 0.0, -0.17916775763289047]","[0.026750000193715096, 0.05299999937415123, 0.03999999910593033]","[0.0, 0.0, -0.5174071934971389]","[0.062363240867853165, 0.11557552963495255, 0.03999999910593033]","[0.0, 0.0, -0.24979506660488862]",0.06121701589862037,-0.6445061677117878,"(0.0, 0.0, 0.0, 0.0, 0.0, 0.0)",-0.33543325314209155,-0.24468231404716476,-0.3869048117513246,"(0.0, 0.0, 0.0, 0.0, 0.0, 0.0)",-0.21491828818921727,-0.5245937668957488,-1.724785397873956,"(0.0, 0.0, 0.0, 0.0, 0.0, 0.0)",0.38250735640132205,0.2690113832986024,0.3358292598892554,"(0.0, 0.0, 0.0, 0.0, 0.0, 0.0)",0.05238017674635688,True,"(-0.0016927806839382824, 0.19320141709124264, 0.0290960208443892)","(0.9820277986556328, -0.18845678440893882, -0.010268547989595277)",-2.6082212731202037e-05,3.1088206307655777,True,"(0.05426970855021556, 0.15262028848582673, 0.02899797967678123)","(-0.9689611084047302, 0.24720488248751565, -0.0020289094140080515)",-0.0022135964394007167,1.0109427823157189
45,Move,"(0.02917, 0.0, 0.02633)","(0.0, 0.13771171397010862, 0.0)","(0.03267668731138642, 0.18812379714499727, 0.0006249004189897091)","(1.5700976500427033, 0.007348968459165212, -0.182237771617182)","[0.03239178363844841, 0.016838514531533094, -0.0012418711717125345]","[-0.026750000193715096, 0.05299999937415123, 0.03999999910593033]","[0.0, -0.0, 0.04731053771403169]","[-0.030155086889863014, 0.12491943687200546, 0.03999999910593033]","[0.0, 0.0, -0.19829384898526123]","[0.026750000193715096, 0.05299999937415123, 0.03999999910593033]","[0.0, 0.0, -0.5516733661219345]","[0.06448613852262497, 0.11431870609521866, 0.03999999910593033]","[0.0, 0.0, -0.2817225323346658]",0.04421754935252398,-0.7423158164072605,"(0.0, 0.0, 0.0, 0.0, 0.0, 0.0)",-0.017879968365846727,-0.2454996037828497,0.02515435331901405,"(0.0, 0.0, 0.0, 0.0, 0.0, 0.0)",-0.06496738982459348,-0.5572189812656421,-1.3309630310600709,"(0.0, 0.0, 0.0, 0.0, 0.0, 0.0)",0.21693239574353898,0.26985682892333934,-0.022545216659652034,"(0.0, 0.0, 0.0, 0.0, 0.0, 0.0)",0.01640270614482812,True,"(0.0008017141370550603, 0.1926881577838595, 0.0290960208443892)","(0.9820277986556328, -0.18845678440893882, -0.010268547989595277)",-1.8443442107106214e-05,0.9714139114924113,True,"(0.05757927416049938, 0.1516029481102535, 0.02899797967678123)","(-0.9689611084047302, 0.24720488248751565, -0.0020289094140080515)",-0.0007921975350287402,0.0
46,Move,"(0.029930000000000002, 0.0, 0.025990000000000003)","(0.0, 0.13771171397010862, 0.0)","(0.03566709102910729, 0.18777188158057836, 0.0005868346549290214)","(1.5693437411959374, -0.0013962548582593902, -0.1794620725193844)","[0.035382187356169284, 0.016486598967114185, -0.0012799369357732221]","[-0.026750000193715096, 0.05299999937415123, 0.03999999910593033]","[0.0, -0.0, 0.02917552463274391]","[-0.028850339353084564, 0.12496935576200485, 0.03999999910593033]","[0.0, 0.0, -0.21595818945383782]","[0.026750000193715096, 0.05299999937415123, 0.03999999910593033]","[0.0, 0.0, -0.5833593889120681]","[0.06640981882810593, 0.11309241503477097, 0.03999999910593033]","[0.0, 0.0, -0.3135641511240887]",0.025872397593246357,-0.7927503066148193,"(0.0, 0.0, 0.0, 0.0, 0.0, 0.0)",-0.24986337961573346,-0.24515991695098485,-0.0062879075383845875,"(0.0, 0.0, 0.0, 0.0, 0.0, 0.0)",-0.18869825068361132,-0.5890485850800405,-1.3654151319245884,"(0.0, 0.0, 0.0, 0.0, 0.0, 0.0)",0.22224719814217714,0.2698013592359003,0.0014791916650400694,"(0.0, 0.0, 0.0, 0.0, 0.0, 0.0)",0.016528755281409326,True,"(0.0032986581246938866, 0.19218070488330868, 0.0290960208443892)","(0.9820277986556328, -0.18845678440893882, -0.010268547989595277)",0.00010961855853361028,0.0,True,"(0.060693446123404944, 0.15057764846094618, 0.02899797967678123)","(-0.9689611084047302, 0.24720488248751565, -0.0020289094140080515)",-5.098942311931826e-05,0.0
47,Move,"(0.03019, 0.0, 0.02582)","(0.0, 0.156351830381408, 0.0)","(0.038282013426477246, 0.18748780446689214, 0.0006998672362420541)","(1.5735610095319397, 0.0013908303525745841, -0.18057262129021798)","[0.03799710975353924, 0.016202521853427965, -0.0011669043544601894]","[-0.026750000193715096, 0.05299999937415123, 0.03999999910593033]","[0.0, -0.0, 0.010727267075328215]","[-0.02752234786748886, 0.12499585747718811, 0.03999999910593033]","[0.0, 0.0, -0.23426203180629665]","[0.026750000193715096, 0.05299999937415123, 0.03999999910593033]","[0.0, 0.0, -0.6145084881188074]","[0.06826210021972656, 0.11182809621095657, 0.03999999910593033]","[0.0, 0.0, -0.34470308238241515]",0.007450468498525149,-0.7864316537567253,"(0.0, 0.0, 0.0, 0.0, 0.0, 0.0)",-0.18483349586339265,-0.2449737583997634,0.003735211056953878,"(0.0, 0.0, 0.0, 0.0, 0.0, 0.0)",-0.16110719304276222,-0.6199799151657771,-1.3131423796873343,"(0.0, 0.0, 0.0, 0.0, 0.0, 0.0)",0.21376161584280332,0.2698049977443406,-9.702689173973766e-05,"(0.0, 0.0, 0.0, 0.0, 0.0, 0.0)",0.015915893517306667,True,"(0.005851422581164528, 0.19160752710141205, 0.0290960208443892)","(0.9820277986556328, -0.18845678440893882, -0.010268547989595277)",0.00023857840632737965,0.0,True,"(0.06416082838696552, 0.15071329479432394, 0.029058989637439817)","(-0.9478512823911697, 0.3187094111577847, -0.0015025674271249643)",0.0005504017083455373,0.0
48,Move,"(0.03021, 0.0, 0.025679999999999998)","(0.0, 0.156351830381408, 0.0)","(0.040743613223028184, 0.18704355551184237, 0.0006903987376166458)","(1.5696117684521058, 0.00042182231302065554, -0.18614652059311793)","[0.04045870955009018, 0.015758272898378195, -0.0011763728530855978]","[-0.026750000193715096, 0.05299999937415123, 0.03999999910593033]","[0.0, 0.0, -0.006509396230052133]","[-0.02628132700920105, 0.12499847263097763, 0.03999999910593033]","[0.0, 0.0, -0.2513484053660355]","[0.026750000193715096, 0.05299999937415123, 0.03999999910593033]","[0.0, 0.0, -0.6441092791608632]","[0.06998502463102341, 0.11057371646165848, 0.03999999910593033]","[0.0, 0.0, -0.37430452887081334]",-0.009473190438662519,-0.7113106108172819,"(0.0, 0.0, 0.0, 0.0, 0.0, 0.0)",-0.30540681073114223,-0.24484080649398293,-0.0004222581301258966,"(0.0, 0.0, 0.0, 0.0, 0.0, 0.0)",-0.2107662736588178,-0.6492754831399874,-1.2398952769569564,"(0.0, 0.0, 0.0, 0.0, 0.0, 0.0)",0.2018426669969117,0.2698047590218018,6.365934367646986e-06,"(0.0, 0.0, 0.0, 0.0, 0.0, 0.0)",0.015028966811995417,True,"(0.00947364340443762, 0.19589858562898646, 0.03999815498660161)","(0.9826774612073729, -0.18531487571318195, -0.001845013398397458)",-1.1061487454256345e-05,2.8537947328927804,True,"(0.06703643173895935, 0.14956326404219233, 0.029058989637439817)","(-0.9478512823911697, 0.3187094111577847, -0.0015025674271249643)",0.001384393926396667,0.0
49,Move,"(0.03045, 0.0, 0.025380000000000003)","(0.0, 0.156351830381408, 0.0)","(0.0431088998899605, 0.1865889604808389, 0.0006978073860166024)","(1.5715503864904392, -0.0012308575903301879, -0.18516959306672798)","[0.04282399621702249, 0.015303677867374715, -0.001168964204685641]","[-0.026750000193715096, 0.05299999937415123, 0.03999999910593033]","[0.0, 0.0, -0.02266483849245262]","[-0.0251182708889246, 0.12498150765895844, 0.03999999910593033]","[0.0, 0.0, -0.2672979710306607]","[0.026750000193715096, 0.05299999937415123, 0.03999999910593033]","[0.0, 0.0, -0.6723518408640874]","[0.07159359753131866, 0.10932984948158264, 0.03999999910593033]","[0.0, 0.0, -0.40254714164703903]",-0.02549961169740353,-0.6803454913705442,"(0.0, 0.0, 0.0, 0.0, 0.0, 0.0)",-0.055779192070905106,-0.24463949111879124,-0.0015266288129359342,"(0.0, 0.0, 0.0, 0.0, 0.0, 0.0)",-0.07388091852811349,-0.6773087410778187,-1.1896491763860164,"(0.0, 0.0, 0.0, 0.0, 0.0, 0.0)",0.193667036858135,0.26980477468438757,-4.176689540891232e-07,"(0.0, 0.0, 0.0, 0.0, 0.0, 0.0)",0.014421351890019977,True,"(0.011765955553730802, 0.19531772287005594, 0.04000133773206178)","(0.9826261107329994, -0.1855913170885687, 0.0013377320617749217)",-1.1271625572451936e-05,1.144793585691953,False,,,,
50,Move,"(0.03045, 0.0, 0.025380000000000003)","(0.0, 0.156351830381408, 0.0)","(0.049062503640012994, 0.18861150708740929, 0.0009050315093954103)","(1.5733053045239647, -0.014515063234367409, -0.352280739592757)","[0.04877759996707499, 0.017326224473945107, -0.0009617400813068332]","[-0.026750000193715096, 0.05299999937415123, 0.03999999910593033]","[0.0, 0.0, -0.06874587192642104]","[-0.021804194897413254, 0.12482993304729462, 0.03999999910593033]","[0.0, 0.0, -0.2900063415253234]","[0.026750000193715096, 0.05299999937415123, 0.03999999910593033]","[0.0, 0.0, -0.6349230651879116]","[0.06945431232452393, 0.1109684482216835, 0.03999999910593033]","[0.0, 0.0, -0.3727910601001586]",-0.07765879107998126,-2.1391005654768938,"(0.0, 0.0, 0.0, 0.0, 0.0, 0.0)",-70.41105940815267,-0.19661990044124056,5.913741288783588,"(0.0, 0.0, 0.0, 0.0, 0.0, 0.0)",-31.23613293387432,-0.6245493064514085,2.489679897861013,"(0.0, 0.0, 0.0, 0.0, 0.0, 0.0)",64.25821366103634,0.24447367305368395,-4.237980670778748,"(0.0, 0.0, 0.0, 0.0, 0.0, 0.0)",21.164251701927707,True,"(0.009179361974410986, 0.16920614162372638, 0.02944385400172037)","(0.9582422760496847, -0.28595750635485706, -0.0002120151678899098)",-0.0015942899720254033,590.5018071311581,True,"(0.06657593315366278, 0.15028377103352852, 0.05100953790739965)","(-0.927229347046109, 0.3743723126453951, 0.009545129699732613)",-0.0019515556249390179,465.46556621371616
51,Move,"(0.030580000000000003, 0.0, 0.024940000000000004)","(0.0, 0.17193762060171738, 0.0)","(0.05142117279844425, 0.18876059758737737, 0.0008855295732321087)","(1.5784733685239154, -0.004341848869900699, -0.3439469313743966)","[0.05113626912550624, 0.017475314973913192, -0.000981242017470135]","[-0.026750000193715096, 0.05299999937415123, 0.03999999910593033]","[0.0, 0.0, -0.10400487398443069]","[-0.01927514187991619, 0.12461093813180923, 0.03999999910593033]","[0.0, 0.0, -0.2732140710738139]","[0.026750000193715096, 0.05299999937415123, 0.03999999910593033]","[0.0, 0.0, -0.6390405737067437]","[0.06969264149665833, 0.1107921227812767, 0.03999999910593033]","[0.0, 0.0, -0.41300443621919325]",-0.10895478668865648,-1.1879784458229072,"(0.0, 0.0, 0.0, 0.0, 0.0, 0.0)",-11.659453263577559,-0.16765764106721093,0.3723713292856456,"(0.0, 0.0, 0.0, 0.0, 0.0, 0.0)",-5.028787857577877,-0.6454831348179191,-1.5462235121821457,"(0.0, 0.0, 0.0, 0.0, 0.0, 0.0)",9.166263705574606,0.22521294432798394,-0.19756967134053652,"(0.0, 0.0, 0.0, 0.0, 0.0, 0.0)",3.1712939335484047,True,"(0.010958903369852686, 0.16950115296715657, 0.02944385400172037)","(0.9582422760496847, -0.28595750635485706, -0.0002120151678899098)",-0.0010506404701722078,96.73690325168143,True,"(0.06820702913704327, 0.14975758241935241, 0.028995691856520355)","(-0.9159105904603659, 0.4013591763368528, -0.004312986522890807)",-0.002291051370322336,84.66143065900694
52,Move,"(0.03045, 0.0, 0.025030000000000004)","(0.0, 0.156351830381408, 0.0)","(0.054118860627923024, 0.18756697629500196, 0.0006016627942681551)","(1.568090910825158, -0.0019537965765974823, -0.350009564524319)","[0.05383395695498502, 0.016281693681537784, -0.0012651087964340884]","[-0.026750000193715096, 0.05299999937415123, 0.03999999910593033]","[0.0, 0.0, -0.13089825017153475]","[-0.017352217808365822, 0.12438404560089111, 0.03999999910593033]","[0.0, 0.0, -0.28738440295398276]","[0.026750000193715096, 0.05299999937415123, 0.03999999910593033]","[0.0, 0.0, -0.6691273342864231]","[0.07141172140836716, 0.10947415977716446, 0.03999999910593033]","[0.0, 0.0, -0.4507113517326542]",-0.13560043596060414,-1.1285279398322072,"(0.0, 0.0, 0.0, 0.0, 0.0, 0.0)",-10.251731569685552,-0.15383080125232584,0.6372833361870498,"(0.0, 0.0, 0.0, 0.0, 0.0, 0.0)",-4.39542386673776,-0.6739380592616231,-1.1545834076914097,"(0.0, 0.0, 0.0, 0.0, 0.0, 0.0)",8.197189045300716,0.21671157447514752,-0.40905681263954086,"(0.0, 0.0, 0.0, 0.0, 0.0, 0.0)",2.8397702121090806,True,"(0.013514879010996989, 0.16884133969201062, 0.02944385400172037)","(0.9582422760496847, -0.28595750635485706, -0.0002120151678899098)",-0.0007461436067517117,85.01530287202998,True,"(0.07140419734702126, 0.1484846998565659, 0.029057438527613184)","(-0.9001297059029413, 0.43561389493317665, -0.002654635988575206)",-0.001783864694713574,75.89925136342575
53,Move,"(0.03051, 0.0, 0.02501)","(0.0, 0.17193762060171738, 0.0)","(0.056821053348889, 0.18675060594374315, 0.0006513678834723862)","(1.5701519383226934, 0.000543751979730837, -0.35376607413379574)","[0.05653614967595099, 0.015465323330278974, -0.0012154037072298575]","[-0.026750000193715096, 0.05299999937415123, 0.03999999910593033]","[0.0, 0.0, -0.15796161933613387]","[-0.015424002893269062, 0.1241035982966423, 0.03999999910593033]","[0.0, 0.0, -0.29985814416036843]","[0.026750000193715096, 0.05299999937415123, 0.03999999910593033]","[0.0, 0.0, -0.6954388383928543]","[0.07288201153278351, 0.10827963054180145, 0.03999999910593033]","[0.0, 0.0, -0.48635786286664484]",-0.16284895491611134,-1.1729647913204018,"(0.0, 0.0, 0.0, 0.0, 0.0, 0.0)",-10.041064071666026,-0.1393825105957021,0.6033604755875933,"(0.0, 0.0, 0.0, 0.0, 0.0, 0.0)",-4.353274238719624,-0.7001033152259488,-1.1194827044029627,"(0.0, 0.0, 0.0, 0.0, 0.0, 0.0)",8.83632818835894,0.20723354577985542,-0.44337385368677124,"(0.0, 0.0, 0.0, 0.0, 0.0, 0.0)",3.0918237131274964,True,"(0.016163785543000013, 0.16871759751364357, 0.029447081813944318)","(0.9553789428624712, -0.29538231953651684, -0.0006006997703591031)",-0.0005608466939844804,82.71124640359554,True,"(0.07432141212856161, 0.14737275881415807, 0.029060027602278056)","(-0.8908335348762954, 0.45432952087507233, -0.0005473584120714797)",-0.0014091376769937573,81.94312589003444
54,Move,"(0.03051, 0.0, 0.0251)","(0.0, 0.17193762060171738, 0.0)","(0.05952614731757846, 0.18583735334288504, 0.0007256250076872255)","(1.5719723607522929, -1.6720424417778485e-05, -0.35845959751148104)","[0.05924124364464045, 0.014552070729420857, -0.0011411465830150182]","[-0.026750000193715096, 0.05299999937415123, 0.03999999910593033]","[0.0, 0.0, -0.18474299701003893]","[-0.013524037785828114, 0.12377481162548065, 0.03999999910593033]","[0.0, 0.0, -0.3128274496423675]","[0.026750000193715096, 0.05299999937415123, 0.03999999910593033]","[0.0, 0.0, -0.7202811585173282]","[0.07424091547727585, 0.10711666196584702, 0.03999999910593033]","[0.0, 0.0, -0.5207983254074594]",-0.18944375209224373,-1.128177324757475,"(0.0, 0.0, 0.0, 0.0, 0.0, 0.0)",-9.801038029995974,-0.12561133744460337,0.5935439066824347,"(0.0, 0.0, 0.0, 0.0, 0.0, 0.0)",-4.248099203045453,-0.7245793492720278,-1.0315542701247855,"(0.0, 0.0, 0.0, 0.0, 0.0, 0.0)",7.762830514245232,0.19787093258427138,-0.38687349077069444,"(0.0, 0.0, 0.0, 0.0, 0.0, 0.0)",2.786950116909161,True,"(0.01864547805657592, 0.1679932836832466, 0.029127005595540118)","(0.9514673856804099, -0.3077495654427049, -0.00013768192424732265)",-0.00040979424005184375,78.8096309910205,True,"(0.0770255799575941, 0.14613704328726568, 0.029060027602278056)","(-0.8908335348762954, 0.45432952087507233, -0.0005473584120714797)",-0.001163836317919133,72.01521653823556
55,Move,"(0.0309, 0.0, 0.02486)","(0.0, 0.17193762060171738, 0.0)","(0.0619844828434216, 0.18493414575397854, 0.0007217369131960265)","(1.5705103077287923, -7.858542414643884e-05, -0.36071358970621864)","[0.06169957917048359, 0.013648863140514361, -0.001145034677506217]","[-0.026750000193715096, 0.05299999937415123, 0.03999999910593033]","[0.0, 0.0, -0.21088100436301163]","[-0.011678855866193771, 0.12340497225522995, 0.03999999910593033]","[0.0, 0.0, -0.32501456214236546]","[0.026750000193715096, 0.05299999937415123, 0.03999999910593033]","[0.0, 0.0, -0.7432934943824728]","[0.07547358423471451, 0.10600955039262772, 0.03999999910593033]","[0.0, 0.0, -0.5523034974369988]",-0.2155204742551367,-1.1134786124410054,"(0.0, 0.0, 0.0, 0.0, 0.0, 0.0)",-9.63278598468122,-0.1117550634965925,0.5708407344283662,"(0.0, 0.0, 0.0, 0.0, 0.0, 0.0)",-4.115468839319651,-0.7472980020593954,-0.9610654763962221,"(0.0, 0.0, 0.0, 0.0, 0.0, 0.0)",6.909824683448997,0.18946248048865796,-0.3666149930967131,"(0.0, 0.0, 0.0, 0.0, 0.0, 0.0)",2.5030630053262986,True,"(0.021027151880117265, 0.1672281211921992, 0.029127005595540118)","(0.9514673856804099, -0.3077495654427049, -0.00013768192424732265)",-0.00034541686511642747,79.37818613527655,True,"(0.07963481056602957, 0.14516430589348542, 0.02906153457522918)","(-0.8513178779206028, 0.5246502095902645, -0.0001682547262243647)",-0.0009485809790597145,62.37761932081099
56,Move,"(0.030680000000000002, 0.0, 0.025)","(0.0, 0.156351830381408, 0.0)","(0.06412834677827425, 0.18440977927828547, 0.0007703829450661747)","(1.5717104797384323, 0.0009870249143735387, -0.3543282534407448)","[0.06384344310533625, 0.013124496664821295, -0.0010963886456360687]","[-0.026750000193715096, 0.05299999937415123, 0.03999999910593033]","[0.0, 0.0, -0.23526881266415767]","[-0.00996648520231247, 0.12301652133464813, 0.03999999910593033]","[0.0, 0.0, -0.33789804080531427]","[0.026750000193715096, 0.05299999937415123, 0.03999999910593033]","[0.0, 0.0, -0.764536538919622]","[0.07658858597278595, 0.10496263206005096, 0.03999999910593033]","[0.0, 0.0, -0.5810711056581936]",-0.239455998992311,-1.0049310921346781,"(0.0, 0.0, 0.0, 0.0, 0.0, 0.0)",-7.664342567127172,-0.10073785217236556,0.45393554359034544,"(0.0, 0.0, 0.0, 0.0, 0.0, 0.0)",-3.266016857870806,-0.768200618455122,-0.8793732573739482,"(0.0, 0.0, 0.0, 0.0, 0.0, 0.0)",5.465493671349011,0.1822543486508684,-0.29066572159592974,"(0.0, 0.0, 0.0, 0.0, 0.0, 0.0)",1.9962439199831659,True,"(0.023316449652000738, 0.16645754318360995, 0.029086337737671084)","(0.9434544283424321, -0.33150054571735854, -0.0010629346866273606)",-0.0003078278120260634,63.409806616536024,True,"(0.08195134103847385, 0.1440987725977224, 0.02906215500143631)","(-0.8457534023204468, 0.5335739604559581, -0.0001057673493298374)",-0.0007454976431808387,47.98716138578302
57,Move,"(0.030740000000000003, 0.0, 0.02492)","(0.0, 0.156351830381408, 0.0)","(0.06627277195573832, 0.18383437346552603, 0.0008326085928013935)","(1.5725545708646778, -0.00013646565836149247, -0.3482039398522567)","[0.06598786828280032, 0.01254909085206185, -0.00103416299790085]","[-0.026750000193715096, 0.05299999937415123, 0.03999999910593033]","[0.0, 0.0, -0.25804285697005064]","[-0.008376413956284523, 0.12261617183685303, 0.03999999910593033]","[0.0, 0.0, -0.3503193802449155]","[0.026750000193715096, 0.05299999937415123, 0.03999999910593033]","[0.0, 0.0, -0.784408064463272]","[0.07761125266551971, 0.10396207123994827, 0.03999999910593033]","[0.0, 0.0, -0.608076173009247]",-0.26198796549054415,-0.9468264287096377,"(0.0, 0.0, 0.0, 0.0, 0.0, 0.0)",-8.561375198436481,-0.08988343695018268,0.5743431632277111,"(0.0, 0.0, 0.0, 0.0, 0.0, 0.0)",-3.881926906385044,-0.7878860374375644,-0.8347204195220514,"(0.0, 0.0, 0.0, 0.0, 0.0, 0.0)",5.877982361139156,0.1750384044343377,-0.3104551937155222,"(0.0, 0.0, 0.0, 0.0, 0.0, 0.0)",2.152862047921564,True,"(0.025448231244550628, 0.165653281095835, 0.029087047011491982)","(0.9408589219266541, -0.33879833681607535, -0.0004195255359007964)",-0.0001977758253310891,55.16595997274936,True,"(0.0840287935575269, 0.14293913976809008, 0.02906215500143631)","(-0.8457534023204468, 0.5335739604559581, -0.0001057673493298374)",-0.0006111038349995233,52.05526038607543
58,Move,"(0.03075, 0.0, 0.02495)","(0.0, 0.156351830381408, 0.0)","(0.06835938122584218, 0.1828949441414509, 0.00079752017238345)","(1.5706443054766237, -0.00032748562813332137, -0.351273834938524)","[0.06807447755290418, 0.011609661527986731, -0.0010692514183187935]","[-0.026750000193715096, 0.05299999937415123, 0.03999999910593033]","[0.0, 0.0, -0.2793915973036687]","[-0.006894498132169247, 0.12220808863639832, 0.03999999910593033]","[0.0, 0.0, -0.3592317522973878]","[0.026750000193715096, 0.05299999937415123, 0.03999999910593033]","[0.0, 0.0, -0.8032278481984605]","[0.07856128364801407, 0.10299590975046158, 0.03999999910593033]","[0.0, 0.0, -0.6340743776562755]",-0.2831196139938179,-0.8947315207878328,"(0.0, 0.0, 0.0, 0.0, 0.0, 0.0)",-8.268508324841033,-0.07759895103369464,0.5379011473853688,"(0.0, 0.0, 0.0, 0.0, 0.0, 0.0)",-3.8250055759136607,-0.8065081293791172,-0.7872844227864457,"(0.0, 0.0, 0.0, 0.0, 0.0, 0.0)",5.592158056668024,0.16788846976299265,-0.3035755438894688,"(0.0, 0.0, 0.0, 0.0, 0.0, 0.0)",2.063112082518674,True,"(0.027312361748316333, 0.16494203130838955, 0.029087047011491982)","(0.9408589219266541, -0.33879833681607535, -0.0004195255359007964)",8.601395266107264e-06,45.09304144034604,True,"(0.0868764501146648, 0.14299858299085016, 0.029067867848149995)","(-0.8056195329803628, 0.5924331606188276, -0.00034391814224310263)",-0.00042833322443994865,39.56054290634342
59,Move,"(0.030719999999999997, 0.0, 0.024720000000000002)","(0.0, 0.156351830381408, 0.0)","(0.0705026034884648, 0.18210165393785815, 0.0008354650064071586)","(1.5708576695534677, 0.0007917226648574157, -0.3615635132338779)","[0.0702176998155268, 0.010816371324393975, -0.001031306584295085]","[-0.026750000193715096, 0.05299999937415123, 0.03999999910593033]","[0.0, 0.0, -0.2999980800930631]","[-0.005472679156810045, 0.1217842698097229, 0.03999999910593033]","[0.0, 0.0, -0.36797663922800034]","[0.026750000193715096, 0.05299999937415123, 0.03999999910593033]","[0.0, 0.0, -0.8205990517469788]","[0.07942191511392593, 0.10208838433027267, 0.03999999910593033]","[0.0, 0.0, -0.6573644717779876]",-0.3036493212329356,-0.8763047692953428,"(0.0, 0.0, 0.0, 0.0, 0.0, 0.0)",-6.450819530224158,-0.06617535393790053,0.4327744515004138,"(0.0, 0.0, 0.0, 0.0, 0.0, 0.0)",-3.321818788912822,-0.8235845600886689,-0.7165319089093282,"(0.0, 0.0, 0.0, 0.0, 0.0, 0.0)",4.360272565260507,0.16237123921908983,-0.20719630901927275,"(0.0, 0.0, 0.0, 0.0, 0.0, 0.0)",1.5345760735874447,True,"(0.029106570465080542, 0.16421745047847655, 0.029087047011491982)","(0.9408589219266541, -0.33879833681607535, -0.0004195255359007964)",0.00011277193983712011,15.534563445380783,True,"(0.08870451012812858, 0.1419359337981191, 0.029068126965640463)","(-0.8005312130031293, 0.5992909696102793, -0.00033279319417897445)",-0.0003602177101931795,38.90418618949007
