OSUrobotics/InHand-Manipulation/AnalyseData/Data/new_hand_human_filt_josh_2v2_b_none_1_kpNone_kdNone_dp1_step1_save_data.csv
,Phase,human_cube_pos,human_cube_orn,Cube_Pos,Cube_Orn,Cube_pos_in_start_pos,b'l_prox_pin'_link_pos,b'l_prox_pin'_link_orn,b'l_distal_pin'_link_pos,b'l_distal_pin'_link_orn,b'r_prox_pin'_link_pos,b'r_prox_pin'_link_orn,b'r_distal_pin'_link_pos,b'r_distal_pin'_link_orn,b'l_prox_pin'_joint_angle,b'l_prox_pin'_joint_vel,b'l_prox_pin'_joint_react_forces,b'l_prox_pin'_joint_motor_torque,b'l_distal_pin'_joint_angle,b'l_distal_pin'_joint_vel,b'l_distal_pin'_joint_react_forces,b'l_distal_pin'_joint_motor_torque,b'r_prox_pin'_joint_angle,b'r_prox_pin'_joint_vel,b'r_prox_pin'_joint_react_forces,b'r_prox_pin'_joint_motor_torque,b'r_distal_pin'_joint_angle,b'r_distal_pin'_joint_vel,b'r_distal_pin'_joint_react_forces,b'r_distal_pin'_joint_motor_torque,in_contact_l,contact_point_l_dist,contact_normal_l_dist,contact_distance_l_dist,contact_norm_force_l_dist,in_contact_r,contact_point_r_dist,contact_normal_r_dist,contact_distance_r_dist,contact_norm_force_r_dist
0,Open,,,,,,"[-0.026750000193715096, 0.05299999937415123, 0.03999999910593033]","[0.0, -0.0, 0.0]","[-0.026750000193715096, 0.125, 0.03999999910593033]","[0.0, -0.0, 0.0]","[0.026750000193715096, 0.05299999937415123, 0.03999999910593033]","[0.0, -0.0, 0.0]","[0.026750000193715096, 0.125, 0.03999999910593033]","[0.0, -0.0, 0.0]",0.0028636982559538428,0.6872875814289223,"(0.0, 0.0, 0.0, 0.0, 0.0, 0.0)",-74.42376671286476,0.025717978913313098,6.172314939195144,"(0.0, 0.0, 0.0, 0.0, 0.0, 0.0)",-28.347758017338414,-0.0028861714462846827,-0.6926811471083238,"(0.0, 0.0, 0.0, 0.0, 0.0, 0.0)",77.31812537484876,-0.025998027583603027,-6.239526620064726,"(0.0, 0.0, 0.0, 0.0, 0.0, 0.0)",29.325432325549183,False,,,,,False,,,,
1,Open,,,,,,"[-0.026750000193715096, 0.05299999937415123, 0.03999999910593033]","[0.0, -0.0, 0.0028636982488144678]","[-0.026956185698509216, 0.12499970197677612, 0.03999999910593033]","[0.0, -0.0, 0.028581675581217755]","[0.026750000193715096, 0.05299999937415123, 0.03999999910593033]","[0.0, 0.0, -0.0028861714423951343]","[0.026957804337143898, 0.12499970197677612, 0.03999999910593033]","[0.0, 0.0, -0.028884201286240394]",0.1595773284303585,37.61127124185712,"(0.0, 0.0, 0.0, 0.0, 0.0, 0.0)",53.472225824972774,0.02314589095046895,-0.6173011110825959,"(0.0, 0.0, 0.0, 0.0, 0.0, 0.0)",3.3014509125464437,-0.15959755430165623,-37.61073188528917,"(0.0, 0.0, 0.0, 0.0, 0.0, 0.0)",-53.45543824447724,-0.023397935520559333,0.6240220951304867,"(0.0, 0.0, 0.0, 0.0, 0.0, 0.0)",-3.2927232380167535,False,,,,,False,,,,
2,Open,,,,,,"[-0.026750000193715096, 0.05299999937415123, 0.03999999910593033]","[0.0, -0.0, 0.15957730699277592]","[-0.03819086775183678, 0.1240852028131485, 0.03999999910593033]","[0.0, -0.0, 0.1827232399786182]","[0.026750000193715096, 0.05299999937415123, 0.03999999910593033]","[0.0, 0.0, -0.15959754249378824]","[0.03819230571389198, 0.12408497184515, 0.03999999910593033]","[0.0, 0.0, -0.1829954723320542]",0.30061959558732265,33.8501441176714,"(0.0, 0.0, 0.0, 0.0, 0.0, 0.0)",-5.433290843096747,0.020831748867960086,-0.555394099802127,"(0.0, 0.0, 0.0, 0.0, 0.0, 0.0)",-0.37949999689540415,-0.30063779887149056,-33.849658696760244,"(0.0, 0.0, 0.0, 0.0, 0.0, 0.0)",5.433149501288634,-0.02105858889910766,0.5614431891484022,"(0.0, 0.0, 0.0, 0.0, 0.0, 0.0)",0.37943043762158307,False,,,,,False,,,,
3,Open,,,,,,"[-0.026750000193715096, 0.05299999937415123, 0.03999999910593033]","[0.0, -0.0, 0.30061964608852465]","[-0.048070069402456284, 0.12177103012800217, 0.03999999910593033]","[0.0, -0.0, 0.3214513597309629]","[0.026750000193715096, 0.05299999937415123, 0.03999999910593033]","[0.0, 0.0, -0.30063782483534385]","[0.04807132109999657, 0.12177064269781113, 0.03999999910593033]","[0.0, 0.0, -0.32169639446592324]",0.4275576360285904,30.465129705904268,"(0.0, 0.0, 0.0, 0.0, 0.0, 0.0)",-4.896562760502833,0.018748978964657985,-0.49986477679250463,"(0.0, 0.0, 0.0, 0.0, 0.0, 0.0)",-0.3438186216350169,-0.4275740189843415,-30.464692827084228,"(0.0, 0.0, 0.0, 0.0, 0.0, 0.0)",4.8964345239877005,-0.018953134917884834,0.505308955493478,"(0.0, 0.0, 0.0, 0.0, 0.0, 0.0)",0.34375511365495653,False,,,,,False,,,,
4,Open,,,,,,"[-0.026750000193715096, 0.05299999937415123, 0.03999999910593033]","[0.0, -0.0, 0.42755761853039154]","[-0.056604765355587006, 0.1185186430811882, 0.03999999910593033]","[0.0, -0.0, 0.4463066270391506]","[0.026750000193715096, 0.05299999937415123, 0.03999999910593033]","[0.0, 0.0, -0.42757404208311445]","[0.05660583823919296, 0.1185181587934494, 0.03999999910593033]","[0.0, 0.0, -0.4465272228574986]",0.5418018724257314,27.418616735313837,"(0.0, 0.0, 0.0, 0.0, 0.0, 0.0)",-4.412236817968903,0.016874447698417276,-0.44988750389777044,"(0.0, 0.0, 0.0, 0.0, 0.0, 0.0)",-0.3112578673856835,-0.5418166170859073,-27.418223544375806,"(0.0, 0.0, 0.0, 0.0, 0.0, 0.0)",4.412120589674461,-0.017058187988154127,0.4547872631353701,"(0.0, 0.0, 0.0, 0.0, 0.0, 0.0)",0.31119999541872967,False,,,,,False,,,,
5,Open,,,,,,"[-0.026750000193715096, 0.05299999937415123, 0.03999999910593033]","[0.0, -0.0, 0.5418019400761332]","[-0.06387900561094284, 0.11468822509050369, 0.03999999910593033]","[0.0, -0.0, 0.5586763123738882]","[0.026750000193715096, 0.05299999937415123, 0.03999999910593033]","[0.0, 0.0, -0.5418166677071254]","[0.06387991458177567, 0.11468767374753952, 0.03999999910593033]","[0.0, 0.0, -0.5588748551425957]",0.6446216851831583,24.67675506178245,"(0.0, 0.0, 0.0, 0.0, 0.0, 0.0)",-3.975330693632137,0.015187334633278446,-0.4049071356333192,"(0.0, 0.0, 0.0, 0.0, 0.0, 0.0)",-0.2816071653694913,-0.6446349553773166,-24.67640118993823,"(0.0, 0.0, 0.0, 0.0, 0.0, 0.0)",3.975225427671302,-0.01535270083200906,0.409316917474816,"(0.0, 0.0, 0.0, 0.0, 0.0, 0.0)",0.28155450162657786,False,,,,,False,,,,
6,Open,,,,,,"[-0.026750000193715096, 0.05299999937415123, 0.03999999910593033]","[0.0, -0.0, 0.6446216983098856]","[-0.07001452147960663, 0.11055155843496323, 0.03999999910593033]","[0.0, -0.0, 0.6598089287160823]","[0.026750000193715096, 0.05299999937415123, 0.03999999910593033]","[0.0, 0.0, -0.644634967879878]","[0.07001528143882751, 0.11055097728967667, 0.03999999910593033]","[0.0, 0.0, -0.6599877329949964]",0.7371595166648425,22.209079555604205,"(0.0, 0.0, 0.0, 0.0, 0.0, 0.0)",-3.5812948349547464,0.013668901111545678,-0.3644240452158641,"(0.0, 0.0, 0.0, 0.0, 0.0, 0.0)",-0.25464125660078457,-0.737171459839585,-22.20876107094441,"(0.0, 0.0, 0.0, 0.0, 0.0, 0.0)",3.5811995605906057,-0.01381773063402154,0.3683928475170044,"(0.0, 0.0, 0.0, 0.0, 0.0, 0.0)",0.2545933902665499,False,,,,,False,,,,
7,Open,,,,,,"[-0.026750000193715096, 0.05299999937415123, 0.03999999910593033]","[0.0, -0.0, 0.7371595400859692]","[-0.07514750957489014, 0.10630742460489273, 0.03999999910593033]","[0.0, -0.0, 0.7508283868993905]","[0.026750000193715096, 0.05299999937415123, 0.03999999910593033]","[0.0, 0.0, -0.7371714711336782]","[0.07514814287424088, 0.10630684345960617, 0.03999999910593033]","[0.0, 0.0, -0.750989167509555]",0.8204435649983582,19.988171600043785,"(0.0, 0.0, 0.0, 0.0, 0.0, 0.0)",-3.2259980823944012,0.01230228208777883,-0.32798856570404317,"(0.0, 0.0, 0.0, 0.0, 0.0, 0.0)",-0.23014491551259536,-0.8204543138556265,-19.987884963849964,"(0.0, 0.0, 0.0, 0.0, 0.0, 0.0)",3.225911902119173,-0.012436228606816148,0.33156048652929415,"(0.0, 0.0, 0.0, 0.0, 0.0, 0.0)",0.23010145595163894,False,,,,,False,,,,
8,Open,,,,,,"[-0.026750000193715096, 0.05299999937415123, 0.03999999910593033]","[0.0, -0.0, 0.8204435774406766]","[-0.07941428571939468, 0.1020965725183487, 0.03999999910593033]","[0.0, -0.0, 0.8327459142786269]","[0.026750000193715096, 0.05299999937415123, 0.03999999910593033]","[0.0, 0.0, -0.8204543695347751]","[0.07941480726003647, 0.10209600627422333, 0.03999999910593033]","[0.0, 0.0, -0.8328905496331522]",0.8953992084985224,17.9893544400394,"(0.0, 0.0, 0.0, 0.0, 0.0, 0.0)",-2.905692777507757,0.011072298781000885,-0.2951959936267068,"(0.0, 0.0, 0.0, 0.0, 0.0, 0.0)",-0.20791432075989408,-0.8954088824700639,-17.989096467464968,"(0.0, 0.0, 0.0, 0.0, 0.0, 0.0)",2.9056148642503405,-0.011192850601700187,0.29841072122783063,"(0.0, 0.0, 0.0, 0.0, 0.0, 0.0)",0.20787489947010138,False,,,,,False,,,,
9,Open,,,,,,"[-0.026750000193715096, 0.05299999937415123, 0.03999999910593033]","[0.0, -0.0, 0.8953992050914552]","[-0.08294302970170975, 0.09801492840051651, 0.03999999910593033]","[0.0, -0.0, 0.9064715399310761]","[0.026750000193715096, 0.05299999937415123, 0.03999999910593033]","[0.0, 0.0, -0.8954089117450801]","[0.08294346183538437, 0.09801438450813293, 0.03999999910593033]","[0.0, 0.0, -0.9066016844299951]",0.9628592876486701,16.190418996035465,"(0.0, 0.0, 0.0, 0.0, 0.0, 0.0)",-2.616982039675733,0.009965290062605858,-0.26568209241480656,"(0.0, 0.0, 0.0, 0.0, 0.0, 0.0)",-0.18775783729375353,-0.9628679942230576,-16.190186820718473,"(0.0, 0.0, 0.0, 0.0, 0.0, 0.0)",2.6169116334278195,-0.010073786659150813,0.26857534621184953,"(0.0, 0.0, 0.0, 0.0, 0.0, 0.0)",0.187722108909745,False,,,,,False,,,,
10,Open,,,,,,"[-0.026750000193715096, 0.05299999937415123, 0.03999999910593033]","[0.0, -0.0, 0.9628592963772022]","[-0.08584962040185928, 0.09412462264299393, 0.03999999910593033]","[0.0, -0.0, 0.9728246761305416]","[0.026750000193715096, 0.05299999937415123, 0.03999999910593033]","[0.0, 0.0, -0.9628681466677605]","[0.08584997802972794, 0.09412410855293274, 0.03999999910593033]","[0.0, 0.0, -0.9729417790417357]",1.0235733588838032,14.57137709643192,"(0.0, 0.0, 0.0, 0.0, 0.0, 0.0)",-2.356789246056587,0.008968960705874744,-0.23911904561546746,"(0.0, 0.0, 0.0, 0.0, 0.0, 0.0)",-0.16949635495257384,-1.0235811948007518,-14.571168138646623,"(0.0, 0.0, 0.0, 0.0, 0.0, 0.0)",2.3567256501387286,-0.009066607604651448,0.24172297307984775,"(0.0, 0.0, 0.0, 0.0, 0.0, 0.0)",0.16946399753760524,False,,,,,False,,,,
11,Open,,,,,,"[-0.026750000193715096, 0.05299999937415123, 0.03999999910593033]","[0.0, -0.0, 1.0235732790301837]","[-0.08823604136705399, 0.09046287834644318, 0.03999999910593033]","[0.0, -0.0, 1.0325423083164225]","[0.026750000193715096, 0.05299999937415123, 0.03999999910593033]","[0.0, 0.0, -1.0235812274279317]","[0.08823633193969727, 0.09046239405870438, 0.03999999910593033]","[0.0, 0.0, -1.0326479037372749]",1.078216022995423,13.114239386788727,"(0.0, 0.0, 0.0, 0.0, 0.0, 0.0)",-2.1223296975724493,0.008072244810550301,-0.215211814877866,"(0.0, 0.0, 0.0, 0.0, 0.0, 0.0)",-0.1529632973210469,-1.0782230753206767,-13.114051324781958,"(0.0, 0.0, 0.0, 0.0, 0.0, 0.0)",2.122272274708909,-0.008160126984954354,0.21755534872730237,"(0.0, 0.0, 0.0, 0.0, 0.0, 0.0)",0.15293401213466845,False,,,,,False,,,,
12,Open,,,,,,"[-0.026750000193715096, 0.05299999937415123, 0.03999999910593033]","[0.0, -0.0, 1.078215882979514]","[-0.09019032120704651, 0.08704887330532074, 0.03999999910593033]","[0.0, -0.0, 1.0862882926740116]","[0.026750000193715096, 0.05299999937415123, 0.03999999910593033]","[0.0, 0.0, -1.078222977413882]","[0.09019055962562561, 0.08704842627048492, 0.03999999910593033]","[0.0, 0.0, -1.0863833790205233]",1.1273944206958806,11.802815448109852,"(0.0, 0.0, 0.0, 0.0, 0.0, 0.0)",-1.9110844168611731,0.007265182884681461,-0.19369486220852175,"(0.0, 0.0, 0.0, 0.0, 0.0, 0.0)",-0.13800439004610457,-1.127400767788609,-11.802646192303762,"(0.0, 0.0, 0.0, 0.0, 0.0, 0.0)",1.9110325851897776,-0.007344276810443619,0.19580404188257655,"(0.0, 0.0, 0.0, 0.0, 0.0, 0.0)",0.13797790093405082,False,,,,,False,,,,
13,Open,,,,,,"[-0.026750000193715096, 0.05299999937415123, 0.03999999910593033]","[0.0, -0.0, 1.1273943743462997]","[-0.0917874127626419, 0.08388907462358475, 0.03999999910593033]","[0.0, -0.0, 1.1346596248576977]","[0.026750000193715096, 0.05299999937415123, 0.03999999910593033]","[0.0, 0.0, -1.127400718904607]","[0.09178761392831802, 0.08388865739107132, 0.03999999910593033]","[0.0, 0.0, -1.134745111288055]",1.1716549786262926,10.622533903298867,"(0.0, 0.0, 0.0, 0.0, 0.0, 0.0)",-1.7207759982695574,0.00653881121780902,-0.17432920004938585,"(0.0, 0.0, 0.0, 0.0, 0.0, 0.0)",-0.12447725819906867,-1.1716606910097482,-10.622381573073383,"(0.0, 0.0, 0.0, 0.0, 0.0, 0.0)",1.7207292273800263,-0.006609995722787257,0.17622746103752684,"(0.0, 0.0, 0.0, 0.0, 0.0, 0.0)",0.12445331071934837,False,,,,,False,,,,
14,Open,,,,,,"[-0.026750000193715096, 0.05299999937415123, 0.03999999910593033]","[0.0, -0.0, 1.17165497759142]","[-0.09309044480323792, 0.08098116517066956, 0.03999999910593033]","[0.0, -0.0, 1.1781937273122836]","[0.026750000193715096, 0.05299999937415123, 0.03999999910593033]","[0.0, 0.0, -1.1716605985979762]","[0.09309060126543045, 0.08098078519105911, 0.03999999910593033]","[0.0, 0.0, -1.178270796658152]",1.2114894807636634,9.56028051296898,"(0.0, 0.0, 0.0, 0.0, 0.0, 0.0)",-1.549346412635057,0.005885062316220725,-0.15689973638119079,"(0.0, 0.0, 0.0, 0.0, 0.0, 0.0)",-0.11225090666269867,-1.2114946219087734,-9.560143415766044,"(0.0, 0.0, 0.0, 0.0, 0.0, 0.0)",1.5493042197033076,-0.00594912834521185,0.1586081706180975,"(0.0, 0.0, 0.0, 0.0, 0.0, 0.0)",0.11222926703597672,False,,,,,False,,,,
15,Open,,,,,,"[-0.026750000193715096, 0.05299999937415123, 0.03999999910593033]","[0.0, -0.0, 1.2114893406881728]","[-0.09415213763713837, 0.07831703126430511, 0.03999999910593033]","[0.0, -0.0, 1.2173745989650702]","[0.026750000193715096, 0.05299999937415123, 0.03999999910593033]","[0.0, 0.0, -1.2114945655338818]","[0.09415226429700851, 0.07831668108701706, 0.03999999910593033]","[0.0, 0.0, -1.2174436451143456]",1.247340532687297,8.604252461672083,"(0.0, 0.0, 0.0, 0.0, 0.0, 0.0)",-1.3949366588174594,0.00529667529397997,-0.14121288533778104,"(0.0, 0.0, 0.0, 0.0, 0.0, 0.0)",-0.1012051251161189,-1.2473451597178962,-8.604129074189437,"(0.0, 0.0, 0.0, 0.0, 0.0, 0.0)",1.394898604883462,-0.005354334697048719,0.1427504755591516,"(0.0, 0.0, 0.0, 0.0, 0.0, 0.0)",0.1011855790679586,False,,,,,False,,,,
16,Open,,,,,,"[-0.026750000193715096, 0.05299999937415123, 0.03999999910593033]","[0.0, -0.0, 1.2473405247091465]","[-0.09501627087593079, 0.07588484138250351, 0.03999999910593033]","[0.0, -0.0, 1.2526371614229614]","[0.026750000193715096, 0.05299999937415123, 0.03999999910593033]","[0.0, 0.0, -1.2473450561350814]","[0.09501637518405914, 0.07588452845811844, 0.03999999910593033]","[0.0, 0.0, -1.252699591080442]",1.2796064794185673,7.743827215504874,"(0.0, 0.0, 0.0, 0.0, 0.0, 0.0)",-1.2558681481324276,0.004767115224099335,-0.12709441677135241,"(0.0, 0.0, 0.0, 0.0, 0.0, 0.0)",-0.09122984935698081,-1.2796106437461066,-7.743716166770495,"(0.0, 0.0, 0.0, 0.0, 0.0, 0.0)",1.2558338345532607,-0.004819008666073119,0.128478247434144,"(0.0, 0.0, 0.0, 0.0, 0.0, 0.0)",0.09121220090323832,False,,,,,False,,,,
17,Open,,,,,,"[-0.026750000193715096, 0.05299999937415123, 0.03999999910593033]","[0.0, -0.0, 1.279606409124563]","[-0.09571900963783264, 0.0736706405878067, 0.03999999910593033]","[0.0, -0.0, 1.2843736758198352]","[0.026750000193715096, 0.05299999937415123, 0.03999999910593033]","[0.0, 0.0, -1.2796106525936015]","[0.0957190990447998, 0.07367035001516342, 0.03999999910593033]","[0.0, 0.0, -1.2844295613342638]",1.3086458314767107,6.969444493954387,"(0.0, 0.0, 0.0, 0.0, 0.0, 0.0)",-1.1305941221975622,0.00429170208951155,-0.1140991523010686,"(0.0, 0.0, 0.0, 0.0, 0.0, 0.0)",-0.082192919359827,-1.3086495793714958,-6.969344550093446,"(0.0, 0.0, 0.0, 0.0, 0.0, 0.0)",1.1305631934145834,-0.004338405935744441,0.11534465527888274,"(0.0, 0.0, 0.0, 0.0, 0.0, 0.0)",0.08217699569254354,False,,,,,False,,,,
18,Open,,,,,,"[-0.026750000193715096, 0.05299999937415123, 0.03999999910593033]","[0.0, -0.0, 1.308645825919811]","[-0.09629011154174805, 0.0716593861579895, 0.03999999910593033]","[0.0, -0.0, 1.3129373548657892]","[0.026750000193715096, 0.05299999937415123, 0.03999999910593033]","[0.0, 0.0, -1.308649569130343]","[0.09629017859697342, 0.07165912538766861, 0.03999999910593033]","[0.0, 0.0, -1.3129881167123505]",1.3347812483290395,6.272500044558946,"(0.0, 0.0, 0.0, 0.0, 0.0, 0.0)",-1.0178482622338179,0.003863702481573626,-0.10271990590510163,"(0.0, 0.0, 0.0, 0.0, 0.0, 0.0)",-0.07410352518858664,-1.3347846214343462,-6.272410095084102,"(0.0, 0.0, 0.0, 0.0, 0.0, 0.0)",1.0178203769740246,-0.0039057357160976183,0.10384085271523745,"(0.0, 0.0, 0.0, 0.0, 0.0, 0.0)",0.0740891498002037,False,,,,,False,,,,
19,Open,,,,,,"[-0.026750000193715096, 0.05299999937415123, 0.03999999910593033]","[0.0, -0.0, 1.3347813147466918]","[-0.09675397723913193, 0.06983575969934464, 0.03999999910593033]","[0.0, -0.0, 1.3386449621367835]","[0.026750000193715096, 0.05299999937415123, 0.03999999910593033]","[0.0, 0.0, -1.3347844615433213]","[0.0967540368437767, 0.06983552873134613, 0.03999999910593033]","[0.0, 0.0, -1.3386905382854437]",1.3583031234961356,5.645250040103052,"(0.0, 0.0, 0.0, 0.0, 0.0, 0.0)",-0.9162890978823036,0.0034783869891320215,-0.09247571818598516,"(0.0, 0.0, 0.0, 0.0, 0.0, 0.0)",-0.06677007440367574,-1.3583061592909116,-5.645169085575695,"(0.0, 0.0, 0.0, 0.0, 0.0, 0.0)",0.9162639666346021,-0.003516216695348753,0.09348456497972772,"(0.0, 0.0, 0.0, 0.0, 0.0, 0.0)",0.06675710630673855,False,,,,,False,,,,
20,Open,,,,,,"[-0.026750000193715096, 0.05299999937415123, 0.03999999910593033]","[0.0, -0.0, 1.3583030429358363]","[-0.09713058918714523, 0.06818463653326035, 0.03999999910593033]","[0.0, -0.0, 1.3617816714487538]","[0.026750000193715096, 0.05299999937415123, 0.03999999910593033]","[0.0, 0.0, -1.358306171033049]","[0.09713063389062881, 0.06818442046642303, 0.03999999910593033]","[0.0, 0.0, -1.361822351334537]",1.379472811146522,5.0807250360927485,"(0.0, 0.0, 0.0, 0.0, 0.0, 0.0)",-0.8248429295126702,0.003131498553648039,-0.08325322451615583,"(0.0, 0.0, 0.0, 0.0, 0.0, 0.0)",-0.06015531267018523,-1.3794755433618204,-5.080652177018124,"(0.0, 0.0, 0.0, 0.0, 0.0, 0.0)",0.8248202834423316,-0.003165545104486833,0.08416118180686077,"(0.0, 0.0, 0.0, 0.0, 0.0, 0.0)",0.06014361689139186,False,,,,,False,,,,
21,Open,,,,,,"[-0.026750000193715096, 0.05299999937415123, 0.03999999910593033]","[0.0, -0.0, 1.3794728975130914]","[-0.09743624925613403, 0.06669140607118607, 0.03999999910593033]","[0.0, -0.0, 1.382604304378769]","[0.026750000193715096, 0.05299999937415123, 0.03999999910593033]","[0.0, 0.0, -1.379475506721758]","[0.09743628650903702, 0.06669121235609055, 0.03999999910593033]","[0.0, 0.0, -1.3826409668082853]",1.3985255300318697,4.572652532483473,"(0.0, 0.0, 0.0, 0.0, 0.0, 0.0)",-0.7425066286387145,0.0028192047313806493,-0.07495051734417352,"(0.0, 0.0, 0.0, 0.0, 0.0, 0.0)",-0.054190171953983096,-1.3985279890256384,-4.57258695931631,"(0.0, 0.0, 0.0, 0.0, 0.0, 0.0)",0.7424862245436853,-0.0028498464605416357,0.07576767454684734,"(0.0, 0.0, 0.0, 0.0, 0.0, 0.0)",0.0541796259205944,False,,,,,False,,,,
22,Open,,,,,,"[-0.026750000193715096, 0.05299999937415123, 0.03999999910593033]","[0.0, -0.0, 1.398525454133583]","[-0.09768425673246384, 0.0653422400355339, 0.03999999910593033]","[0.0, -0.0, 1.4013447262228373]","[0.026750000193715096, 0.05299999937415123, 0.03999999910593033]","[0.0, 0.0, -1.3985280648022782]","[0.09768428653478622, 0.06534206122159958, 0.03999999910593033]","[0.0, 0.0, -1.4013779844801912]",1.4156729770286829,4.1153872792351285,"(0.0, 0.0, 0.0, 0.0, 0.0, 0.0)",-0.6683758137814145,0.002538055332395241,-0.06747585575649792,"(0.0, 0.0, 0.0, 0.0, 0.0, 0.0)",-0.04881194552870251,-1.4156751901230746,-4.115328263384682,"(0.0, 0.0, 0.0, 0.0, 0.0, 0.0)",0.6683574317692884,-0.002565632738451909,0.06821129330153437,"(0.0, 0.0, 0.0, 0.0, 0.0, 0.0)",0.0488024380394442,False,,,,,False,,,,
23,Open,,,,,,"[-0.026750000193715096, 0.05299999937415123, 0.03999999910593033]","[0.0, -0.0, 1.4156730334745993]","[-0.09788545966148376, 0.06412414461374283, 0.03999999910593033]","[0.0, -0.0, 1.418211036917125]","[0.026750000193715096, 0.05299999937415123, 0.03999999910593033]","[0.0, 0.0, -1.4156752315845986]","[0.09788548201322556, 0.0641239807009697, 0.03999999910593033]","[0.0, 0.0, -1.418240879504808]",1.4311056793258146,3.703848551311612,"(0.0, 0.0, 0.0, 0.0, 0.0, 0.0)",-0.6016352863054336,0.002284944287465684,-0.060746650783093666,"(0.0, 0.0, 0.0, 0.0, 0.0, 0.0)",-0.04396376851645251,-1.431107671110767,-3.7037954370462103,"(0.0, 0.0, 0.0, 0.0, 0.0, 0.0)",0.6016187276545472,-0.0023097638175418747,0.061408541018408244,"(0.0, 0.0, 0.0, 0.0, 0.0, 0.0)",0.043955198772734246,False,,,,,False,,,,
24,Open,,,,,,"[-0.026750000193715096, 0.05299999937415123, 0.03999999910593033]","[0.0, -0.0, 1.4311058207082674]","[-0.09804865717887878, 0.06302504986524582, 0.03999999910593033]","[0.0, -0.0, 1.433390691262394]","[0.026750000193715096, 0.05299999937415123, 0.03999999910593033]","[0.0, 0.0, -1.4311075924426346]","[0.09804867953062057, 0.06302490830421448, 0.03999999910593033]","[0.0, 0.0, -1.433417470845748]",1.4449951113932331,3.333463696180452,"(0.0, 0.0, 0.0, 0.0, 0.0, 0.0)",-0.5415503506795546,0.0020570753203455715,-0.05468855210882702,"(0.0, 0.0, 0.0, 0.0, 0.0, 0.0)",-0.039594115216637325,-1.4449969039996904,-3.3334158933415914,"(0.0, 0.0, 0.0, 0.0, 0.0, 0.0)",0.541535435877482,-0.002079412775410495,0.055284250111531166,"(0.0, 0.0, 0.0, 0.0, 0.0, 0.0)",0.03958639191865308,False,,,,,False,,,,
25,Open,,,,,,"[-0.026750000193715096, 0.05299999937415123, 0.03999999910593033]","[0.0, -0.0, 1.444995076522675]","[-0.09818101674318314, 0.062033817172050476, 0.03999999910593033]","[0.0, -0.0, 1.4470522962768402]","[0.026750000193715096, 0.05299999937415123, 0.03999999910593033]","[0.0, 0.0, -1.4449971061677662]","[0.09818103164434433, 0.06203368678689003, 0.03999999910593033]","[0.0, 0.0, -1.4470761943538692]",1.45749560025391,3.0001173265624064,"(0.0, 0.0, 0.0, 0.0, 0.0, 0.0)",-0.4874589573784058,0.001851931045420989,-0.04923462598189979,"(0.0, 0.0, 0.0, 0.0, 0.0, 0.0)",-0.03565633120497695,-1.4574972135997213,-3.000074304007432,"(0.0, 0.0, 0.0, 0.0, 0.0, 0.0)",0.4874455243270462,-0.0018720346450414762,0.04977075128856451,"(0.0, 0.0, 0.0, 0.0, 0.0, 0.0)",0.03564937171228022,False,,,,,False,,,,
26,Open,,,,,,"[-0.026750000193715096, 0.05299999937415123, 0.03999999910593033]","[0.0, -0.0, 1.4574954921785264]","[-0.09828835725784302, 0.061140209436416626, 0.03999999910593033]","[0.0, -0.0, 1.4593474823067423]","[0.026750000193715096, 0.05299999937415123, 0.03999999910593033]","[0.0, 0.0, -1.4574971848934346]","[0.09828837215900421, 0.061140093952417374, 0.03999999910593033]","[0.0, 0.0, -1.4593694397653831]",1.4687460402285188,2.700105593906164,"(0.0, 0.0, 0.0, 0.0, 0.0, 0.0)",-0.4387645947805427,0.0016672451487475934,-0.044324615201614966,"(0.0, 0.0, 0.0, 0.0, 0.0, 0.0)",-0.032108199676446195,-1.4687474922397492,-2.70006687360669,"(0.0, 0.0, 0.0, 0.0, 0.0, 0.0)",0.4387524971567325,-0.0016853382893528596,0.04480712536526797,"(0.0, 0.0, 0.0, 0.0, 0.0, 0.0)",0.03210192923147444,False,,,,,False,,,,
27,Open,,,,,,"[-0.026750000193715096, 0.05299999937415123, 0.03999999910593033]","[0.0, -0.0, 1.4687462228928074]","[-0.09837540984153748, 0.06033487245440483, 0.03999999910593033]","[0.0, -0.0, 1.4704133245237396]","[0.026750000193715096, 0.05299999937415123, 0.03999999910593033]","[0.0, 0.0, -1.4687474899518769]","[0.09837542474269867, 0.060334768146276474, 0.03999999910593033]","[0.0, 0.0, -1.4704329951986796]",1.478871436205667,2.430095034515549,"(0.0, 0.0, 0.0, 0.0, 0.0, 0.0)",-0.394929862139441,0.0015009773446580906,-0.03990427298148066,"(0.0, 0.0, 0.0, 0.0, 0.0, 0.0)",-0.028911540991871522,-1.4788727430157742,-2.430060186246021,"(0.0, 0.0, 0.0, 0.0, 0.0, 0.0)",0.39491896790015035,-0.001517261081966714,0.04033852977267494,"(0.0, 0.0, 0.0, 0.0, 0.0, 0.0)",0.02890589200411927,False,,,,,False,,,,
28,Open,,,,,,"[-0.026750000193715096, 0.05299999937415123, 0.03999999910593033]","[0.0, -0.0, 1.4788714352834713]","[-0.09844600409269333, 0.05960927531123161, 0.03999999910593033]","[0.0, -0.0, 1.480372508787761]","[0.026750000193715096, 0.05299999937415123, 0.03999999910593033]","[0.0, 0.0, -1.4788727099725336]","[0.09844601899385452, 0.05960918217897415, 0.03999999910593033]","[0.0, 0.0, -1.4803900544382056]",1.4879842925851003,2.1870855310639947,"(0.0, 0.0, 0.0, 0.0, 0.0, 0.0)",-0.3554706611703565,0.001351290830885638,-0.035924763305388616,"(0.0, 0.0, 0.0, 0.0, 0.0, 0.0)",-0.026031844038894282,-1.487985468714197,-2.1870541676214206,"(0.0, 0.0, 0.0, 0.0, 0.0, 0.0)",0.3554608511915877,-0.001365946114079445,0.03631559229294455,"(0.0, 0.0, 0.0, 0.0, 0.0, 0.0)",0.026026755426892093,False,,,,,False,,,,
29,Close,,,"(3.819349109750643e-09, 0.16999994350316286, 7.914305593764796e-05)","(1.5700606283751846, 1.2357610516186277e-06, -4.058049624060407e-09)",,"[-0.026750000193715096, 0.05299999937415123, 0.03999999910593033]","[0.0, -0.0, 1.4879842849605203]","[-0.09850326180458069, 0.05895565450191498, 0.03999999910593033]","[0.0, -0.0, 1.4893357278409396]","[0.026750000193715096, 0.05299999937415123, 0.03999999910593033]","[0.0, 0.0, -1.4879853833286059]","[0.09850326925516129, 0.05895556882023811, 0.03999999910593033]","[0.0, 0.0, -1.4893513332680077]",1.4961858909447026,1.968383606304533,"(0.0, 0.0, 0.0, 0.0, 0.0, 0.0)",-0.3199509489682307,0.0012161617477970744,-0.03243097994125531,"(0.0, 0.0, 0.0, 0.0, 0.0, 0.0)",-0.023446934081613715,-1.4961869218427772,-1.9683487508592754,"(0.0, 0.0, 0.0, 0.0, 0.0, 0.0)",0.3199419400446052,-0.001229728361854142,0.032692260534072745,"(0.0, 0.0, 0.0, 0.0, 0.0, 0.0)",0.023433168615173663,False,,,,,False,,,,
30,Close,,,"(1.09441459674075e-09, 0.16999988769159868, 0.0001519632082907279)","(1.5701173533571526, -2.5467641220651055e-06, -4.573996600559749e-08)",,"[-0.026750000193715096, 0.05299999937415123, 0.03999999910593033]","[0.0, -0.0, 1.4961860174198076]","[-0.09854969382286072, 0.05836696922779083, 0.03999999910593033]","[0.0, -0.0, 1.4974019413594393]","[0.026750000193715096, 0.05299999937415123, 0.03999999910593033]","[0.0, 0.0, -1.4961870219527165]","[0.09854969382286072, 0.05836689472198486, 0.03999999910593033]","[0.0, 0.0, -1.4974167044724178]",1.4065673342044127,-21.508453617669577,"(0.0, 0.0, 0.0, 0.0, 0.0, 0.0)",-36.835246106665544,-0.08890545442698265,-21.629187881947132,"(0.0, 0.0, 0.0, 0.0, 0.0, 0.0)",-4.936581865974567,-1.4065682296584996,21.50848612422666,"(0.0, 0.0, 0.0, 0.0, 0.0, 0.0)",36.83524339530116,0.08889300305746821,21.629455540637366,"(0.0, 0.0, 0.0, 0.0, 0.0, 0.0)",4.9365823336082695,False,,,,,False,,,,
31,Close,,,"(3.541182821644653e-08, 0.1699998011443987, 0.00021906657187154062)","(1.570205104748116, 3.3042409171564205e-05, -8.114212850492596e-08)",,"[-0.026750000193715096, 0.05299999937415123, 0.03999999910593033]","[0.0, -0.0, 1.4065674382065954]","[-0.0977812185883522, 0.06477140635251999, 0.03999999910593033]","[0.0, -0.0, 1.3176618302026728]","[0.026750000193715096, 0.05299999937415123, 0.03999999910593033]","[0.0, 0.0, -1.4065680331882469]","[0.0977812260389328, 0.06477133929729462, 0.03999999910593033]","[0.0, 0.0, -1.3176752548807509]",1.3259105623262026,-19.357625250770397,"(0.0, 0.0, 0.0, 0.0, 0.0, 0.0)",3.339540573214554,-0.1700149089842844,-19.466269093752416,"(0.0, 0.0, 0.0, 0.0, 0.0, 0.0)",0.4377073584116305,-1.3259114066926496,19.357637511803993,"(0.0, 0.0, 0.0, 0.0, 0.0, 0.0)",-3.3395586389530276,0.1700039961714488,19.466638347355335,"(0.0, 0.0, 0.0, 0.0, 0.0, 0.0)",-0.4376979704131895,False,,,,,False,,,,
32,Close,,,"(3.361538948490201e-08, 0.16999974452330968, 0.00028077538773600935)","(1.5702911774727688, 7.027968338074274e-05, -7.017997684986258e-06)",,"[-0.026750000193715096, 0.05299999937415123, 0.03999999910593033]","[0.0, -0.0, 1.325910602539969]","[-0.09660188108682632, 0.07045607268810272, 0.03999999910593033]","[0.0, -0.0, 1.1558956673451568]","[0.026750000193715096, 0.05299999937415123, 0.03999999910593033]","[0.0, 0.0, -1.3259115331240872]","[0.09660189598798752, 0.07045602053403854, 0.03999999910593033]","[0.0, 0.0, -1.1559073716167563]",1.2533194712128137,-17.421861867213345,"(0.0, 0.0, 0.0, 0.0, 0.0, 0.0)",3.010086633239973,-0.24301341808585597,-17.519642184377176,"(0.0, 0.0, 0.0, 0.0, 0.0, 0.0)",0.39699570761843794,-1.2533202660233846,17.421873760623594,"(0.0, 0.0, 0.0, 0.0, 0.0, 0.0)",-3.0100914115264095,0.24300386102643834,17.519967565197494,"(0.0, 0.0, 0.0, 0.0, 0.0, 0.0)",-0.39700000532502117,False,,,,,False,,,,
33,Close,,,"(1.2478111664315067e-07, 0.16999960627903704, 0.000337513976604643)","(1.5703757790333803, 0.0001088681261817636, -5.122611399447184e-06)",,"[-0.026750000193715096, 0.05299999937415123, 0.03999999910593033]","[0.0, -0.0, 1.2533194489161892]","[-0.0951518788933754, 0.07547627389431, 0.03999999910593033]","[0.0, -0.0, 1.0103060251594769]","[0.026750000193715096, 0.05299999937415123, 0.03999999910593033]","[0.0, 0.0, -1.2533201846969224]","[0.09515189379453659, 0.07547622174024582, 0.03999999910593033]","[0.0, 0.0, -1.0103163187891089]",1.1879875240915323,-15.67966730910753,"(0.0, 0.0, 0.0, 0.0, 0.0, 0.0)",2.712712910434828,-0.30871207627734343,-15.767677965956985,"(0.0, 0.0, 0.0, 0.0, 0.0, 0.0)",0.35977325777182845,-1.187988239421005,15.679686384571092,"(0.0, 0.0, 0.0, 0.0, 0.0, 0.0)",-2.712712427628536,0.3087034749237945,15.767907335365479,"(0.0, 0.0, 0.0, 0.0, 0.0, 0.0)",-0.35978255040309126,False,,,,,False,,,,
34,Close,,,"(1.2869376016944667e-07, 0.16999954011037416, 0.00038973303114976833)","(1.5704582297133343, 0.0001496263682483943, -9.931543136061158e-06)",,"[-0.026750000193715096, 0.05299999937415123, 0.03999999910593033]","[0.0, -0.0, 1.1879876003522736]","[-0.09353857487440109, 0.07989397644996643, 0.03999999910593033]","[0.0, -0.0, 0.8792754583230914]","[0.026750000193715096, 0.05299999937415123, 0.03999999910593033]","[0.0, 0.0, -1.1879882623869136]","[0.09353859722614288, 0.07989392429590225, 0.03999999910593033]","[0.0, 0.0, -0.8792847884367987]",1.129188771682313,-14.111700578212641,"(0.0, 0.0, 0.0, 0.0, 0.0, 0.0)",2.444364713047271,-0.3678408686496091,-14.190910169343757,"(0.0, 0.0, 0.0, 0.0, 0.0, 0.0)",0.3258008253200786,-1.1291894154789046,14.111717746104125,"(0.0, 0.0, 0.0, 0.0, 0.0, 0.0)",-2.444369711599438,0.3678331274319111,14.191116601947973,"(0.0, 0.0, 0.0, 0.0, 0.0, 0.0)",-0.32580325662712106,False,,,,,False,,,,
35,Close,,,"(2.2147778895778094e-07, 0.169999403724105, 0.00043775502472391954)","(1.5705392813318275, 0.0001916771605813282, -8.19762937926826e-06)",,"[-0.026750000193715096, 0.05299999937415123, 0.03999999910593033]","[0.0, -0.0, 1.1291888000608494]","[-0.09184273332357407, 0.08377232402563095, 0.03999999910593033]","[0.0, -0.0, 0.7613479024838566]","[0.026750000193715096, 0.05299999937415123, 0.03999999910593033]","[0.0, 0.0, -1.1291894580384154]","[0.09184275567531586, 0.08377227932214737, 0.03999999910593033]","[0.0, 0.0, -0.7613562479852594]",1.0762698945140219,-12.700530520389872,"(0.0, 0.0, 0.0, 0.0, 0.0, 0.0)",2.202305885430273,-0.42105678178464817,-12.771819152409384,"(0.0, 0.0, 0.0, 0.0, 0.0, 0.0)",0.2948454402756991,-1.076270473931014,12.70054597149371,"(0.0, 0.0, 0.0, 0.0, 0.0, 0.0)",-2.2023104116068795,0.4210498146891669,12.77200494174139,"(0.0, 0.0, 0.0, 0.0, 0.0, 0.0)",-0.29484765413663006,False,,,,,False,,,,
36,Close,,,"(2.1912693722736075e-07, 0.16999934361709654, 0.000481956449276018)","(1.5706184388641253, 0.00023565575873296478, -1.2845786801691941e-05)",,"[-0.026750000193715096, 0.05299999937415123, 0.03999999910593033]","[0.0, -0.0, 1.0762698553554748]","[-0.09012393653392792, 0.08717226982116699, 0.03999999910593033]","[0.0, -0.0, 0.6552131756677834]","[0.026750000193715096, 0.05299999937415123, 0.03999999910593033]","[0.0, 0.0, -1.0762704893583]","[0.09012395888566971, 0.08717223256826401, 0.03999999910593033]","[0.0, 0.0, -0.6552206969202239]",1.0286429050626198,-11.430477468336527,"(0.0, 0.0, 0.0, 0.0, 0.0, 0.0)",1.9840011882550186,-0.4689511036069088,-11.494637237342552,"(0.0, 0.0, 0.0, 0.0, 0.0, 0.0)",0.26667690119546095,-1.02864342653751,11.430491374440962,"(0.0, 0.0, 0.0, 0.0, 0.0, 0.0)",-1.98400528396058,0.4689448332202502,11.494804447459995,"(0.0, 0.0, 0.0, 0.0, 0.0, 0.0)",-0.2666789144817219,False,,,,,False,,,,
37,Close,,,"(3.1131510586280866e-07, 0.1699992121070205, 0.0005226007520893923)","(1.5706964879884222, 0.0002806415891397876, -1.1307759452448239e-05)",,"[-0.026750000193715096, 0.05299999937415123, 0.03999999910593033]","[0.0, -0.0, 1.0286429345076582]","[-0.0884251669049263, 0.09015069156885147, 0.03999999910593033]","[0.0, -0.0, 0.5596918122491786]","[0.026750000193715096, 0.05299999937415123, 0.03999999910593033]","[0.0, 0.0, -1.0286435120859125]","[0.08842518925666809, 0.09015065431594849, 0.03999999910593033]","[0.0, 0.0, -0.5596986319554179]",0.9857786145563578,-10.287429721502878,"(0.0, 0.0, 0.0, 0.0, 0.0, 0.0)",1.787161041437262,-0.5120559932468737,-10.345173513591583,"(0.0, 0.0, 0.0, 0.0, 0.0, 0.0)",0.24107517511674806,-0.9857790838833963,10.287442236987276,"(0.0, 0.0, 0.0, 0.0, 0.0, 0.0)",-1.787164745761721,0.5120503498982252,10.345324002713998,"(0.0, 0.0, 0.0, 0.0, 0.0, 0.0)",-0.24107700389812783,False,,,,,False,,,,
38,Close,,,"(3.0991842655903425e-07, 0.169999153087261, 0.0005600347082356065)","(1.570772558536085, 0.00032764712563817383, -1.5390013302753274e-05)",,"[-0.026750000193715096, 0.05299999937415123, 0.03999999910593033]","[0.0, -0.0, 0.9857786218799983]","[-0.08677656948566437, 0.09275941550731659, 0.03999999910593033]","[0.0, -0.0, 0.4737226621293967]","[0.026750000193715096, 0.05299999937415123, 0.03999999910593033]","[0.0, 0.0, -0.9857791586690391]","[0.08677658438682556, 0.0927593931555748, 0.03999999910593033]","[0.0, 0.0, -0.47372876487127014]",0.9472007531001295,-9.258686749494805,"(0.0, 0.0, 0.0, 0.0, 0.0, 0.0)",1.609708514426689,-0.5508503939221863,-9.310656162075034,"(0.0, 0.0, 0.0, 0.0, 0.0, 0.0)",0.2178310884624611,-0.9472011754950567,9.25869801320151,"(0.0, 0.0, 0.0, 0.0, 0.0, 0.0)",-1.6097118631271865,0.5508453149127815,9.310791603493534,"(0.0, 0.0, 0.0, 0.0, 0.0, 0.0)",-0.21783274790209461,False,,,,,False,,,,
39,Close,,,"(4.0106165104263135e-07, 0.169999026405202, 0.0005944331352702725)","(1.570848092729261, 0.0003750986118602944, -1.4060502423520339e-05)",,"[-0.026750000193715096, 0.05299999937415123, 0.03999999910593033]","[0.0, -0.0, 0.947200706663565]","[-0.08519845455884933, 0.09504495561122894, 0.03999999910593033]","[0.0, -0.0, 0.39635036738736323]","[0.026750000193715096, 0.05299999937415123, 0.03999999910593033]","[0.0, 0.0, -0.9472011867132297]","[0.08519846946001053, 0.09504493325948715, 0.03999999910593033]","[0.0, 0.0, -0.3963558672590039]",0.9124806777895813,-8.332818074531563,"(0.0, 0.0, 0.0, 0.0, 0.0, 0.0)",1.449761160830177,-0.5857653545299677,-8.379590545867533,"(0.0, 0.0, 0.0, 0.0, 0.0, 0.0)",0.19674735861067869,-0.9124810579450158,8.332828212009812,"(0.0, 0.0, 0.0, 0.0, 0.0, 0.0)",-1.4497641862015107,0.5857607834215034,8.379712442093242,"(0.0, 0.0, 0.0, 0.0, 0.0, 0.0)",-0.19674886336313793,False,,,,,False,,,,
40,Close,,,"(3.70657372146465e-07, 0.16999903038777142, 0.0006260749884053443)","(1.5708440552876382, 0.00034508120830118214, -1.4055585689260766e-05)",,"[-0.026750000193715096, 0.05299999937415123, 0.03999999910593033]","[0.0, -0.0, 0.9124807402838544]","[-0.08370371162891388, 0.09704854339361191, 0.03999999910593033]","[0.0, -0.0, 0.32671532955641197]","[0.026750000193715096, 0.05299999937415123, 0.03999999910593033]","[0.0, 0.0, -0.9124811663733811]","[0.08370373398065567, 0.09704852104187012, 0.03999999910593033]","[0.0, 0.0, -0.32672027776079055]",0.8812326100106231,-7.499536266949953,"(0.0, 0.0, 0.0, 0.0, 0.0, 0.0)",1.3056085780637623,-0.6171890283113738,-7.541681707537461,"(0.0, 0.0, 0.0, 0.0, 0.0, 0.0)",0.17763361981205136,-0.8812329521505142,7.499545390680378,"(0.0, 0.0, 0.0, 0.0, 0.0, 0.0)",-1.305611310539835,0.6171849143153615,7.541791414525942,"(0.0, 0.0, 0.0, 0.0, 0.0, 0.0)",-0.17763498289923674,False,,,,,False,,,,
41,Close,,,"(3.427044292909036e-07, 0.1699990340506735, 0.0006551854712062516)","(1.5708403346470328, 0.0003174583455114455, -1.4051356821419932e-05)",,"[-0.026750000193715096, 0.05299999937415123, 0.03999999910593033]","[0.0, -0.0, 0.8812326035131218]","[-0.08229970186948776, 0.09880644828081131, 0.03999999910593033]","[0.0, -0.0, 0.2640435842830354]","[0.026750000193715096, 0.05299999937415123, 0.03999999910593033]","[0.0, 0.0, -0.8812328730718287]","[0.08229971677064896, 0.09880642592906952, 0.03999999910593033]","[0.0, 0.0, -0.26404804895660133]",0.8531093490095608,-6.749582640254956,"(0.0, 0.0, 0.0, 0.0, 0.0, 0.0)",1.1757252439110246,-0.6454703143387682,-6.78750864657467,"(0.0, 0.0, 0.0, 0.0, 0.0, 0.0)",0.16033512741929012,-0.8531096569354628,6.749590851612343,"(0.0, 0.0, 0.0, 0.0, 0.0, 0.0)",-1.1757277109530366,0.6454666117438108,6.787607382827833,"(0.0, 0.0, 0.0, 0.0, 0.0, 0.0)",-0.160336361493888,False,,,,,False,,,,
42,Close,,,"(3.170084497545684e-07, 0.16999903740907119, 0.0006819671107693073)","(1.570836911771951, 0.00029204530032808255, -1.4047683015968837e-05)",,"[-0.026750000193715096, 0.05299999937415123, 0.03999999910593033]","[0.0, -0.0, 0.8531093567174074]","[-0.08098968118429184, 0.10035036504268646, 0.03999999910593033]","[0.0, -0.0, 0.2076390269369665]","[0.026750000193715096, 0.05299999937415123, 0.03999999910593033]","[0.0, 0.0, -0.8531096230941355]","[0.08098969608545303, 0.10035035014152527, 0.03999999910593033]","[0.0, 0.0, -0.2076430903577508]",0.8277984141086048,-6.074624376229462,"(0.0, 0.0, 0.0, 0.0, 0.0, 0.0)",1.0586966024409359,-0.6709234533153161,-6.108753354371479,"(0.0, 0.0, 0.0, 0.0, 0.0, 0.0)",0.14467324766428213,-0.8277986912419165,6.074631766451109,"(0.0, 0.0, 0.0, 0.0, 0.0, 0.0)",-1.058698829070383,0.6709201209811696,6.108842216966098,"(0.0, 0.0, 0.0, 0.0, 0.0, 0.0)",-0.14467436420394073,False,,,,,False,,,,
43,Close,,,"(2.93385406087929e-07, 0.16999904048782613, 0.0007066062149797113)","(1.5708337628331848, 0.0002686652895538331, -1.4044478861914954e-05)",,"[-0.026750000193715096, 0.05299999937415123, 0.03999999910593033]","[0.0, -0.0, 0.8277984323872327]","[-0.07977395504713058, 0.10170791298151016, 0.03999999910593033]","[0.0, -0.0, 0.1568749679387673]","[0.026750000193715096, 0.05299999937415123, 0.03999999910593033]","[0.0, 0.0, -0.8277987052452376]","[0.07977396249771118, 0.10170789808034897, 0.03999999910593033]","[0.0, 0.0, -0.15687856675873751]",0.8050185726977444,-5.467161938606515,"(0.0, 0.0, 0.0, 0.0, 0.0, 0.0)",0.9532674819046131,-0.6938312617077345,-5.497874014180417,"(0.0, 0.0, 0.0, 0.0, 0.0, 0.0)",0.13050694015900338,-0.8050188221177249,5.467168589805996,"(0.0, 0.0, 0.0, 0.0, 0.0, 0.0)",-0.953269490967292,0.693828262608192,5.497953990485356,"(0.0, 0.0, 0.0, 0.0, 0.0, 0.0)",-0.13050794980139238,False,,,,,False,,,,
44,Close,,,"(2.716665250887489e-07, 0.16999904330973556, 0.0007292741870466809)","(1.5708308659078907, 0.0002471556717650467, -1.4041672069322908e-05)",,"[-0.026750000193715096, 0.05299999937415123, 0.03999999910593033]","[0.0, -0.0, 0.8050185839979388]","[-0.07865073531866074, 0.10290304571390152, 0.03999999910593033]","[0.0, -0.0, 0.11118731943284449]","[0.026750000193715096, 0.05299999937415123, 0.03999999910593033]","[0.0, 0.0, -0.8050187952188965]","[0.07865074276924133, 0.10290303081274033, 0.03999999910593033]","[0.0, 0.0, -0.11119056205193266]",0.78451671542797,-4.920445744745865,"(0.0, 0.0, 0.0, 0.0, 0.0, 0.0)",0.8582975661328219,-0.7144482741757103,-4.948082992314222,"(0.0, 0.0, 0.0, 0.0, 0.0, 0.0)",0.11770006538001399,-0.7845169399059524,4.920451730825399,"(0.0, 0.0, 0.0, 0.0, 0.0, 0.0)",-0.8582993784170919,0.714445574987197,4.948154970961209,"(0.0, 0.0, 0.0, 0.0, 0.0, 0.0)",-0.11770097791104987,False,,,,,False,,,,
45,Close,,,"(2.51696986958339e-07, 0.1699990458957082, 0.0007501287178850499)","(1.5708282008276007, 0.000227366816649173, -1.4039201474218165e-05)",,"[-0.026750000193715096, 0.05299999937415123, 0.03999999910593033]","[0.0, -0.0, 0.7845167193080385]","[-0.07761679589748383, 0.10395654290914536, 0.03999999910593033]","[0.0, -0.0, 0.07006843876312031]","[0.026750000193715096, 0.05299999937415123, 0.03999999910593033]","[0.0, 0.0, -0.7845169946958266]","[0.07761680334806442, 0.10395653545856476, 0.03999999910593033]","[0.0, 0.0, -0.07007136594979613]",0.7660650438851729,-4.428401170271281,"(0.0, 0.0, 0.0, 0.0, 0.0, 0.0)",0.7727568395223795,-0.7330035717656361,-4.453271421582192,"(0.0, 0.0, 0.0, 0.0, 0.0, 0.0)",0.10612754816762682,-0.7660652459153572,4.428406557742858,"(0.0, 0.0, 0.0, 0.0, 0.0, 0.0)",-0.7727584739217627,0.7330011424969451,4.4533362023395675,"(0.0, 0.0, 0.0, 0.0, 0.0, 0.0)",-0.10612837256636154,False,,,,,False,,,,
46,Close,,,"(2.3333473952068603e-07, 0.16999904826492518, 0.0007693148831029557)","(1.5708257490378412, 0.00020916106414766092, -1.403701531280991e-05)",,"[-0.026750000193715096, 0.05299999937415123, 0.03999999910593033]","[0.0, -0.0, 0.7660649977175382]","[-0.07666795700788498, 0.10488639771938324, 0.03999999910593033]","[0.0, -0.0, 0.03306147300991763]","[0.026750000193715096, 0.05299999937415123, 0.03999999910593033]","[0.0, 0.0, -0.7660653079646047]","[0.07666796445846558, 0.10488638281822205, 0.03999999910593033]","[0.0, 0.0, -0.03306410445968045]",0.7494585394966556,-3.985561053244151,"(0.0, 0.0, 0.0, 0.0, 0.0, 0.0)",0.6957152660532583,-0.7497033272842394,-4.007941324464769,"(0.0, 0.0, 0.0, 0.0, 0.0, 0.0)",0.09567475588542217,-0.7494587213238214,3.985565901968574,"(0.0, 0.0, 0.0, 0.0, 0.0, 0.0)",-0.6957167397209265,0.7497011409432943,4.007999627123813,"(0.0, 0.0, 0.0, 0.0, 0.0, 0.0)",-0.09567550037210228,False,,,,,False,,,,
47,Close,,,"(2.1644941757498085e-07, 0.1699990504349868, 0.0007869661522299996)","(1.5708234934689855, 0.0001924117668631307, -1.4035069780186692e-05)",,"[-0.026750000193715096, 0.05299999937415123, 0.03999999910593033]","[0.0, -0.0, 0.7494586090384826]","[-0.07579945772886276, 0.10570816695690155, 0.03999999910593033]","[0.0, 0.0, -0.00024478777655170743]","[0.026750000193715096, 0.05299999937415123, 0.03999999910593033]","[0.0, 0.0, -0.7494587081400255]","[0.07579946517944336, 0.10570815205574036, 0.03999999910593033]","[0.0, -0.0, 0.00024241961245449186]",0.7345126855469901,-3.5870049479197363,"(0.0, 0.0, 0.0, 0.0, 0.0, 0.0)",0.6263333655114385,-0.7647330961340815,-3.607144523962099,"(0.0, 0.0, 0.0, 0.0, 0.0, 0.0)",0.08623684652206044,-0.7345128491914392,3.587009311771715,"(0.0, 0.0, 0.0, 0.0, 0.0, 0.0)",-0.626334694005987,0.7647311284280226,3.607196996334775,"(0.0, 0.0, 0.0, 0.0, 0.0, 0.0)",-0.08623751860757813,False,,,,,False,,,,
48,Close,,,"(1.9902478529523268e-07, 0.16999905216510106, 0.0008031506134026157)","(1.5708213694672628, 0.00017518801369688713, -1.4031269556480368e-05)",,"[-0.026750000193715096, 0.05299999937415123, 0.03999999910593033]","[0.0, -0.0, 0.7345126628086843]","[-0.07500623911619186, 0.10643533617258072, 0.03999999910593033]","[0.0, 0.0, -0.030220410204457992]","[0.026750000193715096, 0.05299999937415123, 0.03999999910593033]","[0.0, 0.0, -0.7345128981556924]","[0.07500624656677246, 0.10643532872200012, 0.03999999910593033]","[0.0, -0.0, 0.03021827771935078]",0.7210614169922911,-3.2283044531277634,"(0.0, 0.0, 0.0, 0.0, 0.0, 0.0)",0.5638237703947311,-0.7782610137490622,-3.2467002275953725,"(0.0, 0.0, 0.0, 0.0, 0.0, 0.0)",0.07768825483524462,-0.7210615642722953,3.2283083805945423,"(0.0, 0.0, 0.0, 0.0, 0.0, 0.0)",-0.5638249675836687,0.7782592428231868,3.246747454839424,"(0.0, 0.0, 0.0, 0.0, 0.0, 0.0)",-0.07768886113768697,False,,,,,False,,,,
49,Close,,,"(1.829952775457341e-07, 0.16999905372445717, 0.0008180403399689366)","(1.5708194143492393, 0.00015934185659229473, -1.4027683329641553e-05)",,"[-0.026750000193715096, 0.05299999937415123, 0.03999999910593033]","[0.0, -0.0, 0.7210614193238458]","[-0.07428312301635742, 0.10707958787679672, 0.03999999910593033]","[0.0, 0.0, -0.057199597790713604]","[0.026750000193715096, 0.05299999937415123, 0.03999999910593033]","[0.0, 0.0, -0.7210615729227128]","[0.07428313046693802, 0.10707958042621613, 0.03999999910593033]","[0.0, -0.0, 0.05719768345951182]",0.708955275293062,-2.9054740078149877,"(0.0, 0.0, 0.0, 0.0, 0.0, 0.0)",0.5075985239617241,-0.7904360187393936,-2.9220011976795366,"(0.0, 0.0, 0.0, 0.0, 0.0, 0.0)",0.07003715469825963,-0.7089554078450657,2.9054775425350883,"(0.0, 0.0, 0.0, 0.0, 0.0, 0.0)",-0.5075996031255756,0.7904344249147509,2.922043701975378,"(0.0, 0.0, 0.0, 0.0, 0.0, 0.0)",-0.07003770196838754,False,,,,,False,,,,
50,Close,,,"(1.682467379846132e-07, 0.1699990551245469, 0.0008317388481303276)","(1.570817615731277, 0.00014476218910829968, -1.4024269510216624e-05)",,"[-0.026750000193715096, 0.05299999937415123, 0.03999999910593033]","[0.0, -0.0, 0.7089552779168017]","[-0.07362496107816696, 0.10765105485916138, 0.03999999910593033]","[0.0, 0.0, -0.081480730122972]","[0.026750000193715096, 0.05299999937415123, 0.03999999910593033]","[0.0, 0.0, -0.7089554724698194]","[0.07362496852874756, 0.10765104740858078, 0.03999999910593033]","[0.0, -0.0, 0.08147901305604668]",0.6980597477637558,-2.6149266070334884,"(0.0, 0.0, 0.0, 0.0, 0.0, 0.0)",0.4569391778919132,-0.8013934136776424,-2.629774785179692,"(0.0, 0.0, 0.0, 0.0, 0.0, 0.0)",0.06310202729425232,-0.6980598670605591,2.6149297882815787,"(0.0, 0.0, 0.0, 0.0, 0.0, 0.0)",-0.4569401503032357,0.8013919792432617,2.6298130388425847,"(0.0, 0.0, 0.0, 0.0, 0.0, 0.0)",-0.06310252092356251,False,,,,,False,,,,
51,Close,,,"(1.546756367802499e-07, 0.16999905637827734, 0.0008443414385910609)","(1.5708159610857961, 0.00013134778772512943, -1.402100024143693e-05)",,"[-0.026750000193715096, 0.05299999937415123, 0.03999999910593033]","[0.0, -0.0, 0.6980597686270504]","[-0.07302673906087875, 0.10815852880477905, 0.03999999910593033]","[0.0, 0.0, -0.10333366438270306]","[0.026750000193715096, 0.05299999937415123, 0.03999999910593033]","[0.0, 0.0, -0.6980598246378259]","[0.07302674651145935, 0.10815852135419846, 0.03999999910593033]","[0.0, -0.0, 0.10333211544558037]",0.6882537729873802,-2.35343394633014,"(0.0, 0.0, 0.0, 0.0, 0.0, 0.0)",0.4113266280268069,-0.8112549703177949,-2.366773593636606,"(0.0, 0.0, 0.0, 0.0, 0.0, 0.0)",0.05684733869787501,-0.6882538803545032,2.35343680945342,"(0.0, 0.0, 0.0, 0.0, 0.0, 0.0)",-0.411327504139387,0.8112536793338841,2.3668080217493985,"(0.0, 0.0, 0.0, 0.0, 0.0, 0.0)",-0.0568477838437365,False,,,,,False,,,,
52,Close,,,"(1.4218689550358636e-07, 0.1699990574974972, 0.0008559357877458743)","(1.5708144388885392, 0.00011900551991941484, -1.4017852050493115e-05)",,"[-0.026750000193715096, 0.05299999937415123, 0.03999999910593033]","[0.0, -0.0, 0.6882538042795985]","[-0.07248363643884659, 0.10860966145992279, 0.03999999910593033]","[0.0, 0.0, -0.12300120009793278]","[0.026750000193715096, 0.05299999937415123, 0.03999999910593033]","[0.0, 0.0, -0.688253900607872]","[0.07248364388942719, 0.1086096540093422, 0.03999999910593033]","[0.0, -0.0, 0.1229998170195526]",0.6794283956886422,-2.1180905516971262,"(0.0, 0.0, 0.0, 0.0, 0.0, 0.0)",0.3702598463755125,-0.8201302822030435,-2.1300748524596753,"(0.0, 0.0, 0.0, 0.0, 0.0, 0.0)",0.051207544408732715,-0.6794284923190529,2.118093128508077,"(0.0, 0.0, 0.0, 0.0, 0.0, 0.0)",-0.3702606356399545,0.8201291203238639,2.130105837595123,"(0.0, 0.0, 0.0, 0.0, 0.0, 0.0)",-0.051207945752173356,False,,,,,False,,,,
53,Close,,,"(1.3069318416839e-07, 0.16999905849308636, 0.0008666025576372722)","(1.5708130385376784, 0.00010764969663878531, -1.401480516953977e-05)",,"[-0.026750000193715096, 0.05299999937415123, 0.03999999910593033]","[0.0, -0.0, 0.6794284238724229]","[-0.07199108600616455, 0.10901110619306564, 0.03999999910593033]","[0.0, 0.0, -0.14070190225681992]","[0.026750000193715096, 0.05299999937415123, 0.03999999910593033]","[0.0, 0.0, -0.6794284800706577]","[0.07199109345674515, 0.10901109874248505, 0.03999999910593033]","[0.0, -0.0, 0.14070063689630927]",0.671485556119778,-1.9062814965274142,"(0.0, 0.0, 0.0, 0.0, 0.0, 0.0)",0.33328720133394807,-0.8281179825827046,-1.9170480911186794,"(0.0, 0.0, 0.0, 0.0, 0.0, 0.0)",0.046123166891546684,-0.6714856430871476,1.90628381565727,"(0.0, 0.0, 0.0, 0.0, 0.0, 0.0)",-0.3332879122898772,0.828116936897158,1.917075977590607,"(0.0, 0.0, 0.0, 0.0, 0.0, 0.0)",-0.04612352867730359,False,,,,,False,,,,
54,Close,,,"(1.201142787701026e-07, 0.1699990593750365, 0.0008764159571233717)","(1.5708117502799854, 9.720147739875066e-05, -1.4011842957469135e-05)",,"[-0.026750000193715096, 0.05299999937415123, 0.03999999910593033]","[0.0, -0.0, 0.6714856028191667]","[-0.07154478132724762, 0.10936867445707321, 0.03999999910593033]","[0.0, 0.0, -0.1566324305695935]","[0.026750000193715096, 0.05299999937415123, 0.03999999910593033]","[0.0, 0.0, -0.6714856028191667]","[0.07154478132724762, 0.10936867445707321, 0.03999999910593033]","[0.0, -0.0, 0.15663128669709228]",0.6643370005078002,-1.7156533468746729,"(0.0, 0.0, 0.0, 0.0, 0.0, 0.0)",0.30000166458192923,-0.835306840529519,-1.7253259072354554,"(0.0, 0.0, 0.0, 0.0, 0.0, 0.0)",0.041540293819203926,-0.6643370787784328,1.7156554340915442,"(0.0, 0.0, 0.0, 0.0, 0.0, 0.0)",-0.3000023049426151,0.8353058994176781,1.7253510049247986,"(0.0, 0.0, 0.0, 0.0, 0.0, 0.0)",-0.04154061989330595,False,,,,,False,,,,
55,Close,,,"(1.1037647424359984e-07, 0.16999906015252483, 0.0008854442581506275)","(1.5708105651429114, 8.758832292823178e-05, -1.4008951415989527e-05)",,"[-0.026750000193715096, 0.05299999937415123, 0.03999999910593033]","[0.0, -0.0, 0.6643370606126838]","[-0.07114068418741226, 0.1096874549984932, 0.03999999910593033]","[0.0, 0.0, -0.1709698466782967]","[0.026750000193715096, 0.05299999937415123, 0.03999999910593033]","[0.0, 0.0, -0.6643370606126838]","[0.07114069163799286, 0.1096874475479126, 0.03999999910593033]","[0.0, -0.0, 0.1709688167431269]",0.6579033004570202,-1.5440880121872054,"(0.0, 0.0, 0.0, 0.0, 0.0, 0.0)",0.2700364571661963,-0.8417767474375794,-1.5527776579344892,"(0.0, 0.0, 0.0, 0.0, 0.0, 0.0)",0.03741009427044706,-0.6579033709005896,1.5440898906823886,"(0.0, 0.0, 0.0, 0.0, 0.0, 0.0)",-0.27003703389594624,0.8417759004415644,1.5528002457327068,"(0.0, 0.0, 0.0, 0.0, 0.0, 0.0)",-0.03741038811518953,False,,,,,False,,,,
56,Close,,,"(1.0141204673652616e-07, 0.16999906083398159, 0.0008937502707232629)","(1.570809474872104, 7.87434915574051e-05, -1.4006118772737545e-05)",,"[-0.026750000193715096, 0.05299999937415123, 0.03999999910593033]","[0.0, -0.0, 0.6579033304946226]","[-0.07077505439519882, 0.10997187346220016, 0.03999999910593033]","[0.0, 0.0, -0.1838734592989254]","[0.026750000193715096, 0.05299999937415123, 0.03999999910593033]","[0.0, 0.0, -0.6579033304946226]","[0.07077506184577942, 0.10997187346220016, 0.03999999910593033]","[0.0, -0.0, 0.1838725322783545]",0.6521129704113181,-1.3896792109684843,"(0.0, 0.0, 0.0, 0.0, 0.0, 0.0)",0.24306111074818723,-0.8475996048633687,-1.3974857821894393,"(0.0, 0.0, 0.0, 0.0, 0.0, 0.0)",0.03368836948248246,-0.6521130338105307,1.3896809016141507,"(0.0, 0.0, 0.0, 0.0, 0.0, 0.0)",-0.24306163013297288,0.8475988425711377,1.397506111097592,"(0.0, 0.0, 0.0, 0.0, 0.0, 0.0)",-0.03368863424883098,False,,,,,False,,,,
57,Close,,,"(9.31587620256511e-08, 0.16999906142715163, 0.0009013917798737923)","(1.570808471873919, 7.060557585400826e-05, -1.4003335136779464e-05)",,"[-0.026750000193715096, 0.05299999937415123, 0.03999999910593033]","[0.0, -0.0, 0.6521129301518677]","[-0.07044443488121033, 0.11022583395242691, 0.03999999910593033]","[0.0, 0.0, -0.1954866409095181]","[0.026750000193715096, 0.05299999937415123, 0.03999999910593033]","[0.0, 0.0, -0.6521129866161153]","[0.07044444233179092, 0.11022583395242691, 0.03999999910593033]","[0.0, -0.0, 0.1954858104274693]",0.6469016733701863,-1.2507112898716353,"(0.0, 0.0, 0.0, 0.0, 0.0, 0.0)",0.2187779063491743,-0.8528401235761308,-1.2577244910629073,"(0.0, 0.0, 0.0, 0.0, 0.0, 0.0)",0.030335137335820765,-0.6469017304294776,1.2507128114527362,"(0.0, 0.0, 0.0, 0.0, 0.0, 0.0)",-0.21877837406104841,0.8528394375168911,1.2577427869808044,"(0.0, 0.0, 0.0, 0.0, 0.0, 0.0)",-0.030335375873334264,False,,,,,False,,,,
58,Close,,,"(8.555942447331213e-08, 0.16999906193915107, 0.000908421947674647)","(1.5708075491625393, 6.311807629477444e-05, -1.4000592203169427e-05)",,"[-0.026750000193715096, 0.05299999937415123, 0.03999999910593033]","[0.0, -0.0, 0.6469017074975589]","[-0.0701456218957901, 0.11045276373624802, 0.03999999910593033]","[0.0, 0.0, -0.20593845629424773]","[0.026750000193715096, 0.05299999937415123, 0.03999999910593033]","[0.0, 0.0, -0.6469017640113621]","[0.0701456293463707, 0.11045276373624802, 0.03999999910593033]","[0.0, -0.0, 0.2059376906760973]",0.6422115060331677,-1.1256401608844724,"(0.0, 0.0, 0.0, 0.0, 0.0, 0.0)",0.1969186559551539,-0.8575565426971532,-1.1319405890453855,"(0.0, 0.0, 0.0, 0.0, 0.0, 0.0)",0.02731424932501991,-0.6422115573865299,1.1256415303074634,"(0.0, 0.0, 0.0, 0.0, 0.0, 0.0)",-0.19691907711083773,0.857555925247232,1.131957055281818,"(0.0, 0.0, 0.0, 0.0, 0.0, 0.0)",-0.027314464209387046,False,,,,,False,,,,
59,Move,,,"(7.856146500561274e-08, 0.16999906237651882, 0.0009148896830877347)","(1.5708067003113224, 5.6229009009845055e-05, -1.399788300299107e-05)","[0.0, 0.0, 0.0]","[-0.026750000193715096, 0.05299999937415123, 0.03999999910593033]","[0.0, -0.0, 0.6422115222668433]","[-0.06987567991018295, 0.11065566539764404, 0.03999999910593033]","[0.0, 0.0, -0.2153450417065848]","[0.026750000193715096, 0.05299999937415123, 0.03999999910593033]","[0.0, 0.0, -0.6422115222668433]","[0.06987568736076355, 0.11065565794706345, 0.03999999910593033]","[0.0, -0.0, 0.21534437704163675]",0.6379903554298509,-1.0130761447960246,"(0.0, 0.0, 0.0, 0.0, 0.0, 0.0)",0.17724179521627895,-0.8618012769195602,-1.018736213377688,"(0.0, 0.0, 0.0, 0.0, 0.0, 0.0)",0.0245930384894814,-0.6379904016478769,1.0130773772767183,"(0.0, 0.0, 0.0, 0.0, 0.0, 0.0)",-0.17724217443043713,0.8618007212176888,1.0187510329096225,"(0.0, 0.0, 0.0, 0.0, 0.0, 0.0)",-0.024593232047800357,False,,,,,False,,,,
60,Move,,,"(7.401516452493873e-08, 0.16999906300717518, 0.0009208949427311885)","(1.5708059692049072, 5.171406878091127e-05, -1.3997173418156156e-05)","[-4.546300480674002e-09, 6.306563604674409e-10, 6.005259643453772e-06]","[-0.026750000193715096, 0.05299999937415123, 0.03999999910593033]","[0.0, -0.0, 0.6379903239810443]","[-0.06963192671537399, 0.1108371913433075, 0.03999999910593033]","[0.0, 0.0, -0.22381094045082467]","[0.026750000193715096, 0.05299999937415123, 0.03999999910593033]","[0.0, 0.0, -0.6379904179642307]","[0.06963192671537399, 0.1108371838927269, 0.03999999910593033]","[0.0, -0.0, 0.2238103200122764]",0.615110638134345,-5.491132150921422,"(0.0, 0.0, 0.0, 0.0, 0.0, 0.0)",-6.452665337095575,-0.8613763702363125,0.10197760397944555,"(0.0, 0.0, 0.0, 0.0, 0.0, 0.0)",-0.3678253668929761,-0.6151107211023211,5.491123330933391,"(0.0, 0.0, 0.0, 0.0, 0.0, 0.0)",6.452648793785676,0.8613758083630342,-0.10197908511710785,"(0.0, 0.0, 0.0, 0.0, 0.0, 0.0)",0.36782248204909895,False,,,,,False,,,,
61,Move,,,"(6.525727540666152e-05, 0.170345498349739, 0.001059997077241567)","(1.5643419032167225, 0.000197563388281916, -0.0007979471836882903)","[6.517871394165591e-05, 0.00034643597322017716, 0.0001451073941538322]","[-0.026750000193715096, 0.05299999937415123, 0.03999999910593033]","[0.0, -0.0, 0.6151107619663475]","[-0.06829752027988434, 0.1118030920624733, 0.03999999910593033]","[0.0, 0.0, -0.24626572908574074]","[0.026750000193715096, 0.05299999937415123, 0.03999999910593033]","[0.0, 0.0, -0.6151107619663475]","[0.06829752773046494, 0.1118030920624733, 0.03999999910593033]","[0.0, -0.0, 0.24626509333393987]",0.5955752037272642,-4.688504257699382,"(0.0, 0.0, 0.0, 0.0, 0.0, 0.0)",-45.00484902056465,-0.8415870330715334,4.749440919546993,"(0.0, 0.0, 0.0, 0.0, 0.0, 0.0)",-23.059865446641542,-0.5955448463173273,4.695809948398522,"(0.0, 0.0, 0.0, 0.0, 0.0, 0.0)",43.233095586684094,0.8422035765808922,-4.601335627714076,"(0.0, 0.0, 0.0, 0.0, 0.0, 0.0)",22.069597917961392,True,"(-0.0328869812872885, 0.18306432225370392, 0.039999948285931244)","(0.999999998564867, -1.399717340023381e-05, -5.1714068757665875e-05)",0.0009292598800256974,356.63295742831633,True,"(0.03288703211825929, 0.18306436899025683, 0.04000005171406876)","(-0.9999999985648671, 1.3997173402169385e-05, 5.171406875682724e-05)",0.0009247550475631954,342.770840918112
62,Move,"(0.0, 0.0, 0.0)","(0.0, -0.0, 0.0)","(0.00016176689267871384, 0.170769344127595, 0.0012989924108436238)","(1.5534591187548563, 0.0004787125103189545, -0.0016283618084173405)","[0.00016168833121370824, 0.000770281751076185, 0.00038410272775588907]","[-0.026750000193715096, 0.05299999937415123, 0.03999999910593033]","[0.0, -0.0, 0.5955751094143519]","[-0.06714092195034027, 0.11260347068309784, 0.03999999910593033]","[0.0, 0.0, -0.24601185159459507]","[0.026750000193715096, 0.05299999937415123, 0.03999999910593033]","[0.0, 0.0, -0.5955448282145998]","[0.06713911145925522, 0.11260469257831573, 0.03999999910593033]","[0.0, -0.0, 0.24665872904210193]",0.577097076069513,-4.434750637860288,"(0.0, 0.0, 0.0, 0.0, 0.0, 0.0)",-74.21698435352988,-0.8118509915390502,7.136649967795963,"(0.0, 0.0, 0.0, 0.0, 0.0, 0.0)",-37.925884464403794,-0.5770027633561036,4.450099910693686,"(0.0, 0.0, 0.0, 0.0, 0.0, 0.0)",71.595406999539,0.8135423675004012,-6.87869017931782,"(0.0, 0.0, 0.0, 0.0, 0.0, 0.0)",36.48540267051747,True,"(-0.03174847757726046, 0.18387264991014468, 0.039999802436613004)","(0.999999662124523, -0.0007979470834278504, -0.0001975633870030113)",-0.0001277880542238664,569.3446779207153,True,"(0.031700570736228145, 0.18385320852601408, 0.04000019756338699)","(-0.9999996621245231, 0.0007979470834444739, 0.00019756338698613066)",-0.0003431680125933818,549.2893002177528
63,Move,"(0.0, 0.0, 0.0)","(0.0, -0.0, 0.0)","(0.00020568042807162082, 0.17108007672726738, 0.001566595707337715)","(1.5453980249747683, 0.00011151383747928946, -0.0017071240308640968)","[0.00020560186660661522, 0.0010810143507485603, 0.0006517060242499802]","[-0.026750000193715096, 0.05299999937415123, 0.03999999910593033]","[0.0, -0.0, 0.5770971029289548]","[-0.06603273004293442, 0.11333960294723511, 0.03999999910593033]","[0.0, 0.0, -0.23475391897699402]","[0.026750000193715096, 0.05299999937415123, 0.03999999910593033]","[0.0, 0.0, -0.5770027543990871]","[0.06602703779935837, 0.11334330588579178, 0.03999999910593033]","[0.0, -0.0, 0.23653961426052006]",0.5794048935654523,0.5538761990254404,"(0.0, 0.0, 0.0, 0.0, 0.0, 0.0)",6.463398322175672,-0.8148245956922985,-0.7136649967795972,"(0.0, 0.0, 0.0, 0.0, 0.0, 0.0)",-0.3132438252909276,-0.5792909144897829,-0.5491562720830432,"(0.0, 0.0, 0.0, 0.0, 0.0, 0.0)",-6.168527533444813,0.8163981282858342,0.6853825885039218,"(0.0, 0.0, 0.0, 0.0, 0.0, 0.0)",0.4843270819076328,True,"(-0.03144479925776865, 0.1849906130108544, 0.03999952128750798)","(0.9999985596365237, -0.0016283609022274411, -0.0004787124920250136)",-0.000311794778425866,0.0,True,"(0.03131121259948429, 0.18493748253161035, 0.04000047871249203)","(-0.9999985596365237, 0.0016283609022285585, 0.0004787124920293049)",-0.0008521960760863446,2.6063661590879836
64,Move,"(0.0, 0.0, 0.0)","(0.0, -0.0, 0.0)","(0.0002286300908810347, 0.17132534407924643, 0.0017817809880055265)","(1.5389812534468097, -0.0005115541240451944, -0.0015041172064010084)","[0.0002285515294160291, 0.0013262817027276108, 0.0008668913049177918]","[-0.026750000193715096, 0.05299999937415123, 0.03999999910593033]","[0.0, -0.0, 0.579404963823502]","[-0.06617187708616257, 0.1132487803697586, 0.03999999910593033]","[0.0, 0.0, -0.2354196929913593]","[0.026750000193715096, 0.05299999937415123, 0.03999999910593033]","[0.0, 0.0, -0.5792908612503161]","[0.0661650076508522, 0.11325327306985855, 0.03999999910593033]","[0.0, -0.0, 0.23710723316040327]",0.5797513719831643,0.08315482025087828,"(0.0, 0.0, 0.0, 0.0, 0.0, 0.0)",-0.605037159365942,-0.8145272352769737,0.07136649967795972,"(0.0, 0.0, 0.0, 0.0, 0.0, 0.0)",0.03442143431291328,-0.5795726195854822,-0.06760922296783728,"(0.0, 0.0, 0.0, 0.0, 0.0, 0.0)",0.7665056817681534,0.8161098013500082,-0.06919846459825818,"(0.0, 0.0, 0.0, 0.0, 0.0, 0.0)",0.053855070905691915,True,"(-0.03153624940561697, 0.18487733800239453, 0.03999988848616275)","(0.9999985366464667, -0.00170712319107492, -0.00011151383724761302)",-0.00019027633610537698,0.0,True,"(0.03140855309304731, 0.18482838264793183, 0.04000011151383724)","(-0.9999985366464665, 0.0017071231910868933, 0.00011151383724524658)",-0.0007849281053407871,1.0848257416972316
65,Move,"(0.0, 0.0, 0.0)","(0.0, -0.0, 0.0)","(0.00022379709300064755, 0.17150000070497334, 0.0019406497491747169)","(1.5343522232299316, -0.00047650919867205327, 0.0001420718445825849)","[0.00022371853153564195, 0.0015009383284545208, 0.0010257600660869822]","[-0.026750000193715096, 0.05299999937415123, 0.03999999910593033]","[0.0, -0.0, 0.5797513227663355]","[-0.06619274616241455, 0.11323511600494385, 0.03999999910593033]","[0.0, 0.0, -0.23477586170098852]","[0.026750000193715096, 0.05299999937415123, 0.03999999910593033]","[0.0, 0.0, -0.5795726052946306]","[0.066181980073452, 0.11324217170476913, 0.03999999910593033]","[0.0, -0.0, 0.23653717420671178]",0.5800025513097534,0.06028303838138058,"(0.0, 0.0, 0.0, 0.0, 0.0, 0.0)",-0.08748482649848388,-0.8144857824691769,0.00994867387121641,"(0.0, 0.0, 0.0, 0.0, 0.0, 0.0)",-0.03698123183987475,-0.579752546880073,-0.04318255070178822,"(0.0, 0.0, 0.0, 0.0, 0.0, 0.0)",0.4823889871451852,0.8160161696237627,-0.022471614298941497,"(0.0, 0.0, 0.0, 0.0, 0.0, 0.0)",0.2704514203580945,True,"(-0.031603247053679055, 0.1848855196394741, 0.04000051155410173)","(0.9999987379722678, -0.0015041164424527017, 0.0005115541017302505)",-0.0001273170822938979,0.360008251452027,True,"(0.0314663295953306, 0.1848363044740851, 0.03999948844589826)","(-0.9999987379722679, 0.0015041164424461958, -0.0005115541017403497)",-0.0007231107398485163,3.369657798482141
66,Move,"(0.0, 0.0, 0.0)","(0.0, -0.0, 0.0)","(0.00022550245336221006, 0.17161324025211944, 0.0020486397613329365)","(1.5313204585498843, -0.00043510177777744046, 0.0014801782160750948)","[0.00022542389189720446, 0.0016141778756006142, 0.0011337500782452018]","[-0.026750000193715096, 0.05299999937415123, 0.03999999910593033]","[0.0, -0.0, 0.5800025345126305]","[-0.0662078782916069, 0.11322520673274994, 0.03999999910593033]","[0.0, 0.0, -0.2344832078059935]","[0.026750000193715096, 0.05299999937415123, 0.03999999910593033]","[0.0, 0.0, -0.5797525332723408]","[0.06619282066822052, 0.11323507130146027, 0.03999999910593033]","[0.0, -0.0, 0.23626364065370517]",0.5803647947937671,0.08693843616330188,"(0.0, 0.0, 0.0, 0.0, 0.0, 0.0)",0.03795411160937259,-0.8144899277499565,-0.0009948673871225094,"(0.0, 0.0, 0.0, 0.0, 0.0, 0.0)",0.001722213223640418,-0.5800418779071599,-0.06943944650084646,"(0.0, 0.0, 0.0, 0.0, 0.0, 0.0)",-7.885958437715921e-05,0.8160185387073273,0.0005685800555281471,"(0.0, 0.0, 0.0, 0.0, 0.0, 0.0)",0.021043450597456534,True,"(-0.031639343575207354, 0.18488708302452053, 0.04000047650918065)","(0.9999998763772907, 0.00014207182796963745, 0.0004765091806469051)",-0.00011690024370163992,0.0,True,"(0.03149675310053335, 0.18483678296304545, 0.03999952349081936)","(-0.9999998763772906, -0.00014207182798621753, -0.00047650918064377545)",-0.0006670168635182454,0.2746029864299913
67,Move,"(0.0, 0.0, 0.0)","(0.0, -0.0, 0.0)","(0.00023275585429458347, 0.17166561404751002, 0.002105583636329725)","(1.52990338719851, -0.00040139815291505667, 0.0024409840069594094)","[0.00023267729282957787, 0.0016665516709911954, 0.0011906939532419902]","[-0.026750000193715096, 0.05299999937415123, 0.03999999910593033]","[0.0, -0.0, 0.5803648224707226]","[-0.0662296935915947, 0.11321091651916504, 0.03999999910593033]","[0.0, 0.0, -0.23412512448719516]","[0.026750000193715096, 0.05299999937415123, 0.03999999910593033]","[0.0, 0.0, -0.580041927182697]","[0.06621024757623672, 0.11322365701198578, 0.03999999910593033]","[0.0, -0.0, 0.23597666604666073]",0.5807703621801308,0.09733617272727281,"(0.0, 0.0, 0.0, 0.0, 0.0, 0.0)",0.015408284228995695,-0.8144895132218786,9.94867387111853e-05,"(0.0, 0.0, 0.0, 0.0, 0.0, 0.0)",0.0012603749487623825,-0.580366412000078,-0.07788818230034572,"(0.0, 0.0, 0.0, 0.0, 0.0, 0.0)",0.06291264428901801,0.8159977886032528,-0.0049800249778805305,"(0.0, 0.0, 0.0, 0.0, 0.0, 0.0)",0.04348960044447914,True,"(-0.03168682233115158, 0.18488614005686288, 0.040000435101764056)","(0.9999988098797511, 0.0014801775354699727, 0.00043510176405524455)",-8.387152499391966e-05,0.0,True,"(0.03153472878512318, 0.18483369684530934, 0.039999564898235945)","(-0.999998809879751, -0.001480177535472737, -0.0004351017640510524)",-0.0006147289814317681,0.5799177306681159
68,Move,"(0.0, 0.0, 0.0)","(0.0, -0.0, 0.0)","(0.00023897661361513685, 0.17167120118042226, 0.002111210827770574)","(1.5301153615792886, -0.00037629484575892123, 0.0027134591415879494)","[0.00023889805215013125, 0.0016721388039034335, 0.0011963211446828392]","[-0.026750000193715096, 0.05299999937415123, 0.03999999910593033]","[0.0, -0.0, 0.5807703962881401]","[-0.06625410914421082, 0.11319489777088165, 0.03999999910593033]","[0.0, 0.0, -0.23371917566402445]","[0.026750000193715096, 0.05299999937415123, 0.03999999910593033]","[0.0, 0.0, -0.580366420832635]","[0.06622979044914246, 0.11321084946393967, 0.03999999910593033]","[0.0, -0.0, 0.23563140459656684]",0.5812057879690814,0.10450218934813726,"(0.0, 0.0, 0.0, 0.0, 0.0, 0.0)",0.010534041379123234,-0.8144895546746864,-9.948673871384983e-06,"(0.0, 0.0, 0.0, 0.0, 0.0, 0.0)",0.0007748239983708371,-0.5807124877336445,-0.08305817605595792,"(0.0, 0.0, 0.0, 0.0, 0.0, 0.0)",0.12391442544660607,0.8159667476688064,-0.0074498242671238914,"(0.0, 0.0, 0.0, 0.0, 0.0, 0.0)",0.07303417140285658,True,"(-0.031740341544295225, 0.1848846961256327, 0.04000040139814214)","(0.9999969402400207, 0.0024409813862510733, 0.0004013981421415224)",-3.447806293703301e-05,0.0,True,"(0.03157900153937802, 0.1848315500303772, 0.03999959860185788)","(-0.9999969402400207, -0.0024409813862419603, -0.000401398142121294)",-0.0005665010238133737,1.002201705460575
69,Move,"(0.0, 0.0, 0.0)","(0.0, -0.0, 0.0)","(0.0002461361904067747, 0.17166712072689738, 0.002065756030110489)","(1.5319446458209376, -0.00034958795619048595, 0.002940945159877277)","[0.0002460576289417691, 0.0016680583503785595, 0.0011508663470227542]","[-0.026750000193715096, 0.05299999937415123, 0.03999999910593033]","[0.0, -0.0, 0.5812058059400319]","[-0.0662803128361702, 0.11317768692970276, 0.03999999910593033]","[0.0, 0.0, -0.233283741767036]","[0.026750000193715096, 0.05299999937415123, 0.03999999910593033]","[0.0, 0.0, -0.5807125062168941]","[0.06625062227249146, 0.11319718509912491, 0.03999999910593033]","[0.0, -0.0, 0.23525427735681864]",0.5816569013954562,0.10826722232994791,"(0.0, 0.0, 0.0, 0.0, 0.0, 0.0)",0.00555314762321887,-0.8144896385195972,-2.0122778581386765e-05,"(0.0, 0.0, 0.0, 0.0, 0.0, 0.0)",0.00041335766642426055,-0.5810634727713454,-0.08423640904823011,"(0.0, 0.0, 0.0, 0.0, 0.0, 0.0)",-0.0007882403842643361,0.8159686266030688,0.0004509442229745173,"(0.0, 0.0, 0.0, 0.0, 0.0, 0.0)",0.0007833139186215866,True,"(-0.03179776362982418, 0.1848823463619934, 0.04000037629483689)","(0.9999962477733582, 0.0027134556196796696, 0.0003762948368903589)",2.6515492074100602e-05,0.0,True,"(0.03162685005383499, 0.18483029613445257, 0.03999962370516312)","(-0.9999962477733583, -0.0027134556196736406, -0.00037629483687413596)",-0.000522279688679733,0.0007333446741280244
70,Move,"(0.0, 0.0, 0.0)","(0.0, -0.0, 0.0)","(0.0002532708764271361, 0.17165954104394107, 0.001969182216174458)","(1.5353965539656282, -0.00032378470001061043, 0.003168100835573944)","[0.0002531923149621305, 0.0016604786674222494, 0.0010542925330867233]","[-0.026750000193715096, 0.05299999937415123, 0.03999999910593033]","[0.0, -0.0, 0.5816569383050548]","[-0.06630745530128479, 0.11315985023975372, 0.03999999910593033]","[0.0, 0.0, -0.23283275225601152]","[0.026750000193715096, 0.05299999937415123, 0.03999999910593033]","[0.0, 0.0, -0.5810634668521766]","[0.06627175211906433, 0.11318331211805344, 0.03999999910593033]","[0.0, -0.0, 0.23490516925382088]",0.5821082265862116,0.108318045781294,"(0.0, 0.0, 0.0, 0.0, 0.0, 0.0)",0.00010339473796003847,-0.8144896590256046,-4.921441763303607e-06,"(0.0, 0.0, 0.0, 0.0, 0.0, 0.0)",9.421217901143045e-06,-0.5814109830835366,-0.08340247492588304,"(0.0, 0.0, 0.0, 0.0, 0.0, 0.0)",0.001146507099403541,0.8159683383925643,-6.917052107704633e-05,"(0.0, 0.0, 0.0, 0.0, 0.0, 0.0)",3.271349076195592e-05,True,"(-0.03185725030585247, 0.18487982939792547, 0.04000034958794908)","(0.9999956143182955, 0.0029409407407247233, 0.00034958794907879933)",9.112724225707811e-05,0.0,True,"(0.03167298711707872, 0.18482793471421938, 0.03999965041205093)","(-0.9999956143182956, -0.0029409407407268414, -0.0003495879490686594)",-0.00048131968390040513,0.0
71,Move,"(0.0, 0.0, 0.0)","(0.0, -0.0, 0.0)","(0.00026039805749050136, 0.1716489284869816, 0.0018215810853314995)","(1.540472543515266, -0.00029952615418242143, 0.003394355392241406)","[0.00026031949602549576, 0.0016498661104627776, 0.0009066914022437648]","[-0.026750000193715096, 0.05299999937415123, 0.03999999910593033]","[0.0, -0.0, 0.5821082532741377]","[-0.06633460521697998, 0.1131419911980629, 0.03999999910593033]","[0.0, 0.0, -0.23238144999977445]","[0.026750000193715096, 0.05299999937415123, 0.03999999910593033]","[0.0, 0.0, -0.5814109792903371]","[0.0662926584482193, 0.11316957324743271, 0.03999999910593033]","[0.0, -0.0, 0.23455734778915366]",0.5825522812171551,0.10657311142642724,"(0.0, 0.0, 0.0, 0.0, 0.0, 0.0)",-0.002520288751722063,-0.8144891225348909,0.0001287577712673032,"(0.0, 0.0, 0.0, 0.0, 0.0, 0.0)",-0.0001742814085190967,-0.581746861769482,-0.08061088462690957,"(0.0, 0.0, 0.0, 0.0, 0.0, 0.0)",0.0040630859687044675,0.8159674805985635,-0.00020587056020602125,"(0.0, 0.0, 0.0, 0.0, 0.0, 0.0)",0.0002891259773202478,True,"(-0.0319167682578891, 0.18487728608215837, 0.04000032378469435)","(0.9999949291547429, 0.003168095369876285, 0.0003237846943503853)",0.0001556878378406104,0.0,True,"(0.03171882068538062, 0.18482565097821801, 0.03999967621530565)","(-0.9999949291547428, -0.0031680953698746857, -0.0003237846943521107)",-0.00044058375296360437,0.0
72,Move,"(0.0, 0.0, 0.0)","(0.0, -0.0, 0.0)","(0.00026751674262181276, 0.1716359651940922, 0.0016229592028504782)","(1.5471730682991058, -0.0002774123241950244, 0.003619822131969793)","[0.00026743818115680716, 0.0016369028175733658, 0.0007080695197627435]","[-0.026750000193715096, 0.05299999937415123, 0.03999999910593033]","[0.0, -0.0, 0.5825523291625185]","[-0.06636130809783936, 0.11312440782785416, 0.03999999910593033]","[0.0, 0.0, -0.23193684855243266]","[0.026750000193715096, 0.05299999937415123, 0.03999999910593033]","[0.0, 0.0, -0.5817468907668804]","[0.06631287187337875, 0.1131562888622284, 0.03999999910593033]","[0.0, -0.0, 0.23422060129666852]",0.5829814258419588,0.10299470995287763,"(0.0, 0.0, 0.0, 0.0, 0.0, 0.0)",-0.0052406718483445575,-0.814489090393005,7.71405263158518e-06,"(0.0, 0.0, 0.0, 0.0, 0.0, 0.0)",-0.00040302617030788364,-0.5820634725880045,-0.07598659644539739,"(0.0, 0.0, 0.0, 0.0, 0.0, 0.0)",0.006791529148719338,0.8159674542532321,-6.322879537942869e-06,"(0.0, 0.0, 0.0, 0.0, 0.0, 0.0)",0.0005267361798614043,True,"(-0.03197536618717639, 0.18487477886534295, 0.04000029952614971)","(0.9999941943235671, 0.0033943487218877294, 0.00029952614970711014)",0.00021924923260648426,0.0,True,"(0.03176316105176526, 0.18482344126962696, 0.03999970047385028)","(-0.9999941943235671, -0.003394348721883511, -0.0002995261497199615)",-0.0004012648536260845,0.0
73,Move,"(0.0, 0.0, 0.0)","(0.0, -0.0, 0.0)","(0.0002746246946583349, 0.1716215790468829, 0.0013733136437154448)","(1.555498477145539, -0.00025803911830662486, 0.003844591181853189)","[0.0002745461331933293, 0.001622516670364088, 0.0004584239606277101]","[-0.026750000193715096, 0.05299999937415123, 0.03999999910593033]","[0.0, -0.0, 0.5829814129395106]","[-0.0663871020078659, 0.11310740560293198, 0.03999999910593033]","[0.0, 0.0, -0.23150768133978492]","[0.026750000193715096, 0.05299999937415123, 0.03999999910593033]","[0.0, 0.0, -0.5820634712316858]","[0.06633191555738449, 0.11314376443624496, 0.03999999910593033]","[0.0, -0.0, 0.23390397721616346]",0.583387638197465,0.09749096532147661,"(0.0, 0.0, 0.0, 0.0, 0.0, 0.0)",-0.008052854260781771,-0.8144889662477467,2.979486199943292e-05,"(0.0, 0.0, 0.0, 0.0, 0.0, 0.0)",-0.000598305366263776,-0.5823528708019663,-0.06945557135082138,"(0.0, 0.0, 0.0, 0.0, 0.0, 0.0)",0.009567254443433475,0.8159673056237363,-3.567107899579234e-05,"(0.0, 0.0, 0.0, 0.0, 0.0, 0.0)",0.0007106035903138228,True,"(-0.032031960598917525, 0.1848723216798891, 0.040000277412320644)","(0.9999934099724739, 0.003619814087522786, 0.00027741232064317216)",0.00028070580773458437,0.0,True,"(0.031804901224824794, 0.1848213062502494, 0.03999972258767936)","(-0.9999934099724738, -0.003619814087533944, -0.0002774123206396876)",-0.00036444786851652357,0.0
74,Move,"(0.0, 0.0, 0.0)","(0.0, -0.0, 0.0)","(0.0002817182588336768, 0.17160694410730407, 0.0010726417134452578)","(1.565448964178903, -0.00024199893003462656, 0.004068722653925618)","[0.0002816396973686712, 0.0016078817307852433, 0.00015775203035752307]","[-0.026750000193715096, 0.05299999937415123, 0.03999999910593033]","[0.0, -0.0, 0.583387637482778]","[-0.06641151756048203, 0.11309129744768143, 0.03999999910593033]","[0.0, 0.0, -0.23110135963561573]","[0.026750000193715096, 0.05299999937415123, 0.03999999910593033]","[0.0, 0.0, -0.5823528193172774]","[0.0663493201136589, 0.1131323054432869, 0.03999999910593033]","[0.0, -0.0, 0.23361444333999973]",0.5837625867776532,0.08998765924517738,"(0.0, 0.0, 0.0, 0.0, 0.0, 0.0)",-0.010991598183188726,-0.8144888043553816,3.885416762290818e-05,"(0.0, 0.0, 0.0, 0.0, 0.0, 0.0)",-0.0008188536518959317,-0.582606800943109,-0.060943233874253266,"(0.0, 0.0, 0.0, 0.0, 0.0, 0.0)",0.012480328605342352,0.8159671225096198,-4.394738798108883e-05,"(0.0, 0.0, 0.0, 0.0, 0.0, 0.0)",0.0009300506868357205,True,"(-0.03208553651936148, 0.18486998789765677, 0.04000025803911546)","(0.9999925762765782, 0.0038445815827898157, 0.000258039115455311)",0.00033901994111926295,0.0,True,"(0.031843062357971276, 0.18481932866684897, 0.03999974196088456)","(-0.9999925762765782, -0.0038445815827856146, -0.0002580391154411646)",-0.0003310889262989964,0.0
75,Move,"(0.0, 0.0, 0.0)","(0.0, -0.0, 0.0)","(0.00023351069588884793, 0.17165122061600122, 0.0009552758424598281)","(1.5713667134718905, 0.0016860669344258069, 0.005674236692025827)","[0.00023343213442384233, 0.001652158239482393, 4.038615937209343e-05]","[-0.026750000193715096, 0.05299999937415123, 0.03999999910593033]","[0.0, -0.0, 0.5837625877177065]","[-0.06643404811620712, 0.11307641863822937, 0.03999999910593033]","[0.0, 0.0, -0.23072623587004723]","[0.026750000193715096, 0.05299999937415123, 0.03999999910593033]","[0.0, 0.0, -0.582606793904136]","[0.066364586353302, 0.11312224715948105, 0.03999999910593033]","[0.0, -0.0, 0.23336032192224593]",0.5840975500561651,0.08039118684286173,"(0.0, 0.0, 0.0, 0.0, 0.0, 0.0)",-0.014072532731101001,-0.8144888205446181,-3.885416761661986e-06,"(0.0, 0.0, 0.0, 0.0, 0.0, 0.0)",-0.0010539434357503528,-0.5828179500061446,-0.05067577512853153,"(0.0, 0.0, 0.0, 0.0, 0.0, 0.0)",0.8188365855810898,0.8159428953758463,-0.0058145121056451775,"(0.0, 0.0, 0.0, 0.0, 0.0, 0.0)",0.4205240635543105,True,"(-0.03213499160069032, 0.18486783265136886, 0.040000241998927676)","(0.9999916934779031, 0.004068711308849312, 0.00024199892767360723)",0.0003930662359158849,0.0,True,"(0.03187655005012552, 0.18481755920896153, 0.039999758001072326)","(-0.9999916934779032, -0.004068711308850576, -0.0002419989276767426)",-0.0003022593411974208,6.081888791050165
76,Move,"(0.0, 0.0, 0.0)","(0.0, -0.0, 0.0)","(0.0002334367731598061, 0.17164979549590784, 0.0010026243182519271)","(1.5727607069247056, 0.0015511730188890352, 0.005674262636866854)","[0.0002333582116948005, 0.001650733119389014, 8.773463516419241e-05]","[-0.026750000193715096, 0.05299999937415123, 0.03999999910593033]","[0.0, -0.0, 0.5840975856660009]","[-0.06645416468381882, 0.11306312680244446, 0.03999999910593033]","[0.0, 0.0, -0.23039127250092203]","[0.026750000193715096, 0.05299999937415123, 0.03999999910593033]","[0.0, 0.0, -0.5828179388692861]","[0.06637728214263916, 0.1131138801574707, 0.03999999910593033]","[0.0, -0.0, 0.23312490477056463]",0.5843833245239102,0.06858587225880619,"(0.0, 0.0, 0.0, 0.0, 0.0, 0.0)",-0.017313014506820695,-0.8144888189250634,3.886931440442565e-07,"(0.0, 0.0, 0.0, 0.0, 0.0, 0.0)",-0.001290923652643239,-0.5829744043270993,-0.03754903702915512,"(0.0, 0.0, 0.0, 0.0, 0.0, 0.0)",0.019968021502249272,0.8159455632780525,0.0006402965294848399,"(0.0, 0.0, 0.0, 0.0, 0.0, 0.0)",0.0021435795682417224,True,"(-0.03217916881129247, 0.18486729146705994, 0.039998313933864445)","(0.9999824801745405, 0.005674198177835235, -0.0016860661355591231)",0.0004429509931270352,0.0,True,"(0.03190613039143892, 0.18481546810144145, 0.04000168606613556)","(-0.9999824801745403, -0.005674198177852473, 0.0016860661355582616)",-0.00027907267289852965,0.0
77,Move,"(0.0, 0.0, 0.0)","(0.0, -0.0, 0.0)","(0.00023331365473555892, 0.17165004862470015, 0.0009990957335463185)","(1.572522172934644, 0.001427116840331787, 0.005673767101860712)","[0.00023323509327055332, 0.0016509862481813298, 8.420605045858379e-05]","[-0.026750000193715096, 0.05299999937415123, 0.03999999910593033]","[0.0, -0.0, 0.5843833827079373]","[-0.06647133082151413, 0.11305177956819534, 0.03999999910593033]","[0.0, 0.0, -0.23010553461538896]","[0.026750000193715096, 0.05299999937415123, 0.03999999910593033]","[0.0, 0.0, -0.5829743793410241]","[0.06638668477535248, 0.11310768127441406, 0.03999999910593033]","[0.0, -0.0, 0.23297116910991744]",0.584658942372351,0.0661482836258216,"(0.0, 0.0, 0.0, 0.0, 0.0, 0.0)",-0.0035620767473878443,-0.8144888190870189,-3.886931302967164e-08,"(0.0, 0.0, 0.0, 0.0, 0.0, 0.0)",-0.0002656858818558869,-0.5830994321032049,-0.030006666265325777,"(0.0, 0.0, 0.0, 0.0, 0.0, 0.0)",0.010991552000190783,0.8159454349675858,-3.079451200629511e-05,"(0.0, 0.0, 0.0, 0.0, 0.0, 0.0)",0.000751878340519939,True,"(-0.03221685112985148, 0.184865448876463, 0.03999844882760317)","(0.9999826983656998, 0.0056742253611422, -0.0015511723968321622)",0.00047522792221089434,0.0,True,"(0.03192656276331731, 0.18481441404232737, 0.04000155117239684)","(-0.9999826983656999, -0.005674225361139066, 0.0015511723968373568)",-0.0002532165879153806,0.0
78,Move,"(0.0, 0.0, 0.0)","(0.0, -0.0, 0.0)","(0.00023319237310616569, 0.17165046705005094, 0.0009895082249938463)","(1.5721018978141714, 0.0013012153164565087, 0.005672733083333423)","[0.00023311381164116009, 0.0016514046735321142, 7.46185419061116e-05]","[-0.026750000193715096, 0.05299999937415123, 0.03999999910593033]","[0.0, -0.0, 0.5846589377019289]","[-0.0664878785610199, 0.11304082721471786, 0.03999999910593033]","[0.0, 0.0, -0.22982983543878913]","[0.026750000193715096, 0.05299999937415123, 0.03999999910593033]","[0.0, 0.0, -0.5830994769155812]","[0.06639419496059418, 0.11310272663831711, 0.03999999910593033]","[0.0, -0.0, 0.2328459870788598]",0.5849273880201158,0.06442695546354484,"(0.0, 0.0, 0.0, 0.0, 0.0, 0.0)",-0.0025109684236093756,-0.8144888190543724,7.835146253349107e-09,"(0.0, 0.0, 0.0, 0.0, 0.0, 0.0)",-0.00018723600633617417,-0.5832218721901141,-0.02938562085822216,"(0.0, 0.0, 0.0, 0.0, 0.0, 0.0)",0.0009093420613732938,0.8159454917346612,1.3624098110127082e-05,"(0.0, 0.0, 0.0, 0.0, 0.0, 0.0)",7.232017115377221e-05,True,"(-0.032253193591972, 0.18486366099342183, 0.03999857288364409)","(0.9999828859119417, 0.005673730882861911, -0.0014271163559052109)",0.0005066383921231507,0.0,True,"(0.031943052901923966, 0.18481364555889718, 0.04000142711635592)","(-0.9999828859119417, -0.0056737308828772905, 0.001427116355916485)",-0.00023177678344191952,0.0
79,Move,"(0.0, 0.0, 0.0)","(0.0, -0.0, 0.0)","(0.000232885651881459, 0.17165075917877684, 0.0009895367431791645)","(1.5718291557373663, 0.0010291537138497231, 0.005671039632260127)","[0.0002328070904164534, 0.001651696802258018, 7.464706009142983e-05]","[-0.026750000193715096, 0.05299999937415123, 0.03999999910593033]","[0.0, -0.0, 0.5849273449437108]","[-0.06650399416685104, 0.11303015798330307, 0.03999999910593033]","[0.0, 0.0, -0.22956143979085217]","[0.026750000193715096, 0.05299999937415123, 0.03999999910593033]","[0.0, 0.0, -0.5832218455236623]","[0.06640155613422394, 0.11309786885976791, 0.03999999910593033]","[0.0, -0.0, 0.23272362809697725]",0.5851970838671943,0.06472700329882787,"(0.0, 0.0, 0.0, 0.0, 0.0, 0.0)",0.00045653607399377016,-0.814488819057637,-7.835145865442428e-10,"(0.0, 0.0, 0.0, 0.0, 0.0, 0.0)",3.4113627251577254e-05,-0.5833476569772109,-0.030188348903237194,"(0.0, 0.0, 0.0, 0.0, 0.0, 0.0)",-0.0011875059049778372,0.8159454860579537,-1.3624098116338195e-06,"(0.0, 0.0, 0.0, 0.0, 0.0, 0.0)",-9.011209993154936e-05,True,"(-0.03228858988476198, 0.1848619094610331, 0.03999869878505074)","(0.9999830635259211, 0.0056726978563202924, -0.001301214949263133)",0.00053704708563687,0.0,True,"(0.03195918857538439, 0.18481288542956964, 0.040001301214949256)","(-0.9999830635259214, -0.005672697856314001, 0.0013012149492608134)",-0.00021063661872543847,0.0
80,Move,"(0.0, 0.0, 0.0)","(0.0, -0.0, 0.0)","(0.00023260532493256408, 0.17165103111684366, 0.000989563499760076)","(1.5715570210769296, 0.0007576467633533799, 0.005670004295774413)","[0.00023252676346755848, 0.0016519687403248329, 7.467381667234122e-05]","[-0.026750000193715096, 0.05299999937415123, 0.03999999910593033]","[0.0, -0.0, 0.585197065530767]","[-0.06652018427848816, 0.1130194365978241, 0.03999999910593033]","[0.0, 0.0, -0.22929174375404324]","[0.026750000193715096, 0.05299999937415123, 0.03999999910593033]","[0.0, 0.0, -0.5833476738944103]","[0.06640911847352982, 0.11309288442134857, 0.03999999910593033]","[0.0, -0.0, 0.23259782349908528]",0.5854681588807856,0.065058003261921,"(0.0, 0.0, 0.0, 0.0, 0.0, 0.0)",0.0005020588305791997,-0.8144888190606063,-7.12633432290074e-10,"(0.0, 0.0, 0.0, 0.0, 0.0, 0.0)",3.751079526349308e-05,-0.5834767499543889,-0.030982314522725932,"(0.0, 0.0, 0.0, 0.0, 0.0, 0.0)",-0.0011729837644928666,0.8159454885333978,5.941065697089623e-07,"(0.0, 0.0, 0.0, 0.0, 0.0, 0.0)",-8.731252616920333e-05,True,"(-0.03232415039916665, 0.18486013954801372, 0.03999897084646782)","(0.9999833901277201, 0.005671006231641634, -0.001029153532177379)",0.0005617323125622965,0.0,True,"(0.03197576937604937, 0.18481210524885092, 0.040001029153532174)","(-0.9999833901277201, -0.0056710062316347, 0.001029153532171761)",-0.00018315344948680138,0.0
81,Move,"(0.0, 0.0, 0.0)","(0.0, -0.0, 0.0)","(0.00023235608973371316, 0.17165127029108698, 0.000989589401397826)","(1.5712854581386393, 0.00048668195334306783, 0.005670099715427275)","[0.00023227752826870756, 0.00165220791456816, 7.469971831009121e-05]","[-0.026750000193715096, 0.05299999937415123, 0.03999999910593033]","[0.0, -0.0, 0.5854682128885929]","[-0.06653645634651184, 0.11300864815711975, 0.03999999910593033]","[0.0, 0.0, -0.22902064374966274]","[0.026750000193715096, 0.05299999937415123, 0.03999999910593033]","[0.0, 0.0, -0.5834768477427504]","[0.06641687452793121, 0.11308776587247849, 0.03999999910593033]","[0.0, -0.0, 0.23246872323514473]",0.5857383251420892,0.06483990271286738,"(0.0, 0.0, 0.0, 0.0, 0.0, 0.0)",-0.00030409049033052545,-0.8144888190603095,7.126299550463955e-11,"(0.0, 0.0, 0.0, 0.0, 0.0, 0.0)",-2.2622536651965726e-05,-0.5836094629327379,-0.03185111480374436,"(0.0, 0.0, 0.0, 0.0, 0.0, 0.0)",-0.001283344571187065,0.8159454882858533,-5.941065772674392e-08,"(0.0, 0.0, 0.0, 0.0, 0.0, 0.0)",-9.580999863877246e-05,True,"(-0.03235989236039721, 0.18485835158614405, 0.039999242353309136)","(0.9999836385590261, 0.0056699722876783635, -0.0007576466908664063)",0.0005866356493616911,0.0,True,"(0.03199278564731487, 0.1848113014007264, 0.040000757646690865)","(-0.999983638559026, -0.005669972287688737, 0.0007576466908679895)",-0.00015527684305839903,0.0
82,Move,"(0.0, 0.0, 0.0)","(0.0, -0.0, 0.0)","(0.00023209885493001873, 0.17165151692062025, 0.0009896146990535193)","(1.5710144525600587, 0.0002162670098819092, 0.005670022762999483)","[0.00023202029346501313, 0.0016524545441014282, 7.472501596578456e-05]","[-0.026750000193715096, 0.05299999937415123, 0.03999999910593033]","[0.0, -0.0, 0.5857382532494954]","[-0.06655266135931015, 0.11299789696931839, 0.03999999910593033]","[0.0, 0.0, -0.228750517236879]","[0.026750000193715096, 0.05299999937415123, 0.03999999910593033]","[0.0, 0.0, -0.5836094699000467]","[0.06642484664916992, 0.11308249831199646, 0.03999999910593033]","[0.0, -0.0, 0.23233602740002993]",0.5860078212526795,0.06467906654164679,"(0.0, 0.0, 0.0, 0.0, 0.0, 0.0)",-0.00022006536564399439,-0.8144888190603385,-6.981820436872289e-12,"(0.0, 0.0, 0.0, 0.0, 0.0, 0.0)",-1.635524819474651e-05,-0.5837457558810943,-0.03271030760556747,"(0.0, 0.0, 0.0, 0.0, 0.0, 0.0)",-0.0012693748487877601,0.8159454883107524,5.975778742744559e-09,"(0.0, 0.0, 0.0, 0.0, 0.0, 0.0)",-9.46958698904106e-05,True,"(-0.032395514096751996, 0.18485656110511228, 0.03999951331806587)","(0.9999838065999205, 0.005670068661658893, -0.0004866819341304352)",0.0006114531611586028,0.0,True,"(0.03201027926487161, 0.18481047165529274, 0.040000486681934136)","(-0.9999838065999205, -0.005670068661657491, 0.0004866819341326391)",-0.00012696292993959256,0.0
83,Move,"(0.0, 0.0, 0.0)","(0.0, -0.0, 0.0)","(0.00023192558875491555, 0.17165169138385283, 0.0009896928952987467)","(1.5708405309879407, 4.4737702114072674e-05, 0.005670016791566069)","[0.00023184702728990995, 0.001652629007334011, 7.480321221101202e-05]","[-0.026750000193715096, 0.05299999937415123, 0.03999999910593033]","[0.0, -0.0, 0.5860078253319974]","[-0.06656882911920547, 0.11298716813325882, 0.03999999910593033]","[0.0, 0.0, -0.228480998884759]","[0.026750000193715096, 0.05299999937415123, 0.03999999910593033]","[0.0, 0.0, -0.5837457116332436]","[0.06643303483724594, 0.1130770891904831, 0.03999999910593033]","[0.0, -0.0, 0.23219975371062782]",0.5862766668688276,0.06452294787555068,"(0.0, 0.0, 0.0, 0.0, 0.0, 0.0)",-0.0002131791912856587,-0.8144888190603357,6.981082377784193e-13,"(0.0, 0.0, 0.0, 0.0, 0.0, 0.0)",-1.5841870202310665e-05,-0.5838855848457396,-0.033558951514873314,"(0.0, 0.0, 0.0, 0.0, 0.0, 0.0)",-0.0012541071695282156,0.8159454883082625,-5.975779870937004e-10,"(0.0, 0.0, 0.0, 0.0, 0.0, 0.0)",-9.356507893260966e-05,True,"(-0.03243104706182806, 0.18485476530483946, 0.0399997837329918)","(0.999983902078665, 0.005669992249375088, -0.00021626700819779405)",0.0006361952157648692,0.0,True,"(0.03202824472000297, 0.1848096172768714, 0.0400002162670082)","(-0.9999839020786652, -0.005669992249371623, 0.00021626700819826842)",-9.819555461530087e-05,0.0
84,Move,"(0.0, 0.0, 0.0)","(0.0, -0.0, 0.0)","(0.00023190950984085896, 0.17165170633460636, 0.000989604691912577)","(1.5708270346806286, 2.839228494865351e-05, 0.005670005322036222)","[0.00023183094837585336, 0.0016526439580875352, 7.471500882484227e-05]","[-0.026750000193715096, 0.05299999937415123, 0.03999999910593033]","[0.0, -0.0, 0.5862766437726725]","[-0.06658495962619781, 0.11297646164894104, 0.03999999910593033]","[0.0, 0.0, -0.22821214430296763]","[0.026750000193715096, 0.05299999937415123, 0.03999999910593033]","[0.0, 0.0, -0.5838855957204534]","[0.06644143909215927, 0.11307153850793839, 0.03999999910593033]","[0.0, -0.0, 0.23205988737975494]",0.5865448575443907,0.0643657621351243,"(0.0, 0.0, 0.0, 0.0, 0.0, 0.0)",-0.00021478521371635426,-0.814488819060336,-6.927791663073065e-14,"(0.0, 0.0, 0.0, 0.0, 0.0, 0.0)",-1.596196046687192e-05,-0.5840289597738227,-0.03440998273995637,"(0.0, 0.0, 0.0, 0.0, 0.0, 0.0)",-0.0012578222375298042,0.8159454883085115,5.975753225576472e-11,"(0.0, 0.0, 0.0, 0.0, 0.0, 0.0)",-9.384227577508114e-05,True,"(-0.032466493848805, 0.18485296436823861, 0.0399999552622979)","(0.999983924497142, 0.005669986404961917, -4.4737702099341544e-05)",0.0006647887963909517,0.0,True,"(0.03204667623146992, 0.18480873811595835, 0.040000044737702106)","(-0.999983924497142, -0.005669986404968682, 4.4737702104625404e-05)",-7.290494157970505e-05,0.0
85,Move,"(0.0, 0.0, 0.0)","(0.0, -0.0, 0.0)","(0.00023189871133652966, 0.17165171658356412, 0.0009895363941691865)","(1.5708181686606357, 1.7323205740026158e-05, 0.0056699948657304156)","[0.00023182014987152406, 0.001652654207045301, 7.46467110814518e-05]","[-0.026750000193715096, 0.05299999937415123, 0.03999999910593033]","[0.0, -0.0, 0.5865448345364305]","[-0.06660103797912598, 0.11296577751636505, 0.03999999910593033]","[0.0, 0.0, -0.2279439830441007]","[0.026750000193715096, 0.05299999937415123, 0.03999999910593033]","[0.0, 0.0, -0.584029019531562]","[0.06645004451274872, 0.11306584626436234, 0.03999999910593033]","[0.0, -0.0, 0.23191653102058946]",0.5868127043625954,0.06428323636913603,"(0.0, 0.0, 0.0, 0.0, 0.0, 0.0)",-0.00010520308004440017,-0.814488819060336,7.993605883180245e-15,"(0.0, 0.0, 0.0, 0.0, 0.0, 0.0)",-7.78806541822133e-06,-0.5841744763479015,-0.034923977778916364,"(0.0, 0.0, 0.0, 0.0, 0.0, 0.0)",-0.0007631705100937553,0.8159454883084867,-5.9765525862944916e-12,"(0.0, 0.0, 0.0, 0.0, 0.0, 0.0)",-5.694505575422359e-05,True,"(-0.03250185382112436, 0.18485115831844293, 0.039999971607715054)","(0.9999839251598345, 0.005669974939003937, -2.839228494357213e-05)",0.0006995049836672043,0.0,True,"(0.032065575047288374, 0.18480783398940923, 0.04000002839228494)","(-0.9999839251598344, -0.005669974938993813, 2.8392284945109597e-05)",-5.335805338713309e-05,0.0
86,Move,"(0.0, 0.0, 0.0)","(0.0, -0.0, 0.0)","(0.00023189207998890982, 0.17165172368134932, 0.0009894983976599181)","(1.5708124714263287, 1.0403377993840072e-05, 0.005669984697359686)","[0.00023181351852390422, 0.001652661304830494, 7.460871457218342e-05]","[-0.026750000193715096, 0.05299999937415123, 0.03999999910593033]","[0.0, -0.0, 0.5868127400341887]","[-0.06661710143089294, 0.11295510083436966, 0.03999999910593033]","[0.0, 0.0, -0.22767607343880564]","[0.026750000193715096, 0.05299999937415123, 0.03999999910593033]","[0.0, 0.0, -0.5841744643031507]","[0.0664587914943695, 0.11306007206439972, 0.03999999910593033]","[0.0, -0.0, 0.23177101571649172]",0.5870805857505532,0.06429153310989112,"(0.0, 0.0, 0.0, 0.0, 0.0, 0.0)",2.8128931602782675e-05,-0.814488819060336,0.0,"(0.0, 0.0, 0.0, 0.0, 0.0, 0.0)",2.157569832954472e-06,-0.5843200063199334,-0.03492719328764573,"(0.0, 0.0, 0.0, 0.0, 0.0, 0.0)",-1.3331387299729256e-05,0.8159454883084891,5.968558980384842e-13,"(0.0, 0.0, 0.0, 0.0, 0.0, 0.0)",-1.0119503349691468e-06,True,"(-0.03253716797274238, 0.18484934512032838, 0.039999982676794256)","(0.9999839254721316, 0.005669964484298896, -1.7323205739279407e-05)",0.0007343864489289726,0.0,True,"(0.03208475602955817, 0.1848069135857826, 0.04000001732320574)","(-0.9999839254721316, -0.0056699644843062605, 1.7323205738156217e-05)",-3.3740177002375036e-05,0.0
87,Move,"(0.0, 0.0, 0.0)","(0.0, -0.0, 0.0)","(0.00023188803587857282, 0.171651728806196, 0.0009894787443532314)","(1.5708087576742487, 6.0603725337441115e-06, 0.00566997467425839)","[0.00023180947441356722, 0.0016526664296771798, 7.45890612654967e-05]","[-0.026750000193715096, 0.05299999937415123, 0.03999999910593033]","[0.0, -0.0, 0.5870805991443795]","[-0.06663316488265991, 0.11294441670179367, 0.03999999910593033]","[0.0, 0.0, -0.2274082082391333]","[0.026750000193715096, 0.05299999937415123, 0.03999999910593033]","[0.0, 0.0, -0.5843200004825336]","[0.0664675310254097, 0.1130542904138565, 0.03999999910593033]","[0.0, -0.0, 0.2316254845823502]",0.5873484693670384,0.06429206795645834,"(0.0, 0.0, 0.0, 0.0, 0.0, 0.0)",1.6734392957549105e-05,-0.814488819060336,0.0,"(0.0, 0.0, 0.0, 0.0, 0.0, 0.0)",1.3076192571583436e-06,-0.5844657122992916,-0.03496943504594993,"(0.0, 0.0, 0.0, 0.0, 0.0, 0.0)",-7.063360189061446e-05,0.8159454883084889,-5.861977567373849e-14,"(0.0, 0.0, 0.0, 0.0, 0.0, 0.0)",-5.286364101274753e-06,True,"(-0.03257248619533609, 0.18484752222793183, 0.03999998959662201)","(0.9999839256257156, 0.005669954316639001, -1.0403377988868604e-05)",0.0007694380426446528,0.0,True,"(0.03210393864385255, 0.18480599030559738, 0.040000010403377986)","(-0.9999839256257156, -0.005669954316645974, 1.0403377986834807e-05)",-1.4286698396586414e-05,0.0
88,Move,"(-2.9999999999999997e-05, 0.0, -5e-05)","(0.0, -0.0, 0.0)","(0.00023188432896742862, 0.1716517336331449, 0.0009894603226853795)","(1.5708053406968514, 2.053489240224988e-06, 0.005669964698644284)","[0.00023180576750242302, 0.001652671256626076, 7.457063959764474e-05]","[-0.026750000193715096, 0.05299999937415123, 0.03999999910593033]","[0.0, -0.0, 0.5873484250553148]","[-0.06664922088384628, 0.11293373256921768, 0.03999999910593033]","[0.0, 0.0, -0.2271403726515676]","[0.026750000193715096, 0.05299999937415123, 0.03999999910593033]","[0.0, 0.0, -0.5844657306358391]","[0.06647627800703049, 0.1130485013127327, 0.03999999910593033]","[0.0, -0.0, 0.2314797789168535]",0.5876163727868459,0.06429682075378136,"(0.0, 0.0, 0.0, 0.0, 0.0, 0.0)",2.292765514213209e-05,-0.814488819060336,0.0,"(0.0, 0.0, 0.0, 0.0, 0.0, 0.0)",1.769601353171547e-06,-0.5846115692979977,-0.0350056796894765,"(0.0, 0.0, 0.0, 0.0, 0.0, 0.0)",-6.18386567604423e-05,0.8159454883084889,5.329070518200751e-15,"(0.0, 0.0, 0.0, 0.0, 0.0, 0.0)",-4.630354981301986e-06,True,"(-0.032607804222216465, 0.1848456898593683, 0.039999993939627464)","(0.9999839257182966, 0.005669944293898486, -6.060372533256681e-06)",0.0008045925889172962,0.0,True,"(0.03212314432329343, 0.18480506311191663, 0.04000000606037254)","(-0.9999839257182968, -0.005669944293902075, 6.0603725363899875e-06)",5.086724060841415e-06,0.0
89,Move,"(-5.9999999999999995e-05, 0.0, -0.0001)","(0.0, -0.0, 0.0)","(0.00023188094391147048, 0.17165173818761667, 0.0009894433721181258)","(1.5708021970565207, -1.6329491424278148e-06, 0.005669954753882817)","[0.00023180238244646488, 0.0016526758110978479, 7.455368903039111e-05]","[-0.026750000193715096, 0.05299999937415123, 0.03999999910593033]","[0.0, -0.0, 0.5876163756543522]","[-0.06666526943445206, 0.1129230409860611, 0.03999999910593033]","[0.0, 0.0, -0.22687244824394046]","[0.026750000193715096, 0.05299999937415123, 0.03999999910593033]","[0.0, 0.0, -0.5846116092717869]","[0.06648503243923187, 0.11304271221160889, 0.03999999910593033]","[0.0, -0.0, 0.23133389566463114]",0.5878835877926618,0.06413160139582892,"(0.0, 0.0, 0.0, 0.0, 0.0, 0.0)",-0.00022663766325398674,-0.814488819060336,1.0587911840678754e-22,"(0.0, 0.0, 0.0, 0.0, 0.0, 0.0)",-1.6846501881867094e-05,-0.5847438952601928,-0.031758230926799975,"(0.0, 0.0, 0.0, 0.0, 0.0, 0.0)",0.0047595297790720345,0.8159454883084889,2.6469779601696886e-22,"(0.0, 0.0, 0.0, 0.0, 0.0, 0.0)",0.00035501547369922977,True,"(-0.03264312436782444, 0.18484384789329086, 0.039999997946510754)","(0.9999839257911132, 0.005669934318536305, -2.0534892428034324e-06)",0.0008397627545957205,0.0,True,"(0.03214236977328148, 0.18480413215444833, 0.040000002053489234)","(-0.9999839257911132, -0.00566993431853219, 2.05348923707012e-06)",2.4466447743870797e-05,0.0
90,Move,"(-9e-05, 0.0, -0.00015000000000000001)","(0.0, -0.0, 0.0)","(0.0002318778548552096, 0.17165174249145757, 0.0009894277762037414)","(1.5707993047860174, -5.024638597402889e-06, 0.005669944834893918)","[0.000231799293390204, 0.0016526801149387427, 7.453809311600674e-05]","[-0.026750000193715096, 0.05299999937415123, 0.03999999910593033]","[0.0, -0.0, 0.587883527514511]","[-0.06668128073215485, 0.1129123717546463, 0.03999999910593033]","[0.0, 0.0, -0.22660520358607247]","[0.026750000193715096, 0.05299999937415123, 0.03999999910593033]","[0.0, 0.0, -0.5847438318660166]","[0.06649298220872879, 0.11303745210170746, 0.03999999910593033]","[0.0, -0.0, 0.23120161318276228]",0.5881501647437385,0.06397846825839756,"(0.0, 0.0, 0.0, 0.0, 0.0, 0.0)",-0.00020893326253553152,-0.814488819060336,1.0587911840678754e-22,"(0.0, 0.0, 0.0, 0.0, 0.0, 0.0)",-1.552616179376004e-05,-0.584864036654402,-0.02883393461021051,"(0.0, 0.0, 0.0, 0.0, 0.0, 0.0)",0.0042858579199189315,0.8159454883084889,-2.752857078576476e-21,"(0.0, 0.0, 0.0, 0.0, 0.0, 0.0)",0.00031968543764109383,True,"(-0.03267835326074087, 0.18484200123451816, 0.040000001632949145)","(0.9999839258482744, 0.005669924373940082, 1.6329491436693904e-06)",0.0008748545155676539,0.0,True,"(0.03215981157609599, 0.18480328513603608, 0.03999999836705086)","(-0.9999839258482746, -0.00566992437394175, -1.6329491404960674e-06)",4.2050207852672505e-05,0.0
91,Move,"(-9e-05, 0.0, -0.00015000000000000001)","(0.0, -0.0, 0.0)","(0.00023187503815957463, 0.17165174656466026, 0.0009894134243050837)","(1.5707966438901453, -8.145117807820413e-06, 0.00566993493757884)","[0.00023179647669456903, 0.0016526841881414345, 7.452374121734895e-05]","[-0.026750000193715096, 0.05299999937415123, 0.03999999910593033]","[0.0, -0.0, 0.5881501884449037]","[-0.06669725477695465, 0.1129017248749733, 0.03999999910593033]","[0.0, 0.0, -0.22633863867038753]","[0.026750000193715096, 0.05299999937415123, 0.03999999910593033]","[0.0, 0.0, -0.5848640425416263]","[0.06650019437074661, 0.11303267627954483, 0.03999999910593033]","[0.0, -0.0, 0.23108148506546167]",0.5884160990905267,0.06382424322916472,"(0.0, 0.0, 0.0, 0.0, 0.0, 0.0)",-0.00021057496350028527,-0.814488819060336,1.0587911840678754e-22,"(0.0, 0.0, 0.0, 0.0, 0.0, 0.0)",-1.5648904674977794e-05,-0.5849720986464787,-0.02593487809839304,"(0.0, 0.0, 0.0, 0.0, 0.0, 0.0)",0.004249523727179223,0.8159454883084889,5.293955920339377e-23,"(0.0, 0.0, 0.0, 0.0, 0.0, 0.0)",0.0003169776629375905,True,"(-0.03271349754134631, 0.18484014960525746, 0.040000005024638595)","(0.9999839258932242, 0.005669914455048086, 5.02463859668264e-06)",0.0009098734857531173,0.0,True,"(0.03217564724138384, 0.18480251411292636, 0.03999999497536141)","(-0.9999839258932243, -0.005669914455049578, -5.024638593572629e-06)",5.8016494301148456e-05,0.0
92,Move,"(-5.9999999999999995e-05, 0.0, -0.00014000000000000001)","(0.0, 0.018053685782629343, 0.0)","(0.00023187247202938692, 0.1716517504256863, 0.000989400217186685)","(1.570794195859374, -1.101607398460564e-05, 0.005669925058359287)","[0.00023179391056438132, 0.001652688049167489, 7.451053409895025e-05]","[-0.026750000193715096, 0.05299999937415123, 0.03999999910593033]","[0.0, -0.0, 0.588416073227942]","[-0.06671318411827087, 0.11289110034704208, 0.03999999910593033]","[0.0, 0.0, -0.2260727225173659]","[0.026750000193715096, 0.05299999937415123, 0.03999999910593033]","[0.0, 0.0, -0.5849720927795099]","[0.06650668382644653, 0.1130283772945404, 0.03999999910593033]","[0.0, -0.0, 0.23097340982845704]",0.5886821358020687,0.0638488107700796,"(0.0, 0.0, 0.0, 0.0, 0.0, 0.0)",5.1903606741219246e-05,-0.814488819060336,0.0,"(0.0, 0.0, 0.0, 0.0, 0.0, 0.0)",3.930177411244315e-06,-0.5850816982980812,-0.02630391638459844,"(0.0, 0.0, 0.0, 0.0, 0.0, 0.0)",-0.0005482328664052028,0.8159454883084889,1.4558378780933287e-22,"(0.0, 0.0, 0.0, 0.0, 0.0, 0.0)",-4.090461780467792e-05,True,"(-0.03274855661090577, 0.18483829310474847, 0.04000000814511781)","(0.9999839259287935, 0.005669904557774986, 8.145117807783567e-06)",0.0009448181242591027,0.0,True,"(0.03218989065874124, 0.18480181898673273, 0.039999991854882185)","(-0.9999839259287935, -0.00566990455778068, -8.145117813313627e-06)",7.238013770021617e-05,0.0
