OSUrobotics/InHand-Manipulation/AnalyseData/Data/new_hand_human_filt_josh_2v2_g_none_2_kpNone_kdNone_dp1_step1_save_data.csv
,Phase,human_cube_pos,human_cube_orn,Cube_Pos,Cube_Orn,Cube_pos_in_start_pos,b'l_prox_pin'_link_pos,b'l_prox_pin'_link_orn,b'l_distal_pin'_link_pos,b'l_distal_pin'_link_orn,b'r_prox_pin'_link_pos,b'r_prox_pin'_link_orn,b'r_distal_pin'_link_pos,b'r_distal_pin'_link_orn,b'l_prox_pin'_joint_angle,b'l_prox_pin'_joint_vel,b'l_prox_pin'_joint_react_forces,b'l_prox_pin'_joint_motor_torque,b'l_distal_pin'_joint_angle,b'l_distal_pin'_joint_vel,b'l_distal_pin'_joint_react_forces,b'l_distal_pin'_joint_motor_torque,b'r_prox_pin'_joint_angle,b'r_prox_pin'_joint_vel,b'r_prox_pin'_joint_react_forces,b'r_prox_pin'_joint_motor_torque,b'r_distal_pin'_joint_angle,b'r_distal_pin'_joint_vel,b'r_distal_pin'_joint_react_forces,b'r_distal_pin'_joint_motor_torque,in_contact_l,contact_point_l_dist,contact_normal_l_dist,contact_distance_l_dist,contact_norm_force_l_dist,in_contact_r,contact_point_r_dist,contact_normal_r_dist,contact_distance_r_dist,contact_norm_force_r_dist
0,Open,,,,,,"[-0.026750000193715096, 0.05299999937415123, 0.03999999910593033]","[0.0, -0.0, 0.0]","[-0.026750000193715096, 0.125, 0.03999999910593033]","[0.0, -0.0, 0.0]","[0.026750000193715096, 0.05299999937415123, 0.03999999910593033]","[0.0, -0.0, 0.0]","[0.026750000193715096, 0.125, 0.03999999910593033]","[0.0, -0.0, 0.0]",0.0028636982559538428,0.6872875814289223,"(0.0, 0.0, 0.0, 0.0, 0.0, 0.0)",-74.42376671286476,0.025717978913313098,6.172314939195144,"(0.0, 0.0, 0.0, 0.0, 0.0, 0.0)",-28.347758017338414,-0.0028861714462846827,-0.6926811471083238,"(0.0, 0.0, 0.0, 0.0, 0.0, 0.0)",77.31812537484876,-0.025998027583603027,-6.239526620064726,"(0.0, 0.0, 0.0, 0.0, 0.0, 0.0)",29.325432325549183,False,,,,,False,,,,
1,Open,,,,,,"[-0.026750000193715096, 0.05299999937415123, 0.03999999910593033]","[0.0, -0.0, 0.0028636982488144678]","[-0.026956185698509216, 0.12499970197677612, 0.03999999910593033]","[0.0, -0.0, 0.028581675581217755]","[0.026750000193715096, 0.05299999937415123, 0.03999999910593033]","[0.0, 0.0, -0.0028861714423951343]","[0.026957804337143898, 0.12499970197677612, 0.03999999910593033]","[0.0, 0.0, -0.028884201286240394]",0.1595773284303585,37.61127124185712,"(0.0, 0.0, 0.0, 0.0, 0.0, 0.0)",53.472225824972774,0.02314589095046895,-0.6173011110825959,"(0.0, 0.0, 0.0, 0.0, 0.0, 0.0)",3.3014509125464437,-0.15959755430165623,-37.61073188528917,"(0.0, 0.0, 0.0, 0.0, 0.0, 0.0)",-53.45543824447724,-0.023397935520559333,0.6240220951304867,"(0.0, 0.0, 0.0, 0.0, 0.0, 0.0)",-3.2927232380167535,False,,,,,False,,,,
2,Open,,,,,,"[-0.026750000193715096, 0.05299999937415123, 0.03999999910593033]","[0.0, -0.0, 0.15957730699277592]","[-0.03819086775183678, 0.1240852028131485, 0.03999999910593033]","[0.0, -0.0, 0.1827232399786182]","[0.026750000193715096, 0.05299999937415123, 0.03999999910593033]","[0.0, 0.0, -0.15959754249378824]","[0.03819230571389198, 0.12408497184515, 0.03999999910593033]","[0.0, 0.0, -0.1829954723320542]",0.30061959558732265,33.8501441176714,"(0.0, 0.0, 0.0, 0.0, 0.0, 0.0)",-5.433290843096747,0.020831748867960086,-0.555394099802127,"(0.0, 0.0, 0.0, 0.0, 0.0, 0.0)",-0.37949999689540415,-0.30063779887149056,-33.849658696760244,"(0.0, 0.0, 0.0, 0.0, 0.0, 0.0)",5.433149501288634,-0.02105858889910766,0.5614431891484022,"(0.0, 0.0, 0.0, 0.0, 0.0, 0.0)",0.37943043762158307,False,,,,,False,,,,
3,Open,,,,,,"[-0.026750000193715096, 0.05299999937415123, 0.03999999910593033]","[0.0, -0.0, 0.30061964608852465]","[-0.048070069402456284, 0.12177103012800217, 0.03999999910593033]","[0.0, -0.0, 0.3214513597309629]","[0.026750000193715096, 0.05299999937415123, 0.03999999910593033]","[0.0, 0.0, -0.30063782483534385]","[0.04807132109999657, 0.12177064269781113, 0.03999999910593033]","[0.0, 0.0, -0.32169639446592324]",0.4275576360285904,30.465129705904268,"(0.0, 0.0, 0.0, 0.0, 0.0, 0.0)",-4.896562760502833,0.018748978964657985,-0.49986477679250463,"(0.0, 0.0, 0.0, 0.0, 0.0, 0.0)",-0.3438186216350169,-0.4275740189843415,-30.464692827084228,"(0.0, 0.0, 0.0, 0.0, 0.0, 0.0)",4.8964345239877005,-0.018953134917884834,0.505308955493478,"(0.0, 0.0, 0.0, 0.0, 0.0, 0.0)",0.34375511365495653,False,,,,,False,,,,
4,Open,,,,,,"[-0.026750000193715096, 0.05299999937415123, 0.03999999910593033]","[0.0, -0.0, 0.42755761853039154]","[-0.056604765355587006, 0.1185186430811882, 0.03999999910593033]","[0.0, -0.0, 0.4463066270391506]","[0.026750000193715096, 0.05299999937415123, 0.03999999910593033]","[0.0, 0.0, -0.42757404208311445]","[0.05660583823919296, 0.1185181587934494, 0.03999999910593033]","[0.0, 0.0, -0.4465272228574986]",0.5418018724257314,27.418616735313837,"(0.0, 0.0, 0.0, 0.0, 0.0, 0.0)",-4.412236817968903,0.016874447698417276,-0.44988750389777044,"(0.0, 0.0, 0.0, 0.0, 0.0, 0.0)",-0.3112578673856835,-0.5418166170859073,-27.418223544375806,"(0.0, 0.0, 0.0, 0.0, 0.0, 0.0)",4.412120589674461,-0.017058187988154127,0.4547872631353701,"(0.0, 0.0, 0.0, 0.0, 0.0, 0.0)",0.31119999541872967,False,,,,,False,,,,
5,Open,,,,,,"[-0.026750000193715096, 0.05299999937415123, 0.03999999910593033]","[0.0, -0.0, 0.5418019400761332]","[-0.06387900561094284, 0.11468822509050369, 0.03999999910593033]","[0.0, -0.0, 0.5586763123738882]","[0.026750000193715096, 0.05299999937415123, 0.03999999910593033]","[0.0, 0.0, -0.5418166677071254]","[0.06387991458177567, 0.11468767374753952, 0.03999999910593033]","[0.0, 0.0, -0.5588748551425957]",0.6446216851831583,24.67675506178245,"(0.0, 0.0, 0.0, 0.0, 0.0, 0.0)",-3.975330693632137,0.015187334633278446,-0.4049071356333192,"(0.0, 0.0, 0.0, 0.0, 0.0, 0.0)",-0.2816071653694913,-0.6446349553773166,-24.67640118993823,"(0.0, 0.0, 0.0, 0.0, 0.0, 0.0)",3.975225427671302,-0.01535270083200906,0.409316917474816,"(0.0, 0.0, 0.0, 0.0, 0.0, 0.0)",0.28155450162657786,False,,,,,False,,,,
6,Open,,,,,,"[-0.026750000193715096, 0.05299999937415123, 0.03999999910593033]","[0.0, -0.0, 0.6446216983098856]","[-0.07001452147960663, 0.11055155843496323, 0.03999999910593033]","[0.0, -0.0, 0.6598089287160823]","[0.026750000193715096, 0.05299999937415123, 0.03999999910593033]","[0.0, 0.0, -0.644634967879878]","[0.07001528143882751, 0.11055097728967667, 0.03999999910593033]","[0.0, 0.0, -0.6599877329949964]",0.7371595166648425,22.209079555604205,"(0.0, 0.0, 0.0, 0.0, 0.0, 0.0)",-3.5812948349547464,0.013668901111545678,-0.3644240452158641,"(0.0, 0.0, 0.0, 0.0, 0.0, 0.0)",-0.25464125660078457,-0.737171459839585,-22.20876107094441,"(0.0, 0.0, 0.0, 0.0, 0.0, 0.0)",3.5811995605906057,-0.01381773063402154,0.3683928475170044,"(0.0, 0.0, 0.0, 0.0, 0.0, 0.0)",0.2545933902665499,False,,,,,False,,,,
7,Open,,,,,,"[-0.026750000193715096, 0.05299999937415123, 0.03999999910593033]","[0.0, -0.0, 0.7371595400859692]","[-0.07514750957489014, 0.10630742460489273, 0.03999999910593033]","[0.0, -0.0, 0.7508283868993905]","[0.026750000193715096, 0.05299999937415123, 0.03999999910593033]","[0.0, 0.0, -0.7371714711336782]","[0.07514814287424088, 0.10630684345960617, 0.03999999910593033]","[0.0, 0.0, -0.750989167509555]",0.8204435649983582,19.988171600043785,"(0.0, 0.0, 0.0, 0.0, 0.0, 0.0)",-3.2259980823944012,0.01230228208777883,-0.32798856570404317,"(0.0, 0.0, 0.0, 0.0, 0.0, 0.0)",-0.23014491551259536,-0.8204543138556265,-19.987884963849964,"(0.0, 0.0, 0.0, 0.0, 0.0, 0.0)",3.225911902119173,-0.012436228606816148,0.33156048652929415,"(0.0, 0.0, 0.0, 0.0, 0.0, 0.0)",0.23010145595163894,False,,,,,False,,,,
8,Open,,,,,,"[-0.026750000193715096, 0.05299999937415123, 0.03999999910593033]","[0.0, -0.0, 0.8204435774406766]","[-0.07941428571939468, 0.1020965725183487, 0.03999999910593033]","[0.0, -0.0, 0.8327459142786269]","[0.026750000193715096, 0.05299999937415123, 0.03999999910593033]","[0.0, 0.0, -0.8204543695347751]","[0.07941480726003647, 0.10209600627422333, 0.03999999910593033]","[0.0, 0.0, -0.8328905496331522]",0.8953992084985224,17.9893544400394,"(0.0, 0.0, 0.0, 0.0, 0.0, 0.0)",-2.905692777507757,0.011072298781000885,-0.2951959936267068,"(0.0, 0.0, 0.0, 0.0, 0.0, 0.0)",-0.20791432075989408,-0.8954088824700639,-17.989096467464968,"(0.0, 0.0, 0.0, 0.0, 0.0, 0.0)",2.9056148642503405,-0.011192850601700187,0.29841072122783063,"(0.0, 0.0, 0.0, 0.0, 0.0, 0.0)",0.20787489947010138,False,,,,,False,,,,
9,Open,,,,,,"[-0.026750000193715096, 0.05299999937415123, 0.03999999910593033]","[0.0, -0.0, 0.8953992050914552]","[-0.08294302970170975, 0.09801492840051651, 0.03999999910593033]","[0.0, -0.0, 0.9064715399310761]","[0.026750000193715096, 0.05299999937415123, 0.03999999910593033]","[0.0, 0.0, -0.8954089117450801]","[0.08294346183538437, 0.09801438450813293, 0.03999999910593033]","[0.0, 0.0, -0.9066016844299951]",0.9628592876486701,16.190418996035465,"(0.0, 0.0, 0.0, 0.0, 0.0, 0.0)",-2.616982039675733,0.009965290062605858,-0.26568209241480656,"(0.0, 0.0, 0.0, 0.0, 0.0, 0.0)",-0.18775783729375353,-0.9628679942230576,-16.190186820718473,"(0.0, 0.0, 0.0, 0.0, 0.0, 0.0)",2.6169116334278195,-0.010073786659150813,0.26857534621184953,"(0.0, 0.0, 0.0, 0.0, 0.0, 0.0)",0.187722108909745,False,,,,,False,,,,
10,Open,,,,,,"[-0.026750000193715096, 0.05299999937415123, 0.03999999910593033]","[0.0, -0.0, 0.9628592963772022]","[-0.08584962040185928, 0.09412462264299393, 0.03999999910593033]","[0.0, -0.0, 0.9728246761305416]","[0.026750000193715096, 0.05299999937415123, 0.03999999910593033]","[0.0, 0.0, -0.9628681466677605]","[0.08584997802972794, 0.09412410855293274, 0.03999999910593033]","[0.0, 0.0, -0.9729417790417357]",1.0235733588838032,14.57137709643192,"(0.0, 0.0, 0.0, 0.0, 0.0, 0.0)",-2.356789246056587,0.008968960705874744,-0.23911904561546746,"(0.0, 0.0, 0.0, 0.0, 0.0, 0.0)",-0.16949635495257384,-1.0235811948007518,-14.571168138646623,"(0.0, 0.0, 0.0, 0.0, 0.0, 0.0)",2.3567256501387286,-0.009066607604651448,0.24172297307984775,"(0.0, 0.0, 0.0, 0.0, 0.0, 0.0)",0.16946399753760524,False,,,,,False,,,,
11,Open,,,,,,"[-0.026750000193715096, 0.05299999937415123, 0.03999999910593033]","[0.0, -0.0, 1.0235732790301837]","[-0.08823604136705399, 0.09046287834644318, 0.03999999910593033]","[0.0, -0.0, 1.0325423083164225]","[0.026750000193715096, 0.05299999937415123, 0.03999999910593033]","[0.0, 0.0, -1.0235812274279317]","[0.08823633193969727, 0.09046239405870438, 0.03999999910593033]","[0.0, 0.0, -1.0326479037372749]",1.078216022995423,13.114239386788727,"(0.0, 0.0, 0.0, 0.0, 0.0, 0.0)",-2.1223296975724493,0.008072244810550301,-0.215211814877866,"(0.0, 0.0, 0.0, 0.0, 0.0, 0.0)",-0.1529632973210469,-1.0782230753206767,-13.114051324781958,"(0.0, 0.0, 0.0, 0.0, 0.0, 0.0)",2.122272274708909,-0.008160126984954354,0.21755534872730237,"(0.0, 0.0, 0.0, 0.0, 0.0, 0.0)",0.15293401213466845,False,,,,,False,,,,
12,Open,,,,,,"[-0.026750000193715096, 0.05299999937415123, 0.03999999910593033]","[0.0, -0.0, 1.078215882979514]","[-0.09019032120704651, 0.08704887330532074, 0.03999999910593033]","[0.0, -0.0, 1.0862882926740116]","[0.026750000193715096, 0.05299999937415123, 0.03999999910593033]","[0.0, 0.0, -1.078222977413882]","[0.09019055962562561, 0.08704842627048492, 0.03999999910593033]","[0.0, 0.0, -1.0863833790205233]",1.1273944206958806,11.802815448109852,"(0.0, 0.0, 0.0, 0.0, 0.0, 0.0)",-1.9110844168611731,0.007265182884681461,-0.19369486220852175,"(0.0, 0.0, 0.0, 0.0, 0.0, 0.0)",-0.13800439004610457,-1.127400767788609,-11.802646192303762,"(0.0, 0.0, 0.0, 0.0, 0.0, 0.0)",1.9110325851897776,-0.007344276810443619,0.19580404188257655,"(0.0, 0.0, 0.0, 0.0, 0.0, 0.0)",0.13797790093405082,False,,,,,False,,,,
13,Open,,,,,,"[-0.026750000193715096, 0.05299999937415123, 0.03999999910593033]","[0.0, -0.0, 1.1273943743462997]","[-0.0917874127626419, 0.08388907462358475, 0.03999999910593033]","[0.0, -0.0, 1.1346596248576977]","[0.026750000193715096, 0.05299999937415123, 0.03999999910593033]","[0.0, 0.0, -1.127400718904607]","[0.09178761392831802, 0.08388865739107132, 0.03999999910593033]","[0.0, 0.0, -1.134745111288055]",1.1716549786262926,10.622533903298867,"(0.0, 0.0, 0.0, 0.0, 0.0, 0.0)",-1.7207759982695574,0.00653881121780902,-0.17432920004938585,"(0.0, 0.0, 0.0, 0.0, 0.0, 0.0)",-0.12447725819906867,-1.1716606910097482,-10.622381573073383,"(0.0, 0.0, 0.0, 0.0, 0.0, 0.0)",1.7207292273800263,-0.006609995722787257,0.17622746103752684,"(0.0, 0.0, 0.0, 0.0, 0.0, 0.0)",0.12445331071934837,False,,,,,False,,,,
14,Open,,,,,,"[-0.026750000193715096, 0.05299999937415123, 0.03999999910593033]","[0.0, -0.0, 1.17165497759142]","[-0.09309044480323792, 0.08098116517066956, 0.03999999910593033]","[0.0, -0.0, 1.1781937273122836]","[0.026750000193715096, 0.05299999937415123, 0.03999999910593033]","[0.0, 0.0, -1.1716605985979762]","[0.09309060126543045, 0.08098078519105911, 0.03999999910593033]","[0.0, 0.0, -1.178270796658152]",1.2114894807636634,9.56028051296898,"(0.0, 0.0, 0.0, 0.0, 0.0, 0.0)",-1.549346412635057,0.005885062316220725,-0.15689973638119079,"(0.0, 0.0, 0.0, 0.0, 0.0, 0.0)",-0.11225090666269867,-1.2114946219087734,-9.560143415766044,"(0.0, 0.0, 0.0, 0.0, 0.0, 0.0)",1.5493042197033076,-0.00594912834521185,0.1586081706180975,"(0.0, 0.0, 0.0, 0.0, 0.0, 0.0)",0.11222926703597672,False,,,,,False,,,,
15,Open,,,,,,"[-0.026750000193715096, 0.05299999937415123, 0.03999999910593033]","[0.0, -0.0, 1.2114893406881728]","[-0.09415213763713837, 0.07831703126430511, 0.03999999910593033]","[0.0, -0.0, 1.2173745989650702]","[0.026750000193715096, 0.05299999937415123, 0.03999999910593033]","[0.0, 0.0, -1.2114945655338818]","[0.09415226429700851, 0.07831668108701706, 0.03999999910593033]","[0.0, 0.0, -1.2174436451143456]",1.247340532687297,8.604252461672083,"(0.0, 0.0, 0.0, 0.0, 0.0, 0.0)",-1.3949366588174594,0.00529667529397997,-0.14121288533778104,"(0.0, 0.0, 0.0, 0.0, 0.0, 0.0)",-0.1012051251161189,-1.2473451597178962,-8.604129074189437,"(0.0, 0.0, 0.0, 0.0, 0.0, 0.0)",1.394898604883462,-0.005354334697048719,0.1427504755591516,"(0.0, 0.0, 0.0, 0.0, 0.0, 0.0)",0.1011855790679586,False,,,,,False,,,,
16,Open,,,,,,"[-0.026750000193715096, 0.05299999937415123, 0.03999999910593033]","[0.0, -0.0, 1.2473405247091465]","[-0.09501627087593079, 0.07588484138250351, 0.03999999910593033]","[0.0, -0.0, 1.2526371614229614]","[0.026750000193715096, 0.05299999937415123, 0.03999999910593033]","[0.0, 0.0, -1.2473450561350814]","[0.09501637518405914, 0.07588452845811844, 0.03999999910593033]","[0.0, 0.0, -1.252699591080442]",1.2796064794185673,7.743827215504874,"(0.0, 0.0, 0.0, 0.0, 0.0, 0.0)",-1.2558681481324276,0.004767115224099335,-0.12709441677135241,"(0.0, 0.0, 0.0, 0.0, 0.0, 0.0)",-0.09122984935698081,-1.2796106437461066,-7.743716166770495,"(0.0, 0.0, 0.0, 0.0, 0.0, 0.0)",1.2558338345532607,-0.004819008666073119,0.128478247434144,"(0.0, 0.0, 0.0, 0.0, 0.0, 0.0)",0.09121220090323832,False,,,,,False,,,,
17,Open,,,,,,"[-0.026750000193715096, 0.05299999937415123, 0.03999999910593033]","[0.0, -0.0, 1.279606409124563]","[-0.09571900963783264, 0.0736706405878067, 0.03999999910593033]","[0.0, -0.0, 1.2843736758198352]","[0.026750000193715096, 0.05299999937415123, 0.03999999910593033]","[0.0, 0.0, -1.2796106525936015]","[0.0957190990447998, 0.07367035001516342, 0.03999999910593033]","[0.0, 0.0, -1.2844295613342638]",1.3086458314767107,6.969444493954387,"(0.0, 0.0, 0.0, 0.0, 0.0, 0.0)",-1.1305941221975622,0.00429170208951155,-0.1140991523010686,"(0.0, 0.0, 0.0, 0.0, 0.0, 0.0)",-0.082192919359827,-1.3086495793714958,-6.969344550093446,"(0.0, 0.0, 0.0, 0.0, 0.0, 0.0)",1.1305631934145834,-0.004338405935744441,0.11534465527888274,"(0.0, 0.0, 0.0, 0.0, 0.0, 0.0)",0.08217699569254354,False,,,,,False,,,,
18,Open,,,,,,"[-0.026750000193715096, 0.05299999937415123, 0.03999999910593033]","[0.0, -0.0, 1.308645825919811]","[-0.09629011154174805, 0.0716593861579895, 0.03999999910593033]","[0.0, -0.0, 1.3129373548657892]","[0.026750000193715096, 0.05299999937415123, 0.03999999910593033]","[0.0, 0.0, -1.308649569130343]","[0.09629017859697342, 0.07165912538766861, 0.03999999910593033]","[0.0, 0.0, -1.3129881167123505]",1.3347812483290395,6.272500044558946,"(0.0, 0.0, 0.0, 0.0, 0.0, 0.0)",-1.0178482622338179,0.003863702481573626,-0.10271990590510163,"(0.0, 0.0, 0.0, 0.0, 0.0, 0.0)",-0.07410352518858664,-1.3347846214343462,-6.272410095084102,"(0.0, 0.0, 0.0, 0.0, 0.0, 0.0)",1.0178203769740246,-0.0039057357160976183,0.10384085271523745,"(0.0, 0.0, 0.0, 0.0, 0.0, 0.0)",0.0740891498002037,False,,,,,False,,,,
19,Open,,,,,,"[-0.026750000193715096, 0.05299999937415123, 0.03999999910593033]","[0.0, -0.0, 1.3347813147466918]","[-0.09675397723913193, 0.06983575969934464, 0.03999999910593033]","[0.0, -0.0, 1.3386449621367835]","[0.026750000193715096, 0.05299999937415123, 0.03999999910593033]","[0.0, 0.0, -1.3347844615433213]","[0.0967540368437767, 0.06983552873134613, 0.03999999910593033]","[0.0, 0.0, -1.3386905382854437]",1.3583031234961356,5.645250040103052,"(0.0, 0.0, 0.0, 0.0, 0.0, 0.0)",-0.9162890978823036,0.0034783869891320215,-0.09247571818598516,"(0.0, 0.0, 0.0, 0.0, 0.0, 0.0)",-0.06677007440367574,-1.3583061592909116,-5.645169085575695,"(0.0, 0.0, 0.0, 0.0, 0.0, 0.0)",0.9162639666346021,-0.003516216695348753,0.09348456497972772,"(0.0, 0.0, 0.0, 0.0, 0.0, 0.0)",0.06675710630673855,False,,,,,False,,,,
20,Open,,,,,,"[-0.026750000193715096, 0.05299999937415123, 0.03999999910593033]","[0.0, -0.0, 1.3583030429358363]","[-0.09713058918714523, 0.06818463653326035, 0.03999999910593033]","[0.0, -0.0, 1.3617816714487538]","[0.026750000193715096, 0.05299999937415123, 0.03999999910593033]","[0.0, 0.0, -1.358306171033049]","[0.09713063389062881, 0.06818442046642303, 0.03999999910593033]","[0.0, 0.0, -1.361822351334537]",1.379472811146522,5.0807250360927485,"(0.0, 0.0, 0.0, 0.0, 0.0, 0.0)",-0.8248429295126702,0.003131498553648039,-0.08325322451615583,"(0.0, 0.0, 0.0, 0.0, 0.0, 0.0)",-0.06015531267018523,-1.3794755433618204,-5.080652177018124,"(0.0, 0.0, 0.0, 0.0, 0.0, 0.0)",0.8248202834423316,-0.003165545104486833,0.08416118180686077,"(0.0, 0.0, 0.0, 0.0, 0.0, 0.0)",0.06014361689139186,False,,,,,False,,,,
21,Open,,,,,,"[-0.026750000193715096, 0.05299999937415123, 0.03999999910593033]","[0.0, -0.0, 1.3794728975130914]","[-0.09743624925613403, 0.06669140607118607, 0.03999999910593033]","[0.0, -0.0, 1.382604304378769]","[0.026750000193715096, 0.05299999937415123, 0.03999999910593033]","[0.0, 0.0, -1.379475506721758]","[0.09743628650903702, 0.06669121235609055, 0.03999999910593033]","[0.0, 0.0, -1.3826409668082853]",1.3985255300318697,4.572652532483473,"(0.0, 0.0, 0.0, 0.0, 0.0, 0.0)",-0.7425066286387145,0.0028192047313806493,-0.07495051734417352,"(0.0, 0.0, 0.0, 0.0, 0.0, 0.0)",-0.054190171953983096,-1.3985279890256384,-4.57258695931631,"(0.0, 0.0, 0.0, 0.0, 0.0, 0.0)",0.7424862245436853,-0.0028498464605416357,0.07576767454684734,"(0.0, 0.0, 0.0, 0.0, 0.0, 0.0)",0.0541796259205944,False,,,,,False,,,,
22,Open,,,,,,"[-0.026750000193715096, 0.05299999937415123, 0.03999999910593033]","[0.0, -0.0, 1.398525454133583]","[-0.09768425673246384, 0.0653422400355339, 0.03999999910593033]","[0.0, -0.0, 1.4013447262228373]","[0.026750000193715096, 0.05299999937415123, 0.03999999910593033]","[0.0, 0.0, -1.3985280648022782]","[0.09768428653478622, 0.06534206122159958, 0.03999999910593033]","[0.0, 0.0, -1.4013779844801912]",1.4156729770286829,4.1153872792351285,"(0.0, 0.0, 0.0, 0.0, 0.0, 0.0)",-0.6683758137814145,0.002538055332395241,-0.06747585575649792,"(0.0, 0.0, 0.0, 0.0, 0.0, 0.0)",-0.04881194552870251,-1.4156751901230746,-4.115328263384682,"(0.0, 0.0, 0.0, 0.0, 0.0, 0.0)",0.6683574317692884,-0.002565632738451909,0.06821129330153437,"(0.0, 0.0, 0.0, 0.0, 0.0, 0.0)",0.0488024380394442,False,,,,,False,,,,
23,Open,,,,,,"[-0.026750000193715096, 0.05299999937415123, 0.03999999910593033]","[0.0, -0.0, 1.4156730334745993]","[-0.09788545966148376, 0.06412414461374283, 0.03999999910593033]","[0.0, -0.0, 1.418211036917125]","[0.026750000193715096, 0.05299999937415123, 0.03999999910593033]","[0.0, 0.0, -1.4156752315845986]","[0.09788548201322556, 0.0641239807009697, 0.03999999910593033]","[0.0, 0.0, -1.418240879504808]",1.4311056793258146,3.703848551311612,"(0.0, 0.0, 0.0, 0.0, 0.0, 0.0)",-0.6016352863054336,0.002284944287465684,-0.060746650783093666,"(0.0, 0.0, 0.0, 0.0, 0.0, 0.0)",-0.04396376851645251,-1.431107671110767,-3.7037954370462103,"(0.0, 0.0, 0.0, 0.0, 0.0, 0.0)",0.6016187276545472,-0.0023097638175418747,0.061408541018408244,"(0.0, 0.0, 0.0, 0.0, 0.0, 0.0)",0.043955198772734246,False,,,,,False,,,,
24,Open,,,,,,"[-0.026750000193715096, 0.05299999937415123, 0.03999999910593033]","[0.0, -0.0, 1.4311058207082674]","[-0.09804865717887878, 0.06302504986524582, 0.03999999910593033]","[0.0, -0.0, 1.433390691262394]","[0.026750000193715096, 0.05299999937415123, 0.03999999910593033]","[0.0, 0.0, -1.4311075924426346]","[0.09804867953062057, 0.06302490830421448, 0.03999999910593033]","[0.0, 0.0, -1.433417470845748]",1.4449951113932331,3.333463696180452,"(0.0, 0.0, 0.0, 0.0, 0.0, 0.0)",-0.5415503506795546,0.0020570753203455715,-0.05468855210882702,"(0.0, 0.0, 0.0, 0.0, 0.0, 0.0)",-0.039594115216637325,-1.4449969039996904,-3.3334158933415914,"(0.0, 0.0, 0.0, 0.0, 0.0, 0.0)",0.541535435877482,-0.002079412775410495,0.055284250111531166,"(0.0, 0.0, 0.0, 0.0, 0.0, 0.0)",0.03958639191865308,False,,,,,False,,,,
25,Open,,,,,,"[-0.026750000193715096, 0.05299999937415123, 0.03999999910593033]","[0.0, -0.0, 1.444995076522675]","[-0.09818101674318314, 0.062033817172050476, 0.03999999910593033]","[0.0, -0.0, 1.4470522962768402]","[0.026750000193715096, 0.05299999937415123, 0.03999999910593033]","[0.0, 0.0, -1.4449971061677662]","[0.09818103164434433, 0.06203368678689003, 0.03999999910593033]","[0.0, 0.0, -1.4470761943538692]",1.45749560025391,3.0001173265624064,"(0.0, 0.0, 0.0, 0.0, 0.0, 0.0)",-0.4874589573784058,0.001851931045420989,-0.04923462598189979,"(0.0, 0.0, 0.0, 0.0, 0.0, 0.0)",-0.03565633120497695,-1.4574972135997213,-3.000074304007432,"(0.0, 0.0, 0.0, 0.0, 0.0, 0.0)",0.4874455243270462,-0.0018720346450414762,0.04977075128856451,"(0.0, 0.0, 0.0, 0.0, 0.0, 0.0)",0.03564937171228022,False,,,,,False,,,,
26,Open,,,,,,"[-0.026750000193715096, 0.05299999937415123, 0.03999999910593033]","[0.0, -0.0, 1.4574954921785264]","[-0.09828835725784302, 0.061140209436416626, 0.03999999910593033]","[0.0, -0.0, 1.4593474823067423]","[0.026750000193715096, 0.05299999937415123, 0.03999999910593033]","[0.0, 0.0, -1.4574971848934346]","[0.09828837215900421, 0.061140093952417374, 0.03999999910593033]","[0.0, 0.0, -1.4593694397653831]",1.4687460402285188,2.700105593906164,"(0.0, 0.0, 0.0, 0.0, 0.0, 0.0)",-0.4387645947805427,0.0016672451487475934,-0.044324615201614966,"(0.0, 0.0, 0.0, 0.0, 0.0, 0.0)",-0.032108199676446195,-1.4687474922397492,-2.70006687360669,"(0.0, 0.0, 0.0, 0.0, 0.0, 0.0)",0.4387524971567325,-0.0016853382893528596,0.04480712536526797,"(0.0, 0.0, 0.0, 0.0, 0.0, 0.0)",0.03210192923147444,False,,,,,False,,,,
27,Open,,,,,,"[-0.026750000193715096, 0.05299999937415123, 0.03999999910593033]","[0.0, -0.0, 1.4687462228928074]","[-0.09837540984153748, 0.06033487245440483, 0.03999999910593033]","[0.0, -0.0, 1.4704133245237396]","[0.026750000193715096, 0.05299999937415123, 0.03999999910593033]","[0.0, 0.0, -1.4687474899518769]","[0.09837542474269867, 0.060334768146276474, 0.03999999910593033]","[0.0, 0.0, -1.4704329951986796]",1.478871436205667,2.430095034515549,"(0.0, 0.0, 0.0, 0.0, 0.0, 0.0)",-0.394929862139441,0.0015009773446580906,-0.03990427298148066,"(0.0, 0.0, 0.0, 0.0, 0.0, 0.0)",-0.028911540991871522,-1.4788727430157742,-2.430060186246021,"(0.0, 0.0, 0.0, 0.0, 0.0, 0.0)",0.39491896790015035,-0.001517261081966714,0.04033852977267494,"(0.0, 0.0, 0.0, 0.0, 0.0, 0.0)",0.02890589200411927,False,,,,,False,,,,
28,Open,,,,,,"[-0.026750000193715096, 0.05299999937415123, 0.03999999910593033]","[0.0, -0.0, 1.4788714352834713]","[-0.09844600409269333, 0.05960927531123161, 0.03999999910593033]","[0.0, -0.0, 1.480372508787761]","[0.026750000193715096, 0.05299999937415123, 0.03999999910593033]","[0.0, 0.0, -1.4788727099725336]","[0.09844601899385452, 0.05960918217897415, 0.03999999910593033]","[0.0, 0.0, -1.4803900544382056]",1.4879842925851003,2.1870855310639947,"(0.0, 0.0, 0.0, 0.0, 0.0, 0.0)",-0.3554706611703565,0.001351290830885638,-0.035924763305388616,"(0.0, 0.0, 0.0, 0.0, 0.0, 0.0)",-0.026031844038894282,-1.487985468714197,-2.1870541676214206,"(0.0, 0.0, 0.0, 0.0, 0.0, 0.0)",0.3554608511915877,-0.001365946114079445,0.03631559229294455,"(0.0, 0.0, 0.0, 0.0, 0.0, 0.0)",0.026026755426892093,False,,,,,False,,,,
29,Close,,,"(3.819349109750643e-09, 0.16999994350316286, 7.914305593764796e-05)","(1.5700606283751846, 1.2357610516186277e-06, -4.058049624060407e-09)",,"[-0.026750000193715096, 0.05299999937415123, 0.03999999910593033]","[0.0, -0.0, 1.4879842849605203]","[-0.09850326180458069, 0.05895565450191498, 0.03999999910593033]","[0.0, -0.0, 1.4893357278409396]","[0.026750000193715096, 0.05299999937415123, 0.03999999910593033]","[0.0, 0.0, -1.4879853833286059]","[0.09850326925516129, 0.05895556882023811, 0.03999999910593033]","[0.0, 0.0, -1.4893513332680077]",1.4961858633265903,1.9683769779575933,"(0.0, 0.0, 0.0, 0.0, 0.0, 0.0)",-0.31995094896823073,0.0012165319928285922,-0.03234212113369103,"(0.0, 0.0, 0.0, 0.0, 0.0, 0.0)",-0.02343792779000599,-1.4961869218427772,-1.9683487508592754,"(0.0, 0.0, 0.0, 0.0, 0.0, 0.0)",0.31994211580738524,-0.0012297216752996233,0.03269386530715718,"(0.0, 0.0, 0.0, 0.0, 0.0, 0.0)",0.02343334437795369,False,,,,,False,,,,
30,Close,,,"(1.09441459674075e-09, 0.16999988769159868, 0.0001519632082907279)","(1.5701173533571526, -2.5467641220651055e-06, -4.573996600559749e-08)",,"[-0.026750000193715096, 0.05299999937415123, 0.03999999910593033]","[0.0, -0.0, 1.4961860174198076]","[-0.09854969382286072, 0.05836696922779083, 0.03999999910593033]","[0.0, -0.0, 1.4974025341106605]","[0.026750000193715096, 0.05299999937415123, 0.03999999910593033]","[0.0, 0.0, -1.4961870219527165]","[0.09854969382286072, 0.05836689472198486, 0.03999999910593033]","[0.0, 0.0, -1.4974167044724178]",1.4065672769939312,-21.50846071983817,"(0.0, 0.0, 0.0, 0.0, 0.0, 0.0)",-36.83524610171859,-0.08890468746940376,-21.629092670935766,"(0.0, 0.0, 0.0, 0.0, 0.0, 0.0)",-4.936581214831643,-1.4065682296584996,21.508486124226657,"(0.0, 0.0, 0.0, 0.0, 0.0, 0.0)",36.83523814678565,0.0888928167555427,21.629409223402156,"(0.0, 0.0, 0.0, 0.0, 0.0, 0.0)",4.936577085092772,False,,,,,False,,,,
31,Close,,,"(3.541182821644653e-08, 0.1699998011443987, 0.00021906657187154062)","(1.570205104748116, 3.3042409171564205e-05, -8.114212850492596e-08)",,"[-0.026750000193715096, 0.05299999937415123, 0.03999999910593033]","[0.0, -0.0, 1.4065674382065954]","[-0.0977812185883522, 0.06477140635251999, 0.03999999910593033]","[0.0, -0.0, 1.3176625934179576]","[0.026750000193715096, 0.05299999937415123, 0.03999999910593033]","[0.0, 0.0, -1.4065680331882469]","[0.0977812260389328, 0.06477133929729462, 0.03999999910593033]","[0.0, 0.0, -1.3176753491400532]",1.3259105492945382,-19.357614647854348,"(0.0, 0.0, 0.0, 0.0, 0.0, 0.0)",3.3395407019063446,-0.17001473426920377,-19.466411231952,"(0.0, 0.0, 0.0, 0.0, 0.0, 0.0)",0.4376834422569755,-1.3259114066926496,19.35763751180399,"(0.0, 0.0, 0.0, 0.0, 0.0, 0.0)",-3.3395473112045253,0.1700040506304986,19.466696129989415,"(0.0, 0.0, 0.0, 0.0, 0.0, 0.0)",-0.43768664266468643,False,,,,,False,,,,
32,Close,,,"(3.361538948490201e-08, 0.16999974452330968, 0.00028077538773600935)","(1.5702911774727688, 7.027968338074274e-05, -7.017997684986258e-06)",,"[-0.026750000193715096, 0.05299999937415123, 0.03999999910593033]","[0.0, -0.0, 1.325910602539969]","[-0.09660188108682632, 0.07045608013868332, 0.03999999910593033]","[0.0, -0.0, 1.1558959321658662]","[0.026750000193715096, 0.05299999937415123, 0.03999999910593033]","[0.0, 0.0, -1.3259115331240872]","[0.09660189598798752, 0.07045602053403854, 0.03999999910593033]","[0.0, 0.0, -1.1559073716167563]",1.2533194943650845,-17.42185318306892,"(0.0, 0.0, 0.0, 0.0, 0.0, 0.0)",3.0100864599566086,-0.2430137284658432,-17.519758607193467,"(0.0, 0.0, 0.0, 0.0, 0.0, 0.0)",0.39699812510351973,-1.2533202660233846,17.42187376062359,"(0.0, 0.0, 0.0, 0.0, 0.0, 0.0)",-3.0100924602349655,0.24300411319445853,17.52001501535039,"(0.0, 0.0, 0.0, 0.0, 0.0, 0.0)",-0.39700105403357716,False,,,,,False,,,,
33,Close,,,"(1.2478111664315067e-07, 0.16999960627903704, 0.000337513976604643)","(1.5703757790333803, 0.0001088681261817636, -5.122611399447184e-06)",,"[-0.026750000193715096, 0.05299999937415123, 0.03999999910593033]","[0.0, -0.0, 1.2533194489161892]","[-0.0951518788933754, 0.07547627389431, 0.03999999910593033]","[0.0, -0.0, 1.0103057011386807]","[0.026750000193715096, 0.05299999937415123, 0.03999999910593033]","[0.0, 0.0, -1.2533201846969224]","[0.09515189379453659, 0.07547622174024582, 0.03999999910593033]","[0.0, 0.0, -1.010316110149499]",1.1879875449285762,-15.679667864762028,"(0.0, 0.0, 0.0, 0.0, 0.0, 0.0)",2.712712783767229,-0.30871235561933186,-15.767670516837281,"(0.0, 0.0, 0.0, 0.0, 0.0, 0.0)",0.3597856734528228,-1.1879882394210461,15.679686384561233,"(0.0, 0.0, 0.0, 0.0, 0.0, 0.0)",-2.712718226071338,0.30870370187508567,15.767901283350515,"(0.0, 0.0, 0.0, 0.0, 0.0, 0.0)",-0.35978834883250516,False,,,,,False,,,,
34,Close,,,"(1.2869376016944667e-07, 0.16999954011037416, 0.00038973303114976833)","(1.5704582297133343, 0.0001496263682483943, -9.931543136061158e-06)",,"[-0.026750000193715096, 0.05299999937415123, 0.03999999910593033]","[0.0, -0.0, 1.1879876003522736]","[-0.09353857487440109, 0.07989397644996643, 0.03999999910593033]","[0.0, -0.0, 0.8792752425767008]","[0.026750000193715096, 0.05299999937415123, 0.03999999910593033]","[0.0, 0.0, -1.1879882623869136]","[0.09353859722614288, 0.07989392429590225, 0.03999999910593033]","[0.0, 0.0, -0.8792844680170303]",1.1291887904356523,-14.1117010783017,"(0.0, 0.0, 0.0, 0.0, 0.0, 0.0)",2.44436472036771,-0.36784112005739866,-14.190903465136039,"(0.0, 0.0, 0.0, 0.0, 0.0, 0.0)",0.3258007578595482,-1.1291894154788755,14.111717746120975,"(0.0, 0.0, 0.0, 0.0, 0.0, 0.0)",-2.444369652349295,0.3678333316875771,14.191111154997946,"(0.0, 0.0, 0.0, 0.0, 0.0, 0.0)",-0.32580319741325486,False,,,,,False,,,,
35,Close,,,"(2.2147778895778094e-07, 0.169999403724105, 0.00043775502472391954)","(1.5705392813318275, 0.0001916771605813282, -8.19762937926826e-06)",,"[-0.026750000193715096, 0.05299999937415123, 0.03999999910593033]","[0.0, -0.0, 1.1291888000608494]","[-0.09184273332357407, 0.08377231657505035, 0.03999999910593033]","[0.0, -0.0, 0.7613476921786614]","[0.026750000193715096, 0.05299999937415123, 0.03999999910593033]","[0.0, 0.0, -1.1291894580384154]","[0.09184275567531586, 0.08377227932214737, 0.03999999910593033]","[0.0, 0.0, -0.7613561373098183]",1.0762699113920273,-12.700530970470014,"(0.0, 0.0, 0.0, 0.0, 0.0, 0.0)",2.202305891359772,-0.4210570080516588,-12.77181311862243,"(0.0, 0.0, 0.0, 0.0, 0.0, 0.0)",0.2948453788489373,-1.0762704739309281,12.700545971507374,"(0.0, 0.0, 0.0, 0.0, 0.0, 0.0)",-2.2023103576802145,0.4210499985188194,12.77200003949815,"(0.0, 0.0, 0.0, 0.0, 0.0, 0.0)",-0.2948476002056522,False,,,,,False,,,,
36,Close,,,"(2.1912693722736075e-07, 0.16999934361709654, 0.000481956449276018)","(1.5706184388641253, 0.00023565575873296478, -1.2845786801691941e-05)",,"[-0.026750000193715096, 0.05299999937415123, 0.03999999910593033]","[0.0, -0.0, 1.0762698553554748]","[-0.09012393653392792, 0.08717226982116699, 0.03999999910593033]","[0.0, -0.0, 0.6552128934948661]","[0.026750000193715096, 0.05299999937415123, 0.03999999910593033]","[0.0, 0.0, -1.0762704893583]","[0.09012395888566971, 0.08717223256826401, 0.03999999910593033]","[0.0, 0.0, -0.6552204147476549]",1.0286429202528247,-11.430477873408655,"(0.0, 0.0, 0.0, 0.0, 0.0, 0.0)",1.9840011930578276,-0.46895130724721834,-11.494631806934295,"(0.0, 0.0, 0.0, 0.0, 0.0, 0.0)",0.26667684533441977,-1.0286434265378352,11.430491374342276,"(0.0, 0.0, 0.0, 0.0, 0.0, 0.0)",-1.984005235051249,0.4689449986676629,11.494800035722442,"(0.0, 0.0, 0.0, 0.0, 0.0, 0.0)",-0.26667886541975433,False,,,,,False,,,,
37,Close,,,"(3.1131510586280866e-07, 0.1699992121070205, 0.0005226007520893923)","(1.5706964879884222, 0.0002806415891397876, -1.1307759452448239e-05)",,"[-0.026750000193715096, 0.05299999937415123, 0.03999999910593033]","[0.0, -0.0, 1.0286429345076582]","[-0.0884251669049263, 0.09015069156885147, 0.03999999910593033]","[0.0, -0.0, 0.5596916647508587]","[0.026750000193715096, 0.05299999937415123, 0.03999999910593033]","[0.0, 0.0, -1.0286435120859125]","[0.08842518925666809, 0.09015065431594849, 0.03999999910593033]","[0.0, 0.0, -0.5596984028120249]",0.9857786282275423,-10.287430086067793,"(0.0, 0.0, 0.0, 0.0, 0.0, 0.0)",1.787161045327472,-0.5120561765231523,-10.345168626224153,"(0.0, 0.0, 0.0, 0.0, 0.0, 0.0)",0.24107512437447856,-0.9857790838840517,10.28744223690805,"(0.0, 0.0, 0.0, 0.0, 0.0, 0.0)",-1.787164701188607,0.5120504988015524,10.345320032133483,"(0.0, 0.0, 0.0, 0.0, 0.0, 0.0)",-0.24107695935135354,False,,,,,False,,,,
38,Close,,,"(3.0991842655903425e-07, 0.169999153087261, 0.0005600347082356065)","(1.570772558536085, 0.00032764712563817383, -1.5390013302753274e-05)",,"[-0.026750000193715096, 0.05299999937415123, 0.03999999910593033]","[0.0, -0.0, 0.9857786218799983]","[-0.08677656948566437, 0.09275941550731659, 0.03999999910593033]","[0.0, -0.0, 0.4737224893055005]","[0.026750000193715096, 0.05299999937415123, 0.03999999910593033]","[0.0, 0.0, -0.9857791586690391]","[0.08677658438682556, 0.0927593931555748, 0.03999999910593033]","[0.0, 0.0, -0.47372859204714834]",0.9472007654041954,-9.258687077603232,"(0.0, 0.0, 0.0, 0.0, 0.0, 0.0)",1.6097085175776904,-0.550850558870837,-9.310651763444346,"(0.0, 0.0, 0.0, 0.0, 0.0, 0.0)",0.21783104241587867,-0.9472011754950539,9.258698013359455,"(0.0, 0.0, 0.0, 0.0, 0.0, 0.0)",-1.609711822487034,0.5508454489213972,9.310788028762744,"(0.0, 0.0, 0.0, 0.0, 0.0, 0.0)",-0.21783270758412676,False,,,,,False,,,,
39,Close,,,"(4.0106165104263135e-07, 0.169999026405202, 0.0005944331352702725)","(1.570848092729261, 0.0003750986118602944, -1.4060502423520339e-05)",,"[-0.026750000193715096, 0.05299999937415123, 0.03999999910593033]","[0.0, -0.0, 0.9472008140782049]","[-0.08519845455884933, 0.09504495561122894, 0.03999999910593033]","[0.0, -0.0, 0.39635019782230363]","[0.026750000193715096, 0.05299999937415123, 0.03999999910593033]","[0.0, 0.0, -0.9472011867132297]","[0.08519846946001053, 0.09504493325948715, 0.03999999910593033]","[0.0, 0.0, -0.3963557154153113]",0.9124806888632406,-8.332818369829143,"(0.0, 0.0, 0.0, 0.0, 0.0, 0.0)",1.4497611633824499,-0.5857655029837533,-8.379586587099913,"(0.0, 0.0, 0.0, 0.0, 0.0, 0.0)",0.19674731686213875,-0.9124810579450133,8.332828212009746,"(0.0, 0.0, 0.0, 0.0, 0.0, 0.0)",-1.4497641496546352,0.5857609040292575,8.379709225886469,"(0.0, 0.0, 0.0, 0.0, 0.0, 0.0)",-0.1967488266016999,False,,,,,False,,,,
40,Close,,,"(3.70657372146465e-07, 0.16999903038777142, 0.0006260749884053443)","(1.5708440552876382, 0.00034508120830118214, -1.4055585689260766e-05)",,"[-0.026750000193715096, 0.05299999937415123, 0.03999999910593033]","[0.0, -0.0, 0.9124807402838544]","[-0.08370371162891388, 0.09704854339361191, 0.03999999910593033]","[0.0, -0.0, 0.32671521193417863]","[0.026750000193715096, 0.05299999937415123, 0.03999999910593033]","[0.0, 0.0, -0.9124811663733811]","[0.08370373398065567, 0.09704852104187012, 0.03999999910593033]","[0.0, 0.0, -0.32672018954414506]",0.8812326199769166,-7.499536532717775,"(0.0, 0.0, 0.0, 0.0, 0.0, 0.0)",1.3056085801322186,-0.6171891619197363,-7.541678144635914,"(0.0, 0.0, 0.0, 0.0, 0.0, 0.0)",0.17763358199117588,-0.881232952150512,7.499545390680321,"(0.0, 0.0, 0.0, 0.0, 0.0, 0.0)",-1.305611277336412,0.617185022862301,7.541788519930457,"(0.0, 0.0, 0.0, 0.0, 0.0, 0.0)",-0.17763494969582577,False,,,,,False,,,,
41,Close,,,"(3.427044292909036e-07, 0.1699990340506735, 0.0006551854712062516)","(1.5708403346470328, 0.0003174583455114455, -1.4051356821419932e-05)",,"[-0.026750000193715096, 0.05299999937415123, 0.03999999910593033]","[0.0, -0.0, 0.8812326035131218]","[-0.08229970186948776, 0.09880644828081131, 0.03999999910593033]","[0.0, -0.0, 0.26404346611112495]","[0.026750000193715096, 0.05299999937415123, 0.03999999910593033]","[0.0, 0.0, -0.8812328730718287]","[0.08229971677064896, 0.09880642592906952, 0.03999999910593033]","[0.0, 0.0, -0.2640479150919315]",0.8531093579792249,-6.749582879446001,"(0.0, 0.0, 0.0, 0.0, 0.0, 0.0)",1.1757252455852583,-0.6454704345862542,-6.78750543996429,"(0.0, 0.0, 0.0, 0.0, 0.0, 0.0)",0.16033509317806058,-0.8531096569354608,6.7495908516122896,"(0.0, 0.0, 0.0, 0.0, 0.0, 0.0)",-1.1757276808922346,0.645466709436021,6.787604777692787,"(0.0, 0.0, 0.0, 0.0, 0.0, 0.0)",-0.16033633143309114,False,,,,,False,,,,
42,Close,,,"(3.170084497545684e-07, 0.16999903740907119, 0.0006819671107693073)","(1.570836911771951, 0.00029204530032808255, -1.4047683015968837e-05)",,"[-0.026750000193715096, 0.05299999937415123, 0.03999999910593033]","[0.0, -0.0, 0.8531093567174074]","[-0.08098968118429184, 0.10035036504268646, 0.03999999910593033]","[0.0, -0.0, 0.2076389231904772]","[0.026750000193715096, 0.05299999937415123, 0.03999999910593033]","[0.0, 0.0, -0.8531096230941355]","[0.08098969608545303, 0.10035035014152527, 0.03999999910593033]","[0.0, 0.0, -0.2076429742570099]",0.8277984221813024,-6.0746245915014,"(0.0, 0.0, 0.0, 0.0, 0.0, 0.0)",1.0586966037970245,-0.6709235615380169,-6.1087504684230565,"(0.0, 0.0, 0.0, 0.0, 0.0, 0.0)",0.14467321668423558,-0.8277986912419147,6.074631766451059,"(0.0, 0.0, 0.0, 0.0, 0.0, 0.0)",-1.0586988018726124,0.6709202089041267,6.108839872345364,"(0.0, 0.0, 0.0, 0.0, 0.0, 0.0)",-0.14467433700617466,False,,,,,False,,,,
43,Close,,,"(2.93385406087929e-07, 0.16999904048782613, 0.0007066062149797113)","(1.5708337628331848, 0.0002686652895538331, -1.4044478861914954e-05)",,"[-0.026750000193715096, 0.05299999937415123, 0.03999999910593033]","[0.0, -0.0, 0.8277984323872327]","[-0.07977395504713058, 0.10170790553092957, 0.03999999910593033]","[0.0, -0.0, 0.15687485461046338]","[0.026750000193715096, 0.05299999937415123, 0.03999999910593033]","[0.0, 0.0, -0.8277987052452376]","[0.07977396249771118, 0.10170789808034897, 0.03999999910593033]","[0.0, 0.0, -0.15687847762667875]",0.8050185799631722,-5.467162132351259,"(0.0, 0.0, 0.0, 0.0, 0.0, 0.0)",0.9532674830029981,-0.6938313591081322,-5.497871416827678,"(0.0, 0.0, 0.0, 0.0, 0.0, 0.0)",0.1305069121449798,-0.8050188221177232,5.467168589805953,"(0.0, 0.0, 0.0, 0.0, 0.0, 0.0)",-0.9532694663734236,0.6938283417388244,5.49795188032743,"(0.0, 0.0, 0.0, 0.0, 0.0, 0.0)",-0.13050792520753388,False,,,,,False,,,,
44,Close,,,"(2.716665250887489e-07, 0.16999904330973556, 0.0007292741870466809)","(1.5708308659078907, 0.0002471556717650467, -1.4041672069322908e-05)",,"[-0.026750000193715096, 0.05299999937415123, 0.03999999910593033]","[0.0, -0.0, 0.8050185839979388]","[-0.07865073531866074, 0.10290304571390152, 0.03999999910593033]","[0.0, -0.0, 0.11118723016400785]","[0.026750000193715096, 0.05299999937415123, 0.03999999910593033]","[0.0, 0.0, -0.8050187952188965]","[0.07865074276924133, 0.10290303081274033, 0.03999999910593033]","[0.0, 0.0, -0.11119048022217565]",0.784516721966855,-4.920445919116134,"(0.0, 0.0, 0.0, 0.0, 0.0, 0.0)",0.8582975670224743,-0.7144483618360385,-4.948080654697517,"(0.0, 0.0, 0.0, 0.0, 0.0, 0.0)",0.11770004006048959,-0.784516939905951,4.92045173082536,"(0.0, 0.0, 0.0, 0.0, 0.0, 0.0)",-0.8582993561887614,0.7144456462047399,4.948153071819748,"(0.0, 0.0, 0.0, 0.0, 0.0, 0.0)",-0.11770095568272418,False,,,,,False,,,,
45,Close,,,"(2.51696986958339e-07, 0.1699990458957082, 0.0007501287178850499)","(1.5708282008276007, 0.000227366816649173, -1.4039201474218165e-05)",,"[-0.026750000193715096, 0.05299999937415123, 0.03999999910593033]","[0.0, -0.0, 0.7845167193080385]","[-0.07761679589748383, 0.10395654290914536, 0.03999999910593033]","[0.0, -0.0, 0.07006835685702544]","[0.026750000193715096, 0.05299999937415123, 0.03999999910593033]","[0.0, 0.0, -0.7845169946958266]","[0.07761680334806442, 0.10395653545856476, 0.03999999910593033]","[0.0, 0.0, -0.0700712989357174]",0.7660650497701694,-4.42840132720452,"(0.0, 0.0, 0.0, 0.0, 0.0, 0.0)",0.7727568402429666,-0.7330036506599046,-4.453269317727849,"(0.0, 0.0, 0.0, 0.0, 0.0, 0.0)",0.106127525293464,-0.7660652459153559,4.428406557742824,"(0.0, 0.0, 0.0, 0.0, 0.0, 0.0)",-0.7727584538402424,0.7330012065927102,4.453334493112861,"(0.0, 0.0, 0.0, 0.0, 0.0, 0.0)",-0.10612835248484857,False,,,,,False,,,,
46,Close,,,"(2.3333473952068603e-07, 0.16999904826492518, 0.0007693148831029557)","(1.5708257490378412, 0.00020916106414766092, -1.403701531280991e-05)",,"[-0.026750000193715096, 0.05299999937415123, 0.03999999910593033]","[0.0, -0.0, 0.7660649977175382]","[-0.07666795700788498, 0.10488639771938324, 0.03999999910593033]","[0.0, -0.0, 0.03306140223906952]","[0.026750000193715096, 0.05299999937415123, 0.03999999910593033]","[0.0, 0.0, -0.7660653079646047]","[0.07666796445846558, 0.10488638281822205, 0.03999999910593033]","[0.0, 0.0, -0.033064041138401834]",0.7494585447931524,-3.985561194484066,"(0.0, 0.0, 0.0, 0.0, 0.0, 0.0)",0.6957152666369016,-0.7497033982890566,-4.007939430996486,"(0.0, 0.0, 0.0, 0.0, 0.0, 0.0)",0.09567473522853766,-0.7494587213238203,3.985565901968542,"(0.0, 0.0, 0.0, 0.0, 0.0, 0.0)",-0.6957167215859875,0.7497011986294615,4.007998088820328,"(0.0, 0.0, 0.0, 0.0, 0.0, 0.0)",-0.09567548223716564,False,,,,,False,,,,
47,Close,,,"(2.1644941757498085e-07, 0.1699990504349868, 0.0007869661522299996)","(1.5708234934689855, 0.0001924117668631307, -1.4035069780186692e-05)",,"[-0.026750000193715096, 0.05299999937415123, 0.03999999910593033]","[0.0, -0.0, 0.7494586090384826]","[-0.07579945772886276, 0.10570816695690155, 0.03999999910593033]","[0.0, 0.0, -0.000244853492999894]","[0.026750000193715096, 0.05299999937415123, 0.03999999910593033]","[0.0, 0.0, -0.7494587081400255]","[0.07579946517944336, 0.10570815205574036, 0.03999999910593033]","[0.0, -0.0, 0.00024247731079752444]",0.7345126903138371,-3.587005075035659,"(0.0, 0.0, 0.0, 0.0, 0.0, 0.0)",0.626333365984163,-0.764733160038395,-3.6071428198412123,"(0.0, 0.0, 0.0, 0.0, 0.0, 0.0)",0.08623682787405348,-0.7345128491914382,3.587009311771688,"(0.0, 0.0, 0.0, 0.0, 0.0, 0.0)",-0.6263346776346612,0.7647311803455538,3.607195611862134,"(0.0, 0.0, 0.0, 0.0, 0.0, 0.0)",-0.08623750223625977,False,,,,,False,,,,
48,Close,,,"(1.9902478529523268e-07, 0.16999905216510106, 0.0008031506134026157)","(1.5708213694672628, 0.00017518801369688713, -1.4031269556480368e-05)",,"[-0.026750000193715096, 0.05299999937415123, 0.03999999910593033]","[0.0, -0.0, 0.7345126628086843]","[-0.07500623911619186, 0.10643533617258072, 0.03999999910593033]","[0.0, 0.0, -0.03022046980229406]","[0.026750000193715096, 0.05299999937415123, 0.03999999910593033]","[0.0, 0.0, -0.7345128981556924]","[0.07500624656677246, 0.10643532872200012, 0.03999999910593033]","[0.0, -0.0, 0.03021832986745902]",0.7210614212824534,-3.228304567532092,"(0.0, 0.0, 0.0, 0.0, 0.0, 0.0)",0.5638237707840803,-0.7782610712626786,-3.246698693828069,"(0.0, 0.0, 0.0, 0.0, 0.0, 0.0)",0.07768823801248652,-0.7210615642722944,3.2283083805945183,"(0.0, 0.0, 0.0, 0.0, 0.0, 0.0)",-0.5638249528147553,0.7782592895487316,3.2467462087626835,"(0.0, 0.0, 0.0, 0.0, 0.0, 0.0)",-0.07768884636877696,False,,,,,False,,,,
49,Close,,,"(1.829952775457341e-07, 0.16999905372445717, 0.0008180403399689366)","(1.5708194143492393, 0.00015934185659229473, -1.4027683329641553e-05)",,"[-0.026750000193715096, 0.05299999937415123, 0.03999999910593033]","[0.0, -0.0, 0.7210614193238458]","[-0.07428312301635742, 0.10707958787679672, 0.03999999910593033]","[0.0, 0.0, -0.05719964992344959]","[0.026750000193715096, 0.05299999937415123, 0.03999999910593033]","[0.0, 0.0, -0.7210615729227128]","[0.07428313046693802, 0.10707958042621613, 0.03999999910593033]","[0.0, -0.0, 0.05719773186848648]",0.7089552791542081,-2.905474110778883,"(0.0, 0.0, 0.0, 0.0, 0.0, 0.0)",0.5075985242705942,-0.7904360705014085,-2.921999817295172,"(0.0, 0.0, 0.0, 0.0, 0.0, 0.0)",0.07003713951344083,-0.7089554078450649,2.905477542535066,"(0.0, 0.0, 0.0, 0.0, 0.0, 0.0)",-0.5075995897946305,0.7904344669675306,2.9220425805117625,"(0.0, 0.0, 0.0, 0.0, 0.0, 0.0)",-0.07003768863744474,False,,,,,False,,,,
50,Close,,,"(1.682467379846132e-07, 0.1699990551245469, 0.0008317388481303276)","(1.570817615731277, 0.00014476218910829968, -1.4024269510216624e-05)",,"[-0.026750000193715096, 0.05299999937415123, 0.03999999910593033]","[0.0, -0.0, 0.7089552779168017]","[-0.07362496107816696, 0.10765105485916138, 0.03999999910593033]","[0.0, 0.0, -0.08148078223376223]","[0.026750000193715096, 0.05299999937415123, 0.03999999910593033]","[0.0, 0.0, -0.7089554724698194]","[0.07362496852874756, 0.10765104740858078, 0.03999999910593033]","[0.0, -0.0, 0.0814790502780401]",0.6980597512387873,-2.6149266997009946,"(0.0, 0.0, 0.0, 0.0, 0.0, 0.0)",0.45693917814201784,-0.8013934602632394,-2.6297735428394082,"(0.0, 0.0, 0.0, 0.0, 0.0, 0.0)",0.06310201359777694,-0.6980598670605584,2.614929788281559,"(0.0, 0.0, 0.0, 0.0, 0.0, 0.0)",-0.45694013827892466,0.8013920170905735,2.6298120295302843,"(0.0, 0.0, 0.0, 0.0, 0.0, 0.0)",-0.06310250889925509,False,,,,,False,,,,
51,Close,,,"(1.546756367802499e-07, 0.16999905637827734, 0.0008443414385910609)","(1.5708159610857961, 0.00013134778772512943, -1.402100024143693e-05)",,"[-0.026750000193715096, 0.05299999937415123, 0.03999999910593033]","[0.0, -0.0, 0.6980597686270504]","[-0.07302673906087875, 0.10815852880477905, 0.03999999910593033]","[0.0, 0.0, -0.10333370902653251]","[0.026750000193715096, 0.05299999937415123, 0.03999999910593033]","[0.0, 0.0, -0.6980598246378259]","[0.07302674651145935, 0.10815852135419846, 0.03999999910593033]","[0.0, -0.0, 0.10333215264877679]",0.6882537761149086,-2.3534340297308955,"(0.0, 0.0, 0.0, 0.0, 0.0, 0.0)",0.41132662822933225,-0.8112550122446371,-2.3667724755354502,"(0.0, 0.0, 0.0, 0.0, 0.0, 0.0)",0.056847326346645,-0.6882538803545026,2.353436809453404,"(0.0, 0.0, 0.0, 0.0, 0.0, 0.0)",-0.4113274932960819,0.8112537133962935,2.3668071133728046,"(0.0, 0.0, 0.0, 0.0, 0.0, 0.0)",-0.0568477730004364,False,,,,,False,,,,
52,Close,,,"(1.4218689550358636e-07, 0.1699990574974972, 0.0008559357877458743)","(1.5708144388885392, 0.00011900551991941484, -1.4017852050493115e-05)",,"[-0.026750000193715096, 0.05299999937415123, 0.03999999910593033]","[0.0, -0.0, 0.6882538042795985]","[-0.07248363643884659, 0.10860966145992279, 0.03999999910593033]","[0.0, 0.0, -0.12300123728040792]","[0.026750000193715096, 0.05299999937415123, 0.03999999910593033]","[0.0, 0.0, -0.688253900607872]","[0.07248364388942719, 0.1086096540093422, 0.03999999910593033]","[0.0, -0.0, 0.12299984676553348]",0.6794283985034177,-2.118090626757806,"(0.0, 0.0, 0.0, 0.0, 0.0, 0.0)",0.3702598465395096,-0.8201303199370257,-2.1300738461732434,"(0.0, 0.0, 0.0, 0.0, 0.0, 0.0)",0.051207533272865695,-0.6794284923190523,2.1180931285080637,"(0.0, 0.0, 0.0, 0.0, 0.0, 0.0)",-0.37026062586363284,0.8201291509798778,2.130105020060234,"(0.0, 0.0, 0.0, 0.0, 0.0, 0.0)",-0.051207935975855504,False,,,,,False,,,,
53,Close,,,"(1.3069318416839e-07, 0.16999905849308636, 0.0008666025576372722)","(1.5708130385376784, 0.00010764969663878531, -1.401480516953977e-05)",,"[-0.026750000193715096, 0.05299999937415123, 0.03999999910593033]","[0.0, -0.0, 0.6794284238724229]","[-0.07199108600616455, 0.10901110619306564, 0.03999999910593033]","[0.0, 0.0, -0.14070193198542613]","[0.026750000193715096, 0.05299999937415123, 0.03999999910593033]","[0.0, 0.0, -0.6794284800706577]","[0.07199109345674515, 0.10901109874248505, 0.03999999910593033]","[0.0, -0.0, 0.1407006814892172]",0.6714855586530759,-1.9062815640820263,"(0.0, 0.0, 0.0, 0.0, 0.0, 0.0)",0.33328720146674756,-0.82811801654313,-1.9170471854650495,"(0.0, 0.0, 0.0, 0.0, 0.0, 0.0)",0.0461231568532664,-0.6714856430871471,1.9062838156572566,"(0.0, 0.0, 0.0, 0.0, 0.0, 0.0)",-0.33328790347714454,0.8281169644874314,1.917075241812861,"(0.0, 0.0, 0.0, 0.0, 0.0, 0.0)",-0.04612351986457081,False,,,,,False,,,,
54,Close,,,"(1.201142787701026e-07, 0.1699990593750365, 0.0008764159571233717)","(1.5708117502799854, 9.720147739875066e-05, -1.4011842957469135e-05)",,"[-0.026750000193715096, 0.05299999937415123, 0.03999999910593033]","[0.0, -0.0, 0.6714856028191667]","[-0.07154478132724762, 0.10936867445707321, 0.03999999910593033]","[0.0, 0.0, -0.1566324602805662]","[0.026750000193715096, 0.05299999937415123, 0.03999999910593033]","[0.0, 0.0, -0.6714856028191667]","[0.07154478132724762, 0.10936867445707321, 0.03999999910593033]","[0.0, -0.0, 0.15663130155257995]",0.6643370027877683,-1.7156534076738226,"(0.0, 0.0, 0.0, 0.0, 0.0, 0.0)",0.30000166468946887,-0.8353068710937589,-1.7253250921509458,"(0.0, 0.0, 0.0, 0.0, 0.0, 0.0)",0.041540284771796165,-0.6643370787784324,1.7156554340915304,"(0.0, 0.0, 0.0, 0.0, 0.0, 0.0)",-0.3000022969997827,0.8353059242487986,1.725350342728124,"(0.0, 0.0, 0.0, 0.0, 0.0, 0.0)",-0.041540611950472935,False,,,,,False,,,,
55,Close,,,"(1.1037647424359984e-07, 0.16999906015252483, 0.0008854442581506275)","(1.5708105651429114, 8.758832292823178e-05, -1.4008951415989527e-05)",,"[-0.026750000193715096, 0.05299999937415123, 0.03999999910593033]","[0.0, -0.0, 0.6643370606126838]","[-0.07114068418741226, 0.1096874549984932, 0.03999999910593033]","[0.0, 0.0, -0.17096987637179278]","[0.026750000193715096, 0.05299999937415123, 0.03999999910593033]","[0.0, 0.0, -0.6643370606126838]","[0.07114069163799286, 0.1096874475479126, 0.03999999910593033]","[0.0, -0.0, 0.17096884643662202]",0.6579033025089914,-1.5440880669064398,"(0.0, 0.0, 0.0, 0.0, 0.0, 0.0)",0.2700364572532802,-0.8417767749452665,-1.5527769243618206,"(0.0, 0.0, 0.0, 0.0, 0.0, 0.0)",0.03741008611729049,-0.6579033709005891,1.5440898906823783,"(0.0, 0.0, 0.0, 0.0, 0.0, 0.0)",-0.27003702673818186,0.8417759227894597,1.5527996497586782,"(0.0, 0.0, 0.0, 0.0, 0.0, 0.0)",-0.03741038095743008,False,,,,,False,,,,
56,Close,,,"(1.0141204673652616e-07, 0.16999906083398159, 0.0008937502707232629)","(1.570809474872104, 7.87434915574051e-05, -1.4006118772737545e-05)",,"[-0.026750000193715096, 0.05299999937415123, 0.03999999910593033]","[0.0, -0.0, 0.6579033304946226]","[-0.07077505439519882, 0.10997187346220016, 0.03999999910593033]","[0.0, 0.0, -0.18387348897538708]","[0.026750000193715096, 0.05299999937415123, 0.03999999910593033]","[0.0, 0.0, -0.6579033304946226]","[0.07077506184577942, 0.10997187346220016, 0.03999999910593033]","[0.0, -0.0, 0.1838725619548152]",0.6521129722580923,-1.3896792602157946,"(0.0, 0.0, 0.0, 0.0, 0.0, 0.0)",0.24306111081870946,-0.8475996296201711,-1.3974851219770965,"(0.0, 0.0, 0.0, 0.0, 0.0, 0.0)",0.033688362136148925,-0.6521130338105302,1.38968090161414,"(0.0, 0.0, 0.0, 0.0, 0.0, 0.0)",-0.24306162368353448,0.8475988626841415,1.3975055747236533,"(0.0, 0.0, 0.0, 0.0, 0.0, 0.0)",-0.03368862779939208,False,,,,,False,,,,
57,Close,,,"(9.31587620256511e-08, 0.16999906142715163, 0.0009013917798737923)","(1.570808471873919, 7.060557585400826e-05, -1.4003335136779464e-05)",,"[-0.026750000193715096, 0.05299999937415123, 0.03999999910593033]","[0.0, -0.0, 0.6521129301518677]","[-0.07044443488121033, 0.11022583395242691, 0.03999999910593033]","[0.0, 0.0, -0.19548665573955404]","[0.026750000193715096, 0.05299999937415123, 0.03999999910593033]","[0.0, 0.0, -0.6521129866161153]","[0.07044444233179092, 0.11022583395242691, 0.03999999910593033]","[0.0, -0.0, 0.19548582525750646]",0.646901675032283,-1.2507113341942153,"(0.0, 0.0, 0.0, 0.0, 0.0, 0.0)",0.2187779064062842,-0.8528401458571484,-1.2577238968745574,"(0.0, 0.0, 0.0, 0.0, 0.0, 0.0)",0.03033513071724496,-0.6469017304294772,1.2507128114527255,"(0.0, 0.0, 0.0, 0.0, 0.0, 0.0)",-0.2187783682505172,0.8528394556185027,1.2577423042466835,"(0.0, 0.0, 0.0, 0.0, 0.0, 0.0)",-0.03033537006280305,False,,,,,False,,,,
58,Close,,,"(8.555942447331213e-08, 0.16999906193915107, 0.000908421947674647)","(1.5708075491625393, 6.311807629477444e-05, -1.4000592203169427e-05)",,"[-0.026750000193715096, 0.05299999937415123, 0.03999999910593033]","[0.0, -0.0, 0.6469017074975589]","[-0.0701456218957901, 0.11045276373624802, 0.03999999910593033]","[0.0, 0.0, -0.20593848593871938]","[0.026750000193715096, 0.05299999937415123, 0.03999999910593033]","[0.0, 0.0, -0.6469017640113621]","[0.0701456293463707, 0.11045276373624802, 0.03999999910593033]","[0.0, -0.0, 0.2059377054983325]",0.6422115075290548,-1.1256402007747932,"(0.0, 0.0, 0.0, 0.0, 0.0, 0.0)",0.19691865600140895,-0.8575565627499749,-1.1319400542783593,"(0.0, 0.0, 0.0, 0.0, 0.0, 0.0)",0.027314243362735774,-0.6422115573865295,1.1256415303074527,"(0.0, 0.0, 0.0, 0.0, 0.0, 0.0)",-0.19691907187647334,0.8575559415385998,1.1319566208232932,"(0.0, 0.0, 0.0, 0.0, 0.0, 0.0)",-0.027314458975022625,False,,,,,False,,,,
59,Move,,,"(7.856146500561274e-08, 0.16999906237651882, 0.0009148896830877347)","(1.5708067003113224, 5.6229009009845055e-05, -1.399788300299107e-05)","[0.0, 0.0, 0.0]","[-0.026750000193715096, 0.05299999937415123, 0.03999999910593033]","[0.0, -0.0, 0.6422115222668433]","[-0.06987567991018295, 0.11065566539764404, 0.03999999910593033]","[0.0, 0.0, -0.21534502689171695]","[0.026750000193715096, 0.05299999937415123, 0.03999999910593033]","[0.0, 0.0, -0.6422115222668433]","[0.06987568736076355, 0.11065565794706345, 0.03999999910593033]","[0.0, -0.0, 0.2153443918565048]",0.6379903567761492,-1.0130761806973148,"(0.0, 0.0, 0.0, 0.0, 0.0, 0.0)",0.17724179525373857,-0.861801294967015,-1.0187357320896053,"(0.0, 0.0, 0.0, 0.0, 0.0, 0.0)",0.024593033118920006,-0.6379904016478766,1.0130773772767077,"(0.0, 0.0, 0.0, 0.0, 0.0, 0.0)",-0.1772421697155535,0.8618007358798453,1.0187506418989196,"(0.0, 0.0, 0.0, 0.0, 0.0, 0.0)",-0.024593227332916724,False,,,,,False,,,,
60,Move,,,"(7.401516452493873e-08, 0.16999906300717518, 0.0009208949427311885)","(1.5708059692049072, 5.171406878091127e-05, -1.3997173418156156e-05)","[-4.546300480674002e-09, 6.306563604674409e-10, 6.005259643453772e-06]","[-0.026750000193715096, 0.05299999937415123, 0.03999999910593033]","[0.0, -0.0, 0.6379903239810443]","[-0.06963192671537399, 0.1108371913433075, 0.03999999910593033]","[0.0, 0.0, -0.2238109552587812]","[0.026750000193715096, 0.05299999937415123, 0.03999999910593033]","[0.0, 0.0, -0.6379904179642307]","[0.06963192671537399, 0.1108371838927269, 0.03999999910593033]","[0.0, -0.0, 0.22381033482023305]",0.615110639462399,-5.491132155300077,"(0.0, 0.0, 0.0, 0.0, 0.0, 0.0)",-6.452665348763696,-0.8613763884842398,0.10197755586604229,"(0.0, 0.0, 0.0, 0.0, 0.0, 0.0)",-0.36782542138199165,-0.6151107211023208,5.491123330933392,"(0.0, 0.0, 0.0, 0.0, 0.0, 0.0)",6.4526488408560905,0.8613758231880564,-0.10197904602934349,"(0.0, 0.0, 0.0, 0.0, 0.0, 0.0)",0.36782252911949487,False,,,,,False,,,,
61,Move,,,"(6.525734425186348e-05, 0.17034549853437667, 0.001059997142676121)","(1.5643418998519334, 0.00019756355969089426, -0.0007979474479338168)","[6.517878278685787e-05, 0.00034643615785784343, 0.00014510745958838623]","[-0.026750000193715096, 0.05299999937415123, 0.03999999910593033]","[0.0, -0.0, 0.6151107619663475]","[-0.06829752027988434, 0.1118030920624733, 0.03999999910593033]","[0.0, 0.0, -0.24626574387408112]","[0.026750000193715096, 0.05299999937415123, 0.03999999910593033]","[0.0, 0.0, -0.6151107619663475]","[0.06829752773046494, 0.1118030920624733, 0.03999999910593033]","[0.0, -0.0, 0.24626510812228053]",0.59557520589455,-4.68850405628373,"(0.0, 0.0, 0.0, 0.0, 0.0, 0.0)",-45.004877301260535,-0.841587039207075,4.749443826519566,"(0.0, 0.0, 0.0, 0.0, 0.0, 0.0)",-23.059879711313982,-0.5955448471476087,4.6958097491309045,"(0.0, 0.0, 0.0, 0.0, 0.0, 0.0)",43.2331221848827,0.8422035798107438,-4.601338410555013,"(0.0, 0.0, 0.0, 0.0, 0.0, 0.0)",22.069611273367745,True,"(-0.03288698015965098, 0.18306432161630465, 0.039999948285931244)","(0.9999999985648672, -1.399717339714095e-05, -5.171406875791205e-05)",0.0009292587523792685,356.63318049990795,True,"(0.032887031061809374, 0.18306436848012048, 0.04000005171406876)","(-0.9999999985648671, 1.3997173395198976e-05, 5.171406875668148e-05)",0.0009247539911204204,342.7710504396539
62,Move,"(0.0, 0.0, 0.0)","(0.0, -0.0, 0.0)","(0.00016176697229314485, 0.17076934431250207, 0.001298992481510786)","(1.553459115144406, 0.0004787126916021603, -0.0016283617000435679)","[0.00016168841082813925, 0.0007702819359832469, 0.0003841027984230513]","[-0.026750000193715096, 0.05299999937415123, 0.03999999910593033]","[0.0, -0.0, 0.5955751094143519]","[-0.06714092195034027, 0.11260347068309784, 0.03999999910593033]","[0.0, 0.0, -0.24601185159459507]","[0.026750000193715096, 0.05299999937415123, 0.03999999910593033]","[0.0, 0.0, -0.5955448282145998]","[0.06713911145925522, 0.11260469257831573, 0.03999999910593033]","[0.0, -0.0, 0.24665872904210193]",0.5770970782178444,-4.434750642409365,"(0.0, 0.0, 0.0, 0.0, 0.0, 0.0)",-74.21698749878065,-0.811850997818181,7.136649933334551,"(0.0, 0.0, 0.0, 0.0, 0.0, 0.0)",-37.92588619525253,-0.5770027641966642,4.450099908226674,"(0.0, 0.0, 0.0, 0.0, 0.0, 0.0)",71.59541053355323,0.8135423707664626,-6.878690170627483,"(0.0, 0.0, 0.0, 0.0, 0.0, 0.0)",36.485404729774935,True,"(-0.03174847742362094, 0.1838726496858637, 0.03999980243644159)","(0.9999996621242782, -0.0007979473476813144, -0.0001975635584110712)",-0.00012778812911608492,569.3446982775357,True,"(0.031700570614753176, 0.18385320841010633, 0.0400001975635584)","(-0.9999996621242783, 0.0007979473476767542, 0.0001975635584049517)",-0.0003431682129125587,549.2893233704585
63,Move,"(0.0, 0.0, 0.0)","(0.0, -0.0, 0.0)","(0.00020568050408397375, 0.17108007690663649, 0.0015665957858292871)","(1.5453980212159237, 0.00011151380297923225, -0.0017071234802152205)","[0.00020560194261896815, 0.0010810145301176632, 0.0006517061027415524]","[-0.026750000193715096, 0.05299999937415123, 0.03999999910593033]","[0.0, -0.0, 0.5770971029289548]","[-0.06603273004293442, 0.11333960294723511, 0.03999999910593033]","[0.0, 0.0, -0.23475391897699402]","[0.026750000193715096, 0.05299999937415123, 0.03999999910593033]","[0.0, 0.0, -0.5770027543990871]","[0.06602703779935837, 0.11334330588579178, 0.03999999910593033]","[0.0, -0.0, 0.23653961426052006]",0.579404895675538,0.5538761898464655,"(0.0, 0.0, 0.0, 0.0, 0.0, 0.0)",6.4633983195225495,-0.8148246019570704,-0.7136649933334551,"(0.0, 0.0, 0.0, 0.0, 0.0, 0.0)",-0.3132438216507522,-0.5792909153140746,-0.5491562681785016,"(0.0, 0.0, 0.0, 0.0, 0.0, 0.0)",-6.16852739973914,0.8163981315451861,0.6853825868936365,"(0.0, 0.0, 0.0, 0.0, 0.0, 0.0)",0.4843271556067679,True,"(-0.03144479909141533, 0.18499061278782541, 0.039999521287326686)","(0.9999985596366134, -0.0016283607938474471, -0.0004787126733201028)",-0.00031179486038545077,0.0,True,"(0.0313112124765586, 0.1849374824167095, 0.040000478712673315)","(-0.9999985596366132, 0.0016283607938671909, 0.0004787126733090728)",-0.0008521962835819142,2.606367117194445
64,Move,"(0.0, 0.0, 0.0)","(0.0, -0.0, 0.0)","(0.0002286301636098697, 0.1713253442528434, 0.0017817810741192494)","(1.5389812495376074, -0.000511554387002508, -0.0015041162679156222)","[0.0002285516021448641, 0.001326281876324581, 0.0008668913910315147]","[-0.026750000193715096, 0.05299999937415123, 0.03999999910593033]","[0.0, -0.0, 0.579404963823502]","[-0.06617187708616257, 0.1132487803697586, 0.03999999910593033]","[0.0, 0.0, -0.23541970778940716]","[0.026750000193715096, 0.05299999937415123, 0.03999999910593033]","[0.0, 0.0, -0.5792908612503161]","[0.0661650076508522, 0.11325327306985855, 0.03999999910593033]","[0.0, -0.0, 0.23710723316040327]",0.5797513740576465,0.08315481170606276,"(0.0, 0.0, 0.0, 0.0, 0.0, 0.0)",-0.6050371588525649,-0.8145272415431815,0.0713664993333446,"(0.0, 0.0, 0.0, 0.0, 0.0, 0.0)",0.03442143396704877,-0.5795726203959736,-0.06760921965573785,"(0.0, 0.0, 0.0, 0.0, 0.0, 0.0)",0.7665056913582627,0.8161098046097013,-0.06919846451636869,"(0.0, 0.0, 0.0, 0.0, 0.0, 0.0)",0.05385507678343228,True,"(-0.03153624923514486, 0.18487733778001617, 0.039999888486197246)","(0.9999985366474105, -0.001707122640433851, -0.00011151380275540046)",-0.00019027644015300206,0.0,True,"(0.031408552968427136, 0.18482838253269274, 0.04000011151380275)","(-0.9999985366474103, 0.0017071226404405677, 0.0001115138027507468)",-0.000784928296535469,1.0848258206781705
65,Move,"(0.0, 0.0, 0.0)","(0.0, -0.0, 0.0)","(0.00022379716863681287, 0.17150000086347655, 0.0019406498368261169)","(1.5343522193496357, -0.0004765094393025708, 0.00014207308519451227)","[0.00022371860717180727, 0.0015009384869577314, 0.0010257601537383822]","[-0.026750000193715096, 0.05299999937415123, 0.03999999910593033]","[0.0, -0.0, 0.5797513227663355]","[-0.06619274616241455, 0.11323511600494385, 0.03999999910593033]","[0.0, 0.0, -0.23477587649959936]","[0.026750000193715096, 0.05299999937415123, 0.03999999910593033]","[0.0, 0.0, -0.5795726052946306]","[0.066181980073452, 0.11324217170476913, 0.03999999910593033]","[0.0, -0.0, 0.23653717420671178]",0.5800025533587417,0.060283032262853836,"(0.0, 0.0, 0.0, 0.0, 0.0, 0.0)",-0.08748504235356536,-0.8144857885427594,0.009948720101281991,"(0.0, 0.0, 0.0, 0.0, 0.0, 0.0)",-0.03698135826994708,-0.579752547686338,-0.04318254968747053,"(0.0, 0.0, 0.0, 0.0, 0.0, 0.0)",0.48238923479540985,0.8160161726880292,-0.022471661201294325,"(0.0, 0.0, 0.0, 0.0, 0.0, 0.0)",0.2704515667978493,True,"(-0.03160324687828937, 0.18488551941779136, 0.040000511554364696)","(0.999998737973545, -0.0015041155039720849, 0.0005115543646937556)",-0.0001273172082404877,0.3600099641952665,True,"(0.0314663294688103, 0.18483630435861093, 0.039999488445635306)","(-0.999998737973545, 0.0015041155039789739, -0.0005115543647008311)",-0.0007231109159374579,3.369659756540658
66,Move,"(0.0, 0.0, 0.0)","(0.0, -0.0, 0.0)","(0.00022550251992795294, 0.17161324039349843, 0.002048639848363159)","(1.5313204547710155, -0.00043510199965190717, 0.0014801799255481508)","[0.00022542395846294734, 0.001614178016979606, 0.0011337501652754242]","[-0.026750000193715096, 0.05299999937415123, 0.03999999910593033]","[0.0, -0.0, 0.5800025345126305]","[-0.0662078782916069, 0.11322520673274994, 0.03999999910593033]","[0.0, 0.0, -0.2344832078059935]","[0.026750000193715096, 0.05299999937415123, 0.03999999910593033]","[0.0, 0.0, -0.5797525332723408]","[0.06619282066822052, 0.11323507130146027, 0.03999999910593033]","[0.0, -0.0, 0.23626364065370517]",0.5803647968076553,0.08693842773926175,"(0.0, 0.0, 0.0, 0.0, 0.0, 0.0)",0.037954102653977584,-0.8144899338428017,-0.0009948720101284891,"(0.0, 0.0, 0.0, 0.0, 0.0, 0.0)",0.0017222074022811887,-0.5800418787004894,-0.06943944339633472,"(0.0, 0.0, 0.0, 0.0, 0.0, 0.0)",-7.86709254790071e-05,0.8160185417619099,0.0005685777313749751,"(0.0, 0.0, 0.0, 0.0, 0.0, 0.0)",0.021043563204933297,True,"(-0.03163934341019903, 0.18488708280981267, 0.04000047650942127)","(0.9999998763769996, 0.0001420730685829438, 0.00047650942126588347)",-0.00011690035875491202,0.0,True,"(0.03149675298742195, 0.18483678285391775, 0.039999523490578726)","(-0.9999998763769997, -0.00014207306859140775, -0.0004765094212733113)",-0.0006670170266508909,0.27460436656730614
67,Move,"(0.0, 0.0, 0.0)","(0.0, -0.0, 0.0)","(0.0002327559108701355, 0.1716656141759162, 0.002105583721089649)","(1.5299033835799647, -0.0004013983674739314, 0.002440985813123639)","[0.0002326773494051299, 0.00166655179939737, 0.0011906940380019145]","[-0.026750000193715096, 0.05299999937415123, 0.03999999910593033]","[0.0, -0.0, 0.5803648224707226]","[-0.0662296935915947, 0.11321090906858444, 0.03999999910593033]","[0.0, 0.0, -0.23412515320946845]","[0.026750000193715096, 0.05299999937415123, 0.03999999910593033]","[0.0, 0.0, -0.580041927182697]","[0.06621024757623672, 0.11322365701198578, 0.03999999910593033]","[0.0, -0.0, 0.23597666604666073]",0.5807703641604091,0.09733616466089857,"(0.0, 0.0, 0.0, 0.0, 0.0, 0.0)",0.01540828530888074,-0.8144895193127974,9.948720101338182e-05,"(0.0, 0.0, 0.0, 0.0, 0.0, 0.0)",0.0012603755446250467,-0.5803664127820525,-0.07788817957513414,"(0.0, 0.0, 0.0, 0.0, 0.0, 0.0)",0.06291278246824748,0.8159977916186612,-0.004980034379713175,"(0.0, 0.0, 0.0, 0.0, 0.0, 0.0)",0.04348968212282194,True,"(-0.031686822160058116, 0.18488613984224478, 0.04000043510198592)","(0.9999988098771241, 0.0014801792449422473, 0.0004351019859183338)",-8.387166015081183e-05,0.0,True,"(0.03153472867097123, 0.18483369673614605, 0.03999956489801407)","(-0.9999988098771241, -0.0014801792449397621, -0.00043510198592709785)",-0.0006147291316199805,0.5799187963781358
68,Move,"(-0.00025, 0.0, 5.9999999999999995e-05)","(0.0, -0.0, 0.0)","(0.0002389766595415522, 0.17167120130678384, 0.0021112109095277926)","(1.530115358141784, -0.0003762950613256238, 0.0027134606182575975)","[0.0002388980980765466, 0.0016721389302650214, 0.0011963212264400579]","[-0.026750000193715096, 0.05299999937415123, 0.03999999910593033]","[0.0, -0.0, 0.5807703962881401]","[-0.06625410914421082, 0.11319489777088165, 0.03999999910593033]","[0.0, 0.0, -0.2337191904635551]","[0.026750000193715096, 0.05299999937415123, 0.03999999910593033]","[0.0, 0.0, -0.580366420832635]","[0.06622979044914246, 0.11321084946393967, 0.03999999910593033]","[0.0, -0.0, 0.23563140459656684]",0.581205789916266,0.10450218140567191,"(0.0, 0.0, 0.0, 0.0, 0.0, 0.0)",0.010534041503313062,-0.8144895607657978,-9.948720101071729e-06,"(0.0, 0.0, 0.0, 0.0, 0.0, 0.0)",0.000774823956079145,-0.5807124885073383,-0.08305817406858564,"(0.0, 0.0, 0.0, 0.0, 0.0, 0.0)",0.12391459620264829,0.8159667506171392,-0.007449840365280302,"(0.0, 0.0, 0.0, 0.0, 0.0, 0.0)",0.07303426125904777,True,"(-0.03174034136882138, 0.1848846959114467, 0.0400004013983567)","(0.9999969402355258, 0.002440983192404987, 0.0004013983566973841)",-3.447821311492088e-05,0.0,True,"(0.0315790014265003, 0.18483154992254197, 0.03999959860164331)","(-0.9999969402355257, -0.002440983192415323, -0.00040139835668979036)",-0.000566501162107541,1.0022030123428758
69,Move,"(-0.00022000000000000003, 0.0, 5e-05)","(0.0, -0.0, 0.0)","(0.00023924987500654901, 0.17166722768154008, 0.002066923633088724)","(1.5319135552321061, -0.0003560688791761393, 0.002716323696550495)","[0.00023917131354154341, 0.0016681653050212575, 0.0011520339500009891]","[-0.026750000193715096, 0.05299999937415123, 0.03999999910593033]","[0.0, -0.0, 0.5812058059400319]","[-0.0662803128361702, 0.11317768692970276, 0.03999999910593033]","[0.0, 0.0, -0.233283741767036]","[0.026750000193715096, 0.05299999937415123, 0.03999999910593033]","[0.0, 0.0, -0.5807125062168941]","[0.06625062227249146, 0.11319718509912491, 0.03999999910593033]","[0.0, -0.0, 0.23525427735681864]",0.5817196640575791,0.12332979391513542,"(0.0, 0.0, 0.0, 0.0, 0.0, 0.0)",0.02767152684068153,-0.8144895566204978,9.948720087749052e-07,"(0.0, 0.0, 0.0, 0.0, 0.0, 0.0)",0.0020653996795689826,-0.5810191310109413,-0.0735942008647173,"(0.0, 0.0, 0.0, 0.0, 0.0, 0.0)",0.09875848730933941,0.8159492846025133,-0.004191843510211964,"(0.0, 0.0, 0.0, 0.0, 0.0, 0.0)",0.04351417250228193,True,"(-0.03179776344987773, 0.184882346147748, 0.040000376295052466)","(0.9999962477692703, 0.002713457096353073, 0.00037629505246024276)",2.6515331202448584e-05,0.0,True,"(0.031626849944631226, 0.1848302960292949, 0.03999962370494756)","(-0.9999962477692702, -0.002713457096330829, -0.00037629505244392476)",-0.0005222798169976802,0.6370752279962486
70,Move,"(-0.0002, 0.0, 5e-05)","(0.0, -0.0, 0.0)","(0.0002394447930233968, 0.17165973282138772, 0.001971437024035063)","(1.5353332925342134, -0.0003334567943720151, 0.002717653649825182)","[0.0002393662315583912, 0.0016606704448688947, 0.0010565473409473282]","[-0.026750000193715096, 0.05299999937415123, 0.03999999910593033]","[0.0, -0.0, 0.5817196241804868]","[-0.06631123274564743, 0.11315736919641495, 0.03999999910593033]","[0.0, 0.0, -0.23276990915846935]","[0.026750000193715096, 0.05299999937415123, 0.03999999910593033]","[0.0, 0.0, -0.581019152939984]","[0.06626907736063004, 0.11318507045507431, 0.03999999910593033]","[0.0, -0.0, 0.23493015881294874]",0.5822195293959098,0.11996768119936442,"(0.0, 0.0, 0.0, 0.0, 0.0, 0.0)",-0.004878374525956254,-0.8144885188968287,0.00024905368058975724,"(0.0, 0.0, 0.0, 0.0, 0.0, 0.0)",-0.0003385378140979105,-0.5813304700040428,-0.07472135834437756,"(0.0, 0.0, 0.0, 0.0, 0.0, 0.0)",-0.001196688130973625,0.815949952728764,0.0001603503001838336,"(0.0, 0.0, 0.0, 0.0, 0.0, 0.0)",0.0003516917507506898,True,"(-0.03186553247905878, 0.18487922394978845, 0.04000035606887165)","(0.9999962474027673, 0.0027163201839891676, 0.00035606887165361573)",9.526776234749985e-05,0.0,True,"(0.031668526649705944, 0.18482907175605917, 0.039999643931128356)","(-0.9999962474027674, -0.0027163201839829933, -0.0003560688716436529)",-0.00048158191186499293,0.0
71,Move,"(-0.00018, 0.0, 4e-05)","(0.0, -0.0, 0.0)","(0.00023961037266026402, 0.17164915797541416, 0.0018248410559512235)","(1.5403759790484572, -0.00031086127949050046, 0.0027189418108876924)","[0.00023953181119525842, 0.0016500955988953403, 0.0009099513728634888]","[-0.026750000193715096, 0.05299999937415123, 0.03999999910593033]","[0.0, -0.0, 0.582219500689221]","[-0.06634129583835602, 0.11313758790493011, 0.03999999910593033]","[0.0, 0.0, -0.2322689700261161]","[0.026750000193715096, 0.05299999937415123, 0.03999999910593033]","[0.0, 0.0, -0.5813305725168457]","[0.0662878155708313, 0.11317276209592819, 0.03999999910593033]","[0.0, -0.0, 0.2346194804938201]",0.5827060079872468,0.11675486192089134,"(0.0, 0.0, 0.0, 0.0, 0.0, 0.0)",-0.004688900706374471,-0.814487545923346,0.00023351363584061982,"(0.0, 0.0, 0.0, 0.0, 0.0, 0.0)",-0.0003511278041436415,-0.5816369748469606,-0.07356116230027432,"(0.0, 0.0, 0.0, 0.0, 0.0, 0.0)",0.0016576702524481958,0.8159495842893223,-8.8425466017152e-05,"(0.0, 0.0, 0.0, 0.0, 0.0, 0.0)",9.836078016592149e-05,True,"(-0.03193152664521276, 0.18487618653351745, 0.0400003334567882)","(0.9999962515850817, 0.0027176501534669196, 0.00033345678818964185)",0.00016225296818410192,0.0,True,"(0.03170952285813723, 0.18482719893527677, 0.03999966654321182)","(-0.9999962515850815, -0.0027176501534589563, -0.00033345678818437447)",-0.00044157374899579633,0.0
72,Move,"(-0.00016, 0.0, 4e-05)","(0.0, -0.0, 0.0)","(0.00023976686082482975, 0.17163621569226561, 0.0016272271864933199)","(1.5470432265973872, -0.0002883232416380768, 0.0027194525573635666)","[0.00023968829935982415, 0.0016371533157467921, 0.0007123375034055852]","[-0.026750000193715096, 0.05299999937415123, 0.03999999910593033]","[0.0, -0.0, 0.5827059836254268]","[-0.06637054681777954, 0.11311832070350647, 0.03999999910593033]","[0.0, 0.0, -0.23178157361002705]","[0.026750000193715096, 0.05299999937415123, 0.03999999910593033]","[0.0, 0.0, -0.5816369679024552]","[0.06630625575780869, 0.113160640001297, 0.03999999910593033]","[0.0, -0.0, 0.2343126011962103]",0.5831706583585355,0.11151608910928258,"(0.0, 0.0, 0.0, 0.0, 0.0, 0.0)",-0.0076874868968447585,-0.8144875163118634,7.1067558282561256e-06,"(0.0, 0.0, 0.0, 0.0, 0.0, 0.0)",-0.0005961884758338456,-0.5819287263651022,-0.07002036435396074,"(0.0, 0.0, 0.0, 0.0, 0.0, 0.0)",0.005189036605145469,0.8159495370919724,-1.1327363991571539e-05,"(0.0, 0.0, 0.0, 0.0, 0.0, 0.0)",0.0003948066553763748,True,"(-0.03199574933975198, 0.1848731975114127, 0.04000031086127448)","(0.999996255362803, 0.0027189383294903297, 0.00031086127447829573)",0.0002274171907416251,0.0,True,"(0.03174995548678322, 0.18482537719673714, 0.03999968913872552)","(-0.999996255362803, -0.002718938329488804, -0.0003108612744816005)",-0.00040207966006140116,0.0
73,Move,"(-0.00015000000000000001, 0.0, 2.9999999999999997e-05)","(0.0, -0.0, 0.0)","(0.00023991203590214395, 0.17162182862773248, 0.0013785918829091971)","(1.5553353771229286, -0.00026582896847908975, 0.0027193220055624764)","[0.00023983347443713834, 0.0016227662512136587, 0.0004637021998214624]","[-0.026750000193715096, 0.05299999937415123, 0.03999999910593033]","[0.0, -0.0, 0.5831706578677329]","[-0.06639847904443741, 0.11309990286827087, 0.03999999910593033]","[0.0, 0.0, -0.23131687364379125]","[0.026750000193715096, 0.05299999937415123, 0.03999999910593033]","[0.0, 0.0, -0.581928770945332]","[0.06632380932569504, 0.11314909905195236, 0.03999999910593033]","[0.0, -0.0, 0.2340208047676583]",0.583606836124466,0.10468266382329894,"(0.0, 0.0, 0.0, 0.0, 0.0, 0.0)",-0.010002133281838228,-0.8144873611410224,3.724100184290748e-05,"(0.0, 0.0, 0.0, 0.0, 0.0, 0.0)",-0.000742867687042205,-0.582199460745931,-0.06497625139892182,"(0.0, 0.0, 0.0, 0.0, 0.0, 0.0)",0.007387063363277327,0.8159494248670071,-2.6933991670976423e-05,"(0.0, 0.0, 0.0, 0.0, 0.0, 0.0)",0.0005493792838141821,True,"(-0.032057024449933504, 0.18487028268614453, 0.040000288323237654)","(0.9999962607261811, 0.002719449092412249, 0.00028832323765091967)",0.00028961813873068965,0.0,True,"(0.03178841965567657, 0.1848236221632169, 0.039999711676762355)","(-0.9999962607261812, -0.002719449092408583, -0.00028832323764935375)",-0.0003645382034570812,0.0
74,Move,"(-0.00027, 0.0, 5.9999999999999995e-05)","(0.0, -0.0, 0.0)","(0.00024004325640090995, 0.17160716583679922, 0.0010789321832793128)","(1.5652526267084115, -0.00024336265398513287, 0.002718675962958546)","[0.00023996469493590435, 0.0016081034602803967, 0.00016404250019157814]","[-0.026750000193715096, 0.05299999937415123, 0.03999999910593033]","[0.0, -0.0, 0.5836068665672235]","[-0.06642469018697739, 0.11308260262012482, 0.03999999910593033]","[0.0, 0.0, -0.23088053604120307]","[0.026750000193715096, 0.05299999937415123, 0.03999999910593033]","[0.0, 0.0, -0.5821994503094174]","[0.06634008884429932, 0.11313837766647339, 0.03999999910593033]","[0.0, -0.0, 0.2337499612726754]",0.58400684245517,0.09600151936895873,"(0.0, 0.0, 0.0, 0.0, 0.0, 0.0)",-0.012719332390214838,-0.814487174887134,4.4700933231920475e-05,"(0.0, 0.0, 0.0, 0.0, 0.0, 0.0)",-0.0009478735858409438,-0.5824372011065402,-0.05705768654619359,"(0.0, 0.0, 0.0, 0.0, 0.0, 0.0)",0.011608947242211419,0.8159492520819226,-4.146842027241418e-05,"(0.0, 0.0, 0.0, 0.0, 0.0, 0.0)",0.0008644252609817477,True,"(-0.0321145526791993, 0.18486752419828695, 0.04000026582896535)","(0.9999962673138042, 0.0027193185580477253, 0.0002658289653499)",0.0003480587318524665,0.0,True,"(0.031824117395322336, 0.18482198641706213, 0.03999973417103466)","(-0.9999962673138041, -0.00271931855804916, -0.00026582896534441786)",-0.000329749670947232,0.0
75,Move,"(-0.00025, 0.0, 5.9999999999999995e-05)","(0.0, -0.0, 0.0)","(0.00019180221755641072, 0.17165146006442916, 0.0009553925806283092)","(1.571257732423799, 0.0015733559937988716, 0.004323561936351556)","[0.00019172365609140512, 0.0016523976879103397, 4.050289754057451e-05]","[-0.026750000193715096, 0.05299999937415123, 0.03999999910593033]","[0.0, -0.0, 0.5840068110762728]","[-0.06644871830940247, 0.11306672543287277, 0.03999999910593033]","[0.0, 0.0, -0.23048033382631605]","[0.026750000193715096, 0.05299999937415123, 0.03999999910593033]","[0.0, 0.0, -0.5824372111216737]","[0.06635438650846481, 0.11312896758317947, 0.03999999910593033]","[0.0, -0.0, 0.2335120309264049]",0.5843957375235578,0.09333481641307896,"(0.0, 0.0, 0.0, 0.0, 0.0, 0.0)",-0.003896873231637598,-0.8144871935125229,-4.470093322161972e-06,"(0.0, 0.0, 0.0, 0.0, 0.0, 0.0)",-0.0002955344752069166,-0.5826124993488336,-0.042071578150426295,"(0.0, 0.0, 0.0, 0.0, 0.0, 0.0)",0.8247941994943729,0.8159252862451998,-0.0057518008134689385,"(0.0, 0.0, 0.0, 0.0, 0.0, 0.0)",0.4199856721984922,True,"(-0.03216731229008085, 0.18486497334173474, 0.040000243362651594)","(0.9999962747901994, 0.0027186725334113946, 0.0002433626515848682)",0.0004017200028939294,0.0,True,"(0.03185546965667848, 0.18482054506384518, 0.03999975663734843)","(-0.9999962747901995, -0.0027186725333966616, -0.00024336265158086343)",-0.0002992958363804943,6.074511702628208
76,Move,"(-0.00023999999999999998, 0.0, 5e-05)","(0.0, -0.0, 0.0)","(0.00019180403883057903, 0.17165004684789636, 0.0010026314595418739)","(1.5726567691500823, 0.001447639235744472, 0.0043225163971317634)","[0.00019172547736557343, 0.0016509844713775423, 8.774177645413917e-05]","[-0.026750000193715096, 0.05299999937415123, 0.03999999910593033]","[0.0, -0.0, 0.5843957830410986]","[-0.06647207587957382, 0.11305128037929535, 0.03999999910593033]","[0.0, 0.0, -0.23009145814316753]","[0.026750000193715096, 0.05299999937415123, 0.03999999910593033]","[0.0, 0.0, -0.5826125029703444]","[0.06636492908000946, 0.11312202364206314, 0.03999999910593033]","[0.0, -0.0, 0.23331276989217933]",0.5847263844376112,0.07935525937281618,"(0.0, 0.0, 0.0, 0.0, 0.0, 0.0)",-0.02050205317578524,-0.814487191649984,4.47009333548464e-07,"(0.0, 0.0, 0.0, 0.0, 0.0, 0.0)",-0.0015287098368408259,-0.5827414383114194,-0.030945351020594473,"(0.0, 0.0, 0.0, 0.0, 0.0, 0.0)",0.01955883406433121,0.8159335906531132,0.0019930578992176035,"(0.0, 0.0, 0.0, 0.0, 0.0, 0.0)",0.0033319464952287856,True,"(-0.03221859790568238, 0.1848640719619844, 0.039998426644655326)","(0.9999894157079332, 0.004323543114812684, -0.0015733553446694035)",0.00045436116243559684,0.0,True,"(0.031880303172427335, 0.18481867039827024, 0.040001573355344676)","(-0.9999894157079334, -0.0043235431148069894, 0.0015733553446729727)",-0.00027633814988991493,0.01804749224890988
77,Move,"(-0.00023999999999999998, 0.0, 5e-05)","(0.0, -0.0, 0.0)","(0.00019152664850987202, 0.17165022475839567, 0.000999974508904354)","(1.5724558831445694, 0.001330549860856473, 0.004325088194493663)","[0.00019144808704486642, 0.0016511623818768473, 8.508482581661933e-05]","[-0.026750000193715096, 0.05299999937415123, 0.03999999910593033]","[0.0, -0.0, 0.5847264077329096]","[-0.06649193167686462, 0.11303814500570297, 0.03999999910593033]","[0.0, 0.0, -0.22976080930065046]","[0.026750000193715096, 0.05299999937415123, 0.03999999910593033]","[0.0, 0.0, -0.5827414941682635]","[0.06637267768383026, 0.11311691254377365, 0.03999999910593033]","[0.0, -0.0, 0.23319214066203098]",0.5850422380999056,0.07580487895068176,"(0.0, 0.0, 0.0, 0.0, 0.0, 0.0)",-0.005193253663105102,-0.8144871918362379,-4.470093362130001e-08,"(0.0, 0.0, 0.0, 0.0, 0.0, 0.0)",-0.00038734576310911007,-0.5828410069752882,-0.023896479328504458,"(0.0, 0.0, 0.0, 0.0, 0.0, 0.0)",0.0642569654835824,0.8159124634240726,-0.00507053496973648,"(0.0, 0.0, 0.0, 0.0, 0.0, 0.0)",0.032925757898623564,True,"(-0.03226219650954727, 0.18486192495283113, 0.03999855236126989)","(0.9999896101208374, 0.004322498407475696, -0.00144763873011541)",0.000493007849798651,0.0,True,"(0.03189670457827953, 0.18481760191785743, 0.04000144763873012)","(-0.9999896101208374, -0.004322498407482094, 0.0014476387301194061)",-0.0002549675203267921,0.41866830550411066
78,Move,"(-0.00023999999999999998, 0.0, 5e-05)","(0.0, -0.0, 0.0)","(0.0001914076079713219, 0.17165065751993794, 0.0009894866894285819)","(1.5720141692888074, 0.001212220053607942, 0.004323734508905853)","[0.0001913290465063163, 0.0016515951434191156, 7.459700634084715e-05]","[-0.026750000193715096, 0.05299999937415123, 0.03999999910593033]","[0.0, -0.0, 0.5850422919376789]","[-0.0665108934044838, 0.11302559077739716, 0.03999999910593033]","[0.0, 0.0, -0.22944497815603293]","[0.026750000193715096, 0.05299999937415123, 0.03999999910593033]","[0.0, 0.0, -0.582841003593769]","[0.06637866795063019, 0.11311297118663788, 0.03999999910593033]","[0.0, -0.0, 0.2330714522211219]",0.5853516242242452,0.07425266984151069,"(0.0, 0.0, 0.0, 0.0, 0.0, 0.0)",-0.0022602190783829307,-0.8144871918028067,8.023463954444087e-09,"(0.0, 0.0, 0.0, 0.0, 0.0, 0.0)",-0.0001685112863793142,-0.5829369610570835,-0.023028979630874857,"(0.0, 0.0, 0.0, 0.0, 0.0, 0.0)",0.00200650835761886,0.815909194540913,-0.00078453195830319,"(0.0, 0.0, 0.0, 0.0, 0.0, 0.0)",0.000717470650144856,True,"(-0.03230384372574671, 0.18485986404402885, 0.03999866945053173)","(0.9999897616475789, 0.004325070881570424, -0.0013305494682649699)",0.0005297955530091168,0.0,True,"(0.03191134473521198, 0.18481769376177137, 0.04000133054946827)","(-0.999989761647579, -0.004325070881572969, 0.0013305494682702098)",-0.0002354488575258699,0.002052052055685812
79,Move,"(-0.00035000000000000005, 0.0, 8e-05)","(0.0, -0.0, 0.0)","(0.00019110070730064566, 0.17165096248326892, 0.0009895104421657225)","(1.5717343209158936, 0.0009333985202698855, 0.004321337571930792)","[0.00019102214583564006, 0.0016519001067500927, 7.462075907798782e-05]","[-0.026750000193715096, 0.05299999937415123, 0.03999999910593033]","[0.0, -0.0, 0.5853516335299752]","[-0.06652946025133133, 0.11301328986883163, 0.03999999910593033]","[0.0, 0.0, -0.22913559543697956]","[0.026750000193715096, 0.05299999937415123, 0.03999999910593033]","[0.0, 0.0, -0.5829369505489536]","[0.06638443470001221, 0.11310916393995285, 0.03999999910593033]","[0.0, -0.0, 0.23297223472279754]",0.5856621000855351,0.07451420670955322,"(0.0, 0.0, 0.0, 0.0, 0.0, 0.0)",0.0004024668683270728,-0.8144871918087945,-1.4370583113170735e-09,"(0.0, 0.0, 0.0, 0.0, 0.0, 0.0)",3.0099855017194816e-05,-0.5830357085070161,-0.023699387983845636,"(0.0, 0.0, 0.0, 0.0, 0.0, 0.0)",-0.0008939836686039772,0.8159095793485734,9.235383850823896e-05,"(0.0, 0.0, 0.0, 0.0, 0.0, 0.0)",2.21693956073451e-05,True,"(-0.03234463753171231, 0.18485782871641593, 0.03999878778024329)","(0.9999899179427391, 0.004323717860306359, -0.0012122197567144685)",0.0005659016841244561,0.0,True,"(0.03192422783049369, 0.18481721268065965, 0.040001212219756714)","(-0.9999899179427392, -0.004323717860307429, 0.0012122197567163543)",-0.00021786121309338863,0.0
80,Move,"(-0.00035000000000000005, 0.0, 8e-05)","(0.0, -0.0, 0.0)","(0.00019081374860753793, 0.171651239641158, 0.0009895394774243366)","(1.571455218095246, 0.0006549816521132212, 0.004320823432635833)","[0.00019073518714253233, 0.0016521772646391764, 7.46497943366019e-05]","[-0.026750000193715096, 0.05299999937415123, 0.03999999910593033]","[0.0, -0.0, 0.5856621626476508]","[-0.06654809415340424, 0.11300092935562134, 0.03999999910593033]","[0.0, 0.0, -0.22882510129199723]","[0.026750000193715096, 0.05299999937415123, 0.03999999910593033]","[0.0, 0.0, -0.583035683546]","[0.06639036536216736, 0.11310525238513947, 0.03999999910593033]","[0.0, -0.0, 0.23287388949193333]",0.5860021952734581,0.0816228451015215,"(0.0, 0.0, 0.0, 0.0, 0.0, 0.0)",0.010455986370621687,-0.8144871918767309,-1.6304735853856834e-08,"(0.0, 0.0, 0.0, 0.0, 0.0, 0.0)",0.0007800335753389274,-0.583118324239237,-0.01982777573301675,"(0.0, 0.0, 0.0, 0.0, 0.0, 0.0)",0.005669536572870938,0.8159096125434546,7.96677147605742e-06,"(0.0, 0.0, 0.0, 0.0, 0.0, 0.0)",0.0004143547573907687,True,"(-0.03238557423382721, 0.18485577249296628, 0.039999066601615264)","(0.9999902274230247, 0.004321322240089886, -0.0009333983847339168)",0.0005957066118210056,0.0,True,"(0.0319372169347167, 0.184816591872296, 0.040000933398384744)","(-0.9999902274230248, -0.004321322240080543, 0.0009333983847428801)",-0.000193713474819201,0.0
81,Move,"(-0.00035000000000000005, 0.0, 8e-05)","(0.0, -0.0, 0.0)","(0.00019055941519049402, 0.17165148749125186, 0.0009895702309028367)","(1.571176633116012, 0.00037714910903847727, 0.004320622229720807)","[0.00019048085372548842, 0.0016524251147330415, 7.468054781510202e-05]","[-0.026750000193715096, 0.05299999937415123, 0.03999999910593033]","[0.0, -0.0, 0.5860022075065016]","[-0.06656849384307861, 0.11298739165067673, 0.03999999910593033]","[0.0, 0.0, -0.2284850047015044]","[0.026750000193715096, 0.05299999937415123, 0.03999999910593033]","[0.0, 0.0, -0.5831183169061264]","[0.0663953348994255, 0.11310197412967682, 0.03999999910593033]","[0.0, -0.0, 0.2327912922759499]",0.5863385479121027,0.0807246332747118,"(0.0, 0.0, 0.0, 0.0, 0.0, 0.0)",-0.001298500902455997,-0.8144871918693031,1.7826780782814947e-09,"(0.0, 0.0, 0.0, 0.0, 0.0, 0.0)",-9.676310252215187e-05,-0.5832066067364509,-0.021187799331314316,"(0.0, 0.0, 0.0, 0.0, 0.0, 0.0)",-0.002002605575146504,0.8159096138115359,3.043395020692061e-07,"(0.0, 0.0, 0.0, 0.0, 0.0, 0.0)",-0.00015016478404322305,True,"(-0.03243041566505869, 0.18485350762875558, 0.03999934501839472)","(0.9999904507584825, 0.004320809061217527, -0.0006549816052851044)",0.0006294249427926811,0.0,True,"(0.031948104790834875, 0.1848160796646857, 0.04000065498160528)","(-0.9999904507584825, -0.004320809061214738, 0.0006549816052809766)",-0.000171680207589137,0.0
82,Move,"(-0.00035000000000000005, 0.0, 8e-05)","(0.0, -0.0, 0.0)","(0.0001902934561823054, 0.1716517424952496, 0.000989595838747776)","(1.5708986756485188, 9.978417309689055e-05, 0.004320642744268151)","[0.0001902148947172998, 0.001652680118730765, 7.470615566004118e-05]","[-0.026750000193715096, 0.05299999937415123, 0.03999999910593033]","[0.0, -0.0, 0.5863385874473755]","[-0.06658867001533508, 0.11297399550676346, 0.03999999910593033]","[0.0, 0.0, -0.2281486486935005]","[0.026750000193715096, 0.05299999937415123, 0.03999999910593033]","[0.0, 0.0, -0.5832066251043462]","[0.06640063971281052, 0.11309847235679626, 0.03999999910593033]","[0.0, -0.0, 0.2327030145923803]",0.5866739922081308,0.0805066310467355,"(0.0, 0.0, 0.0, 0.0, 0.0, 0.0)",-0.00029999318765149474,-0.8144871918700458,-1.7826798603397128e-10,"(0.0, 0.0, 0.0, 0.0, 0.0, 0.0)",-2.2284396224681444e-05,-0.5832987011384629,-0.022102656482887898,"(0.0, 0.0, 0.0, 0.0, 0.0, 0.0)",-0.001348510431117959,0.815909613684737,-3.043173828263562e-08,"(0.0, 0.0, 0.0, 0.0, 0.0, 0.0)",-0.0001006313544360988,True,"(-0.03247476296451105, 0.18485125299798472, 0.039999622850899905)","(0.9999905950062338, 0.004320608479713556, -0.0003771491000935404)",0.0006626975612291788,0.0,True,"(0.03195974196560769, 0.1848155321258454, 0.04000037714910009)","(-0.9999905950062338, -0.004320608479707131, 0.0003771491000954838)",-0.00014895163517515396,0.0
83,Move,"(-0.00023999999999999998, 0.0, 5e-05)","(0.0, -0.0, 0.0)","(0.00019024476177303796, 0.17165180479484327, 0.0009896920370668695)","(1.5708552421935953, 5.943909170674516e-05, 0.004320516621509521)","[0.00019016620030803236, 0.0016527424183244432, 7.480235397913475e-05]","[-0.026750000193715096, 0.05299999937415123, 0.03999999910593033]","[0.0, -0.0, 0.586673962904107]","[-0.06660878658294678, 0.11296062916517258, 0.03999999910593033]","[0.0, 0.0, -0.22781320809348574]","[0.026750000193715096, 0.05299999937415123, 0.03999999910593033]","[0.0, 0.0, -0.5832987584115478]","[0.06640617549419403, 0.11309482157230377, 0.03999999910593033]","[0.0, -0.0, 0.23261095376384572]",0.58700885679965,0.08036750196462174,"(0.0, 0.0, 0.0, 0.0, 0.0, 0.0)",-0.0001842403686012569,-0.8144871918699715,1.7825740883381513e-11,"(0.0, 0.0, 0.0, 0.0, 0.0, 0.0)",-1.3650199385381676e-05,-0.5833943587960975,-0.02295783783228966,"(0.0, 0.0, 0.0, 0.0, 0.0, 0.0)",-0.0012610753378947926,0.8159096136974169,3.0431737130243164e-09,"(0.0, 0.0, 0.0, 0.0, 0.0, 0.0)",-9.407245902051655e-05,True,"(-0.03251898982064977, 0.18484898982068096, 0.03999990021582707)","(0.9999906610592646, 0.004320629279842544, -9.97841729341887e-05)",0.0006958508157437341,0.0,True,"(0.03197188175280944, 0.18481495966867162, 0.040000099784172925)","(-0.9999906610592645, -0.004320629279846049, 9.978417292177829e-05)",-0.00012572694785861744,0.0
84,Move,"(-0.00023999999999999998, 0.0, 5e-05)","(0.0, -0.0, 0.0)","(0.00019022574502992442, 0.1716518202647818, 0.0009895920144727122)","(1.5708395712830665, 4.0523821256349437e-05, 0.004320515867146839)","[0.00019014718356491882, 0.0016527578882629679, 7.470233138497746e-05]","[-0.026750000193715096, 0.05299999937415123, 0.03999999910593033]","[0.0, -0.0, 0.5870088700164733]","[-0.06662885844707489, 0.11294727772474289, 0.03999999910593033]","[0.0, 0.0, -0.2274783288105277]","[0.026750000193715096, 0.05299999937415123, 0.03999999910593033]","[0.0, 0.0, -0.5833943856481187]","[0.06641191989183426, 0.11309102922677994, 0.03999999910593033]","[0.0, -0.0, 0.23251526971732542]",0.5873150390403926,0.07348373777824337,"(0.0, 0.0, 0.0, 0.0, 0.0, 0.0)",-0.010087257101662429,-0.8144871909838033,2.1268037336342335e-07,"(0.0, 0.0, 0.0, 0.0, 0.0, 0.0)",-0.0007523360704929914,-0.5835131601764124,-0.0285123312755875,"(0.0, 0.0, 0.0, 0.0, 0.0, 0.0)",-0.008150431631811894,0.8159100230160564,9.823647348701206e-05,"(0.0, 0.0, 0.0, 0.0, 0.0, 0.0)",-0.0005980256022167812,True,"(-0.0325631395478485, 0.18484671561057964, 0.039999940560908324)","(0.9999906648160941, 0.004320503172139606, -5.943909167272103e-05)",0.0007383894416773257,0.0,True,"(0.031984491243241965, 0.1848143640215164, 0.04000005943909168)","(-0.9999906648160942, -0.004320503172145199, 5.943909167604945e-05)",-0.00011149937436173189,0.0
85,Move,"(-0.00035000000000000005, 0.0, 8e-05)","(0.0, -0.0, 0.0)","(0.00019021382363517588, 0.1716518303244283, 0.000989542176051993)","(1.5708293411309637, 2.867479004251084e-05, 0.004320515852820998)","[0.00019013526217017028, 0.0016527679479094726, 7.465249296425831e-05]","[-0.026750000193715096, 0.05299999937415123, 0.03999999910593033]","[0.0, -0.0, 0.5873150376873043]","[-0.06664721667766571, 0.11293506622314453, 0.03999999910593033]","[0.0, 0.0, -0.22717215137735466]","[0.026750000193715096, 0.05299999937415123, 0.03999999910593033]","[0.0, 0.0, -0.5835132260343496]","[0.06641905754804611, 0.11308632045984268, 0.03999999910593033]","[0.0, -0.0, 0.23239687338798096]",0.587624070256112,0.07416749177263782,"(0.0, 0.0, 0.0, 0.0, 0.0, 0.0)",0.0010221782747630828,-0.814487191162294,-4.2837755819058084e-08,"(0.0, 0.0, 0.0, 0.0, 0.0, 0.0)",7.630013282475976e-05,-0.5836302366179618,-0.028098345971835137,"(0.0, 0.0, 0.0, 0.0, 0.0, 0.0)",0.0005977126154570677,0.8159103138198108,6.979290106853629e-05,"(0.0, 0.0, 0.0, 0.0, 0.0, 0.0)",4.1693046703782526e-05,True,"(-0.03260350709059093, 0.18484462339971763, 0.03999995947617876)","(0.9999906657647571, 0.004320502421875383, -4.052382124371073e-05)",0.0007780088536852898,0.0,True,"(0.03200012207884498, 0.18481360874799074, 0.040000040523821244)","(-0.9999906657647571, -0.004320502421873129, 4.052382125056924e-05)",-9.511508944539057e-05,0.0
86,Move,"(-0.00047000000000000004, 0.0, 0.00011000000000000002)","(0.0, -0.0, 0.0)","(0.0001902063020063108, 0.17165183693910707, 0.0009895212844539597)","(1.5708225599582017, 2.1212603324430514e-05, 0.004320516284332433)","[0.0001901277405413052, 0.0016527745625882495, 7.463160136622496e-05]","[-0.026750000193715096, 0.05299999937415123, 0.03999999910593033]","[0.0, -0.0, 0.5876239692195332]","[-0.06666573137044907, 0.11292273551225662, 0.03999999910593033]","[0.0, 0.0, -0.22686313265287453]","[0.026750000193715096, 0.05299999937415123, 0.03999999910593033]","[0.0, 0.0, -0.5836302509807334]","[0.0664260983467102, 0.1130816712975502, 0.03999999910593033]","[0.0, -0.0, 0.2322800903413189]",0.587961361773499,0.08094996417288147,"(0.0, 0.0, 0.0, 0.0, 0.0, 0.0)",0.009976979960127474,-0.8144871920211392,-2.0612286254335528e-07,"(0.0, 0.0, 0.0, 0.0, 0.0, 0.0)",0.0007442867171923883,-0.5837278452788224,-0.023426078606550323,"(0.0, 0.0, 0.0, 0.0, 0.0, 0.0)",0.006859504880602416,0.8159108416201744,0.00012667208725015343,"(0.0, 0.0, 0.0, 0.0, 0.0, 0.0)",0.0005174338211438306,True,"(-0.03264424951852579, 0.18484249915370743, 0.03999997132520996)","(0.9999906661747835, 0.0043205024093149694, -2.8674790041091735e-05)",0.0008182859816460709,0.0,True,"(0.03201553394869589, 0.1848128663877221, 0.040000028674790036)","(-0.9999906661747837, -0.004320502409310575, 2.8674790036769058e-05)",-7.923244518467824e-05,0.0
87,Move,"(-0.00059, 0.0, 0.00014000000000000001)","(0.0, -0.0, 0.0)","(0.000190201702851958, 0.17165184161039052, 0.0009895250384173995)","(1.5708178639169512, 1.6633698534090507e-05, 0.004320516080551546)","[0.0001901231413869524, 0.001652779233871693, 7.463535532966476e-05]","[-0.026750000193715096, 0.05299999937415123, 0.03999999910593033]","[0.0, -0.0, 0.5879613429165194]","[-0.06668594479560852, 0.11290926486253738, 0.03999999910593033]","[0.0, 0.0, -0.22652584142460774]","[0.026750000193715096, 0.05299999937415123, 0.03999999910593033]","[0.0, 0.0, -0.5837278763875038]","[0.06643196195363998, 0.1130777969956398, 0.03999999910593033]","[0.0, -0.0, 0.23218298740355306]",0.588325958206303,0.08750314387295431,"(0.0, 0.0, 0.0, 0.0, 0.0, 0.0)",0.009642070165905276,-0.8144871919984588,5.443309628911654e-09,"(0.0, 0.0, 0.0, 0.0, 0.0, 0.0)",0.0007193574984093972,-0.5838059568906879,-0.01874678684774267,"(0.0, 0.0, 0.0, 0.0, 0.0, 0.0)",0.006852261947477809,0.8159108944896261,1.2688668420349355e-05,"(0.0, 0.0, 0.0, 0.0, 0.0, 0.0)",0.0004995801978191206,True,"(-0.03268871696288785, 0.1848401662577887, 0.039999978787396674)","(0.999990666359052, 0.00432050284162695, -2.1212603326026985e-05)",0.0008624644951116394,0.0,True,"(0.03202836255398822, 0.18481223655945717, 0.04000002121260332)","(-0.999990666359052, -0.004320502841629096, 2.1212603323133443e-05)",-6.610807302152074e-05,0.0
88,Move,"(-0.00059, 0.0, 0.00014000000000000001)","(0.0, -0.0, 0.0)","(0.0001901987354914235, 0.17165184484860854, 0.0009895357695312921)","(1.5708145749994562, 1.3688438736739928e-05, 0.004320516172032389)","[0.0001901201740264179, 0.00165278247208972, 7.464608644355743e-05]","[-0.026750000193715096, 0.05299999937415123, 0.03999999910593033]","[0.0, -0.0, 0.5883260522980228]","[-0.0667077824473381, 0.112894706428051, 0.03999999910593033]","[0.0, 0.0, -0.22616125356336425]","[0.026750000193715096, 0.05299999937415123, 0.03999999910593033]","[0.0, 0.0, -0.5838059425129235]","[0.06643664836883545, 0.11307469755411148, 0.03999999910593033]","[0.0, -0.0, 0.23210494391615988]",0.5887174921001823,0.09396813453104082,"(0.0, 0.0, 0.0, 0.0, 0.0, 0.0)",0.009514219966643601,-0.8144871920630923,-1.5512040181915307e-08,"(0.0, 0.0, 0.0, 0.0, 0.0, 0.0)",0.0007098129043920237,-0.5838648477911655,-0.014133816114622277,"(0.0, 0.0, 0.0, 0.0, 0.0, 0.0)",0.0067841524578285475,0.8159115420106048,0.0001554050348928863,"(0.0, 0.0, 0.0, 0.0, 0.0, 0.0)",0.0005205182712114137,True,"(-0.03273678338126179, 0.18483762766783302, 0.039999983366301464)","(0.999990666446579, 0.004320502638223629, -1.6633698536185155e-05)",0.0009103582343139535,0.0,True,"(0.03203865514555283, 0.18481174397950267, 0.04000001663369853)","(-0.999990666446579, -0.004320502638220331, 1.663369852554657e-05)",-5.563450117382496e-05,0.0
89,Move,"(-0.00047000000000000004, 0.0, 0.00011000000000000002)","(0.0, -0.0, 0.0)","(0.00019019693931215286, 0.1716518472066358, 0.000989554393342144)","(1.5708121927990777, 1.1905578322857704e-05, 0.004320516188014011)","[0.00019011837784714726, 0.0016527848301169656, 7.466471025440922e-05]","[-0.026750000193715096, 0.05299999937415123, 0.03999999910593033]","[0.0, -0.0, 0.5887174803194513]","[-0.06673122942447662, 0.11287905275821686, 0.03999999910593033]","[0.0, 0.0, -0.22576969208892667]","[0.026750000193715096, 0.05299999937415123, 0.03999999910593033]","[0.0, 0.0, -0.5838647803339472]","[0.06644018739461899, 0.11307236552238464, 0.03999999910593033]","[0.0, -0.0, 0.23204671271996372]",0.5891058725918839,0.09321131800836024,"(0.0, 0.0, 0.0, 0.0, 0.0, 0.0)",-0.0010877587095121214,-0.814487192049511,3.2594869099908207e-09,"(0.0, 0.0, 0.0, 0.0, 0.0, 0.0)",-8.101178327301826e-05,-0.5839261363675133,-0.014709258323460261,"(0.0, 0.0, 0.0, 0.0, 0.0, 0.0)",-0.0008588333418614442,0.8159117916968734,5.9924704490047696e-05,"(0.0, 0.0, 0.0, 0.0, 0.0, 0.0)",-7.374152548016178e-05,True,"(-0.03278840004781362, 0.18483488200207365, 0.03999998631156126)","(0.9999906664908366, 0.004320502729894098, -1.3688438736922116e-05)",0.0009618684326227955,0.0,True,"(0.032046371446029266, 0.1848113517836294, 0.04000001368843874)","(-0.9999906664908367, -0.004320502729896653, 1.368843874111502e-05)",-4.780211502306973e-05,0.0
90,Move,"(-0.00047000000000000004, 0.0, 0.00011000000000000002)","(0.0, -0.0, 0.0)","(0.00019019573381831158, 0.17165184878017614, 0.0009895708860863763)","(1.5708104915822214, 1.0735123996323383e-05, 0.004320516905268283)","[0.00019011717235330598, 0.0016527864036573192, 7.46812029986416e-05]","[-0.026750000193715096, 0.05299999937415123, 0.03999999910593033]","[0.0, -0.0, 0.5891059628580224]","[-0.06675448268651962, 0.11286351829767227, 0.03999999910593033]","[0.0, 0.0, -0.22538130843782206]","[0.026750000193715096, 0.05299999937415123, 0.03999999910593033]","[0.0, 0.0, -0.5839260960822426]","[0.06644386798143387, 0.11306992918252945, 0.03999999910593033]","[0.0, -0.0, 0.23198564473771394]",0.5894639703466248,0.08594346113782247,"(0.0, 0.0, 0.0, 0.0, 0.0, 0.0)",-0.01064795173535575,-0.8144871911154671,2.241705391012474e-07,"(0.0, 0.0, 0.0, 0.0, 0.0, 0.0)",-0.0007941277708751838,-0.5840093153320152,-0.01996295148043359,"(0.0, 0.0, 0.0, 0.0, 0.0, 0.0)",-0.007714545490650691,0.8159121536317289,8.686436530304332e-05,"(0.0, 0.0, 0.0, 0.0, 0.0, 0.0)",-0.0005727315313722428,True,"(-0.03283959993494413, 0.18483213848633737, 0.03999998809442167)","(0.9999906665135827, 0.004320502745971081, -1.1905578325379373e-05)",0.001013008359422131,0.0,True,"(0.032054432315241625, 0.18481095730408997, 0.04000001190557833)","(-0.9999906665135827, -0.004320502745972253, 1.19055783234438e-05)",-3.9671688006063315e-05,0.0
91,Move,"(-0.00059, 0.0, 0.00014000000000000001)","(0.0, -0.0, 0.0)","(0.00019019497208311482, 0.17165184996711336, 0.000989588884643219)","(1.5708091826596091, 1.0005973751622732e-05, 0.004320517616693529)","[0.00019011641061810922, 0.0016527875905945344, 7.469920155548423e-05]","[-0.026750000193715096, 0.05299999937415123, 0.03999999910593033]","[0.0, -0.0, 0.5894639930300315]","[-0.06677591800689697, 0.11284919083118439, 0.03999999910593033]","[0.0, 0.0, -0.22502323632291857]","[0.026750000193715096, 0.05299999937415123, 0.03999999910593033]","[0.0, 0.0, -0.5840093002387753]","[0.0664488673210144, 0.11306662857532501, 0.03999999910593033]","[0.0, -0.0, 0.23190283933344616]",0.589825224797377,0.08670106818053913,"(0.0, 0.0, 0.0, 0.0, 0.0, 0.0)",0.0011337664118753659,-0.8144871913085817,-4.634751208467372e-08,"(0.0, 0.0, 0.0, 0.0, 0.0, 0.0)",8.465094807716561e-05,-0.5840903284635134,-0.01944315155956211,"(0.0, 0.0, 0.0, 0.0, 0.0, 0.0)",0.0007560550039075472,0.8159124299004308,6.630448845938941e-05,"(0.0, 0.0, 0.0, 0.0, 0.0, 0.0)",5.43092354129731e-05,True,"(-0.03288680679222296, 0.18482959129894821, 0.039999989264876)","(0.9999906665237336, 0.0043205034632779185, -1.0735123997724538e-05)",0.0010601789133303046,0.0,True,"(0.03206537058357824, 0.18481042036935008, 0.040000010735124)","(-0.9999906665237335, -0.004320503463280955, 1.0735123997594061e-05)",-2.8688972994883947e-05,0.0
92,Move,"(-0.00059, 0.0, 0.00014000000000000001)","(0.0, -0.0, 0.0)","(0.00019019429955912637, 0.17165185094952615, 0.0009896040767965613)","(1.5708080576189924, 9.37025584327923e-06, 0.004320518462201946)","[0.00019011573809412077, 0.0016527885730073244, 7.471439370882664e-05]","[-0.026750000193715096, 0.05299999937415123, 0.03999999910593033]","[0.0, -0.0, 0.5898252660050965]","[-0.06679753959178925, 0.11283472925424576, 0.03999999910593033]","[0.0, 0.0, -0.22466195820409365]","[0.026750000193715096, 0.05299999937415123, 0.03999999910593033]","[0.0, 0.0, -0.5840903808232465]","[0.0664537325501442, 0.11306340992450714, 0.03999999910593033]","[0.0, -0.0, 0.23182211886199044]",0.5902169365731916,0.09401082619552703,"(0.0, 0.0, 0.0, 0.0, 0.0, 0.0)",0.010754353426965685,-0.8144871922343005,-2.2217252829759745e-07,"(0.0, 0.0, 0.0, 0.0, 0.0, 0.0)",0.0008023018983494279,-0.5841495261681285,-0.014207449107629163,"(0.0, 0.0, 0.0, 0.0, 0.0, 0.0)",0.007691633116808766,0.8159130462234183,0.00014791751701191707,"(0.0, 0.0, 0.0, 0.0, 0.0, 0.0)",0.0005820184424186761,True,"(-0.03293442877738409, 0.18482700449160955, 0.03999998999402626)","(0.9999906665282214, 0.004320504174732679, -1.0005973751214617e-05)",0.001107782419869198,0.0,True,"(0.032076029465269884, 0.18480989908767437, 0.04000001000597375)","(-0.9999906665282216, -0.0043205041747383, 1.0005973753082402e-05)",-1.8003232223460944e-05,0.0
