OSUrobotics/InHand-Manipulation/AnalyseData/Data/new_hand_human_filt_josh_2v2_a_none_1_kpNone_kdNone_dp5_step5_save_data.csv
,Phase,human_cube_pos,human_cube_orn,Cube_Pos,Cube_Orn,Cube_pos_in_start_pos,b'l_prox_pin'_link_pos,b'l_prox_pin'_link_orn,b'l_distal_pin'_link_pos,b'l_distal_pin'_link_orn,b'r_prox_pin'_link_pos,b'r_prox_pin'_link_orn,b'r_distal_pin'_link_pos,b'r_distal_pin'_link_orn,b'l_prox_pin'_joint_angle,b'l_prox_pin'_joint_vel,b'l_prox_pin'_joint_react_forces,b'l_prox_pin'_joint_motor_torque,b'l_distal_pin'_joint_angle,b'l_distal_pin'_joint_vel,b'l_distal_pin'_joint_react_forces,b'l_distal_pin'_joint_motor_torque,b'r_prox_pin'_joint_angle,b'r_prox_pin'_joint_vel,b'r_prox_pin'_joint_react_forces,b'r_prox_pin'_joint_motor_torque,b'r_distal_pin'_joint_angle,b'r_distal_pin'_joint_vel,b'r_distal_pin'_joint_react_forces,b'r_distal_pin'_joint_motor_torque,in_contact_l,contact_point_l_dist,contact_normal_l_dist,contact_distance_l_dist,contact_norm_force_l_dist,in_contact_r,contact_point_r_dist,contact_normal_r_dist,contact_distance_r_dist,contact_norm_force_r_dist
0,Open,,,,,,"[-0.026750000193715096, 0.05299999937415123, 0.03999999910593033]","[0.0, -0.0, 0.42755761853039154]","[-0.056604765355587006, 0.1185186430811882, 0.03999999910593033]","[0.0, -0.0, 0.4463066270391506]","[0.026750000193715096, 0.05299999937415123, 0.03999999910593033]","[0.0, 0.0, -0.42757404208311445]","[0.05660583823919296, 0.1185181587934494, 0.03999999910593033]","[0.0, 0.0, -0.4465272228574986]",0.5418018724257314,27.418616735313837,"(0.0, 0.0, 0.0, 0.0, 0.0, 0.0)",-4.412236817968903,0.016874447698417276,-0.44988750389777044,"(0.0, 0.0, 0.0, 0.0, 0.0, 0.0)",-0.3112578673856835,-0.5418166170859073,-27.418223544375806,"(0.0, 0.0, 0.0, 0.0, 0.0, 0.0)",4.412120589674461,-0.017058187988154127,0.4547872631353701,"(0.0, 0.0, 0.0, 0.0, 0.0, 0.0)",0.31119999541872967,False,,,,,False,,,,
1,Open,,,,,,"[-0.026750000193715096, 0.05299999937415123, 0.03999999910593033]","[0.0, -0.0, 0.8953992050914552]","[-0.08294302970170975, 0.09801492840051651, 0.03999999910593033]","[0.0, -0.0, 0.9064715399310761]","[0.026750000193715096, 0.05299999937415123, 0.03999999910593033]","[0.0, 0.0, -0.8954089117450801]","[0.08294346183538437, 0.09801438450813293, 0.03999999910593033]","[0.0, 0.0, -0.9066016844299951]",0.9628592876486701,16.190418996035465,"(0.0, 0.0, 0.0, 0.0, 0.0, 0.0)",-2.616982039675733,0.009965290062605858,-0.26568209241480656,"(0.0, 0.0, 0.0, 0.0, 0.0, 0.0)",-0.18775783729375353,-0.9628679942230576,-16.190186820718473,"(0.0, 0.0, 0.0, 0.0, 0.0, 0.0)",2.6169116334278195,-0.010073786659150813,0.26857534621184953,"(0.0, 0.0, 0.0, 0.0, 0.0, 0.0)",0.187722108909745,False,,,,,False,,,,
2,Open,,,,,,"[-0.026750000193715096, 0.05299999937415123, 0.03999999910593033]","[0.0, -0.0, 1.17165497759142]","[-0.09309044480323792, 0.08098116517066956, 0.03999999910593033]","[0.0, -0.0, 1.1781937273122836]","[0.026750000193715096, 0.05299999937415123, 0.03999999910593033]","[0.0, 0.0, -1.1716605985979762]","[0.09309060126543045, 0.08098078519105911, 0.03999999910593033]","[0.0, 0.0, -1.178270796658152]",1.2114894807636634,9.56028051296898,"(0.0, 0.0, 0.0, 0.0, 0.0, 0.0)",-1.549346412635057,0.005885062316220725,-0.15689973638119079,"(0.0, 0.0, 0.0, 0.0, 0.0, 0.0)",-0.11225090666269867,-1.2114946219087734,-9.560143415766044,"(0.0, 0.0, 0.0, 0.0, 0.0, 0.0)",1.5493042197033076,-0.00594912834521185,0.1586081706180975,"(0.0, 0.0, 0.0, 0.0, 0.0, 0.0)",0.11222926703597672,False,,,,,False,,,,
3,Open,,,,,,"[-0.026750000193715096, 0.05299999937415123, 0.03999999910593033]","[0.0, -0.0, 1.3347813147466918]","[-0.09675397723913193, 0.06983575969934464, 0.03999999910593033]","[0.0, -0.0, 1.3386449621367835]","[0.026750000193715096, 0.05299999937415123, 0.03999999910593033]","[0.0, 0.0, -1.3347844615433213]","[0.0967540368437767, 0.06983552873134613, 0.03999999910593033]","[0.0, 0.0, -1.3386905382854437]",1.3583031234961356,5.645250040103052,"(0.0, 0.0, 0.0, 0.0, 0.0, 0.0)",-0.9162890978823036,0.0034783869891320215,-0.09247571818598516,"(0.0, 0.0, 0.0, 0.0, 0.0, 0.0)",-0.06677007440367574,-1.3583061592909116,-5.645169085575695,"(0.0, 0.0, 0.0, 0.0, 0.0, 0.0)",0.9162639666346021,-0.003516216695348753,0.09348456497972772,"(0.0, 0.0, 0.0, 0.0, 0.0, 0.0)",0.06675710630673855,False,,,,,False,,,,
4,Open,,,,,,"[-0.026750000193715096, 0.05299999937415123, 0.03999999910593033]","[0.0, -0.0, 1.4311058207082674]","[-0.09804865717887878, 0.06302504986524582, 0.03999999910593033]","[0.0, -0.0, 1.433390691262394]","[0.026750000193715096, 0.05299999937415123, 0.03999999910593033]","[0.0, 0.0, -1.4311075924426346]","[0.09804867953062057, 0.06302490830421448, 0.03999999910593033]","[0.0, 0.0, -1.433417470845748]",1.4449951113932331,3.333463696180452,"(0.0, 0.0, 0.0, 0.0, 0.0, 0.0)",-0.5415503506795546,0.0020570753203455715,-0.05468855210882702,"(0.0, 0.0, 0.0, 0.0, 0.0, 0.0)",-0.039594115216637325,-1.4449969039996904,-3.3334158933415914,"(0.0, 0.0, 0.0, 0.0, 0.0, 0.0)",0.541535435877482,-0.002079412775410495,0.055284250111531166,"(0.0, 0.0, 0.0, 0.0, 0.0, 0.0)",0.03958639191865308,False,,,,,False,,,,
5,Open,,,,,,"[-0.026750000193715096, 0.05299999937415123, 0.03999999910593033]","[0.0, -0.0, 1.4879842849605203]","[-0.09850326180458069, 0.05895565450191498, 0.03999999910593033]","[0.0, -0.0, 1.4893357278409396]","[0.026750000193715096, 0.05299999937415123, 0.03999999910593033]","[0.0, 0.0, -1.4879853833286059]","[0.09850326925516129, 0.05895556882023811, 0.03999999910593033]","[0.0, 0.0, -1.4893513332680077]",1.4961858633265903,1.9683769779575933,"(0.0, 0.0, 0.0, 0.0, 0.0, 0.0)",-0.31995094896823073,0.0012165319928285922,-0.03234212113369103,"(0.0, 0.0, 0.0, 0.0, 0.0, 0.0)",-0.02343792779000599,-1.4961869218427772,-1.9683487508592754,"(0.0, 0.0, 0.0, 0.0, 0.0, 0.0)",0.31994211580738524,-0.0012297216752996233,0.03269386530715718,"(0.0, 0.0, 0.0, 0.0, 0.0, 0.0)",0.02343334437795369,False,,,,,False,,,,
6,Open,,,,,,"[-0.026750000193715096, 0.05299999937415123, 0.03999999910593033]","[0.0, -0.0, 1.5215704989376362]","[-0.09866278618574142, 0.05654282495379448, 0.03999999910593033]","[0.0, -0.0, 1.522369838325666]","[0.026750000193715096, 0.05299999937415123, 0.03999999910593033]","[0.0, 0.0, -1.5215710825913402]","[0.09866278618574142, 0.0565427765250206, 0.03999999910593033]","[0.0, 0.0, -1.522379029767931]",1.5264134904357183,1.1623069217141797,"(0.0, 0.0, 0.0, 0.0, 0.0, 0.0)",-0.18898727227709852,0.000719444125508032,-0.019126791845346432,"(0.0, 0.0, 0.0, 0.0, 0.0, 0.0)",-0.013859938289241243,-1.5264141154789415,-1.162290253894895,"(0.0, 0.0, 0.0, 0.0, 0.0, 0.0)",0.18898204730565804,-0.0007272322869396521,0.019334487584604668,"(0.0, 0.0, 0.0, 0.0, 0.0, 0.0)",0.013857223880827028,False,,,,,False,,,,
7,Close,,,"(1.2478112216283415e-07, 0.16999960627914334, 0.0003375139776509844)","(1.5703757789650807, 0.0001088681168706304, -5.122612185789874e-06)",,"[-0.026750000193715096, 0.05299999937415123, 0.03999999910593033]","[0.0, -0.0, 1.2785329680082034]","[-0.09569678455591202, 0.07374466955661774, 0.03999999910593033]","[0.0, -0.0, 1.0351044933740032]","[0.026750000193715096, 0.05299999937415123, 0.03999999910593033]","[0.0, 0.0, -1.2785333261376617]","[0.09569679200649261, 0.07374463975429535, 0.03999999910593033]","[0.0, 0.0, -1.0351099865887758]",1.2106796019673873,-16.28478938579699,"(0.0, 0.0, 0.0, 0.0, 0.0, 0.0)",2.809472854136235,-0.3090860149933808,-15.757821278062295,"(0.0, 0.0, 0.0, 0.0, 0.0, 0.0)",0.3661538009495806,-1.2106799710491603,16.284799227977608,"(0.0, 0.0, 0.0, 0.0, 0.0, 0.0)",-2.8094757422584213,0.30908141619234186,15.75794391320213,"(0.0, 0.0, 0.0, 0.0, 0.0, 0.0)",-0.3661552191151056,False,,,,,False,,,,
8,Close,,,"(3.0991841452431125e-07, 0.1699991530873768, 0.0005600347089338349)","(1.5707725584893357, 0.0003276471180493337, -1.5390016504502985e-05)",,"[-0.026750000193715096, 0.05299999937415123, 0.03999999910593033]","[0.0, -0.0, 1.0006670909649218]","[-0.08736184239387512, 0.09186135232448578, 0.03999999910593033]","[0.0, -0.0, 0.48836557737534114]","[0.026750000193715096, 0.05299999937415123, 0.03999999910593033]","[0.0, 0.0, -1.0006671906734346]","[0.08736184984445572, 0.09186133742332458, 0.03999999910593033]","[0.0, 0.0, -0.4883688154364048]",0.9606001981650306,-9.616005284561718,"(0.0, 0.0, 0.0, 0.0, 0.0, 0.0)",1.667253264949997,-0.5510712009946406,-9.304767973476249,"(0.0, 0.0, 0.0, 0.0, 0.0, 0.0)",0.2218037572572205,-0.9606004161041268,9.616011096270952,"(0.0, 0.0, 0.0, 0.0, 0.0, 0.0)",-1.6672550198735234,0.5510684854486152,9.30484038803693,"(0.0, 0.0, 0.0, 0.0, 0.0, 0.0)",-0.22180464092959223,False,,,,,False,,,,
9,Close,,,"(2.933853975158492e-07, 0.16999904048792538, 0.0007066062154399696)","(1.5708337628024795, 0.00026866528465535426, -1.404448202163588e-05)",,"[-0.026750000193715096, 0.05299999937415123, 0.03999999910593033]","[0.0, -0.0, 0.8365897781630613]","[-0.08020010590553284, 0.1012398824095726, 0.03999999910593033]","[0.0, -0.0, 0.16552144688028117]","[0.026750000193715096, 0.05299999937415123, 0.03999999910593033]","[0.0, 0.0, -0.8365899294750984]","[0.08020011335611343, 0.101239874958992, 0.03999999910593033]","[0.0, 0.0, -0.1655233971102189]",0.8129308110141114,-5.678154960376304,"(0.0, 0.0, 0.0, 0.0, 0.0, 0.0)",0.9873874064507416,-0.6939616573792659,-5.494397555666588,"(0.0, 0.0, 0.0, 0.0, 0.0, 0.0)",0.13292457281458034,-0.8129309397049683,5.678158392132489,"(0.0, 0.0, 0.0, 0.0, 0.0, 0.0)",-0.987388459985631,0.6939600538790082,5.494440315842426,"(0.0, 0.0, 0.0, 0.0, 0.0, 0.0)",-0.13292511074891808,False,,,,,False,,,,
10,Close,,,"(1.9902477861274505e-07, 0.16999905216518962, 0.0008031506137060285)","(1.5708213694470277, 0.0001751880104672085, -1.4031272711042213e-05)",,"[-0.026750000193715096, 0.05299999937415123, 0.03999999910593033]","[0.0, -0.0, 0.7397039398326887]","[-0.075282983481884, 0.10618411004543304, 0.03999999910593033]","[0.0, 0.0, -0.025114755601520013]","[0.026750000193715096, 0.05299999937415123, 0.03999999910593033]","[0.0, 0.0, -0.7397039829241547]","[0.0752829909324646, 0.10618410259485245, 0.03999999910593033]","[0.0, -0.0, 0.025113617980755978]",0.7257335145957226,-3.3528937225526034,"(0.0, 0.0, 0.0, 0.0, 0.0, 0.0)",0.5840196078844049,-0.7783380408184963,-3.244652289205478,"(0.0, 0.0, 0.0, 0.0, 0.0, 0.0)",0.07914031685893824,-0.7257335905863868,3.3528957489703144,"(0.0, 0.0, 0.0, 0.0, 0.0, 0.0)",-0.5840202358821991,0.778337093974245,3.2446775397467595,"(0.0, 0.0, 0.0, 0.0, 0.0, 0.0)",-0.07914064000385382,False,,,,,False,,,,
11,Close,,,"(1.3069317882946781e-07, 0.16999905849316785, 0.0008666025578373041)","(1.570813038524343, 0.0001076496945073061, -1.4014808324094979e-05)",,"[-0.026750000193715096, 0.05299999937415123, 0.03999999910593033]","[0.0, -0.0, 0.6824937890365349]","[-0.07216256856918335, 0.10887216031551361, 0.03999999910593033]","[0.0, 0.0, -0.137687120736303]","[0.026750000193715096, 0.05299999937415123, 0.03999999910593033]","[0.0, 0.0, -0.6824937890365349]","[0.07216257601976395, 0.10887216031551361, 0.03999999910593033]","[0.0, -0.0, 0.1376864353718678]",0.6742443830336282,-1.9798502142300851,"(0.0, 0.0, 0.0, 0.0, 0.0, 0.0)",0.34523008433021124,-0.8281635344937409,-1.9158370237869804,"(0.0, 0.0, 0.0, 0.0, 0.0, 0.0)",0.046989708289177236,-0.6742444279053555,1.9798514108094807,"(0.0, 0.0, 0.0, 0.0, 0.0, 0.0)",-0.3452304573414294,0.8281629754068567,1.9158519335829844,"(0.0, 0.0, 0.0, 0.0, 0.0, 0.0)",-0.04698990114977892,False,,,,,False,,,,
12,Close,,,"(8.555941999099156e-08, 0.16999906193922792, 0.000908421947806545)","(1.5708075491537519, 6.311807488844542e-05, -1.4000595358663434e-05)",,"[-0.026750000193715096, 0.05299999937415123, 0.03999999910593033]","[0.0, -0.0, 0.6487117277688945]","[-0.070249542593956, 0.11037412285804749, 0.03999999910593033]","[0.0, 0.0, -0.20415830575541527]","[0.026750000193715096, 0.05299999937415123, 0.03999999910593033]","[0.0, 0.0, -0.6487117277688945]","[0.070249542593956, 0.11037411540746689, 0.03999999910593033]","[0.0, -0.0, 0.20415788801885543]",0.6438405657375271,-1.1690817530007243,"(0.0, 0.0, 0.0, 0.0, 0.0, 0.0)",0.20397674457790932,-0.8575834812137779,-1.1312243968345508,"(0.0, 0.0, 0.0, 0.0, 0.0, 0.0)",0.027828964636992654,-0.6438405922338334,1.1690824595688907,"(0.0, 0.0, 0.0, 0.0, 0.0, 0.0)",-0.20397696556653716,0.8575831510875931,1.1312332006820753,"(0.0, 0.0, 0.0, 0.0, 0.0, 0.0)",-0.027829079200348807,False,,,,,False,,,,
13,Close,,,"(5.567361934631568e-08, 0.16999906349286917, 0.0009359839309479349)","(1.5708039321322358, 3.37560108188707e-05, -1.3987283228090085e-05)",,"[-0.026750000193715096, 0.05299999937415123, 0.03999999910593033]","[0.0, -0.0, 0.62876384308693]","[-0.06909646838903427, 0.11123037338256836, 0.03999999910593033]","[0.0, 0.0, -0.24340789693353326]","[0.026750000193715096, 0.05299999937415123, 0.03999999910593033]","[0.0, 0.0, -0.62876384308693]","[0.06909646838903427, 0.11123037338256836, 0.03999999910593033]","[0.0, -0.0, 0.24340764580603796]",0.6258874156623524,-0.6903310843293964,"(0.0, 0.0, 0.0, 0.0, 0.0, 0.0)",0.12048853373387189,-0.8749547691894786,-0.6679421640099914,"(0.0, 0.0, 0.0, 0.0, 0.0, 0.0)",0.016461146679105913,-0.6258874313081562,0.6903315015508323,"(0.0, 0.0, 0.0, 0.0, 0.0, 0.0)",-0.12048866447898966,0.8749545742586229,0.6679473624521103,"(0.0, 0.0, 0.0, 0.0, 0.0, 0.0)",-0.016461214564379854,False,,,,,False,,,,
14,Move,,,"(0.0002849434880139787, 0.17128526654835666, 0.0018667775255450016)","(1.529867145493542, 0.001236551690390913, -0.0026252758006009144)","[0.0, 0.0, 0.0]","[-0.026750000193715096, 0.05299999937415123, 0.03999999910593033]","[0.0, -0.0, 0.5674368798319164]","[-0.06544800847768784, 0.113716259598732, 0.03999999910593033]","[0.0, 0.0, -0.23086444862254737]","[0.026750000193715096, 0.05299999937415123, 0.03999999910593033]","[0.0, 0.0, -0.5672775113046467]","[0.06543833017349243, 0.11372242867946625, 0.03999999910593033]","[0.0, -0.0, 0.2338230653212545]",0.5526433844132694,-3.5504372063580854,"(0.0, 0.0, 0.0, 0.0, 0.0, 0.0)",-74.66311326449657,-0.7739535469156117,5.843468067207706,"(0.0, 0.0, 0.0, 0.0, 0.0, 0.0)",-38.567738900473906,-0.5523653530093062,3.5789086898164406,"(0.0, 0.0, 0.0, 0.0, 0.0, 0.0)",70.97380681712595,0.7784689212282292,-5.431581853362886,"(0.0, 0.0, 0.0, 0.0, 0.0, 0.0)",36.631671368390464,True,"(-0.031139027298926508, 0.18549673152317092, 0.03999924353386678)","(0.9999971505660776, -0.0022642037706561637, -0.0007564661332230728)",-0.000503181178828863,565.4925793008347,True,"(0.030917119596597424, 0.1854085662421605, 0.04000075646613322)","(-0.9999971505660776, 0.002264203770598743, 0.0007564661332168607)",-0.0013606486484191646,538.0249494895718
15,Move,"(0.0, 0.0, 0.0)","(0.0, 0.0004886921905584125, 0.0)","(0.00016323247225709592, 0.17136479279180367, 0.003164097451489466)","(1.489981792341237, -0.0009079004567494919, -0.006042555079170489)","[-0.00012171101575688276, 7.952624344700898e-05, 0.0012973199259444642]","[-0.026750000193715096, 0.05299999937415123, 0.03999999910593033]","[0.0, -0.0, 0.5448729096426235]","[-0.0640682727098465, 0.11457391083240509, 0.03999999910593033]","[0.0, 0.0, -0.21260096662759062]","[0.026750000193715096, 0.05299999937415123, 0.03999999910593033]","[0.0, 0.0, -0.5441878631906049]","[0.06402608752250671, 0.11459945887327194, 0.03999999910593033]","[0.0, -0.0, 0.2190311430345588]",0.5463697107992447,0.3592466695171294,"(0.0, 0.0, 0.0, 0.0, 0.0, 0.0)",-0.08340411805041549,-0.7590292189887251,-0.37328699128903176,"(0.0, 0.0, 0.0, 0.0, 0.0, 0.0)",-0.016945796716779565,-0.5456101477241379,-0.3413471818053763,"(0.0, 0.0, 0.0, 0.0, 0.0, 0.0)",0.7641656996557056,0.7645759362218343,0.3256717454195192,"(0.0, 0.0, 0.0, 0.0, 0.0, 0.0)",0.4018069538850629,True,"(-0.031075782290281836, 0.18694797204950447, 0.04000074362644993)","(0.9999871807161358, -0.005008535025048771, 0.0007436264499245655)",-0.000622950261959305,0.21726088035826777,True,"(0.030568856747111475, 0.18677632726653592, 0.03999925637355008)","(-0.999987180716136, 0.005008535025013187, -0.000743626449926144)",-0.0016523407353886972,5.363388696025435
16,Move,"(-9e-05, 0.0, -1e-05)","(0.0, 0.018053685782629343, 0.0)","(-2.6708609623902766e-05, 0.17133646545095507, 0.0031879071980108423)","(1.492852510604322, -0.0006844916172205506, -0.010000426113199953)","[-0.00031165209763788144, 5.1198902598414975e-05, 0.0013211296724658407]","[-0.026750000193715096, 0.05299999937415123, 0.03999999910593033]","[0.0, -0.0, 0.5486434657216067]","[-0.06430017948150635, 0.11443275958299637, 0.03999999910593033]","[0.0, 0.0, -0.2109908847083586]","[0.026750000193715096, 0.05299999937415123, 0.03999999910593033]","[0.0, 0.0, -0.5481566596108202]","[0.0642702654004097, 0.11445103585720062, 0.03999999910593033]","[0.0, -0.0, 0.216710177463987]",0.5488961173089905,0.06065003499313408,"(0.0, 0.0, 0.0, 0.0, 0.0, 0.0)",-0.32560379443857074,-0.7593821300404825,0.06051958954235105,"(0.0, 0.0, 0.0, 0.0, 0.0, 0.0)",-0.15677746053643726,-0.5484970859236898,-0.08170327280880185,"(0.0, 0.0, 0.0, 0.0, 0.0, 0.0)",0.6918317153849558,0.7646189413265807,-0.05949473218885115,"(0.0, 0.0, 0.0, 0.0, 0.0, 0.0)",0.3307313914489152,True,"(-0.03142429933352114, 0.18685356537207365, 0.040000722769219)","(0.9999528377314614, -0.00968503574869388, 0.0007227692190080014)",-0.00041303364658973964,2.3455900995630663,True,"(0.030980664610582534, 0.18670771443094428, 0.039999277230781)","(-0.9999528377314615, 0.009685035748700943, -0.000722769219005962)",-0.0011035324197477012,5.0447492291181
17,Move,"(-0.0002, 0.0, -2e-05)","(0.0, 0.018053685782629343, 0.0)","(-0.00011808321737133858, 0.17122864771435609, 0.0020827031706647852)","(1.531044881968838, -0.0004765738486019064, -0.012383327739143753)","[-0.0004030267053853173, -5.661883400057133e-05, 0.0002159256451197836]","[-0.026750000193715096, 0.05299999937415123, 0.03999999910593033]","[0.0, -0.0, 0.5502584511694817]","[-0.0643993392586708, 0.11437203735113144, 0.03999999910593033]","[0.0, 0.0, -0.20894370468624665]","[0.026750000193715096, 0.05299999937415123, 0.03999999910593033]","[0.0, 0.0, -0.5503751051304773]","[0.06440650671720505, 0.11436764150857925, 0.03999999910593033]","[0.0, -0.0, 0.21407461671180003]",0.550563417452847,0.07319850325909803,"(0.0, 0.0, 0.0, 0.0, 0.0, 0.0)",-0.011870135388340645,-0.7592199482054115,-0.0042772912116794595,"(0.0, 0.0, 0.0, 0.0, 0.0, 0.0)",-0.0008378071442349583,-0.5507978190950215,-0.10144652832536939,"(0.0, 0.0, 0.0, 0.0, 0.0, 0.0)",0.016474178987726136,0.7644663861551165,0.0040009010796784065,"(0.0, 0.0, 0.0, 0.0, 0.0, 0.0)",0.0011844867459313041,True,"(-0.031671833465310606, 0.18685578681412782, 0.04000053156856969)","(0.9999297224694104, -0.011843460520634144, 0.0005315685696949061)",-0.00022701641493993115,0.0,True,"(0.0313074479152239, 0.18671133538443802, 0.03999946843143031)","(-0.9999297224694105, 0.011843460520621692, -0.0005315685696912398)",-0.0007164163707864654,0.0
18,Move,"(-0.00022000000000000003, 0.0, -2e-05)","(0.0, 0.0004886921905584125, 0.0)","(-0.00035065084532233837, 0.17127423501869526, 0.0010353982147129673)","(1.58242618752188, 0.0062855526419885914, -0.008398513148633623)","[-0.0006355943333363171, -1.1031529661392758e-05, -0.0008313793108320343]","[-0.026750000193715096, 0.05299999937415123, 0.03999999910593033]","[0.0, -0.0, 0.5516328388506414]","[-0.0644836574792862, 0.11432023346424103, 0.03999999910593033]","[0.0, 0.0, -0.20759884481999116]","[0.026750000193715096, 0.05299999937415123, 0.03999999910593033]","[0.0, 0.0, -0.5521077790106779]","[0.06451277434825897, 0.11430230736732483, 0.03999999910593033]","[0.0, -0.0, 0.21221516115885447]",0.5518467590784096,0.05134012289920246,"(0.0, 0.0, 0.0, 0.0, 0.0, 0.0)",-0.06200519279836068,-0.7592291479760029,0.0006059242938248851,"(0.0, 0.0, 0.0, 0.0, 0.0, 0.0)",-0.029255217633320747,-0.5523562077848044,-0.0596215052265876,"(0.0, 0.0, 0.0, 0.0, 0.0, 0.0)",0.015895011440632698,0.7643372968232586,0.003442382182878845,"(0.0, 0.0, 0.0, 0.0, 0.0, 0.0)",0.005311532801025922,True,"(-0.03185366378666042, 0.18684868072614522, 0.039995126453305614)","(0.9999405950933931, -0.009749606499170548, -0.0048735466943898905)",-5.764270931529656e-05,0.40112465609723513,True,"(0.03154826053074815, 0.18670346428173068, 0.04000487354669436)","(-0.9999405950933932, 0.009749606499163739, 0.004873546694360089)",-0.0004628294359549728,0.0
19,Move,"(-0.00022000000000000003, 0.0, -2e-05)","(0.0, 0.018053685782629343, 0.0)","(-0.0003475690287316036, 0.17128526583033318, 0.0009734953951059046)","(1.5762024197336657, 0.004932291346527121, -0.00854137511470185)","[-0.0006325125167455823, -7.180234740111757e-10, -0.000893282130439097]","[-0.026750000193715096, 0.05299999937415123, 0.03999999910593033]","[0.0, -0.0, 0.552050131664058]","[-0.06450924277305603, 0.11430448293685913, 0.03999999910593033]","[0.0, 0.0, -0.20693093292216855]","[0.026750000193715096, 0.05299999937415123, 0.03999999910593033]","[0.0, 0.0, -0.5529699065521795]","[0.06456561386585236, 0.11426972597837448, 0.03999999910593033]","[0.0, -0.0, 0.2112147432651353]",0.552059834178142,0.0023341102573236345,"(0.0, 0.0, 0.0, 0.0, 0.0, 0.0)",-0.49225507052515716,-0.7587975079796578,0.044052207680889896,"(0.0, 0.0, 0.0, 0.0, 0.0, 0.0)",-0.2752398107476076,-0.5530715844932893,-0.024397852938708553,"(0.0, 0.0, 0.0, 0.0, 0.0, 0.0)",0.007733604688230284,0.7641999112969486,0.0036636140349326496,"(0.0, 0.0, 0.0, 0.0, 0.0, 0.0)",0.0025648623214468385,True,"(-0.0319276924230742, 0.18685527204934327, 0.03999466130958615)","(0.9999494794458761, -0.008516862132654476, -0.0053386904138448266)",-4.1858567082524484e-05,3.7261616999620752,True,"(0.03167352880894098, 0.18670159458780522, 0.04000533869041385)","(-0.9999494794458761, 0.008516862132649345, 0.0053386904138535566)",-0.00027887990088131865,0.0
20,Move,"(-0.00022000000000000003, 0.0, -2e-05)","(0.0, 0.018053685782629343, 0.0)","(-0.0003438875123857071, 0.17128360097499845, 0.0009792962333341783)","(1.574387788919662, 0.0033122703911342443, -0.008389048268658432)","[-0.0006288310003996858, -1.6655733582060517e-06, -0.0008874812922108233]","[-0.026750000193715096, 0.05299999937415123, 0.03999999910593033]","[0.0, -0.0, 0.5522084673508929]","[-0.06451894342899323, 0.1142985075712204, 0.03999999910593033]","[0.0, 0.0, -0.20613283846239489]","[0.026750000193715096, 0.05299999937415123, 0.03999999910593033]","[0.0, 0.0, -0.5537156500408154]","[0.0646112933754921, 0.11424151062965393, 0.03999999910593033]","[0.0, -0.0, 0.21049422090882672]",0.5522458813009576,0.008998895079732219,"(0.0, 0.0, 0.0, 0.0, 0.0, 0.0)",-0.31859377760057367,-0.7582491428809527,0.022095273012714977,"(0.0, 0.0, 0.0, 0.0, 0.0, 0.0)",-0.17751001669955174,-0.5538643456322371,-0.0356772484900354,"(0.0, 0.0, 0.0, 0.0, 0.0, 0.0)",0.0058135978487673535,0.7642089251613299,-0.00024036971683205627,"(0.0, 0.0, 0.0, 0.0, 0.0, 0.0)",0.00043633991020795013,True,"(-0.031995307922206624, 0.18687460584639207, 0.03999641453388633)","(0.9999583839949354, -0.008388963641904536, -0.003585466113670878)",-3.893639069084935e-05,2.3729528563224433,True,"(0.03177139020009738, 0.18669620709182344, 0.04000358546611367)","(-0.9999583839949353, 0.008388963641913225, 0.003585466113667224)",-0.00011554671026739875,0.0
21,Move,"(-0.00022000000000000003, 0.0, -2e-05)","(0.0, 0.0004886921905584125, 0.0)","(-0.0003450842604925922, 0.17128485700798543, 0.0009823792787118962)","(1.573061154809458, 0.0021045926868257115, -0.008391437526362656)","[-0.0006300277485065709, -4.0954037122675757e-07, -0.0008843982468331054]","[-0.026750000193715096, 0.05299999937415123, 0.03999999910593033]","[0.0, -0.0, 0.5525795669369933]","[-0.06454169750213623, 0.11428447812795639, 0.03999999910593033]","[0.0, 0.0, -0.20561208367324757]","[0.026750000193715096, 0.05299999937415123, 0.03999999910593033]","[0.0, 0.0, -0.5544406223176225]","[0.06465568393468857, 0.11421404778957367, 0.03999999910593033]","[0.0, -0.0, 0.20976764223791708]",0.5526602440535064,0.019348885350762724,"(0.0, 0.0, 0.0, 0.0, 0.0, 0.0)",-0.01677881342362053,-0.7581995372961929,-0.0018791263897286281,"(0.0, 0.0, 0.0, 0.0, 0.0, 0.0)",-0.007889364563445153,-0.5545596634019215,-0.028567884341289762,"(0.0, 0.0, 0.0, 0.0, 0.0, 0.0)",0.004652612384337531,0.7642083337616878,1.5770657121549903e-05,"(0.0, 0.0, 0.0, 0.0, 0.0, 0.0)",0.0003468658994928892,True,"(-0.032055859605701606, 0.1868769842905613, 0.03999767725328757)","(0.9999620995270063, -0.008390730436108614, -0.0023227467124309117)",-2.875471953393023e-05,0.10286842788358525,True,"(0.031868420758266104, 0.18669186133695037, 0.04000232274671243)","(-0.9999620995270062, 0.008390730436110059, 0.0023227467124275463)",3.215647197520494e-05,0.0
22,Move,"(-0.00022000000000000003, 0.0, -2e-05)","(0.0, 0.0004886921905584125, 0.0)","(-0.0003460340388102776, 0.17128588181870275, 0.000984561442370767)","(1.5720234979536138, 0.0011349340207951275, -0.008393302151422855)","[-0.0006309775268242563, 6.152703460882147e-07, -0.0008822160831742345]","[-0.026750000193715096, 0.05299999937415123, 0.03999999910593033]","[0.0, -0.0, 0.5530113342444157]","[-0.06456815451383591, 0.11426816135644913, 0.03999999910593033]","[0.0, 0.0, -0.20519447309141053]","[0.026750000193715096, 0.05299999937415123, 0.03999999910593033]","[0.0, 0.0, -0.5551670021756839]","[0.06470013409852982, 0.11418649554252625, 0.03999999910593033]","[0.0, -0.0, 0.20904140441517333]",0.553086264394605,0.01798235582000629,"(0.0, 0.0, 0.0, 0.0, 0.0, 0.0)",-0.0029270102002998117,-0.7582053756148508,9.777721853643486e-05,"(0.0, 0.0, 0.0, 0.0, 0.0, 0.0)",-0.00021670470862278398,-0.5553015651943704,-0.03229419851425064,"(0.0, 0.0, 0.0, 0.0, 0.0, 0.0)",0.00525970737889291,0.7642083725639376,-1.0347269444775747e-06,"(0.0, 0.0, 0.0, 0.0, 0.0, 0.0)",0.0003923365352329504,True,"(-0.03211263536014571, 0.18687380468445752, 0.03999867288478403)","(0.9999638991484385, -0.008392804361754606, -0.0013271152159732812)",-1.1749087857777147e-05,0.0,True,"(0.03196551384262192, 0.18668738044732264, 0.04000132711521597)","(-0.9999638991484389, 0.008392804361754363, 0.0013271152159713357)",0.00016914773699210444,0.0
23,Move,"(-0.00011000000000000002, 0.0, -1e-05)","(0.0, 0.0004886921905584125, 0.0)","(-0.00034695272072043524, 0.1712868943847665, 0.0009860193395664746)","(1.5710325954273547, 0.00018823084885363574, -0.00839386997800035)","[-0.0006318962087344139, 1.6278364098343268e-06, -0.000880758185978527]","[-0.026750000193715096, 0.05299999937415123, 0.03999999910593033]","[0.0, -0.0, 0.5533643886662581]","[-0.06458978354930878, 0.11425480246543884, 0.03999999910593033]","[0.0, 0.0, -0.20484090846563083]","[0.026750000193715096, 0.05299999937415123, 0.03999999910593033]","[0.0, 0.0, -0.5560263687915727]","[0.06475270539522171, 0.11415385454893112, 0.03999999910593033]","[0.0, -0.0, 0.20818198080489575]",0.553421130587468,0.01360629015763324,"(0.0, 0.0, 0.0, 0.0, 0.0, 0.0)",-0.002216034385481361,-0.7582053367100791,-1.037460578778848e-06,"(0.0, 0.0, 0.0, 0.0, 0.0, 0.0)",-0.00016528825013684037,-0.5561887988207604,-0.03897707910245174,"(0.0, 0.0, 0.0, 0.0, 0.0, 0.0)",0.006348105246125446,0.7642083700150102,6.797139651126827e-08,"(0.0, 0.0, 0.0, 0.0, 0.0, 0.0)",0.0004735038085824482,True,"(-0.03215994067234564, 0.1868715620250016, 0.039999624223084014)","(0.999964693710921, -0.008394648493735378, -0.00037577691598729727)",-2.4932010882996123e-06,0.0,True,"(0.03208039341342892, 0.18668199164538468, 0.04000037577691598)","(-0.999964693710921, 0.00839464849373868, 0.0003757769159795133)",0.00032215191578065076,0.0
24,Move,"(-0.00011000000000000002, 0.0, -1e-05)","(0.0, 0.0004886921905584125, 0.0)","(-0.00034703559713270465, 0.17128702727274406, 0.0009864293530504951)","(1.570905046627872, 0.00010761512203933757, -0.008393810898438868)","[-0.0006319790851466833, 1.760724387400714e-06, -0.0008803481724945065]","[-0.026750000193715096, 0.05299999937415123, 0.03999999910593033]","[0.0, -0.0, 0.5536807638018094]","[-0.06460915505886078, 0.11424282938241959, 0.03999999910593033]","[0.0, 0.0, -0.20452460410140047]","[0.026750000193715096, 0.05299999937415123, 0.03999999910593033]","[0.0, 0.0, -0.5569680179371594]","[0.06481026858091354, 0.1141180470585823, 0.03999999910593033]","[0.0, -0.0, 0.20724036507713015]",0.5537368309367448,0.013465497568198257,"(0.0, 0.0, 0.0, 0.0, 0.0, 0.0)",-0.0021931314668106657,-0.758205331510582,5.50533111748081e-07,"(0.0, 0.0, 0.0, 0.0, 0.0, 0.0)",-0.00016360550699124596,-0.5571382783116957,-0.04086887761992308,"(0.0, 0.0, 0.0, 0.0, 0.0, 0.0)",0.006656257187219795,0.7642083466556278,-1.4687029838222201e-06,"(0.0, 0.0, 0.0, 0.0, 0.0, 0.0)",0.0004965282869914279,True,"(-0.03220228466462806, 0.18686952882743374, 0.03999988208418055)","(0.9999647650298649, -0.008393735439408846, -0.00011791581944796857)",2.9534637772417332e-05,0.0,True,"(0.032206258404964806, 0.18667597136509417, 0.04000011791581945)","(-0.9999647650298648, 0.008393735439406176, 0.00011791581944801998)",0.0004583652634902994,0.0
25,Move,"(-0.00015000000000000001, 0.0, -1e-05)","(0.0, 0.018053685782629343, 0.0)","(-0.0003470812208408324, 0.17128708269126527, 0.0009874764747038853)","(1.5708588141015365, 6.722489008256313e-05, -0.00839369336096961)","[-0.0006320247088548111, 1.816142908617202e-06, -0.0008793010508411163]","[-0.026750000193715096, 0.05299999937415123, 0.03999999910593033]","[0.0, -0.0, 0.5538201615000025]","[-0.06461769342422485, 0.11423755437135696, 0.03999999910593033]","[0.0, 0.0, -0.20438518053588647]","[0.026750000193715096, 0.05299999937415123, 0.03999999910593033]","[0.0, 0.0, -0.5580555406810213]","[0.06487672030925751, 0.11407662183046341, 0.03999999910593033]","[0.0, -0.0, 0.20615281962451842]",0.5538289707328323,0.0021186582637318097,"(0.0, 0.0, 0.0, 0.0, 0.0, 0.0)",-0.00034506406955732107,-0.7582053174871802,-2.655366995488314e-07,"(0.0, 0.0, 0.0, 0.0, 0.0, 0.0)",-2.5737915888852577e-05,-0.5582610626058828,-0.04932488208913633,"(0.0, 0.0, 0.0, 0.0, 0.0, 0.0)",0.00803345948632853,0.7642083541194883,-2.723433289511732e-06,"(0.0, 0.0, 0.0, 0.0, 0.0, 0.0)",0.0005992649775150715,True,"(-0.032220950893771916, 0.18686862862876408, 0.03999992598509171)","(0.9999647702251229, -0.008393618433715784, -7.4014908294158e-05)",4.6428566999317875e-05,0.0,True,"(0.03235162393177907, 0.18666887032897136, 0.0400000740149083)","(-0.9999647702251228, 0.008393618433713786, 7.401490829322605e-05)",0.0006055496877067502,0.0
26,Move,"(-4e-05, 0.0, -0.0001)","(0.0, 0.018053685782629343, 0.0)","(-0.0003471131682050479, 0.17128712218031686, 0.0009881666083312811)","(1.5708283424582028, 4.060389620963382e-05, -0.008393574463589036)","[-0.0006320566562190266, 1.8556319602014426e-06, -0.0008786109172137205]","[-0.026750000193715096, 0.05299999937415123, 0.03999999910593033]","[0.0, -0.0, 0.5537842601499867]","[-0.06461549550294876, 0.1142389103770256, 0.03999999910593033]","[0.0, 0.0, -0.20442102997579203]","[0.026750000193715096, 0.05299999937415123, 0.03999999910593033]","[0.0, 0.0, -0.5592320521780084]","[0.06494855135679245, 0.11403171718120575, 0.03999999910593033]","[0.0, -0.0, 0.20497626883874312]",0.5537701278229201,-0.0033978503067961796,"(0.0, 0.0, 0.0, 0.0, 0.0, 0.0)",0.0005534138258028599,-0.7582053118396151,-3.245220632649891e-07,"(0.0, 0.0, 0.0, 0.0, 0.0, 0.0)",4.1286834436483713e-05,-0.559443543233962,-0.0507486930939427,"(0.0, 0.0, 0.0, 0.0, 0.0, 0.0)",0.008265344881403354,0.7642083506474248,-2.5046557600854613e-06,"(0.0, 0.0, 0.0, 0.0, 0.0, 0.0)",0.0006165581064550847,True,"(-0.032216150825335646, 0.18686886087702706, 0.03999995492083865)","(0.9999647729445632, -0.008393499734760484, -4.507916134615415e-05)",4.046536438672678e-05,0.0,True,"(0.03250887761949044, 0.18666101075258235, 0.040000045079161335)","(-0.9999647729445631, 0.008393499734764422, 4.507916133483243e-05)",0.0007640292166127366,0.0
27,Move,"(2e-05, 0.0, -0.0002)","(0.0, 0.016334536469414934, 0.0)","(-0.00034713611226926697, 0.17128715118464113, 0.000988621459796018)","(1.570808258743203, 2.3058143902838456e-05, -0.008393455051789817)","[-0.0006320796002832457, 1.8846362844771036e-06, -0.0008781560657489837]","[-0.026750000193715096, 0.05299999937415123, 0.03999999910593033]","[0.0, -0.0, 0.5536586334782548]","[-0.06460779905319214, 0.11424367129802704, 0.03999999910593033]","[0.0, 0.0, -0.20454668488449904]","[0.026750000193715096, 0.05299999937415123, 0.03999999910593033]","[0.0, 0.0, -0.5604025630178783]","[0.06501995772123337, 0.11398696899414062, 0.03999999910593033]","[0.0, -0.0, 0.20380591216447275]",0.5536320623344244,-0.006375867484996966,"(0.0, 0.0, 0.0, 0.0, 0.0, 0.0)",0.0010384449265967162,-0.7582053090908818,-3.99638370455834e-07,"(0.0, 0.0, 0.0, 0.0, 0.0, 0.0)",7.746936051314619e-05,-0.5606092313575664,-0.049623057011944964,"(0.0, 0.0, 0.0, 0.0, 0.0, 0.0)",0.00808237922372037,0.7642083733643137,-6.05783705864837e-07,"(0.0, 0.0, 0.0, 0.0, 0.0, 0.0)",0.0006028613542492804,True,"(-0.0321993283696938, 0.18686967254881276, 0.03999997399223364)","(0.9999647746241309, -0.008393380398112141, -2.6007766364295446e-05)",2.2879769859392556e-05,0.0,True,"(0.03266529599681664, 0.18665300823086964, 0.04000002600776637)","(-0.9999647746241309, 0.008393380398112505, 2.6007766375300996e-05)",0.0009212798830019324,0.0
28,Move,"(0.00022000000000000003, 0.0, 7.000000000000001e-05)","(0.0, 0.07139094772357606, 0.0)","(-0.00029633922883142967, 0.17129670500889274, 0.0009891751671815927)","(1.5708480552285167, 2.5569107809728743e-05, -0.00923184250364754)","[-0.0005812827168454084, 1.1438460536083994e-05, -0.0008776023583634089]","[-0.026750000193715096, 0.05299999937415123, 0.03999999910593033]","[0.0, -0.0, 0.5527681704859307]","[-0.06455325335264206, 0.11427735537290573, 0.03999999910593033]","[0.0, 0.0, -0.20482443245020002]","[0.026750000193715096, 0.05299999937415123, 0.03999999910593033]","[0.0, 0.0, -0.5621329183711545]","[0.06512543559074402, 0.1139206513762474, 0.03999999910593033]","[0.0, -0.0, 0.20207544064935387]",0.5525393774920454,-0.054912432595988984,"(0.0, 0.0, 0.0, 0.0, 0.0, 0.0)",-0.5997520336570431,-0.7574512028335527,0.03393658392195301,"(0.0, 0.0, 0.0, 0.0, 0.0, 0.0)",-0.3709185447876721,-0.5624927434465582,-0.08635700901978004,"(0.0, 0.0, 0.0, 0.0, 0.0, 0.0)",0.014064500296736423,0.7642083718738585,3.974547091445402e-08,"(0.0, 0.0, 0.0, 0.0, 0.0, 0.0)",0.0010489967974160327,True,"(-0.03212461125926465, 0.18689405217127164, 0.039999974932753736)","(0.9999597370219677, -0.008973500241839672, -2.506724627244366e-05)",-9.349595627385206e-06,4.592363891636573,True,"(0.03289655672159109, 0.18664142184946675, 0.04000002506724628)","(-0.9999597370219676, 0.008973500241837719, 2.506724628017427e-05)",0.0011101682300605927,0.0
29,Move,"(-0.00018, 0.0, 0.0014800000000000002)","(0.0, 0.11965977351673127, 0.0)","(-0.00020877519152555092, 0.1713073436945014, 0.0009888882561913822)","(1.5708594624299683, 5.348272475792179e-05, -0.01052387521295533)","[-0.0004937186795395297, 2.207714614474443e-05, -0.0008778892693536195]","[-0.026750000193715096, 0.05299999937415123, 0.03999999910593033]","[0.0, -0.0, 0.551510912932827]","[-0.06447617709636688, 0.11432483792304993, 0.03999999910593033]","[0.0, 0.0, -0.20527583037240515]","[0.026750000193715096, 0.05299999937415123, 0.03999999910593033]","[0.0, 0.0, -0.564515068367458]","[0.06527044624090195, 0.11382906883955002, 0.03999999910593033]","[0.0, -0.0, 0.19969334185880855]",0.5512866047521501,-0.053827273676872935,"(0.0, 0.0, 0.0, 0.0, 0.0, 0.0)",-0.6033019553195236,-0.7566005919513352,0.04467089836690838,"(0.0, 0.0, 0.0, 0.0, 0.0, 0.0)",-0.365413453599094,-0.5649719238495178,-0.10965355326662786,"(0.0, 0.0, 0.0, 0.0, 0.0, 0.0)",0.017858518565643414,0.7642083719716473,-2.6077007220237647e-09,"(0.0, 0.0, 0.0, 0.0, 0.0, 0.0)",0.001331927907863477,True,"(-0.03201476952374846, 0.18692603870141225, 0.03999994532543998)","(0.9999472223932272, -0.010273725651498049, -5.4674560012700646e-05)",-9.446459247518302e-06,4.625683897252642,True,"(0.03321487602670773, 0.18662531913816133, 0.04000005467456002)","(-0.9999472223932273, 0.010273725651501722, 5.467456001805355e-05)",0.0013187404718716085,0.0
30,Move,"(-0.00067, 0.0, 0.00394)","(0.0, 0.11965977351673127, 0.0)","(-0.00019691980319838399, 0.17130991369386622, 0.0009886265862471297)","(1.5708285046803014, 3.807581831728406e-05, -0.010735614119846085)","[-0.0004818632912123627, 2.464714550956537e-05, -0.000878150939297872]","[-0.026750000193715096, 0.05299999937415123, 0.03999999910593033]","[0.0, -0.0, 0.5514931543843359]","[-0.06447508931159973, 0.11432550847530365, 0.03999999910593033]","[0.0, 0.0, -0.20498652708565268]","[0.026750000193715096, 0.05299999937415123, 0.03999999910593033]","[0.0, 0.0, -0.5676293742309894]","[0.06545969843864441, 0.11370880901813507, 0.03999999910593033]","[0.0, -0.0, 0.19657913171895938]",0.5516031470444602,0.02640711554064712,"(0.0, 0.0, 0.0, 0.0, 0.0, 0.0)",-0.004265649469139309,-0.7564917268517699,-0.0029018663559250792,"(0.0, 0.0, 0.0, 0.0, 0.0, 0.0)",-0.00028557127935744574,-0.5682335539221285,-0.1450163132322624,"(0.0, 0.0, 0.0, 0.0, 0.0, 0.0)",0.023617670820529825,0.7642084149626077,-8.566923156105195e-06,"(0.0, 0.0, 0.0, 0.0, 0.0, 0.0)",0.0017615471258065434,True,"(-0.03203469384058955, 0.18693534659749883, 0.03999995766870836)","(0.9999423726977152, -0.010735431604055323, -4.233129163261009e-05)",4.534267365725975e-05,0.0,True,"(0.033630953633617004, 0.18660188291691504, 0.040000042331291626)","(-0.9999423726977151, 0.010735431604060444, 4.23312916296984e-05)",0.001700102161822473,0.0
31,Move,"(-0.00144, 0.0, 0.00774)","(0.0, 0.05227784708498615, 0.0)","(-0.0001969417934808175, 0.17130994280434228, 0.0009889246220199448)","(1.5708083654793654, 2.1391789679498823e-05, -0.010735495319490699)","[-0.00048188528149479615, 2.467625598562284e-05, -0.0008778529035250568]","[-0.026750000193715096, 0.05299999937415123, 0.03999999910593033]","[0.0, -0.0, 0.5550091669433856]","[-0.0646904781460762, 0.11419248580932617, 0.03999999910593033]","[0.0, 0.0, -0.2014908596796666]","[0.026750000193715096, 0.05299999937415123, 0.03999999910593033]","[0.0, 0.0, -0.5717433088997631]","[0.06570912897586823, 0.11354903876781464, 0.03999999910593033]","[0.0, -0.0, 0.19246515286195318]",0.555898676989568,0.21349817118052264,"(0.0, 0.0, 0.0, 0.0, 0.0, 0.0)",-0.034772193050453565,-0.7564990869227056,0.00020720184157505572,"(0.0, 0.0, 0.0, 0.0, 0.0, 0.0)",-0.0025954450676845425,-0.5725412291230807,-0.19148753999619217,"(0.0, 0.0, 0.0, 0.0, 0.0, 0.0)",0.03118549469766171,0.7642084522343132,-1.0791474858665558e-05,"(0.0, 0.0, 0.0, 0.0, 0.0, 0.0)",0.0023258370924279814,True,"(-0.03250412880546832, 0.1869117886308315, 0.039999975803453346)","(0.9999423745755476, -0.010735312885175487, -2.4196546653414487e-05)",0.0005137646657837337,0.0,False,,,,
32,Move,"(-0.00144, 0.0, 0.00774)","(0.0, 0.05227784708498615, 0.0)","(0.0010058572796681601, 0.172416328884229, 0.0020775482842844417)","(1.5326390802710044, 0.00597851689977547, -0.0418031667712293)","[0.0007209137916541814, 0.001131062335872346, 0.00021077075873944008]","[-0.026750000193715096, 0.05299999937415123, 0.03999999910593033]","[0.0, -0.0, 0.5023587288368008]","[-0.061417583376169205, 0.11610434949398041, 0.03999999910593033]","[0.0, 0.0, -0.19502320613872615]","[0.026750000193715096, 0.05299999937415123, 0.03999999910593033]","[0.0, 0.0, -0.5176852715826439]","[0.06238064169883728, 0.11556562781333923, 0.03999999910593033]","[0.0, -0.0, 0.19248516680089153]",0.4884939796726732,-3.327548879011398,"(0.0, 0.0, 0.0, 0.0, 0.0, 0.0)",-70.8708232201975,-0.6728577712740337,5.885805866156858,"(0.0, 0.0, 0.0, 0.0, 0.0, 0.0)",-37.436304719134576,-0.5032737291625385,3.458765669954527,"(0.0, 0.0, 0.0, 0.0, 0.0, 0.0)",67.00524911722732,0.687240647425684,-5.503140530477561,"(0.0, 0.0, 0.0, 0.0, 0.0, 0.0)",34.34980344496809,True,"(-0.02970223956261292, 0.1890286055507052, 0.03999998118859642)","(0.9999423752020161, -0.010735265319566329, -1.881140357700916e-05)",-0.00022616566697959982,523.6088455198978,True,"(0.03085126112897244, 0.1886123078344069, 0.040007862859606454)","(-0.9992182523924594, 0.038743508641243485, 0.007862863595738852)",-0.0031489932942021645,496.76959863817166
33,Move,"(-0.0015900000000000003, 0.0, 0.01178)","(0.0, 0.05227784708498615, 0.0)","(0.0011278835405715444, 0.17254229395519843, 0.003502380029927543)","(1.484875690845137, 0.003935525193593851, -0.0381585441667749)","[0.0008429400525575658, 0.0012570274068417764, 0.0016356025043825413]","[-0.026750000193715096, 0.05299999937415123, 0.03999999910593033]","[0.0, -0.0, 0.48539796592351586]","[-0.060342349112033844, 0.116683229804039, 0.03999999910593033]","[0.0, 0.0, -0.17156661788730218]","[0.026750000193715096, 0.05299999937415123, 0.03999999910593033]","[0.0, 0.0, -0.4993187368074473]","[0.06122557818889618, 0.11620944738388062, 0.03999999910593033]","[0.0, -0.0, 0.17205095698686004]",0.4879542209833391,0.6135045947791422,"(0.0, 0.0, 0.0, 0.0, 0.0, 0.0)",-0.0952741410809316,-0.6585532864681857,-0.38129274361001914,"(0.0, 0.0, 0.0, 0.0, 0.0, 0.0)",-0.002821912971571968,-0.5017245511562087,-0.5774144927341996,"(0.0, 0.0, 0.0, 0.0, 0.0, 0.0)",0.08940418108809557,0.672956190254617,0.3807832085951458,"(0.0, 0.0, 0.0, 0.0, 0.0, 0.0)",0.002389684454076951,True,"(-0.03034673870090525, 0.19027488959220293, 0.039995651406493)","(0.9992332498475458, -0.03891018033398236, -0.004348593507005599)",0.00031724381793456517,0.0,True,"(0.031194313352506164, 0.1898648733105603, 0.040004348591663755)","(-0.9992332498475459, 0.0389101803339758, 0.004348593507006547)",-0.0027274607661932518,0.0
34,Move,"(-0.0014500000000000001, 0.0, 0.01624)","(0.0, 0.05227784708498615, 0.0)","(0.0012446582820198311, 0.1725606651842049, 0.003739969502169748)","(1.4787117453612857, 0.001954747267427225, -0.03416322134923874)","[0.0009597147940058525, 0.001275398635848246, 0.0018731919766247465]","[-0.026750000193715096, 0.05299999937415123, 0.03999999910593033]","[0.0, -0.0, 0.49692545496214974]","[-0.06107420474290848, 0.11629177629947662, 0.03999999910593033]","[0.0, 0.0, -0.16266943840864753]","[0.026750000193715096, 0.05299999937415123, 0.03999999910593033]","[0.0, 0.0, -0.5101138144819184]","[0.061905909329652786, 0.11583360284566879, 0.03999999910593033]","[0.0, -0.0, 0.16388267918746696]",0.4987198376919633,0.43065773035949206,"(0.0, 0.0, 0.0, 0.0, 0.0, 0.0)",-0.07043955363657228,-0.6594895362969042,0.025281033754978328,"(0.0, 0.0, 0.0, 0.0, 0.0, 0.0)",-0.00553817129054578,-0.5117880247182816,-0.40182136834468,"(0.0, 0.0, 0.0, 0.0, 0.0, 0.0)",0.06574372378087598,0.6738913251337362,-0.025231400557518907,"(0.0, 0.0, 0.0, 0.0, 0.0, 0.0)",0.005187578934187086,True,"(-0.03173468817935465, 0.19014243768989847, 0.03999765300638824)","(0.9993855195161618, -0.034972489222212945, -0.002346993611757213)",0.0016755012927527795,0.0,True,"(0.032476771959036636, 0.18971977452449507, 0.04000234699361178)","(-0.9993855195161611, 0.034972489222229904, 0.0023469936117701887)",-0.001408725654778179,0.0
35,Move,"(-0.0012000000000000001, 0.0, 0.02012)","(0.0, 0.07139094772357606, 0.0)","(0.0013590817139760131, 0.1724392747863394, 0.0027167205053638187)","(1.5129759074433247, -9.31281850038383e-05, -0.03006198442413148)","[0.0010741382259620343, 0.0011540082379827565, 0.000849942979818817]","[-0.026750000193715096, 0.05299999937415123, 0.03999999910593033]","[0.0, -0.0, 0.5084180740956776]","[-0.061799317598342896, 0.11589312553405762, 0.03999999910593033]","[0.0, 0.0, -0.15100260804031712]","[0.026750000193715096, 0.05299999937415123, 0.03999999910593033]","[0.0, 0.0, -0.521566538616028]","[0.06262320280075073, 0.11542686074972153, 0.03999999910593033]","[0.0, -0.0, 0.15225622408489425]",0.5105925612199602,0.5218659992932491,"(0.0, 0.0, 0.0, 0.0, 0.0, 0.0)",-0.08495941858334825,-0.6594274962812406,-0.0016277998887409243,"(0.0, 0.0, 0.0, 0.0, 0.0, 0.0)",-0.006314682410465677,-0.5237915652332895,-0.5340228114960226,"(0.0, 0.0, 0.0, 0.0, 0.0, 0.0)",0.08693864132116773,0.6738294491794586,0.0016228036824124323,"(0.0, 0.0, 0.0, 0.0, 0.0, 0.0)",0.006462157231928096,False,,,,,True,"(0.034054458208801375, 0.18963447078869777, 0.04000033571724244)","(-0.9995232913991705, 0.030871949152946852, 0.0003357172424396785)",0.00020028941812129394,0.0
36,Move,"(-0.0012000000000000001, 0.0, 0.02012)","(0.0, 0.07139094772357606, 0.0)","(-0.00019368655641655822, 0.17563090846704665, 0.0018466817938643534)","(1.5590551528661372, -0.011091082189768238, -0.010417865552302844)","[-0.0004786300444305369, 0.004345641918689996, -2.0095731680648283e-05]","[-0.026750000193715096, 0.05299999937415123, 0.03999999910593033]","[0.0, -0.0, 0.45932252532653584]","[-0.058670543134212494, 0.11753742396831512, 0.03999999910593033]","[0.0, 0.0, -0.14554355134052827]","[0.026750000193715096, 0.05299999937415123, 0.03999999910593033]","[0.0, 0.0, -0.47329974556572946]","[0.059569451957941055, 0.11708497256040573, 0.03999999910593033]","[0.0, -0.0, 0.14570466087901393]",0.4455843495029192,-3.297143577172812,"(0.0, 0.0, 0.0, 0.0, 0.0, 0.0)",-64.76511802652563,-0.5816196362055714,5.579128215394959,"(0.0, 0.0, 0.0, 0.0, 0.0, 0.0)",-35.03805894688703,-0.45973883295225076,3.254610308403491,"(0.0, 0.0, 0.0, 0.0, 0.0, 0.0)",64.57284685065218,0.5957498861132264,-5.581071953219514,"(0.0, 0.0, 0.0, 0.0, 0.0, 0.0)",34.91343351949432,True,"(-0.030615484191727493, 0.19178160188056653, 0.042155936660732786)","(0.9998873872940647, -0.010137011306707576, 0.011065881438781741)",-0.001712697555898245,470.05510090753654,True,"(0.0314873006045834, 0.19147259469046407, 0.039999861358019174)","(-0.9995640733561862, 0.02952361824014517, -0.0001386419808243149)",-0.0001278450883923018,469.07317852370943
37,Move,"(-0.0007900000000000001, 0.0, 0.02332)","(0.0, 0.05227784708498615, 0.0)","(-0.0007579508851442152, 0.17959614426778267, 0.0011577484454132205)","(1.5784751905940257, 0.003857390163211665, 0.00673513693184808)","[-0.001042894373158194, 0.008310877719426013, -0.0007090290801317811]","[-0.026750000193715096, 0.05299999937415123, 0.03999999910593033]","[0.0, -0.0, 0.4452827603709769]","[-0.057761337608098984, 0.11797920614480972, 0.03999999910593033]","[0.0, 0.0, -0.12107412562499091]","[0.026750000193715096, 0.05299999937415123, 0.03999999910593033]","[0.0, 0.0, -0.4618995440177805]","[0.05883675813674927, 0.11745494604110718, 0.03999999910593033]","[0.0, -0.0, 0.11857317318780697]",0.4485268706341408,0.778596436762465,"(0.0, 0.0, 0.0, 0.0, 0.0, 0.0)",-0.1223310078592549,-0.5678830331447058,-0.36628832882353546,"(0.0, 0.0, 0.0, 0.0, 0.0, 0.0)",-0.005005623483710517,-0.4657632713471766,-0.9272919356288822,"(0.0, 0.0, 0.0, 0.0, 0.0, 0.0)",0.14653115398582778,0.5820003435824527,0.3666258019718335,"(0.0, 0.0, 0.0, 0.0, 0.0, 0.0)",0.006804888226778319,True,"(-0.03151814162344715, 0.1929837640059195, 0.039998608767383134)","(0.9999895390881169, 0.004357314097149679, -0.0013912326168656398)",-0.0010849666806771266,0.0,True,"(0.03278120853288259, 0.19251368887515125, 0.04000139123261686)","(-0.9999895390881168, -0.004357314097149267, 0.0013912326168653915)",0.0014615936935587666,0.0
38,Move,"(-0.00063, 0.0, 0.02573)","(0.0, 0.018053685782629343, 0.0)","(-0.0012583289027904752, 0.18122290740751917, 0.0009058777308166451)","(1.5657315223236636, -0.0023501184114390773, -0.0014720738243227196)","[-0.001543272390804454, 0.009937640859162516, -0.0009608997947283566]","[-0.026750000193715096, 0.05299999937415123, 0.03999999910593033]","[0.0, -0.0, 0.46135642558820184]","[-0.05880174785852432, 0.11747236549854279, 0.03999999910593033]","[0.0, 0.0, -0.10752775550057489]","[0.026750000193715096, 0.05299999937415123, 0.03999999910593033]","[0.0, 0.0, -0.4797876291322411]","[0.05998453497886658, 0.1168706938624382, 0.03999999910593033]","[0.0, -0.0, 0.103214501085864]",0.4640222518089055,0.6397909107416204,"(0.0, 0.0, 0.0, 0.0, 0.0, 0.0)",-0.10446807205250672,-0.5687840916498712,0.02402822680441119,"(0.0, 0.0, 0.0, 0.0, 0.0, 0.0)",-0.008058766255494192,-0.4826247573451059,-0.6809234973175656,"(0.0, 0.0, 0.0, 0.0, 0.0, 0.0)",0.11116398354118734,0.5829019130011146,-0.02404185116431812,"(0.0, 0.0, 0.0, 0.0, 0.0, 0.0)",0.008557627270493182,True,"(-0.033576806007929894, 0.19280656488022502, 0.0400019336591508)","(0.9999975655257431, -0.0010629698375151438, 0.0019336591507966346)",0.0003566410893240493,0.0,False,,,,
39,Move,"(-0.00063, 0.0, 0.02573)","(0.0, 0.018053685782629343, 0.0)","(0.00025878950758655703, 0.18291433541988034, 0.0013378566371118506)","(1.55738084794632, 0.007584313243205293, -0.018393369875149963)","[-2.6153980427421654e-05, 0.011629068871523679, -0.000528920888433151]","[-0.026750000193715096, 0.05299999937415123, 0.03999999910593033]","[0.0, -0.0, 0.4155801559877271]","[-0.055817894637584686, 0.1188715249300003, 0.03999999910593033]","[0.0, 0.0, -0.10124010644609896]","[0.026750000193715096, 0.05299999937415123, 0.03999999910593033]","[0.0, 0.0, -0.43133112537471135]","[0.056851789355278015, 0.11840552091598511, 0.03999999910593033]","[0.0, -0.0, 0.10357005022446382]",0.40249629513715457,-3.1401222199576813,"(0.0, 0.0, 0.0, 0.0, 0.0, 0.0)",-63.41838338708562,-0.49375568009449755,5.535498653315274,"(0.0, 0.0, 0.0, 0.0, 0.0, 0.0)",-34.27710174407104,-0.4174995537064255,3.3195807753929536,"(0.0, 0.0, 0.0, 0.0, 0.0, 0.0)",62.43913089315106,0.5130019649864549,-5.255813587323407,"(0.0, 0.0, 0.0, 0.0, 0.0, 0.0)",32.298545032285524,True,"(-0.031067109498172284, 0.19435742606163336, 0.04000217170124591)","(0.9999968953422983, -0.0012218917557324234, 0.00217170124591144)",-0.00016316053318345773,451.4552921735006,True,"(0.031936422361414356, 0.19374685662798913, 0.04215271453091216)","(-0.9998221431845173, 0.01715102208240354, 0.007843751618152725)",-0.0007598000467896475,445.152483073735
40,Move,"(-0.00045, 0.0, 0.027460000000000002)","(0.0, 0.018053685782629343, 0.0)","(0.00023940274826192876, 0.1843586493915714, 0.001066839465645817)","(1.5593752571143629, -0.0034860657394519116, -0.029646508667238777)","[-4.554073975204993e-05, 0.013073382843214743, -0.0007999380598991846]","[-0.026750000193715096, 0.05299999937415123, 0.03999999910593033]","[0.0, -0.0, 0.40608811646996656]","[-0.05519133806228638, 0.11914446949958801, 0.03999999910593033]","[0.0, 0.0, -0.07251277615454792]","[0.026750000193715096, 0.05299999937415123, 0.03999999910593033]","[0.0, 0.0, -0.4215868825273981]","[0.05621303990483284, 0.11869572848081589, 0.03999999910593033]","[0.0, -0.0, 0.07703106630068919]",0.41022152454799626,0.9920311354121498,"(0.0, 0.0, 0.0, 0.0, 0.0, 0.0)",-0.15710394741354153,-0.4801161992581215,-0.36368736729681106,"(0.0, 0.0, 0.0, 0.0, 0.0, 0.0)",-0.00762534328549019,-0.42603540691507596,-1.0676459062957644,"(0.0, 0.0, 0.0, 0.0, 0.0, 0.0)",0.16963479966068074,0.5000562103657827,0.3451831965295425,"(0.0, 0.0, 0.0, 0.0, 0.0, 0.0)",0.008766002736045166,True,"(-0.03262192743223776, 0.1952161323887506, 0.039140066834980725)","(0.9996666168598484, -0.025734125106718332, -0.0020999859468018092)",0.0011453750557328137,0.0,True,"(0.033305154109897525, 0.19465727480318343, 0.042150241030128745)","(-0.9997390047962263, 0.022205465431358592, 0.0053702508347308045)",0.0008565324115700224,0.0
41,Move,"(-0.00064, 0.0, 0.029260000000000005)","(0.0, 0.016334536469414934, 0.0)","(0.0002360540187140471, 0.18444372800421063, 0.0008784435971296869)","(1.57309749141489, -0.005919991955604559, -0.02858770912716959)","[-4.8889469299931584e-05, 0.013158461455853976, -0.0009883339284153148]","[-0.026750000193715096, 0.05299999937415123, 0.03999999910593033]","[0.0, -0.0, 0.4249160971861088]","[-0.056431591510772705, 0.11859727650880814, 0.03999999910593033]","[0.0, 0.0, -0.056194039966363594]","[0.026750000193715096, 0.05299999937415123, 0.03999999910593033]","[0.0, 0.0, -0.4428020230915022]","[0.057600051164627075, 0.11805593222379684, 0.03999999910593033]","[0.0, -0.0, 0.058197469096801985]",0.4278682654285918,0.7085227650233356,"(0.0, 0.0, 0.0, 0.0, 0.0, 0.0)",-0.11565432024726383,-0.48101073383948906,0.023854255503135583,"(0.0, 0.0, 0.0, 0.0, 0.0, 0.0)",-0.00888992690882241,-0.4462353322273448,-0.8239910676066372,"(0.0, 0.0, 0.0, 0.0, 0.0, 0.0)",0.1344344712340544,0.500905175230753,-0.02263906306587149,"(0.0, 0.0, 0.0, 0.0, 0.0, 0.0)",0.01027460207847206,False,,,,,False,,,,
42,Move,"(-0.00064, 0.0, 0.029260000000000005)","(0.0, 0.016334536469414934, 0.0)","(0.0008690802948123444, 0.18509864181603886, 0.001220399675039755)","(1.5595603646223435, 0.00033908013973471513, -0.03872841581500078)","[0.0005841368067983657, 0.013813375267682199, -0.0006463778505052466]","[-0.026750000193715096, 0.05299999937415123, 0.03999999910593033]","[0.0, -0.0, 0.378964338836867]","[-0.05338700860738754, 0.11989147961139679, 0.03999999910593033]","[0.0, 0.0, -0.07587861261031528]","[0.026750000193715096, 0.05299999937415123, 0.03999999910593033]","[0.0, 0.0, -0.39655992389301264]","[0.054559819400310516, 0.11941245198249817, 0.03999999910593033]","[0.0, -0.0, 0.08003008027162443]",0.36620529252999023,-3.0621671950504545,"(0.0, 0.0, 0.0, 0.0, 0.0, 0.0)",-58.28017306333288,-0.43201014873297544,5.479868870722986,"(0.0, 0.0, 0.0, 0.0, 0.0, 0.0)",-30.42720706552129,-0.3834576469546046,3.1445445486916657,"(0.0, 0.0, 0.0, 0.0, 0.0, 0.0)",56.80374746284968,0.45474724986506526,-5.242256080772341,"(0.0, 0.0, 0.0, 0.0, 0.0, 0.0)",29.100803867288587,True,"(-0.030566804670070426, 0.19581456464032918, 0.04214933540581023)","(0.9995814586530816, -0.028582768008861604, 0.004464626516224328)",-9.358913012127182e-05,408.75837438071585,True,"(0.03141603236332034, 0.19542301426772107, 0.040000810887669956)","(-0.9992876438290412, 0.037729926474751006, 0.0008108876699582219)",-0.0018678023128484752,401.8813639476386
43,Move,"(-0.00078, 0.0, 0.03064)","(0.0, 0.016334536469414934, 0.0)","(0.0008425530564019746, 0.18556296481180637, 0.0013295403264737245)","(1.5556262239826235, -7.236788556569565e-05, -0.040609091896549716)","[0.0005576095683879959, 0.014277698263449712, -0.0005372371990712771]","[-0.026750000193715096, 0.05299999937415123, 0.03999999910593033]","[0.0, -0.0, 0.370213199177615]","[-0.05280062556266785, 0.1201220154762268, 0.03999999910593033]","[0.0, 0.0, -0.04676214678920097]","[0.026750000193715096, 0.05299999937415123, 0.03999999910593033]","[0.0, 0.0, -0.3887524193139888]","[0.05404045805335045, 0.11962755024433136, 0.03999999910593033]","[0.0, -0.0, 0.05164429297896857]",0.37438060208421786,1.0001705631250803,"(0.0, 0.0, 0.0, 0.0, 0.0, 0.0)",-0.15846328595029097,-0.41847884728605944,-0.3608347052510931,"(0.0, 0.0, 0.0, 0.0, 0.0, 0.0)",-0.007761892155295075,-0.3933499503518756,-1.1034274382048053,"(0.0, 0.0, 0.0, 0.0, 0.0, 0.0)",0.17546741719051953,0.4418316932744928,0.34441484241526554,"(0.0, 0.0, 0.0, 0.0, 0.0, 0.0)",0.009212785800461669,True,"(-0.03220039064518669, 0.19667727300831309, 0.04214933540581023)","(0.9995814586530816, -0.028582768008861604, 0.004464626516224328)",0.00151431743675314,0.0,True,"(0.03306195998520434, 0.19623887269663523, 0.03999992258376775)","(-0.9991759415863742, 0.040588566884154666, -7.741623225251276e-05)",-0.00019793524285160113,0.0
44,Move,"(-0.0006900000000000001, 0.0, 0.031900000000000005)","(0.0, 0.018053685782629343, 0.0)","(0.0008459376051580021, 0.18554055693061033, 0.0009772258644754766)","(1.5735538529562894, 0.004105121872802633, -0.0406283718139417)","[0.0005609941171440234, 0.014255290382253677, -0.000889551661069525]","[-0.026750000193715096, 0.05299999937415123, 0.03999999910593033]","[0.0, -0.0, 0.3891759590675713]","[-0.054068684577941895, 0.11961598694324493, 0.03999999910593033]","[0.0, 0.0, -0.030289498388803723]","[0.026750000193715096, 0.05299999937415123, 0.03999999910593033]","[0.0, 0.0, -0.41036504378890054]","[0.05547397583723068, 0.11902222037315369, 0.03999999910593033]","[0.0, -0.0, 0.032408399135825584]",0.3921470899486984,0.713062303305725,"(0.0, 0.0, 0.0, 0.0, 0.0, 0.0)",-0.1163911402471953,-0.41936683046107825,0.023679551333835036,"(0.0, 0.0, 0.0, 0.0, 0.0, 0.0)",-0.00894283673900651,-0.4138291165698147,-0.8313713339628604,"(0.0, 0.0, 0.0, 0.0, 0.0, 0.0)",0.13563526189935587,0.4426792860963657,-0.022602475249943854,"(0.0, 0.0, 0.0, 0.0, 0.0, 0.0)",0.010363582658957236,False,,,,,False,,,,
45,Move,"(-0.0006900000000000001, 0.0, 0.031900000000000005)","(0.0, 0.018053685782629343, 0.0)","(-0.00030338715187698745, 0.18622437269811776, 0.001361726702470552)","(1.5607934742837324, -0.005473316148862174, -0.022704949506150016)","[-0.0005883306398909661, 0.0149391061497611, -0.0005050508230744497]","[-0.026750000193715096, 0.05299999937415123, 0.03999999910593033]","[0.0, -0.0, 0.34532681079185756]","[-0.05112230405211449, 0.12074947357177734, 0.03999999910593033]","[0.0, 0.0, -0.05020968238523225]","[0.026750000193715096, 0.05299999937415123, 0.03999999910593033]","[0.0, 0.0, -0.36674355982388135]","[0.05256757512688637, 0.12021199613809586, 0.03999999910593033]","[0.0, -0.0, 0.05051961236713071]",0.3330507082211066,-2.9462663760474133,"(0.0, 0.0, 0.0, 0.0, 0.0, 0.0)",-54.415497967832536,-0.3741715163182195,5.1275965864952635,"(0.0, 0.0, 0.0, 0.0, 0.0, 0.0)",-28.32374096777404,-0.35426323308277585,2.995278225723688,"(0.0, 0.0, 0.0, 0.0, 0.0, 0.0)",56.06844161504095,0.3949098655022375,-5.364793871519645,"(0.0, 0.0, 0.0, 0.0, 0.0, 0.0)",30.069904570324052,True,"(-0.030274363099244438, 0.1969023806783354, 0.04421391647273866)","(0.9996742674546694, -0.024804655488411775, 0.00600733344098892)",-0.001944446032568684,378.85463088057173,True,"(0.031674997761065596, 0.19684005742258318, 0.040002838381031046)","(-0.9991706265017494, 0.0406202256175973, 0.002838381031046614)",-5.7121643468770133e-05,391.97686266724264
46,Move,"(-0.0007100000000000001, 0.0, 0.03273)","(0.0, 0.0017610372152622787, 0.0)","(-0.00035209318886798526, 0.18695893204515956, 0.001238723398780637)","(1.5610031112128782, -0.0017613860311639347, -0.018655410636455545)","[-0.000637036676881964, 0.015673665496802908, -0.0006280541267643647]","[-0.026750000193715096, 0.05299999937415123, 0.03999999910593033]","[0.0, -0.0, 0.33701027071814205]","[-0.050558026880025864, 0.12094981968402863, 0.03999999910593033]","[0.0, 0.0, -0.023075084454201474]","[0.026750000193715096, 0.05299999937415123, 0.03999999910593033]","[0.0, 0.0, -0.3601065811623876]","[0.05212092399597168, 0.12038186937570572, 0.03999999910593033]","[0.0, -0.0, 0.020133168464158434]",0.34104624673018474,0.9686256116562946,"(0.0, 0.0, 0.0, 0.0, 0.0, 0.0)",-0.15360536942993788,-0.3614938826904945,-0.3380379938255519,"(0.0, 0.0, 0.0, 0.0, 0.0, 0.0)",-0.007652541909313591,-0.3647014983294895,-1.102795034991029,"(0.0, 0.0, 0.0, 0.0, 0.0, 0.0)",0.17527199546334163,0.3817065610107456,0.35204974951484375,"(0.0, 0.0, 0.0, 0.0, 0.0, 0.0)",0.00910869086135907,True,"(-0.03178398094360475, 0.19762301101754282, 0.04420998892183543)","(0.9998374991659338, -0.01790669612762376, 0.0020797825377531533)",-0.0004113347089701212,0.0,False,,,,
47,Move,"(-0.0007100000000000001, 0.0, 0.03273)","(0.0, 0.0017610372152622787, 0.0)","(0.001880399039033563, 0.18831399568413487, 0.0011908118193341118)","(1.5707102141613227, 0.004515230396078615, -0.001489656218415789)","[0.0015954555510195845, 0.017028729135778214, -0.0006759657062108898]","[-0.026750000193715096, 0.05299999937415123, 0.03999999910593033]","[0.0, -0.0, 0.30147226587491815]","[-0.048128701746463776, 0.12175282835960388, 0.03999999910593033]","[0.0, 0.0, -0.01666581958121428]","[0.026750000193715096, 0.05299999937415123, 0.03999999910593033]","[0.0, 0.0, -0.3226781777660949]","[0.049581751227378845, 0.12128404527902603, 0.03999999910593033]","[0.0, -0.0, 0.0055348579762095245]",0.29018815201455717,-2.7081862833722385,"(0.0, 0.0, 0.0, 0.0, 0.0, 0.0)",-55.852902316313056,-0.29750544769229187,4.951831910692216,"(0.0, 0.0, 0.0, 0.0, 0.0, 0.0)",-28.96954251450331,-0.3108290284432254,2.843791156742811,"(0.0, 0.0, 0.0, 0.0, 0.0, 0.0)",59.866674516334754,0.3068555442536564,-5.125793351266168,"(0.0, 0.0, 0.0, 0.0, 0.0, 0.0)",32.55308954270053,True,"(-0.029854870498060685, 0.19804478260271385, 0.03388576183433543)","(0.9999863069268704, -0.002080038584022526, -0.004802020225728292)",-0.00013313281771428246,379.7523457985067,True,"(0.032156220005716926, 0.19831249984830968, 0.044215096563608246)","(-0.9996283867012908, 0.02629504578345365, 0.007187424310572862)",-0.001811067697021937,410.19228276475303
48,Move,"(-5.9999999999999995e-05, 0.0, 0.033350000000000005)","(0.0, 0.016334536469414934, 0.0)","(0.0018072223410688926, 0.18962620989837561, 0.0009830767549299643)","(1.5710201039945304, -9.558509524126508e-06, -0.0053787368783697435)","[0.0015222788530549138, 0.018340943350018957, -0.0008837007706150373]","[-0.026750000193715096, 0.05299999937415123, 0.03999999910593033]","[0.0, -0.0, 0.2958122747448374]","[-0.047739218920469284, 0.12187273055315018, 0.03999999910593033]","[0.0, -0.0, 0.015328306149227113]","[0.026750000193715096, 0.05299999937415123, 0.03999999910593033]","[0.0, 0.0, -0.3150741082084525]","[0.0490618571639061, 0.12145568430423737, 0.03999999910593033]","[0.0, 0.0, -0.02405029983016516]",0.2998759816173182,0.9752954161186718,"(0.0, 0.0, 0.0, 0.0, 0.0, 0.0)",-0.15383362577911558,-0.2821859878458656,-0.4084899649234498,"(0.0, 0.0, 0.0, 0.0, 0.0, 0.0)",-0.006875819956181946,-0.31892926426601387,-0.9252460284445965,"(0.0, 0.0, 0.0, 0.0, 0.0, 0.0)",0.14603360638138546,0.2926068432916856,0.37993749207250715,"(0.0, 0.0, 0.0, 0.0, 0.0, 0.0)",0.006615308592452751,True,"(-0.03129291521423558, 0.15812243388556219, 0.029060370886758762)","(0.9999467520792557, 0.009801413871128817, -0.003228822118744679)",0.000973220139857052,0.0,True,"(0.03392251939914603, 0.19896589214493282, 0.044215096563608246)","(-0.9996283867012908, 0.02629504578345365, 0.007187424310572862)",0.00012983001336102805,0.0
49,Move,"(0.00042, 0.0, 0.03373)","(0.0, 0.016334536469414934, 0.0)","(0.0018070865317338957, 0.1896265430643276, 0.0009854128556895127)","(1.5709487056625966, -6.005493043016397e-07, -0.005387255690499241)","[0.0015221430437199171, 0.01834127651597095, -0.0008813646698554889]","[-0.026750000193715096, 0.05299999937415123, 0.03999999910593033]","[0.0, -0.0, 0.3143274054787768]","[-0.049010735005140305, 0.1214723289012909, 0.03999999910593033]","[0.0, -0.0, 0.031024244609019706]","[0.026750000193715096, 0.05299999937415123, 0.03999999910593033]","[0.0, 0.0, -0.33358993838364476]","[0.05032547563314438, 0.12103085219860077, 0.03999999910593033]","[0.0, 0.0, -0.039943929208143415]",0.31723100352791267,0.6968671699328725,"(0.0, 0.0, 0.0, 0.0, 0.0, 0.0)",-0.11379327506952797,-0.2831912904685484,0.026845060406504345,"(0.0, 0.0, 0.0, 0.0, 0.0, 0.0)",-0.008781143409065533,-0.33660032904593995,-0.7224946523801953,"(0.0, 0.0, 0.0, 0.0, 0.0, 0.0)",0.11794219812826708,0.29354194528753497,-0.0249742562592443,"(0.0, 0.0, 0.0, 0.0, 0.0, 0.0)",0.009068994215360133,False,,,,,True,"(0.034805520751035865, 0.15840379621636974, 0.050933502101548185)","(-0.9992023465149884, 0.03993332813111887, 4.828371377077629e-06)",0.0012075195690892026,0.0
50,Move,"(0.00042, 0.0, 0.03373)","(0.0, 0.016334536469414934, 0.0)","(0.00010494214458369572, 0.19055181201117385, 0.0009764460244902893)","(1.5704276884148503, -0.00011148022656074825, -0.0023232299036922057)","[-0.00018000134343028296, 0.019266545462817197, -0.0008903315010547123]","[-0.026750000193715096, 0.05299999937415123, 0.03999999910593033]","[0.0, -0.0, 0.2777876136232382]","[-0.04649446904659271, 0.1222398430109024, 0.03999999910593033]","[0.0, -0.0, 0.026651933683337504]","[0.026750000193715096, 0.05299999937415123, 0.03999999910593033]","[0.0, 0.0, -0.29790097455518794]","[0.04788302630186081, 0.12182873487472534, 0.03999999910593033]","[0.0, 0.0, -0.03666072852447997]",0.26790079446611903,-2.37283484409244,"(0.0, 0.0, 0.0, 0.0, 0.0, 0.0)",-74.23493206157302,-0.23200838032421223,4.590550587839096,"(0.0, 0.0, 0.0, 0.0, 0.0, 0.0)",-26.090001342353585,-0.2881543111412792,2.3391959489893734,"(0.0, 0.0, 0.0, 0.0, 0.0, 0.0)",74.05970849118908,0.24242560084783707,-4.515513026622566,"(0.0, 0.0, 0.0, 0.0, 0.0, 0.0)",26.133458009388473,True,"(-0.030478724225206335, 0.15938764581096668, 0.0507413846748789)","(0.999860617431684, 0.016695420828061035, 9.291127860169117e-05)",-0.0011404441136938475,685.7164039073471,True,"(0.032239490694723455, 0.15912428552187174, 0.050933604291193466)","(-0.9995801535588603, 0.028974412926939842, 2.60463979741416e-06)",-6.006463270616099e-05,700.28781713153
51,Move,"(0.0007000000000000001, 0.0, 0.03413)","(0.0, 0.016334536469414934, 0.0)","(-0.0007887689885217568, 0.1914064606280578, 0.0009273786207453823)","(1.570449003048219, 0.0015882238400270587, 0.0007809348318204112)","[-0.0010737124765357355, 0.020121194079701143, -0.0009393989047996194]","[-0.026750000193715096, 0.05299999937415123, 0.03999999910593033]","[0.0, -0.0, 0.271657710348427]","[-0.0460696667432785, 0.12235957384109497, 0.03999999910593033]","[0.0, -0.0, 0.0521372953191572]","[0.026750000193715096, 0.05299999937415123, 0.03999999910593033]","[0.0, 0.0, -0.2950930308416966]","[0.04768967628479004, 0.12188780307769775, 0.03999999910593033]","[0.0, 0.0, -0.06504345339678134]",0.2750632791955593,0.8173394587488563,"(0.0, 0.0, 0.0, 0.0, 0.0, 0.0)",-0.12944251579502103,-0.22076910263517974,-0.2996876158410343,"(0.0, 0.0, 0.0, 0.0, 0.0, 0.0)",-0.006280341083248237,-0.29932286439905975,-1.0151604980577376,"(0.0, 0.0, 0.0, 0.0, 0.0, 0.0)",0.16167257862838913,0.23128704039794074,0.29699158854504887,"(0.0, 0.0, 0.0, 0.0, 0.0, 0.0)",0.008709843648339611,True,"(-0.03103367789887599, 0.16043869506688152, 0.05073301916359967)","(0.9986411371675562, 0.05211409059780084, 2.6792802854072693e-05)",-0.0016650473095527088,0.0,False,,,,
52,Move,"(0.0007000000000000001, 0.0, 0.03413)","(0.0, 0.016334536469414934, 0.0)","(-0.001026148983582746, 0.1925341399540905, 0.0010840557104707371)","(1.5715617537958457, 0.006906531095009062, 0.027098056116131326)","[-0.0013110924715967246, 0.021248873405733837, -0.0007827218150742645]","[-0.026750000193715096, 0.05299999937415123, 0.03999999910593033]","[0.0, -0.0, 0.24261862704976947]","[-0.04404766485095024, 0.12289127707481384, 0.03999999910593033]","[0.0, -0.0, 0.06563011358193734]","[0.026750000193715096, 0.05299999937415123, 0.03999999910593033]","[0.0, 0.0, -0.26422601910554605]","[0.045553676784038544, 0.12250123172998428, 0.03999999910593033]","[0.0, 0.0, -0.07933600183884368]",0.23401402441507546,-2.065101375052613,"(0.0, 0.0, 0.0, 0.0, 0.0, 0.0)",-78.77942502711578,-0.15773733069766682,4.620281596738096,"(0.0, 0.0, 0.0, 0.0, 0.0, 0.0)",-27.746702941793142,-0.254685185676794,2.2897933365922514,"(0.0, 0.0, 0.0, 0.0, 0.0, 0.0)",79.42402385528406,0.16459195230450555,-4.8715299982101445,"(0.0, 0.0, 0.0, 0.0, 0.0, 0.0)",29.185480062386027,True,"(-0.029526824820997354, 0.16116980481593654, 0.05073301916359967)","(0.9986411371675562, 0.05211409059780084, 2.6792802854072693e-05)",-0.0019727749328447156,672.2274272065209,True,"(0.0316438691387404, 0.16204455814831636, 0.05100709314111293)","(-0.99682947219361, 0.07925080359080984, 0.007093200717565426)",-0.0007917497268925797,728.2512389391867
53,Move,"(0.00059, 0.0, 0.034460000000000005)","(0.0, 0.016334536469414934, 0.0)","(-0.0017825064838912054, 0.19318850845455793, 0.0009361958242176874)","(1.57065933713636, 0.0018742392188508888, 0.03335420042963682)","[-0.0020674499719051842, 0.02190324190620127, -0.0009305817013273142]","[-0.026750000193715096, 0.05299999937415123, 0.03999999910593033]","[0.0, -0.0, 0.2382764019237744]","[-0.04374402016401291, 0.1229657307267189, 0.03999999910593033]","[0.0, -0.0, 0.09322420141488448]","[0.026750000193715096, 0.05299999937415123, 0.03999999910593033]","[0.0, 0.0, -0.26029920076524643]","[0.045280616730451584, 0.12257453799247742, 0.03999999910593033]","[0.0, 0.0, -0.10906958181803228]",0.24150740408641402,0.77544413759494,"(0.0, 0.0, 0.0, 0.0, 0.0, 0.0)",-0.12264834380828543,-0.14632076634620667,-0.3044567260005303,"(0.0, 0.0, 0.0, 0.0, 0.0, 0.0)",-0.005754284270662836,-0.26412035478133233,-0.9170786822236487,"(0.0, 0.0, 0.0, 0.0, 0.0, 0.0)",0.14542501034557723,0.15256582701087934,0.32069440121346154,"(0.0, 0.0, 0.0, 0.0, 0.0, 0.0)",0.007237305232724128,True,"(-0.030284833628584203, 0.1616303221517493, 0.05073301916359967)","(0.9986411371675562, 0.05211409059780084, 2.6792802854072693e-05)",-0.002310258757465599,0.0,True,"(0.03261142976076961, 0.16305183163912204, 0.05100224400896041)","(-0.9940553032369037, 0.10885319592397305, 0.0022440685650495667)",0.0013159313795674823,0.0
54,Move,"(0.0006100000000000001, 0.0, 0.03453)","(0.0, 0.016334536469414934, 0.0)","(-0.0017832231885913964, 0.19318833041810937, 0.0009544321729208172)","(1.5707924753260238, 0.0011509538421872313, 0.033355292476168696)","[-0.002068166676605375, 0.021903063869752715, -0.0009123453526241845]","[-0.026750000193715096, 0.05299999937415123, 0.03999999910593033]","[0.0, -0.0, 0.25291492043160774]","[-0.04476636275649071, 0.1227094754576683, 0.03999999910593033]","[0.0, -0.0, 0.10576167953900685]","[0.026750000193715096, 0.05299999937415123, 0.03999999910593033]","[0.0, 0.0, -0.2787709831620613]","[0.046562545001506805, 0.12222039699554443, 0.03999999910593033]","[0.0, 0.0, -0.12532803631425785]",0.2552013917454372,0.5487441629100611,"(0.0, 0.0, 0.0, 0.0, 0.0, 0.0)",-0.08959754252534735,-0.1470699295744017,0.02000676452020014,"(0.0, 0.0, 0.0, 0.0, 0.0, 0.0)",-0.006902910927876636,-0.2817869005374439,-0.7238277157929622,"(0.0, 0.0, 0.0, 0.0, 0.0, 0.0)",0.11811205306270567,0.1533550448976195,-0.02108388282675939,"(0.0, 0.0, 0.0, 0.0, 0.0, 0.0)",0.009038009466464313,True,"(-0.03179297608748464, 0.16153976764307384, 0.05073301916359967)","(0.9986411371675562, 0.05211409059780084, 2.6792802854072693e-05)",-0.0008548455542609933,0.0,False,,,,
55,Move,"(0.0006100000000000001, 0.0, 0.03453)","(0.0, 0.016334536469414934, 0.0)","(-0.0015775560550862137, 0.1941261684622123, 0.0010556417415219412)","(1.5717809311684265, 0.00443301586243611, 0.05807363704605949)","[-0.0018624995431001925, 0.022840901913855655, -0.0008111357840230604]","[-0.026750000193715096, 0.05299999937415123, 0.03999999910593033]","[0.0, -0.0, 0.22306231974819227]","[-0.042677633464336395, 0.1232161670923233, 0.03999999910593033]","[0.0, -0.0, 0.11311031062367126]","[0.026750000193715096, 0.05299999937415123, 0.03999999910593033]","[0.0, 0.0, -0.24537322483067078]","[0.04424012452363968, 0.12284336239099503, 0.03999999910593033]","[0.0, 0.0, -0.13309638176999297]",0.21485063118914602,-1.9708108808745468,"(0.0, 0.0, 0.0, 0.0, 0.0, 0.0)",-69.69045970556797,-0.09249072997529872,4.190715343256736,"(0.0, 0.0, 0.0, 0.0, 0.0, 0.0)",-24.510604626981046,-0.2357917621050511,2.299550310412064,"(0.0, 0.0, 0.0, 0.0, 0.0, 0.0)",71.23092582718897,0.09303094788984773,-4.61901557176922,"(0.0, 0.0, 0.0, 0.0, 0.0, 0.0)",27.187861017350848,True,"(-0.029989945109998736, 0.16214075109397677, 0.05073301916359967)","(0.9986411371675562, 0.05211409059780084, 2.6792802854072693e-05)",-0.001253573096584963,584.8548299353878,True,"(0.032673095507250755, 0.1645547923592009, 0.05100466147316291)","(-0.9911449761297524, 0.1327023225305768, 0.004661532767560008)",5.655826740401673e-05,633.1194515587779
56,Move,"(0.00113, 0.0, 0.03493)","(0.0, 0.016334536469414934, 0.0)","(-0.002284608996626934, 0.194685880749943, 0.0009788397375777433)","(1.569875704192456, -0.0005598938567938522, 0.06433105642030136)","[-0.0025695524846409126, 0.023400614201586345, -0.0008879377879672584]","[-0.026750000193715096, 0.05299999937415123, 0.03999999910593033]","[0.0, -0.0, 0.21940013980711964]","[-0.04242038354277611, 0.12327402830123901, 0.03999999910593033]","[0.0, -0.0, 0.1383276179579494]","[0.026750000193715096, 0.05299999937415123, 0.03999999910593033]","[0.0, 0.0, -0.24045660488377432]","[0.043896518647670746, 0.12292851507663727, 0.03999999910593033]","[0.0, 0.0, -0.16002561618178207]",0.2226169273892496,0.7720267696512473,"(0.0, 0.0, 0.0, 0.0, 0.0, 0.0)",-0.1223779197011991,-0.0822142586110444,-0.2740137832829903,"(0.0, 0.0, 0.0, 0.0, 0.0, 0.0)",-0.006042294308551522,-0.24403369098929603,-0.858502574153619,"(0.0, 0.0, 0.0, 0.0, 0.0, 0.0)",0.13611010083584077,0.08169087044534536,0.3023736448842573,"(0.0, 0.0, 0.0, 0.0, 0.0, 0.0)",0.006746677271967393,True,"(-0.030718196973092162, 0.16250615004511848, 0.05073301916359967)","(0.9986411371675562, 0.05211409059780084, 2.6792802854072693e-05)",-0.0014847550122325831,0.0,False,,,,
57,Move,"(0.00113, 0.0, 0.03493)","(0.0, 0.016334536469414934, 0.0)","(-0.002619180410213787, 0.19579241456295127, 0.0010512523916764974)","(1.5719794958538116, 0.002188967368431554, 0.09799122341282557)","[-0.002904123898227766, 0.02450714801459461, -0.0008155251338685043]","[-0.026750000193715096, 0.05299999937415123, 0.03999999910593033]","[0.0, -0.0, 0.194402650726372]","[-0.040658995509147644, 0.12364375591278076, 0.03999999910593033]","[0.0, -0.0, 0.1503290716118364]","[0.026750000193715096, 0.05299999937415123, 0.03999999910593033]","[0.0, 0.0, -0.21106049633101398]","[0.0418337844312191, 0.12340226769447327, 0.03999999910593033]","[0.0, 0.0, -0.1754245339884631]",0.18671954720652123,-1.8439487197398812,"(0.0, 0.0, 0.0, 0.0, 0.0, 0.0)",-67.40901974031227,-0.028353129190565252,3.772911840004976,"(0.0, 0.0, 0.0, 0.0, 0.0, 0.0)",-23.381791167413372,-0.2020379641698134,2.165408746948204,"(0.0, 0.0, 0.0, 0.0, 0.0, 0.0)",70.67287072677527,0.01629056464170087,-4.642894337805314,"(0.0, 0.0, 0.0, 0.0, 0.0, 0.0)",27.733253137408827,True,"(-0.029335600927698127, 0.16240028161640538, 0.050743049028544436)","(0.9898955675123511, 0.1417976023925037, 0.0004531833383483614)",-0.0018343354402018293,576.3171496720342,True,"(0.0323279574055708, 0.16717828242040172, 0.05100322125549269)","(-0.9846474249722763, 0.1745252750306078, 0.0032213150973247422)",-0.0002446421189961098,606.1779350019701
58,Move,"(0.0009900000000000002, 0.0, 0.03524)","(0.0, 0.016334536469414934, 0.0)","(-0.004897991582639348, 0.1981089269576696, 0.0009430861243277055)","(1.5716620355410929, -0.002385986396857177, 0.1572828181146928)","[-0.0051829350706533266, 0.026823660409312944, -0.0009236914012172962]","[-0.026750000193715096, 0.05299999937415123, 0.03999999910593033]","[0.0, -0.0, 0.19168132187825287]","[-0.04046669974923134, 0.12368134409189224, 0.03999999910593033]","[0.0, -0.0, 0.17252320934073875]","[0.026750000193715096, 0.05299999937415123, 0.03999999910593033]","[0.0, 0.0, -0.20444997551144084]","[0.04136805981397629, 0.12350044399499893, 0.03999999910593033]","[0.0, 0.0, -0.199694080262007]",0.19493568496771982,0.7810445094415703,"(0.0, 0.0, 0.0, 0.0, 0.0, 0.0)",-0.12450504880363585,-0.02007786095831283,-0.22073961458734973,"(0.0, 0.0, 0.0, 0.0, 0.0, 0.0)",-0.006810848810656532,-0.207331411845746,-0.691543578697693,"(0.0, 0.0, 0.0, 0.0, 0.0, 0.0)",0.1092470111078122,0.005909356803488283,0.2768306268824673,"(0.0, 0.0, 0.0, 0.0, 0.0, 0.0)",0.005036946050727115,True,"(-0.029988042954933618, 0.16257546698784198, 0.050935952326564636)","(0.9851523061121761, 0.17167484151579354, 0.0016378499285765139)",-0.0016186301884115295,0.0,False,,,,
59,Move,"(0.0009900000000000002, 0.0, 0.03524)","(0.0, 0.016334536469414934, 0.0)","(-0.005344605708817548, 0.2002812226859233, 0.0010333933025693759)","(1.5779084820441573, -0.000703796293452986, 0.21763741348655177)","[-0.005629549196831526, 0.028995956137566642, -0.0008333842229756258]","[-0.026750000193715096, 0.05299999937415123, 0.03999999910593033]","[0.0, -0.0, 0.16920703667596168]","[-0.03887485712766647, 0.12397173792123795, 0.03999999910593033]","[0.0, -0.0, 0.18518127056489]","[0.026750000193715096, 0.05299999937415123, 0.03999999910593033]","[0.0, 0.0, -0.17395011406622904]","[0.039211343973875046, 0.12391342967748642, 0.03999999910593033]","[0.0, 0.0, -0.20808874950158282]",0.1621375917389277,-1.6966686954306833,"(0.0, 0.0, 0.0, 0.0, 0.0, 0.0)",-59.16923785181898,0.032800203429772655,4.0382365485004375,"(0.0, 0.0, 0.0, 0.0, 0.0, 0.0)",-24.211498757713688,-0.16490646151151206,2.1704806768861067,"(0.0, 0.0, 0.0, 0.0, 0.0, 0.0)",59.27229235095198,-0.05209956248937339,-4.310627195721141,"(0.0, 0.0, 0.0, 0.0, 0.0, 0.0)",25.232713326446934,True,"(-0.02892962871515991, 0.1632104058976252, 0.05093484443055255)","(0.9843815882563537, 0.17604240683347314, 0.0013998922017065167)",-0.0010637183511234326,361.541140043226,True,"(0.03270457405333771, 0.1753853420005648, 0.05100279129691217)","(-0.9784237360053246, 0.20658945072335932, 0.0027913565168111052)",6.667531494177795e-05,473.2946925376801
60,Move,"(0.0007400000000000001, 0.0, 0.035730000000000005)","(0.0, 0.016334536469414934, 0.0)","(-0.0066303970249311055, 0.2019888705140691, 0.0006581952542787957)","(1.5658831326700609, 8.402066122744344e-05, 0.2636867586162248)","[-0.006915340512945084, 0.03070360396571245, -0.0012085822712662058]","[-0.026750000193715096, 0.05299999937415123, 0.03999999910593033]","[0.0, -0.0, 0.1711753919178135]","[-0.039014529436826706, 0.12394773960113525, 0.03999999910593033]","[0.0, -0.0, 0.21517478878276322]","[0.026750000193715096, 0.05299999937415123, 0.03999999910593033]","[0.0, 0.0, -0.16105289253984306]","[0.038295745849609375, 0.1240682452917099, 0.03999999910593033]","[0.0, 0.0, -0.22478466262288427]",0.17532694938947435,0.9963713487955212,"(0.0, 0.0, 0.0, 0.0, 0.0, 0.0)",-0.15896095106744915,0.042879606694135354,-0.2687468968896704,"(0.0, 0.0, 0.0, 0.0, 0.0, 0.0)",-0.008828548093964132,-0.16221555003066712,-0.27903905820744823,"(0.0, 0.0, 0.0, 0.0, 0.0, 0.0)",0.042052154183714864,-0.06256854926838831,0.2791729876283427,"(0.0, 0.0, 0.0, 0.0, 0.0, 0.0)",-1.6272118181164625e-06,True,"(-0.030250505434160073, 0.16346700160765493, 0.05093484443055255)","(0.9843815882563537, 0.17604240683347314, 0.0013998922017065167)",0.0007632407675291284,0.0,True,"(0.033275620419462346, 0.17838123798170108, 0.050781942369032024)","(-0.9748388694711461, 0.22290921992421514, 0.0008113205257708791)",0.0011270270415204393,0.0
61,Move,"(0.00041000000000000005, 0.0, 0.03571)","(0.0, 0.0017610372152622787, 0.0)","(-0.006844171291515087, 0.20213542792283953, 0.0007753125589898747)","(1.5659786537569784, -0.0015539728086331097, 0.26481342505154337)","[-0.007129114779529065, 0.030850161374482876, -0.001091464966555127]","[-0.026750000193715096, 0.05299999937415123, 0.03999999910593033]","[0.0, -0.0, 0.19424167091060096]","[-0.04064762219786644, 0.12364599108695984, 0.03999999910593033]","[0.0, -0.0, 0.23638703298756522]","[0.026750000193715096, 0.05299999937415123, 0.03999999910593033]","[0.0, 0.0, -0.16130089783868226]","[0.0383133701980114, 0.12406538426876068, 0.03999999910593033]","[0.0, 0.0, -0.22310619517493283]",0.19832473391893082,0.9799334220798943,"(0.0, 0.0, 0.0, 0.0, 0.0, 0.0)",-0.15975444402816516,0.042218952496981356,0.017668408862838495,"(0.0, 0.0, 0.0, 0.0, 0.0, 0.0)",-0.012098217412472557,-0.16077335036890034,0.1266090437029479,"(0.0, 0.0, 0.0, 0.0, 0.0, 0.0)",-0.020397484718816354,-0.06188161670672931,-0.01831266005843413,"(0.0, 0.0, 0.0, 0.0, 0.0, 0.0)",-0.0013155134800149613,False,,,,,True,"(0.03355421915504945, 0.17992186204955715, 0.029128878945676732)","(-0.9752034776625104, 0.22127369100857014, -0.004016319507863649)",0.0015649957492447077,0.0
62,Move,"(0.00041000000000000005, 0.0, 0.03571)","(0.0, 0.0017610372152622787, 0.0)","(-0.008722126375472601, 0.20582518984077947, 0.0012976603074707218)","(1.5693662303147835, 0.009685814269384951, 0.21783042543666492)","[-0.00900706986348658, 0.03453992329242281, -0.0005691172180742798]","[-0.026750000193715096, 0.05299999937415123, 0.03999999910593033]","[0.0, -0.0, 0.17065898260552123]","[-0.038977887481451035, 0.12395405769348145, 0.03999999910593033]","[0.0, -0.0, 0.22738326301516806]","[0.026750000193715096, 0.05299999937415123, 0.03999999910593033]","[0.0, 0.0, -0.1248573776334416]","[0.03571639209985733, 0.12443951517343521, 0.03999999910593033]","[0.0, 0.0, -0.1955845271624468]",0.16302443758324184,-1.8322893875767188,"(0.0, 0.0, 0.0, 0.0, 0.0, 0.0)",-37.29309455936335,0.06555993538981886,2.1205620447926194,"(0.0, 0.0, 0.0, 0.0, 0.0, 0.0)",-14.600013435130524,-0.11630712618177333,2.0520619667598328,"(0.0, 0.0, 0.0, 0.0, 0.0, 0.0)",42.937016691392,-0.0846842619632778,-3.3497075539159287,"(0.0, 0.0, 0.0, 0.0, 0.0, 0.0)",19.005184180917762,True,"(-0.031849444297914836, 0.16855788112908318, 0.02898948830128251)","(0.9742057960312908, 0.2254164366589454, -0.010511758322135146)",-0.001510319317423507,317.9237353132973,True,"(0.029396598961406423, 0.18001582709784872, 0.029131725355251187)","(-0.9798469805779566, 0.1997485194852303, -0.0006508576803305477)",-1.0666494747631744e-05,304.3082022176468
63,Move,"(0.00045, 0.0, 0.035980000000000005)","(0.0, 0.016334536469414934, 0.0)","(-0.01106144789956845, 0.21338032425751374, 0.0023886101438600304)","(1.5538374783634004, -0.029315936923543454, 0.4582454715908968)","[-0.011346391387582429, 0.042095057709157085, 0.0005218326183150288]","[-0.026750000193715096, 0.05299999937415123, 0.03999999910593033]","[0.0, -0.0, 0.17103622510107006]","[-0.03900465369224548, 0.12394944578409195, 0.03999999910593033]","[0.0, -0.0, 0.23709521191600855]","[0.026750000193715096, 0.05299999937415123, 0.03999999910593033]","[0.0, 0.0, -0.11115219856641265]","[0.03473649173974991, 0.12455568462610245, 0.03999999910593033]","[0.0, 0.0, -0.19727078886242386]",0.1752502627570552,1.011372524577498,"(0.0, 0.0, 0.0, 0.0, 0.0, 0.0)",-0.1645126141969273,0.06600927042782419,-0.011931210277152821,"(0.0, 0.0, 0.0, 0.0, 0.0, 0.0)",-0.01212048396206464,-0.1120879359539017,-0.22457491509015295,"(0.0, 0.0, 0.0, 0.0, 0.0, 0.0)",0.03615563548409258,-0.08597517064889552,0.034414502481077996,"(0.0, 0.0, 0.0, 0.0, 0.0, 0.0)",0.0023095931757387677,True,"(-0.04071532935490314, 0.20333806029171786, 0.04217036249421774)","(0.9150226976043025, 0.4025964971106877, 0.025485748628383906)",-0.0021199998663567372,0.0,True,"(0.031606753077436586, 0.19563195927962462, 0.02896974572401347)","(-0.9801562521986087, 0.19590404910035422, -0.030254335591173173)",0.001366331290103667,0.0
64,Move,"(0.0005700000000000001, 0.0, 0.03624)","(0.0, 0.016334536469414934, 0.0)","(-0.011924890374807573, 0.22108984668226508, 0.001984361428993009)","(1.5686677094991273, -0.030992936039476435, 0.659222317612017)","[-0.012209833862821552, 0.04980458013390843, 0.00011758390344800747]","[-0.026750000193715096, 0.05299999937415123, 0.03999999910593033]","[0.0, -0.0, 0.20254659074434855]","[-0.0412338450551033, 0.1235281378030777, 0.03999999910593033]","[0.0, -0.0, 0.2685237658033622]","[0.026750000193715096, 0.05299999937415123, 0.03999999910593033]","[0.0, 0.0, -0.09733350125351732]","[0.03374695032835007, 0.1246592104434967, 0.03999999910593033]","[0.0, 0.0, -0.1832143200885212]",0.2088691585137936,1.5174179959940846,"(0.0, 0.0, 0.0, 0.0, 0.0, 0.0)",-0.24700462004498286,0.06598066258690657,0.0008403626319697113,"(0.0, 0.0, 0.0, 0.0, 0.0, 0.0)",-0.01839455907703662,-0.09313795599243091,1.006929949360156,"(0.0, 0.0, 0.0, 0.0, 0.0, 0.0)",-0.16390719823600203,-0.08589006424973025,-0.0022181778313035824,"(0.0, 0.0, 0.0, 0.0, 0.0, 0.0)",-0.01218428079576052,False,,,,,False,,,,
65,Move,"(0.0005700000000000001, 0.0, 0.03624)","(0.0, 0.016334536469414934, 0.0)","(-0.012357336339208444, 0.22789201315498062, 0.0007888680276576727)","(1.580361535918584, 0.007693271935876075, 0.8330802032406514)","[-0.012642279827222424, 0.05660674660662396, -0.001077909497887329]","[-0.026750000193715096, 0.05299999937415123, 0.03999999910593033]","[0.0, -0.0, 0.18224542679868153]","[-0.03979915380477905, 0.1238076239824295, 0.03999999910593033]","[0.0, -0.0, 0.24822790331487182]","[0.026750000193715096, 0.05299999937415123, 0.03999999910593033]","[0.0, 0.0, -0.05674923847810054]","[0.03083375282585621, 0.12488409131765366, 0.03999999910593033]","[0.0, 0.0, -0.1426447028699946]",0.17355282213245055,-2.0862239489536196,"(0.0, 0.0, 0.0, 0.0, 0.0, 0.0)",0.3395057252729117,0.06598191306393004,-0.0001397146052434903,"(0.0, 0.0, 0.0, 0.0, 0.0, 0.0)",0.025250761778334747,-0.047976303864513244,2.105506227544425,"(0.0, 0.0, 0.0, 0.0, 0.0, 0.0)",-0.3426420685280774,-0.08589451416460414,0.00022601653908198727,"(0.0, 0.0, 0.0, 0.0, 0.0, 0.0)",-0.02548425584958089,False,,,,,False,,,,
66,Move,"(0.0005700000000000001, 0.0, 0.03624)","(0.0, 0.016334536469414934, 0.0)","(-0.012576741072238537, 0.2319872859220278, 0.0008994888825940544)","(1.5621269511601183, 0.01155426961347018, 0.9105961819724596)","[-0.012861684560252516, 0.060702019373671146, -0.0009672886429509472]","[-0.026750000193715096, 0.05299999937415123, 0.03999999910593033]","[0.0, -0.0, 0.1404640726781161]","[-0.03683019056916237, 0.12429088354110718, 0.03999999910593033]","[0.0, -0.0, 0.2064454843251317]","[0.026750000193715096, 0.05299999937415123, 0.03999999910593033]","[0.0, 0.0, -0.013058533063728594]","[0.027690187096595764, 0.12499386072158813, 0.03999999910593033]","[0.0, 0.0, -0.09895242472318753]",0.13366758721301292,-1.6311570714150445,"(0.0, 0.0, 0.0, 0.0, 0.0, 0.0)",0.26549687426761265,0.06598111447272374,-6.193875118118761e-05,"(0.0, 0.0, 0.0, 0.0, 0.0, 0.0)",0.01975898822643176,-0.005789481212448348,1.7445722173054314,"(0.0, 0.0, 0.0, 0.0, 0.0, 0.0)",-0.28394421369358525,-0.08589361290442916,6.496939650873547e-05,"(0.0, 0.0, 0.0, 0.0, 0.0, 0.0)",-0.02112836503918408,False,,,,,False,,,,
67,Move,"(0.0005700000000000001, 0.0, 0.03624)","(0.0, 0.016334536469414934, 0.0)","(-0.012931300276486297, 0.23463167637623972, 0.0007030542589524064)","(1.5776547183909404, 0.0022757624307706155, 0.969379872429662)","[-0.013216243764500276, 0.06334640982788306, -0.0011637232665925952]","[-0.026750000193715096, 0.05299999937415123, 0.03999999910593033]","[0.0, -0.0, 0.10597718958168544]","[-0.03436608240008354, 0.12459605932235718, 0.03999999910593033]","[0.0, -0.0, 0.17195818628054346]","[0.026750000193715096, 0.05299999937415123, 0.03999999910593033]","[0.0, -0.0, 0.02361420959537704]","[0.025049934163689613, 0.12497992813587189, 0.03999999910593033]","[0.0, 0.0, -0.06227926582226993]",0.10017382017604887,-1.3928081786076831,"(0.0, 0.0, 0.0, 0.0, 0.0, 0.0)",0.22672331334277845,0.06598074186012368,-6.11676805807236e-05,"(0.0, 0.0, 0.0, 0.0, 0.0, 0.0)",0.01687933663223434,0.02976404777233548,1.4759615002627757,"(0.0, 0.0, 0.0, 0.0, 0.0, 0.0)",-0.24025120248184648,-0.08589320186779092,6.437640968295016e-05,"(0.0, 0.0, 0.0, 0.0, 0.0, 0.0)",-0.017884293634409465,False,,,,,False,,,,
68,Move,"(0.0005700000000000001, 0.0, 0.03624)","(0.0, 0.016334536469414934, 0.0)","(-0.013137948750727234, 0.23542112293164094, 0.0008157260512616203)","(1.5769715408388727, -0.0005615601882505268, 0.9878953660494453)","[-0.013422892238741213, 0.06413585638328428, -0.0010510514742833813]","[-0.026750000193715096, 0.05299999937415123, 0.03999999910593033]","[0.0, -0.0, 0.07689178897838303]","[-0.032280754297971725, 0.12478726357221603, 0.03999999910593033]","[0.0, -0.0, 0.14287262721825494]","[0.026750000193715096, 0.05299999937415123, 0.03999999910593033]","[0.0, -0.0, 0.05461198578689104]","[0.022819891571998596, 0.12489265948534012, 0.03999999910593033]","[0.0, 0.0, -0.03128133648535077]",0.07203385703071405,-1.1659034815690574,"(0.0, 0.0, 0.0, 0.0, 0.0, 0.0)",0.18980456969877513,0.0659805988698818,-5.5732605798973744e-05,"(0.0, 0.0, 0.0, 0.0, 0.0, 0.0)",0.014135510308905745,0.05980726492737419,1.2468677503704588,"(0.0, 0.0, 0.0, 0.0, 0.0, 0.0)",-0.20297872800812722,-0.08589306681587082,6.006978521201249e-05,"(0.0, 0.0, 0.0, 0.0, 0.0, 0.0)",-0.015114857916623849,True,"(-0.026927500999500645, 0.2046101352908057, 0.04000096520501781)","(0.5512727174140595, 0.8343245528055565, 0.0009652050178098119)",0.0012789520849534257,0.0,False,,,,
69,Move,"(0.0005700000000000001, 0.0, 0.03624)","(0.0, 0.016334536469414934, 0.0)","(-0.012732157506373293, 0.23614506351746825, 0.0009568119825094937)","(1.5732680436007944, 0.0014008512096326585, 0.9961784698558719)","[-0.013017100994387272, 0.0648597969691116, -0.0009099655430355079]","[-0.026750000193715096, 0.05299999937415123, 0.03999999910593033]","[0.0, -0.0, 0.0525792517515102]","[-0.030533961951732635, 0.12490049749612808, 0.03999999910593033]","[0.0, -0.0, 0.11856190725966935]","[0.026750000193715096, 0.05299999937415123, 0.03999999910593033]","[0.0, -0.0, 0.08074806212266136]","[0.020942455157637596, 0.12476539611816406, 0.03999999910593033]","[0.0, 0.0, -0.00514485260895911]",0.048524576001944875,-0.9731214107489868,"(0.0, 0.0, 0.0, 0.0, 0.0, 0.0)",-1.274893613367196,0.06601991624173242,0.008942695210574917,"(0.0, 0.0, 0.0, 0.0, 0.0, 0.0)",-0.690648410230811,0.08511992158618198,1.049244397218767,"(0.0, 0.0, 0.0, 0.0, 0.0, 0.0)",2.613475806775866,-0.08594684296367204,-0.012940922297445956,"(0.0, 0.0, 0.0, 0.0, 0.0, 0.0)",1.401405516975794,True,"(-0.02326999693270742, 0.20458850141335083, 0.03999814262269654)","(0.5433234673443937, 0.8395213874478826, -0.0018573773034568745)",-6.580085289488992e-06,13.146444088409696,True,"(0.004501878234382108, 0.2028900169473965, 0.04000402952052241)","(-0.839511953399396, 0.5433262768023372, 0.004029520522413744)",0.00024697702698338434,20.70250915418643
70,Move,"(0.0, 0.0, 0.036230000000000005)","(0.0, 0.016334536469414934, 0.0)","(-0.018518646147774265, 0.2403622637335096, 0.0023683273104788275)","(1.5236816010580485, -0.0016058598717639645, 0.8371887393517887)","[-0.018803589635788244, 0.06907699718515295, 0.0005015497849338258]","[-0.026750000193715096, 0.05299999937415123, 0.03999999910593033]","[0.0, -0.0, 0.09979486748966214]","[-0.03392330929636955, 0.1246417760848999, 0.03999999910593033]","[0.0, -0.0, 0.16581492627372937]","[0.026750000193715096, 0.05299999937415123, 0.03999999910593033]","[0.0, -0.0, 0.1650431135602336]","[0.01492076925933361, 0.12402161210775375, 0.03999999910593033]","[0.0, -0.0, 0.07906041553408835]",0.11456909143188056,3.5458120746429227,"(0.0, 0.0, 0.0, 0.0, 0.0, 0.0)",-0.5766996179796172,0.06602071731987859,0.00015892985593079622,"(0.0, 0.0, 0.0, 0.0, 0.0, 0.0)",-0.042799387301989664,0.1854843768709911,4.905901641985215,"(0.0, 0.0, 0.0, 0.0, 0.0, 0.0)",-0.7974875349839274,-0.0859781856675603,0.0010846629828009892,"(0.0, 0.0, 0.0, 0.0, 0.0, 0.0)",-0.059076132272111295,False,,,,,True,"(-0.00795363606479724, 0.20061044630616243, 0.03997267268251397)","(-0.7898688762518922, 0.6126666108476868, -0.027327317486029082)",0.0014276910406563444,0.0
71,Move,"(0.0, 0.0, 0.036230000000000005)","(0.0, 0.016334536469414934, 0.0)","(-0.023738676114907823, 0.2447491989264259, 0.003113479574345534)","(1.508759577473861, 0.011272479241449739, 0.7178926932166524)","[-0.024023619602921802, 0.07346393237806925, 0.0012467020488005323]","[-0.026750000193715096, 0.05299999937415123, 0.03999999910593033]","[0.0, -0.0, 0.10633275254156459]","[-0.03439153730869293, 0.1245933473110199, 0.03999999910593033]","[0.0, -0.0, 0.1723551642872286]","[0.026750000193715096, 0.05299999937415123, 0.03999999910593033]","[0.0, -0.0, 0.20486563994480028]","[0.012102635577321053, 0.12349435687065125, 0.03999999910593033]","[0.0, -0.0, 0.11889083659448108]",0.10054031451357535,-1.390182823771956,"(0.0, 0.0, 0.0, 0.0, 0.0, 0.0)",-4.455465756457926,0.06602370035742694,0.0003083964600203955,"(0.0, 0.0, 0.0, 0.0, 0.0, 0.0)",-2.3495471599602005,0.20513037854938865,0.0635366055091402,"(0.0, 0.0, 0.0, 0.0, 0.0, 0.0)",-0.010346977720501496,-0.08597515856993758,-8.072260327240954e-05,"(0.0, 0.0, 0.0, 0.0, 0.0, 0.0)",-0.000770845093967465,True,"(-0.031165821884120017, 0.20434568051158974, 0.0399967397057084)","(0.7542677402111537, 0.6565588675495074, -0.0032602942916051623)",-5.670447895743341e-05,34.8588655203747,False,,,,
72,Move,"(0.0, 0.0, 0.036230000000000005)","(0.0, 0.016334536469414934, 0.0)","(-0.0257323336798273, 0.2492038523592405, 0.002473158927676231)","(1.553310162879653, 0.0334953194373576, 0.7208917035504222)","[-0.02601727716784128, 0.07791858581088384, 0.0006063814021312294]","[-0.026750000193715096, 0.05299999937415123, 0.03999999910593033]","[0.0, -0.0, 0.08335028433326741]","[-0.03274427354335785, 0.1247500404715538, 0.03999999910593033]","[0.0, -0.0, 0.14937622271195944]","[0.026750000193715096, 0.05299999937415123, 0.03999999910593033]","[0.0, -0.0, 0.21149118702802375]","[0.011635897681117058, 0.12339576333761215, 0.03999999910593033]","[0.0, -0.0, 0.12551512037745863]",0.08012843094403609,-0.7732446764216501,"(0.0, 0.0, 0.0, 0.0, 0.0, 0.0)",0.1258518829507593,0.06602556919601218,-8.922930287445655e-05,"(0.0, 0.0, 0.0, 0.0, 0.0, 0.0)",0.0093516230192734,0.213138168996642,0.39527672281968523,"(0.0, 0.0, 0.0, 0.0, 0.0, 0.0)",-0.06436697861126581,-0.085975893023168,3.979285581586215e-05,"(0.0, 0.0, 0.0, 0.0, 0.0, 0.0)",-0.004797030277775084,True,"(-0.027948359110521577, 0.20453220456216675, 0.03781572613127649)","(0.4887108221463848, 0.8715555799032065, -0.039403089429510596)",0.0003869608365233184,0.0,False,,,,
73,Move,"(0.0, 0.0, 0.036230000000000005)","(0.0, 0.016334536469414934, 0.0)","(-0.026656271187761562, 0.25230468547133533, 0.0013698548173325395)","(1.5931633159056866, 0.005980914088980731, 0.691649345964187)","[-0.02694121467577554, 0.08101941892297868, -0.0004969227082124621]","[-0.026750000193715096, 0.05299999937415123, 0.03999999910593033]","[0.0, -0.0, 0.06801104503430061]","[-0.03164302185177803, 0.12483354657888412, 0.03999999910593033]","[0.0, -0.0, 0.13403629513045676]","[0.026750000193715096, 0.05299999937415123, 0.03999999910593033]","[0.0, -0.0, 0.2200247263734156]","[0.011035731062293053, 0.12326423078775406, 0.03999999910593033]","[0.0, -0.0, 0.13404889247570928]",0.06553145031492413,-0.5951037797816754,"(0.0, 0.0, 0.0, 0.0, 0.0, 0.0)",0.09690241331883112,0.06602516889291793,-1.975054341412848e-05,"(0.0, 0.0, 0.0, 0.0, 0.0, 0.0)",0.007222640583704419,0.22147847176569696,0.34890326101537,"(0.0, 0.0, 0.0, 0.0, 0.0, 0.0)",-0.05681847020858915,-0.08597575436590041,1.414879837082269e-05,"(0.0, 0.0, 0.0, 0.0, 0.0, 0.0)",-0.004236527700656236,False,,,,,False,,,,
74,Move,"(0.0, 0.0, 0.036230000000000005)","(0.0, 0.016334536469414934, 0.0)","(-0.02626793918321374, 0.253554610393686, 0.0009277059906104751)","(1.5693882868904978, -0.01841025496915638, 0.6571599395165053)","[-0.02655288267122772, 0.08226934384532933, -0.0009390715349345266]","[-0.026750000193715096, 0.05299999937415123, 0.03999999910593033]","[0.0, -0.0, 0.05607212924909271]","[-0.030785078182816505, 0.12488684058189392, 0.03999999910593033]","[0.0, -0.0, 0.12209720367029639]","[0.026750000193715096, 0.05299999937415123, 0.03999999910593033]","[0.0, -0.0, 0.22734520244684098]","[0.010521789081394672, 0.12314730882644653, 0.03999999910593033]","[0.0, -0.0, 0.14136945780123247]",0.05412785390350134,-0.4666256581063609,"(0.0, 0.0, 0.0, 0.0, 0.0, 0.0)",0.07595669437288807,0.06602388122250721,-0.0002855611491179658,"(0.0, 0.0, 0.0, 0.0, 0.0, 0.0)",0.005635544976698094,0.22857139344412505,0.29428966190915745,"(0.0, 0.0, 0.0, 0.0, 0.0, 0.0)",-0.047907349869168864,-0.08597496744666618,0.0001808331912392741,"(0.0, 0.0, 0.0, 0.0, 0.0, 0.0)",-0.0035553492001674605,False,,,,,False,,,,
75,Move,"(0.0, 0.0, 0.036230000000000005)","(0.0, 0.016334536469414934, 0.0)","(-0.02624014540457085, 0.25366408080771286, 0.0008105070543467593)","(1.5619773617758852, 0.00303042118693324, 0.6590744433978998)","[-0.026525088892584828, 0.0823788142593562, -0.0010562704711982423]","[-0.026750000193715096, 0.05299999937415123, 0.03999999910593033]","[0.0, -0.0, 0.0461113822639175]","[-0.030068842694163322, 0.1249234676361084, 0.03999999910593033]","[0.0, -0.0, 0.11213362383087108]","[0.026750000193715096, 0.05299999937415123, 0.03999999910593033]","[0.0, -0.0, 0.23302936873088528]","[0.010123323649168015, 0.12305393069982529, 0.03999999910593033]","[0.0, -0.0, 0.14705539926901506]",0.04442566736671404,-0.404572377758189,"(0.0, 0.0, 0.0, 0.0, 0.0, 0.0)",0.06591342202053893,0.06602238454061242,3.9911517194513024e-05,"(0.0, 0.0, 0.0, 0.0, 0.0, 0.0)",0.004913406572700667,0.23393168381176072,0.21655825030624998,"(0.0, 0.0, 0.0, 0.0, 0.0, 0.0)",-0.035284530669836986,-0.08597405345780329,-2.437303634350574e-05,"(0.0, 0.0, 0.0, 0.0, 0.0, 0.0)",-0.0026309144999492546,False,,,,,False,,,,
76,Move,"(0.0, 0.0, 0.036230000000000005)","(0.0, 0.016334536469414934, 0.0)","(-0.026238951221672923, 0.25366038026127585, 0.0008718152611943817)","(1.5652957387464297, 0.0016957890351823248, 0.659087961537106)","[-0.026523894709686902, 0.0823751137129192, -0.0009949622643506198]","[-0.026750000193715096, 0.05299999937415123, 0.03999999910593033]","[0.0, -0.0, 0.037716727581723834]","[-0.0294649600982666, 0.12494879215955734, 0.03999999910593033]","[0.0, -0.0, 0.10373743653653938]","[0.026750000193715096, 0.05299999937415123, 0.03999999910593033]","[0.0, -0.0, 0.23749034665330407]","[0.009810980409383774, 0.1229790672659874, 0.03999999910593033]","[0.0, -0.0, 0.15151717521920885]",0.03632011882905616,-0.33518666377620543,"(0.0, 0.0, 0.0, 0.0, 0.0, 0.0)",0.05458951244164702,0.06602000833914616,-0.00016792481900688338,"(0.0, 0.0, 0.0, 0.0, 0.0, 0.0)",0.004074555305236407,0.23822918193562578,0.1773208659954206,"(0.0, 0.0, 0.0, 0.0, 0.0, 0.0)",-0.028880822261918557,-0.08597280107101248,8.89964578978397e-05,"(0.0, 0.0, 0.0, 0.0, 0.0, 0.0)",-0.0021561607651505257,False,,,,,False,,,,
77,Move,"(0.0, 0.0, 0.036230000000000005)","(0.0, 0.016334536469414934, 0.0)","(-0.0262383581928891, 0.25365694820073276, 0.0009120781760997051)","(1.568256588657314, 3.2720249754379726e-05, 0.65909541152138)","[-0.02652330168090308, 0.0823716816523761, -0.0009546993494452965]","[-0.026750000193715096, 0.05299999937415123, 0.03999999910593033]","[0.0, -0.0, 0.030766871525363025]","[-0.02896486595273018, 0.12496592849493027, 0.03999999910593033]","[0.0, -0.0, 0.0967865451667689]","[0.026750000193715096, 0.05299999937415123, 0.03999999910593033]","[0.0, -0.0, 0.24115470679933323]","[0.0095546655356884, 0.12291652709245682, 0.03999999910593033]","[0.0, -0.0, 0.15518208686842253]",0.02961117404548822,-0.2773675071715992,"(0.0, 0.0, 0.0, 0.0, 0.0, 0.0)",0.0451715488774306,0.06601969814779324,8.271769411427599e-06,"(0.0, 0.0, 0.0, 0.0, 0.0, 0.0)",0.00336967429286909,0.24176280855165036,0.14594232154238035,"(0.0, 0.0, 0.0, 0.0, 0.0, 0.0)",-0.023769128619927776,-0.08597263536597838,-4.418800909178344e-06,"(0.0, 0.0, 0.0, 0.0, 0.0, 0.0)",-0.0017734515345539934,False,,,,,False,,,,
78,Move,"(0.0, 0.0, 0.036230000000000005)","(0.0, 0.016334536469414934, 0.0)","(-0.0262377922499342, 0.25365619019604285, 0.0009380151204845976)","(1.569132266249645, 1.1127321166545055e-05, 0.6590951307329226)","[-0.02652273573794818, 0.0823709236476862, -0.000928762405060404]","[-0.026750000193715096, 0.05299999937415123, 0.03999999910593033]","[0.0, -0.0, 0.02501598538755711]","[-0.02855096384882927, 0.1249774694442749, 0.03999999910593033]","[0.0, -0.0, 0.09103401697141023]","[0.026750000193715096, 0.05299999937415123, 0.03999999910593033]","[0.0, -0.0, 0.24417040348209643]","[0.009343898855149746, 0.12286435067653656, 0.03999999910593033]","[0.0, -0.0, 0.1581986416821085]",0.024059662505827962,-0.22951777882745472,"(0.0, 0.0, 0.0, 0.0, 0.0, 0.0)",0.03738137396919434,0.06601760223735993,-0.00010250662553270754,"(0.0, 0.0, 0.0, 0.0, 0.0, 0.0)",0.002790432473059348,0.24467081290901188,0.12010226438895111,"(0.0, 0.0, 0.0, 0.0, 0.0, 0.0)",-0.019561806576962652,-0.08597153644427305,5.3598664919332184e-05,"(0.0, 0.0, 0.0, 0.0, 0.0, 0.0)",-0.0014604763368892227,False,,,,,False,,,,
