OSUrobotics/InHand-Manipulation/AnalyseData/Data/Trial Data/new_hand_human_filt_josh_2v2_f_none_2_kpNone_kdNone_dp1_step1_save_data.csv
,Phase,human_cube_pos,human_cube_orn,Cube_Pos,Cube_Orn,Cube_pos_in_start_pos,b'l_prox_pin'_link_pos,b'l_prox_pin'_link_orn,b'l_distal_pin'_link_pos,b'l_distal_pin'_link_orn,b'r_prox_pin'_link_pos,b'r_prox_pin'_link_orn,b'r_distal_pin'_link_pos,b'r_distal_pin'_link_orn,b'l_prox_pin'_joint_angle,b'l_prox_pin'_joint_vel,b'l_prox_pin'_joint_react_forces,b'l_prox_pin'_joint_motor_torque,b'l_distal_pin'_joint_angle,b'l_distal_pin'_joint_vel,b'l_distal_pin'_joint_react_forces,b'l_distal_pin'_joint_motor_torque,b'r_prox_pin'_joint_angle,b'r_prox_pin'_joint_vel,b'r_prox_pin'_joint_react_forces,b'r_prox_pin'_joint_motor_torque,b'r_distal_pin'_joint_angle,b'r_distal_pin'_joint_vel,b'r_distal_pin'_joint_react_forces,b'r_distal_pin'_joint_motor_torque,in_contact_l,contact_point_l_dist,contact_normal_l_dist,contact_distance_l_dist,contact_norm_force_l_dist,in_contact_r,contact_point_r_dist,contact_normal_r_dist,contact_distance_r_dist,contact_norm_force_r_dist
0,Open,,,,,,"[-0.026750000193715096, 0.05299999937415123, 0.03999999910593033]","[0.0, -0.0, 0.0]","[-0.026750000193715096, 0.125, 0.03999999910593033]","[0.0, -0.0, 0.0]","[0.026750000193715096, 0.05299999937415123, 0.03999999910593033]","[0.0, -0.0, 0.0]","[0.026750000193715096, 0.125, 0.03999999910593033]","[0.0, -0.0, 0.0]",0.0028636982559538428,0.6872875814289223,"(0.0, 0.0, 0.0, 0.0, 0.0, 0.0)",-74.42376671286476,0.025717978913313098,6.172314939195144,"(0.0, 0.0, 0.0, 0.0, 0.0, 0.0)",-28.347758017338414,-0.0028861714462846827,-0.6926811471083238,"(0.0, 0.0, 0.0, 0.0, 0.0, 0.0)",77.31812537484876,-0.025998027583603027,-6.239526620064726,"(0.0, 0.0, 0.0, 0.0, 0.0, 0.0)",29.325432325549183,False,,,,,False,,,,
1,Open,,,,,,"[-0.026750000193715096, 0.05299999937415123, 0.03999999910593033]","[0.0, -0.0, 0.0028636982488144678]","[-0.026956185698509216, 0.12499970197677612, 0.03999999910593033]","[0.0, -0.0, 0.028581675581217755]","[0.026750000193715096, 0.05299999937415123, 0.03999999910593033]","[0.0, 0.0, -0.0028861714423951343]","[0.026957804337143898, 0.12499970197677612, 0.03999999910593033]","[0.0, 0.0, -0.028884201286240394]",0.1595773284303585,37.61127124185712,"(0.0, 0.0, 0.0, 0.0, 0.0, 0.0)",53.472225824972774,0.02314589095046895,-0.6173011110825959,"(0.0, 0.0, 0.0, 0.0, 0.0, 0.0)",3.3014509125464437,-0.15959755430165623,-37.61073188528917,"(0.0, 0.0, 0.0, 0.0, 0.0, 0.0)",-53.45543824447724,-0.023397935520559333,0.6240220951304867,"(0.0, 0.0, 0.0, 0.0, 0.0, 0.0)",-3.2927232380167535,False,,,,,False,,,,
2,Open,,,,,,"[-0.026750000193715096, 0.05299999937415123, 0.03999999910593033]","[0.0, -0.0, 0.15957730699277592]","[-0.03819086775183678, 0.1240852028131485, 0.03999999910593033]","[0.0, -0.0, 0.1827232399786182]","[0.026750000193715096, 0.05299999937415123, 0.03999999910593033]","[0.0, 0.0, -0.15959754249378824]","[0.03819230571389198, 0.12408497184515, 0.03999999910593033]","[0.0, 0.0, -0.1829954723320542]",0.30061959558732265,33.8501441176714,"(0.0, 0.0, 0.0, 0.0, 0.0, 0.0)",-5.433290843096747,0.020831748867960086,-0.555394099802127,"(0.0, 0.0, 0.0, 0.0, 0.0, 0.0)",-0.37949999689540415,-0.30063779887149056,-33.849658696760244,"(0.0, 0.0, 0.0, 0.0, 0.0, 0.0)",5.433149501288634,-0.02105858889910766,0.5614431891484022,"(0.0, 0.0, 0.0, 0.0, 0.0, 0.0)",0.37943043762158307,False,,,,,False,,,,
3,Open,,,,,,"[-0.026750000193715096, 0.05299999937415123, 0.03999999910593033]","[0.0, -0.0, 0.30061964608852465]","[-0.048070069402456284, 0.12177103012800217, 0.03999999910593033]","[0.0, -0.0, 0.3214513597309629]","[0.026750000193715096, 0.05299999937415123, 0.03999999910593033]","[0.0, 0.0, -0.30063782483534385]","[0.04807132109999657, 0.12177064269781113, 0.03999999910593033]","[0.0, 0.0, -0.32169639446592324]",0.4275576360285904,30.465129705904268,"(0.0, 0.0, 0.0, 0.0, 0.0, 0.0)",-4.896562760502833,0.018748978964657985,-0.49986477679250463,"(0.0, 0.0, 0.0, 0.0, 0.0, 0.0)",-0.3438186216350169,-0.4275740189843415,-30.464692827084228,"(0.0, 0.0, 0.0, 0.0, 0.0, 0.0)",4.8964345239877005,-0.018953134917884834,0.505308955493478,"(0.0, 0.0, 0.0, 0.0, 0.0, 0.0)",0.34375511365495653,False,,,,,False,,,,
4,Open,,,,,,"[-0.026750000193715096, 0.05299999937415123, 0.03999999910593033]","[0.0, -0.0, 0.42755761853039154]","[-0.056604765355587006, 0.1185186430811882, 0.03999999910593033]","[0.0, -0.0, 0.4463066270391506]","[0.026750000193715096, 0.05299999937415123, 0.03999999910593033]","[0.0, 0.0, -0.42757404208311445]","[0.05660583823919296, 0.1185181587934494, 0.03999999910593033]","[0.0, 0.0, -0.4465272228574986]",0.5418018724257314,27.418616735313837,"(0.0, 0.0, 0.0, 0.0, 0.0, 0.0)",-4.412236817968903,0.016874447698417276,-0.44988750389777044,"(0.0, 0.0, 0.0, 0.0, 0.0, 0.0)",-0.3112578673856835,-0.5418166170859073,-27.418223544375806,"(0.0, 0.0, 0.0, 0.0, 0.0, 0.0)",4.412120589674461,-0.017058187988154127,0.4547872631353701,"(0.0, 0.0, 0.0, 0.0, 0.0, 0.0)",0.31119999541872967,False,,,,,False,,,,
5,Open,,,,,,"[-0.026750000193715096, 0.05299999937415123, 0.03999999910593033]","[0.0, -0.0, 0.5418019400761332]","[-0.06387900561094284, 0.11468822509050369, 0.03999999910593033]","[0.0, -0.0, 0.5586763123738882]","[0.026750000193715096, 0.05299999937415123, 0.03999999910593033]","[0.0, 0.0, -0.5418166677071254]","[0.06387991458177567, 0.11468767374753952, 0.03999999910593033]","[0.0, 0.0, -0.5588748551425957]",0.6446216851831583,24.67675506178245,"(0.0, 0.0, 0.0, 0.0, 0.0, 0.0)",-3.975330693632137,0.015187334633278446,-0.4049071356333192,"(0.0, 0.0, 0.0, 0.0, 0.0, 0.0)",-0.2816071653694913,-0.6446349553773166,-24.67640118993823,"(0.0, 0.0, 0.0, 0.0, 0.0, 0.0)",3.975225427671302,-0.01535270083200906,0.409316917474816,"(0.0, 0.0, 0.0, 0.0, 0.0, 0.0)",0.28155450162657786,False,,,,,False,,,,
6,Open,,,,,,"[-0.026750000193715096, 0.05299999937415123, 0.03999999910593033]","[0.0, -0.0, 0.6446216983098856]","[-0.07001452147960663, 0.11055155843496323, 0.03999999910593033]","[0.0, -0.0, 0.6598089287160823]","[0.026750000193715096, 0.05299999937415123, 0.03999999910593033]","[0.0, 0.0, -0.644634967879878]","[0.07001528143882751, 0.11055097728967667, 0.03999999910593033]","[0.0, 0.0, -0.6599877329949964]",0.7371595166648425,22.209079555604205,"(0.0, 0.0, 0.0, 0.0, 0.0, 0.0)",-3.5812948349547464,0.013668901111545678,-0.3644240452158641,"(0.0, 0.0, 0.0, 0.0, 0.0, 0.0)",-0.25464125660078457,-0.737171459839585,-22.20876107094441,"(0.0, 0.0, 0.0, 0.0, 0.0, 0.0)",3.5811995605906057,-0.01381773063402154,0.3683928475170044,"(0.0, 0.0, 0.0, 0.0, 0.0, 0.0)",0.2545933902665499,False,,,,,False,,,,
7,Open,,,,,,"[-0.026750000193715096, 0.05299999937415123, 0.03999999910593033]","[0.0, -0.0, 0.7371595400859692]","[-0.07514750957489014, 0.10630742460489273, 0.03999999910593033]","[0.0, -0.0, 0.7508283868993905]","[0.026750000193715096, 0.05299999937415123, 0.03999999910593033]","[0.0, 0.0, -0.7371714711336782]","[0.07514814287424088, 0.10630684345960617, 0.03999999910593033]","[0.0, 0.0, -0.750989167509555]",0.8204435649983582,19.988171600043785,"(0.0, 0.0, 0.0, 0.0, 0.0, 0.0)",-3.2259980823944012,0.01230228208777883,-0.32798856570404317,"(0.0, 0.0, 0.0, 0.0, 0.0, 0.0)",-0.23014491551259536,-0.8204543138556265,-19.987884963849964,"(0.0, 0.0, 0.0, 0.0, 0.0, 0.0)",3.225911902119173,-0.012436228606816148,0.33156048652929415,"(0.0, 0.0, 0.0, 0.0, 0.0, 0.0)",0.23010145595163894,False,,,,,False,,,,
8,Open,,,,,,"[-0.026750000193715096, 0.05299999937415123, 0.03999999910593033]","[0.0, -0.0, 0.8204435774406766]","[-0.07941428571939468, 0.1020965725183487, 0.03999999910593033]","[0.0, -0.0, 0.8327459142786269]","[0.026750000193715096, 0.05299999937415123, 0.03999999910593033]","[0.0, 0.0, -0.8204543695347751]","[0.07941480726003647, 0.10209600627422333, 0.03999999910593033]","[0.0, 0.0, -0.8328905496331522]",0.8953992084985224,17.9893544400394,"(0.0, 0.0, 0.0, 0.0, 0.0, 0.0)",-2.905692777507757,0.011072298781000885,-0.2951959936267068,"(0.0, 0.0, 0.0, 0.0, 0.0, 0.0)",-0.20791432075989408,-0.8954088824700639,-17.989096467464968,"(0.0, 0.0, 0.0, 0.0, 0.0, 0.0)",2.9056148642503405,-0.011192850601700187,0.29841072122783063,"(0.0, 0.0, 0.0, 0.0, 0.0, 0.0)",0.20787489947010138,False,,,,,False,,,,
9,Open,,,,,,"[-0.026750000193715096, 0.05299999937415123, 0.03999999910593033]","[0.0, -0.0, 0.8953992050914552]","[-0.08294302970170975, 0.09801492840051651, 0.03999999910593033]","[0.0, -0.0, 0.9064715399310761]","[0.026750000193715096, 0.05299999937415123, 0.03999999910593033]","[0.0, 0.0, -0.8954089117450801]","[0.08294346183538437, 0.09801438450813293, 0.03999999910593033]","[0.0, 0.0, -0.9066016844299951]",0.9628592876486701,16.190418996035465,"(0.0, 0.0, 0.0, 0.0, 0.0, 0.0)",-2.616982039675733,0.009965290062605858,-0.26568209241480656,"(0.0, 0.0, 0.0, 0.0, 0.0, 0.0)",-0.18775783729375353,-0.9628679942230576,-16.190186820718473,"(0.0, 0.0, 0.0, 0.0, 0.0, 0.0)",2.6169116334278195,-0.010073786659150813,0.26857534621184953,"(0.0, 0.0, 0.0, 0.0, 0.0, 0.0)",0.187722108909745,False,,,,,False,,,,
10,Open,,,,,,"[-0.026750000193715096, 0.05299999937415123, 0.03999999910593033]","[0.0, -0.0, 0.9628592963772022]","[-0.08584962040185928, 0.09412462264299393, 0.03999999910593033]","[0.0, -0.0, 0.9728246761305416]","[0.026750000193715096, 0.05299999937415123, 0.03999999910593033]","[0.0, 0.0, -0.9628681466677605]","[0.08584997802972794, 0.09412410855293274, 0.03999999910593033]","[0.0, 0.0, -0.9729417790417357]",1.0235733588838032,14.57137709643192,"(0.0, 0.0, 0.0, 0.0, 0.0, 0.0)",-2.356789246056587,0.008968960705874744,-0.23911904561546746,"(0.0, 0.0, 0.0, 0.0, 0.0, 0.0)",-0.16949635495257384,-1.0235811948007518,-14.571168138646623,"(0.0, 0.0, 0.0, 0.0, 0.0, 0.0)",2.3567256501387286,-0.009066607604651448,0.24172297307984775,"(0.0, 0.0, 0.0, 0.0, 0.0, 0.0)",0.16946399753760524,False,,,,,False,,,,
11,Open,,,,,,"[-0.026750000193715096, 0.05299999937415123, 0.03999999910593033]","[0.0, -0.0, 1.0235732790301837]","[-0.08823604136705399, 0.09046287834644318, 0.03999999910593033]","[0.0, -0.0, 1.0325423083164225]","[0.026750000193715096, 0.05299999937415123, 0.03999999910593033]","[0.0, 0.0, -1.0235812274279317]","[0.08823633193969727, 0.09046239405870438, 0.03999999910593033]","[0.0, 0.0, -1.0326479037372749]",1.078216022995423,13.114239386788727,"(0.0, 0.0, 0.0, 0.0, 0.0, 0.0)",-2.1223296975724493,0.008072244810550301,-0.215211814877866,"(0.0, 0.0, 0.0, 0.0, 0.0, 0.0)",-0.1529632973210469,-1.0782230753206767,-13.114051324781958,"(0.0, 0.0, 0.0, 0.0, 0.0, 0.0)",2.122272274708909,-0.008160126984954354,0.21755534872730237,"(0.0, 0.0, 0.0, 0.0, 0.0, 0.0)",0.15293401213466845,False,,,,,False,,,,
12,Open,,,,,,"[-0.026750000193715096, 0.05299999937415123, 0.03999999910593033]","[0.0, -0.0, 1.078215882979514]","[-0.09019032120704651, 0.08704887330532074, 0.03999999910593033]","[0.0, -0.0, 1.0862882926740116]","[0.026750000193715096, 0.05299999937415123, 0.03999999910593033]","[0.0, 0.0, -1.078222977413882]","[0.09019055962562561, 0.08704842627048492, 0.03999999910593033]","[0.0, 0.0, -1.0863833790205233]",1.1273944206958806,11.802815448109852,"(0.0, 0.0, 0.0, 0.0, 0.0, 0.0)",-1.9110844168611731,0.007265182884681461,-0.19369486220852175,"(0.0, 0.0, 0.0, 0.0, 0.0, 0.0)",-0.13800439004610457,-1.127400767788609,-11.802646192303762,"(0.0, 0.0, 0.0, 0.0, 0.0, 0.0)",1.9110325851897776,-0.007344276810443619,0.19580404188257655,"(0.0, 0.0, 0.0, 0.0, 0.0, 0.0)",0.13797790093405082,False,,,,,False,,,,
13,Open,,,,,,"[-0.026750000193715096, 0.05299999937415123, 0.03999999910593033]","[0.0, -0.0, 1.1273943743462997]","[-0.0917874127626419, 0.08388907462358475, 0.03999999910593033]","[0.0, -0.0, 1.1346596248576977]","[0.026750000193715096, 0.05299999937415123, 0.03999999910593033]","[0.0, 0.0, -1.127400718904607]","[0.09178761392831802, 0.08388865739107132, 0.03999999910593033]","[0.0, 0.0, -1.134745111288055]",1.1716549786262926,10.622533903298867,"(0.0, 0.0, 0.0, 0.0, 0.0, 0.0)",-1.7207759982695574,0.00653881121780902,-0.17432920004938585,"(0.0, 0.0, 0.0, 0.0, 0.0, 0.0)",-0.12447725819906867,-1.1716606910097482,-10.622381573073383,"(0.0, 0.0, 0.0, 0.0, 0.0, 0.0)",1.7207292273800263,-0.006609995722787257,0.17622746103752684,"(0.0, 0.0, 0.0, 0.0, 0.0, 0.0)",0.12445331071934837,False,,,,,False,,,,
14,Open,,,,,,"[-0.026750000193715096, 0.05299999937415123, 0.03999999910593033]","[0.0, -0.0, 1.17165497759142]","[-0.09309044480323792, 0.08098116517066956, 0.03999999910593033]","[0.0, -0.0, 1.1781937273122836]","[0.026750000193715096, 0.05299999937415123, 0.03999999910593033]","[0.0, 0.0, -1.1716605985979762]","[0.09309060126543045, 0.08098078519105911, 0.03999999910593033]","[0.0, 0.0, -1.178270796658152]",1.2114894807636634,9.56028051296898,"(0.0, 0.0, 0.0, 0.0, 0.0, 0.0)",-1.549346412635057,0.005885062316220725,-0.15689973638119079,"(0.0, 0.0, 0.0, 0.0, 0.0, 0.0)",-0.11225090666269867,-1.2114946219087734,-9.560143415766044,"(0.0, 0.0, 0.0, 0.0, 0.0, 0.0)",1.5493042197033076,-0.00594912834521185,0.1586081706180975,"(0.0, 0.0, 0.0, 0.0, 0.0, 0.0)",0.11222926703597672,False,,,,,False,,,,
15,Open,,,,,,"[-0.026750000193715096, 0.05299999937415123, 0.03999999910593033]","[0.0, -0.0, 1.2114893406881728]","[-0.09415213763713837, 0.07831703126430511, 0.03999999910593033]","[0.0, -0.0, 1.2173745989650702]","[0.026750000193715096, 0.05299999937415123, 0.03999999910593033]","[0.0, 0.0, -1.2114945655338818]","[0.09415226429700851, 0.07831668108701706, 0.03999999910593033]","[0.0, 0.0, -1.2174436451143456]",1.247340532687297,8.604252461672083,"(0.0, 0.0, 0.0, 0.0, 0.0, 0.0)",-1.3949366588174594,0.00529667529397997,-0.14121288533778104,"(0.0, 0.0, 0.0, 0.0, 0.0, 0.0)",-0.1012051251161189,-1.2473451597178962,-8.604129074189437,"(0.0, 0.0, 0.0, 0.0, 0.0, 0.0)",1.394898604883462,-0.005354334697048719,0.1427504755591516,"(0.0, 0.0, 0.0, 0.0, 0.0, 0.0)",0.1011855790679586,False,,,,,False,,,,
16,Open,,,,,,"[-0.026750000193715096, 0.05299999937415123, 0.03999999910593033]","[0.0, -0.0, 1.2473405247091465]","[-0.09501627087593079, 0.07588484138250351, 0.03999999910593033]","[0.0, -0.0, 1.2526371614229614]","[0.026750000193715096, 0.05299999937415123, 0.03999999910593033]","[0.0, 0.0, -1.2473450561350814]","[0.09501637518405914, 0.07588452845811844, 0.03999999910593033]","[0.0, 0.0, -1.252699591080442]",1.2796064794185673,7.743827215504874,"(0.0, 0.0, 0.0, 0.0, 0.0, 0.0)",-1.2558681481324276,0.004767115224099335,-0.12709441677135241,"(0.0, 0.0, 0.0, 0.0, 0.0, 0.0)",-0.09122984935698081,-1.2796106437461066,-7.743716166770495,"(0.0, 0.0, 0.0, 0.0, 0.0, 0.0)",1.2558338345532607,-0.004819008666073119,0.128478247434144,"(0.0, 0.0, 0.0, 0.0, 0.0, 0.0)",0.09121220090323832,False,,,,,False,,,,
17,Open,,,,,,"[-0.026750000193715096, 0.05299999937415123, 0.03999999910593033]","[0.0, -0.0, 1.279606409124563]","[-0.09571900963783264, 0.0736706405878067, 0.03999999910593033]","[0.0, -0.0, 1.2843736758198352]","[0.026750000193715096, 0.05299999937415123, 0.03999999910593033]","[0.0, 0.0, -1.2796106525936015]","[0.0957190990447998, 0.07367035001516342, 0.03999999910593033]","[0.0, 0.0, -1.2844295613342638]",1.3086458314767107,6.969444493954387,"(0.0, 0.0, 0.0, 0.0, 0.0, 0.0)",-1.1305941221975622,0.00429170208951155,-0.1140991523010686,"(0.0, 0.0, 0.0, 0.0, 0.0, 0.0)",-0.082192919359827,-1.3086495793714958,-6.969344550093446,"(0.0, 0.0, 0.0, 0.0, 0.0, 0.0)",1.1305631934145834,-0.004338405935744441,0.11534465527888274,"(0.0, 0.0, 0.0, 0.0, 0.0, 0.0)",0.08217699569254354,False,,,,,False,,,,
18,Open,,,,,,"[-0.026750000193715096, 0.05299999937415123, 0.03999999910593033]","[0.0, -0.0, 1.308645825919811]","[-0.09629011154174805, 0.0716593861579895, 0.03999999910593033]","[0.0, -0.0, 1.3129373548657892]","[0.026750000193715096, 0.05299999937415123, 0.03999999910593033]","[0.0, 0.0, -1.308649569130343]","[0.09629017859697342, 0.07165912538766861, 0.03999999910593033]","[0.0, 0.0, -1.3129881167123505]",1.3347812483290395,6.272500044558946,"(0.0, 0.0, 0.0, 0.0, 0.0, 0.0)",-1.0178482622338179,0.003863702481573626,-0.10271990590510163,"(0.0, 0.0, 0.0, 0.0, 0.0, 0.0)",-0.07410352518858664,-1.3347846214343462,-6.272410095084102,"(0.0, 0.0, 0.0, 0.0, 0.0, 0.0)",1.0178203769740246,-0.0039057357160976183,0.10384085271523745,"(0.0, 0.0, 0.0, 0.0, 0.0, 0.0)",0.0740891498002037,False,,,,,False,,,,
19,Open,,,,,,"[-0.026750000193715096, 0.05299999937415123, 0.03999999910593033]","[0.0, -0.0, 1.3347813147466918]","[-0.09675397723913193, 0.06983575969934464, 0.03999999910593033]","[0.0, -0.0, 1.3386449621367835]","[0.026750000193715096, 0.05299999937415123, 0.03999999910593033]","[0.0, 0.0, -1.3347844615433213]","[0.0967540368437767, 0.06983552873134613, 0.03999999910593033]","[0.0, 0.0, -1.3386905382854437]",1.3583031234961356,5.645250040103052,"(0.0, 0.0, 0.0, 0.0, 0.0, 0.0)",-0.9162890978823036,0.0034783869891320215,-0.09247571818598516,"(0.0, 0.0, 0.0, 0.0, 0.0, 0.0)",-0.06677007440367574,-1.3583061592909116,-5.645169085575695,"(0.0, 0.0, 0.0, 0.0, 0.0, 0.0)",0.9162639666346021,-0.003516216695348753,0.09348456497972772,"(0.0, 0.0, 0.0, 0.0, 0.0, 0.0)",0.06675710630673855,False,,,,,False,,,,
20,Open,,,,,,"[-0.026750000193715096, 0.05299999937415123, 0.03999999910593033]","[0.0, -0.0, 1.3583030429358363]","[-0.09713058918714523, 0.06818463653326035, 0.03999999910593033]","[0.0, -0.0, 1.3617816714487538]","[0.026750000193715096, 0.05299999937415123, 0.03999999910593033]","[0.0, 0.0, -1.358306171033049]","[0.09713063389062881, 0.06818442046642303, 0.03999999910593033]","[0.0, 0.0, -1.361822351334537]",1.379472811146522,5.0807250360927485,"(0.0, 0.0, 0.0, 0.0, 0.0, 0.0)",-0.8248429295126702,0.003131498553648039,-0.08325322451615583,"(0.0, 0.0, 0.0, 0.0, 0.0, 0.0)",-0.06015531267018523,-1.3794755433618204,-5.080652177018124,"(0.0, 0.0, 0.0, 0.0, 0.0, 0.0)",0.8248202834423316,-0.003165545104486833,0.08416118180686077,"(0.0, 0.0, 0.0, 0.0, 0.0, 0.0)",0.06014361689139186,False,,,,,False,,,,
21,Open,,,,,,"[-0.026750000193715096, 0.05299999937415123, 0.03999999910593033]","[0.0, -0.0, 1.3794728975130914]","[-0.09743624925613403, 0.06669140607118607, 0.03999999910593033]","[0.0, -0.0, 1.382604304378769]","[0.026750000193715096, 0.05299999937415123, 0.03999999910593033]","[0.0, 0.0, -1.379475506721758]","[0.09743628650903702, 0.06669121235609055, 0.03999999910593033]","[0.0, 0.0, -1.3826409668082853]",1.3985255300318697,4.572652532483473,"(0.0, 0.0, 0.0, 0.0, 0.0, 0.0)",-0.7425066286387145,0.0028192047313806493,-0.07495051734417352,"(0.0, 0.0, 0.0, 0.0, 0.0, 0.0)",-0.054190171953983096,-1.3985279890256384,-4.57258695931631,"(0.0, 0.0, 0.0, 0.0, 0.0, 0.0)",0.7424862245436853,-0.0028498464605416357,0.07576767454684734,"(0.0, 0.0, 0.0, 0.0, 0.0, 0.0)",0.0541796259205944,False,,,,,False,,,,
22,Open,,,,,,"[-0.026750000193715096, 0.05299999937415123, 0.03999999910593033]","[0.0, -0.0, 1.398525454133583]","[-0.09768425673246384, 0.0653422400355339, 0.03999999910593033]","[0.0, -0.0, 1.4013447262228373]","[0.026750000193715096, 0.05299999937415123, 0.03999999910593033]","[0.0, 0.0, -1.3985280648022782]","[0.09768428653478622, 0.06534206122159958, 0.03999999910593033]","[0.0, 0.0, -1.4013779844801912]",1.4156729770286829,4.1153872792351285,"(0.0, 0.0, 0.0, 0.0, 0.0, 0.0)",-0.6683758137814145,0.002538055332395241,-0.06747585575649792,"(0.0, 0.0, 0.0, 0.0, 0.0, 0.0)",-0.04881194552870251,-1.4156751901230746,-4.115328263384682,"(0.0, 0.0, 0.0, 0.0, 0.0, 0.0)",0.6683574317692884,-0.002565632738451909,0.06821129330153437,"(0.0, 0.0, 0.0, 0.0, 0.0, 0.0)",0.0488024380394442,False,,,,,False,,,,
23,Open,,,,,,"[-0.026750000193715096, 0.05299999937415123, 0.03999999910593033]","[0.0, -0.0, 1.4156730334745993]","[-0.09788545966148376, 0.06412414461374283, 0.03999999910593033]","[0.0, -0.0, 1.418211036917125]","[0.026750000193715096, 0.05299999937415123, 0.03999999910593033]","[0.0, 0.0, -1.4156752315845986]","[0.09788548201322556, 0.0641239807009697, 0.03999999910593033]","[0.0, 0.0, -1.418240879504808]",1.4311056793258146,3.703848551311612,"(0.0, 0.0, 0.0, 0.0, 0.0, 0.0)",-0.6016352863054336,0.002284944287465684,-0.060746650783093666,"(0.0, 0.0, 0.0, 0.0, 0.0, 0.0)",-0.04396376851645251,-1.431107671110767,-3.7037954370462103,"(0.0, 0.0, 0.0, 0.0, 0.0, 0.0)",0.6016187276545472,-0.0023097638175418747,0.061408541018408244,"(0.0, 0.0, 0.0, 0.0, 0.0, 0.0)",0.043955198772734246,False,,,,,False,,,,
24,Open,,,,,,"[-0.026750000193715096, 0.05299999937415123, 0.03999999910593033]","[0.0, -0.0, 1.4311058207082674]","[-0.09804865717887878, 0.06302504986524582, 0.03999999910593033]","[0.0, -0.0, 1.433390691262394]","[0.026750000193715096, 0.05299999937415123, 0.03999999910593033]","[0.0, 0.0, -1.4311075924426346]","[0.09804867953062057, 0.06302490830421448, 0.03999999910593033]","[0.0, 0.0, -1.433417470845748]",1.4449951113932331,3.333463696180452,"(0.0, 0.0, 0.0, 0.0, 0.0, 0.0)",-0.5415503506795546,0.0020570753203455715,-0.05468855210882702,"(0.0, 0.0, 0.0, 0.0, 0.0, 0.0)",-0.039594115216637325,-1.4449969039996904,-3.3334158933415914,"(0.0, 0.0, 0.0, 0.0, 0.0, 0.0)",0.541535435877482,-0.002079412775410495,0.055284250111531166,"(0.0, 0.0, 0.0, 0.0, 0.0, 0.0)",0.03958639191865308,False,,,,,False,,,,
25,Open,,,,,,"[-0.026750000193715096, 0.05299999937415123, 0.03999999910593033]","[0.0, -0.0, 1.444995076522675]","[-0.09818101674318314, 0.062033817172050476, 0.03999999910593033]","[0.0, -0.0, 1.4470522962768402]","[0.026750000193715096, 0.05299999937415123, 0.03999999910593033]","[0.0, 0.0, -1.4449971061677662]","[0.09818103164434433, 0.06203368678689003, 0.03999999910593033]","[0.0, 0.0, -1.4470761943538692]",1.45749560025391,3.0001173265624064,"(0.0, 0.0, 0.0, 0.0, 0.0, 0.0)",-0.4874589573784058,0.001851931045420989,-0.04923462598189979,"(0.0, 0.0, 0.0, 0.0, 0.0, 0.0)",-0.03565633120497695,-1.4574972135997213,-3.000074304007432,"(0.0, 0.0, 0.0, 0.0, 0.0, 0.0)",0.4874455243270462,-0.0018720346450414762,0.04977075128856451,"(0.0, 0.0, 0.0, 0.0, 0.0, 0.0)",0.03564937171228022,False,,,,,False,,,,
26,Open,,,,,,"[-0.026750000193715096, 0.05299999937415123, 0.03999999910593033]","[0.0, -0.0, 1.4574954921785264]","[-0.09828835725784302, 0.061140209436416626, 0.03999999910593033]","[0.0, -0.0, 1.4593474823067423]","[0.026750000193715096, 0.05299999937415123, 0.03999999910593033]","[0.0, 0.0, -1.4574971848934346]","[0.09828837215900421, 0.061140093952417374, 0.03999999910593033]","[0.0, 0.0, -1.4593694397653831]",1.4687460402285188,2.700105593906164,"(0.0, 0.0, 0.0, 0.0, 0.0, 0.0)",-0.4387645947805427,0.0016672451487475934,-0.044324615201614966,"(0.0, 0.0, 0.0, 0.0, 0.0, 0.0)",-0.032108199676446195,-1.4687474922397492,-2.70006687360669,"(0.0, 0.0, 0.0, 0.0, 0.0, 0.0)",0.4387524971567325,-0.0016853382893528596,0.04480712536526797,"(0.0, 0.0, 0.0, 0.0, 0.0, 0.0)",0.03210192923147444,False,,,,,False,,,,
27,Open,,,,,,"[-0.026750000193715096, 0.05299999937415123, 0.03999999910593033]","[0.0, -0.0, 1.4687462228928074]","[-0.09837540984153748, 0.06033487245440483, 0.03999999910593033]","[0.0, -0.0, 1.4704133245237396]","[0.026750000193715096, 0.05299999937415123, 0.03999999910593033]","[0.0, 0.0, -1.4687474899518769]","[0.09837542474269867, 0.060334768146276474, 0.03999999910593033]","[0.0, 0.0, -1.4704329951986796]",1.478871436205667,2.430095034515549,"(0.0, 0.0, 0.0, 0.0, 0.0, 0.0)",-0.394929862139441,0.0015009773446580906,-0.03990427298148066,"(0.0, 0.0, 0.0, 0.0, 0.0, 0.0)",-0.028911540991871522,-1.4788727430157742,-2.430060186246021,"(0.0, 0.0, 0.0, 0.0, 0.0, 0.0)",0.39491896790015035,-0.001517261081966714,0.04033852977267494,"(0.0, 0.0, 0.0, 0.0, 0.0, 0.0)",0.02890589200411927,False,,,,,False,,,,
28,Open,,,,,,"[-0.026750000193715096, 0.05299999937415123, 0.03999999910593033]","[0.0, -0.0, 1.4788714352834713]","[-0.09844600409269333, 0.05960927531123161, 0.03999999910593033]","[0.0, -0.0, 1.480372508787761]","[0.026750000193715096, 0.05299999937415123, 0.03999999910593033]","[0.0, 0.0, -1.4788727099725336]","[0.09844601899385452, 0.05960918217897415, 0.03999999910593033]","[0.0, 0.0, -1.4803900544382056]",1.4879842925851003,2.1870855310639947,"(0.0, 0.0, 0.0, 0.0, 0.0, 0.0)",-0.3554706611703565,0.001351290830885638,-0.035924763305388616,"(0.0, 0.0, 0.0, 0.0, 0.0, 0.0)",-0.026031844038894282,-1.487985468714197,-2.1870541676214206,"(0.0, 0.0, 0.0, 0.0, 0.0, 0.0)",0.3554608511915877,-0.001365946114079445,0.03631559229294455,"(0.0, 0.0, 0.0, 0.0, 0.0, 0.0)",0.026026755426892093,False,,,,,False,,,,
29,Close,,,"(3.819349109750643e-09, 0.16999994350316286, 7.914305593764796e-05)","(1.5700606283751846, 1.2357610516186277e-06, -4.058049624060407e-09)",,"[-0.026750000193715096, 0.05299999937415123, 0.03999999910593033]","[0.0, -0.0, 1.4879842849605203]","[-0.09850326180458069, 0.05895565450191498, 0.03999999910593033]","[0.0, -0.0, 1.4893357278409396]","[0.026750000193715096, 0.05299999937415123, 0.03999999910593033]","[0.0, 0.0, -1.4879853833286059]","[0.09850326925516129, 0.05895556882023811, 0.03999999910593033]","[0.0, 0.0, -1.4893513332680077]",1.4961858633265903,1.9683769779575933,"(0.0, 0.0, 0.0, 0.0, 0.0, 0.0)",-0.31995094896823073,0.0012165319928285922,-0.03234212113369103,"(0.0, 0.0, 0.0, 0.0, 0.0, 0.0)",-0.02343792779000599,-1.4961869218427772,-1.9683487508592754,"(0.0, 0.0, 0.0, 0.0, 0.0, 0.0)",0.31994211580738524,-0.0012297216752996233,0.03269386530715718,"(0.0, 0.0, 0.0, 0.0, 0.0, 0.0)",0.02343334437795369,False,,,,,False,,,,
30,Close,,,"(1.09441459674075e-09, 0.16999988769159868, 0.0001519632082907279)","(1.5701173533571526, -2.5467641220651055e-06, -4.573996600559749e-08)",,"[-0.026750000193715096, 0.05299999937415123, 0.03999999910593033]","[0.0, -0.0, 1.4961860174198076]","[-0.09854969382286072, 0.05836696922779083, 0.03999999910593033]","[0.0, -0.0, 1.4974025341106605]","[0.026750000193715096, 0.05299999937415123, 0.03999999910593033]","[0.0, 0.0, -1.4961870219527165]","[0.09854969382286072, 0.05836689472198486, 0.03999999910593033]","[0.0, 0.0, -1.4974167044724178]",1.4065672769939312,-21.50846071983817,"(0.0, 0.0, 0.0, 0.0, 0.0, 0.0)",-36.83524610171859,-0.08890468746940376,-21.629092670935766,"(0.0, 0.0, 0.0, 0.0, 0.0, 0.0)",-4.936581214831643,-1.4065682296584996,21.508486124226657,"(0.0, 0.0, 0.0, 0.0, 0.0, 0.0)",36.83523814678565,0.0888928167555427,21.629409223402156,"(0.0, 0.0, 0.0, 0.0, 0.0, 0.0)",4.936577085092772,False,,,,,False,,,,
31,Close,,,"(3.541182821644653e-08, 0.1699998011443987, 0.00021906657187154062)","(1.570205104748116, 3.3042409171564205e-05, -8.114212850492596e-08)",,"[-0.026750000193715096, 0.05299999937415123, 0.03999999910593033]","[0.0, -0.0, 1.4065674382065954]","[-0.0977812185883522, 0.06477140635251999, 0.03999999910593033]","[0.0, -0.0, 1.3176625934179576]","[0.026750000193715096, 0.05299999937415123, 0.03999999910593033]","[0.0, 0.0, -1.4065680331882469]","[0.0977812260389328, 0.06477133929729462, 0.03999999910593033]","[0.0, 0.0, -1.3176753491400532]",1.3259105492945382,-19.357614647854348,"(0.0, 0.0, 0.0, 0.0, 0.0, 0.0)",3.3395407019063446,-0.17001473426920377,-19.466411231952,"(0.0, 0.0, 0.0, 0.0, 0.0, 0.0)",0.4376834422569755,-1.3259114066926496,19.35763751180399,"(0.0, 0.0, 0.0, 0.0, 0.0, 0.0)",-3.3395473112045253,0.1700040506304986,19.466696129989415,"(0.0, 0.0, 0.0, 0.0, 0.0, 0.0)",-0.43768664266468643,False,,,,,False,,,,
32,Close,,,"(3.361538948490201e-08, 0.16999974452330968, 0.00028077538773600935)","(1.5702911774727688, 7.027968338074274e-05, -7.017997684986258e-06)",,"[-0.026750000193715096, 0.05299999937415123, 0.03999999910593033]","[0.0, -0.0, 1.325910602539969]","[-0.09660188108682632, 0.07045608013868332, 0.03999999910593033]","[0.0, -0.0, 1.1558959321658662]","[0.026750000193715096, 0.05299999937415123, 0.03999999910593033]","[0.0, 0.0, -1.3259115331240872]","[0.09660189598798752, 0.07045602053403854, 0.03999999910593033]","[0.0, 0.0, -1.1559073716167563]",1.2533194943650845,-17.42185318306892,"(0.0, 0.0, 0.0, 0.0, 0.0, 0.0)",3.0100864599566086,-0.2430137284658432,-17.519758607193467,"(0.0, 0.0, 0.0, 0.0, 0.0, 0.0)",0.39699812510351973,-1.2533202660233846,17.42187376062359,"(0.0, 0.0, 0.0, 0.0, 0.0, 0.0)",-3.0100924602349655,0.24300411319445853,17.52001501535039,"(0.0, 0.0, 0.0, 0.0, 0.0, 0.0)",-0.39700105403357716,False,,,,,False,,,,
33,Close,,,"(1.2478111664315067e-07, 0.16999960627903704, 0.000337513976604643)","(1.5703757790333803, 0.0001088681261817636, -5.122611399447184e-06)",,"[-0.026750000193715096, 0.05299999937415123, 0.03999999910593033]","[0.0, -0.0, 1.2533194489161892]","[-0.0951518788933754, 0.07547627389431, 0.03999999910593033]","[0.0, -0.0, 1.0103057011386807]","[0.026750000193715096, 0.05299999937415123, 0.03999999910593033]","[0.0, 0.0, -1.2533201846969224]","[0.09515189379453659, 0.07547622174024582, 0.03999999910593033]","[0.0, 0.0, -1.010316110149499]",1.1879875449285762,-15.679667864762028,"(0.0, 0.0, 0.0, 0.0, 0.0, 0.0)",2.712712783767229,-0.30871235561933186,-15.767670516837281,"(0.0, 0.0, 0.0, 0.0, 0.0, 0.0)",0.3597856734528228,-1.1879882394210461,15.679686384561233,"(0.0, 0.0, 0.0, 0.0, 0.0, 0.0)",-2.712718226071338,0.30870370187508567,15.767901283350515,"(0.0, 0.0, 0.0, 0.0, 0.0, 0.0)",-0.35978834883250516,False,,,,,False,,,,
34,Close,,,"(1.2869376016944667e-07, 0.16999954011037416, 0.00038973303114976833)","(1.5704582297133343, 0.0001496263682483943, -9.931543136061158e-06)",,"[-0.026750000193715096, 0.05299999937415123, 0.03999999910593033]","[0.0, -0.0, 1.1879876003522736]","[-0.09353857487440109, 0.07989397644996643, 0.03999999910593033]","[0.0, -0.0, 0.8792752425767008]","[0.026750000193715096, 0.05299999937415123, 0.03999999910593033]","[0.0, 0.0, -1.1879882623869136]","[0.09353859722614288, 0.07989392429590225, 0.03999999910593033]","[0.0, 0.0, -0.8792844680170303]",1.1291887904356523,-14.1117010783017,"(0.0, 0.0, 0.0, 0.0, 0.0, 0.0)",2.44436472036771,-0.36784112005739866,-14.190903465136039,"(0.0, 0.0, 0.0, 0.0, 0.0, 0.0)",0.3258007578595482,-1.1291894154788755,14.111717746120975,"(0.0, 0.0, 0.0, 0.0, 0.0, 0.0)",-2.444369652349295,0.3678333316875771,14.191111154997946,"(0.0, 0.0, 0.0, 0.0, 0.0, 0.0)",-0.32580319741325486,False,,,,,False,,,,
35,Close,,,"(2.2147778895778094e-07, 0.169999403724105, 0.00043775502472391954)","(1.5705392813318275, 0.0001916771605813282, -8.19762937926826e-06)",,"[-0.026750000193715096, 0.05299999937415123, 0.03999999910593033]","[0.0, -0.0, 1.1291888000608494]","[-0.09184273332357407, 0.08377231657505035, 0.03999999910593033]","[0.0, -0.0, 0.7613476921786614]","[0.026750000193715096, 0.05299999937415123, 0.03999999910593033]","[0.0, 0.0, -1.1291894580384154]","[0.09184275567531586, 0.08377227932214737, 0.03999999910593033]","[0.0, 0.0, -0.7613561373098183]",1.0762699113920273,-12.700530970470014,"(0.0, 0.0, 0.0, 0.0, 0.0, 0.0)",2.202305891359772,-0.4210570080516588,-12.77181311862243,"(0.0, 0.0, 0.0, 0.0, 0.0, 0.0)",0.2948453788489373,-1.0762704739309281,12.700545971507374,"(0.0, 0.0, 0.0, 0.0, 0.0, 0.0)",-2.2023103576802145,0.4210499985188194,12.77200003949815,"(0.0, 0.0, 0.0, 0.0, 0.0, 0.0)",-0.2948476002056522,False,,,,,False,,,,
36,Close,,,"(2.1912693722736075e-07, 0.16999934361709654, 0.000481956449276018)","(1.5706184388641253, 0.00023565575873296478, -1.2845786801691941e-05)",,"[-0.026750000193715096, 0.05299999937415123, 0.03999999910593033]","[0.0, -0.0, 1.0762698553554748]","[-0.09012393653392792, 0.08717226982116699, 0.03999999910593033]","[0.0, -0.0, 0.6552128934948661]","[0.026750000193715096, 0.05299999937415123, 0.03999999910593033]","[0.0, 0.0, -1.0762704893583]","[0.09012395888566971, 0.08717223256826401, 0.03999999910593033]","[0.0, 0.0, -0.6552204147476549]",1.0286429202528247,-11.430477873408655,"(0.0, 0.0, 0.0, 0.0, 0.0, 0.0)",1.9840011930578276,-0.46895130724721834,-11.494631806934295,"(0.0, 0.0, 0.0, 0.0, 0.0, 0.0)",0.26667684533441977,-1.0286434265378352,11.430491374342276,"(0.0, 0.0, 0.0, 0.0, 0.0, 0.0)",-1.984005235051249,0.4689449986676629,11.494800035722442,"(0.0, 0.0, 0.0, 0.0, 0.0, 0.0)",-0.26667886541975433,False,,,,,False,,,,
37,Close,,,"(3.1131510586280866e-07, 0.1699992121070205, 0.0005226007520893923)","(1.5706964879884222, 0.0002806415891397876, -1.1307759452448239e-05)",,"[-0.026750000193715096, 0.05299999937415123, 0.03999999910593033]","[0.0, -0.0, 1.0286429345076582]","[-0.0884251669049263, 0.09015069156885147, 0.03999999910593033]","[0.0, -0.0, 0.5596916647508587]","[0.026750000193715096, 0.05299999937415123, 0.03999999910593033]","[0.0, 0.0, -1.0286435120859125]","[0.08842518925666809, 0.09015065431594849, 0.03999999910593033]","[0.0, 0.0, -0.5596984028120249]",0.9857786282275423,-10.287430086067793,"(0.0, 0.0, 0.0, 0.0, 0.0, 0.0)",1.787161045327472,-0.5120561765231523,-10.345168626224153,"(0.0, 0.0, 0.0, 0.0, 0.0, 0.0)",0.24107512437447856,-0.9857790838840517,10.28744223690805,"(0.0, 0.0, 0.0, 0.0, 0.0, 0.0)",-1.787164701188607,0.5120504988015524,10.345320032133483,"(0.0, 0.0, 0.0, 0.0, 0.0, 0.0)",-0.24107695935135354,False,,,,,False,,,,
38,Close,,,"(3.0991842655903425e-07, 0.169999153087261, 0.0005600347082356065)","(1.570772558536085, 0.00032764712563817383, -1.5390013302753274e-05)",,"[-0.026750000193715096, 0.05299999937415123, 0.03999999910593033]","[0.0, -0.0, 0.9857786218799983]","[-0.08677656948566437, 0.09275941550731659, 0.03999999910593033]","[0.0, -0.0, 0.4737224893055005]","[0.026750000193715096, 0.05299999937415123, 0.03999999910593033]","[0.0, 0.0, -0.9857791586690391]","[0.08677658438682556, 0.0927593931555748, 0.03999999910593033]","[0.0, 0.0, -0.47372859204714834]",0.9472007654041954,-9.258687077603232,"(0.0, 0.0, 0.0, 0.0, 0.0, 0.0)",1.6097085175776904,-0.550850558870837,-9.310651763444346,"(0.0, 0.0, 0.0, 0.0, 0.0, 0.0)",0.21783104241587867,-0.9472011754950539,9.258698013359455,"(0.0, 0.0, 0.0, 0.0, 0.0, 0.0)",-1.609711822487034,0.5508454489213972,9.310788028762744,"(0.0, 0.0, 0.0, 0.0, 0.0, 0.0)",-0.21783270758412676,False,,,,,False,,,,
39,Close,,,"(4.0106165104263135e-07, 0.169999026405202, 0.0005944331352702725)","(1.570848092729261, 0.0003750986118602944, -1.4060502423520339e-05)",,"[-0.026750000193715096, 0.05299999937415123, 0.03999999910593033]","[0.0, -0.0, 0.9472008140782049]","[-0.08519845455884933, 0.09504495561122894, 0.03999999910593033]","[0.0, -0.0, 0.39635019782230363]","[0.026750000193715096, 0.05299999937415123, 0.03999999910593033]","[0.0, 0.0, -0.9472011867132297]","[0.08519846946001053, 0.09504493325948715, 0.03999999910593033]","[0.0, 0.0, -0.3963557154153113]",0.9124806888632406,-8.332818369829143,"(0.0, 0.0, 0.0, 0.0, 0.0, 0.0)",1.4497611633824499,-0.5857655029837533,-8.379586587099913,"(0.0, 0.0, 0.0, 0.0, 0.0, 0.0)",0.19674731686213875,-0.9124810579450133,8.332828212009746,"(0.0, 0.0, 0.0, 0.0, 0.0, 0.0)",-1.4497641496546352,0.5857609040292575,8.379709225886469,"(0.0, 0.0, 0.0, 0.0, 0.0, 0.0)",-0.1967488266016999,False,,,,,False,,,,
40,Close,,,"(3.70657372146465e-07, 0.16999903038777142, 0.0006260749884053443)","(1.5708440552876382, 0.00034508120830118214, -1.4055585689260766e-05)",,"[-0.026750000193715096, 0.05299999937415123, 0.03999999910593033]","[0.0, -0.0, 0.9124807402838544]","[-0.08370371162891388, 0.09704854339361191, 0.03999999910593033]","[0.0, -0.0, 0.32671521193417863]","[0.026750000193715096, 0.05299999937415123, 0.03999999910593033]","[0.0, 0.0, -0.9124811663733811]","[0.08370373398065567, 0.09704852104187012, 0.03999999910593033]","[0.0, 0.0, -0.32672018954414506]",0.8812326199769166,-7.499536532717775,"(0.0, 0.0, 0.0, 0.0, 0.0, 0.0)",1.3056085801322186,-0.6171891619197363,-7.541678144635914,"(0.0, 0.0, 0.0, 0.0, 0.0, 0.0)",0.17763358199117588,-0.881232952150512,7.499545390680321,"(0.0, 0.0, 0.0, 0.0, 0.0, 0.0)",-1.305611277336412,0.617185022862301,7.541788519930457,"(0.0, 0.0, 0.0, 0.0, 0.0, 0.0)",-0.17763494969582577,False,,,,,False,,,,
41,Close,,,"(3.427044292909036e-07, 0.1699990340506735, 0.0006551854712062516)","(1.5708403346470328, 0.0003174583455114455, -1.4051356821419932e-05)",,"[-0.026750000193715096, 0.05299999937415123, 0.03999999910593033]","[0.0, -0.0, 0.8812326035131218]","[-0.08229970186948776, 0.09880644828081131, 0.03999999910593033]","[0.0, -0.0, 0.26404346611112495]","[0.026750000193715096, 0.05299999937415123, 0.03999999910593033]","[0.0, 0.0, -0.8812328730718287]","[0.08229971677064896, 0.09880642592906952, 0.03999999910593033]","[0.0, 0.0, -0.2640479150919315]",0.8531093579792249,-6.749582879446001,"(0.0, 0.0, 0.0, 0.0, 0.0, 0.0)",1.1757252455852583,-0.6454704345862542,-6.78750543996429,"(0.0, 0.0, 0.0, 0.0, 0.0, 0.0)",0.16033509317806058,-0.8531096569354608,6.7495908516122896,"(0.0, 0.0, 0.0, 0.0, 0.0, 0.0)",-1.1757276808922346,0.645466709436021,6.787604777692787,"(0.0, 0.0, 0.0, 0.0, 0.0, 0.0)",-0.16033633143309114,False,,,,,False,,,,
42,Close,,,"(3.170084497545684e-07, 0.16999903740907119, 0.0006819671107693073)","(1.570836911771951, 0.00029204530032808255, -1.4047683015968837e-05)",,"[-0.026750000193715096, 0.05299999937415123, 0.03999999910593033]","[0.0, -0.0, 0.8531093567174074]","[-0.08098968118429184, 0.10035036504268646, 0.03999999910593033]","[0.0, -0.0, 0.2076389231904772]","[0.026750000193715096, 0.05299999937415123, 0.03999999910593033]","[0.0, 0.0, -0.8531096230941355]","[0.08098969608545303, 0.10035035014152527, 0.03999999910593033]","[0.0, 0.0, -0.2076429742570099]",0.8277984221813024,-6.0746245915014,"(0.0, 0.0, 0.0, 0.0, 0.0, 0.0)",1.0586966037970245,-0.6709235615380169,-6.1087504684230565,"(0.0, 0.0, 0.0, 0.0, 0.0, 0.0)",0.14467321668423558,-0.8277986912419147,6.074631766451059,"(0.0, 0.0, 0.0, 0.0, 0.0, 0.0)",-1.0586988018726124,0.6709202089041267,6.108839872345364,"(0.0, 0.0, 0.0, 0.0, 0.0, 0.0)",-0.14467433700617466,False,,,,,False,,,,
43,Close,,,"(2.93385406087929e-07, 0.16999904048782613, 0.0007066062149797113)","(1.5708337628331848, 0.0002686652895538331, -1.4044478861914954e-05)",,"[-0.026750000193715096, 0.05299999937415123, 0.03999999910593033]","[0.0, -0.0, 0.8277984323872327]","[-0.07977395504713058, 0.10170790553092957, 0.03999999910593033]","[0.0, -0.0, 0.15687485461046338]","[0.026750000193715096, 0.05299999937415123, 0.03999999910593033]","[0.0, 0.0, -0.8277987052452376]","[0.07977396249771118, 0.10170789808034897, 0.03999999910593033]","[0.0, 0.0, -0.15687847762667875]",0.8050185799631722,-5.467162132351259,"(0.0, 0.0, 0.0, 0.0, 0.0, 0.0)",0.9532674830029981,-0.6938313591081322,-5.497871416827678,"(0.0, 0.0, 0.0, 0.0, 0.0, 0.0)",0.1305069121449798,-0.8050188221177232,5.467168589805953,"(0.0, 0.0, 0.0, 0.0, 0.0, 0.0)",-0.9532694663734236,0.6938283417388244,5.49795188032743,"(0.0, 0.0, 0.0, 0.0, 0.0, 0.0)",-0.13050792520753388,False,,,,,False,,,,
44,Close,,,"(2.716665250887489e-07, 0.16999904330973556, 0.0007292741870466809)","(1.5708308659078907, 0.0002471556717650467, -1.4041672069322908e-05)",,"[-0.026750000193715096, 0.05299999937415123, 0.03999999910593033]","[0.0, -0.0, 0.8050185839979388]","[-0.07865073531866074, 0.10290304571390152, 0.03999999910593033]","[0.0, -0.0, 0.11118723016400785]","[0.026750000193715096, 0.05299999937415123, 0.03999999910593033]","[0.0, 0.0, -0.8050187952188965]","[0.07865074276924133, 0.10290303081274033, 0.03999999910593033]","[0.0, 0.0, -0.11119048022217565]",0.784516721966855,-4.920445919116134,"(0.0, 0.0, 0.0, 0.0, 0.0, 0.0)",0.8582975670224743,-0.7144483618360385,-4.948080654697517,"(0.0, 0.0, 0.0, 0.0, 0.0, 0.0)",0.11770004006048959,-0.784516939905951,4.92045173082536,"(0.0, 0.0, 0.0, 0.0, 0.0, 0.0)",-0.8582993561887614,0.7144456462047399,4.948153071819748,"(0.0, 0.0, 0.0, 0.0, 0.0, 0.0)",-0.11770095568272418,False,,,,,False,,,,
45,Close,,,"(2.51696986958339e-07, 0.1699990458957082, 0.0007501287178850499)","(1.5708282008276007, 0.000227366816649173, -1.4039201474218165e-05)",,"[-0.026750000193715096, 0.05299999937415123, 0.03999999910593033]","[0.0, -0.0, 0.7845167193080385]","[-0.07761679589748383, 0.10395654290914536, 0.03999999910593033]","[0.0, -0.0, 0.07006835685702544]","[0.026750000193715096, 0.05299999937415123, 0.03999999910593033]","[0.0, 0.0, -0.7845169946958266]","[0.07761680334806442, 0.10395653545856476, 0.03999999910593033]","[0.0, 0.0, -0.0700712989357174]",0.7660650497701694,-4.42840132720452,"(0.0, 0.0, 0.0, 0.0, 0.0, 0.0)",0.7727568402429666,-0.7330036506599046,-4.453269317727849,"(0.0, 0.0, 0.0, 0.0, 0.0, 0.0)",0.106127525293464,-0.7660652459153559,4.428406557742824,"(0.0, 0.0, 0.0, 0.0, 0.0, 0.0)",-0.7727584538402424,0.7330012065927102,4.453334493112861,"(0.0, 0.0, 0.0, 0.0, 0.0, 0.0)",-0.10612835248484857,False,,,,,False,,,,
46,Close,,,"(2.3333473952068603e-07, 0.16999904826492518, 0.0007693148831029557)","(1.5708257490378412, 0.00020916106414766092, -1.403701531280991e-05)",,"[-0.026750000193715096, 0.05299999937415123, 0.03999999910593033]","[0.0, -0.0, 0.7660649977175382]","[-0.07666795700788498, 0.10488639771938324, 0.03999999910593033]","[0.0, -0.0, 0.03306140223906952]","[0.026750000193715096, 0.05299999937415123, 0.03999999910593033]","[0.0, 0.0, -0.7660653079646047]","[0.07666796445846558, 0.10488638281822205, 0.03999999910593033]","[0.0, 0.0, -0.033064041138401834]",0.7494585447931524,-3.985561194484066,"(0.0, 0.0, 0.0, 0.0, 0.0, 0.0)",0.6957152666369016,-0.7497033982890566,-4.007939430996486,"(0.0, 0.0, 0.0, 0.0, 0.0, 0.0)",0.09567473522853766,-0.7494587213238203,3.985565901968542,"(0.0, 0.0, 0.0, 0.0, 0.0, 0.0)",-0.6957167215859875,0.7497011986294615,4.007998088820328,"(0.0, 0.0, 0.0, 0.0, 0.0, 0.0)",-0.09567548223716564,False,,,,,False,,,,
47,Close,,,"(2.1644941757498085e-07, 0.1699990504349868, 0.0007869661522299996)","(1.5708234934689855, 0.0001924117668631307, -1.4035069780186692e-05)",,"[-0.026750000193715096, 0.05299999937415123, 0.03999999910593033]","[0.0, -0.0, 0.7494586090384826]","[-0.07579945772886276, 0.10570816695690155, 0.03999999910593033]","[0.0, 0.0, -0.000244853492999894]","[0.026750000193715096, 0.05299999937415123, 0.03999999910593033]","[0.0, 0.0, -0.7494587081400255]","[0.07579946517944336, 0.10570815205574036, 0.03999999910593033]","[0.0, -0.0, 0.00024247731079752444]",0.7345126903138371,-3.587005075035659,"(0.0, 0.0, 0.0, 0.0, 0.0, 0.0)",0.626333365984163,-0.764733160038395,-3.6071428198412123,"(0.0, 0.0, 0.0, 0.0, 0.0, 0.0)",0.08623682787405348,-0.7345128491914382,3.587009311771688,"(0.0, 0.0, 0.0, 0.0, 0.0, 0.0)",-0.6263346776346612,0.7647311803455538,3.607195611862134,"(0.0, 0.0, 0.0, 0.0, 0.0, 0.0)",-0.08623750223625977,False,,,,,False,,,,
48,Close,,,"(1.9902478529523268e-07, 0.16999905216510106, 0.0008031506134026157)","(1.5708213694672628, 0.00017518801369688713, -1.4031269556480368e-05)",,"[-0.026750000193715096, 0.05299999937415123, 0.03999999910593033]","[0.0, -0.0, 0.7345126628086843]","[-0.07500623911619186, 0.10643533617258072, 0.03999999910593033]","[0.0, 0.0, -0.03022046980229406]","[0.026750000193715096, 0.05299999937415123, 0.03999999910593033]","[0.0, 0.0, -0.7345128981556924]","[0.07500624656677246, 0.10643532872200012, 0.03999999910593033]","[0.0, -0.0, 0.03021832986745902]",0.7210614212824534,-3.228304567532092,"(0.0, 0.0, 0.0, 0.0, 0.0, 0.0)",0.5638237707840803,-0.7782610712626786,-3.246698693828069,"(0.0, 0.0, 0.0, 0.0, 0.0, 0.0)",0.07768823801248652,-0.7210615642722944,3.2283083805945183,"(0.0, 0.0, 0.0, 0.0, 0.0, 0.0)",-0.5638249528147553,0.7782592895487316,3.2467462087626835,"(0.0, 0.0, 0.0, 0.0, 0.0, 0.0)",-0.07768884636877696,False,,,,,False,,,,
49,Close,,,"(1.829952775457341e-07, 0.16999905372445717, 0.0008180403399689366)","(1.5708194143492393, 0.00015934185659229473, -1.4027683329641553e-05)",,"[-0.026750000193715096, 0.05299999937415123, 0.03999999910593033]","[0.0, -0.0, 0.7210614193238458]","[-0.07428312301635742, 0.10707958787679672, 0.03999999910593033]","[0.0, 0.0, -0.05719964992344959]","[0.026750000193715096, 0.05299999937415123, 0.03999999910593033]","[0.0, 0.0, -0.7210615729227128]","[0.07428313046693802, 0.10707958042621613, 0.03999999910593033]","[0.0, -0.0, 0.05719773186848648]",0.7089552791542081,-2.905474110778883,"(0.0, 0.0, 0.0, 0.0, 0.0, 0.0)",0.5075985242705942,-0.7904360705014085,-2.921999817295172,"(0.0, 0.0, 0.0, 0.0, 0.0, 0.0)",0.07003713951344083,-0.7089554078450649,2.905477542535066,"(0.0, 0.0, 0.0, 0.0, 0.0, 0.0)",-0.5075995897946305,0.7904344669675306,2.9220425805117625,"(0.0, 0.0, 0.0, 0.0, 0.0, 0.0)",-0.07003768863744474,False,,,,,False,,,,
50,Close,,,"(1.682467379846132e-07, 0.1699990551245469, 0.0008317388481303276)","(1.570817615731277, 0.00014476218910829968, -1.4024269510216624e-05)",,"[-0.026750000193715096, 0.05299999937415123, 0.03999999910593033]","[0.0, -0.0, 0.7089552779168017]","[-0.07362496107816696, 0.10765105485916138, 0.03999999910593033]","[0.0, 0.0, -0.08148078223376223]","[0.026750000193715096, 0.05299999937415123, 0.03999999910593033]","[0.0, 0.0, -0.7089554724698194]","[0.07362496852874756, 0.10765104740858078, 0.03999999910593033]","[0.0, -0.0, 0.0814790502780401]",0.6980597512387873,-2.6149266997009946,"(0.0, 0.0, 0.0, 0.0, 0.0, 0.0)",0.45693917814201784,-0.8013934602632394,-2.6297735428394082,"(0.0, 0.0, 0.0, 0.0, 0.0, 0.0)",0.06310201359777694,-0.6980598670605584,2.614929788281559,"(0.0, 0.0, 0.0, 0.0, 0.0, 0.0)",-0.45694013827892466,0.8013920170905735,2.6298120295302843,"(0.0, 0.0, 0.0, 0.0, 0.0, 0.0)",-0.06310250889925509,False,,,,,False,,,,
51,Close,,,"(1.546756367802499e-07, 0.16999905637827734, 0.0008443414385910609)","(1.5708159610857961, 0.00013134778772512943, -1.402100024143693e-05)",,"[-0.026750000193715096, 0.05299999937415123, 0.03999999910593033]","[0.0, -0.0, 0.6980597686270504]","[-0.07302673906087875, 0.10815852880477905, 0.03999999910593033]","[0.0, 0.0, -0.10333370902653251]","[0.026750000193715096, 0.05299999937415123, 0.03999999910593033]","[0.0, 0.0, -0.6980598246378259]","[0.07302674651145935, 0.10815852135419846, 0.03999999910593033]","[0.0, -0.0, 0.10333215264877679]",0.6882537761149086,-2.3534340297308955,"(0.0, 0.0, 0.0, 0.0, 0.0, 0.0)",0.41132662822933225,-0.8112550122446371,-2.3667724755354502,"(0.0, 0.0, 0.0, 0.0, 0.0, 0.0)",0.056847326346645,-0.6882538803545026,2.353436809453404,"(0.0, 0.0, 0.0, 0.0, 0.0, 0.0)",-0.4113274932960819,0.8112537133962935,2.3668071133728046,"(0.0, 0.0, 0.0, 0.0, 0.0, 0.0)",-0.0568477730004364,False,,,,,False,,,,
52,Close,,,"(1.4218689550358636e-07, 0.1699990574974972, 0.0008559357877458743)","(1.5708144388885392, 0.00011900551991941484, -1.4017852050493115e-05)",,"[-0.026750000193715096, 0.05299999937415123, 0.03999999910593033]","[0.0, -0.0, 0.6882538042795985]","[-0.07248363643884659, 0.10860966145992279, 0.03999999910593033]","[0.0, 0.0, -0.12300123728040792]","[0.026750000193715096, 0.05299999937415123, 0.03999999910593033]","[0.0, 0.0, -0.688253900607872]","[0.07248364388942719, 0.1086096540093422, 0.03999999910593033]","[0.0, -0.0, 0.12299984676553348]",0.6794283985034177,-2.118090626757806,"(0.0, 0.0, 0.0, 0.0, 0.0, 0.0)",0.3702598465395096,-0.8201303199370257,-2.1300738461732434,"(0.0, 0.0, 0.0, 0.0, 0.0, 0.0)",0.051207533272865695,-0.6794284923190523,2.1180931285080637,"(0.0, 0.0, 0.0, 0.0, 0.0, 0.0)",-0.37026062586363284,0.8201291509798778,2.130105020060234,"(0.0, 0.0, 0.0, 0.0, 0.0, 0.0)",-0.051207935975855504,False,,,,,False,,,,
53,Close,,,"(1.3069318416839e-07, 0.16999905849308636, 0.0008666025576372722)","(1.5708130385376784, 0.00010764969663878531, -1.401480516953977e-05)",,"[-0.026750000193715096, 0.05299999937415123, 0.03999999910593033]","[0.0, -0.0, 0.6794284238724229]","[-0.07199108600616455, 0.10901110619306564, 0.03999999910593033]","[0.0, 0.0, -0.14070193198542613]","[0.026750000193715096, 0.05299999937415123, 0.03999999910593033]","[0.0, 0.0, -0.6794284800706577]","[0.07199109345674515, 0.10901109874248505, 0.03999999910593033]","[0.0, -0.0, 0.1407006814892172]",0.6714855586530759,-1.9062815640820263,"(0.0, 0.0, 0.0, 0.0, 0.0, 0.0)",0.33328720146674756,-0.82811801654313,-1.9170471854650495,"(0.0, 0.0, 0.0, 0.0, 0.0, 0.0)",0.0461231568532664,-0.6714856430871471,1.9062838156572566,"(0.0, 0.0, 0.0, 0.0, 0.0, 0.0)",-0.33328790347714454,0.8281169644874314,1.917075241812861,"(0.0, 0.0, 0.0, 0.0, 0.0, 0.0)",-0.04612351986457081,False,,,,,False,,,,
54,Close,,,"(1.201142787701026e-07, 0.1699990593750365, 0.0008764159571233717)","(1.5708117502799854, 9.720147739875066e-05, -1.4011842957469135e-05)",,"[-0.026750000193715096, 0.05299999937415123, 0.03999999910593033]","[0.0, -0.0, 0.6714856028191667]","[-0.07154478132724762, 0.10936867445707321, 0.03999999910593033]","[0.0, 0.0, -0.1566324602805662]","[0.026750000193715096, 0.05299999937415123, 0.03999999910593033]","[0.0, 0.0, -0.6714856028191667]","[0.07154478132724762, 0.10936867445707321, 0.03999999910593033]","[0.0, -0.0, 0.15663130155257995]",0.6643370027877683,-1.7156534076738226,"(0.0, 0.0, 0.0, 0.0, 0.0, 0.0)",0.30000166468946887,-0.8353068710937589,-1.7253250921509458,"(0.0, 0.0, 0.0, 0.0, 0.0, 0.0)",0.041540284771796165,-0.6643370787784324,1.7156554340915304,"(0.0, 0.0, 0.0, 0.0, 0.0, 0.0)",-0.3000022969997827,0.8353059242487986,1.725350342728124,"(0.0, 0.0, 0.0, 0.0, 0.0, 0.0)",-0.041540611950472935,False,,,,,False,,,,
55,Close,,,"(1.1037647424359984e-07, 0.16999906015252483, 0.0008854442581506275)","(1.5708105651429114, 8.758832292823178e-05, -1.4008951415989527e-05)",,"[-0.026750000193715096, 0.05299999937415123, 0.03999999910593033]","[0.0, -0.0, 0.6643370606126838]","[-0.07114068418741226, 0.1096874549984932, 0.03999999910593033]","[0.0, 0.0, -0.17096987637179278]","[0.026750000193715096, 0.05299999937415123, 0.03999999910593033]","[0.0, 0.0, -0.6643370606126838]","[0.07114069163799286, 0.1096874475479126, 0.03999999910593033]","[0.0, -0.0, 0.17096884643662202]",0.6579033025089914,-1.5440880669064398,"(0.0, 0.0, 0.0, 0.0, 0.0, 0.0)",0.2700364572532802,-0.8417767749452665,-1.5527769243618206,"(0.0, 0.0, 0.0, 0.0, 0.0, 0.0)",0.03741008611729049,-0.6579033709005891,1.5440898906823783,"(0.0, 0.0, 0.0, 0.0, 0.0, 0.0)",-0.27003702673818186,0.8417759227894597,1.5527996497586782,"(0.0, 0.0, 0.0, 0.0, 0.0, 0.0)",-0.03741038095743008,False,,,,,False,,,,
56,Close,,,"(1.0141204673652616e-07, 0.16999906083398159, 0.0008937502707232629)","(1.570809474872104, 7.87434915574051e-05, -1.4006118772737545e-05)",,"[-0.026750000193715096, 0.05299999937415123, 0.03999999910593033]","[0.0, -0.0, 0.6579033304946226]","[-0.07077505439519882, 0.10997187346220016, 0.03999999910593033]","[0.0, 0.0, -0.18387348897538708]","[0.026750000193715096, 0.05299999937415123, 0.03999999910593033]","[0.0, 0.0, -0.6579033304946226]","[0.07077506184577942, 0.10997187346220016, 0.03999999910593033]","[0.0, -0.0, 0.1838725619548152]",0.6521129722580923,-1.3896792602157946,"(0.0, 0.0, 0.0, 0.0, 0.0, 0.0)",0.24306111081870946,-0.8475996296201711,-1.3974851219770965,"(0.0, 0.0, 0.0, 0.0, 0.0, 0.0)",0.033688362136148925,-0.6521130338105302,1.38968090161414,"(0.0, 0.0, 0.0, 0.0, 0.0, 0.0)",-0.24306162368353448,0.8475988626841415,1.3975055747236533,"(0.0, 0.0, 0.0, 0.0, 0.0, 0.0)",-0.03368862779939208,False,,,,,False,,,,
57,Close,,,"(9.31587620256511e-08, 0.16999906142715163, 0.0009013917798737923)","(1.570808471873919, 7.060557585400826e-05, -1.4003335136779464e-05)",,"[-0.026750000193715096, 0.05299999937415123, 0.03999999910593033]","[0.0, -0.0, 0.6521129301518677]","[-0.07044443488121033, 0.11022583395242691, 0.03999999910593033]","[0.0, 0.0, -0.19548665573955404]","[0.026750000193715096, 0.05299999937415123, 0.03999999910593033]","[0.0, 0.0, -0.6521129866161153]","[0.07044444233179092, 0.11022583395242691, 0.03999999910593033]","[0.0, -0.0, 0.19548582525750646]",0.646901675032283,-1.2507113341942153,"(0.0, 0.0, 0.0, 0.0, 0.0, 0.0)",0.2187779064062842,-0.8528401458571484,-1.2577238968745574,"(0.0, 0.0, 0.0, 0.0, 0.0, 0.0)",0.03033513071724496,-0.6469017304294772,1.2507128114527255,"(0.0, 0.0, 0.0, 0.0, 0.0, 0.0)",-0.2187783682505172,0.8528394556185027,1.2577423042466835,"(0.0, 0.0, 0.0, 0.0, 0.0, 0.0)",-0.03033537006280305,False,,,,,False,,,,
58,Close,,,"(8.555942447331213e-08, 0.16999906193915107, 0.000908421947674647)","(1.5708075491625393, 6.311807629477444e-05, -1.4000592203169427e-05)",,"[-0.026750000193715096, 0.05299999937415123, 0.03999999910593033]","[0.0, -0.0, 0.6469017074975589]","[-0.0701456218957901, 0.11045276373624802, 0.03999999910593033]","[0.0, 0.0, -0.20593848593871938]","[0.026750000193715096, 0.05299999937415123, 0.03999999910593033]","[0.0, 0.0, -0.6469017640113621]","[0.0701456293463707, 0.11045276373624802, 0.03999999910593033]","[0.0, -0.0, 0.2059377054983325]",0.6422115075290548,-1.1256402007747932,"(0.0, 0.0, 0.0, 0.0, 0.0, 0.0)",0.19691865600140895,-0.8575565627499749,-1.1319400542783593,"(0.0, 0.0, 0.0, 0.0, 0.0, 0.0)",0.027314243362735774,-0.6422115573865295,1.1256415303074527,"(0.0, 0.0, 0.0, 0.0, 0.0, 0.0)",-0.19691907187647334,0.8575559415385998,1.1319566208232932,"(0.0, 0.0, 0.0, 0.0, 0.0, 0.0)",-0.027314458975022625,False,,,,,False,,,,
59,Move,,,"(7.856146500561274e-08, 0.16999906237651882, 0.0009148896830877347)","(1.5708067003113224, 5.6229009009845055e-05, -1.399788300299107e-05)","[0.0, 0.0, 0.0]","[-0.026750000193715096, 0.05299999937415123, 0.03999999910593033]","[0.0, -0.0, 0.6422115222668433]","[-0.06987567991018295, 0.11065566539764404, 0.03999999910593033]","[0.0, 0.0, -0.21534502689171695]","[0.026750000193715096, 0.05299999937415123, 0.03999999910593033]","[0.0, 0.0, -0.6422115222668433]","[0.06987568736076355, 0.11065565794706345, 0.03999999910593033]","[0.0, -0.0, 0.2153443918565048]",0.6379903567761492,-1.0130761806973148,"(0.0, 0.0, 0.0, 0.0, 0.0, 0.0)",0.17724179525373857,-0.861801294967015,-1.0187357320896053,"(0.0, 0.0, 0.0, 0.0, 0.0, 0.0)",0.024593033118920006,-0.6379904016478766,1.0130773772767077,"(0.0, 0.0, 0.0, 0.0, 0.0, 0.0)",-0.1772421697155535,0.8618007358798453,1.0187506418989196,"(0.0, 0.0, 0.0, 0.0, 0.0, 0.0)",-0.024593227332916724,False,,,,,False,,,,
60,Move,,,"(7.401516452493873e-08, 0.16999906300717518, 0.0009208949427311885)","(1.5708059692049072, 5.171406878091127e-05, -1.3997173418156156e-05)","[-4.546300480674002e-09, 6.306563604674409e-10, 6.005259643453772e-06]","[-0.026750000193715096, 0.05299999937415123, 0.03999999910593033]","[0.0, -0.0, 0.6379903239810443]","[-0.06963192671537399, 0.1108371913433075, 0.03999999910593033]","[0.0, 0.0, -0.2238109552587812]","[0.026750000193715096, 0.05299999937415123, 0.03999999910593033]","[0.0, 0.0, -0.6379904179642307]","[0.06963192671537399, 0.1108371838927269, 0.03999999910593033]","[0.0, -0.0, 0.22381033482023305]",0.615110639462399,-5.491132155300077,"(0.0, 0.0, 0.0, 0.0, 0.0, 0.0)",-6.452665348763696,-0.8613763884842398,0.10197755586604229,"(0.0, 0.0, 0.0, 0.0, 0.0, 0.0)",-0.36782542138199165,-0.6151107211023208,5.491123330933392,"(0.0, 0.0, 0.0, 0.0, 0.0, 0.0)",6.4526488408560905,0.8613758231880564,-0.10197904602934349,"(0.0, 0.0, 0.0, 0.0, 0.0, 0.0)",0.36782252911949487,False,,,,,False,,,,
61,Move,,,"(6.525734425186348e-05, 0.17034549853437667, 0.001059997142676121)","(1.5643418998519334, 0.00019756355969089426, -0.0007979474479338168)","[6.517878278685787e-05, 0.00034643615785784343, 0.00014510745958838623]","[-0.026750000193715096, 0.05299999937415123, 0.03999999910593033]","[0.0, -0.0, 0.6151107619663475]","[-0.06829752027988434, 0.1118030920624733, 0.03999999910593033]","[0.0, 0.0, -0.24626574387408112]","[0.026750000193715096, 0.05299999937415123, 0.03999999910593033]","[0.0, 0.0, -0.6151107619663475]","[0.06829752773046494, 0.1118030920624733, 0.03999999910593033]","[0.0, -0.0, 0.24626510812228053]",0.59557520589455,-4.68850405628373,"(0.0, 0.0, 0.0, 0.0, 0.0, 0.0)",-45.004877301260535,-0.841587039207075,4.749443826519566,"(0.0, 0.0, 0.0, 0.0, 0.0, 0.0)",-23.059879711313982,-0.5955448471476087,4.6958097491309045,"(0.0, 0.0, 0.0, 0.0, 0.0, 0.0)",43.2331221848827,0.8422035798107438,-4.601338410555013,"(0.0, 0.0, 0.0, 0.0, 0.0, 0.0)",22.069611273367745,True,"(-0.03288698015965098, 0.18306432161630465, 0.039999948285931244)","(0.9999999985648672, -1.399717339714095e-05, -5.171406875791205e-05)",0.0009292587523792685,356.63318049990795,True,"(0.032887031061809374, 0.18306436848012048, 0.04000005171406876)","(-0.9999999985648671, 1.3997173395198976e-05, 5.171406875668148e-05)",0.0009247539911204204,342.7710504396539
62,Move,"(0.0, 0.0, 0.0)","(0.0, -0.0, 0.0)","(0.00016176697229314485, 0.17076934431250207, 0.001298992481510786)","(1.553459115144406, 0.0004787126916021603, -0.0016283617000435679)","[0.00016168841082813925, 0.0007702819359832469, 0.0003841027984230513]","[-0.026750000193715096, 0.05299999937415123, 0.03999999910593033]","[0.0, -0.0, 0.5955751094143519]","[-0.06714092195034027, 0.11260347068309784, 0.03999999910593033]","[0.0, 0.0, -0.24601185159459507]","[0.026750000193715096, 0.05299999937415123, 0.03999999910593033]","[0.0, 0.0, -0.5955448282145998]","[0.06713911145925522, 0.11260469257831573, 0.03999999910593033]","[0.0, -0.0, 0.24665872904210193]",0.5770970782178444,-4.434750642409365,"(0.0, 0.0, 0.0, 0.0, 0.0, 0.0)",-74.21698749878065,-0.811850997818181,7.136649933334551,"(0.0, 0.0, 0.0, 0.0, 0.0, 0.0)",-37.92588619525253,-0.5770027641966642,4.450099908226674,"(0.0, 0.0, 0.0, 0.0, 0.0, 0.0)",71.59541053355323,0.8135423707664626,-6.878690170627483,"(0.0, 0.0, 0.0, 0.0, 0.0, 0.0)",36.485404729774935,True,"(-0.03174847742362094, 0.1838726496858637, 0.03999980243644159)","(0.9999996621242782, -0.0007979473476813144, -0.0001975635584110712)",-0.00012778812911608492,569.3446982775357,True,"(0.031700570614753176, 0.18385320841010633, 0.0400001975635584)","(-0.9999996621242783, 0.0007979473476767542, 0.0001975635584049517)",-0.0003431682129125587,549.2893233704585
63,Move,"(0.0, 0.0, 0.0)","(0.0, -0.0, 0.0)","(0.00020568050408397375, 0.17108007690663649, 0.0015665957858292871)","(1.5453980212159237, 0.00011151380297923225, -0.0017071234802152205)","[0.00020560194261896815, 0.0010810145301176632, 0.0006517061027415524]","[-0.026750000193715096, 0.05299999937415123, 0.03999999910593033]","[0.0, -0.0, 0.5770971029289548]","[-0.06603273004293442, 0.11333960294723511, 0.03999999910593033]","[0.0, 0.0, -0.23475391897699402]","[0.026750000193715096, 0.05299999937415123, 0.03999999910593033]","[0.0, 0.0, -0.5770027543990871]","[0.06602703779935837, 0.11334330588579178, 0.03999999910593033]","[0.0, -0.0, 0.23653961426052006]",0.579404895675538,0.5538761898464655,"(0.0, 0.0, 0.0, 0.0, 0.0, 0.0)",6.4633983195225495,-0.8148246019570704,-0.7136649933334551,"(0.0, 0.0, 0.0, 0.0, 0.0, 0.0)",-0.3132438216507522,-0.5792909153140746,-0.5491562681785016,"(0.0, 0.0, 0.0, 0.0, 0.0, 0.0)",-6.16852739973914,0.8163981315451861,0.6853825868936365,"(0.0, 0.0, 0.0, 0.0, 0.0, 0.0)",0.4843271556067679,True,"(-0.03144479909141533, 0.18499061278782541, 0.039999521287326686)","(0.9999985596366134, -0.0016283607938474471, -0.0004787126733201028)",-0.00031179486038545077,0.0,True,"(0.0313112124765586, 0.1849374824167095, 0.040000478712673315)","(-0.9999985596366132, 0.0016283607938671909, 0.0004787126733090728)",-0.0008521962835819142,2.606367117194445
64,Move,"(-0.00025, 0.0, -0.00054)","(0.0, 0.01751786970226709, 0.0)","(0.0002286301636098697, 0.1713253442528434, 0.0017817810741192494)","(1.5389812495376074, -0.000511554387002508, -0.0015041162679156222)","[0.0002285516021448641, 0.001326281876324581, 0.0008668913910315147]","[-0.026750000193715096, 0.05299999937415123, 0.03999999910593033]","[0.0, -0.0, 0.579404963823502]","[-0.06617187708616257, 0.1132487803697586, 0.03999999910593033]","[0.0, 0.0, -0.23541970778940716]","[0.026750000193715096, 0.05299999937415123, 0.03999999910593033]","[0.0, 0.0, -0.5792908612503161]","[0.0661650076508522, 0.11325327306985855, 0.03999999910593033]","[0.0, -0.0, 0.23710723316040327]",0.5797513740576465,0.08315481170606276,"(0.0, 0.0, 0.0, 0.0, 0.0, 0.0)",-0.6050371588525649,-0.8145272415431815,0.0713664993333446,"(0.0, 0.0, 0.0, 0.0, 0.0, 0.0)",0.03442143396704877,-0.5795726203959736,-0.06760921965573785,"(0.0, 0.0, 0.0, 0.0, 0.0, 0.0)",0.7665056913582627,0.8161098046097013,-0.06919846451636869,"(0.0, 0.0, 0.0, 0.0, 0.0, 0.0)",0.05385507678343228,True,"(-0.03153624923514486, 0.18487733778001617, 0.039999888486197246)","(0.9999985366474105, -0.001707122640433851, -0.00011151380275540046)",-0.00019027644015300206,0.0,True,"(0.031408552968427136, 0.18482838253269274, 0.04000011151380275)","(-0.9999985366474103, 0.0017071226404405677, 0.0001115138027507468)",-0.000784928296535469,1.0848258206781705
65,Move,"(-0.00029, 0.0, -0.00044000000000000007)","(0.0, -0.0, 0.0)","(0.00022445630064935333, 0.17148816859753324, 0.001935365066342089)","(1.534517088289098, -0.0004787098891317005, 7.730946529413498e-05)","[0.00022437773918434773, 0.001489106221014419, 0.0010204753832543543]","[-0.026750000193715096, 0.05299999937415123, 0.03999999910593033]","[0.0, -0.0, 0.5797513227663355]","[-0.06619274616241455, 0.11323511600494385, 0.03999999910593033]","[0.0, 0.0, -0.23477587649959936]","[0.026750000193715096, 0.05299999937415123, 0.03999999910593033]","[0.0, 0.0, -0.5795726052946306]","[0.066181980073452, 0.11324217170476913, 0.03999999910593033]","[0.0, -0.0, 0.23653717420671178]",0.5799242988374305,0.041501947148144876,"(0.0, 0.0, 0.0, 0.0, 0.0, 0.0)",-0.3275455943666359,-0.8143551665204549,0.041298005454379574,"(0.0, 0.0, 0.0, 0.0, 0.0, 0.0)",-0.16227741434265466,-0.5796833112274432,-0.026565799552715263,"(0.0, 0.0, 0.0, 0.0, 0.0, 0.0)",0.7243119861522178,0.8158787526644404,-0.05545246686259412,"(0.0, 0.0, 0.0, 0.0, 0.0, 0.0)",0.3997019933302831,True,"(-0.03160324687828937, 0.18488551941779136, 0.040000511554364696)","(0.999998737973545, -0.0015041155039720849, 0.0005115543646937556)",-0.0001273172082404877,2.0066447769564437,True,"(0.0314663294688103, 0.18483630435861093, 0.039999488445635306)","(-0.999998737973545, 0.0015041155039789739, -0.0005115543647008311)",-0.0007231109159374579,5.057241997074346
66,Move,"(-0.00038, 0.0, -0.00068)","(0.0, 0.01751786970226709, 0.0)","(0.00021378737592945603, 0.17158907323813669, 0.0020359853117217362)","(1.5317318494217582, -0.00044656973231828144, 0.001469619908727731)","[0.00021370881446445043, 0.0015900108616178632, 0.0011210956286340015]","[-0.026750000193715096, 0.05299999937415123, 0.03999999910593033]","[0.0, -0.0, 0.579924217162648]","[-0.06620316207408905, 0.11322829872369766, 0.03999999910593033]","[0.0, 0.0, -0.23443084946008458]","[0.026750000193715096, 0.05299999937415123, 0.03999999910593033]","[0.0, 0.0, -0.5796832706976349]","[0.06618864834308624, 0.11323780566453934, 0.03999999910593033]","[0.0, -0.0, 0.23619546110252818]",0.5802945065461311,0.08884985008815427,"(0.0, 0.0, 0.0, 0.0, 0.0, 0.0)",0.06455553547052452,-0.8143723740227276,-0.004129800545436879,"(0.0, 0.0, 0.0, 0.0, 0.0, 0.0)",0.00021193521857279475,-0.5798558396210922,-0.04140681447575476,"(0.0, 0.0, 0.0, 0.0, 0.0, 0.0)",0.20646799403137986,0.8158547522164744,-0.005760107511844491,"(0.0, 0.0, 0.0, 0.0, 0.0, 0.0)",0.13626893314813213,True,"(-0.03163838318013237, 0.1848918634210615, 0.040000478709870856)","(0.9999998824300467, 7.730945634358673e-05, 0.00047870987085395645)",-0.00011642183210772707,0.0,True,"(0.03149746457152392, 0.18484187570578317, 0.039999521290129146)","(-0.9999998824300469, -7.730945635149461e-05, -0.00047870987084809965)",-0.0006677405395255995,1.70129865122585
67,Move,"(-0.00032, 0.0, -0.0005700000000000001)","(0.0, -0.0, 0.0)","(0.00020646727050646185, 0.17163295067794954, 0.0020840760860515208)","(1.5306084431237297, -0.000420218365218101, 0.0022532848412232568)","[0.00020638870904145625, 0.0016338883014307137, 0.001169186402963786]","[-0.026750000193715096, 0.05299999937415123, 0.03999999910593033]","[0.0, -0.0, 0.5802945548364492]","[-0.06622546166181564, 0.1132136881351471, 0.03999999910593033]","[0.0, 0.0, -0.23407786661524396]","[0.026750000193715096, 0.05299999937415123, 0.03999999910593033]","[0.0, 0.0, -0.5798559135718319]","[0.06619904190301895, 0.11323099583387375, 0.03999999910593033]","[0.0, -0.0, 0.23599892107668052]",0.5806195127506787,0.0780014890914096,"(0.0, 0.0, 0.0, 0.0, 0.0, 0.0)",-0.01540880348575648,-0.8143706532725002,0.0004129800545431559,"(0.0, 0.0, 0.0, 0.0, 0.0, 0.0)",-0.0006889412112464266,-0.5800712417193737,-0.051696503587556286,"(0.0, 0.0, 0.0, 0.0, 0.0, 0.0)",0.1717266282364141,0.8158087082965301,-0.011050540786630843,"(0.0, 0.0, 0.0, 0.0, 0.0, 0.0)",0.10902199832027752,True,"(-0.031685977835060095, 0.1848904896478566, 0.04000044656971748)","(0.9999988203967028, 0.0014696192331792484, 0.0004465697174776872)",-9.677340298179269e-05,0.0,True,"(0.0315219307091176, 0.18484029811937913, 0.03999955343028252)","(-0.9999988203967027, -0.001469619233172647, -0.00044656971747842244)",-0.0006154651519440303,1.4307448759336545
68,Move,"(-0.00027, 0.0, -0.00049)","(0.0, -0.0, 0.0)","(0.00019886071933109678, 0.17164071262820813, 0.0020819785043640726)","(1.5310835045890958, -0.0004104896256517012, 0.0024192616868821413)","[0.00019878215786609118, 0.0016416502516893028, 0.0011670888212763379]","[-0.026750000193715096, 0.05299999937415123, 0.03999999910593033]","[0.0, -0.0, 0.5806195164675569]","[-0.06624502688646317, 0.11320085823535919, 0.03999999910593033]","[0.0, 0.0, -0.23375115913385563]","[0.026750000193715096, 0.05299999937415123, 0.03999999910593033]","[0.0, 0.0, -0.5800712148896308]","[0.0662120133638382, 0.11322250217199326, 0.03999999910593033]","[0.0, -0.0, 0.23573745316245046]",0.5810426021888963,0.10154146517221196,"(0.0, 0.0, 0.0, 0.0, 0.0, 0.0)",0.03453290800537005,-0.814370825347523,-4.1298005455381315e-05,"(0.0, 0.0, 0.0, 0.0, 0.0, 0.0)",0.0025300048227998523,-0.580280753001612,-0.05028270773716173,"(0.0, 0.0, 0.0, 0.0, 0.0, 0.0)",0.3664304617272533,0.8157148665451835,-0.022522020323157914,"(0.0, 0.0, 0.0, 0.0, 0.0, 0.0)",0.18661877473919217,True,"(-0.031728967072098886, 0.1848893947893721, 0.04000042021835285)","(0.9999973730632744, 0.002253282735511241, 0.00042021835285078156)",-7.045239886873148e-05,0.0,True,"(0.03155362862588306, 0.18483981795158916, 0.03999957978164714)","(-0.9999973730632745, -0.002253282735520467, -0.00042021835285561737)",-0.0005672285838852135,2.7621933847150117
69,Move,"(-0.00033, 0.0, -0.00063)","(0.0, 0.01751786970226709, 0.0)","(0.00019833426964279072, 0.17163599933118398, 0.0020322145192227647)","(1.533090707206848, -0.0004218195297005837, 0.0024115513143233283)","[0.00019825570817778512, 0.001636936954665158, 0.00111732483613503]","[-0.026750000193715096, 0.05299999937415123, 0.03999999910593033]","[0.0, -0.0, 0.5810425945097387]","[-0.06627049297094345, 0.1131841391324997, 0.03999999910593033]","[0.0, 0.0, -0.23332824964720503]","[0.026750000193715096, 0.05299999937415123, 0.03999999910593033]","[0.0, 0.0, -0.5802807843292056]","[0.06622462719678879, 0.11321423202753067, 0.03999999910593033]","[0.0, -0.0, 0.23543409431588258]",0.5814702735587544,0.10264112876594568,"(0.0, 0.0, 0.0, 0.0, 0.0, 0.0)",0.0016449749265238704,-0.8143708081400207,4.129800546870399e-06,"(0.0, 0.0, 0.0, 0.0, 0.0, 0.0)",0.0001274570018583463,-0.5805240496028552,-0.058391184298386516,"(0.0, 0.0, 0.0, 0.0, 0.0, 0.0)",0.21536933137926617,0.8156249984526993,-0.021568342196226088,"(0.0, 0.0, 0.0, 0.0, 0.0, 0.0)",0.11194309570585577,True,"(-0.03178475463777912, 0.18488701356286122, 0.04000041048961413)","(0.9999969893372539, 0.0024192591231374087, 0.00041048961412825844)",-2.4091480447603678e-05,0.0,True,"(0.03158797299919509, 0.1848415899949904, 0.039999589510385875)","(-0.9999969893372539, -0.0024192591231465927, -0.00041048961412442156)",-0.0005234802824344034,1.7117921062042223
70,Move,"(-0.00030000000000000003, 0.0, -0.0005600000000000001)","(0.0, -0.0, 0.0)","(0.0001981546432731921, 0.1716281148564632, 0.0019320540515085436)","(1.5366745220749063, -0.0004112715646843252, 0.0024077558015405203)","[0.0001980760818081865, 0.0016290524799443817, 0.001017164368420809]","[-0.026750000193715096, 0.05299999937415123, 0.03999999910593033]","[0.0, -0.0, 0.5814703082237774]","[-0.06629622727632523, 0.11316723376512527, 0.03999999910593033]","[0.0, 0.0, -0.23290052003338554]","[0.026750000193715096, 0.05299999937415123, 0.03999999910593033]","[0.0, 0.0, -0.5805240716717046]","[0.06623928248882294, 0.11320462822914124, 0.03999999910593033]","[0.0, -0.0, 0.2351009709275525]",0.5818228840990799,0.08462652967813966,"(0.0, 0.0, 0.0, 0.0, 0.0, 0.0)",-0.026425283075458723,-0.8143708098607709,-4.129800554864005e-07,"(0.0, 0.0, 0.0, 0.0, 0.0, 0.0)",-0.0019714805720058245,-0.5807870773270728,-0.06312665381222642,"(0.0, 0.0, 0.0, 0.0, 0.0, 0.0)",0.10108961449787753,0.8155867993162028,-0.009167792759155687,"(0.0, 0.0, 0.0, 0.0, 0.0, 0.0)",0.05458910528544355,True,"(-0.03184115856940574, 0.18488441347673162, 0.04000042181951719)","(0.9999970032459405, 0.002411548762345206, 0.00042181951718850826)",3.143270817968682e-05,0.0,True,"(0.03162648811412115, 0.18484319445194058, 0.039999578180482796)","(-0.9999970032459405, -0.0024115487623491776, -0.00042181951719798163)",-0.0004840743566938285,0.8047505603421091
71,Move,"(-0.00027, 0.0, -0.0005)","(0.0, -0.0, 0.0)","(0.00019776686615589185, 0.17161733401469692, 0.0017832897650868979)","(1.541817578466615, -0.000417909631273445, 0.0024011037727249118)","[0.00019768830469088625, 0.0016182716381780982, 0.0008684000819991632]","[-0.026750000193715096, 0.05299999937415123, 0.03999999910593033]","[0.0, -0.0, 0.5818229473368881]","[-0.06631743907928467, 0.11315328627824783, 0.03999999910593033]","[0.0, 0.0, -0.23254791922749968]","[0.026750000193715096, 0.05299999937415123, 0.03999999910593033]","[0.0, 0.0, -0.5807871239538723]","[0.0662551149725914, 0.11319423466920853, 0.03999999910593033]","[0.0, -0.0, 0.2347997274073375]",0.5822393032027688,0.09994058488535808,"(0.0, 0.0, 0.0, 0.0, 0.0, 0.0)",0.022506436116278727,-0.8143708096886959,4.1298005015733e-08,"(0.0, 0.0, 0.0, 0.0, 0.0, 0.0)",0.0016789972352756835,-0.5809960612209291,-0.05015613452550017,"(0.0, 0.0, 0.0, 0.0, 0.0, 0.0)",0.2056000998191342,0.8155097202990356,-0.018498964120149484,"(0.0, 0.0, 0.0, 0.0, 0.0, 0.0)",0.09515209942001435,True,"(-0.03188766103676859, 0.18488225361938218, 0.04000041127155308)","(0.9999970167854968, 0.0024077532715072497, 0.00041127155307716805)",7.815164402545153e-05,0.0,True,"(0.03166390393235731, 0.18484293121574388, 0.0399995887284469)","(-0.9999970167854969, -0.002407753271498378, -0.000411271553099437)",-0.00044686965734602263,1.4150743827587713
72,Move,"(-0.00023999999999999998, 0.0, -0.00046)","(0.0, -0.0, 0.0)","(0.00019754767824411952, 0.17160444361673907, 0.0015847349950908834)","(1.5485331706695005, -0.00041533198422708765, 0.002396247890251331)","[0.00019746911677911392, 0.0016053812402202494, 0.0006698453120031487]","[-0.026750000193715096, 0.05299999937415123, 0.03999999910593033]","[0.0, -0.0, 0.5822392997985776]","[-0.06634248793125153, 0.11313680559396744, 0.03999999910593033]","[0.0, 0.0, -0.2321314984560191]","[0.026750000193715096, 0.05299999937415123, 0.03999999910593033]","[0.0, 0.0, -0.5809962023726473]","[0.06626769155263901, 0.11318597942590714, 0.03999999910593033]","[0.0, -0.0, 0.2345136834852298]",0.5826339241741108,0.09470903312204726,"(0.0, 0.0, 0.0, 0.0, 0.0, 0.0)",-0.007656402575224129,-0.8143708097059034,-4.1298005015733e-09,"(0.0, 0.0, 0.0, 0.0, 0.0, 0.0)",-0.0005709840504439365,-0.5812047852109123,-0.050093757595984105,"(0.0, 0.0, 0.0, 0.0, 0.0, 0.0)",0.13505096480099063,0.8154583681277968,-0.012324521097301415,"(0.0, 0.0, 0.0, 0.0, 0.0, 0.0)",0.06869825204057026,True,"(-0.03194257778934419, 0.1848796797008187, 0.04000041790961911)","(0.9999970300277443, 0.0024011012558719136, 0.00041790961911400697)",0.00013243447043831234,0.0,True,"(0.03169698077941424, 0.18484428688912025, 0.03999958209038091)","(-0.9999970300277443, -0.0024011012558759017, -0.00041790961909529163)",-0.00041314861798629415,1.0131728457994318
73,Move,"(-0.00028000000000000003, 0.0, -0.00055)","(0.0, 0.01751786970226709, 0.0)","(0.000197396223546032, 0.17159029577227533, 0.0013363619471219626)","(1.5568299614706074, -0.0004097857441304583, 0.0023919740936377294)","[0.0001973176620810264, 0.0015912333957565084, 0.00042147226403422785]","[-0.026750000193715096, 0.05299999937415123, 0.03999999910593033]","[0.0, -0.0, 0.5826339120852814]","[-0.06636621803045273, 0.11312117427587509, 0.03999999910593033]","[0.0, 0.0, -0.23173687328450407]","[0.026750000193715096, 0.05299999937415123, 0.03999999910593033]","[0.0, 0.0, -0.5812047897809882]","[0.06628025323152542, 0.11317773163318634, 0.03999999910593033]","[0.0, -0.0, 0.23425358848637207]",0.5830010992077457,0.08812200807238747,"(0.0, 0.0, 0.0, 0.0, 0.0, 0.0)",-0.009647943273647637,-0.8143708097041826,4.1297898434322633e-10,"(0.0, 0.0, 0.0, 0.0, 0.0, 0.0)",-0.0007195508830149469,-0.5813990228889313,-0.04661704272454972,"(0.0, 0.0, 0.0, 0.0, 0.0, 0.0)",0.12319944651986593,0.8154117041657218,-0.011199350897990928,"(0.0, 0.0, 0.0, 0.0, 0.0, 0.0)",0.06034053540765641,True,"(-0.0319946188316446, 0.1848772208562107, 0.04000041533197229)","(0.9999970427493182, 0.002396245390364601, 0.0004153319722869217)",0.00018431202924312719,0.0,True,"(0.031728180540740614, 0.1848447706624988, 0.03999958466802772)","(-0.9999970427493183, -0.00239624539035644, -0.0004153319722824042)",-0.0003817775823397732,0.8901611440247497
74,Move,"(-0.00026, 0.0, -0.00051)","(0.0, -0.0, 0.0)","(0.0001973965531416409, 0.17157604385327915, 0.0010375055598619988)","(1.5667240011756856, -0.00039442298630885085, 0.0023894566602244718)","[0.0001973179916766353, 0.0015769814767603307, 0.00012261587677426405]","[-0.026750000193715096, 0.05299999937415123, 0.03999999910593033]","[0.0, -0.0, 0.5830010636236993]","[-0.06638828665018082, 0.1131066232919693, 0.03999999910593033]","[0.0, 0.0, -0.23136969170186977]","[0.026750000193715096, 0.05299999937415123, 0.03999999910593033]","[0.0, 0.0, -0.5813990015418231]","[0.066291943192482, 0.11317005008459091, 0.03999999910593033]","[0.0, -0.0, 0.234012687027688]",0.5832700786352262,0.06455506259532216,"(0.0, 0.0, 0.0, 0.0, 0.0, 0.0)",-0.034580876030616964,-0.8143708097043547,-4.129763198079672e-11,"(0.0, 0.0, 0.0, 0.0, 0.0, 0.0)",-0.002579419523626108,-0.5815928003141433,-0.046506582050875475,"(0.0, 0.0, 0.0, 0.0, 0.0, 0.0)",0.07042556035674181,0.8153853417553626,-0.0063269784862088636,"(0.0, 0.0, 0.0, 0.0, 0.0, 0.0)",0.03595675453495979,True,"(-0.03204303954038029, 0.18487491482598, 0.040000409785732674)","(0.999997055269395, 0.0023919716118348893, 0.00040978573267224587)",0.00023272122892583746,0.0,True,"(0.03175713482333511, 0.18484517620688767, 0.03999959021426734)","(-0.999997055269395, -0.0023919716118373725, -0.0004097857326597724)",-0.0003528045868793937,0.5262069337634357
75,Move,"(-0.00023999999999999998, 0.0, -0.00047999999999999996)","(0.0, -0.0, 0.0)","(0.00012978056442785734, 0.17164055555167157, 0.0009645430422427606)","(1.5718225133103665, 0.001841187156007395, 0.004631559347422689)","[0.00012970200296285174, 0.0016414931751527473, 4.9653359155025904e-05]","[-0.026750000193715096, 0.05299999937415123, 0.03999999910593033]","[0.0, -0.0, 0.5832701330356712]","[-0.06640445441007614, 0.1130959615111351, 0.03999999910593033]","[0.0, 0.0, -0.23110072315856714]","[0.026750000193715096, 0.05299999937415123, 0.03999999910593033]","[0.0, 0.0, -0.5815927681773159]","[0.06630360335111618, 0.11316238343715668, 0.03999999910593033]","[0.0, -0.0, 0.23379257570156856]",0.5835654826857727,0.07089697213116518,"(0.0, 0.0, 0.0, 0.0, 0.0, 0.0)",0.009327706727701106,-0.8143708097043375,4.130029651605582e-12,"(0.0, 0.0, 0.0, 0.0, 0.0, 0.0)",0.0006958521488552963,-0.5816938195250178,-0.024244610609883446,"(0.0, 0.0, 0.0, 0.0, 0.0, 0.0)",1.0333705570264788,0.815355650526758,-0.007125894865114637,"(0.0, 0.0, 0.0, 0.0, 0.0, 0.0)",0.5325845282526825,True,"(-0.032078510295791784, 0.18487321484071878, 0.04000039442297609)","(0.9999970674652697, 0.0023894542005893386, 0.00039442297608731965)",0.00026867217028075463,0.0,True,"(0.03178457355555933, 0.18484489586966354, 0.039999605577023915)","(-0.9999970674652697, -0.0023894542005878107, -0.0003944229760787689)",-0.0003258419552258958,7.574740584701141
76,Move,"(-0.00028000000000000003, 0.0, -0.00055)","(0.0, 0.01751786970226709, 0.0)","(0.00012314761871176308, 0.17163809360264867, 0.0010058216711427506)","(1.5730087545837275, 0.0016935555945784848, 0.00477662391966645)","[0.00012306905724675748, 0.00163903122612985, 9.093198805501588e-05]","[-0.026750000193715096, 0.05299999937415123, 0.03999999910593033]","[0.0, -0.0, 0.5835654984534078]","[-0.06642220169305801, 0.11308424174785614, 0.03999999910593033]","[0.0, 0.0, -0.23080535988011278]","[0.026750000193715096, 0.05299999937415123, 0.03999999910593033]","[0.0, 0.0, -0.5816938647669025]","[0.06630967557430267, 0.11315838992595673, 0.03999999910593033]","[0.0, -0.0, 0.23366183441385396]",0.5838042128448143,0.057295238170000026,"(0.0, 0.0, 0.0, 0.0, 0.0, 0.0)",-0.01995352550371751,-0.8143708097043392,-4.1300296516055823e-13,"(0.0, 0.0, 0.0, 0.0, 0.0, 0.0)",-0.0014883440624871816,-0.5817558369034344,-0.014884170819989906,"(0.0, 0.0, 0.0, 0.0, 0.0, 0.0)",0.08612059348392254,0.8153467080662953,-0.0021461905110498032,"(0.0, 0.0, 0.0, 0.0, 0.0, 0.0)",0.03979520609142784,True,"(-0.032117474683154, 0.18487358170101675, 0.03999815881388425)","(0.999987579381766, 0.004631534938183327, -0.0018411861157466222)",0.0002974344564120291,0.0,True,"(0.031800030649574165, 0.1848430384831782, 0.04000184118611575)","(-0.9999875793817657, -0.004631534938188565, 0.0018411861157469325)",-0.00030086963809081017,0.5436600454457833
77,Move,"(-0.00031, 0.0, -0.0005600000000000001)","(0.0, -0.0, 0.0)","(0.00012244106499891311, 0.1716383833503857, 0.0009986497069748887)","(1.5726436002291526, 0.0015524276456274273, 0.004785320706284004)","[0.00012236250353390751, 0.0016393209738668757, 8.376002388715397e-05]","[-0.026750000193715096, 0.05299999937415123, 0.03999999910593033]","[0.0, -0.0, 0.5838042069600522]","[-0.06643654406070709, 0.11307477205991745, 0.03999999910593033]","[0.0, 0.0, -0.23056659969660667]","[0.026750000193715096, 0.05299999937415123, 0.03999999910593033]","[0.0, 0.0, -0.5817558654277144]","[0.06631340831518173, 0.11315593868494034, 0.03999999910593033]","[0.0, -0.0, 0.23359084309185965]",0.5839825273626934,0.042795484290983225,"(0.0, 0.0, 0.0, 0.0, 0.0, 0.0)",-0.021275488802591017,-0.814370809704339,3.9968028886505635e-14,"(0.0, 0.0, 0.0, 0.0, 0.0, 0.0)",-0.001586979814850173,-0.5818317760305594,-0.01822539051001358,"(0.0, 0.0, 0.0, 0.0, 0.0, 0.0)",0.13396631875478415,0.8152831678895579,-0.015249642416978387,"(0.0, 0.0, 0.0, 0.0, 0.0, 0.0)",0.07884560218198727,True,"(-0.03214895601832987, 0.18487220290197665, 0.03999830644521499)","(0.9999871579050823, 0.0047765989057045434, -0.0016935547850187003)",0.0003145118840146075,0.0,True,"(0.03180884900472894, 0.18484281757556664, 0.04000169355478502)","(-0.9999871579050824, -0.004776598905714718, 0.0016935547850238815)",-0.0002776726888937952,1.06967477130999
78,Move,"(-0.00031, 0.0, -0.0005600000000000001)","(0.0, -0.0, 0.0)","(0.00012200909291886621, 0.17163888575677697, 0.0009896396457106452)","(1.5720179698388312, 0.0012171426182113804, 0.004781351686613019)","[0.0001219305314538606, 0.001639823380258143, 7.474996262291046e-05]","[-0.026750000193715096, 0.05299999937415123, 0.03999999910593033]","[0.0, -0.0, 0.5839825361333031]","[-0.06644725799560547, 0.11306769400835037, 0.03999999910593033]","[0.0, 0.0, -0.23038829831836016]","[0.026750000193715096, 0.05299999937415123, 0.03999999910593033]","[0.0, 0.0, -0.5818317736060318]","[0.06631797552108765, 0.11315292865037918, 0.03999999910593033]","[0.0, -0.0, 0.23345140597212627]",0.5842200085950279,0.056995495760275176,"(0.0, 0.0, 0.0, 0.0, 0.0, 0.0)",0.020860144274550612,-0.814370809704339,-5.329070518200751e-15,"(0.0, 0.0, 0.0, 0.0, 0.0, 0.0)",0.001556070954175571,-0.5818393719821,-0.0018230283697506233,"(0.0, 0.0, 0.0, 0.0, 0.0, 0.0)",0.24064130779602522,0.8152122967035155,-0.01700908465018493,"(0.0, 0.0, 0.0, 0.0, 0.0, 0.0)",0.13006926195363286,True,"(-0.03217246960555196, 0.18487106847885332, 0.03999844757297794)","(0.9999873453729594, 0.004785296676531202, -0.0015524270220593482)",0.00033172481761551325,0.0,True,"(0.031823416720858824, 0.18484447679068117, 0.04000155242702206)","(-0.9999873453729595, -0.004785296676532207, 0.0015524270220611063)",-0.0002567787820162367,1.656800729516715
79,Move,"(-0.00026, 0.0, -0.00045)","(0.0, -0.0, 0.0)","(0.00012152895765700875, 0.17163936435617352, 0.0009895998233094832)","(1.571536920706912, 0.0007387012218357021, 0.004780814813719202)","[0.00012145039619200314, 0.0016403019796547014, 7.471014022174846e-05]","[-0.026750000193715096, 0.05299999937415123, 0.03999999910593033]","[0.0, -0.0, 0.5842200228429761]","[-0.06646152585744858, 0.11305826157331467, 0.03999999910593033]","[0.0, 0.0, -0.23015080891444264]","[0.026750000193715096, 0.05299999937415123, 0.03999999910593033]","[0.0, 0.0, -0.5818393323868027]","[0.06631843000650406, 0.1131526306271553, 0.03999999910593033]","[0.0, -0.0, 0.23337290460196483]",0.5844534715384551,0.05603110642251696,"(0.0, 0.0, 0.0, 0.0, 0.0, 0.0)",-0.0014018750397049144,-0.814370809704339,2.8276924394663935e-17,"(0.0, 0.0, 0.0, 0.0, 0.0, 0.0)",-0.00010452504328172985,-0.5818535492746024,-0.0034025502005823327,"(0.0, 0.0, 0.0, 0.0, 0.0, 0.0)",-0.00026803269767157223,0.8152194864180222,0.0017255314816137096,"(0.0, 0.0, 0.0, 0.0, 0.0, 0.0)",0.0018785615500473086,True,"(-0.03220378470830905, 0.18486953558067332, 0.03999878285768231)","(0.999987828650283, 0.004781329927010532, -0.0012171423176964807)",0.0003496207409293018,0.0,True,"(0.03182949906409667, 0.18484680820176144, 0.0400012171423177)","(-0.9999878286502828, -0.004781329927020315, 0.001217142317697383)",-0.00023722634754326977,0.0
80,Move,"(-0.00023, 0.0, -0.00044000000000000007)","(0.0, -0.0, 0.0)","(0.00012105301347356566, 0.17163983608642228, 0.0009896247315786403)","(1.5710575878667448, 0.00025976514875894675, 0.004780672303921819)","[0.00012097445200856004, 0.0016407737099034536, 7.473504849090555e-05]","[-0.026750000193715096, 0.05299999937415123, 0.03999999910593033]","[0.0, -0.0, 0.5844534904003756]","[-0.06647554039955139, 0.1130489930510521, 0.03999999910593033]","[0.0, 0.0, -0.22991737097166837]","[0.026750000193715096, 0.05299999937415123, 0.03999999910593033]","[0.0, 0.0, -0.581853570874964]","[0.0663192868232727, 0.11315207183361053, 0.03999999910593033]","[0.0, -0.0, 0.23336594033021352]",0.5846918326135401,0.05720665802040603,"(0.0, 0.0, 0.0, 0.0, 0.0, 0.0)",0.0017399131871719603,-0.8143708097043437,-1.1363388934268207e-12,"(0.0, 0.0, 0.0, 0.0, 0.0, 0.0)",0.00012983240432502306,-0.5819013873745653,-0.011481143991099785,"(0.0, 0.0, 0.0, 0.0, 0.0, 0.0)",-0.012061010140394556,0.8152191215224638,-8.757493403011929e-05,"(0.0, 0.0, 0.0, 0.0, 0.0, 0.0)",-0.001083419178057474,True,"(-0.03223456959537005, 0.1848680247356841, 0.039999261298845346)","(0.9999882990900082, 0.004780795297478782, -0.0007387011546535334)",0.0003612937330897171,0.0,True,"(0.03183085239401111, 0.18484648176196694, 0.04000073870115465)","(-0.9999882990900083, -0.004780795297482939, 0.0007387011546461789)",-0.0002167238289126471,0.0
81,Move,"(-0.00021, 0.0, -0.00034)","(0.0, -0.0, 0.0)","(0.00012080636160446871, 0.17164008099288583, 0.0009896516919688477)","(1.5708116977769009, 1.454891258297216e-05, 0.004780683274262791)","[0.0001207278001394631, 0.001641018616367007, 7.4762008881113e-05]","[-0.026750000193715096, 0.05299999937415123, 0.03999999910593033]","[0.0, -0.0, 0.5846918792001305]","[-0.06648985296487808, 0.1130395159125328, 0.03999999910593033]","[0.0, 0.0, -0.22967899340653225]","[0.026750000193715096, 0.05299999937415123, 0.03999999910593033]","[0.0, 0.0, -0.5819013788607764]","[0.06632216274738312, 0.11315017938613892, 0.03999999910593033]","[0.0, -0.0, 0.23331775190340273]",0.5849233753007896,0.05557024493989803,"(0.0, 0.0, 0.0, 0.0, 0.0, 0.0)",-0.0023885403240540485,-0.8143708097043433,1.1457501614131615e-13,"(0.0, 0.0, 0.0, 0.0, 0.0, 0.0)",-0.00017812415210924896,-0.5819605885798319,-0.014208289263992311,"(0.0, 0.0, 0.0, 0.0, 0.0, 0.0)",-0.0039891722223481104,0.8152194359048233,7.545176626746362e-05,"(0.0, 0.0, 0.0, 0.0, 0.0, 0.0)",-0.00028104871976010123,True,"(-0.032266000235669265, 0.18486647518217125, 0.03999974023485416)","(0.9999885388693451, 0.004780653932408105, -0.0002597651458372976)",0.00037358435225044045,0.0,True,"(0.031837185824453336, 0.18484620307512617, 0.040000259765145825)","(-0.999988538869345, -0.004780653932409571, 0.0002597651458309559)",-0.0001912284135643713,0.0
82,Move,"(-0.00023, 0.0, -0.00035000000000000005)","(0.0, -0.0, 0.0)","(0.00012080127887006917, 0.17164007351490265, 0.000989601671765679)","(1.5708090122232121, 1.2016255316765576e-05, 0.004780743820605587)","[0.00012072271740506355, 0.00164101113838383, 7.471198867794429e-05]","[-0.026750000193715096, 0.05299999937415123, 0.03999999910593033]","[0.0, -0.0, 0.58492341727585]","[-0.06650375574827194, 0.1130303144454956, 0.03999999910593033]","[0.0, 0.0, -0.22944744913487264]","[0.026750000193715096, 0.05299999937415123, 0.03999999910593033]","[0.0, 0.0, -0.5819606277682481]","[0.06632572412490845, 0.11314783245325089, 0.03999999910593033]","[0.0, -0.0, 0.23325884188684498]",0.585164146432205,0.057785071539687045,"(0.0, 0.0, 0.0, 0.0, 0.0, 0.0)",0.003265743179606215,-0.8143708097043433,-1.0658141089341062e-14,"(0.0, 0.0, 0.0, 0.0, 0.0, 0.0)",0.000243649652668577,-0.5820450578595631,-0.020272627135478206,"(0.0, 0.0, 0.0, 0.0, 0.0, 0.0)",0.04708045976277134,0.8151988739555938,-0.004934867815071821,"(0.0, 0.0, 0.0, 0.0, 0.0, 0.0)",0.027541936559817418,True,"(-0.03229653163824493, 0.18486496292907914, 0.03999998545108742)","(0.999988572449646, 0.004780665063411429, -1.4548912583117396e-05)",0.0003943121872018313,0.0,True,"(0.031844968975263566, 0.18484583193912285, 0.040000014548912576)","(-0.9999885724496459, -0.004780665063416807, 1.4548912578074054e-05)",-0.00017363439076163083,0.4264846965197694
83,Move,"(-0.00023, 0.0, -0.00035000000000000005)","(0.0, -0.0, 0.0)","(0.00012079213343185989, 0.17164006104451326, 0.000989577235389352)","(1.5708076823565449, 1.0780548384628455e-05, 0.004780909838140765)","[0.00012071357196685427, 0.0016409986679944422, 7.468755230161735e-05]","[-0.026750000193715096, 0.05299999937415123, 0.03999999910593033]","[0.0, -0.0, 0.5851641467083513]","[-0.06651820987462997, 0.11302074044942856, 0.03999999910593033]","[0.0, 0.0, -0.2292066609777304]","[0.026750000193715096, 0.05299999937415123, 0.03999999910593033]","[0.0, 0.0, -0.582045030903715]","[0.06633080542087555, 0.11314449459314346, 0.03999999910593033]","[0.0, -0.0, 0.2331538431834193]",0.585406325165438,0.05812289597589615,"(0.0, 0.0, 0.0, 0.0, 0.0, 0.0)",0.0005103358050451365,-0.8143708097043433,0.0,"(0.0, 0.0, 0.0, 0.0, 0.0, 0.0)",3.811599415726728e-05,-0.5821244155884655,-0.019045854936584988,"(0.0, 0.0, 0.0, 0.0, 0.0, 0.0)",0.05869303836498228,0.8151814582362553,-0.0041797726412380245,"(0.0, 0.0, 0.0, 0.0, 0.0, 0.0)",0.02965906645196846,True,"(-0.03232827957371303, 0.1848633829545463, 0.039999987983744684)","(0.999988572193832, 0.004780725609226604, -1.201625532089449e-05)",0.00042596258668113336,0.0,True,"(0.03185758069414148, 0.18484600486165675, 0.04000001201625532)","(-0.999988572193832, -0.004780725609236388, 1.2016255323027215e-05)",-0.00016091728014055342,0.4292080353929077
84,Move,"(-0.00018, 0.0, -0.00025)","(0.0, -0.0, 0.0)","(0.00012078879696329601, 0.17164005110471503, 0.0009895831397486504)","(1.5708069512041454, 9.925439060882643e-06, 0.004780976595014789)","[0.0001207102354982904, 0.0016409887281962077, 7.46934566609157e-05]","[-0.026750000193715096, 0.05299999937415123, 0.03999999910593033]","[0.0, -0.0, 0.5854064177496549]","[-0.06653274595737457, 0.11301110684871674, 0.03999999910593033]","[0.0, 0.0, -0.22896449727069632]","[0.026750000193715096, 0.05299999937415123, 0.03999999910593033]","[0.0, 0.0, -0.5821244557222327]","[0.06633558124303818, 0.11314135044813156, 0.03999999910593033]","[0.0, -0.0, 0.2330570491422212]",0.5856482080903321,0.05805190197460241,"(0.0, 0.0, 0.0, 0.0, 0.0, 0.0)",-8.983892547429788e-05,-0.8143708097043433,0.0,"(0.0, 0.0, 0.0, 0.0, 0.0, 0.0)",-6.652965765220107e-06,-0.5822030352183103,-0.018868711162750785,"(0.0, 0.0, 0.0, 0.0, 0.0, 0.0)",0.03360383735492646,0.8151718130262491,-0.0023148504015036995,"(0.0, 0.0, 0.0, 0.0, 0.0, 0.0)",0.02037308838903428,True,"(-0.032360212730524654, 0.18486178613714205, 0.03999998921945161)","(0.999988571414219, 0.004780891624930742, -1.0780548388200669e-05)",0.00045784338209680975,0.0,True,"(0.031869292922601725, 0.18484610244814104, 0.04000001078054839)","(-0.9999885714142189, -0.00478089162493043, 1.0780548391000542e-05)",-0.00014914514119686938,0.253869527783089
85,Move,"(-0.00018, 0.0, -0.00025)","(0.0, -0.0, 0.0)","(0.00012078822274813265, 0.17164005213351965, 0.0009896040685400574)","(1.5708058987023037, 9.360898377780613e-06, 0.004780976696933903)","[0.00012070966128312704, 0.0016409897570008325, 7.471438545232265e-05]","[-0.026750000193715096, 0.05299999937415123, 0.03999999910593033]","[0.0, -0.0, 0.5856481751718847]","[-0.06654725968837738, 0.11300148814916611, 0.03999999910593033]","[0.0, 0.0, -0.22872260123155422]","[0.026750000193715096, 0.05299999937415123, 0.03999999910593033]","[0.0, 0.0, -0.5822030927429903]","[0.06634030491113663, 0.11313823610544205, 0.03999999910593033]","[0.0, -0.0, 0.23296878817171687]",0.5858936813039523,0.05891357126883889,"(0.0, 0.0, 0.0, 0.0, 0.0, 0.0)",0.00127955300486285,-0.8143708097049691,-1.5020981571827334e-10,"(0.0, 0.0, 0.0, 0.0, 0.0, 0.0)",9.549552336022178e-05,-0.5823065033921061,-0.0248323617109989,"(0.0, 0.0, 0.0, 0.0, 0.0, 0.0)",-0.008471747097585105,0.8151731711863683,0.0003259584286112844,"(0.0, 0.0, 0.0, 0.0, 0.0, 0.0)",-0.0003643291353659144,True,"(-0.03239210649524786, 0.1848601834517868, 0.03999999007456094)","(0.999988571103912, 0.004780958381081404, -9.925439063263109e-06)",0.000489706809801583,0.0,True,"(0.03188035065206943, 0.18484594360999398, 0.040000009925439055)","(-0.999988571103912, -0.004780958381084628, 9.925439060740899e-06)",-0.00013805068356789757,0.0
86,Move,"(-0.00018, 0.0, -0.00025)","(0.0, -0.0, 0.0)","(0.00012078766347482, 0.17164005304976174, 0.0009896221424100734)","(1.570804941862678, 8.814834113241031e-06, 0.0047809769072536795)","[0.00012070910200981439, 0.0016409906732429147, 7.473245932233872e-05]","[-0.026750000193715096, 0.05299999937415123, 0.03999999910593033]","[0.0, -0.0, 0.585893609287387]","[-0.0665619820356369, 0.11299171298742294, 0.03999999910593033]","[0.0, 0.0, -0.2284771386782206]","[0.026750000193715096, 0.05299999937415123, 0.03999999910593033]","[0.0, 0.0, -0.5823065071972592]","[0.06634652614593506, 0.11313413828611374, 0.03999999910593033]","[0.0, -0.0, 0.23286668842253688]",0.5861388232363514,0.05883406377579359,"(0.0, 0.0, 0.0, 0.0, 0.0, 0.0)",-0.00010214074262800741,-0.8143708097042415,1.7463149941782357e-10,"(0.0, 0.0, 0.0, 0.0, 0.0, 0.0)",-7.569248096197008e-06,-0.5824075435925615,-0.02424964810929442,"(0.0, 0.0, 0.0, 0.0, 0.0, 0.0)",0.0008280734344819707,0.8151737148522609,0.00013047981421724644,"(0.0, 0.0, 0.0, 0.0, 0.0, 0.0)",4.1953607133586586e-05,True,"(-0.032424473264139386, 0.18485854902285132, 0.039999990639101625)","(0.9999885711088689, 0.004780958483026087, -9.360898376580267e-06)",0.000522058429284811,0.0,True,"(0.0318938955712002, 0.18484526317513328, 0.04000000936089836)","(-0.9999885711088687, -0.0047809584830319565, 9.360898368717941e-06)",-0.00012448657840355816,0.0
87,Move,"(-0.00021, 0.0, -0.00023999999999999998)","(0.0, 0.01811302697719716, 0.0)","(0.00012078722257308161, 0.1716400539218117, 0.0009896411780699282)","(1.5708040527818594, 8.381412618812514e-06, 0.004780976983597181)","[0.000120708661108076, 0.0016409915452928747, 7.475149498219354e-05]","[-0.026750000193715096, 0.05299999937415123, 0.03999999910593033]","[0.0, -0.0, 0.5861388377885839]","[-0.06657668948173523, 0.11298195272684097, 0.03999999910593033]","[0.0, 0.0, -0.22823198699287678]","[0.026750000193715096, 0.05299999937415123, 0.03999999910593033]","[0.0, 0.0, -0.5824075809043653]","[0.06635260581970215, 0.11313013732433319, 0.03999999910593033]","[0.0, -0.0, 0.23276616945661166]",0.5863839686372061,0.05883489620514837,"(0.0, 0.0, 0.0, 0.0, 0.0, 0.0)",1.5800657372218124e-05,-0.8143708097044221,-4.336434121956577e-11,"(0.0, 0.0, 0.0, 0.0, 0.0, 0.0)",1.2283006202436658e-06,-0.582508424295198,-0.02421136863274054,"(0.0, 0.0, 0.0, 0.0, 0.0, 0.0)",4.22028020942696e-05,0.8151739526638337,5.707477749898013e-05,"(0.0, 0.0, 0.0, 0.0, 0.0, 0.0)",-4.298021553966094e-06,True,"(-0.03245679595081197, 0.1848569088707826, 0.03999999118516589)","(0.9999885711128257, 0.004780958693365821, -8.814834111601372e-06)",0.0005543667281737697,0.0,True,"(0.03190717870337827, 0.1848446235394695, 0.04000000881483411)","(-0.9999885711128258, -0.00478095869337721, 8.814834111404393e-06)",-0.00011118479596647335,0.0
88,Move,"(-0.00019, 0.0, -0.00014000000000000001)","(0.0, -0.0, 0.0)","(0.00012078488432299928, 0.17164005434252538, 0.000989601616372815)","(1.5708032341485898, 6.1397990183445795e-06, 0.004780979165672831)","[0.00012070632285799367, 0.0016409919660065608, 7.471193328508039e-05]","[-0.026750000193715096, 0.05299999937415123, 0.03999999910593033]","[0.0, -0.0, 0.5863839177062139]","[-0.06659139692783356, 0.1129721850156784, 0.03999999910593033]","[0.0, 0.0, -0.22798685135181443]","[0.026750000193715096, 0.05299999937415123, 0.03999999910593033]","[0.0, 0.0, -0.5825083806413497]","[0.06635867059230804, 0.11312614381313324, 0.03999999910593033]","[0.0, -0.0, 0.2326655616890596]",0.5865795696675852,0.046944247290984016,"(0.0, 0.0, 0.0, 0.0, 0.0, 0.0)",-0.017443669074195166,-0.8143707891583143,4.931065876907052e-06,"(0.0, 0.0, 0.0, 0.0, 0.0, 0.0)",-0.0013006461318879274,-0.5826606894031913,-0.03654362591838112,"(0.0, 0.0, 0.0, 0.0, 0.0, 0.0)",-0.018114235674234966,0.8151741490366098,4.712946624352498e-05,"(0.0, 0.0, 0.0, 0.0, 0.0, 0.0)",-0.001352231367181642,True,"(-0.032489118691696045, 0.18485526077157902, 0.03999999161858738)","(0.9999885711161872, 0.0047809587697283775, -8.381412621495021e-06)",0.0005866796334237884,0.0,True,"(0.03192046267611741, 0.1848439937771298, 0.04000000838141262)","(-0.9999885711161874, -0.004780958769724977, 8.38141261610791e-06)",-9.78866399702001e-05,0.0
89,Move,"(-0.00019, 0.0, -0.00014000000000000001)","(0.0, -0.0, 0.0)","(0.00012078458403102156, 0.1716400548804065, 0.0009896178222981626)","(1.5708025758864954, 5.869902537568794e-06, 0.004780979907747317)","[0.00012070602256601594, 0.0016409925038876894, 7.472813921042794e-05]","[-0.026750000193715096, 0.05299999937415123, 0.03999999910593033]","[0.0, -0.0, 0.5865796031055984]","[-0.06660312414169312, 0.11296439170837402, 0.03999999910593033]","[0.0, 0.0, -0.22779122001825783]","[0.026750000193715096, 0.05299999937415123, 0.03999999910593033]","[0.0, 0.0, -0.5826606534668481]","[0.06636782735586166, 0.11312011629343033, 0.03999999910593033]","[0.0, -0.0, 0.2325134965668979]",0.5868477097531624,0.06435362053853755,"(0.0, 0.0, 0.0, 0.0, 0.0, 0.0)",0.025572763851505018,-0.8143707934591846,-1.0322088912680972e-06,"(0.0, 0.0, 0.0, 0.0, 0.0, 0.0)",0.0019070058180290987,-0.5827701575314888,-0.026272350791383133,"(0.0, 0.0, 0.0, 0.0, 0.0, 0.0)",0.015074784780336371,0.8151744481557128,7.178858472504151e-05,"(0.0, 0.0, 0.0, 0.0, 0.0, 0.0)",0.0011269717217109942,True,"(-0.032514910129266945, 0.1848539407549953, 0.039999993860200984)","(0.9999885711220301, 0.0047809609518553, -6.139799019070466e-06)",0.0006123872764411185,0.0,True,"(0.03194052448705707, 0.18484304613787853, 0.04000000613979902)","(-0.9999885711220302, -0.004780960951851597, 6.1397990165853615e-06)",-7.773977778979524e-05,0.0
90,Move,"(-0.00019, 0.0, -0.00014000000000000001)","(0.0, -0.0, 0.0)","(0.00012078431898556457, 0.17164005538096014, 0.0009896332841631949)","(1.5708019638540376, 5.6330201984197394e-06, 0.0047809805970756465)","[0.00012070575752055895, 0.0016409930044413157, 7.474360107546018e-05]","[-0.026750000193715096, 0.05299999937415123, 0.03999999910593033]","[0.0, -0.0, 0.5868477023662665]","[-0.06661920249462128, 0.11295370757579803, 0.03999999910593033]","[0.0, 0.0, -0.22752310314836421]","[0.026750000193715096, 0.05299999937415123, 0.03999999910593033]","[0.0, 0.0, -0.582770142387616]","[0.06637440621852875, 0.11311577260494232, 0.03999999910593033]","[0.0, -0.0, 0.23240429744777596]",0.5871095319713409,0.06283733236282883,"(0.0, 0.0, 0.0, 0.0, 0.0, 0.0)",-0.0022102396579501467,-0.8143707928351074,1.497785238781677e-07,"(0.0, 0.0, 0.0, 0.0, 0.0, 0.0)",-0.0001646917147154736,-0.5828830347463158,-0.02709053155848551,"(0.0, 0.0, 0.0, 0.0, 0.0, 0.0)",-0.0012124649826837975,0.8151745690961669,2.9025708991326166e-05,"(0.0, 0.0, 0.0, 0.0, 0.0, 0.0)",-9.478565712011686e-05,True,"(-0.032550263621435344, 0.18485212193309913, 0.039999994130097465)","(0.9999885711201031, 0.004780961693928014, -5.869902537573111e-06)",0.0006477382238298585,0.0,True,"(0.031954936128569006, 0.18484235768687407, 0.040000005869902544)","(-0.9999885711201031, -0.004780961693934478, 5.869902543122805e-06)",-6.332075612383249e-05,0.0
91,Move,"(-0.00014000000000000001, 0.0, -2.9999999999999997e-05)","(0.0, -0.0, 0.0)","(0.00012078220442970752, 0.17164005564540435, 0.0009895945555874926)","(1.5708013075808227, 3.6130488722252987e-06, 0.004780982753017141)","[0.0001207036429647019, 0.0016409932688855322, 7.470487249975786e-05]","[-0.026750000193715096, 0.05299999937415123, 0.03999999910593033]","[0.0, -0.0, 0.5871095216623867]","[-0.0666348934173584, 0.11294326186180115, 0.03999999910593033]","[0.0, 0.0, -0.2272613015887832]","[0.026750000193715096, 0.05299999937415123, 0.03999999910593033]","[0.0, 0.0, -0.5828830909993836]","[0.06638119369745255, 0.11311130225658417, 0.03999999910593033]","[0.0, -0.0, 0.23229153429984395]",0.587370679394119,0.0626753814667458,"(0.0, 0.0, 0.0, 0.0, 0.0, 0.0)",-0.00022221668522642686,-0.8143707926363977,4.7690320700430836e-08,"(0.0, 0.0, 0.0, 0.0, 0.0, 0.0)",-1.6529730533311094e-05,-0.5829964290261884,-0.02721462716943535,"(0.0, 0.0, 0.0, 0.0, 0.0, 0.0)",-0.00018557611934556328,0.8151748155048066,5.913807352800537e-05,"(0.0, 0.0, 0.0, 0.0, 0.0, 0.0)",-1.0800868763601245e-05,True,"(-0.032584783996107945, 0.1848503369781962, 0.039999994366979805)","(0.9999885711181697, 0.004780962383254477, -5.633020196246665e-06)",0.0006822572250005648,0.0,True,"(0.031969809951124084, 0.18484165241082973, 0.0400000056330202)","(-0.9999885711181697, -0.004780962383261921, 5.633020196087655e-06)",-4.844096280928643e-05,0.0
92,Move,"(-0.00011000000000000002, 0.0, -2e-05)","(0.0, -0.0, 0.0)","(0.00012077868754970368, 0.17164005988149514, 0.0009895665181518026)","(1.570798485154072, -2.1083100738665695e-07, 0.0047809729926322824)","[0.00012070012608469807, 0.001640997504976316, 7.467683506406789e-05]","[-0.026750000193715096, 0.05299999937415123, 0.03999999910593033]","[0.0, -0.0, 0.5873706443455177]","[-0.06665054708719254, 0.11293284595012665, 0.03999999910593033]","[0.0, 0.0, -0.22700007485809442]","[0.026750000193715096, 0.05299999937415123, 0.03999999910593033]","[0.0, 0.0, -0.5829964278388461]","[0.06638800352811813, 0.11310680955648422, 0.03999999910593033]","[0.0, -0.0, 0.2321783735062137]",0.5876371019742939,0.06394141924196861,"(0.0, 0.0, 0.0, 0.0, 0.0, 0.0)",0.0018744335571481946,-0.8143707926562687,-4.769033168372728e-09,"(0.0, 0.0, 0.0, 0.0, 0.0, 0.0)",0.00013987284194652908,-0.5831363199269295,-0.03357381617784454,"(0.0, 0.0, 0.0, 0.0, 0.0, 0.0)",-0.009350884621275007,0.8151747908639426,-5.9138073531528335e-06,"(0.0, 0.0, 0.0, 0.0, 0.0, 0.0)",-0.0007041241770957148,True,"(-0.03261921490410641, 0.18484854760789485, 0.03999999638695113)","(0.9999885711172006, 0.004780964539216533, -3.613048872865114e-06)",0.0007166153529646421,0.0,True,"(0.03198474286538286, 0.18484093804058943, 0.04000000361304887)","(-0.9999885711172007, -0.004780964539212842, 3.6130488707337033e-06)",-3.343069319622955e-05,0.0
