OSUrobotics/InHand-Manipulation/AnalyseData/Data/Trial Data/new_hand_human_filt_josh_2v2_d_none_1_kpNone_kdNone_dp5_step5_save_data.csv
,Phase,human_cube_pos,human_cube_orn,Cube_Pos,Cube_Orn,Cube_pos_in_start_pos,b'l_prox_pin'_link_pos,b'l_prox_pin'_link_orn,b'l_distal_pin'_link_pos,b'l_distal_pin'_link_orn,b'r_prox_pin'_link_pos,b'r_prox_pin'_link_orn,b'r_distal_pin'_link_pos,b'r_distal_pin'_link_orn,b'l_prox_pin'_joint_angle,b'l_prox_pin'_joint_vel,b'l_prox_pin'_joint_react_forces,b'l_prox_pin'_joint_motor_torque,b'l_distal_pin'_joint_angle,b'l_distal_pin'_joint_vel,b'l_distal_pin'_joint_react_forces,b'l_distal_pin'_joint_motor_torque,b'r_prox_pin'_joint_angle,b'r_prox_pin'_joint_vel,b'r_prox_pin'_joint_react_forces,b'r_prox_pin'_joint_motor_torque,b'r_distal_pin'_joint_angle,b'r_distal_pin'_joint_vel,b'r_distal_pin'_joint_react_forces,b'r_distal_pin'_joint_motor_torque,in_contact_l,contact_point_l_dist,contact_normal_l_dist,contact_distance_l_dist,contact_norm_force_l_dist,in_contact_r,contact_point_r_dist,contact_normal_r_dist,contact_distance_r_dist,contact_norm_force_r_dist
0,Open,,,,,,"[-0.026750000193715096, 0.05299999937415123, 0.03999999910593033]","[0.0, -0.0, 0.42755761853039154]","[-0.056604765355587006, 0.1185186430811882, 0.03999999910593033]","[0.0, -0.0, 0.4463066270391506]","[0.026750000193715096, 0.05299999937415123, 0.03999999910593033]","[0.0, 0.0, -0.42757404208311445]","[0.05660583823919296, 0.1185181587934494, 0.03999999910593033]","[0.0, 0.0, -0.4465272228574986]",0.5418018724257314,27.418616735313837,"(0.0, 0.0, 0.0, 0.0, 0.0, 0.0)",-4.412236817968903,0.016874447698417276,-0.44988750389777044,"(0.0, 0.0, 0.0, 0.0, 0.0, 0.0)",-0.3112578673856835,-0.5418166170859073,-27.418223544375806,"(0.0, 0.0, 0.0, 0.0, 0.0, 0.0)",4.412120589674461,-0.017058187988154127,0.4547872631353701,"(0.0, 0.0, 0.0, 0.0, 0.0, 0.0)",0.31119999541872967,False,,,,,False,,,,
1,Open,,,,,,"[-0.026750000193715096, 0.05299999937415123, 0.03999999910593033]","[0.0, -0.0, 0.8953992050914552]","[-0.08294302970170975, 0.09801492840051651, 0.03999999910593033]","[0.0, -0.0, 0.9064715399310761]","[0.026750000193715096, 0.05299999937415123, 0.03999999910593033]","[0.0, 0.0, -0.8954089117450801]","[0.08294346183538437, 0.09801438450813293, 0.03999999910593033]","[0.0, 0.0, -0.9066016844299951]",0.9628592876486701,16.190418996035465,"(0.0, 0.0, 0.0, 0.0, 0.0, 0.0)",-2.616982039675733,0.009965290062605858,-0.26568209241480656,"(0.0, 0.0, 0.0, 0.0, 0.0, 0.0)",-0.18775783729375353,-0.9628679942230576,-16.190186820718473,"(0.0, 0.0, 0.0, 0.0, 0.0, 0.0)",2.6169116334278195,-0.010073786659150813,0.26857534621184953,"(0.0, 0.0, 0.0, 0.0, 0.0, 0.0)",0.187722108909745,False,,,,,False,,,,
2,Open,,,,,,"[-0.026750000193715096, 0.05299999937415123, 0.03999999910593033]","[0.0, -0.0, 1.17165497759142]","[-0.09309044480323792, 0.08098116517066956, 0.03999999910593033]","[0.0, -0.0, 1.1781937273122836]","[0.026750000193715096, 0.05299999937415123, 0.03999999910593033]","[0.0, 0.0, -1.1716605985979762]","[0.09309060126543045, 0.08098078519105911, 0.03999999910593033]","[0.0, 0.0, -1.178270796658152]",1.2114894807636634,9.56028051296898,"(0.0, 0.0, 0.0, 0.0, 0.0, 0.0)",-1.549346412635057,0.005885062316220725,-0.15689973638119079,"(0.0, 0.0, 0.0, 0.0, 0.0, 0.0)",-0.11225090666269867,-1.2114946219087734,-9.560143415766044,"(0.0, 0.0, 0.0, 0.0, 0.0, 0.0)",1.5493042197033076,-0.00594912834521185,0.1586081706180975,"(0.0, 0.0, 0.0, 0.0, 0.0, 0.0)",0.11222926703597672,False,,,,,False,,,,
3,Open,,,,,,"[-0.026750000193715096, 0.05299999937415123, 0.03999999910593033]","[0.0, -0.0, 1.3347813147466918]","[-0.09675397723913193, 0.06983575969934464, 0.03999999910593033]","[0.0, -0.0, 1.3386449621367835]","[0.026750000193715096, 0.05299999937415123, 0.03999999910593033]","[0.0, 0.0, -1.3347844615433213]","[0.0967540368437767, 0.06983552873134613, 0.03999999910593033]","[0.0, 0.0, -1.3386905382854437]",1.3583031234961356,5.645250040103052,"(0.0, 0.0, 0.0, 0.0, 0.0, 0.0)",-0.9162890978823036,0.0034783869891320215,-0.09247571818598516,"(0.0, 0.0, 0.0, 0.0, 0.0, 0.0)",-0.06677007440367574,-1.3583061592909116,-5.645169085575695,"(0.0, 0.0, 0.0, 0.0, 0.0, 0.0)",0.9162639666346021,-0.003516216695348753,0.09348456497972772,"(0.0, 0.0, 0.0, 0.0, 0.0, 0.0)",0.06675710630673855,False,,,,,False,,,,
4,Open,,,,,,"[-0.026750000193715096, 0.05299999937415123, 0.03999999910593033]","[0.0, -0.0, 1.4311058207082674]","[-0.09804865717887878, 0.06302504986524582, 0.03999999910593033]","[0.0, -0.0, 1.433390691262394]","[0.026750000193715096, 0.05299999937415123, 0.03999999910593033]","[0.0, 0.0, -1.4311075924426346]","[0.09804867953062057, 0.06302490830421448, 0.03999999910593033]","[0.0, 0.0, -1.433417470845748]",1.4449951113932331,3.333463696180452,"(0.0, 0.0, 0.0, 0.0, 0.0, 0.0)",-0.5415503506795546,0.0020570753203455715,-0.05468855210882702,"(0.0, 0.0, 0.0, 0.0, 0.0, 0.0)",-0.039594115216637325,-1.4449969039996904,-3.3334158933415914,"(0.0, 0.0, 0.0, 0.0, 0.0, 0.0)",0.541535435877482,-0.002079412775410495,0.055284250111531166,"(0.0, 0.0, 0.0, 0.0, 0.0, 0.0)",0.03958639191865308,False,,,,,False,,,,
5,Open,,,,,,"[-0.026750000193715096, 0.05299999937415123, 0.03999999910593033]","[0.0, -0.0, 1.4879842849605203]","[-0.09850326180458069, 0.05895565450191498, 0.03999999910593033]","[0.0, -0.0, 1.4893357278409396]","[0.026750000193715096, 0.05299999937415123, 0.03999999910593033]","[0.0, 0.0, -1.4879853833286059]","[0.09850326925516129, 0.05895556882023811, 0.03999999910593033]","[0.0, 0.0, -1.4893513332680077]",1.4961858633265903,1.9683769779575933,"(0.0, 0.0, 0.0, 0.0, 0.0, 0.0)",-0.31995094896823073,0.0012165319928285922,-0.03234212113369103,"(0.0, 0.0, 0.0, 0.0, 0.0, 0.0)",-0.02343792779000599,-1.4961869218427772,-1.9683487508592754,"(0.0, 0.0, 0.0, 0.0, 0.0, 0.0)",0.31994211580738524,-0.0012297216752996233,0.03269386530715718,"(0.0, 0.0, 0.0, 0.0, 0.0, 0.0)",0.02343334437795369,False,,,,,False,,,,
6,Open,,,,,,"[-0.026750000193715096, 0.05299999937415123, 0.03999999910593033]","[0.0, -0.0, 1.5215704989376362]","[-0.09866278618574142, 0.05654282495379448, 0.03999999910593033]","[0.0, -0.0, 1.522369838325666]","[0.026750000193715096, 0.05299999937415123, 0.03999999910593033]","[0.0, 0.0, -1.5215710825913402]","[0.09866278618574142, 0.0565427765250206, 0.03999999910593033]","[0.0, 0.0, -1.522379029767931]",1.5264134904357183,1.1623069217141797,"(0.0, 0.0, 0.0, 0.0, 0.0, 0.0)",-0.18898727227709852,0.000719444125508032,-0.019126791845346432,"(0.0, 0.0, 0.0, 0.0, 0.0, 0.0)",-0.013859938289241243,-1.5264141154789415,-1.162290253894895,"(0.0, 0.0, 0.0, 0.0, 0.0, 0.0)",0.18898204730565804,-0.0007272322869396521,0.019334487584604668,"(0.0, 0.0, 0.0, 0.0, 0.0, 0.0)",0.013857223880827028,False,,,,,False,,,,
7,Close,,,"(1.2478112216283415e-07, 0.16999960627914334, 0.0003375139776509844)","(1.5703757789650807, 0.0001088681168706304, -5.122612185789874e-06)",,"[-0.026750000193715096, 0.05299999937415123, 0.03999999910593033]","[0.0, -0.0, 1.2785329680082034]","[-0.09569678455591202, 0.07374466955661774, 0.03999999910593033]","[0.0, -0.0, 1.0351044933740032]","[0.026750000193715096, 0.05299999937415123, 0.03999999910593033]","[0.0, 0.0, -1.2785333261376617]","[0.09569679200649261, 0.07374463975429535, 0.03999999910593033]","[0.0, 0.0, -1.0351099865887758]",1.2106796019673873,-16.28478938579699,"(0.0, 0.0, 0.0, 0.0, 0.0, 0.0)",2.809472854136235,-0.3090860149933808,-15.757821278062295,"(0.0, 0.0, 0.0, 0.0, 0.0, 0.0)",0.3661538009495806,-1.2106799710491603,16.284799227977608,"(0.0, 0.0, 0.0, 0.0, 0.0, 0.0)",-2.8094757422584213,0.30908141619234186,15.75794391320213,"(0.0, 0.0, 0.0, 0.0, 0.0, 0.0)",-0.3661552191151056,False,,,,,False,,,,
8,Close,,,"(3.0991841452431125e-07, 0.1699991530873768, 0.0005600347089338349)","(1.5707725584893357, 0.0003276471180493337, -1.5390016504502985e-05)",,"[-0.026750000193715096, 0.05299999937415123, 0.03999999910593033]","[0.0, -0.0, 1.0006670909649218]","[-0.08736184239387512, 0.09186135232448578, 0.03999999910593033]","[0.0, -0.0, 0.48836557737534114]","[0.026750000193715096, 0.05299999937415123, 0.03999999910593033]","[0.0, 0.0, -1.0006671906734346]","[0.08736184984445572, 0.09186133742332458, 0.03999999910593033]","[0.0, 0.0, -0.4883688154364048]",0.9606001981650306,-9.616005284561718,"(0.0, 0.0, 0.0, 0.0, 0.0, 0.0)",1.667253264949997,-0.5510712009946406,-9.304767973476249,"(0.0, 0.0, 0.0, 0.0, 0.0, 0.0)",0.2218037572572205,-0.9606004161041268,9.616011096270952,"(0.0, 0.0, 0.0, 0.0, 0.0, 0.0)",-1.6672550198735234,0.5510684854486152,9.30484038803693,"(0.0, 0.0, 0.0, 0.0, 0.0, 0.0)",-0.22180464092959223,False,,,,,False,,,,
9,Close,,,"(2.933853975158492e-07, 0.16999904048792538, 0.0007066062154399696)","(1.5708337628024795, 0.00026866528465535426, -1.404448202163588e-05)",,"[-0.026750000193715096, 0.05299999937415123, 0.03999999910593033]","[0.0, -0.0, 0.8365897781630613]","[-0.08020010590553284, 0.1012398824095726, 0.03999999910593033]","[0.0, -0.0, 0.16552144688028117]","[0.026750000193715096, 0.05299999937415123, 0.03999999910593033]","[0.0, 0.0, -0.8365899294750984]","[0.08020011335611343, 0.101239874958992, 0.03999999910593033]","[0.0, 0.0, -0.1655233971102189]",0.8129308110141114,-5.678154960376304,"(0.0, 0.0, 0.0, 0.0, 0.0, 0.0)",0.9873874064507416,-0.6939616573792659,-5.494397555666588,"(0.0, 0.0, 0.0, 0.0, 0.0, 0.0)",0.13292457281458034,-0.8129309397049683,5.678158392132489,"(0.0, 0.0, 0.0, 0.0, 0.0, 0.0)",-0.987388459985631,0.6939600538790082,5.494440315842426,"(0.0, 0.0, 0.0, 0.0, 0.0, 0.0)",-0.13292511074891808,False,,,,,False,,,,
10,Close,,,"(1.9902477861274505e-07, 0.16999905216518962, 0.0008031506137060285)","(1.5708213694470277, 0.0001751880104672085, -1.4031272711042213e-05)",,"[-0.026750000193715096, 0.05299999937415123, 0.03999999910593033]","[0.0, -0.0, 0.7397039398326887]","[-0.075282983481884, 0.10618411004543304, 0.03999999910593033]","[0.0, 0.0, -0.025114755601520013]","[0.026750000193715096, 0.05299999937415123, 0.03999999910593033]","[0.0, 0.0, -0.7397039829241547]","[0.0752829909324646, 0.10618410259485245, 0.03999999910593033]","[0.0, -0.0, 0.025113617980755978]",0.7257335145957226,-3.3528937225526034,"(0.0, 0.0, 0.0, 0.0, 0.0, 0.0)",0.5840196078844049,-0.7783380408184963,-3.244652289205478,"(0.0, 0.0, 0.0, 0.0, 0.0, 0.0)",0.07914031685893824,-0.7257335905863868,3.3528957489703144,"(0.0, 0.0, 0.0, 0.0, 0.0, 0.0)",-0.5840202358821991,0.778337093974245,3.2446775397467595,"(0.0, 0.0, 0.0, 0.0, 0.0, 0.0)",-0.07914064000385382,False,,,,,False,,,,
11,Close,,,"(1.3069317882946781e-07, 0.16999905849316785, 0.0008666025578373041)","(1.570813038524343, 0.0001076496945073061, -1.4014808324094979e-05)",,"[-0.026750000193715096, 0.05299999937415123, 0.03999999910593033]","[0.0, -0.0, 0.6824937890365349]","[-0.07216256856918335, 0.10887216031551361, 0.03999999910593033]","[0.0, 0.0, -0.137687120736303]","[0.026750000193715096, 0.05299999937415123, 0.03999999910593033]","[0.0, 0.0, -0.6824937890365349]","[0.07216257601976395, 0.10887216031551361, 0.03999999910593033]","[0.0, -0.0, 0.1376864353718678]",0.6742443830336282,-1.9798502142300851,"(0.0, 0.0, 0.0, 0.0, 0.0, 0.0)",0.34523008433021124,-0.8281635344937409,-1.9158370237869804,"(0.0, 0.0, 0.0, 0.0, 0.0, 0.0)",0.046989708289177236,-0.6742444279053555,1.9798514108094807,"(0.0, 0.0, 0.0, 0.0, 0.0, 0.0)",-0.3452304573414294,0.8281629754068567,1.9158519335829844,"(0.0, 0.0, 0.0, 0.0, 0.0, 0.0)",-0.04698990114977892,False,,,,,False,,,,
12,Close,,,"(8.555941999099156e-08, 0.16999906193922792, 0.000908421947806545)","(1.5708075491537519, 6.311807488844542e-05, -1.4000595358663434e-05)",,"[-0.026750000193715096, 0.05299999937415123, 0.03999999910593033]","[0.0, -0.0, 0.6487117277688945]","[-0.070249542593956, 0.11037412285804749, 0.03999999910593033]","[0.0, 0.0, -0.20415830575541527]","[0.026750000193715096, 0.05299999937415123, 0.03999999910593033]","[0.0, 0.0, -0.6487117277688945]","[0.070249542593956, 0.11037411540746689, 0.03999999910593033]","[0.0, -0.0, 0.20415788801885543]",0.6438405657375271,-1.1690817530007243,"(0.0, 0.0, 0.0, 0.0, 0.0, 0.0)",0.20397674457790932,-0.8575834812137779,-1.1312243968345508,"(0.0, 0.0, 0.0, 0.0, 0.0, 0.0)",0.027828964636992654,-0.6438405922338334,1.1690824595688907,"(0.0, 0.0, 0.0, 0.0, 0.0, 0.0)",-0.20397696556653716,0.8575831510875931,1.1312332006820753,"(0.0, 0.0, 0.0, 0.0, 0.0, 0.0)",-0.027829079200348807,False,,,,,False,,,,
13,Close,,,"(5.567361934631568e-08, 0.16999906349286917, 0.0009359839309479349)","(1.5708039321322358, 3.37560108188707e-05, -1.3987283228090085e-05)",,"[-0.026750000193715096, 0.05299999937415123, 0.03999999910593033]","[0.0, -0.0, 0.62876384308693]","[-0.06909646838903427, 0.11123037338256836, 0.03999999910593033]","[0.0, 0.0, -0.24340789693353326]","[0.026750000193715096, 0.05299999937415123, 0.03999999910593033]","[0.0, 0.0, -0.62876384308693]","[0.06909646838903427, 0.11123037338256836, 0.03999999910593033]","[0.0, -0.0, 0.24340764580603796]",0.6258874156623524,-0.6903310843293964,"(0.0, 0.0, 0.0, 0.0, 0.0, 0.0)",0.12048853373387189,-0.8749547691894786,-0.6679421640099914,"(0.0, 0.0, 0.0, 0.0, 0.0, 0.0)",0.016461146679105913,-0.6258874313081562,0.6903315015508323,"(0.0, 0.0, 0.0, 0.0, 0.0, 0.0)",-0.12048866447898966,0.8749545742586229,0.6679473624521103,"(0.0, 0.0, 0.0, 0.0, 0.0, 0.0)",-0.016461214564379854,False,,,,,False,,,,
14,Move,,,"(0.0002849434880139787, 0.17128526654835666, 0.0018667775255450016)","(1.529867145493542, 0.001236551690390913, -0.0026252758006009144)","[0.0, 0.0, 0.0]","[-0.026750000193715096, 0.05299999937415123, 0.03999999910593033]","[0.0, -0.0, 0.5674368798319164]","[-0.06544800847768784, 0.113716259598732, 0.03999999910593033]","[0.0, 0.0, -0.23086444862254737]","[0.026750000193715096, 0.05299999937415123, 0.03999999910593033]","[0.0, 0.0, -0.5672775113046467]","[0.06543833017349243, 0.11372242867946625, 0.03999999910593033]","[0.0, -0.0, 0.2338230653212545]",0.5526433844132694,-3.5504372063580854,"(0.0, 0.0, 0.0, 0.0, 0.0, 0.0)",-74.66311326449657,-0.7739535469156117,5.843468067207706,"(0.0, 0.0, 0.0, 0.0, 0.0, 0.0)",-38.567738900473906,-0.5523653530093062,3.5789086898164406,"(0.0, 0.0, 0.0, 0.0, 0.0, 0.0)",70.97380681712595,0.7784689212282292,-5.431581853362886,"(0.0, 0.0, 0.0, 0.0, 0.0, 0.0)",36.631671368390464,True,"(-0.031139027298926508, 0.18549673152317092, 0.03999924353386678)","(0.9999971505660776, -0.0022642037706561637, -0.0007564661332230728)",-0.000503181178828863,565.4925793008347,True,"(0.030917119596597424, 0.1854085662421605, 0.04000075646613322)","(-0.9999971505660776, 0.002264203770598743, 0.0007564661332168607)",-0.0013606486484191646,538.0249494895718
15,Move,"(0.0, 0.0, 0.0)","(0.0, -0.0, 0.0)","(0.00016274991557831364, 0.17136475104845758, 0.0031640906121350575)","(1.4899865793592248, -0.0009251634143453488, -0.006053919932276661)","[-0.00012219357243566505, 7.948450010092367e-05, 0.001297313086590056]","[-0.026750000193715096, 0.05299999937415123, 0.03999999910593033]","[0.0, -0.0, 0.5448782568355026]","[-0.06406860798597336, 0.11457370966672897, 0.03999999910593033]","[0.0, 0.0, -0.2125956411648876]","[0.026750000193715096, 0.05299999937415123, 0.03999999910593033]","[0.0, 0.0, -0.5441825092896027]","[0.06402575969696045, 0.11459966003894806, 0.03999999910593033]","[0.0, -0.0, 0.21903630347083206]",0.5463765798653516,0.35960109272080254,"(0.0, 0.0, 0.0, 0.0, 0.0, 0.0)",-0.08406283938624641,-0.7590286933635231,-0.37315947580442554,"(0.0, 0.0, 0.0, 0.0, 0.0, 0.0)",-0.017297597694563044,-0.5456033040750284,-0.3409927387516254,"(0.0, 0.0, 0.0, 0.0, 0.0, 0.0)",0.7656171975284948,0.7645763731677416,0.32581485659360865,"(0.0, 0.0, 0.0, 0.0, 0.0, 0.0)",0.4026025408250114,True,"(-0.031076504252458274, 0.1869479334441972, 0.04000075744199429)","(0.9999871217005202, -0.0050182382101970815, 0.0007574419942935584)",-0.000622934270282677,0.221954412255134,True,"(0.03056815038234164, 0.1867763680017247, 0.03999924255800572)","(-0.9999871217005204, 0.005018238210180842, -0.0007574419942756659)",-0.0016523435419804678,5.374466445399798
16,Move,"(0.0, 0.0, 0.0)","(0.0, -0.0, 0.0)","(-6.337957008313859e-05, 0.17133241267644161, 0.0031880816687959806)","(1.4928112904341142, -0.0006545114769320461, -0.010066132815740028)","[-0.0003483230580971173, 4.714612808495722e-05, 0.001321304143250979]","[-0.026750000193715096, 0.05299999937415123, 0.03999999910593033]","[0.0, -0.0, 0.5488377527933422]","[-0.06431211531162262, 0.11442546546459198, 0.03999999910593033]","[0.0, 0.0, -0.21077310741645955]","[0.026750000193715096, 0.05299999937415123, 0.03999999910593033]","[0.0, 0.0, -0.547995687933414]","[0.06426037847995758, 0.11445707082748413, 0.03999999910593033]","[0.0, -0.0, 0.2169509060645669]",0.5491401313630154,0.07257638027151496,"(0.0, 0.0, 0.0, 0.0, 0.0, 0.0)",-0.3066840758721345,-0.7593620803589538,0.059702822107754495,"(0.0, 0.0, 0.0, 0.0, 0.0, 0.0)",-0.14686756004205834,-0.548295775753571,-0.07200558529027003,"(0.0, 0.0, 0.0, 0.0, 0.0, 0.0)",0.6643207661695938,0.7647109215877755,-0.05658230443565377,"(0.0, 0.0, 0.0, 0.0, 0.0, 0.0)",0.31795978197997554,True,"(-0.031452010065560435, 0.18685325265429348, 0.04000070146695575)","(0.9999532896982327, -0.009639832249190858, 0.0007014669557505881)",-0.00041340728276361165,2.188996256819944,True,"(0.030953383604334986, 0.1867059297891543, 0.03999929853304425)","(-0.9999532896982325, 0.009639832249198349, -0.0007014669557489135)",-0.0011026932160781453,4.854951800701028
17,Move,"(0.0, 0.0, 0.0)","(0.0, -0.0, 0.0)","(-0.00018503635318464252, 0.17122426474338426, 0.0020779038654625036)","(1.531170242882305, -0.00043878763907482236, -0.013303537154011802)","[-0.0004699798411986212, -6.1001804972399265e-05, 0.00021112633991750198]","[-0.026750000193715096, 0.05299999937415123, 0.03999999910593033]","[0.0, -0.0, 0.5506358975012704]","[-0.06442249566316605, 0.1143578290939331, 0.03999999910593033]","[0.0, 0.0, -0.20855083283645848]","[0.026750000193715096, 0.05299999937415123, 0.03999999910593033]","[0.0, 0.0, -0.5501015567963023]","[0.06438971310853958, 0.1143779456615448, 0.03999999910593033]","[0.0, -0.0, 0.21444578568664924]",0.550964684370257,0.07893443664831157,"(0.0, 0.0, 0.0, 0.0, 0.0, 0.0)",-0.012805702760149012,-0.7592039490970093,-0.004165241203613213,"(0.0, 0.0, 0.0, 0.0, 0.0, 0.0)",-0.0009088854239197933,-0.5505144833763652,-0.09910896464782581,"(0.0, 0.0, 0.0, 0.0, 0.0, 0.0)",0.016095086986517626,0.7645634140777361,0.003867817593457087,"(0.0, 0.0, 0.0, 0.0, 0.0, 0.0)",0.0011576950398015072,True,"(-0.0317234854629974, 0.1868532998353662, 0.0400004982027457)","(0.9999207622335561, -0.012578594845546423, 0.0004982027456894725)",-0.00022412003956257751,0.0,True,"(0.03126381973128947, 0.18671045140399978, 0.039999501797254304)","(-0.9999207622335559, 0.012578594845548739, -0.0004982027456943052)",-0.0007117677809595204,0.0
18,Move,"(0.0, 0.0, 0.0)","(0.0, -0.0, 0.0)","(-0.0004277538273214853, 0.17126797192516488, 0.0010311641756468666)","(1.58267588427068, 0.0064275966064735795, -0.009975418938230252)","[-0.000712697315335464, -1.7294623191776992e-05, -0.000835613349898135]","[-0.026750000193715096, 0.05299999937415123, 0.03999999910593033]","[0.0, -0.0, 0.5518777554812124]","[-0.064498670399189, 0.11431099474430084, 0.03999999910593033]","[0.0, 0.0, -0.2073373115301465]","[0.026750000193715096, 0.05299999937415123, 0.03999999910593033]","[0.0, 0.0, -0.5519942448843683]","[0.06450581550598145, 0.11430659145116806, 0.03999999910593033]","[0.0, -0.0, 0.21250639377830308]",0.5520437496503438,0.03985208879633559,"(0.0, 0.0, 0.0, 0.0, 0.0, 0.0)",-0.0790086018797588,-0.7592126439660251,0.0005663086930798626,"(0.0, 0.0, 0.0, 0.0, 0.0, 0.0)",-0.039238887150881335,-0.5522915816506297,-0.071355139069194,"(0.0, 0.0, 0.0, 0.0, 0.0, 0.0)",0.014569451659633744,0.7645069563132888,0.0015055403852617388,"(0.0, 0.0, 0.0, 0.0, 0.0, 0.0)",0.0030520617795980897,True,"(-0.031887665163757795, 0.18684622277729562, 0.039995032857574046)","(0.9999245374169422, -0.011235967587816038, -0.004967142425954457)",-7.92050836614995e-05,0.5421080363873477,True,"(0.03152023518786095, 0.18669992431467627, 0.040004967142425955)","(-0.999924537416942, 0.011235967587829097, 0.004967142425953457)",-0.0004360834064517454,0.0
19,Move,"(0.0, 0.0, 0.0)","(0.0, -0.0, 0.0)","(-0.00041778291509190216, 0.1712858287849603, 0.0009736516888248238)","(1.576376882617879, 0.005111791454885032, -0.010346600353356963)","[-0.0007027264031058808, 5.622366036350801e-07, -0.0008931258367201779]","[-0.026750000193715096, 0.05299999937415123, 0.03999999910593033]","[0.0, -0.0, 0.5522260863292079]","[-0.06452002376317978, 0.11429783701896667, 0.03999999910593033]","[0.0, 0.0, -0.20678545028574688]","[0.026750000193715096, 0.05299999937415123, 0.03999999910593033]","[0.0, 0.0, -0.5529631109328542]","[0.06456519663333893, 0.11426998674869537, 0.03999999910593033]","[0.0, -0.0, 0.21141555793991523]",0.5522425362611322,0.003963918503771326,"(0.0, 0.0, 0.0, 0.0, 0.0, 0.0)",-0.5037441888725221,-0.7588208643827545,0.045739669225345024,"(0.0, 0.0, 0.0, 0.0, 0.0, 0.0)",-0.2817833896017783,-0.553069050596091,-0.025432112892186606,"(0.0, 0.0, 0.0, 0.0, 0.0, 0.0)",0.007183279559051825,0.7643914749138225,0.003079503985766509,"(0.0, 0.0, 0.0, 0.0, 0.0, 0.0)",0.002142800571303537,True,"(-0.03194905333843053, 0.18685143297040394, 0.03999446620302089)","(0.9999315606046366, -0.010307822164258532, -0.005533796979109445)",-5.607961400218357e-05,3.816629944616403,True,"(0.03165858252404758, 0.1866972376303868, 0.040005533796979104)","(-0.9999315606046367, 0.010307822164254925, 0.0055337969791041325)",-0.0002591079968947621,0.0
20,Move,"(-0.00031, 0.0, -0.00018)","(0.0, 0.03446676206838401, 0.0)","(-0.00037183665304775894, 0.17129741064412263, 0.0009791898642623374)","(1.574518198618402, 0.0034257554666495, -0.010842765623748064)","[-0.0006567801410617376, 1.2144095765970198e-05, -0.0008875876612826643]","[-0.026750000193715096, 0.05299999937415123, 0.03999999910593033]","[0.0, -0.0, 0.5521196422353662]","[-0.06451350450515747, 0.11430185288190842, 0.03999999910593033]","[0.0, 0.0, -0.20615843667454953]","[0.026750000193715096, 0.05299999937415123, 0.03999999910593033]","[0.0, 0.0, -0.5537801007148715]","[0.06461523473262787, 0.11423907428979874, 0.03999999910593033]","[0.0, -0.0, 0.21061984646044724]",0.55208250774031,-0.008923259573248646,"(0.0, 0.0, 0.0, 0.0, 0.0, 0.0)",-0.5199077505144183,-0.7581557250286798,0.029376350380348176,"(0.0, 0.0, 0.0, 0.0, 0.0, 0.0)",-0.2948721865375295,-0.5539456648443843,-0.03974597836953464,"(0.0, 0.0, 0.0, 0.0, 0.0, 0.0)",0.006475787260970365,0.7643990516484416,-0.00020204625650688254,"(0.0, 0.0, 0.0, 0.0, 0.0, 0.0)",0.00048529908226765034,True,"(-0.03198803384546156, 0.18687483152307996, 0.039996289806998604)","(0.9999358115378878, -0.010705478595492144, -0.0037101930013969508)",-4.2595879695514046e-05,3.9127251107900074,True,"(0.03176625552407361, 0.18669208680425778, 0.040003710193001404)","(-0.9999358115378876, 0.010705478595492889, 0.0037101930014007117)",-0.0001252765795070046,0.0
21,Move,"(-0.00021, 0.0, -0.0004)","(0.0, -0.0, 0.0)","(-0.00036673645119850385, 0.1713012034052778, 0.00098246349561529)","(1.5732574830319912, 0.002292330826944469, -0.010948345731031529)","[-0.0006516799392124826, 1.593685692113933e-05, -0.0008843140299297117]","[-0.026750000193715096, 0.05299999937415123, 0.03999999910593033]","[0.0, -0.0, 0.5522029161405835]","[-0.06451861560344696, 0.11429870873689651, 0.03999999910593033]","[0.0, 0.0, -0.2056711255986268]","[0.026750000193715096, 0.05299999937415123, 0.03999999910593033]","[0.0, 0.0, -0.5544334827773614]","[0.06465524435043335, 0.11421431601047516, 0.03999999910593033]","[0.0, -0.0, 0.2099650008135705]",0.5522444396159274,0.009940783641457214,"(0.0, 0.0, 0.0, 0.0, 0.0, 0.0)",-0.17717254828279994,-0.7578308531718004,0.010384680737220878,"(0.0, 0.0, 0.0, 0.0, 0.0, 0.0)",-0.0986590797456569,-0.5545246190682172,-0.02187161808476557,"(0.0, 0.0, 0.0, 0.0, 0.0, 0.0)",0.003562042593937566,0.7643985545388833,1.3256254888460715e-05,"(0.0, 0.0, 0.0, 0.0, 0.0, 0.0)",0.0002655500243368498,True,"(-0.03202851727775806, 0.18688679672639677, 0.03999751598435509)","(0.9999369828495941, -0.010948059002690854, -0.0024840156449065323)",-3.247599154631747e-05,1.3148832327096245,True,"(0.03185370561243218, 0.1866884140195665, 0.040002484015644914)","(-0.9999369828495939, 0.01094805900270472, 0.002484015644912485)",-7.165606561125461e-06,0.0
22,Move,"(0.00072, 0.0, -0.00106)","(0.0, 0.06861063822514908, 0.0)","(-0.00013243125405035898, 0.17130781720148394, 0.0009874816164212525)","(1.5724153491588002, 0.0016182363678600164, -0.01357403298828322)","[-0.0004173747420643377, 2.2550653127284548e-05, -0.0008792959091237491]","[-0.026750000193715096, 0.05299999937415123, 0.03999999910593033]","[0.0, -0.0, 0.5506979489837159]","[-0.06442631781101227, 0.11435548216104507, 0.03999999910593033]","[0.0, 0.0, -0.2069105096388295]","[0.026750000193715096, 0.05299999937415123, 0.03999999910593033]","[0.0, 0.0, -0.5558130479969036]","[0.0647396594285965, 0.11416196823120117, 0.03999999910593033]","[0.0, -0.0, 0.2085570008085378]",0.5502747166119271,-0.10158187103757053,"(0.0, 0.0, 0.0, 0.0, 0.0, 0.0)",-0.5640398508378254,-0.7575159453572107,0.022213576977965086,"(0.0, 0.0, 0.0, 0.0, 0.0, 0.0)",-0.34103489822485317,-0.5561431094445093,-0.07921536889773884,"(0.0, 0.0, 0.0, 0.0, 0.0, 0.0)",0.09277542533779196,0.7642866914079958,-0.020007140083482203,"(0.0, 0.0, 0.0, 0.0, 0.0, 0.0)",0.039975036327940625,True,"(-0.0318462840261292, 0.18690238622863103, 0.03999824678819359)","(0.9999133452428773, -0.013047154998712798, -0.0017532118064100457)",-2.5623434967741992e-05,4.397288272933077,True,"(0.03204020167137604, 0.1866828672995018, 0.0400017532118064)","(-0.9999133452428773, 0.013047154998712507, 0.0017532118063991002)",-1.056736299990115e-05,0.6170635193763593
23,Move,"(0.0029200000000000003, 0.0, -0.00174)","(0.0, 0.10259743474923468, 0.0)","(0.00037749862402503524, 0.171316632228495, 0.0009889174366725807)","(1.571868456308053, 0.0011353925390487467, -0.016321981061621457)","[9.255513601105655e-05, 3.136568013833996e-05, -0.000877860088872421]","[-0.026750000193715096, 0.05299999937415123, 0.03999999910593033]","[0.0, -0.0, 0.5464432056228461]","[-0.06416492164134979, 0.11451523005962372, 0.03999999910593033]","[0.0, 0.0, -0.2098584501359665]","[0.026750000193715096, 0.05299999937415123, 0.03999999910593033]","[0.0, 0.0, -0.558715513362662]","[0.06491702049970627, 0.1140514463186264, 0.03999999910593033]","[0.0, -0.0, 0.2046217258783983]",0.5455151110042638,-0.22273421228103263,"(0.0, 0.0, 0.0, 0.0, 0.0, 0.0)",-1.059600489587207,-0.7560303379507236,0.0651114343934748,"(0.0, 0.0, 0.0, 0.0, 0.0, 0.0)",-0.6291984321475667,-0.559327989802865,-0.1469975097592747,"(0.0, 0.0, 0.0, 0.0, 0.0, 0.0)",0.6245416464782454,0.7630756096316244,-0.0627857270732171,"(0.0, 0.0, 0.0, 0.0, 0.0, 0.0)",0.292896072994762,True,"(-0.03137116526376747, 0.1869657937192648, 0.03999877913729839)","(0.9998716017960902, -0.01597777881886339, -0.0012208627016120823)",-2.0451522585308348e-05,8.226198503112066,True,"(0.03250318732113397, 0.18669946239518298, 0.04000122086270161)","(-0.9998716017960904, 0.01597777881886257, 0.0012208627016027209)",-2.9143220245380126e-05,4.458076355231411
24,Move,"(0.00536, 0.0, -0.00251)","(0.0, 0.06861063822514908, 0.0)","(0.0010626175053451866, 0.1713399926769015, 0.0009882326568165516)","(1.5715045175842552, 0.000793973825223675, -0.01844177776239528)","[0.0007776740173312079, 5.4726128544846375e-05, -0.00087854486872845]","[-0.026750000193715096, 0.05299999937415123, 0.03999999910593033]","[0.0, -0.0, 0.5404499896070055]","[-0.06379557400941849, 0.1147383600473404, 0.03999999910593033]","[0.0, 0.0, -0.21415717982695132]","[0.026750000193715096, 0.05299999937415123, 0.03999999910593033]","[0.0, 0.0, -0.5628304660328356]","[0.06516792625188828, 0.11389386653900146, 0.03999999910593033]","[0.0, -0.0, 0.19900147756136552]",0.5393111548472445,-0.2733054998733094,"(0.0, 0.0, 0.0, 0.0, 0.0, 0.0)",-1.1584682202188943,-0.7543046461088341,0.07258927194259862,"(0.0, 0.0, 0.0, 0.0, 0.0, 0.0)",-0.6851207505732313,-0.563623859005352,-0.19039419396447663,"(0.0, 0.0, 0.0, 0.0, 0.0, 0.0)",0.7588596465901433,0.7615299076255543,-0.07250553430857538,"(0.0, 0.0, 0.0, 0.0, 0.0, 0.0)",0.36027952120715206,True,"(-0.03069063973706923, 0.18704935339614087, 0.03999915957572916)","(0.9998338872859626, -0.01820690862518504, -0.000840424270841529)",-2.17788690917226e-05,9.016076615448851,True,"(0.03316283529668731, 0.186719522213583, 0.04000084042427085)","(-0.9998338872859628, 0.018206908625182105, 0.0008404242708463577)",-4.9347555175240375e-05,5.40321628503634
25,Move,"(0.00717, 0.0, -0.0026700000000000005)","(0.0, 0.06861063822514908, 0.0)","(0.001879814360119019, 0.1713721894580516, 0.0009874061790168362)","(1.5712642002791393, 0.0005833741986058193, -0.02032467933418708)","[0.0015948708721050405, 8.692290969494754e-05, -0.0008793713465281654]","[-0.026750000193715096, 0.05299999937415123, 0.03999999910593033]","[0.0, -0.0, 0.533335261821649]","[-0.06335538625717163, 0.11500036716461182, 0.03999999910593033]","[0.0, 0.0, -0.21937461549472434]","[0.026750000193715096, 0.05299999937415123, 0.03999999910593033]","[0.0, 0.0, -0.5678636824616713]","[0.06547392159700394, 0.11369973421096802, 0.03999999910593033]","[0.0, -0.0, 0.19224954287871276]",0.532001992252049,-0.3199596402699855,"(0.0, 0.0, 0.0, 0.0, 0.0, 0.0)",-1.2679240469738793,-0.7523696047130669,0.08163816017341621,"(0.0, 0.0, 0.0, 0.0, 0.0, 0.0)",-0.7469786664533216,-0.56881155810363,-0.2274969078471923,"(0.0, 0.0, 0.0, 0.0, 0.0, 0.0)",0.8976003203541124,0.7597687601101906,-0.08266450920764383,"(0.0, 0.0, 0.0, 0.0, 0.0, 0.0)",0.43400449877106934,True,"(-0.029873553786252532, 0.18714096798190616, 0.039999392714204884)","(0.9997976219850123, -0.020108363361491553, -0.0006072857951126815)",-2.3979975595822673e-05,9.877643440204018,True,"(0.03396116213758107, 0.1867349756903859, 0.04000060728579513)","(-0.9997976219850122, 0.0201083633614833, 0.000607285795126965)",-6.605811830034426e-05,6.390032219516956
26,Move,"(0.00812, 0.0, -0.00277)","(0.0, 0.06861063822514908, 0.0)","(0.002732198640517219, 0.17141074728533842, 0.0009883513213992151)","(1.571102844187712, 0.00044686125614343345, -0.02191835136512553)","[0.0024472551525032402, 0.00012548073698176454, -0.0008784262041457865]","[-0.026750000193715096, 0.05299999937415123, 0.03999999910593033]","[0.0, -0.0, 0.5257502507376383]","[-0.06288406997919083, 0.11527623236179352, 0.03999999910593033]","[0.0, 0.0, -0.22490173413108377]","[0.026750000193715096, 0.05299999937415123, 0.03999999910593033]","[0.0, 0.0, -0.5732043759051525]","[0.06579754501581192, 0.11349205672740936, 0.03999999910593033]","[0.0, -0.0, 0.18497350552382316]",0.5243897908672894,-0.32650904781879164,"(0.0, 0.0, 0.0, 0.0, 0.0, 0.0)",-1.3677255584970247,-0.7503115481195352,0.08169551646576288,"(0.0, 0.0, 0.0, 0.0, 0.0, 0.0)",-0.802689979942189,-0.5741576508783113,-0.22878888105359968,"(0.0, 0.0, 0.0, 0.0, 0.0, 0.0)",0.9628040297679673,0.7577853712228957,-0.09420269582168081,"(0.0, 0.0, 0.0, 0.0, 0.0, 0.0)",0.4686042182366919,True,"(-0.029003930934772215, 0.18723457688206524, 0.039999535017663665)","(0.9997637804515445, -0.021729406081693596, -0.0004649823363377335)",-2.5037472013013728e-05,10.61437516692309,True,"(0.03481688457889227, 0.1867489971456831, 0.040000464982336344)","(-0.9997637804515445, 0.021729406081689027, 0.00046498233634480017)",-7.867018924705164e-05,6.873481439271954
27,Move,"(0.00858, 0.0, -0.0032)","(0.0, -0.0, 0.0)","(0.0034178940484390205, 0.171434168604413, 0.0009707791501648597)","(1.570463601989763, 0.00020812838720311272, -0.02414354316496097)","[0.0031329505604250417, 0.00014890205605633255, -0.000895998375380142]","[-0.026750000193715096, 0.05299999937415123, 0.03999999910593033]","[0.0, -0.0, 0.5191895705417905]","[-0.06247471645474434, 0.115511953830719, 0.03999999910593033]","[0.0, 0.0, -0.22961686088883207]","[0.026750000193715096, 0.05299999937415123, 0.03999999910593033]","[0.0, 0.0, -0.577736534889489]","[0.06607130169868469, 0.11331446468830109, 0.03999999910593033]","[0.0, -0.0, 0.17860640317575885]",0.5181172097823077,-0.25735553028647407,"(0.0, 0.0, 0.0, 0.0, 0.0, 0.0)",-1.2859122057334176,-0.7484634279577722,0.08230613955800496,"(0.0, 0.0, 0.0, 0.0, 0.0, 0.0)",-0.7435305387355585,-0.5784674257041323,-0.1754172441502803,"(0.0, 0.0, 0.0, 0.0, 0.0, 0.0)",0.8380676216248215,0.7560280425288841,-0.0755710757583621,"(0.0, 0.0, 0.0, 0.0, 0.0, 0.0)",0.40683585418077617,True,"(-0.02825559751536573, 0.18731235645112113, 0.039999728353667705)","(0.999715795348205, -0.023838094294132445, -0.00027164633229311783)",-2.4892384204840795e-05,9.898397116418785,True,"(0.03555759179943843, 0.1867629216958897, 0.04000027164633229)","(-0.9997157953482049, 0.02383809429413403, 0.0002716463322889963)",-8.695535388150427e-05,6.009845742388738
28,Move,"(0.00895, 0.0, -0.004130000000000001)","(0.0, -0.0, 0.0)","(0.004054546062476703, 0.17149261261126456, 0.0009692636884684031)","(1.5705098587295654, 4.56745996128769e-05, -0.025443431215987744)","[0.003769602574462724, 0.00020734606290789825, -0.0008975138370765985]","[-0.026750000193715096, 0.05299999937415123, 0.03999999910593033]","[0.0, -0.0, 0.5129846179368278]","[-0.06208615005016327, 0.11573242396116257, 0.03999999910593033]","[0.0, 0.0, -0.23345414301160633]","[0.026750000193715096, 0.05299999937415123, 0.03999999910593033]","[0.0, 0.0, -0.5814202394607892]","[0.06629321724176407, 0.11316920816898346, 0.03999999910593033]","[0.0, -0.0, 0.17275691910149465]",0.5118624199500618,-0.2693178944045066,"(0.0, 0.0, 0.0, 0.0, 0.0, 0.0)",-1.68011220269362,-0.7459808218453997,0.10989673568757423,"(0.0, 0.0, 0.0, 0.0, 0.0, 0.0)",-0.956788132263335,-0.582037118253477,-0.148049336156659,"(0.0, 0.0, 0.0, 0.0, 0.0, 0.0)",1.209818665746635,0.7537360755536675,-0.10586328999856899,"(0.0, 0.0, 0.0, 0.0, 0.0, 0.0)",0.6079332385536099,True,"(-0.02759169805140764, 0.1874033890553079, 0.039999942775164735)","(0.9996806789606448, -0.025269286458118094, -5.7224835262713e-05)",-3.248504024192735e-05,12.849018513815432,True,"(0.03620953949230252, 0.1867904793359325, 0.04000005722483527)","(-0.9996806789606443, 0.02526928645813364, 5.7224835263530046e-05)",-9.116108637159823e-05,8.789134829029233
29,Move,"(0.009170000000000001, 0.0, -0.005340000000000001)","(0.0, 0.12213290506680723, 0.0)","(0.004868850458646957, 0.17162660166444285, 0.0009674564766606917)","(1.5704763010800566, 7.561402505128227e-05, -0.02670631604029175)","[0.004583906970632979, 0.0003413351160861944, -0.0008993210488843099]","[-0.026750000193715096, 0.05299999937415123, 0.03999999910593033]","[0.0, -0.0, 0.5045580668013858]","[-0.06155627965927124, 0.11602795124053955, 0.03999999910593033]","[0.0, 0.0, -0.23743285800924635]","[0.026750000193715096, 0.05299999937415123, 0.03999999910593033]","[0.0, 0.0, -0.5849249815943789]","[0.0665038526058197, 0.11303024739027023, 0.03999999910593033]","[0.0, -0.0, 0.16524124811732904]",0.5028641739375764,-0.4065206790000897,"(0.0, 0.0, 0.0, 0.0, 0.0, 0.0)",-3.198604046993758,-0.7410250498688179,0.2317995170985801,"(0.0, 0.0, 0.0, 0.0, 0.0, 0.0)",-1.7710346971670374,-0.5855518372882297,-0.15043547358340972,"(0.0, 0.0, 0.0, 0.0, 0.0, 0.0)",2.581853678179511,0.7493094398486815,-0.20563820323590531,"(0.0, 0.0, 0.0, 0.0, 0.0, 0.0)",1.353001300959157,True,"(-0.026776868103966907, 0.1875638886747531, 0.039999934372778635)","(0.9996496640728366, -0.02646780708960614, -6.562722136547472e-05)",-5.1365531318968545e-05,24.26352775405322,True,"(0.03697414731997367, 0.1868692239730556, 0.04000006562722137)","(-0.9996496640728365, 0.02646780708960815, 6.562722137227983e-05)",-0.00012156545069555692,18.98985950365385
30,Move,"(0.008870000000000001, 0.0, -0.00623)","(0.0, 0.23178321532335097, 0.0)","(0.005824131817366728, 0.171872041305503, 0.0009646407205925959)","(1.5703820068566274, 0.00013947426367991666, -0.028213208764688337)","[0.0055391883293527495, 0.00058677475714633, -0.0009021368049524057]","[-0.026750000193715096, 0.05299999937415123, 0.03999999910593033]","[0.0, -0.0, 0.49304847841899774]","[-0.060828570276498795, 0.11642437428236008, 0.03999999910593033]","[0.0, 0.0, -0.2410054842287599]","[0.026750000193715096, 0.05299999937415123, 0.03999999910593033]","[0.0, 0.0, -0.5875040663789545]","[0.06665854156017303, 0.11292752623558044, 0.03999999910593033]","[0.0, -0.0, 0.1553699024389995]",0.49081821496391265,-0.5352679436763874,"(0.0, 0.0, 0.0, 0.0, 0.0, 0.0)",-5.417446285406395,-0.7324201200107765,0.39212099734235994,"(0.0, 0.0, 0.0, 0.0, 0.0, 0.0)",-2.951048074082761,-0.5878768824622083,-0.08947552009793622,"(0.0, 0.0, 0.0, 0.0, 0.0, 0.0)",4.687383355541984,0.7413499087232747,-0.3657781343985146,"(0.0, 0.0, 0.0, 0.0, 0.0, 0.0)",2.502818769448674,True,"(-0.025793750867932418, 0.18783770238554995, 0.03999987395083873)","(0.9996096955109091, -0.027936369703253475, -0.00012604916126898418)",-7.623848682073208e-05,40.798063082391295,True,"(0.03785888113798275, 0.18704599473355543, 0.04000012604916126)","(-0.9996096955109088, 0.027936369703255505, 0.0001260491612643956)",-0.00019385438695381332,34.67718453950647
31,Move,"(0.00814, 0.0, -0.00648)","(0.0, 0.17662382964332216, 0.0)","(0.006511467102446029, 0.1720837199410662, 0.0009612952397581978)","(1.5703138628729179, 0.00020954998274269482, -0.029441751529049376)","[0.006226523614432051, 0.0007984533927095361, -0.0009054822857868038]","[-0.026750000193715096, 0.05299999937415123, 0.03999999910593033]","[0.0, -0.0, 0.48300567746960776]","[-0.060189902782440186, 0.1167634129524231, 0.03999999910593033]","[0.0, 0.0, -0.24315780417994845]","[0.026750000193715096, 0.05299999937415123, 0.03999999910593033]","[0.0, 0.0, -0.5888985731260739]","[0.06674207746982574, 0.11287181079387665, 0.03999999910593033]","[0.0, -0.0, 0.14678651756812885]",0.4814445349525963,-0.3746678124894594,"(0.0, 0.0, 0.0, 0.0, 0.0, 0.0)",-4.510818106789806,-0.7248723449238432,0.30986547444752216,"(0.0, 0.0, 0.0, 0.0, 0.0, 0.0)",-2.4461040386935506,-0.5890825780459286,-0.04415560411779651,"(0.0, 0.0, 0.0, 0.0, 0.0, 0.0)",3.688062863262534,0.7345375647632676,-0.275410972816522,"(0.0, 0.0, 0.0, 0.0, 0.0, 0.0)",1.94876457056576,True,"(-0.025001431595362188, 0.1881020349994272, 0.039999805056268906)","(0.9995728492038337, -0.029224666490335127, -0.00019494373109088308)",-9.569043994085175e-05,33.815493285916645,True,"(0.038579414927152646, 0.1872274579926331, 0.040000194943731075)","(-0.9995728492038338, 0.029224666490332424, 0.00019494373107529505)",-0.0002450608789813518,27.226096928149225
32,Move,"(0.00832, 0.0, -0.005860000000000001)","(0.0, 0.01811302697719716, 0.0)","(0.00682867454998119, 0.1722212226346754, 0.0009525172398737687)","(1.5708721394766398, 6.227529775360036e-05, -0.03014278503559425)","[0.006543731061967211, 0.0009359560863187455, -0.0009142602856712329]","[-0.026750000193715096, 0.05299999937415123, 0.03999999910593033]","[0.0, -0.0, 0.4776404935341744]","[-0.05984732136130333, 0.1169419065117836, 0.03999999910593033]","[0.0, 0.0, -0.2438302631998003]","[0.026750000193715096, 0.05299999937415123, 0.03999999910593033]","[0.0, 0.0, -0.589393325218089]","[0.06677169352769852, 0.11285201460123062, 0.03999999910593033]","[0.0, -0.0, 0.1417201422610179]",0.47700276987701035,-0.15305491051060754,"(0.0, 0.0, 0.0, 0.0, 0.0, 0.0)",-2.463900547139669,-0.7208365962182764,0.15219516184383733,"(0.0, 0.0, 0.0, 0.0, 0.0, 0.0)",-1.3434451770396858,-0.5894272985322903,-0.008141936295456658,"(0.0, 0.0, 0.0, 0.0, 0.0, 0.0)",1.8165552389797452,0.730538928983744,-0.13789888813944762,"(0.0, 0.0, 0.0, 0.0, 0.0, 0.0)",0.9280851861009998,True,"(-0.024610891697016697, 0.1882567336991955, 0.03999992413811045)","(0.9995495562076631, -0.030011313367420443, -7.586188954898189e-05)",-8.913367195983162e-05,18.392266040246803,True,"(0.0389859694567044, 0.1873451141635274, 0.04000007586188955)","(-0.999549556207663, 0.03001131336742611, 7.5861889552182e-05)",-0.00023529147515270868,13.353507267280012
33,Move,"(0.00952, 0.0, -0.005260000000000001)","(0.0, 0.06893701479527203, 0.0)","(0.0072809261245353005, 0.17230640431459082, 0.0009556035348222519)","(1.5707239310981862, -1.8748969593488394e-06, -0.031164818504572228)","[0.006995982636521322, 0.0010211377662341647, -0.0009111739907227498]","[-0.026750000193715096, 0.05299999937415123, 0.03999999910593033]","[0.0, -0.0, 0.47253570452497745]","[-0.05952048301696777, 0.11711002886295319, 0.03999999910593033]","[0.0, 0.0, -0.245094713624041]","[0.026750000193715096, 0.05299999937415123, 0.03999999910593033]","[0.0, 0.0, -0.590780997854851]","[0.06685470789670944, 0.11279642581939697, 0.03999999910593033]","[0.0, -0.0, 0.1369118574156938]",0.47148759905454835,-0.2515545083442215,"(0.0, 0.0, 0.0, 0.0, 0.0, 0.0)",-2.5161421549428713,-0.7169168822022529,0.17126574939145425,"(0.0, 0.0, 0.0, 0.0, 0.0, 0.0)",-1.3847390542540647,-0.5911360541581729,-0.08520343338086016,"(0.0, 0.0, 0.0, 0.0, 0.0, 0.0)",1.878080642339898,0.727046748177262,-0.15507499514020226,"(0.0, 0.0, 0.0, 0.0, 0.0, 0.0)",0.9751208711903963,True,"(-0.024193895523842886, 0.1883805273723552, 0.03999998772991364)","(0.9995197600345542, -0.030987887148236908, -1.2270086362417725e-05)",-9.035102825986941e-05,18.87870082718026,True,"(0.03942736291119139, 0.1874184305316534, 0.04000001227008638)","(-0.9995197600345542, 0.03098788714824162, 1.2270086376242767e-05)",-0.0002091290371956433,13.73495774034335
34,Move,"(0.011110000000000002, 0.0, -0.005600000000000001)","(0.0, 0.08527329659393897, 0.0)","(0.007908375109674555, 0.17240230524725797, 0.0009569437354388949)","(1.5706231026386932, -3.4964043427268223e-05, -0.032348236422931824)","[0.007623431621660576, 0.0011170386989013126, -0.0009098337901061067]","[-0.026750000193715096, 0.05299999937415123, 0.03999999910593033]","[0.0, -0.0, 0.4656323801389196]","[-0.05907713249325752, 0.11733472347259521, 0.03999999910593033]","[0.0, 0.0, -0.24756638824176164]","[0.026750000193715096, 0.05299999937415123, 0.03999999910593033]","[0.0, 0.0, -0.5933490183303723]","[0.0670081377029419, 0.11269323527812958, 0.03999999910593033]","[0.0, -0.0, 0.1305617666268657]",0.4643096762858549,-0.31744998948590847,"(0.0, 0.0, 0.0, 0.0, 0.0, 0.0)",-2.9587345786453683,-0.7123711031347061,0.19863437718359972,"(0.0, 0.0, 0.0, 0.0, 0.0, 0.0)",-1.6063159009825825,-0.5938577663970981,-0.12209420719541234,"(0.0, 0.0, 0.0, 0.0, 0.0, 0.0)",2.0194848307970097,0.7231982794515663,-0.17100611664672072,"(0.0, 0.0, 0.0, 0.0, 0.0, 0.0)",1.0578185911723637,True,"(-0.02357445487930232, 0.1885190236416039, 0.040000025429498605)","(0.9994837753442821, -0.03212759214259684, 2.5429498602149514e-05)",-9.300728977257886e-05,22.19224097296186,True,"(0.04005501305761482, 0.18748269831854725, 0.03999997457050139)","(-0.9994837753442822, 0.0321275921425947, -2.5429498612261454e-05)",-0.00019707561503819096,14.7357049090865
35,Move,"(0.011890000000000001, 0.0, -0.00689)","(0.0, 0.016334536469414934, 0.0)","(0.008420947607343835, 0.17250601115161168, 0.0009576312349710481)","(1.5705740397751202, -7.063608946352734e-05, -0.03339406136090556)","[0.008136004119329856, 0.001220744603255025, -0.0009091462905739536]","[-0.026750000193715096, 0.05299999937415123, 0.03999999910593033]","[0.0, -0.0, 0.45907971540619646]","[-0.05865487456321716, 0.11754517257213593, 0.03999999910593033]","[0.0, 0.0, -0.24951488487297344]","[0.026750000193715096, 0.05299999937415123, 0.03999999910593033]","[0.0, 0.0, -0.5953581368531559]","[0.06712798029184341, 0.11261223256587982, 0.03999999910593033]","[0.0, -0.0, 0.12459777696495006]",0.45799301352792626,-0.26080078026244335,"(0.0, 0.0, 0.0, 0.0, 0.0, 0.0)",-2.974887501128304,-0.7077786732322541,0.19581137863731468,"(0.0, 0.0, 0.0, 0.0, 0.0, 0.0)",-1.5999751097910817,-0.5956387968829528,-0.06736126555664027,"(0.0, 0.0, 0.0, 0.0, 0.0, 0.0)",1.9964877157879124,0.7192572285664312,-0.16768247469766728,"(0.0, 0.0, 0.0, 0.0, 0.0, 0.0)",1.0426062000620993,True,"(-0.023013532622504898, 0.1886610288485796, 0.040000063526735456)","(0.9994485669777201, -0.03320478776525658, 6.352673545534085e-05)",-9.468649238819176e-05,22.215617921544094,True,"(0.040621206141462016, 0.18755622973861447, 0.039999936473264545)","(-0.99944856697772, 0.03320478776525704, -6.352673544910093e-05)",-0.00018897880562672654,14.600312650579461
36,Move,"(0.01238, 0.0, -0.008110000000000001)","(0.0, 0.1362665813494573, 0.0)","(0.009193137680246202, 0.17267646286503402, 0.0009561320042684916)","(1.5704714550309433, -3.064233461843156e-05, -0.03467887476218498)","[0.008908194192232223, 0.0013911963166773622, -0.00091064552127651]","[-0.026750000193715096, 0.05299999937415123, 0.03999999910593033]","[0.0, -0.0, 0.4501794907758899]","[-0.05807914957404137, 0.11782657355070114, 0.03999999910593033]","[0.0, 0.0, -0.25181641513790115]","[0.026750000193715096, 0.05299999937415123, 0.03999999910593033]","[0.0, 0.0, -0.5973014415228988]","[0.06724375486373901, 0.11253365129232407, 0.03999999910593033]","[0.0, -0.0, 0.11674576201307545]",0.4483404799336236,-0.44134637981053104,"(0.0, 0.0, 0.0, 0.0, 0.0, 0.0)",-4.645108752433788,-0.7006355665946471,0.3264689851457555,"(0.0, 0.0, 0.0, 0.0, 0.0, 0.0)",-2.492899814202965,-0.5976803571105447,-0.09092499940200822,"(0.0, 0.0, 0.0, 0.0, 0.0, 0.0)",3.641359602726356,0.7128159457529349,-0.2955175092989462,"(0.0, 0.0, 0.0, 0.0, 0.0, 0.0)",1.9475283317630476,True,"(-0.0222741873480628, 0.18886128292442814, 0.04000004211119365)","(0.9994069927625846, -0.034433429162578875, 4.2111193649007336e-05)",-0.00010173717055003093,34.67120547606126,True,"(0.041326001400883584, 0.18767684876156737, 0.039999957888806344)","(-0.9994069927625848, 0.03443342916257794, -4.211119365037372e-05)",-0.0002150037039963448,26.713932357338923
37,Move,"(0.013450000000000002, 0.0, -0.009030000000000002)","(0.0, 0.12213290506680723, 0.0)","(0.009998875422338852, 0.17285922965255718, 0.0009537504418991655)","(1.5703782113729972, 2.7206952816013517e-05, -0.0360110482731901)","[0.009713931934324873, 0.0015739631042005209, -0.0009130270836458361]","[-0.026750000193715096, 0.05299999937415123, 0.03999999910593033]","[0.0, -0.0, 0.4399413801354023]","[-0.057413820177316666, 0.11814391613006592, 0.03999999910593033]","[0.0, 0.0, -0.2543168232891585]","[0.026750000193715096, 0.05299999937415123, 0.03999999910593033]","[0.0, 0.0, -0.5993061326389837]","[0.06736301630735397, 0.11245235800743103, 0.03999999910593033]","[0.0, -0.0, 0.1077441528042511]",0.43812732135634264,-0.4353692966506491,"(0.0, 0.0, 0.0, 0.0, 0.0, 0.0)",-4.858245913784285,-0.6928699027219,0.33318279582950117,"(0.0, 0.0, 0.0, 0.0, 0.0, 0.0)",-2.598479084021621,-0.5996513494725296,-0.08284938677341605,"(0.0, 0.0, 0.0, 0.0, 0.0, 0.0)",3.8019637923687744,0.7057996737641585,-0.3001458431374264,"(0.0, 0.0, 0.0, 0.0, 0.0, 0.0)",2.0368361191239046,True,"(-0.02143131483119537, 0.1890900496833023, 0.03999998435978317)","(0.9993602466961159, -0.03576446670735882, -1.564021682654371e-05)",-0.00011019871565942569,36.16444011620902,True,"(0.04212241184839196, 0.18781814446969647, 0.040000015640216824)","(-0.9993602466961161, 0.035764466707352775, 1.564021682283557e-05)",-0.0002512426777545165,27.861100991139672
38,Move,"(0.015160000000000002, 0.0, -0.009890000000000001)","(0.0, -0.0, 0.0)","(0.01062183968188137, 0.17303974173676437, 0.0009427038906530998)","(1.5709848651626812, 3.241394028154904e-05, -0.03698786706076297)","[0.01033689619386739, 0.0017544751884077114, -0.0009240736348919018]","[-0.026750000193715096, 0.05299999937415123, 0.03999999910593033]","[0.0, -0.0, 0.4314056351053301]","[-0.0568566620349884, 0.11840327829122543, 0.03999999910593033]","[0.0, 0.0, -0.25611832674616164]","[0.026750000193715096, 0.05299999937415123, 0.03999999910593033]","[0.0, 0.0, -0.6007198693701258]","[0.06744702905416489, 0.11239488422870636, 0.03999999910593033]","[0.0, -0.0, 0.09998152019840896]",0.43004137875047294,-0.32742711523470625,"(0.0, 0.0, 0.0, 0.0, 0.0, 0.0)",-4.081406860024276,-0.6863554400779269,0.2804466384784809,"(0.0, 0.0, 0.0, 0.0, 0.0, 0.0)",-2.2229047706234355,-0.6009185799270795,-0.047687287131765864,"(0.0, 0.0, 0.0, 0.0, 0.0, 0.0)",3.1442691357025585,0.6997013896761116,-0.24000420266762892,"(0.0, 0.0, 0.0, 0.0, 0.0, 0.0)",1.6750463069477075,True,"(-0.020746374268995928, 0.18928527573199191, 0.039999959875314274)","(0.9993240525149314, -0.03676188862319549, -4.012468573231922e-05)",-0.00011171166044824463,30.351705612868336,True,"(0.042791939889699024, 0.18794757019160344, 0.04000004012468573)","(-0.9993240525149316, 0.036761888623190374, 4.0124685726278925e-05)",-0.000263744543213036,22.92164748150355
39,Move,"(0.01699, 0.0, -0.01103)","(0.0, 0.03446676206838401, 0.0)","(0.011403914625841456, 0.17319948834881127, 0.0009440473301668054)","(1.570721173440246, 5.632144925036908e-05, -0.03833752149334628)","[0.011118971137827477, 0.001914221800454613, -0.0009227301953781962]","[-0.026750000193715096, 0.05299999937415123, 0.03999999910593033]","[0.0, -0.0, 0.42195014736430825]","[-0.05623690411448479, 0.11868502199649811, 0.03999999910593033]","[0.0, 0.0, -0.2581503234694038]","[0.026750000193715096, 0.05299999937415123, 0.03999999910593033]","[0.0, 0.0, -0.6025650831097655]","[0.06755655258893967, 0.11231968551874161, 0.03999999910593033]","[0.0, -0.0, 0.09159991589226261]",0.42010342330902856,-0.44321448488652265,"(0.0, 0.0, 0.0, 0.0, 0.0, 0.0)",-4.875328518276602,-0.6787035702402735,0.33524692870239514,"(0.0, 0.0, 0.0, 0.0, 0.0, 0.0)",-2.599227974867056,-0.6029597376934155,-0.09472077076824735,"(0.0, 0.0, 0.0, 0.0, 0.0, 0.0)",3.7385795131906243,0.6929093242422991,-0.3013580292408711,"(0.0, 0.0, 0.0, 0.0, 0.0, 0.0)",2.0100890333413295,True,"(-0.01998263348688161, 0.18949420903835124, 0.03999994656273205)","(0.9992745580597419, -0.03808352345786794, -5.343726794941332e-05)",-0.00011987226505103652,36.17856109687445,True,"(0.04353528308549999, 0.1880693157223064, 0.040000053437267945)","(-0.999274558059742, 0.03808352345786456, 5.3437267942478165e-05)",-0.0002740231484528758,27.30932261396881
40,Move,"(0.0182, 0.0, -0.0121)","(0.0, -0.0, 0.0)","(0.012170094535029518, 0.17337147134412434, 0.0009442653277642332)","(1.570529980465474, 7.762173714170062e-05, -0.0396570081437855)","[0.011885151047015539, 0.002086204795767682, -0.0009225121977807684]","[-0.026750000193715096, 0.05299999937415123, 0.03999999910593033]","[0.0, -0.0, 0.4118619080218362]","[-0.055572766810655594, 0.11897914856672287, 0.03999999910593033]","[0.0, 0.0, -0.2602082654635494]","[0.026750000193715096, 0.05299999937415123, 0.03999999910593033]","[0.0, 0.0, -0.6043235633241849]","[0.06766080111265182, 0.11224783957004547, 0.03999999910593033]","[0.0, -0.0, 0.08263715986372316]",0.41009193906270414,-0.42479131878177784,"(0.0, 0.0, 0.0, 0.0, 0.0, 0.0)",-5.094393773581483,-0.670625578837834,0.3466996993541537,"(0.0, 0.0, 0.0, 0.0, 0.0, 0.0)",-2.7028033485480845,-0.6045945368143097,-0.06504341099325234,"(0.0, 0.0, 0.0, 0.0, 0.0, 0.0)",3.9162423968238955,0.6856599435798301,-0.31217823105235415,"(0.0, 0.0, 0.0, 0.0, 0.0, 0.0)",2.1075653560390473,True,"(-0.019172821761031272, 0.18971430083881283, 0.03999992293443151)","(0.9992230616706738, -0.03941150956741971, -7.706556849320609e-05)",-0.00012746583860940336,37.6925017764227,True,"(0.044319081764216825, 0.1882020922281903, 0.04000007706556849)","(-0.9992230616706738, 0.03941150956742069, 7.706556849631016e-05)",-0.0002903598949074336,28.593836794636985
41,Move,"(0.017730000000000003, 0.0, -0.01248)","(0.0, 0.10259743474923468, 0.0)","(0.01306778277982377, 0.1735749846173611, 0.0009422306066780644)","(1.5703643525375781, 0.00014487996409855378, -0.04112177073880852)","[0.01278283929180979, 0.002289718069004437, -0.0009245469188669372]","[-0.026750000193715096, 0.05299999937415123, 0.03999999910593033]","[0.0, -0.0, 0.40044554530876064]","[-0.05481766536831856, 0.11930388957262039, 0.03999999910593033]","[0.0, 0.0, -0.26232619227858855]","[0.026750000193715096, 0.05299999937415123, 0.03999999910593033]","[0.0, 0.0, -0.6059814937993285]","[0.0677589699625969, 0.11217992752790451, 0.03999999910593033]","[0.0, -0.0, 0.07258554541407317]",0.3982796496764268,-0.5198204414437615,"(0.0, 0.0, 0.0, 0.0, 0.0, 0.0)",-6.016253291662197,-0.6610083527970916,0.4232235759190693,"(0.0, 0.0, 0.0, 0.0, 0.0, 0.0)",-3.1976088646527576,-0.6062882045645582,-0.07361635988808489,"(0.0, 0.0, 0.0, 0.0, 0.0, 0.0)",4.926327958749488,0.6769763941368249,-0.3817498968559816,"(0.0, 0.0, 0.0, 0.0, 0.0, 0.0)",2.6684389954421204,True,"(-0.018267959205699506, 0.1899624785616088, 0.03999986747695275)","(0.9991656289764408, -0.040841502295526744, -0.0001325230472480008)",-0.00013862466936819825,44.4351896187958,True,"(0.04518149526356413, 0.18835635224621014, 0.04000013252304725)","(-0.9991656289764406, 0.04084150229552993, 0.0001325230472536382)",-0.0003192630487269787,35.950245706958036
42,Move,"(0.01508, 0.0, -0.01157)","(0.0, 0.29815110545968726, 0.0)","(0.014201567295275233, 0.17390846377680746, 0.0009384030682473819)","(1.5701379444852042, 0.00025630424995395055, -0.042762745327094336)","[0.013916623807261254, 0.0026231972284508076, -0.0009283744572976197]","[-0.026750000193715096, 0.05299999937415123, 0.03999999910593033]","[0.0, -0.0, 0.38505226396600317]","[-0.05379374325275421, 0.11972807347774506, 0.03999999910593033]","[0.0, 0.0, -0.2640408331020681]","[0.026750000193715096, 0.05299999937415123, 0.03999999910593033]","[0.0, 0.0, -0.6064003854456077]","[0.06778375804424286, 0.112162746489048, 0.03999999910593033]","[0.0, -0.0, 0.059351311823365935]",0.38201903087291567,-0.7279742467471941,"(0.0, 0.0, 0.0, 0.0, 0.0, 0.0)",-9.330245296648904,-0.6463198436935002,0.665582412213128,"(0.0, 0.0, 0.0, 0.0, 0.0, 0.0)",-4.918995208341743,-0.6063551911994045,0.010838963885563428,"(0.0, 0.0, 0.0, 0.0, 0.0, 0.0)",8.088062625812483,0.6631211152574057,-0.6313299050163795,"(0.0, 0.0, 0.0, 0.0, 0.0, 0.0)",4.421986217563291,True,"(-0.017122933769831532, 0.1903239910816023, 0.0399997694344243)","(0.9990985247900123, -0.042450967031821045, -0.0002305655757076119)",-0.00016408845271729869,68.63133186009536,True,"(0.046215805512365794, 0.18861967557708953, 0.0400002305655757)","(-0.999098524790012, 0.04245096703182225, 0.0002305655757011308)",-0.0004019192109688086,59.09292233515502
43,Move,"(0.011680000000000001, 0.0, -0.0102)","(0.0, 0.35240641058718314, 0.0)","(0.015154852388331905, 0.1743809642889389, 0.0009020894020924284)","(1.5720056737505992, 0.0003836699582545327, -0.043649025152625816)","[0.014869908900317926, 0.003095697740582243, -0.0009646881234525733]","[-0.026750000193715096, 0.05299999937415123, 0.03999999910593033]","[0.0, -0.0, 0.3693758030071726]","[-0.05274440348148346, 0.12014380842447281, 0.03999999910593033]","[0.0, 0.0, -0.2640538310561379]","[0.026750000193715096, 0.05299999937415123, 0.03999999910593033]","[0.0, 0.0, -0.6043767639292578]","[0.06766395270824432, 0.11224566400051117, 0.03999999910593033]","[0.0, -0.0, 0.04560612766959452]",0.36672582131959763,-0.6359895726834003,"(0.0, 0.0, 0.0, 0.0, 0.0, 0.0)",-9.93103486221645,-0.6304728457688689,0.7096250553146974,"(0.0, 0.0, 0.0, 0.0, 0.0, 0.0)",-5.323222340483386,-0.6038376928322612,0.1293635879718193,"(0.0, 0.0, 0.0, 0.0, 0.0, 0.0)",8.80003243525343,0.6472797907901157,-0.6487305837806903,"(0.0, 0.0, 0.0, 0.0, 0.0, 0.0)",4.782915195807797,True,"(-0.016072712894481048, 0.19073837228643847, 0.03999964268458685)","(0.999060293879741, -0.04334052974550415, -0.0003573154131636399)",-0.0001801884893547237,72.63445746703533,True,"(0.04714827572434931, 0.1889789769794123, 0.04000035731541318)","(-0.9990602938797407, 0.043340529745513286, 0.0003573154131776007)",-0.0005019775500207578,63.970027980296386
44,Move,"(0.009080000000000001, 0.0, -0.00911)","(0.0, 0.38375426928225326, 0.0)","(0.015800817915517337, 0.17476688453640646, 0.0009071111585816665)","(1.5710638315264274, 0.0005212513333782977, -0.04490563430748176)","[0.015515874427503358, 0.003481617988049801, -0.0009596663669633351]","[-0.026750000193715096, 0.05299999937415123, 0.03999999910593033]","[0.0, -0.0, 0.3555494782376061]","[-0.05181359872221947, 0.12049678713083267, 0.03999999910593033]","[0.0, 0.0, -0.2613077053343335]","[0.026750000193715096, 0.05299999937415123, 0.03999999910593033]","[0.0, 0.0, -0.6002022054813237]","[0.06741627305746078, 0.11241594702005386, 0.03999999910593033]","[0.0, -0.0, 0.03413767200899951]",0.35318577023501607,-0.567295012304468,"(0.0, 0.0, 0.0, 0.0, 0.0, 0.0)",-10.272855334999024,-0.6138999653743941,0.7097285832605218,"(0.0, 0.0, 0.0, 0.0, 0.0, 0.0)",-5.344894003220194,-0.5993536510969789,0.20364594797136135,"(0.0, 0.0, 0.0, 0.0, 0.0, 0.0)",8.905889797256037,0.6315313740238419,-0.6740320318858413,"(0.0, 0.0, 0.0, 0.0, 0.0, 0.0)",4.8238835308017345,True,"(-0.015336085088204117, 0.1911877259454027, 0.0399995078445528)","(0.9990021130885831, -0.04466022646115593, -0.0004921554471981296)",-0.00020636330774213962,74.81969028186242,True,"(0.0477814354345582, 0.18936935389245582, 0.040000492155447195)","(-0.9990021130885824, 0.044660226461169183, 0.0004921554471915929)",-0.0005778902714266197,64.64452443821422
45,Move,"(0.008400000000000001, 0.0, -0.00882)","(0.0, 0.3749682818277138, 0.0)","(0.0163041790313949, 0.17514001386617498, 0.0009084448487441332)","(1.5704052845351892, 0.0006390214470147576, -0.04612721375207071)","[0.01601923554338092, 0.003854747317818319, -0.0009583326768008684]","[-0.026750000193715096, 0.05299999937415123, 0.03999999910593033]","[0.0, -0.0, 0.34327494959545674]","[-0.0509832389652729, 0.12079934030771255, 0.03999999910593033]","[0.0, 0.0, -0.2576307787363994]","[0.026750000193715096, 0.05299999937415123, 0.03999999910593033]","[0.0, 0.0, -0.595409531498582]","[0.06713104993104935, 0.11261016130447388, 0.03999999910593033]","[0.0, -0.0, 0.02387767475922217]",0.34118079753449626,-0.5025932699961232,"(0.0, 0.0, 0.0, 0.0, 0.0, 0.0)",-9.73446000427506,-0.5981274575199752,0.6667858977756121,"(0.0, 0.0, 0.0, 0.0, 0.0, 0.0)",-5.048855609258803,-0.5945530374464599,0.20556596011346812,"(0.0, 0.0, 0.0, 0.0, 0.0, 0.0)",8.371334835146529,0.6166596447799856,-0.6306215075369023,"(0.0, 0.0, 0.0, 0.0, 0.0, 0.0)",4.50448138920528,True,"(-0.014766104582904255, 0.19161903098630026, 0.03999937248969583)","(0.9989468033511167, -0.04587908352837166, -0.0006275103041695868)",-0.00022483425902755232,70.634627859638,True,"(0.048286317383823905, 0.18975193957169223, 0.040000627510304164)","(-0.9989468033511161, 0.0458790835283844, 0.0006275103041666398)",-0.000623489095897615,60.47686107960012
46,Move,"(0.00833, 0.0, -0.008409999999999999)","(0.0, 0.406281233937744, 0.0)","(0.01689205805670186, 0.17553076795094946, 0.0009077872290334164)","(1.569957493631989, 0.0007124746408191389, -0.04751066480213177)","[0.01660711456868788, 0.004245501402592805, -0.0009589902965115852]","[-0.026750000193715096, 0.05299999937415123, 0.03999999910593033]","[0.0, -0.0, 0.3303804400706436]","[-0.05010700970888138, 0.12110617011785507, 0.03999999910593033]","[0.0, 0.0, -0.25387931666069413]","[0.026750000193715096, 0.05299999937415123, 0.03999999910593033]","[0.0, 0.0, -0.5906971876044214]","[0.06684969365596771, 0.11279978603124619, 0.03999999910593033]","[0.0, -0.0, 0.012986246735108061]",0.32798146211377016,-0.5757533871865497,"(0.0, 0.0, 0.0, 0.0, 0.0, 0.0)",-10.576975182765828,-0.5812096796150475,0.7320115610569542,"(0.0, 0.0, 0.0, 0.0, 0.0, 0.0)",-5.485824778378198,-0.5898667949358801,0.19928944132552381,"(0.0, 0.0, 0.0, 0.0, 0.0, 0.0)",9.024740164144356,0.600810745904277,-0.689439893859755,"(0.0, 0.0, 0.0, 0.0, 0.0, 0.0)",4.878181343234967,True,"(-0.014156038322974532, 0.19205612945948294, 0.039999293242169304)","(0.9988836361533306, -0.047233271308149256, -0.0007067578306934125)",-0.0002437595951042177,76.52499920347934,True,"(0.04884575292101415, 0.19013271220073988, 0.04000070675783069)","(-0.9988836361533312, 0.0472332713081398, 0.0007067578306887323)",-0.000653932170281112,65.04007225221713
47,Move,"(0.00843, 0.0, -0.008100000000000001)","(0.0, 0.35240641058718314, 0.0)","(0.0173251421919542, 0.17585067381204034, 0.0009107587706076796)","(1.569769280572996, 0.0005727485068213171, -0.04877638682008614)","[0.01704019870394022, 0.0045654072636836796, -0.0009560187549373221]","[-0.026750000193715096, 0.05299999937415123, 0.03999999910593033]","[0.0, -0.0, 0.31937181187248803]","[-0.04935585334897041, 0.12135916203260422, 0.03999999910593033]","[0.0, 0.0, -0.2502737072763692]","[0.026750000193715096, 0.05299999937415123, 0.03999999910593033]","[0.0, 0.0, -0.5865333135608808]","[0.06660034507513046, 0.11296623945236206, 0.03999999910593033]","[0.0, -0.0, 0.003267834446855408]",0.3176369164930608,-0.41637415096790237,"(0.0, 0.0, 0.0, 0.0, 0.0, 0.0)",-8.47780283272899,-0.5672696373890045,0.5702088062781052,"(0.0, 0.0, 0.0, 0.0, 0.0, 0.0)",-4.389142467753213,-0.5858375260329938,0.1669822186938688,"(0.0, 0.0, 0.0, 0.0, 0.0, 0.0)",7.23539175309791,0.5875323175148398,-0.5445124775315644,"(0.0, 0.0, 0.0, 0.0, 0.0, 0.0)",3.8890223474848757,True,"(-0.013661158424529342, 0.19243339594672854, 0.0399993944963779)","(0.9988218034153753, -0.04852461630369552, -0.0006055036221028541)",-0.0002500394861433409,61.11383343047886,True,"(0.04934835384880207, 0.1904620649000693, 0.040000605503622104)","(-0.9988218034153745, 0.04852461630371165, 0.0006055036221064247)",-0.0006390268608686888,51.9203595634991
48,Move,"(0.00854, 0.0, -0.007770000000000001)","(0.0, 0.330265163696383, 0.0)","(0.017678136453370602, 0.17612705498016545, 0.0009138767198287081)","(1.5697066137200129, 0.0003868799439998984, -0.049960521030073944)","[0.017393192965356623, 0.004841788431808797, -0.0009529008057162935]","[-0.026750000193715096, 0.05299999937415123, 0.03999999910593033]","[0.0, -0.0, 0.31040905292234894]","[-0.04874226823449135, 0.1215590238571167, 0.03999999910593033]","[0.0, 0.0, -0.2468191433806822]","[0.026750000193715096, 0.05299999937415123, 0.03999999910593033]","[0.0, 0.0, -0.5828937669977377]","[0.06638183444738388, 0.11311087757349014, 0.03999999910593033]","[0.0, 0.0, -0.004945833237324549]",0.30888494165011754,-0.3657863463481093,"(0.0, 0.0, 0.0, 0.0, 0.0, 0.0)",-7.534165066994064,-0.5551015333195175,0.5103934847335753,"(0.0, 0.0, 0.0, 0.0, 0.0, 0.0)",-3.899573829543203,-0.5822704573492369,0.14958404890635177,"(0.0, 0.0, 0.0, 0.0, 0.0, 0.0)",6.404679640764954,0.5759137650956674,-0.48819020386162726,"(0.0, 0.0, 0.0, 0.0, 0.0, 0.0)",3.4357078631213853,True,"(-0.013293536528036082, 0.19275149427850174, 0.03999957755634113)","(0.9987629253947004, -0.04972364023656315, -0.00042244365887334943)",-0.00024245451221249404,54.174310202807376,True,"(0.049766565967454934, 0.1907387884085457, 0.04000042244365887)","(-0.9987629253947001, 0.049723640236571, 0.0004224436588660805)",-0.0005953727156003882,45.82447004820573
49,Move,"(0.00846, 0.0, -0.008010000000000001)","(0.0, 0.35240641058718314, 0.0)","(0.018097406538492667, 0.17641478624344065, 0.0009146837001865509)","(1.5696571225299996, 0.00026396284856362195, -0.05112972527429484)","[0.017812463050478688, 0.005129519695083989, -0.0009520938253584507]","[-0.026750000193715096, 0.05299999937415123, 0.03999999910593033]","[0.0, -0.0, 0.3009444169873619]","[-0.04809240251779556, 0.12176410108804703, 0.03999999910593033]","[0.0, 0.0, -0.24350147885303247]","[0.026750000193715096, 0.05299999937415123, 0.03999999910593033]","[0.0, 0.0, -0.5793024623182077]","[0.06616570055484772, 0.11325281858444214, 0.03999999910593033]","[0.0, 0.0, -0.01346980691682212]",0.2991772202531774,-0.42412018663360584,"(0.0, 0.0, 0.0, 0.0, 0.0, 0.0)",-8.187673769998902,-0.5420987633586022,0.5632973646767304,"(0.0, 0.0, 0.0, 0.0, 0.0, 0.0)",-4.2399886814634025,-0.5786553385912603,0.155304812534346,"(0.0, 0.0, 0.0, 0.0, 0.0, 0.0)",6.918321836635257,0.5636065145064361,-0.5342689148223992,"(0.0, 0.0, 0.0, 0.0, 0.0, 0.0)",3.726514810127065,True,"(-0.0128802794559877, 0.1930693007526172, 0.03999971420288641)","(0.9987040094881738, -0.05089420155828565, -0.0002857971135900967)",-0.00023863977186798082,58.757873803229074,True,"(0.050212328381246764, 0.19101219486634743, 0.040000285797113594)","(-0.9987040094881736, 0.05089420155829047, 0.0002857971135929263)",-0.0005658235913399781,49.43542388425167
50,Move,"(0.00854, 0.0, -0.00809)","(0.0, 0.3749682818277138, 0.0)","(0.018616567841313898, 0.17671460970325173, 0.0009131013520265295)","(1.5695994373123927, 0.00021192314240105325, -0.05234201539519653)","[0.01833162435329992, 0.005429343154895072, -0.0009536761735184721]","[-0.026750000193715096, 0.05299999937415123, 0.03999999910593033]","[0.0, -0.0, 0.2901414099124622]","[-0.04734831675887108, 0.1219906434416771, 0.03999999910593033]","[0.0, 0.0, -0.24037437985493124]","[0.026750000193715096, 0.05299999937415123, 0.03999999910593033]","[0.0, 0.0, -0.5757310936217506]","[0.06595026701688766, 0.11339320242404938, 0.03999999910593033]","[0.0, 0.0, -0.022965522305727633]",0.2881382212976521,-0.4807691877599104,"(0.0, 0.0, 0.0, 0.0, 0.0, 0.0)",-8.84741135957839,-0.52797577093195,0.6096049674437976,"(0.0, 0.0, 0.0, 0.0, 0.0, 0.0)",-4.583248909667696,-0.5751013476307069,0.1511276592099834,"(0.0, 0.0, 0.0, 0.0, 0.0, 0.0)",7.430135615448077,0.5503771025327934,-0.5732212803888264,"(0.0, 0.0, 0.0, 0.0, 0.0, 0.0)",4.018699849869856,True,"(-0.012359557933998747, 0.1934012809785532, 0.039999777631450434)","(0.9986419879713758, -0.05209731675246557, -0.00022236854956461994)",-0.00024094910646006989,63.35179911923544,True,"(0.05073551350828233, 0.1912922822470265, 0.04000022236854958)","(-0.9986419879713758, 0.05209731675246576, 0.00022236854957748128)",-0.0005597886187346038,53.01319938752736
51,Move,"(0.00813, 0.0, -0.00822)","(0.0, 0.3749682818277138, 0.0)","(0.01916165542140401, 0.1770977824667731, 0.0008760754746146923)","(1.5717794158126996, 0.00022691356528853858, -0.052973534810217764)","[0.01887671193339003, 0.005812515918416444, -0.0009907020509303094]","[-0.026750000193715096, 0.05299999937415123, 0.03999999910593033]","[0.0, -0.0, 0.2793190624713714]","[-0.04660048335790634, 0.12220952659845352, 0.03999999910593033]","[0.0, 0.0, -0.23735213863458554]","[0.026750000193715096, 0.05299999937415123, 0.03999999910593033]","[0.0, 0.0, -0.5719843741045468]","[0.065723717212677, 0.11353965103626251, 0.03999999910593033]","[0.0, 0.0, -0.03277832943477777]",0.277418365219419,-0.45616412161419523,"(0.0, 0.0, 0.0, 0.0, 0.0, 0.0)",-7.946627215128291,-0.5143636628888484,0.5538013070544288,"(0.0, 0.0, 0.0, 0.0, 0.0, 0.0)",-4.103073505860624,-0.5713143699809279,0.16079469458920545,"(0.0, 0.0, 0.0, 0.0, 0.0, 0.0)",8.049853064464603,0.5366366434936641,-0.6166499631691347,"(0.0, 0.0, 0.0, 0.0, 0.0, 0.0)",4.483561696741613,True,"(-0.011827903525169173, 0.19372166175604344, 0.039999806773015734)","(0.9985947728357529, -0.052994738686435526, -0.0001932269842674711)",-0.0002318180025926145,56.82459270362238,True,"(0.05127358062938062, 0.19157537676249164, 0.04000019322698427)","(-0.9985947728357523, 0.052994738686443846, 0.0001932269842628317)",-0.0005616264023509032,57.84557452106402
52,Move,"(0.00784, 0.0, -0.00838)","(0.0, 0.35240641058718314, 0.0)","(0.019498928650912985, 0.17733993408490606, 0.0008880823108051703)","(1.571029176561519, 8.556130859390839e-05, -0.05399935923647919)","[0.019213985162899006, 0.006054667536549402, -0.0009786952147398313]","[-0.026750000193715096, 0.05299999937415123, 0.03999999910593033]","[0.0, -0.0, 0.2700314359697089]","[-0.045956842601299286, 0.12239090353250504, 0.03999999910593033]","[0.0, 0.0, -0.23387069318369635]","[0.026750000193715096, 0.05299999937415123, 0.03999999910593033]","[0.0, 0.0, -0.5679632746656308]","[0.06547996401786804, 0.11369588226079941, 0.03999999910593033]","[0.0, 0.0, -0.04122759325080827]",0.2684986054742442,-0.36787509506365595,"(0.0, 0.0, 0.0, 0.0, 0.0, 0.0)",-7.810449676115989,-0.501700874260463,0.528298310074957,"(0.0, 0.0, 0.0, 0.0, 0.0, 0.0)",-4.030975605881889,-0.5672304762881827,0.17584677836508136,"(0.0, 0.0, 0.0, 0.0, 0.0, 0.0)",6.616816830884605,0.5246239170297726,-0.5067976459474011,"(0.0, 0.0, 0.0, 0.0, 0.0, 0.0)",3.5590822289139297,True,"(-0.011433659177253107, 0.19401938899725013, 0.039999886674944)","(0.9985521923389653, -0.05379132209267137, -0.00011332505599874833)",-0.00022498987602658172,55.61437820214126,True,"(0.0516892374081529, 0.19184327439603754, 0.040000113325056)","(-0.9985521923389654, 0.05379132209267103, 0.00011332505600089335)",-0.0005464456736527761,46.92745471635533
53,Move,"(0.00749, 0.0, -0.00895)","(0.0, 0.35240641058718314, 0.0)","(0.01978749666150051, 0.17758980821993306, 0.0008954900024344362)","(1.5705182853242772, -2.8961189444967308e-05, -0.05493896350099788)","[0.01950255317348653, 0.0063045416715764024, -0.0009712875231105654]","[-0.026750000193715096, 0.05299999937415123, 0.03999999910593033]","[0.0, -0.0, 0.2615132060769936]","[-0.045365069061517715, 0.12255199253559113, 0.03999999910593033]","[0.0, 0.0, -0.2299104363568001]","[0.026750000193715096, 0.05299999937415123, 0.03999999910593033]","[0.0, 0.0, -0.563570800665264]","[0.06521298736333847, 0.11386541277170181, 0.03999999910593033]","[0.0, 0.0, -0.0488281155300947]",0.2600115072658068,-0.36041169040436355,"(0.0, 0.0, 0.0, 0.0, 0.0, 0.0)",-7.9547011598812425,-0.48918034057237686,0.5383974362568835,"(0.0, 0.0, 0.0, 0.0, 0.0, 0.0)",-4.018418344181995,-0.5627591358709985,0.194794127645648,"(0.0, 0.0, 0.0, 0.0, 0.0, 0.0)",6.576507161964786,0.5126456138015291,-0.5032925707095173,"(0.0, 0.0, 0.0, 0.0, 0.0, 0.0)",3.5312401164084664,True,"(-0.011126076801108331, 0.1943117590909163, 0.04000000707405816)","(0.9985021129798952, -0.0547131640891118, 7.074058157095429e-06)",-0.000222128125520484,56.70356617012075,True,"(0.052016229880214586, 0.1921086979092611, 0.03999999292594183)","(-0.9985021129798956, 0.05471316408910734, -7.07405816820583e-06)",-0.0005296071644854143,46.50658997392277
54,Move,"(0.0074, 0.0, -0.00973)","(0.0, 0.35240641058718314, 0.0)","(0.02000567809238508, 0.1778478021037213, 0.0009011306472271404)","(1.570200138172239, -0.00017142641605865007, -0.05650179843506119)","[0.019720734604371102, 0.006562535555364651, -0.0009656468783178613]","[-0.026750000193715096, 0.05299999937415123, 0.03999999910593033]","[0.0, -0.0, 0.25302682172890134]","[-0.04477415978908539, 0.12270745635032654, 0.03999999910593033]","[0.0, 0.0, -0.2256504764877918]","[0.026750000193715096, 0.05299999937415123, 0.03999999910593033]","[0.0, 0.0, -0.5588565399920805]","[0.06492562592029572, 0.11404605954885483, 0.03999999910593033]","[0.0, 0.0, -0.056121246036702925]",0.25151707621246194,-0.36233835937050585,"(0.0, 0.0, 0.0, 0.0, 0.0, 0.0)",-8.778239272217116,-0.4757647942647301,0.6989901576820666,"(0.0, 0.0, 0.0, 0.0, 0.0, 0.0)",-4.659492373613872,-0.5580742753698839,0.18773571172464826,"(0.0, 0.0, 0.0, 0.0, 0.0, 0.0)",7.786455822116737,0.5006467369967662,-0.5012452977630071,"(0.0, 0.0, 0.0, 0.0, 0.0, 0.0)",3.607606236731456,True,"(-0.010841453899727342, 0.19460717341468536, 0.04000010488963551)","(0.9984464254778336, -0.05572005427762018, 0.00010488963551293937)",-0.0002325174198087999,61.99619773617626,True,"(0.0522996348059247, 0.1923799017202888, 0.039999932480407153)","(-0.9984684817451405, 0.05532347063099747, -6.751959284501549e-05)",-0.0005203771026446416,42.22962349488837
55,Move,"(0.0074600000000000005, 0.0, -0.01026)","(0.0, 0.35240641058718314, 0.0)","(0.020062215154316092, 0.1780894499723139, 0.0009115525750821294)","(1.5701979566222972, -0.0004607892785363341, -0.060954845029840804)","[0.019777271666302113, 0.00680418342395725, -0.0009552249504628722]","[-0.026750000193715096, 0.05299999937415123, 0.03999999910593033]","[0.0, -0.0, 0.24437606353501526]","[-0.04417047277092934, 0.12286076694726944, 0.03999999910593033]","[0.0, 0.0, -0.21815382951565201]","[0.026750000193715096, 0.05299999937415123, 0.03999999910593033]","[0.0, 0.0, -0.5544191305248735]","[0.06465436518192291, 0.11421485990285873, 0.03999999910593033]","[0.0, 0.0, -0.06345733543534716]",0.2428210780645978,-0.3732003664676411,"(0.0, 0.0, 0.0, 0.0, 0.0, 0.0)",-9.224484548352859,-0.4596625615265705,0.6881613467771558,"(0.0, 0.0, 0.0, 0.0, 0.0, 0.0)",-4.972287852993874,-0.5536263694693063,0.19025794337307053,"(0.0, 0.0, 0.0, 0.0, 0.0, 0.0)",7.739216476692242,0.48885430427726173,-0.5057933426304333,"(0.0, 0.0, 0.0, 0.0, 0.0, 0.0)",3.511704103367615,True,"(-0.010778364373763415, 0.19500094578111735, 0.040000411452396155)","(0.9981904123529648, -0.06013095204255453, 0.0004114523961573707)",-0.00018276626058280683,64.68227650917117,True,"(0.05260337264287425, 0.19263921718283708, 0.039999932480407153)","(-0.9984684817451405, 0.05532347063099747, -6.751959284501549e-05)",-0.0003272943762288472,40.52420386473134
56,Move,"(0.007370000000000001, 0.0, -0.010750000000000001)","(0.0, 0.35240641058718314, 0.0)","(0.020145070850623458, 0.17831450222021736, 0.0009196555315856443)","(1.5702391560809648, -0.000676310470461968, -0.06573602387452976)","[0.01986012736260948, 0.007029235671860701, -0.0009471219939593573]","[-0.026750000193715096, 0.05299999937415123, 0.03999999910593033]","[0.0, -0.0, 0.23533036743273558]","[-0.04353782534599304, 0.12301549315452576, 0.03999999910593033]","[0.0, 0.0, -0.21090987535412425]","[0.026750000193715096, 0.05299999937415123, 0.03999999910593033]","[0.0, 0.0, -0.549965867440629]","[0.06438139081001282, 0.11438304930925369, 0.03999999910593033]","[0.0, 0.0, -0.07073621200604374]",0.23369211576175852,-0.39317960044300376,"(0.0, 0.0, 0.0, 0.0, 0.0, 0.0)",-9.319851495559723,-0.4433132640545939,0.7024722732744935,"(0.0, 0.0, 0.0, 0.0, 0.0, 0.0)",-5.066108466339907,-0.5491741858513535,0.1900219961399387,"(0.0, 0.0, 0.0, 0.0, 0.0, 0.0)",7.79748243373488,0.47714502823276456,-0.5003297928368484,"(0.0, 0.0, 0.0, 0.0, 0.0, 0.0)",3.4768397233180663,True,"(-0.01066987548529464, 0.19538372195921544, 0.04000063979400663)","(0.9978955517764191, -0.0648387107248828, 0.0006397940066241833)",-0.00014077884038124312,65.12632702664521,True,"(0.05290155295186956, 0.19289304346700986, 0.039999932480407153)","(-0.9984684817451405, 0.05532347063099747, -6.751959284501549e-05)",-0.0001765107877005427,39.25258611441192
57,Move,"(0.0073100000000000005, 0.0, -0.01105)","(0.0, 0.35240641058718314, 0.0)","(0.020256204380750417, 0.17851996763512804, 0.0009261866310389362)","(1.5703068803008822, -0.0008382682105055316, -0.07091884234765486)","[0.019971260892736438, 0.007234701086771378, -0.0009405908945060654]","[-0.026750000193715096, 0.05299999937415123, 0.03999999910593033]","[0.0, -0.0, 0.22584065528977493]","[-0.042872652411460876, 0.12317164987325668, 0.03999999910593033]","[0.0, 0.0, -0.2038409759266513]","[0.026750000193715096, 0.05299999937415123, 0.03999999910593033]","[0.0, 0.0, -0.5455837364041013]","[0.06411203742027283, 0.11454736441373825, 0.03999999910593033]","[0.0, 0.0, -0.0780019104905723]",0.22412542749454706,-0.4116555132316268,"(0.0, 0.0, 0.0, 0.0, 0.0, 0.0)",-9.391579598769349,-0.42671316004104015,0.7124346586473158,"(0.0, 0.0, 0.0, 0.0, 0.0, 0.0)",-5.143705025426569,-0.5448109327023464,0.18547799469004797,"(0.0, 0.0, 0.0, 0.0, 0.0, 0.0)",7.882826704827964,0.4655080399585134,-0.4977124638625595,"(0.0, 0.0, 0.0, 0.0, 0.0, 0.0)",3.4566991230990025,True,"(-0.010517861058106107, 0.19575825321688814, 0.04000081090339028)","(0.9975509892148418, -0.0699383038983814, 0.0008109033902713048)",-0.00010525763488135162,65.42238193135044,True,"(0.05320292917292485, 0.1931386974433792, 0.039999932480407153)","(-0.9984684817451405, 0.05532347063099747, -6.751959284501549e-05)",-5.8167394429243336e-05,38.14630700998327
58,Move,"(0.0070999999999999995, 0.0, -0.011290000000000001)","(0.0, 0.3749682818277138, 0.0)","(0.020465894389426136, 0.1787261113052203, 0.0009336796452968351)","(1.5704521335055646, -0.0008942614291333515, -0.07758330916576461)","[0.020180950901412156, 0.007440844756863629, -0.0009330978802481665]","[-0.026750000193715096, 0.05299999937415123, 0.03999999910593033]","[0.0, -0.0, 0.21497529495078774]","[-0.042109277099370956, 0.12334267795085907, 0.03999999910593033]","[0.0, 0.0, -0.19665286448888172]","[0.026750000193715096, 0.05299999937415123, 0.03999999910593033]","[0.0, 0.0, -0.541287710530206]","[0.06384727358818054, 0.11470730602741241, 0.03999999910593033]","[0.0, 0.0, -0.08601067788567457]",0.21291098031441105,-0.4954333152545423,"(0.0, 0.0, 0.0, 0.0, 0.0, 0.0)",-10.194959276580503,-0.40835473873308004,0.7856145324142376,"(0.0, 0.0, 0.0, 0.0, 0.0, 0.0)",-5.730366481583877,-0.5405240624238672,0.18325176883804417,"(0.0, 0.0, 0.0, 0.0, 0.0, 0.0)",8.724082545705613,0.45306908601749346,-0.5298852004420318,"(0.0, 0.0, 0.0, 0.0, 0.0, 0.0)",3.6427129365971904,True,"(-0.010277990090081603, 0.1961468404982722, 0.040000929552360134)","(0.99711460722055, -0.07590517768780908, 0.0009295523601354916)",-6.19284931253689e-05,70.61021816154772,True,"(0.05356793053852987, 0.19338348876389483, 0.039999932480407153)","(-0.9984684817451405, 0.05532347063099747, -6.751959284501549e-05)",3.0796267450058134e-05,35.45885405076742
59,Move,"(0.00692, 0.0, -0.01158)","(0.0, 0.35240641058718314, 0.0)","(0.020619833399415616, 0.17891522939772714, 0.0009428413003203156)","(1.5706097260468752, -0.0008319284370611178, -0.08495610362816802)","[0.020334889911401637, 0.007629962849370481, -0.000923936225224686]","[-0.026750000193715096, 0.05299999937415123, 0.03999999910593033]","[0.0, -0.0, 0.20432523699013636]","[-0.04135926440358162, 0.12350226193666458, 0.03999999910593033]","[0.0, 0.0, -0.18982053702918458]","[0.026750000193715096, 0.05299999937415123, 0.03999999910593033]","[0.0, 0.0, -0.5368654185982056]","[0.06357403099536896, 0.11487075686454773, 0.03999999910593033]","[0.0, 0.0, -0.09326853588075718]",0.20251235391512765,-0.43509100596076905,"(0.0, 0.0, 0.0, 0.0, 0.0, 0.0)",-9.26231435183883,-0.39117137508353905,0.7138491604531966,"(0.0, 0.0, 0.0, 0.0, 0.0, 0.0)",-5.202221278599512,-0.5360628576819576,0.1926084438383953,"(0.0, 0.0, 0.0, 0.0, 0.0, 0.0)",8.003778506922979,0.4416389646709957,-0.4698936541460385,"(0.0, 0.0, 0.0, 0.0, 0.0, 0.0)",3.342046934888562,True,"(-0.010027252420330153, 0.1965076949005561, 0.04000083808244825)","(0.9964988541544402, -0.08360222058472928, 0.0008380824482525604)",-4.0198882105527475e-07,64.07689329054423,True,"(0.053865972494162515, 0.19361947041629735, 0.039999932480407153)","(-0.9984684817451405, 0.05532347063099747, -6.751959284501549e-05)",2.3703608538781743e-05,32.48472855829365
60,Move,"(0.00668, 0.0, -0.01199)","(0.0, 0.35240641058718314, 0.0)","(0.020755281695907426, 0.17908662287841953, 0.000950230584717664)","(1.5707262450424686, -0.0007726084549624231, -0.09240808558963548)","[0.020470338207893447, 0.007801356330062875, -0.0009165469408273377]","[-0.026750000193715096, 0.05299999937415123, 0.03999999910593033]","[0.0, -0.0, 0.19380787878241293]","[-0.040616974234580994, 0.12365201115608215, 0.03999999910593033]","[0.0, 0.0, -0.18322884447053173]","[0.026750000193715096, 0.05299999937415123, 0.03999999910593033]","[0.0, 0.0, -0.5322625589047519]","[0.0632888600230217, 0.11503959447145462, 0.03999999910593033]","[0.0, 0.0, -0.10004445264689552]",0.1919049543034591,-0.45669731228634525,"(0.0, 0.0, 0.0, 0.0, 0.0, 0.0)",-9.484128986414502,-0.373950709993859,0.7406388170132995,"(0.0, 0.0, 0.0, 0.0, 0.0, 0.0)",-5.339242254754453,-0.5314329436265256,0.19910835694596643,"(0.0, 0.0, 0.0, 0.0, 0.0, 0.0)",8.230608704880241,0.4301602107149291,-0.49390044268999894,"(0.0, 0.0, 0.0, 0.0, 0.0, 0.0)",3.4421352573990007,True,"(-0.009768036125746098, 0.19684848197297, 0.04000078793667824)","(0.9958563818346712, -0.09093649385669557, 0.0007879366782344194)",-1.176483724736362e-07,65.52997763420392,True,"(0.05411461452968795, 0.19385228172727095, 0.039999932480407153)","(-0.9984684817451405, 0.05532347063099747, -6.751959284501549e-05)",2.2362909063872583e-05,33.817981005750994
61,Move,"(0.00655, 0.0, -0.012540000000000003)","(0.0, 0.35240641058718314, 0.0)","(0.02106685390152233, 0.17930485363015894, 0.0009817977157211186)","(1.5707910360634043, 0.00010070707305259933, -0.11066638902314718)","[0.02078191041350835, 0.008019587081802282, -0.000884979809823883]","[-0.026750000193715096, 0.05299999937415123, 0.03999999910593033]","[0.0, -0.0, 0.18277927975942454]","[-0.039836954325437546, 0.12380065023899078, 0.03999999910593033]","[0.0, 0.0, -0.1765503412770111]","[0.026750000193715096, 0.05299999937415123, 0.03999999910593033]","[0.0, 0.0, -0.5275347404599887]","[0.06299514323472977, 0.11521165072917938, 0.03999999910593033]","[0.0, 0.0, -0.10725877504633087]",0.18056298026586792,-0.5319091603414509,"(0.0, 0.0, 0.0, 0.0, 0.0, 0.0)",-4.649486199251113,-0.36023473828908237,-0.2172390426696703,"(0.0, 0.0, 0.0, 0.0, 0.0, 0.0)",-2.6502438093985474,-0.5264063944112761,0.27079889164944937,"(0.0, 0.0, 0.0, 0.0, 0.0, 0.0)",2.3292793405719965,0.42116199870071575,0.21265293494889603,"(0.0, 0.0, 0.0, 0.0, 0.0, 0.0)",0.6332028806881671,True,"(-0.009478875756175342, 0.19718703959744613, 0.04000069073299669)","(0.9951119005638076, -0.09875134553115704, 0.0006907329966947878)",7.360242461555576e-07,31.066284511995125,True,"(0.04913781002973941, 0.14531165466358315, 0.029032886151252726)","(-0.9942527584882206, 0.10705594350385171, -0.0006907959639495546)",-0.0004753662823359488,22.376145470302472
62,Move,"(0.0064199999999999995, 0.0, -0.01305)","(0.0, 0.35240641058718314, 0.0)","(0.021141115390888712, 0.17975483821526367, 0.0009850767780012336)","(1.5708582281354353, 0.00022969880183409928, -0.12515607400616274)","[0.020856171902874733, 0.008469571666907011, -0.000881700747543768]","[-0.026750000193715096, 0.05299999937415123, 0.03999999910593033]","[0.0, -0.0, 0.17068039582776243]","[-0.03897940739989281, 0.12395379692316055, 0.03999999910593033]","[0.0, 0.0, -0.17307234407552619]","[0.026750000193715096, 0.05299999937415123, 0.03999999910593033]","[0.0, 0.0, -0.522464357117354]","[0.0626792460680008, 0.11539462953805923, 0.03999999910593033]","[0.0, 0.0, -0.11190429912717072]",0.16850258429255244,-0.5226704110617425,"(0.0, 0.0, 0.0, 0.0, 0.0, 0.0)",-10.756158505942679,-0.34013522335143853,0.8682014611554466,"(0.0, 0.0, 0.0, 0.0, 0.0, 0.0)",-6.092930880963294,-0.5216085907638671,0.20538779965013243,"(0.0, 0.0, 0.0, 0.0, 0.0, 0.0)",9.416016790488777,0.4082946923817808,-0.5436903713988102,"(0.0, 0.0, 0.0, 0.0, 0.0, 0.0)",3.8837883885921545,True,"(-0.008879715066864732, 0.19741822643292678, 0.03999979428398614)","(0.9924814764541982, -0.12239475714350126, -0.00020571601386504122)",4.90994044971136e-07,74.42704700206373,True,"(0.04896189000355358, 0.1455586793177674, 0.029032886151252726)","(-0.9942527584882206, 0.10705594350385171, -0.0006907959639495546)",-0.00015615894407556525,34.10287129988928
63,Move,"(0.00625, 0.0, -0.013580000000000002)","(0.0, 0.3202365018144236, 0.0)","(0.021212424199249503, 0.180028240328005, 0.0009886465032770892)","(1.5709273671231794, 0.0002946164523803795, -0.1342724358426874)","[0.020927480711235524, 0.008742973779648333, -0.0008781310222679124]","[-0.026750000193715096, 0.05299999937415123, 0.03999999910593033]","[0.0, -0.0, 0.15926656034437506]","[-0.0381687730550766, 0.12408875674009323, 0.03999999910593033]","[0.0, 0.0, -0.16513244441241867]","[0.026750000193715096, 0.05299999937415123, 0.03999999910593033]","[0.0, 0.0, -0.517631315423961]","[0.06237727031111717, 0.11556754261255264, 0.03999999910593033]","[0.0, 0.0, -0.11918572981142898]",0.15730913410427166,-0.4697769933408749,"(0.0, 0.0, 0.0, 0.0, 0.0, 0.0)",-10.061369452260516,-0.3210456053702983,0.8048103370608225,"(0.0, 0.0, 0.0, 0.0, 0.0, 0.0)",-5.696395778341091,-0.5167680863098623,0.20718014307083407,"(0.0, 0.0, 0.0, 0.0, 0.0, 0.0)",8.781960817268475,0.3963596847585423,-0.5006205961681789,"(0.0, 0.0, 0.0, 0.0, 0.0, 0.0)",3.5922458827168855,True,"(-0.008655601089465323, 0.19777158491977437, 0.03999971812316341)","(0.991145142122204, -0.13278263362731155, -0.000281876836596952)",-1.3791198231955889e-06,69.57836069809225,True,"(0.0488799151447565, 0.145830678671927, 0.029032886151252726)","(-0.9942527584882206, 0.10705594350385171, -0.0006907959639495546)",2.7732753197607e-05,32.93086080464075
64,Move,"(0.006690000000000001, 0.0, -0.01354)","(0.0, 0.24383122314986785, 0.0)","(0.02116682336873495, 0.18018769519469952, 0.0009914969989341489)","(1.5707953567027286, 0.0003663151861744825, -0.13803038750667476)","[0.02088187988072097, 0.008902428646342858, -0.0008752805266108528]","[-0.026750000193715096, 0.05299999937415123, 0.03999999910593033]","[0.0, -0.0, 0.15100886980767494]","[-0.03758136183023453, 0.1241806298494339, 0.03999999910593033]","[0.0, 0.0, -0.15814816297231066]","[0.026750000193715096, 0.05299999937415123, 0.03999999910593033]","[0.0, 0.0, -0.5128081237675012]","[0.06207508221268654, 0.1157386526465416, 0.03999999910593033]","[0.0, 0.0, -0.1245481857931349]",0.14978913911274794,-0.2927342638621002,"(0.0, 0.0, 0.0, 0.0, 0.0, 0.0)",-7.611661162176006,-0.3067566034367532,0.5761017295787583,"(0.0, 0.0, 0.0, 0.0, 0.0, 0.0)",-4.238205383692861,-0.5119526321487888,0.2053351905264551,"(0.0, 0.0, 0.0, 0.0, 0.0, 0.0)",6.786770658223808,0.38657340930290135,-0.4047821187216355,"(0.0, 0.0, 0.0, 0.0, 0.0, 0.0)",2.9083049219045427,True,"(-0.008585008378151918, 0.1980566170379069, 0.0399996484924214)","(0.9905679295087997, -0.1370220911790209, -0.00035150757859919897)",-1.0862483070359422e-05,52.4774300977194,True,"(0.048740207958215966, 0.1460737291806911, 0.029032886151252726)","(-0.9942527584882206, 0.10705594350385171, -0.0006907959639495546)",3.169269164074118e-05,20.086587063131308
65,Move,"(0.00833, 0.0, -0.01255)","(0.0, 0.05302659333409172, 0.0)","(0.02060533824356148, 0.18034520249926433, 0.0009866976277577567)","(1.5710723921505882, -0.00023663677427063884, -0.13626769580715317)","[0.0203203947555475, 0.009059935950907677, -0.0008800798977872449]","[-0.026750000193715096, 0.05299999937415123, 0.03999999910593033]","[0.0, -0.0, 0.15085789491146714]","[-0.037570614367723465, 0.12418226152658463, 0.03999999910593033]","[0.0, 0.0, -0.1516227990369773]","[0.026750000193715096, 0.05299999937415123, 0.03999999910593033]","[0.0, 0.0, -0.5069586299307896]","[0.06170748919248581, 0.11594421416521072, 0.03999999910593033]","[0.0, 0.0, -0.12467153534659683]",0.15144234517728045,0.1402754250712123,"(0.0, 0.0, 0.0, 0.0, 0.0, 0.0)",-2.158670208330741,-0.3018670174072724,0.14727409499304236,"(0.0, 0.0, 0.0, 0.0, 0.0, 0.0)",-1.0781475866950192,-0.5058229714188744,0.2725613457651333,"(0.0, 0.0, 0.0, 0.0, 0.0, 0.0)",2.7311557769993366,0.3815567099719971,-0.175298511413427,"(0.0, 0.0, 0.0, 0.0, 0.0, 0.0)",1.5302357908412383,True,"(-0.009057682006145762, 0.19824038590621093, 0.040000241234702624)","(0.9907007143392356, -0.1360589446289612, 0.00024123470262031897)",-1.6384521191334727e-05,14.543795588925493,True,"(0.048376354000230076, 0.14628093488532398, 0.029032886151252726)","(-0.9942527584882206, 0.10705594350385171, -0.0006907959639495546)",9.311336123768072e-05,0.0
66,Move,"(0.01133, 0.0, -0.01146)","(0.0, 0.05141565443450096, 0.0)","(0.020389740983874426, 0.1804452519048841, 0.0009874267680246753)","(1.5709228559866877, -0.00020696873651051826, -0.13550109827295712)","[0.020104797495860447, 0.009159985356527456, -0.0008793507575203263]","[-0.026750000193715096, 0.05299999937415123, 0.03999999910593033]","[0.0, -0.0, 0.1513334798958178]","[-0.03760446608066559, 0.12417710572481155, 0.03999999910593033]","[0.0, 0.0, -0.1476193714393392]","[0.026750000193715096, 0.05299999937415123, 0.03999999910593033]","[0.0, 0.0, -0.5031926691005393]","[0.061470191925764084, 0.11607541888952255, 0.03999999910593033]","[0.0, 0.0, -0.12497451806249434]",0.15116151793419258,-0.04126703167001101,"(0.0, 0.0, 0.0, 0.0, 0.0, 0.0)",-1.914117927002986,-0.2983480221141943,0.14515661549842465,"(0.0, 0.0, 0.0, 0.0, 0.0, 0.0)",-0.9544607795265392,-0.5027606992397852,0.10365664615999817,"(0.0, 0.0, 0.0, 0.0, 0.0, 0.0)",2.5164399503112387,0.37745279022284167,-0.1836697909373051,"(0.0, 0.0, 0.0, 0.0, 0.0, 0.0)",1.3739772422421082,True,"(-0.009388674282144502, 0.19834562913244136, 0.040000213727010056)","(0.9908115474136643, -0.13524951694000664, 0.00021372701006143238)",-2.201618225894647e-05,13.057243277067688,True,"(0.048148248688572426, 0.1464161774727897, 0.029032886151252726)","(-0.9942527584882206, 0.10705594350385171, -0.0006907959639495546)",0.00016035754646896076,0.0
67,Move,"(0.014620000000000001, 0.0, -0.011130000000000001)","(0.0, 0.06893701479527203, 0.0)","(0.020719591404847484, 0.18046674416887662, 0.000985976767973179)","(1.5707554916044588, -0.00011704286217919908, -0.13585333529870128)","[0.020434647916833505, 0.009181477620519962, -0.0008808007575718227]","[-0.026750000193715096, 0.05299999937415123, 0.03999999910593033]","[0.0, -0.0, 0.1474942222456266]","[-0.037331122905015945, 0.12421825528144836, 0.03999999910593033]","[0.0, 0.0, -0.14737917155397137]","[0.026750000193715096, 0.05299999937415123, 0.03999999910593033]","[0.0, 0.0, -0.5031219778089028]","[0.061465732753276825, 0.11607787013053894, 0.03999999910593033]","[0.0, 0.0, -0.12914950369539768]",0.14654863623488198,-0.22693966039313432,"(0.0, 0.0, 0.0, 0.0, 0.0, 0.0)",-2.878742958862648,-0.29398413632971826,0.21342573942423168,"(0.0, 0.0, 0.0, 0.0, 0.0, 0.0)",-1.5463340967271835,-0.5033353911560711,-0.05122874500009318,"(0.0, 0.0, 0.0, 0.0, 0.0, 0.0)",2.172352721924965,0.3733283080745436,-0.15458851038032215,"(0.0, 0.0, 0.0, 0.0, 0.0, 0.0)",1.0877945024514084,True,"(-0.009133183132646522, 0.198393262088221, 0.040000125745758494)","(0.9908044301487927, -0.13530175677178138, 0.00012574575849136113)",-2.900198205445453e-05,19.92160778212462,True,"(0.048270579558384284, 0.14647398516522003, 0.029032886151252726)","(-0.9942527584882206, 0.10705594350385171, -0.0006907959639495546)",3.756013428984444e-05,2.0871633666166813
68,Move,"(0.01677, 0.0, -0.01124)","(0.0, 0.03446676206838401, 0.0)","(0.02105599748727912, 0.18043334810356926, 0.0009866495846904484)","(1.5708103183260023, -7.528236180438782e-05, -0.13877059940524875)","[0.02077105399926514, 0.0091480815552126, -0.0008801279408545532]","[-0.026750000193715096, 0.05299999937415123, 0.03999999910593033]","[0.0, -0.0, 0.14248291593504608]","[-0.036974094808101654, 0.12427038699388504, 0.03999999910593033]","[0.0, 0.0, -0.14769518996948888]","[0.026750000193715096, 0.05299999937415123, 0.03999999910593033]","[0.0, 0.0, -0.5046432449804764]","[0.06156165525317192, 0.11602498590946198, 0.03999999910593033]","[0.0, 0.0, -0.1335723471872143]",0.14161874065517166,-0.2073994108394029,"(0.0, 0.0, 0.0, 0.0, 0.0, 0.0)",-2.5919780150180087,-0.28939530658160373,0.18786463317939164,"(0.0, 0.0, 0.0, 0.0, 0.0, 0.0)",-1.4682492738770871,-0.5049418857595903,-0.07167230287263947,"(0.0, 0.0, 0.0, 0.0, 0.0, 0.0)",1.6925170873876236,0.3705971600369509,-0.11370312815547282,"(0.0, 0.0, 0.0, 0.0, 0.0, 0.0)",0.7019394397145775,True,"(-0.008753017421425285, 0.19843431262563516, 0.0400000771769201)","(0.9904626508265171, -0.1377814623286898, 7.717692010463045e-05)",-1.859247914242591e-05,17.974464252034913,True,"(0.04850106560522567, 0.14647916095591879, 0.029032886151252726)","(-0.9942527584882206, 0.10705594350385171, -0.0006907959639495546)",-1.0940496215055268e-06,5.68710633243542
69,Move,"(0.018170000000000002, 0.0, -0.01161)","(0.0, 0.06893701479527203, 0.0)","(0.02165867729543907, 0.18037795642970963, 0.0009902835180114343)","(1.5708650851555075, 5.066411177693819e-05, -0.14516061148176698)","[0.02137373380742509, 0.009092689881352978, -0.0008764940075335673]","[-0.026750000193715096, 0.05299999937415123, 0.03999999910593033]","[0.0, -0.0, 0.13528450027136288]","[-0.03646079823374748, 0.12434213608503342, 0.03999999910593033]","[0.0, 0.0, -0.14926167438686885]","[0.026750000193715096, 0.05299999937415123, 0.03999999910593033]","[0.0, 0.0, -0.5074856097070233]","[0.06174065172672272, 0.11592578142881393, 0.03999999910593033]","[0.0, 0.0, -0.1399605399116697]",0.13378819850655668,-0.3591121400553383,"(0.0, 0.0, 0.0, 0.0, 0.0, 0.0)",-3.4342879878607597,-0.2834481052834553,0.26353990437517866,"(0.0, 0.0, 0.0, 0.0, 0.0, 0.0)",-1.9529444536133758,-0.5080977803461352,-0.14692004962114333,"(0.0, 0.0, 0.0, 0.0, 0.0, 0.0)",2.5670820991722985,0.3668072406040307,-0.17227768793765877,"(0.0, 0.0, 0.0, 0.0, 0.0, 0.0)",1.0684869442025287,True,"(-0.00812416565192009, 0.19845765763124057, 0.039999954439900835)","(0.9896592907723512, -0.14343809156651666, -4.55600991612408e-05)",-8.250129321730102e-06,23.894113625715022,True,"(0.04887487776494336, 0.14646277111816075, 0.029032886151252726)","(-0.9942527584882206, 0.10705594350385171, -0.0006907959639495546)",4.7963310379699315e-06,8.374703969740825
70,Move,"(0.01904, 0.0, -0.012130000000000002)","(0.0, 0.06893701479527203, 0.0)","(0.022343582102894548, 0.1803349716038973, 0.0009904827022397028)","(1.570887934482622, 7.597122364120994e-05, -0.15246867591429297)","[0.02205863861488057, 0.009049705055540647, -0.0008762948233052988]","[-0.026750000193715096, 0.05299999937415123, 0.03999999910593033]","[0.0, -0.0, 0.12653899321688972]","[-0.035836510360240936, 0.12442433089017868, 0.03999999910593033]","[0.0, 0.0, -0.15146043298936926]","[0.026750000193715096, 0.05299999937415123, 0.03999999910593033]","[0.0, 0.0, -0.5109236971783925]","[0.06195679306983948, 0.11580511182546616, 0.03999999910593033]","[0.0, 0.0, -0.14761827782550943]",0.12495072940117254,-0.3811800677483741,"(0.0, 0.0, 0.0, 0.0, 0.0, 0.0)",-3.752376415105156,-0.2768070040733817,0.28618003650072,"(0.0, 0.0, 0.0, 0.0, 0.0, 0.0)",-2.1292799365873614,-0.5115368461058902,-0.14714917746378187,"(0.0, 0.0, 0.0, 0.0, 0.0, 0.0)",2.8630058075547815,0.3625182884479489,-0.18891965532358704,"(0.0, 0.0, 0.0, 0.0, 0.0, 0.0)",1.19929914603606,True,"(-0.0073372139110446585, 0.198475824282526, 0.03999994471541947)","(0.9893234251146655, -0.14573660303095554, -5.528458052676187e-05)",-6.540818785223233e-06,25.716901146088375,True,"(0.04932523506024741, 0.14643972390543955, 0.029032886151252726)","(-0.9942527584882206, 0.10705594350385171, -0.0006907959639495546)",7.013192106637263e-06,9.10858746175046
71,Move,"(0.02012, 0.0, -0.012839999999999999)","(0.0, 0.06893701479527203, 0.0)","(0.023155916522923762, 0.1802746585310246, 0.0009906176660575195)","(1.570836450379974, 1.926559448155003e-05, -0.1553898878747918)","[0.022870973034909783, 0.008989391982667932, -0.0008761598594874821]","[-0.026750000193715096, 0.05299999937415123, 0.03999999910593033]","[0.0, -0.0, 0.1173286800555643]","[-0.0351782962679863, 0.12450499087572098, 0.03999999910593033]","[0.0, 0.0, -0.15270373418232092]","[0.026750000193715096, 0.05299999937415123, 0.03999999910593033]","[0.0, 0.0, -0.5148409922424446]","[0.06220254674553871, 0.1156667172908783, 0.03999999910593033]","[0.0, 0.0, -0.15591726043809767]",0.11567039598111178,-0.39798925228552584,"(0.0, 0.0, 0.0, 0.0, 0.0, 0.0)",-5.876505136513013,-0.26911075742171264,0.2211986045335678,"(0.0, 0.0, 0.0, 0.0, 0.0, 0.0)",-1.887530236974697,-0.5155645523030732,-0.17365376595669335,"(0.0, 0.0, 0.0, 0.0, 0.0, 0.0)",4.959401825368491,0.358061379746916,-0.2069683278202457,"(0.0, 0.0, 0.0, 0.0, 0.0, 0.0)",1.4440799282405188,True,"(-0.013341836329546355, 0.1546300936244695, 0.03379238386685381)","(0.9883667944484309, -0.1520890395782195, -6.059626893315145e-05)",-6.78640009549441e-06,57.85331883972564,True,"(0.04957186318787839, 0.1447905676465847, 0.0509729831261043)","(-0.9878694710580564, 0.15528652372206186, 6.0842365609177825e-05)",-0.00023576496132565324,52.459222236176586
72,Move,"(0.02087, 0.0, -0.01359)","(0.0, 0.1033252370473163, 0.0)","(0.02403106847284372, 0.18023518622650286, 0.0010343412436316145)","(1.57071327187795, 0.0014700093030300485, -0.1570962943892084)","[0.023746124984829742, 0.008949919678146206, -0.0008324362819133871]","[-0.026750000193715096, 0.05299999937415123, 0.03999999910593033]","[0.0, -0.0, 0.10653427107499025]","[-0.034405965358018875, 0.12459180504083633, 0.03999999910593033]","[0.0, 0.0, -0.15604731078475392]","[0.026750000193715096, 0.05299999937415123, 0.03999999910593033]","[0.0, 0.0, -0.5193922373758604]","[0.06248738616704941, 0.11550471186637878, 0.03999999910593033]","[0.0, 0.0, -0.16674707590897597]",0.10447166511911024,-0.4950259566603532,"(0.0, 0.0, 0.0, 0.0, 0.0, 0.0)",-7.947211044561856,-0.2610335043837819,0.37153696933120245,"(0.0, 0.0, 0.0, 0.0, 0.0, 0.0)",-2.674399037102695,-0.5202403056599435,-0.20355180176899956,"(0.0, 0.0, 0.0, 0.0, 0.0, 0.0)",7.175801448861185,0.3514516751171201,-0.2864247557451608,"(0.0, 0.0, 0.0, 0.0, 0.0, 0.0)",2.0400289214764356,True,"(-0.012468507879514562, 0.15464623558304452, 0.0507971903900204)","(0.9880316213695818, -0.15425146673650345, 1.354372263005291e-05)",1.2076501490526914e-07,72.26235274543116,True,"(0.05016850989463878, 0.14473789506165582, 0.050974511563464976)","(-0.9861278228188538, 0.1659810549419166, 0.0014854167481321387)",-0.0005044371871302922,75.63904010635062
73,Move,"(0.02162, 0.0, -0.01402)","(0.0, 0.1033252370473163, 0.0)","(0.02495075775155052, 0.18020659019700117, 0.0010317732850122136)","(1.5705424489987434, 0.0013886359603026953, -0.1589067898056783)","[0.02466581426353654, 0.008921323648644508, -0.000835004240532788]","[-0.026750000193715096, 0.05299999937415123, 0.03999999910593033]","[0.0, -0.0, 0.09513190853260661]","[-0.03358916938304901, 0.12467443943023682, 0.03999999910593033]","[0.0, 0.0, -0.15812603147875778]","[0.026750000193715096, 0.05299999937415123, 0.03999999910593033]","[0.0, 0.0, -0.5240061290379344]","[0.0627753958106041, 0.11533915996551514, 0.03999999910593033]","[0.0, 0.0, -0.1785779402107997]",0.09311908646977228,-0.48307268598950714,"(0.0, 0.0, 0.0, 0.0, 0.0, 0.0)",-8.892268956220711,-0.2515660948632248,0.4060328824775925,"(0.0, 0.0, 0.0, 0.0, 0.0, 0.0)",-3.0048047097195516,-0.5248099353687278,-0.192924089929925,"(0.0, 0.0, 0.0, 0.0, 0.0, 0.0)",7.997657419506104,0.34410062593694074,-0.318604835892793,"(0.0, 0.0, 0.0, 0.0, 0.0, 0.0)",2.278560967166145,True,"(-0.01158928373087259, 0.15468320957272938, 0.0507971903900204)","(0.9880316213695818, -0.15425146673650345, 1.354372263005291e-05)",2.3366032100291774e-08,80.9681837258247,True,"(0.050801067099148334, 0.1447040642953305, 0.050974475334781076)","(-0.9840953338485126, 0.17763561469984485, 0.0014008168304958052)",-0.000736758080932825,84.30548457161198
74,Move,"(0.02173, 0.0, -0.01415)","(0.0, 0.03446676206838401, 0.0)","(0.02546904211999954, 0.18022324265079978, 0.0010302281570339841)","(1.570401443662794, 0.0013140478709964837, -0.16000064133887731)","[0.02518409863198556, 0.008937976102443124, -0.0008365493685110175]","[-0.026750000193715096, 0.05299999937415123, 0.03999999910593033]","[0.0, -0.0, 0.08713295469187823]","[-0.03301563858985901, 0.12472685426473618, 0.03999999910593033]","[0.0, 0.0, -0.15814625760523843]","[0.026750000193715096, 0.05299999937415123, 0.03999999910593033]","[0.0, 0.0, -0.5268583872163913]","[0.06295305490493774, 0.11523615568876266, 0.03999999910593033]","[0.0, 0.0, -0.18790289883309633]",0.08600942960252383,-0.26964664863250404,"(0.0, 0.0, 0.0, 0.0, 0.0, 0.0)",-7.052568353014036,-0.2439977901878463,0.3075400577930569,"(0.0, 0.0, 0.0, 0.0, 0.0, 0.0)",-2.244357808073771,-0.5272142913471154,-0.08542460863883476,"(0.0, 0.0, 0.0, 0.0, 0.0, 0.0)",6.299177521350578,0.3378911731622704,-0.2554300231058272,"(0.0, 0.0, 0.0, 0.0, 0.0, 0.0)",1.8527284543051883,True,"(-0.011015144664081364, 0.15473517678548068, 0.0507971903900204)","(0.9880316213695818, -0.15425146673650345, 1.354372263005291e-05)",-8.262807812708805e-06,67.44698257097116,True,"(0.0512517810012769, 0.14470465261243476, 0.0509744158646773)","(-0.9823963092860323, 0.18680408245156851, 0.001313879983028506)",-0.0008421325768026421,66.6403370921055
