OSUrobotics/InHand-Manipulation/AnalyseData/Data/Trial Data/new_hand_expected_exp_2v2_d_none_1_kpNone_kdNone_dp1_step1_save_data.csv
,Phase,human_cube_pos,human_cube_orn,Cube_Pos,Cube_Orn,Cube_pos_in_start_pos,b'l_prox_pin'_link_pos,b'l_prox_pin'_link_orn,b'l_distal_pin'_link_pos,b'l_distal_pin'_link_orn,b'r_prox_pin'_link_pos,b'r_prox_pin'_link_orn,b'r_distal_pin'_link_pos,b'r_distal_pin'_link_orn,b'l_prox_pin'_joint_angle,b'l_prox_pin'_joint_vel,b'l_prox_pin'_joint_react_forces,b'l_prox_pin'_joint_motor_torque,b'l_distal_pin'_joint_angle,b'l_distal_pin'_joint_vel,b'l_distal_pin'_joint_react_forces,b'l_distal_pin'_joint_motor_torque,b'r_prox_pin'_joint_angle,b'r_prox_pin'_joint_vel,b'r_prox_pin'_joint_react_forces,b'r_prox_pin'_joint_motor_torque,b'r_distal_pin'_joint_angle,b'r_distal_pin'_joint_vel,b'r_distal_pin'_joint_react_forces,b'r_distal_pin'_joint_motor_torque,in_contact_l,contact_point_l_dist,contact_normal_l_dist,contact_distance_l_dist,contact_norm_force_l_dist,in_contact_r,contact_point_r_dist,contact_normal_r_dist,contact_distance_r_dist,contact_norm_force_r_dist
0,Open,,,,,,"[-0.026750000193715096, 0.05299999937415123, 0.03999999910593033]","[0.0, -0.0, 0.0]","[-0.026750000193715096, 0.125, 0.03999999910593033]","[0.0, -0.0, 0.0]","[0.026750000193715096, 0.05299999937415123, 0.03999999910593033]","[0.0, -0.0, 0.0]","[0.026750000193715096, 0.125, 0.03999999910593033]","[0.0, -0.0, 0.0]",0.0028636982559538428,0.6872875814289223,"(0.0, 0.0, 0.0, 0.0, 0.0, 0.0)",-74.42376671286476,0.025717978913313098,6.172314939195144,"(0.0, 0.0, 0.0, 0.0, 0.0, 0.0)",-28.347758017338414,-0.0028861714462846827,-0.6926811471083238,"(0.0, 0.0, 0.0, 0.0, 0.0, 0.0)",77.31812537484876,-0.025998027583603027,-6.239526620064726,"(0.0, 0.0, 0.0, 0.0, 0.0, 0.0)",29.325432325549183,False,,,,,False,,,,
1,Open,,,,,,"[-0.026750000193715096, 0.05299999937415123, 0.03999999910593033]","[0.0, -0.0, 0.0028636982488144678]","[-0.026956185698509216, 0.12499970197677612, 0.03999999910593033]","[0.0, -0.0, 0.028581675581217755]","[0.026750000193715096, 0.05299999937415123, 0.03999999910593033]","[0.0, 0.0, -0.0028861714423951343]","[0.026957804337143898, 0.12499970197677612, 0.03999999910593033]","[0.0, 0.0, -0.028884201286240394]",0.1595773284303585,37.61127124185712,"(0.0, 0.0, 0.0, 0.0, 0.0, 0.0)",53.472225824972774,0.02314589095046895,-0.6173011110825959,"(0.0, 0.0, 0.0, 0.0, 0.0, 0.0)",3.3014509125464437,-0.15959755430165623,-37.61073188528917,"(0.0, 0.0, 0.0, 0.0, 0.0, 0.0)",-53.45543824447724,-0.023397935520559333,0.6240220951304867,"(0.0, 0.0, 0.0, 0.0, 0.0, 0.0)",-3.2927232380167535,False,,,,,False,,,,
2,Open,,,,,,"[-0.026750000193715096, 0.05299999937415123, 0.03999999910593033]","[0.0, -0.0, 0.15957730699277592]","[-0.03819086775183678, 0.1240852028131485, 0.03999999910593033]","[0.0, -0.0, 0.1827232399786182]","[0.026750000193715096, 0.05299999937415123, 0.03999999910593033]","[0.0, 0.0, -0.15959754249378824]","[0.03819230571389198, 0.12408497184515, 0.03999999910593033]","[0.0, 0.0, -0.1829954723320542]",0.30061959558732265,33.8501441176714,"(0.0, 0.0, 0.0, 0.0, 0.0, 0.0)",-5.433290843096747,0.020831748867960086,-0.555394099802127,"(0.0, 0.0, 0.0, 0.0, 0.0, 0.0)",-0.37949999689540415,-0.30063779887149056,-33.849658696760244,"(0.0, 0.0, 0.0, 0.0, 0.0, 0.0)",5.433149501288634,-0.02105858889910766,0.5614431891484022,"(0.0, 0.0, 0.0, 0.0, 0.0, 0.0)",0.37943043762158307,False,,,,,False,,,,
3,Open,,,,,,"[-0.026750000193715096, 0.05299999937415123, 0.03999999910593033]","[0.0, -0.0, 0.30061964608852465]","[-0.048070069402456284, 0.12177103012800217, 0.03999999910593033]","[0.0, -0.0, 0.3214513597309629]","[0.026750000193715096, 0.05299999937415123, 0.03999999910593033]","[0.0, 0.0, -0.30063782483534385]","[0.04807132109999657, 0.12177064269781113, 0.03999999910593033]","[0.0, 0.0, -0.32169639446592324]",0.4275576360285904,30.465129705904268,"(0.0, 0.0, 0.0, 0.0, 0.0, 0.0)",-4.896562760502833,0.018748978964657985,-0.49986477679250463,"(0.0, 0.0, 0.0, 0.0, 0.0, 0.0)",-0.3438186216350169,-0.4275740189843415,-30.464692827084228,"(0.0, 0.0, 0.0, 0.0, 0.0, 0.0)",4.8964345239877005,-0.018953134917884834,0.505308955493478,"(0.0, 0.0, 0.0, 0.0, 0.0, 0.0)",0.34375511365495653,False,,,,,False,,,,
4,Open,,,,,,"[-0.026750000193715096, 0.05299999937415123, 0.03999999910593033]","[0.0, -0.0, 0.42755761853039154]","[-0.056604765355587006, 0.1185186430811882, 0.03999999910593033]","[0.0, -0.0, 0.4463066270391506]","[0.026750000193715096, 0.05299999937415123, 0.03999999910593033]","[0.0, 0.0, -0.42757404208311445]","[0.05660583823919296, 0.1185181587934494, 0.03999999910593033]","[0.0, 0.0, -0.4465272228574986]",0.5418018724257314,27.418616735313837,"(0.0, 0.0, 0.0, 0.0, 0.0, 0.0)",-4.412236817968903,0.016874447698417276,-0.44988750389777044,"(0.0, 0.0, 0.0, 0.0, 0.0, 0.0)",-0.3112578673856835,-0.5418166170859073,-27.418223544375806,"(0.0, 0.0, 0.0, 0.0, 0.0, 0.0)",4.412120589674461,-0.017058187988154127,0.4547872631353701,"(0.0, 0.0, 0.0, 0.0, 0.0, 0.0)",0.31119999541872967,False,,,,,False,,,,
5,Open,,,,,,"[-0.026750000193715096, 0.05299999937415123, 0.03999999910593033]","[0.0, -0.0, 0.5418019400761332]","[-0.06387900561094284, 0.11468822509050369, 0.03999999910593033]","[0.0, -0.0, 0.5586763123738882]","[0.026750000193715096, 0.05299999937415123, 0.03999999910593033]","[0.0, 0.0, -0.5418166677071254]","[0.06387991458177567, 0.11468767374753952, 0.03999999910593033]","[0.0, 0.0, -0.5588748551425957]",0.6446216851831583,24.67675506178245,"(0.0, 0.0, 0.0, 0.0, 0.0, 0.0)",-3.975330693632137,0.015187334633278446,-0.4049071356333192,"(0.0, 0.0, 0.0, 0.0, 0.0, 0.0)",-0.2816071653694913,-0.6446349553773166,-24.67640118993823,"(0.0, 0.0, 0.0, 0.0, 0.0, 0.0)",3.975225427671302,-0.01535270083200906,0.409316917474816,"(0.0, 0.0, 0.0, 0.0, 0.0, 0.0)",0.28155450162657786,False,,,,,False,,,,
6,Open,,,,,,"[-0.026750000193715096, 0.05299999937415123, 0.03999999910593033]","[0.0, -0.0, 0.6446216983098856]","[-0.07001452147960663, 0.11055155843496323, 0.03999999910593033]","[0.0, -0.0, 0.6598089287160823]","[0.026750000193715096, 0.05299999937415123, 0.03999999910593033]","[0.0, 0.0, -0.644634967879878]","[0.07001528143882751, 0.11055097728967667, 0.03999999910593033]","[0.0, 0.0, -0.6599877329949964]",0.7371595166648425,22.209079555604205,"(0.0, 0.0, 0.0, 0.0, 0.0, 0.0)",-3.5812948349547464,0.013668901111545678,-0.3644240452158641,"(0.0, 0.0, 0.0, 0.0, 0.0, 0.0)",-0.25464125660078457,-0.737171459839585,-22.20876107094441,"(0.0, 0.0, 0.0, 0.0, 0.0, 0.0)",3.5811995605906057,-0.01381773063402154,0.3683928475170044,"(0.0, 0.0, 0.0, 0.0, 0.0, 0.0)",0.2545933902665499,False,,,,,False,,,,
7,Open,,,,,,"[-0.026750000193715096, 0.05299999937415123, 0.03999999910593033]","[0.0, -0.0, 0.7371595400859692]","[-0.07514750957489014, 0.10630742460489273, 0.03999999910593033]","[0.0, -0.0, 0.7508283868993905]","[0.026750000193715096, 0.05299999937415123, 0.03999999910593033]","[0.0, 0.0, -0.7371714711336782]","[0.07514814287424088, 0.10630684345960617, 0.03999999910593033]","[0.0, 0.0, -0.750989167509555]",0.8204435649983582,19.988171600043785,"(0.0, 0.0, 0.0, 0.0, 0.0, 0.0)",-3.2259980823944012,0.01230228208777883,-0.32798856570404317,"(0.0, 0.0, 0.0, 0.0, 0.0, 0.0)",-0.23014491551259536,-0.8204543138556265,-19.987884963849964,"(0.0, 0.0, 0.0, 0.0, 0.0, 0.0)",3.225911902119173,-0.012436228606816148,0.33156048652929415,"(0.0, 0.0, 0.0, 0.0, 0.0, 0.0)",0.23010145595163894,False,,,,,False,,,,
8,Open,,,,,,"[-0.026750000193715096, 0.05299999937415123, 0.03999999910593033]","[0.0, -0.0, 0.8204435774406766]","[-0.07941428571939468, 0.1020965725183487, 0.03999999910593033]","[0.0, -0.0, 0.8327459142786269]","[0.026750000193715096, 0.05299999937415123, 0.03999999910593033]","[0.0, 0.0, -0.8204543695347751]","[0.07941480726003647, 0.10209600627422333, 0.03999999910593033]","[0.0, 0.0, -0.8328905496331522]",0.8953992084985224,17.9893544400394,"(0.0, 0.0, 0.0, 0.0, 0.0, 0.0)",-2.905692777507757,0.011072298781000885,-0.2951959936267068,"(0.0, 0.0, 0.0, 0.0, 0.0, 0.0)",-0.20791432075989408,-0.8954088824700639,-17.989096467464968,"(0.0, 0.0, 0.0, 0.0, 0.0, 0.0)",2.9056148642503405,-0.011192850601700187,0.29841072122783063,"(0.0, 0.0, 0.0, 0.0, 0.0, 0.0)",0.20787489947010138,False,,,,,False,,,,
9,Open,,,,,,"[-0.026750000193715096, 0.05299999937415123, 0.03999999910593033]","[0.0, -0.0, 0.8953992050914552]","[-0.08294302970170975, 0.09801492840051651, 0.03999999910593033]","[0.0, -0.0, 0.9064715399310761]","[0.026750000193715096, 0.05299999937415123, 0.03999999910593033]","[0.0, 0.0, -0.8954089117450801]","[0.08294346183538437, 0.09801438450813293, 0.03999999910593033]","[0.0, 0.0, -0.9066016844299951]",0.9628592876486701,16.190418996035465,"(0.0, 0.0, 0.0, 0.0, 0.0, 0.0)",-2.616982039675733,0.009965290062605858,-0.26568209241480656,"(0.0, 0.0, 0.0, 0.0, 0.0, 0.0)",-0.18775783729375353,-0.9628679942230576,-16.190186820718473,"(0.0, 0.0, 0.0, 0.0, 0.0, 0.0)",2.6169116334278195,-0.010073786659150813,0.26857534621184953,"(0.0, 0.0, 0.0, 0.0, 0.0, 0.0)",0.187722108909745,False,,,,,False,,,,
10,Open,,,,,,"[-0.026750000193715096, 0.05299999937415123, 0.03999999910593033]","[0.0, -0.0, 0.9628592963772022]","[-0.08584962040185928, 0.09412462264299393, 0.03999999910593033]","[0.0, -0.0, 0.9728246761305416]","[0.026750000193715096, 0.05299999937415123, 0.03999999910593033]","[0.0, 0.0, -0.9628681466677605]","[0.08584997802972794, 0.09412410855293274, 0.03999999910593033]","[0.0, 0.0, -0.9729417790417357]",1.0235733588838032,14.57137709643192,"(0.0, 0.0, 0.0, 0.0, 0.0, 0.0)",-2.356789246056587,0.008968960705874744,-0.23911904561546746,"(0.0, 0.0, 0.0, 0.0, 0.0, 0.0)",-0.16949635495257384,-1.0235811948007518,-14.571168138646623,"(0.0, 0.0, 0.0, 0.0, 0.0, 0.0)",2.3567256501387286,-0.009066607604651448,0.24172297307984775,"(0.0, 0.0, 0.0, 0.0, 0.0, 0.0)",0.16946399753760524,False,,,,,False,,,,
11,Open,,,,,,"[-0.026750000193715096, 0.05299999937415123, 0.03999999910593033]","[0.0, -0.0, 1.0235732790301837]","[-0.08823604136705399, 0.09046287834644318, 0.03999999910593033]","[0.0, -0.0, 1.0325423083164225]","[0.026750000193715096, 0.05299999937415123, 0.03999999910593033]","[0.0, 0.0, -1.0235812274279317]","[0.08823633193969727, 0.09046239405870438, 0.03999999910593033]","[0.0, 0.0, -1.0326479037372749]",1.078216022995423,13.114239386788727,"(0.0, 0.0, 0.0, 0.0, 0.0, 0.0)",-2.1223296975724493,0.008072244810550301,-0.215211814877866,"(0.0, 0.0, 0.0, 0.0, 0.0, 0.0)",-0.1529632973210469,-1.0782230753206767,-13.114051324781958,"(0.0, 0.0, 0.0, 0.0, 0.0, 0.0)",2.122272274708909,-0.008160126984954354,0.21755534872730237,"(0.0, 0.0, 0.0, 0.0, 0.0, 0.0)",0.15293401213466845,False,,,,,False,,,,
12,Open,,,,,,"[-0.026750000193715096, 0.05299999937415123, 0.03999999910593033]","[0.0, -0.0, 1.078215882979514]","[-0.09019032120704651, 0.08704887330532074, 0.03999999910593033]","[0.0, -0.0, 1.0862882926740116]","[0.026750000193715096, 0.05299999937415123, 0.03999999910593033]","[0.0, 0.0, -1.078222977413882]","[0.09019055962562561, 0.08704842627048492, 0.03999999910593033]","[0.0, 0.0, -1.0863833790205233]",1.1273944206958806,11.802815448109852,"(0.0, 0.0, 0.0, 0.0, 0.0, 0.0)",-1.9110844168611731,0.007265182884681461,-0.19369486220852175,"(0.0, 0.0, 0.0, 0.0, 0.0, 0.0)",-0.13800439004610457,-1.127400767788609,-11.802646192303762,"(0.0, 0.0, 0.0, 0.0, 0.0, 0.0)",1.9110325851897776,-0.007344276810443619,0.19580404188257655,"(0.0, 0.0, 0.0, 0.0, 0.0, 0.0)",0.13797790093405082,False,,,,,False,,,,
13,Open,,,,,,"[-0.026750000193715096, 0.05299999937415123, 0.03999999910593033]","[0.0, -0.0, 1.1273943743462997]","[-0.0917874127626419, 0.08388907462358475, 0.03999999910593033]","[0.0, -0.0, 1.1346596248576977]","[0.026750000193715096, 0.05299999937415123, 0.03999999910593033]","[0.0, 0.0, -1.127400718904607]","[0.09178761392831802, 0.08388865739107132, 0.03999999910593033]","[0.0, 0.0, -1.134745111288055]",1.1716549786262926,10.622533903298867,"(0.0, 0.0, 0.0, 0.0, 0.0, 0.0)",-1.7207759982695574,0.00653881121780902,-0.17432920004938585,"(0.0, 0.0, 0.0, 0.0, 0.0, 0.0)",-0.12447725819906867,-1.1716606910097482,-10.622381573073383,"(0.0, 0.0, 0.0, 0.0, 0.0, 0.0)",1.7207292273800263,-0.006609995722787257,0.17622746103752684,"(0.0, 0.0, 0.0, 0.0, 0.0, 0.0)",0.12445331071934837,False,,,,,False,,,,
14,Open,,,,,,"[-0.026750000193715096, 0.05299999937415123, 0.03999999910593033]","[0.0, -0.0, 1.17165497759142]","[-0.09309044480323792, 0.08098116517066956, 0.03999999910593033]","[0.0, -0.0, 1.1781937273122836]","[0.026750000193715096, 0.05299999937415123, 0.03999999910593033]","[0.0, 0.0, -1.1716605985979762]","[0.09309060126543045, 0.08098078519105911, 0.03999999910593033]","[0.0, 0.0, -1.178270796658152]",1.2114894807636634,9.56028051296898,"(0.0, 0.0, 0.0, 0.0, 0.0, 0.0)",-1.549346412635057,0.005885062316220725,-0.15689973638119079,"(0.0, 0.0, 0.0, 0.0, 0.0, 0.0)",-0.11225090666269867,-1.2114946219087734,-9.560143415766044,"(0.0, 0.0, 0.0, 0.0, 0.0, 0.0)",1.5493042197033076,-0.00594912834521185,0.1586081706180975,"(0.0, 0.0, 0.0, 0.0, 0.0, 0.0)",0.11222926703597672,False,,,,,False,,,,
15,Open,,,,,,"[-0.026750000193715096, 0.05299999937415123, 0.03999999910593033]","[0.0, -0.0, 1.2114893406881728]","[-0.09415213763713837, 0.07831703126430511, 0.03999999910593033]","[0.0, -0.0, 1.2173745989650702]","[0.026750000193715096, 0.05299999937415123, 0.03999999910593033]","[0.0, 0.0, -1.2114945655338818]","[0.09415226429700851, 0.07831668108701706, 0.03999999910593033]","[0.0, 0.0, -1.2174436451143456]",1.247340532687297,8.604252461672083,"(0.0, 0.0, 0.0, 0.0, 0.0, 0.0)",-1.3949366588174594,0.00529667529397997,-0.14121288533778104,"(0.0, 0.0, 0.0, 0.0, 0.0, 0.0)",-0.1012051251161189,-1.2473451597178962,-8.604129074189437,"(0.0, 0.0, 0.0, 0.0, 0.0, 0.0)",1.394898604883462,-0.005354334697048719,0.1427504755591516,"(0.0, 0.0, 0.0, 0.0, 0.0, 0.0)",0.1011855790679586,False,,,,,False,,,,
16,Open,,,,,,"[-0.026750000193715096, 0.05299999937415123, 0.03999999910593033]","[0.0, -0.0, 1.2473405247091465]","[-0.09501627087593079, 0.07588484138250351, 0.03999999910593033]","[0.0, -0.0, 1.2526371614229614]","[0.026750000193715096, 0.05299999937415123, 0.03999999910593033]","[0.0, 0.0, -1.2473450561350814]","[0.09501637518405914, 0.07588452845811844, 0.03999999910593033]","[0.0, 0.0, -1.252699591080442]",1.2796064794185673,7.743827215504874,"(0.0, 0.0, 0.0, 0.0, 0.0, 0.0)",-1.2558681481324276,0.004767115224099335,-0.12709441677135241,"(0.0, 0.0, 0.0, 0.0, 0.0, 0.0)",-0.09122984935698081,-1.2796106437461066,-7.743716166770495,"(0.0, 0.0, 0.0, 0.0, 0.0, 0.0)",1.2558338345532607,-0.004819008666073119,0.128478247434144,"(0.0, 0.0, 0.0, 0.0, 0.0, 0.0)",0.09121220090323832,False,,,,,False,,,,
17,Open,,,,,,"[-0.026750000193715096, 0.05299999937415123, 0.03999999910593033]","[0.0, -0.0, 1.279606409124563]","[-0.09571900963783264, 0.0736706405878067, 0.03999999910593033]","[0.0, -0.0, 1.2843736758198352]","[0.026750000193715096, 0.05299999937415123, 0.03999999910593033]","[0.0, 0.0, -1.2796106525936015]","[0.0957190990447998, 0.07367035001516342, 0.03999999910593033]","[0.0, 0.0, -1.2844295613342638]",1.3086458314767107,6.969444493954387,"(0.0, 0.0, 0.0, 0.0, 0.0, 0.0)",-1.1305941221975622,0.00429170208951155,-0.1140991523010686,"(0.0, 0.0, 0.0, 0.0, 0.0, 0.0)",-0.082192919359827,-1.3086495793714958,-6.969344550093446,"(0.0, 0.0, 0.0, 0.0, 0.0, 0.0)",1.1305631934145834,-0.004338405935744441,0.11534465527888274,"(0.0, 0.0, 0.0, 0.0, 0.0, 0.0)",0.08217699569254354,False,,,,,False,,,,
18,Open,,,,,,"[-0.026750000193715096, 0.05299999937415123, 0.03999999910593033]","[0.0, -0.0, 1.308645825919811]","[-0.09629011154174805, 0.0716593861579895, 0.03999999910593033]","[0.0, -0.0, 1.3129373548657892]","[0.026750000193715096, 0.05299999937415123, 0.03999999910593033]","[0.0, 0.0, -1.308649569130343]","[0.09629017859697342, 0.07165912538766861, 0.03999999910593033]","[0.0, 0.0, -1.3129881167123505]",1.3347812483290395,6.272500044558946,"(0.0, 0.0, 0.0, 0.0, 0.0, 0.0)",-1.0178482622338179,0.003863702481573626,-0.10271990590510163,"(0.0, 0.0, 0.0, 0.0, 0.0, 0.0)",-0.07410352518858664,-1.3347846214343462,-6.272410095084102,"(0.0, 0.0, 0.0, 0.0, 0.0, 0.0)",1.0178203769740246,-0.0039057357160976183,0.10384085271523745,"(0.0, 0.0, 0.0, 0.0, 0.0, 0.0)",0.0740891498002037,False,,,,,False,,,,
19,Open,,,,,,"[-0.026750000193715096, 0.05299999937415123, 0.03999999910593033]","[0.0, -0.0, 1.3347813147466918]","[-0.09675397723913193, 0.06983575969934464, 0.03999999910593033]","[0.0, -0.0, 1.3386449621367835]","[0.026750000193715096, 0.05299999937415123, 0.03999999910593033]","[0.0, 0.0, -1.3347844615433213]","[0.0967540368437767, 0.06983552873134613, 0.03999999910593033]","[0.0, 0.0, -1.3386905382854437]",1.3583031234961356,5.645250040103052,"(0.0, 0.0, 0.0, 0.0, 0.0, 0.0)",-0.9162890978823036,0.0034783869891320215,-0.09247571818598516,"(0.0, 0.0, 0.0, 0.0, 0.0, 0.0)",-0.06677007440367574,-1.3583061592909116,-5.645169085575695,"(0.0, 0.0, 0.0, 0.0, 0.0, 0.0)",0.9162639666346021,-0.003516216695348753,0.09348456497972772,"(0.0, 0.0, 0.0, 0.0, 0.0, 0.0)",0.06675710630673855,False,,,,,False,,,,
20,Open,,,,,,"[-0.026750000193715096, 0.05299999937415123, 0.03999999910593033]","[0.0, -0.0, 1.3583030429358363]","[-0.09713058918714523, 0.06818463653326035, 0.03999999910593033]","[0.0, -0.0, 1.3617816714487538]","[0.026750000193715096, 0.05299999937415123, 0.03999999910593033]","[0.0, 0.0, -1.358306171033049]","[0.09713063389062881, 0.06818442046642303, 0.03999999910593033]","[0.0, 0.0, -1.361822351334537]",1.379472811146522,5.0807250360927485,"(0.0, 0.0, 0.0, 0.0, 0.0, 0.0)",-0.8248429295126702,0.003131498553648039,-0.08325322451615583,"(0.0, 0.0, 0.0, 0.0, 0.0, 0.0)",-0.06015531267018523,-1.3794755433618204,-5.080652177018124,"(0.0, 0.0, 0.0, 0.0, 0.0, 0.0)",0.8248202834423316,-0.003165545104486833,0.08416118180686077,"(0.0, 0.0, 0.0, 0.0, 0.0, 0.0)",0.06014361689139186,False,,,,,False,,,,
21,Open,,,,,,"[-0.026750000193715096, 0.05299999937415123, 0.03999999910593033]","[0.0, -0.0, 1.3794728975130914]","[-0.09743624925613403, 0.06669140607118607, 0.03999999910593033]","[0.0, -0.0, 1.382604304378769]","[0.026750000193715096, 0.05299999937415123, 0.03999999910593033]","[0.0, 0.0, -1.379475506721758]","[0.09743628650903702, 0.06669121235609055, 0.03999999910593033]","[0.0, 0.0, -1.3826409668082853]",1.3985255300318697,4.572652532483473,"(0.0, 0.0, 0.0, 0.0, 0.0, 0.0)",-0.7425066286387145,0.0028192047313806493,-0.07495051734417352,"(0.0, 0.0, 0.0, 0.0, 0.0, 0.0)",-0.054190171953983096,-1.3985279890256384,-4.57258695931631,"(0.0, 0.0, 0.0, 0.0, 0.0, 0.0)",0.7424862245436853,-0.0028498464605416357,0.07576767454684734,"(0.0, 0.0, 0.0, 0.0, 0.0, 0.0)",0.0541796259205944,False,,,,,False,,,,
22,Open,,,,,,"[-0.026750000193715096, 0.05299999937415123, 0.03999999910593033]","[0.0, -0.0, 1.398525454133583]","[-0.09768425673246384, 0.0653422400355339, 0.03999999910593033]","[0.0, -0.0, 1.4013447262228373]","[0.026750000193715096, 0.05299999937415123, 0.03999999910593033]","[0.0, 0.0, -1.3985280648022782]","[0.09768428653478622, 0.06534206122159958, 0.03999999910593033]","[0.0, 0.0, -1.4013779844801912]",1.4156729770286829,4.1153872792351285,"(0.0, 0.0, 0.0, 0.0, 0.0, 0.0)",-0.6683758137814145,0.002538055332395241,-0.06747585575649792,"(0.0, 0.0, 0.0, 0.0, 0.0, 0.0)",-0.04881194552870251,-1.4156751901230746,-4.115328263384682,"(0.0, 0.0, 0.0, 0.0, 0.0, 0.0)",0.6683574317692884,-0.002565632738451909,0.06821129330153437,"(0.0, 0.0, 0.0, 0.0, 0.0, 0.0)",0.0488024380394442,False,,,,,False,,,,
23,Open,,,,,,"[-0.026750000193715096, 0.05299999937415123, 0.03999999910593033]","[0.0, -0.0, 1.4156730334745993]","[-0.09788545966148376, 0.06412414461374283, 0.03999999910593033]","[0.0, -0.0, 1.418211036917125]","[0.026750000193715096, 0.05299999937415123, 0.03999999910593033]","[0.0, 0.0, -1.4156752315845986]","[0.09788548201322556, 0.0641239807009697, 0.03999999910593033]","[0.0, 0.0, -1.418240879504808]",1.4311056793258146,3.703848551311612,"(0.0, 0.0, 0.0, 0.0, 0.0, 0.0)",-0.6016352863054336,0.002284944287465684,-0.060746650783093666,"(0.0, 0.0, 0.0, 0.0, 0.0, 0.0)",-0.04396376851645251,-1.431107671110767,-3.7037954370462103,"(0.0, 0.0, 0.0, 0.0, 0.0, 0.0)",0.6016187276545472,-0.0023097638175418747,0.061408541018408244,"(0.0, 0.0, 0.0, 0.0, 0.0, 0.0)",0.043955198772734246,False,,,,,False,,,,
24,Open,,,,,,"[-0.026750000193715096, 0.05299999937415123, 0.03999999910593033]","[0.0, -0.0, 1.4311058207082674]","[-0.09804865717887878, 0.06302504986524582, 0.03999999910593033]","[0.0, -0.0, 1.433390691262394]","[0.026750000193715096, 0.05299999937415123, 0.03999999910593033]","[0.0, 0.0, -1.4311075924426346]","[0.09804867953062057, 0.06302490830421448, 0.03999999910593033]","[0.0, 0.0, -1.433417470845748]",1.4449951113932331,3.333463696180452,"(0.0, 0.0, 0.0, 0.0, 0.0, 0.0)",-0.5415503506795546,0.0020570753203455715,-0.05468855210882702,"(0.0, 0.0, 0.0, 0.0, 0.0, 0.0)",-0.039594115216637325,-1.4449969039996904,-3.3334158933415914,"(0.0, 0.0, 0.0, 0.0, 0.0, 0.0)",0.541535435877482,-0.002079412775410495,0.055284250111531166,"(0.0, 0.0, 0.0, 0.0, 0.0, 0.0)",0.03958639191865308,False,,,,,False,,,,
25,Open,,,,,,"[-0.026750000193715096, 0.05299999937415123, 0.03999999910593033]","[0.0, -0.0, 1.444995076522675]","[-0.09818101674318314, 0.062033817172050476, 0.03999999910593033]","[0.0, -0.0, 1.4470522962768402]","[0.026750000193715096, 0.05299999937415123, 0.03999999910593033]","[0.0, 0.0, -1.4449971061677662]","[0.09818103164434433, 0.06203368678689003, 0.03999999910593033]","[0.0, 0.0, -1.4470761943538692]",1.45749560025391,3.0001173265624064,"(0.0, 0.0, 0.0, 0.0, 0.0, 0.0)",-0.4874589573784058,0.001851931045420989,-0.04923462598189979,"(0.0, 0.0, 0.0, 0.0, 0.0, 0.0)",-0.03565633120497695,-1.4574972135997213,-3.000074304007432,"(0.0, 0.0, 0.0, 0.0, 0.0, 0.0)",0.4874455243270462,-0.0018720346450414762,0.04977075128856451,"(0.0, 0.0, 0.0, 0.0, 0.0, 0.0)",0.03564937171228022,False,,,,,False,,,,
26,Open,,,,,,"[-0.026750000193715096, 0.05299999937415123, 0.03999999910593033]","[0.0, -0.0, 1.4574954921785264]","[-0.09828835725784302, 0.061140209436416626, 0.03999999910593033]","[0.0, -0.0, 1.4593474823067423]","[0.026750000193715096, 0.05299999937415123, 0.03999999910593033]","[0.0, 0.0, -1.4574971848934346]","[0.09828837215900421, 0.061140093952417374, 0.03999999910593033]","[0.0, 0.0, -1.4593694397653831]",1.4687460402285188,2.700105593906164,"(0.0, 0.0, 0.0, 0.0, 0.0, 0.0)",-0.4387645947805427,0.0016672451487475934,-0.044324615201614966,"(0.0, 0.0, 0.0, 0.0, 0.0, 0.0)",-0.032108199676446195,-1.4687474922397492,-2.70006687360669,"(0.0, 0.0, 0.0, 0.0, 0.0, 0.0)",0.4387524971567325,-0.0016853382893528596,0.04480712536526797,"(0.0, 0.0, 0.0, 0.0, 0.0, 0.0)",0.03210192923147444,False,,,,,False,,,,
27,Open,,,,,,"[-0.026750000193715096, 0.05299999937415123, 0.03999999910593033]","[0.0, -0.0, 1.4687462228928074]","[-0.09837540984153748, 0.06033487245440483, 0.03999999910593033]","[0.0, -0.0, 1.4704133245237396]","[0.026750000193715096, 0.05299999937415123, 0.03999999910593033]","[0.0, 0.0, -1.4687474899518769]","[0.09837542474269867, 0.060334768146276474, 0.03999999910593033]","[0.0, 0.0, -1.4704329951986796]",1.478871436205667,2.430095034515549,"(0.0, 0.0, 0.0, 0.0, 0.0, 0.0)",-0.394929862139441,0.0015009773446580906,-0.03990427298148066,"(0.0, 0.0, 0.0, 0.0, 0.0, 0.0)",-0.028911540991871522,-1.4788727430157742,-2.430060186246021,"(0.0, 0.0, 0.0, 0.0, 0.0, 0.0)",0.39491896790015035,-0.001517261081966714,0.04033852977267494,"(0.0, 0.0, 0.0, 0.0, 0.0, 0.0)",0.02890589200411927,False,,,,,False,,,,
28,Open,,,,,,"[-0.026750000193715096, 0.05299999937415123, 0.03999999910593033]","[0.0, -0.0, 1.4788714352834713]","[-0.09844600409269333, 0.05960927531123161, 0.03999999910593033]","[0.0, -0.0, 1.480372508787761]","[0.026750000193715096, 0.05299999937415123, 0.03999999910593033]","[0.0, 0.0, -1.4788727099725336]","[0.09844601899385452, 0.05960918217897415, 0.03999999910593033]","[0.0, 0.0, -1.4803900544382056]",1.4879842925851003,2.1870855310639947,"(0.0, 0.0, 0.0, 0.0, 0.0, 0.0)",-0.3554706611703565,0.001351290830885638,-0.035924763305388616,"(0.0, 0.0, 0.0, 0.0, 0.0, 0.0)",-0.026031844038894282,-1.487985468714197,-2.1870541676214206,"(0.0, 0.0, 0.0, 0.0, 0.0, 0.0)",0.3554608511915877,-0.001365946114079445,0.03631559229294455,"(0.0, 0.0, 0.0, 0.0, 0.0, 0.0)",0.026026755426892093,False,,,,,False,,,,
29,Close,,,"(3.819349109750643e-09, 0.16999994350316286, 7.914305593764796e-05)","(1.5700606283751846, 1.2357610516186277e-06, -4.058049624060407e-09)",,"[-0.026750000193715096, 0.05299999937415123, 0.03999999910593033]","[0.0, -0.0, 1.4879842849605203]","[-0.09850326180458069, 0.05895565450191498, 0.03999999910593033]","[0.0, -0.0, 1.4893357278409396]","[0.026750000193715096, 0.05299999937415123, 0.03999999910593033]","[0.0, 0.0, -1.4879853833286059]","[0.09850326925516129, 0.05895556882023811, 0.03999999910593033]","[0.0, 0.0, -1.4893513332680077]",1.4961858633265903,1.9683769779575933,"(0.0, 0.0, 0.0, 0.0, 0.0, 0.0)",-0.31995094896823073,0.0012165319928285922,-0.03234212113369103,"(0.0, 0.0, 0.0, 0.0, 0.0, 0.0)",-0.02343792779000599,-1.4961869218427772,-1.9683487508592754,"(0.0, 0.0, 0.0, 0.0, 0.0, 0.0)",0.31994211580738524,-0.0012297216752996233,0.03269386530715718,"(0.0, 0.0, 0.0, 0.0, 0.0, 0.0)",0.02343334437795369,False,,,,,False,,,,
30,Close,,,"(1.09441459674075e-09, 0.16999988769159868, 0.0001519632082907279)","(1.5701173533571526, -2.5467641220651055e-06, -4.573996600559749e-08)",,"[-0.026750000193715096, 0.05299999937415123, 0.03999999910593033]","[0.0, -0.0, 1.4961860174198076]","[-0.09854969382286072, 0.05836696922779083, 0.03999999910593033]","[0.0, -0.0, 1.4974025341106605]","[0.026750000193715096, 0.05299999937415123, 0.03999999910593033]","[0.0, 0.0, -1.4961870219527165]","[0.09854969382286072, 0.05836689472198486, 0.03999999910593033]","[0.0, 0.0, -1.4974167044724178]",1.4065672769939312,-21.50846071983817,"(0.0, 0.0, 0.0, 0.0, 0.0, 0.0)",-36.83524610171859,-0.08890468746940376,-21.629092670935766,"(0.0, 0.0, 0.0, 0.0, 0.0, 0.0)",-4.936581214831643,-1.4065682296584996,21.508486124226657,"(0.0, 0.0, 0.0, 0.0, 0.0, 0.0)",36.83523814678565,0.0888928167555427,21.629409223402156,"(0.0, 0.0, 0.0, 0.0, 0.0, 0.0)",4.936577085092772,False,,,,,False,,,,
31,Close,,,"(3.541182821644653e-08, 0.1699998011443987, 0.00021906657187154062)","(1.570205104748116, 3.3042409171564205e-05, -8.114212850492596e-08)",,"[-0.026750000193715096, 0.05299999937415123, 0.03999999910593033]","[0.0, -0.0, 1.4065674382065954]","[-0.0977812185883522, 0.06477140635251999, 0.03999999910593033]","[0.0, -0.0, 1.3176625934179576]","[0.026750000193715096, 0.05299999937415123, 0.03999999910593033]","[0.0, 0.0, -1.4065680331882469]","[0.0977812260389328, 0.06477133929729462, 0.03999999910593033]","[0.0, 0.0, -1.3176753491400532]",1.3259105492945382,-19.357614647854348,"(0.0, 0.0, 0.0, 0.0, 0.0, 0.0)",3.3395407019063446,-0.17001473426920377,-19.466411231952,"(0.0, 0.0, 0.0, 0.0, 0.0, 0.0)",0.4376834422569755,-1.3259114066926496,19.35763751180399,"(0.0, 0.0, 0.0, 0.0, 0.0, 0.0)",-3.3395473112045253,0.1700040506304986,19.466696129989415,"(0.0, 0.0, 0.0, 0.0, 0.0, 0.0)",-0.43768664266468643,False,,,,,False,,,,
32,Close,,,"(3.361538948490201e-08, 0.16999974452330968, 0.00028077538773600935)","(1.5702911774727688, 7.027968338074274e-05, -7.017997684986258e-06)",,"[-0.026750000193715096, 0.05299999937415123, 0.03999999910593033]","[0.0, -0.0, 1.325910602539969]","[-0.09660188108682632, 0.07045608013868332, 0.03999999910593033]","[0.0, -0.0, 1.1558959321658662]","[0.026750000193715096, 0.05299999937415123, 0.03999999910593033]","[0.0, 0.0, -1.3259115331240872]","[0.09660189598798752, 0.07045602053403854, 0.03999999910593033]","[0.0, 0.0, -1.1559073716167563]",1.2533194943650845,-17.42185318306892,"(0.0, 0.0, 0.0, 0.0, 0.0, 0.0)",3.0100864599566086,-0.2430137284658432,-17.519758607193467,"(0.0, 0.0, 0.0, 0.0, 0.0, 0.0)",0.39699812510351973,-1.2533202660233846,17.42187376062359,"(0.0, 0.0, 0.0, 0.0, 0.0, 0.0)",-3.0100924602349655,0.24300411319445853,17.52001501535039,"(0.0, 0.0, 0.0, 0.0, 0.0, 0.0)",-0.39700105403357716,False,,,,,False,,,,
33,Close,,,"(1.2478111664315067e-07, 0.16999960627903704, 0.000337513976604643)","(1.5703757790333803, 0.0001088681261817636, -5.122611399447184e-06)",,"[-0.026750000193715096, 0.05299999937415123, 0.03999999910593033]","[0.0, -0.0, 1.2533194489161892]","[-0.0951518788933754, 0.07547627389431, 0.03999999910593033]","[0.0, -0.0, 1.0103057011386807]","[0.026750000193715096, 0.05299999937415123, 0.03999999910593033]","[0.0, 0.0, -1.2533201846969224]","[0.09515189379453659, 0.07547622174024582, 0.03999999910593033]","[0.0, 0.0, -1.010316110149499]",1.1879875449285762,-15.679667864762028,"(0.0, 0.0, 0.0, 0.0, 0.0, 0.0)",2.712712783767229,-0.30871235561933186,-15.767670516837281,"(0.0, 0.0, 0.0, 0.0, 0.0, 0.0)",0.3597856734528228,-1.1879882394210461,15.679686384561233,"(0.0, 0.0, 0.0, 0.0, 0.0, 0.0)",-2.712718226071338,0.30870370187508567,15.767901283350515,"(0.0, 0.0, 0.0, 0.0, 0.0, 0.0)",-0.35978834883250516,False,,,,,False,,,,
34,Close,,,"(1.2869376016944667e-07, 0.16999954011037416, 0.00038973303114976833)","(1.5704582297133343, 0.0001496263682483943, -9.931543136061158e-06)",,"[-0.026750000193715096, 0.05299999937415123, 0.03999999910593033]","[0.0, -0.0, 1.1879876003522736]","[-0.09353857487440109, 0.07989397644996643, 0.03999999910593033]","[0.0, -0.0, 0.8792752425767008]","[0.026750000193715096, 0.05299999937415123, 0.03999999910593033]","[0.0, 0.0, -1.1879882623869136]","[0.09353859722614288, 0.07989392429590225, 0.03999999910593033]","[0.0, 0.0, -0.8792844680170303]",1.1291887904356523,-14.1117010783017,"(0.0, 0.0, 0.0, 0.0, 0.0, 0.0)",2.44436472036771,-0.36784112005739866,-14.190903465136039,"(0.0, 0.0, 0.0, 0.0, 0.0, 0.0)",0.3258007578595482,-1.1291894154788755,14.111717746120975,"(0.0, 0.0, 0.0, 0.0, 0.0, 0.0)",-2.444369652349295,0.3678333316875771,14.191111154997946,"(0.0, 0.0, 0.0, 0.0, 0.0, 0.0)",-0.32580319741325486,False,,,,,False,,,,
35,Close,,,"(2.2147778895778094e-07, 0.169999403724105, 0.00043775502472391954)","(1.5705392813318275, 0.0001916771605813282, -8.19762937926826e-06)",,"[-0.026750000193715096, 0.05299999937415123, 0.03999999910593033]","[0.0, -0.0, 1.1291888000608494]","[-0.09184273332357407, 0.08377231657505035, 0.03999999910593033]","[0.0, -0.0, 0.7613476921786614]","[0.026750000193715096, 0.05299999937415123, 0.03999999910593033]","[0.0, 0.0, -1.1291894580384154]","[0.09184275567531586, 0.08377227932214737, 0.03999999910593033]","[0.0, 0.0, -0.7613561373098183]",1.0762699113920273,-12.700530970470014,"(0.0, 0.0, 0.0, 0.0, 0.0, 0.0)",2.202305891359772,-0.4210570080516588,-12.77181311862243,"(0.0, 0.0, 0.0, 0.0, 0.0, 0.0)",0.2948453788489373,-1.0762704739309281,12.700545971507374,"(0.0, 0.0, 0.0, 0.0, 0.0, 0.0)",-2.2023103576802145,0.4210499985188194,12.77200003949815,"(0.0, 0.0, 0.0, 0.0, 0.0, 0.0)",-0.2948476002056522,False,,,,,False,,,,
36,Close,,,"(2.1912693722736075e-07, 0.16999934361709654, 0.000481956449276018)","(1.5706184388641253, 0.00023565575873296478, -1.2845786801691941e-05)",,"[-0.026750000193715096, 0.05299999937415123, 0.03999999910593033]","[0.0, -0.0, 1.0762698553554748]","[-0.09012393653392792, 0.08717226982116699, 0.03999999910593033]","[0.0, -0.0, 0.6552128934948661]","[0.026750000193715096, 0.05299999937415123, 0.03999999910593033]","[0.0, 0.0, -1.0762704893583]","[0.09012395888566971, 0.08717223256826401, 0.03999999910593033]","[0.0, 0.0, -0.6552204147476549]",1.0286429202528247,-11.430477873408655,"(0.0, 0.0, 0.0, 0.0, 0.0, 0.0)",1.9840011930578276,-0.46895130724721834,-11.494631806934295,"(0.0, 0.0, 0.0, 0.0, 0.0, 0.0)",0.26667684533441977,-1.0286434265378352,11.430491374342276,"(0.0, 0.0, 0.0, 0.0, 0.0, 0.0)",-1.984005235051249,0.4689449986676629,11.494800035722442,"(0.0, 0.0, 0.0, 0.0, 0.0, 0.0)",-0.26667886541975433,False,,,,,False,,,,
37,Close,,,"(3.1131510586280866e-07, 0.1699992121070205, 0.0005226007520893923)","(1.5706964879884222, 0.0002806415891397876, -1.1307759452448239e-05)",,"[-0.026750000193715096, 0.05299999937415123, 0.03999999910593033]","[0.0, -0.0, 1.0286429345076582]","[-0.0884251669049263, 0.09015069156885147, 0.03999999910593033]","[0.0, -0.0, 0.5596916647508587]","[0.026750000193715096, 0.05299999937415123, 0.03999999910593033]","[0.0, 0.0, -1.0286435120859125]","[0.08842518925666809, 0.09015065431594849, 0.03999999910593033]","[0.0, 0.0, -0.5596984028120249]",0.9857786282275423,-10.287430086067793,"(0.0, 0.0, 0.0, 0.0, 0.0, 0.0)",1.787161045327472,-0.5120561765231523,-10.345168626224153,"(0.0, 0.0, 0.0, 0.0, 0.0, 0.0)",0.24107512437447856,-0.9857790838840517,10.28744223690805,"(0.0, 0.0, 0.0, 0.0, 0.0, 0.0)",-1.787164701188607,0.5120504988015524,10.345320032133483,"(0.0, 0.0, 0.0, 0.0, 0.0, 0.0)",-0.24107695935135354,False,,,,,False,,,,
38,Close,,,"(3.0991842655903425e-07, 0.169999153087261, 0.0005600347082356065)","(1.570772558536085, 0.00032764712563817383, -1.5390013302753274e-05)",,"[-0.026750000193715096, 0.05299999937415123, 0.03999999910593033]","[0.0, -0.0, 0.9857786218799983]","[-0.08677656948566437, 0.09275941550731659, 0.03999999910593033]","[0.0, -0.0, 0.4737224893055005]","[0.026750000193715096, 0.05299999937415123, 0.03999999910593033]","[0.0, 0.0, -0.9857791586690391]","[0.08677658438682556, 0.0927593931555748, 0.03999999910593033]","[0.0, 0.0, -0.47372859204714834]",0.9472007654041954,-9.258687077603232,"(0.0, 0.0, 0.0, 0.0, 0.0, 0.0)",1.6097085175776904,-0.550850558870837,-9.310651763444346,"(0.0, 0.0, 0.0, 0.0, 0.0, 0.0)",0.21783104241587867,-0.9472011754950539,9.258698013359455,"(0.0, 0.0, 0.0, 0.0, 0.0, 0.0)",-1.609711822487034,0.5508454489213972,9.310788028762744,"(0.0, 0.0, 0.0, 0.0, 0.0, 0.0)",-0.21783270758412676,False,,,,,False,,,,
39,Close,,,"(4.0106165104263135e-07, 0.169999026405202, 0.0005944331352702725)","(1.570848092729261, 0.0003750986118602944, -1.4060502423520339e-05)",,"[-0.026750000193715096, 0.05299999937415123, 0.03999999910593033]","[0.0, -0.0, 0.9472008140782049]","[-0.08519845455884933, 0.09504495561122894, 0.03999999910593033]","[0.0, -0.0, 0.39635019782230363]","[0.026750000193715096, 0.05299999937415123, 0.03999999910593033]","[0.0, 0.0, -0.9472011867132297]","[0.08519846946001053, 0.09504493325948715, 0.03999999910593033]","[0.0, 0.0, -0.3963557154153113]",0.9124806888632406,-8.332818369829143,"(0.0, 0.0, 0.0, 0.0, 0.0, 0.0)",1.4497611633824499,-0.5857655029837533,-8.379586587099913,"(0.0, 0.0, 0.0, 0.0, 0.0, 0.0)",0.19674731686213875,-0.9124810579450133,8.332828212009746,"(0.0, 0.0, 0.0, 0.0, 0.0, 0.0)",-1.4497641496546352,0.5857609040292575,8.379709225886469,"(0.0, 0.0, 0.0, 0.0, 0.0, 0.0)",-0.1967488266016999,False,,,,,False,,,,
40,Close,,,"(3.70657372146465e-07, 0.16999903038777142, 0.0006260749884053443)","(1.5708440552876382, 0.00034508120830118214, -1.4055585689260766e-05)",,"[-0.026750000193715096, 0.05299999937415123, 0.03999999910593033]","[0.0, -0.0, 0.9124807402838544]","[-0.08370371162891388, 0.09704854339361191, 0.03999999910593033]","[0.0, -0.0, 0.32671521193417863]","[0.026750000193715096, 0.05299999937415123, 0.03999999910593033]","[0.0, 0.0, -0.9124811663733811]","[0.08370373398065567, 0.09704852104187012, 0.03999999910593033]","[0.0, 0.0, -0.32672018954414506]",0.8812326199769166,-7.499536532717775,"(0.0, 0.0, 0.0, 0.0, 0.0, 0.0)",1.3056085801322186,-0.6171891619197363,-7.541678144635914,"(0.0, 0.0, 0.0, 0.0, 0.0, 0.0)",0.17763358199117588,-0.881232952150512,7.499545390680321,"(0.0, 0.0, 0.0, 0.0, 0.0, 0.0)",-1.305611277336412,0.617185022862301,7.541788519930457,"(0.0, 0.0, 0.0, 0.0, 0.0, 0.0)",-0.17763494969582577,False,,,,,False,,,,
41,Close,,,"(3.427044292909036e-07, 0.1699990340506735, 0.0006551854712062516)","(1.5708403346470328, 0.0003174583455114455, -1.4051356821419932e-05)",,"[-0.026750000193715096, 0.05299999937415123, 0.03999999910593033]","[0.0, -0.0, 0.8812326035131218]","[-0.08229970186948776, 0.09880644828081131, 0.03999999910593033]","[0.0, -0.0, 0.26404346611112495]","[0.026750000193715096, 0.05299999937415123, 0.03999999910593033]","[0.0, 0.0, -0.8812328730718287]","[0.08229971677064896, 0.09880642592906952, 0.03999999910593033]","[0.0, 0.0, -0.2640479150919315]",0.8531093579792249,-6.749582879446001,"(0.0, 0.0, 0.0, 0.0, 0.0, 0.0)",1.1757252455852583,-0.6454704345862542,-6.78750543996429,"(0.0, 0.0, 0.0, 0.0, 0.0, 0.0)",0.16033509317806058,-0.8531096569354608,6.7495908516122896,"(0.0, 0.0, 0.0, 0.0, 0.0, 0.0)",-1.1757276808922346,0.645466709436021,6.787604777692787,"(0.0, 0.0, 0.0, 0.0, 0.0, 0.0)",-0.16033633143309114,False,,,,,False,,,,
42,Close,,,"(3.170084497545684e-07, 0.16999903740907119, 0.0006819671107693073)","(1.570836911771951, 0.00029204530032808255, -1.4047683015968837e-05)",,"[-0.026750000193715096, 0.05299999937415123, 0.03999999910593033]","[0.0, -0.0, 0.8531093567174074]","[-0.08098968118429184, 0.10035036504268646, 0.03999999910593033]","[0.0, -0.0, 0.2076389231904772]","[0.026750000193715096, 0.05299999937415123, 0.03999999910593033]","[0.0, 0.0, -0.8531096230941355]","[0.08098969608545303, 0.10035035014152527, 0.03999999910593033]","[0.0, 0.0, -0.2076429742570099]",0.8277984221813024,-6.0746245915014,"(0.0, 0.0, 0.0, 0.0, 0.0, 0.0)",1.0586966037970245,-0.6709235615380169,-6.1087504684230565,"(0.0, 0.0, 0.0, 0.0, 0.0, 0.0)",0.14467321668423558,-0.8277986912419147,6.074631766451059,"(0.0, 0.0, 0.0, 0.0, 0.0, 0.0)",-1.0586988018726124,0.6709202089041267,6.108839872345364,"(0.0, 0.0, 0.0, 0.0, 0.0, 0.0)",-0.14467433700617466,False,,,,,False,,,,
43,Close,,,"(2.93385406087929e-07, 0.16999904048782613, 0.0007066062149797113)","(1.5708337628331848, 0.0002686652895538331, -1.4044478861914954e-05)",,"[-0.026750000193715096, 0.05299999937415123, 0.03999999910593033]","[0.0, -0.0, 0.8277984323872327]","[-0.07977395504713058, 0.10170790553092957, 0.03999999910593033]","[0.0, -0.0, 0.15687485461046338]","[0.026750000193715096, 0.05299999937415123, 0.03999999910593033]","[0.0, 0.0, -0.8277987052452376]","[0.07977396249771118, 0.10170789808034897, 0.03999999910593033]","[0.0, 0.0, -0.15687847762667875]",0.8050185799631722,-5.467162132351259,"(0.0, 0.0, 0.0, 0.0, 0.0, 0.0)",0.9532674830029981,-0.6938313591081322,-5.497871416827678,"(0.0, 0.0, 0.0, 0.0, 0.0, 0.0)",0.1305069121449798,-0.8050188221177232,5.467168589805953,"(0.0, 0.0, 0.0, 0.0, 0.0, 0.0)",-0.9532694663734236,0.6938283417388244,5.49795188032743,"(0.0, 0.0, 0.0, 0.0, 0.0, 0.0)",-0.13050792520753388,False,,,,,False,,,,
44,Close,,,"(2.716665250887489e-07, 0.16999904330973556, 0.0007292741870466809)","(1.5708308659078907, 0.0002471556717650467, -1.4041672069322908e-05)",,"[-0.026750000193715096, 0.05299999937415123, 0.03999999910593033]","[0.0, -0.0, 0.8050185839979388]","[-0.07865073531866074, 0.10290304571390152, 0.03999999910593033]","[0.0, -0.0, 0.11118723016400785]","[0.026750000193715096, 0.05299999937415123, 0.03999999910593033]","[0.0, 0.0, -0.8050187952188965]","[0.07865074276924133, 0.10290303081274033, 0.03999999910593033]","[0.0, 0.0, -0.11119048022217565]",0.784516721966855,-4.920445919116134,"(0.0, 0.0, 0.0, 0.0, 0.0, 0.0)",0.8582975670224743,-0.7144483618360385,-4.948080654697517,"(0.0, 0.0, 0.0, 0.0, 0.0, 0.0)",0.11770004006048959,-0.784516939905951,4.92045173082536,"(0.0, 0.0, 0.0, 0.0, 0.0, 0.0)",-0.8582993561887614,0.7144456462047399,4.948153071819748,"(0.0, 0.0, 0.0, 0.0, 0.0, 0.0)",-0.11770095568272418,False,,,,,False,,,,
45,Close,,,"(2.51696986958339e-07, 0.1699990458957082, 0.0007501287178850499)","(1.5708282008276007, 0.000227366816649173, -1.4039201474218165e-05)",,"[-0.026750000193715096, 0.05299999937415123, 0.03999999910593033]","[0.0, -0.0, 0.7845167193080385]","[-0.07761679589748383, 0.10395654290914536, 0.03999999910593033]","[0.0, -0.0, 0.07006835685702544]","[0.026750000193715096, 0.05299999937415123, 0.03999999910593033]","[0.0, 0.0, -0.7845169946958266]","[0.07761680334806442, 0.10395653545856476, 0.03999999910593033]","[0.0, 0.0, -0.0700712989357174]",0.7660650497701694,-4.42840132720452,"(0.0, 0.0, 0.0, 0.0, 0.0, 0.0)",0.7727568402429666,-0.7330036506599046,-4.453269317727849,"(0.0, 0.0, 0.0, 0.0, 0.0, 0.0)",0.106127525293464,-0.7660652459153559,4.428406557742824,"(0.0, 0.0, 0.0, 0.0, 0.0, 0.0)",-0.7727584538402424,0.7330012065927102,4.453334493112861,"(0.0, 0.0, 0.0, 0.0, 0.0, 0.0)",-0.10612835248484857,False,,,,,False,,,,
46,Close,,,"(2.3333473952068603e-07, 0.16999904826492518, 0.0007693148831029557)","(1.5708257490378412, 0.00020916106414766092, -1.403701531280991e-05)",,"[-0.026750000193715096, 0.05299999937415123, 0.03999999910593033]","[0.0, -0.0, 0.7660649977175382]","[-0.07666795700788498, 0.10488639771938324, 0.03999999910593033]","[0.0, -0.0, 0.03306140223906952]","[0.026750000193715096, 0.05299999937415123, 0.03999999910593033]","[0.0, 0.0, -0.7660653079646047]","[0.07666796445846558, 0.10488638281822205, 0.03999999910593033]","[0.0, 0.0, -0.033064041138401834]",0.7494585447931524,-3.985561194484066,"(0.0, 0.0, 0.0, 0.0, 0.0, 0.0)",0.6957152666369016,-0.7497033982890566,-4.007939430996486,"(0.0, 0.0, 0.0, 0.0, 0.0, 0.0)",0.09567473522853766,-0.7494587213238203,3.985565901968542,"(0.0, 0.0, 0.0, 0.0, 0.0, 0.0)",-0.6957167215859875,0.7497011986294615,4.007998088820328,"(0.0, 0.0, 0.0, 0.0, 0.0, 0.0)",-0.09567548223716564,False,,,,,False,,,,
47,Close,,,"(2.1644941757498085e-07, 0.1699990504349868, 0.0007869661522299996)","(1.5708234934689855, 0.0001924117668631307, -1.4035069780186692e-05)",,"[-0.026750000193715096, 0.05299999937415123, 0.03999999910593033]","[0.0, -0.0, 0.7494586090384826]","[-0.07579945772886276, 0.10570816695690155, 0.03999999910593033]","[0.0, 0.0, -0.000244853492999894]","[0.026750000193715096, 0.05299999937415123, 0.03999999910593033]","[0.0, 0.0, -0.7494587081400255]","[0.07579946517944336, 0.10570815205574036, 0.03999999910593033]","[0.0, -0.0, 0.00024247731079752444]",0.7345126903138371,-3.587005075035659,"(0.0, 0.0, 0.0, 0.0, 0.0, 0.0)",0.626333365984163,-0.764733160038395,-3.6071428198412123,"(0.0, 0.0, 0.0, 0.0, 0.0, 0.0)",0.08623682787405348,-0.7345128491914382,3.587009311771688,"(0.0, 0.0, 0.0, 0.0, 0.0, 0.0)",-0.6263346776346612,0.7647311803455538,3.607195611862134,"(0.0, 0.0, 0.0, 0.0, 0.0, 0.0)",-0.08623750223625977,False,,,,,False,,,,
48,Close,,,"(1.9902478529523268e-07, 0.16999905216510106, 0.0008031506134026157)","(1.5708213694672628, 0.00017518801369688713, -1.4031269556480368e-05)",,"[-0.026750000193715096, 0.05299999937415123, 0.03999999910593033]","[0.0, -0.0, 0.7345126628086843]","[-0.07500623911619186, 0.10643533617258072, 0.03999999910593033]","[0.0, 0.0, -0.03022046980229406]","[0.026750000193715096, 0.05299999937415123, 0.03999999910593033]","[0.0, 0.0, -0.7345128981556924]","[0.07500624656677246, 0.10643532872200012, 0.03999999910593033]","[0.0, -0.0, 0.03021832986745902]",0.7210614212824534,-3.228304567532092,"(0.0, 0.0, 0.0, 0.0, 0.0, 0.0)",0.5638237707840803,-0.7782610712626786,-3.246698693828069,"(0.0, 0.0, 0.0, 0.0, 0.0, 0.0)",0.07768823801248652,-0.7210615642722944,3.2283083805945183,"(0.0, 0.0, 0.0, 0.0, 0.0, 0.0)",-0.5638249528147553,0.7782592895487316,3.2467462087626835,"(0.0, 0.0, 0.0, 0.0, 0.0, 0.0)",-0.07768884636877696,False,,,,,False,,,,
49,Close,,,"(1.829952775457341e-07, 0.16999905372445717, 0.0008180403399689366)","(1.5708194143492393, 0.00015934185659229473, -1.4027683329641553e-05)",,"[-0.026750000193715096, 0.05299999937415123, 0.03999999910593033]","[0.0, -0.0, 0.7210614193238458]","[-0.07428312301635742, 0.10707958787679672, 0.03999999910593033]","[0.0, 0.0, -0.05719964992344959]","[0.026750000193715096, 0.05299999937415123, 0.03999999910593033]","[0.0, 0.0, -0.7210615729227128]","[0.07428313046693802, 0.10707958042621613, 0.03999999910593033]","[0.0, -0.0, 0.05719773186848648]",0.7089552791542081,-2.905474110778883,"(0.0, 0.0, 0.0, 0.0, 0.0, 0.0)",0.5075985242705942,-0.7904360705014085,-2.921999817295172,"(0.0, 0.0, 0.0, 0.0, 0.0, 0.0)",0.07003713951344083,-0.7089554078450649,2.905477542535066,"(0.0, 0.0, 0.0, 0.0, 0.0, 0.0)",-0.5075995897946305,0.7904344669675306,2.9220425805117625,"(0.0, 0.0, 0.0, 0.0, 0.0, 0.0)",-0.07003768863744474,False,,,,,False,,,,
50,Close,,,"(1.682467379846132e-07, 0.1699990551245469, 0.0008317388481303276)","(1.570817615731277, 0.00014476218910829968, -1.4024269510216624e-05)",,"[-0.026750000193715096, 0.05299999937415123, 0.03999999910593033]","[0.0, -0.0, 0.7089552779168017]","[-0.07362496107816696, 0.10765105485916138, 0.03999999910593033]","[0.0, 0.0, -0.08148078223376223]","[0.026750000193715096, 0.05299999937415123, 0.03999999910593033]","[0.0, 0.0, -0.7089554724698194]","[0.07362496852874756, 0.10765104740858078, 0.03999999910593033]","[0.0, -0.0, 0.0814790502780401]",0.6980597512387873,-2.6149266997009946,"(0.0, 0.0, 0.0, 0.0, 0.0, 0.0)",0.45693917814201784,-0.8013934602632394,-2.6297735428394082,"(0.0, 0.0, 0.0, 0.0, 0.0, 0.0)",0.06310201359777694,-0.6980598670605584,2.614929788281559,"(0.0, 0.0, 0.0, 0.0, 0.0, 0.0)",-0.45694013827892466,0.8013920170905735,2.6298120295302843,"(0.0, 0.0, 0.0, 0.0, 0.0, 0.0)",-0.06310250889925509,False,,,,,False,,,,
51,Close,,,"(1.546756367802499e-07, 0.16999905637827734, 0.0008443414385910609)","(1.5708159610857961, 0.00013134778772512943, -1.402100024143693e-05)",,"[-0.026750000193715096, 0.05299999937415123, 0.03999999910593033]","[0.0, -0.0, 0.6980597686270504]","[-0.07302673906087875, 0.10815852880477905, 0.03999999910593033]","[0.0, 0.0, -0.10333370902653251]","[0.026750000193715096, 0.05299999937415123, 0.03999999910593033]","[0.0, 0.0, -0.6980598246378259]","[0.07302674651145935, 0.10815852135419846, 0.03999999910593033]","[0.0, -0.0, 0.10333215264877679]",0.6882537761149086,-2.3534340297308955,"(0.0, 0.0, 0.0, 0.0, 0.0, 0.0)",0.41132662822933225,-0.8112550122446371,-2.3667724755354502,"(0.0, 0.0, 0.0, 0.0, 0.0, 0.0)",0.056847326346645,-0.6882538803545026,2.353436809453404,"(0.0, 0.0, 0.0, 0.0, 0.0, 0.0)",-0.4113274932960819,0.8112537133962935,2.3668071133728046,"(0.0, 0.0, 0.0, 0.0, 0.0, 0.0)",-0.0568477730004364,False,,,,,False,,,,
52,Close,,,"(1.4218689550358636e-07, 0.1699990574974972, 0.0008559357877458743)","(1.5708144388885392, 0.00011900551991941484, -1.4017852050493115e-05)",,"[-0.026750000193715096, 0.05299999937415123, 0.03999999910593033]","[0.0, -0.0, 0.6882538042795985]","[-0.07248363643884659, 0.10860966145992279, 0.03999999910593033]","[0.0, 0.0, -0.12300123728040792]","[0.026750000193715096, 0.05299999937415123, 0.03999999910593033]","[0.0, 0.0, -0.688253900607872]","[0.07248364388942719, 0.1086096540093422, 0.03999999910593033]","[0.0, -0.0, 0.12299984676553348]",0.6794283985034177,-2.118090626757806,"(0.0, 0.0, 0.0, 0.0, 0.0, 0.0)",0.3702598465395096,-0.8201303199370257,-2.1300738461732434,"(0.0, 0.0, 0.0, 0.0, 0.0, 0.0)",0.051207533272865695,-0.6794284923190523,2.1180931285080637,"(0.0, 0.0, 0.0, 0.0, 0.0, 0.0)",-0.37026062586363284,0.8201291509798778,2.130105020060234,"(0.0, 0.0, 0.0, 0.0, 0.0, 0.0)",-0.051207935975855504,False,,,,,False,,,,
53,Close,,,"(1.3069318416839e-07, 0.16999905849308636, 0.0008666025576372722)","(1.5708130385376784, 0.00010764969663878531, -1.401480516953977e-05)",,"[-0.026750000193715096, 0.05299999937415123, 0.03999999910593033]","[0.0, -0.0, 0.6794284238724229]","[-0.07199108600616455, 0.10901110619306564, 0.03999999910593033]","[0.0, 0.0, -0.14070193198542613]","[0.026750000193715096, 0.05299999937415123, 0.03999999910593033]","[0.0, 0.0, -0.6794284800706577]","[0.07199109345674515, 0.10901109874248505, 0.03999999910593033]","[0.0, -0.0, 0.1407006814892172]",0.6714855586530759,-1.9062815640820263,"(0.0, 0.0, 0.0, 0.0, 0.0, 0.0)",0.33328720146674756,-0.82811801654313,-1.9170471854650495,"(0.0, 0.0, 0.0, 0.0, 0.0, 0.0)",0.0461231568532664,-0.6714856430871471,1.9062838156572566,"(0.0, 0.0, 0.0, 0.0, 0.0, 0.0)",-0.33328790347714454,0.8281169644874314,1.917075241812861,"(0.0, 0.0, 0.0, 0.0, 0.0, 0.0)",-0.04612351986457081,False,,,,,False,,,,
54,Close,,,"(1.201142787701026e-07, 0.1699990593750365, 0.0008764159571233717)","(1.5708117502799854, 9.720147739875066e-05, -1.4011842957469135e-05)",,"[-0.026750000193715096, 0.05299999937415123, 0.03999999910593033]","[0.0, -0.0, 0.6714856028191667]","[-0.07154478132724762, 0.10936867445707321, 0.03999999910593033]","[0.0, 0.0, -0.1566324602805662]","[0.026750000193715096, 0.05299999937415123, 0.03999999910593033]","[0.0, 0.0, -0.6714856028191667]","[0.07154478132724762, 0.10936867445707321, 0.03999999910593033]","[0.0, -0.0, 0.15663130155257995]",0.6643370027877683,-1.7156534076738226,"(0.0, 0.0, 0.0, 0.0, 0.0, 0.0)",0.30000166468946887,-0.8353068710937589,-1.7253250921509458,"(0.0, 0.0, 0.0, 0.0, 0.0, 0.0)",0.041540284771796165,-0.6643370787784324,1.7156554340915304,"(0.0, 0.0, 0.0, 0.0, 0.0, 0.0)",-0.3000022969997827,0.8353059242487986,1.725350342728124,"(0.0, 0.0, 0.0, 0.0, 0.0, 0.0)",-0.041540611950472935,False,,,,,False,,,,
55,Close,,,"(1.1037647424359984e-07, 0.16999906015252483, 0.0008854442581506275)","(1.5708105651429114, 8.758832292823178e-05, -1.4008951415989527e-05)",,"[-0.026750000193715096, 0.05299999937415123, 0.03999999910593033]","[0.0, -0.0, 0.6643370606126838]","[-0.07114068418741226, 0.1096874549984932, 0.03999999910593033]","[0.0, 0.0, -0.17096987637179278]","[0.026750000193715096, 0.05299999937415123, 0.03999999910593033]","[0.0, 0.0, -0.6643370606126838]","[0.07114069163799286, 0.1096874475479126, 0.03999999910593033]","[0.0, -0.0, 0.17096884643662202]",0.6579033025089914,-1.5440880669064398,"(0.0, 0.0, 0.0, 0.0, 0.0, 0.0)",0.2700364572532802,-0.8417767749452665,-1.5527769243618206,"(0.0, 0.0, 0.0, 0.0, 0.0, 0.0)",0.03741008611729049,-0.6579033709005891,1.5440898906823783,"(0.0, 0.0, 0.0, 0.0, 0.0, 0.0)",-0.27003702673818186,0.8417759227894597,1.5527996497586782,"(0.0, 0.0, 0.0, 0.0, 0.0, 0.0)",-0.03741038095743008,False,,,,,False,,,,
56,Close,,,"(1.0141204673652616e-07, 0.16999906083398159, 0.0008937502707232629)","(1.570809474872104, 7.87434915574051e-05, -1.4006118772737545e-05)",,"[-0.026750000193715096, 0.05299999937415123, 0.03999999910593033]","[0.0, -0.0, 0.6579033304946226]","[-0.07077505439519882, 0.10997187346220016, 0.03999999910593033]","[0.0, 0.0, -0.18387348897538708]","[0.026750000193715096, 0.05299999937415123, 0.03999999910593033]","[0.0, 0.0, -0.6579033304946226]","[0.07077506184577942, 0.10997187346220016, 0.03999999910593033]","[0.0, -0.0, 0.1838725619548152]",0.6521129722580923,-1.3896792602157946,"(0.0, 0.0, 0.0, 0.0, 0.0, 0.0)",0.24306111081870946,-0.8475996296201711,-1.3974851219770965,"(0.0, 0.0, 0.0, 0.0, 0.0, 0.0)",0.033688362136148925,-0.6521130338105302,1.38968090161414,"(0.0, 0.0, 0.0, 0.0, 0.0, 0.0)",-0.24306162368353448,0.8475988626841415,1.3975055747236533,"(0.0, 0.0, 0.0, 0.0, 0.0, 0.0)",-0.03368862779939208,False,,,,,False,,,,
57,Close,,,"(9.31587620256511e-08, 0.16999906142715163, 0.0009013917798737923)","(1.570808471873919, 7.060557585400826e-05, -1.4003335136779464e-05)",,"[-0.026750000193715096, 0.05299999937415123, 0.03999999910593033]","[0.0, -0.0, 0.6521129301518677]","[-0.07044443488121033, 0.11022583395242691, 0.03999999910593033]","[0.0, 0.0, -0.19548665573955404]","[0.026750000193715096, 0.05299999937415123, 0.03999999910593033]","[0.0, 0.0, -0.6521129866161153]","[0.07044444233179092, 0.11022583395242691, 0.03999999910593033]","[0.0, -0.0, 0.19548582525750646]",0.646901675032283,-1.2507113341942153,"(0.0, 0.0, 0.0, 0.0, 0.0, 0.0)",0.2187779064062842,-0.8528401458571484,-1.2577238968745574,"(0.0, 0.0, 0.0, 0.0, 0.0, 0.0)",0.03033513071724496,-0.6469017304294772,1.2507128114527255,"(0.0, 0.0, 0.0, 0.0, 0.0, 0.0)",-0.2187783682505172,0.8528394556185027,1.2577423042466835,"(0.0, 0.0, 0.0, 0.0, 0.0, 0.0)",-0.03033537006280305,False,,,,,False,,,,
58,Close,,,"(8.555942447331213e-08, 0.16999906193915107, 0.000908421947674647)","(1.5708075491625393, 6.311807629477444e-05, -1.4000592203169427e-05)",,"[-0.026750000193715096, 0.05299999937415123, 0.03999999910593033]","[0.0, -0.0, 0.6469017074975589]","[-0.0701456218957901, 0.11045276373624802, 0.03999999910593033]","[0.0, 0.0, -0.20593848593871938]","[0.026750000193715096, 0.05299999937415123, 0.03999999910593033]","[0.0, 0.0, -0.6469017640113621]","[0.0701456293463707, 0.11045276373624802, 0.03999999910593033]","[0.0, -0.0, 0.2059377054983325]",0.6422115075290548,-1.1256402007747932,"(0.0, 0.0, 0.0, 0.0, 0.0, 0.0)",0.19691865600140895,-0.8575565627499749,-1.1319400542783593,"(0.0, 0.0, 0.0, 0.0, 0.0, 0.0)",0.027314243362735774,-0.6422115573865295,1.1256415303074527,"(0.0, 0.0, 0.0, 0.0, 0.0, 0.0)",-0.19691907187647334,0.8575559415385998,1.1319566208232932,"(0.0, 0.0, 0.0, 0.0, 0.0, 0.0)",-0.027314458975022625,False,,,,,False,,,,
59,Move,,,"(7.856146500561274e-08, 0.16999906237651882, 0.0009148896830877347)","(1.5708067003113224, 5.6229009009845055e-05, -1.399788300299107e-05)","[0.0, 0.0, 0.0]","[-0.026750000193715096, 0.05299999937415123, 0.03999999910593033]","[0.0, -0.0, 0.6422115222668433]","[-0.06987567991018295, 0.11065566539764404, 0.03999999910593033]","[0.0, 0.0, -0.21534502689171695]","[0.026750000193715096, 0.05299999937415123, 0.03999999910593033]","[0.0, 0.0, -0.6422115222668433]","[0.06987568736076355, 0.11065565794706345, 0.03999999910593033]","[0.0, -0.0, 0.2153443918565048]",0.6379903567761492,-1.0130761806973148,"(0.0, 0.0, 0.0, 0.0, 0.0, 0.0)",0.17724179525373857,-0.861801294967015,-1.0187357320896053,"(0.0, 0.0, 0.0, 0.0, 0.0, 0.0)",0.024593033118920006,-0.6379904016478766,1.0130773772767077,"(0.0, 0.0, 0.0, 0.0, 0.0, 0.0)",-0.1772421697155535,0.8618007358798453,1.0187506418989196,"(0.0, 0.0, 0.0, 0.0, 0.0, 0.0)",-0.024593227332916724,False,,,,,False,,,,
60,Move,,,"(7.401516452493873e-08, 0.16999906300717518, 0.0009208949427311885)","(1.5708059692049072, 5.171406878091127e-05, -1.3997173418156156e-05)","[-4.546300480674002e-09, 6.306563604674409e-10, 6.005259643453772e-06]","[-0.026750000193715096, 0.05299999937415123, 0.03999999910593033]","[0.0, -0.0, 0.6379903239810443]","[-0.06963192671537399, 0.1108371913433075, 0.03999999910593033]","[0.0, 0.0, -0.2238109552587812]","[0.026750000193715096, 0.05299999937415123, 0.03999999910593033]","[0.0, 0.0, -0.6379904179642307]","[0.06963192671537399, 0.1108371838927269, 0.03999999910593033]","[0.0, -0.0, 0.22381033482023305]",0.615110639462399,-5.491132155300077,"(0.0, 0.0, 0.0, 0.0, 0.0, 0.0)",-6.452665348763696,-0.8613763884842398,0.10197755586604229,"(0.0, 0.0, 0.0, 0.0, 0.0, 0.0)",-0.36782542138199165,-0.6151107211023208,5.491123330933392,"(0.0, 0.0, 0.0, 0.0, 0.0, 0.0)",6.4526488408560905,0.8613758231880564,-0.10197904602934349,"(0.0, 0.0, 0.0, 0.0, 0.0, 0.0)",0.36782252911949487,False,,,,,False,,,,
61,Move,,,"(6.525734425186348e-05, 0.17034549853437667, 0.001059997142676121)","(1.5643418998519334, 0.00019756355969089426, -0.0007979474479338168)","[6.517878278685787e-05, 0.00034643615785784343, 0.00014510745958838623]","[-0.026750000193715096, 0.05299999937415123, 0.03999999910593033]","[0.0, -0.0, 0.6151107619663475]","[-0.06829752027988434, 0.1118030920624733, 0.03999999910593033]","[0.0, 0.0, -0.24626574387408112]","[0.026750000193715096, 0.05299999937415123, 0.03999999910593033]","[0.0, 0.0, -0.6151107619663475]","[0.06829752773046494, 0.1118030920624733, 0.03999999910593033]","[0.0, -0.0, 0.24626510812228053]",0.59557520589455,-4.68850405628373,"(0.0, 0.0, 0.0, 0.0, 0.0, 0.0)",-45.004877301260535,-0.841587039207075,4.749443826519566,"(0.0, 0.0, 0.0, 0.0, 0.0, 0.0)",-23.059879711313982,-0.5955448471476087,4.6958097491309045,"(0.0, 0.0, 0.0, 0.0, 0.0, 0.0)",43.2331221848827,0.8422035798107438,-4.601338410555013,"(0.0, 0.0, 0.0, 0.0, 0.0, 0.0)",22.069611273367745,True,"(-0.03288698015965098, 0.18306432161630465, 0.039999948285931244)","(0.9999999985648672, -1.399717339714095e-05, -5.171406875791205e-05)",0.0009292587523792685,356.63318049990795,True,"(0.032887031061809374, 0.18306436848012048, 0.04000005171406876)","(-0.9999999985648671, 1.3997173395198976e-05, 5.171406875668148e-05)",0.0009247539911204204,342.7710504396539
62,Move,"(0.0, 0.0, 0.0)","(0.0, -0.0, 0.0)","(0.00016176697229314485, 0.17076934431250207, 0.001298992481510786)","(1.553459115144406, 0.0004787126916021603, -0.0016283617000435679)","[0.00016168841082813925, 0.0007702819359832469, 0.0003841027984230513]","[-0.026750000193715096, 0.05299999937415123, 0.03999999910593033]","[0.0, -0.0, 0.5955751094143519]","[-0.06714092195034027, 0.11260347068309784, 0.03999999910593033]","[0.0, 0.0, -0.24601185159459507]","[0.026750000193715096, 0.05299999937415123, 0.03999999910593033]","[0.0, 0.0, -0.5955448282145998]","[0.06713911145925522, 0.11260469257831573, 0.03999999910593033]","[0.0, -0.0, 0.24665872904210193]",0.5770970782178444,-4.434750642409365,"(0.0, 0.0, 0.0, 0.0, 0.0, 0.0)",-74.21698749878065,-0.811850997818181,7.136649933334551,"(0.0, 0.0, 0.0, 0.0, 0.0, 0.0)",-37.92588619525253,-0.5770027641966642,4.450099908226674,"(0.0, 0.0, 0.0, 0.0, 0.0, 0.0)",71.59541053355323,0.8135423707664626,-6.878690170627483,"(0.0, 0.0, 0.0, 0.0, 0.0, 0.0)",36.485404729774935,True,"(-0.03174847742362094, 0.1838726496858637, 0.03999980243644159)","(0.9999996621242782, -0.0007979473476813144, -0.0001975635584110712)",-0.00012778812911608492,569.3446982775357,True,"(0.031700570614753176, 0.18385320841010633, 0.0400001975635584)","(-0.9999996621242783, 0.0007979473476767542, 0.0001975635584049517)",-0.0003431682129125587,549.2893233704585
63,Move,"(0.0010126582278481, 0.0, -0.0010126582278481)","(0.0, -0.0, 0.0)","(0.00020568050408397375, 0.17108007690663649, 0.0015665957858292871)","(1.5453980212159237, 0.00011151380297923225, -0.0017071234802152205)","[0.00020560194261896815, 0.0010810145301176632, 0.0006517061027415524]","[-0.026750000193715096, 0.05299999937415123, 0.03999999910593033]","[0.0, -0.0, 0.5770971029289548]","[-0.06603273004293442, 0.11333960294723511, 0.03999999910593033]","[0.0, 0.0, -0.23475391897699402]","[0.026750000193715096, 0.05299999937415123, 0.03999999910593033]","[0.0, 0.0, -0.5770027543990871]","[0.06602703779935837, 0.11334330588579178, 0.03999999910593033]","[0.0, -0.0, 0.23653961426052006]",0.579404895675538,0.5538761898464655,"(0.0, 0.0, 0.0, 0.0, 0.0, 0.0)",6.4633983195225495,-0.8148246019570704,-0.7136649933334551,"(0.0, 0.0, 0.0, 0.0, 0.0, 0.0)",-0.3132438216507522,-0.5792909153140746,-0.5491562681785016,"(0.0, 0.0, 0.0, 0.0, 0.0, 0.0)",-6.16852739973914,0.8163981315451861,0.6853825868936365,"(0.0, 0.0, 0.0, 0.0, 0.0, 0.0)",0.4843271556067679,True,"(-0.03144479909141533, 0.18499061278782541, 0.039999521287326686)","(0.9999985596366134, -0.0016283607938474471, -0.0004787126733201028)",-0.00031179486038545077,0.0,True,"(0.0313112124765586, 0.1849374824167095, 0.040000478712673315)","(-0.9999985596366132, 0.0016283607938671909, 0.0004787126733090728)",-0.0008521962835819142,2.606367117194445
64,Move,"(0.0020253164556962, 0.0, -0.0020253164556962)","(0.0, -0.0, 0.0)","(0.0002344710238768461, 0.17132676719437942, 0.0017823633683165677)","(1.5389624683842962, -0.0004198405275600192, -0.0015430842619377047)","[0.0002343924624118405, 0.0013277048178605977, 0.000867473685228833]","[-0.026750000193715096, 0.05299999937415123, 0.03999999910593033]","[0.0, -0.0, 0.579404963823502]","[-0.06617187708616257, 0.1132487803697586, 0.03999999910593033]","[0.0, 0.0, -0.23541970778940716]","[0.026750000193715096, 0.05299999937415123, 0.03999999910593033]","[0.0, 0.0, -0.5792908612503161]","[0.0661650076508522, 0.11325327306985855, 0.03999999910593033]","[0.0, -0.0, 0.23710723316040327]",0.5793879503113624,-0.0040668874021525525,"(0.0, 0.0, 0.0, 0.0, 0.0, 0.0)",-0.7331029311894007,-0.8145272415431815,0.07136649933334471,"(0.0, 0.0, 0.0, 0.0, 0.0, 0.0)",0.024868476939627827,-0.5796483069793318,-0.0857739996617119,"(0.0, 0.0, 0.0, 0.0, 0.0, 0.0)",0.6898547258257519,0.8161108971617609,-0.06893625202207321,"(0.0, 0.0, 0.0, 0.0, 0.0, 0.0)",0.02249757530368231,True,"(-0.03153624923514486, 0.18487733778001617, 0.039999888486197246)","(0.9999985366474105, -0.001707122640433851, -0.00011151380275540046)",-0.00019027644015300206,0.0,True,"(0.031408552968427136, 0.18482838253269274, 0.04000011151380275)","(-0.9999985366474103, 0.0017071226404405677, 0.0001115138027507468)",-0.000784928296535469,0.7034625450922312
65,Move,"(0.0030379746835443, 0.0, -0.0030379746835443)","(0.0, -0.0, 0.0)","(0.0002726723987888602, 0.17145025671133776, 0.0019210606360389143)","(1.534938706110871, -0.00038394389304423555, -0.0008428917590020949)","[0.0002725938373238546, 0.0014511943348189393, 0.0010061709529511796]","[-0.026750000193715096, 0.05299999937415123, 0.03999999910593033]","[0.0, -0.0, 0.5793879274758782]","[-0.06617085635662079, 0.11324945092201233, 0.03999999910593033]","[0.0, 0.0, -0.2351392831456524]","[0.026750000193715096, 0.05299999937415123, 0.03999999910593033]","[0.0, 0.0, -0.579648285175309]","[0.06618653982877731, 0.11323918402194977, 0.03999999910593033]","[0.0, -0.0, 0.23646257710669713]",0.578974189562867,-0.0993025796389079,"(0.0, 0.0, 0.0, 0.0, 0.0, 0.0)",-1.3194110619968236,-0.8139925985503262,0.12831431828525575,"(0.0, 0.0, 0.0, 0.0, 0.0, 0.0)",-0.6977404613053788,-0.579993827608362,-0.08292495096727293,"(0.0, 0.0, 0.0, 0.0, 0.0, 0.0)",1.061017261592697,0.8155813658364884,-0.12708751806538848,"(0.0, 0.0, 0.0, 0.0, 0.0, 0.0)",0.6206609155748536,True,"(-0.03155531563328745, 0.18488759894857554, 0.040000419840515215)","(0.9999987213127883, -0.0015430835135626945, 0.00041984051521866406)",-0.00016537317342023059,9.040770495372003,True,"(0.0314762293732421, 0.1848358734694363, 0.039999580159484766)","(-0.9999987213127886, 0.001543083513576705, -0.0004198405152323266)",-0.0007230813310403472,8.110782437104552
66,Move,"(0.0040506329113924, 0.0, -0.0040506329113924)","(0.0, -0.0, 0.0)","(0.00032821510827244464, 0.17147803461976532, 0.001988268359061701)","(1.5332046714557777, -0.0003199563399374124, -0.0002878494914449628)","[0.00032813654680743904, 0.0014789722432465013, 0.0010733786759739663]","[-0.026750000193715096, 0.05299999937415123, 0.03999999910593033]","[0.0, -0.0, 0.578974268989193]","[-0.06614591926336288, 0.1132657527923584, 0.03999999910593033]","[0.0, 0.0, -0.2350184049266174]","[0.026750000193715096, 0.05299999937415123, 0.03999999910593033]","[0.0, 0.0, -0.579993879566885]","[0.06620734930038452, 0.113225556910038, 0.03999999910593033]","[0.0, -0.0, 0.23558757751147547]",0.5783577639301836,-0.1479421518440048,"(0.0, 0.0, 0.0, 0.0, 0.0, 0.0)",-1.489106249773296,-0.8134339974950228,0.1340642532728452,"(0.0, 0.0, 0.0, 0.0, 0.0, 0.0)",-0.8047819505670442,-0.5805142258580511,-0.12489557992537073,"(0.0, 0.0, 0.0, 0.0, 0.0, 0.0)",0.8203847532154527,0.8151522879400662,-0.10297869514134345,"(0.0, 0.0, 0.0, 0.0, 0.0, 0.0)",0.5074930018909756,True,"(-0.031539042764892875, 0.18490866778387224, 0.04000038394388361)","(0.9999995710603329, -0.0008428915970688521, 0.00038394388361399)",-0.0001515740120787311,10.780848267125911,True,"(0.031559702420761594, 0.18485101440374865, 0.039999616056116384)","(-0.9999995710603329, 0.0008428915970636519, -0.0003839438836216863)",-0.0006696579446592659,6.700499659247367
67,Move,"(0.0050632911392405, 0.0, -0.0050632911392405)","(0.0, -0.0, 0.0)","(0.00040846948282536753, 0.17149239600911131, 0.001997754502062687)","(1.533283937734313, -0.0002529837504863831, -3.5587567406449575e-06)","[0.00040839092136036193, 0.0014933336325924917, 0.0010828648189749523]","[-0.026750000193715096, 0.05299999937415123, 0.03999999910593033]","[0.0, -0.0, 0.5783577999877644]","[-0.06610876321792603, 0.11329002678394318, 0.03999999910593033]","[0.0, 0.0, -0.235076248562027]","[0.026750000193715096, 0.05299999937415123, 0.03999999910593033]","[0.0, 0.0, -0.5805142522428699]","[0.06623868644237518, 0.11320501565933228, 0.03999999910593033]","[0.0, -0.0, 0.23463806643810078]",0.57746578136209,-0.21407581634243544,"(0.0, 0.0, 0.0, 0.0, 0.0, 0.0)",-1.985885048678838,-0.8128155253071708,0.14843332508446808,"(0.0, 0.0, 0.0, 0.0, 0.0, 0.0)",-0.9776803697120013,-0.5811297890417738,-0.1477351640934338,"(0.0, 0.0, 0.0, 0.0, 0.0, 0.0)",0.9313034615867314,0.8146124999785014,-0.1295491107755565,"(0.0, 0.0, 0.0, 0.0, 0.0, 0.0)",0.5282936890959372,True,"(-0.03149774287608078, 0.1849315526078348, 0.04000031995633448)","(0.9999999073853083, -0.00028784947274435924, 0.0003199563344795703)",-0.00014233376061460642,14.273875352255114,True,"(0.03165905903530007, 0.18486183302182285, 0.03999968004366552)","(-0.9999999073853083, 0.0002878494727353225, -0.0003199563344810221)",-0.0006208486908118978,7.3476815135735665
68,Move,"(0.0060759493670886, 0.0, -0.0060759493670886)","(0.0, -0.0, 0.0)","(0.0005190861376591095, 0.17154688791478487, 0.001988013615629233)","(1.5339965572320025, -0.0002527003110305917, -0.00014044089217648368)","[0.0005190075761941039, 0.0015478255382660455, 0.0010731239325414985]","[-0.026750000193715096, 0.05299999937415123, 0.03999999910593033]","[0.0, -0.0, 0.5774657975403004]","[-0.06605497002601624, 0.11332511156797409, 0.03999999910593033]","[0.0, 0.0, -0.23534973851136284]","[0.026750000193715096, 0.05299999937415123, 0.03999999910593033]","[0.0, 0.0, -0.5811297952378849]","[0.06627573817968369, 0.11318069696426392, 0.03999999910593033]","[0.0, -0.0, 0.23348274008863407]",0.5762726821254668,-0.2863438167895749,"(0.0, 0.0, 0.0, 0.0, 0.0, 0.0)",-2.228501694284942,-0.8120708053342811,0.17873279349354002,"(0.0, 0.0, 0.0, 0.0, 0.0, 0.0)",-1.085430892243392,-0.581820029268954,-0.16565765452326292,"(0.0, 0.0, 0.0, 0.0, 0.0, 0.0)",1.4997086842865568,0.8138325954998051,-0.18717707488709542,"(0.0, 0.0, 0.0, 0.0, 0.0, 0.0)",0.7622581553743254,True,"(-0.03142435598881997, 0.18495772459945914, 0.0400002529837478)","(0.999999967993279, -3.558756619574479e-06, 0.00025298374778792574)",-0.00013674083066367467,16.039241458766416,True,"(0.0317789223302761, 0.1848759779729553, 0.0399997470162522)","(-0.9999999679932788, 3.5587566319684293e-06, -0.00025298374779283907)",-0.0005799810878167435,11.555316657395293
69,Move,"(0.0070886075949367, 0.0, -0.0070886075949367)","(0.0, -0.0, 0.0)","(0.0006523399867434407, 0.17162641531783193, 0.0019649861661762353)","(1.5353279131774211, -9.522622153411706e-05, -0.0004543755676646234)","[0.0006522614252784351, 0.0016273529413131094, 0.0010500964830885006]","[-0.026750000193715096, 0.05299999937415123, 0.03999999910593033]","[0.0, -0.0, 0.5762727522646213]","[-0.06598296761512756, 0.11337196081876755, 0.03999999910593033]","[0.0, 0.0, -0.23579813567908006]","[0.026750000193715096, 0.05299999937415123, 0.03999999910593033]","[0.0, 0.0, -0.5818201155728825]","[0.06631726771593094, 0.11315339803695679, 0.03999999910593033]","[0.0, -0.0, 0.23201257029130867]",0.574779592891142,-0.3583414162379369,"(0.0, 0.0, 0.0, 0.0, 0.0, 0.0)",-2.492942817153719,-0.8111765964817337,0.21461012461137058,"(0.0, 0.0, 0.0, 0.0, 0.0, 0.0)",-1.2728874952472122,-0.5825719956638248,-0.18047193476898687,"(0.0, 0.0, 0.0, 0.0, 0.0, 0.0)",2.0920069331650173,0.8128187709451887,-0.24331789310792895,"(0.0, 0.0, 0.0, 0.0, 0.0, 0.0)",1.1056940288562647,True,"(-0.03132023899772491, 0.1849893530319177, 0.04000025270030835)","(0.9999999582094546, -0.00014044088724436083, 0.00025270030835166166)",-0.00012839321678933185,18.09005379367516,True,"(0.03192589065514879, 0.1848979859386851, 0.039999747299691656)","(-0.9999999582094548, 0.00014044088723133086, -0.0002527003083481964)",-0.0005454654470280257,16.030033270842328
70,Move,"(0.00810126582278481, 0.0, -0.00810126582278481)","(0.0, -0.0, 0.0)","(0.0008039757794870764, 0.17173061765642722, 0.0019298495631083993)","(1.5371902092478753, 0.00022062835316259338, -0.0008413731704544727)","[0.0008038972180220708, 0.0017315552799083977, 0.0010149598800206646]","[-0.026750000193715096, 0.05299999937415123, 0.03999999910593033]","[0.0, -0.0, 0.5747796439703636]","[-0.0658927857875824, 0.11343047767877579, 0.03999999910593033]","[0.0, 0.0, -0.23639698484119764]","[0.026750000193715096, 0.05299999937415123, 0.03999999910593033]","[0.0, 0.0, -0.5825720369513215]","[0.06636249274015427, 0.11312362551689148, 0.03999999910593033]","[0.0, -0.0, 0.2302467934072782]",0.5729989756771391,-0.42734813136071037,"(0.0, 0.0, 0.0, 0.0, 0.0, 0.0)",-2.848645658432522,-0.8101196056940473,0.2536777890447384,"(0.0, 0.0, 0.0, 0.0, 0.0, 0.0)",-1.4755067498086856,-0.58338183048763,-0.19436035771327015,"(0.0, 0.0, 0.0, 0.0, 0.0, 0.0)",2.5779983855002393,0.8116238475289764,-0.2867816198909624,"(0.0, 0.0, 0.0, 0.0, 0.0, 0.0)",1.3761016773305326,True,"(-0.031187170342605375, 0.1850273773163555, 0.04000009522622139)","(0.9999998922374073, -0.00045437554995457214, 9.522622137838973e-05)",-0.00011802516077790185,20.822640392566218,True,"(0.032097850552783594, 0.1849273799263363, 0.03999990477377863)","(-0.9999998922374074, 0.000454375549969872, -9.522622137948884e-05)",-0.0005169137229195937,19.694496582755853
71,Move,"(0.00911392405063291, 0.0, -0.00911392405063291)","(0.0, -0.0, 0.0)","(0.0009715554079300975, 0.171862016292997, 0.0018911597226779614)","(1.5395770186225102, 0.0004295732352202218, -0.0012446954515745283)","[0.0009714768464650919, 0.0018629539164781717, 0.0009762700395902267]","[-0.026750000193715096, 0.05299999937415123, 0.03999999910593033]","[0.0, -0.0, 0.5729989724106085]","[-0.06578511744737625, 0.11350007355213165, 0.03999999910593033]","[0.0, 0.0, -0.23712061499171702]","[0.026750000193715096, 0.05299999937415123, 0.03999999910593033]","[0.0, 0.0, -0.5833818599406858]","[0.06641116738319397, 0.11309152841567993, 0.03999999910593033]","[0.0, -0.0, 0.22824201319786072]",0.5709472127879215,-0.49242309341221957,"(0.0, 0.0, 0.0, 0.0, 0.0, 0.0)",-3.2508504200209853,-0.8088403056960207,0.30703199952636434,"(0.0, 0.0, 0.0, 0.0, 0.0, 0.0)",-1.6935661972161011,-0.5842423215169155,-0.20651784702849202,"(0.0, 0.0, 0.0, 0.0, 0.0, 0.0)",3.0222701813424275,0.810427694384726,-0.28707675462011334,"(0.0, 0.0, 0.0, 0.0, 0.0, 0.0)",1.6169756292873008,True,"(-0.03102770416328507, 0.18507218378324874, 0.03999977937164862)","(0.9999996217071885, -0.0008413730506987286, -0.00022062835137854188)",-0.00010870674766045563,23.9146687535552,True,"(0.032290543039962274, 0.18496221086527243, 0.040000220628351374)","(-0.9999996217071885, 0.0008413730506919887, 0.00022062835137343087)",-0.0004929759485957463,22.99826296697951
72,Move,"(0.010126582278481011, 0.0, -0.010126582278481011)","(0.0, -0.0, 0.0)","(0.0011662023217002774, 0.17202297820329723, 0.001852404287683422)","(1.5424618279136588, 0.00044231335921787924, -0.0016156098818382466)","[0.0011661237602352717, 0.0020239158267784108, 0.0009375146045956873]","[-0.026750000193715096, 0.05299999937415123, 0.03999999910593033]","[0.0, -0.0, 0.5709471851397324]","[-0.06566090881824493, 0.11358004063367844, 0.03999999910593033]","[0.0, 0.0, -0.2378931256742615]","[0.026750000193715096, 0.05299999937415123, 0.03999999910593033]","[0.0, 0.0, -0.5842423338954696]","[0.06646285951137543, 0.11305737495422363, 0.03999999910593033]","[0.0, -0.0, 0.22618536962769725]",0.5686207455531961,-0.5583521363341097,"(0.0, 0.0, 0.0, 0.0, 0.0, 0.0)",-3.7165115093136034,-0.807313611166845,0.3664066870021796,"(0.0, 0.0, 0.0, 0.0, 0.0, 0.0)",-1.94771948554301,-0.5851484758087762,-0.21747703004656813,"(0.0, 0.0, 0.0, 0.0, 0.0, 0.0)",3.402995285333762,0.8091260071620264,-0.3124049334478965,"(0.0, 0.0, 0.0, 0.0, 0.0, 0.0)",1.8143072897643968,True,"(-0.03084821339300023, 0.1851256461700427, 0.039999570426778)","(0.999999133100207, -0.001244695015328183, -0.0004295732220028236)",-0.00010737844563642993,27.42826025158698,True,"(0.03249011769342428, 0.18499642916256276, 0.040000429573222)","(-0.999999133100207, 0.0012446950153358804, 0.00042957322200522604)",-0.000474183286787929,25.87390875302888
73,Move,"(0.01113924050632911, 0.0, -0.01113924050632911)","(0.0, -0.0, 0.0)","(0.0013911953173962573, 0.1722102064764612, 0.0018075745868837718)","(1.5458557785872205, 0.0004452990335552149, -0.0019170595535032884)","[0.0013911167559312516, 0.002211144099942386, 0.0008926849037960371]","[-0.026750000193715096, 0.05299999937415123, 0.03999999910593033]","[0.0, -0.0, 0.5686207378685322]","[-0.06551986187696457, 0.11367040127515793, 0.03999999910593033]","[0.0, 0.0, -0.2386928728025839]","[0.026750000193715096, 0.05299999937415123, 0.03999999910593033]","[0.0, 0.0, -0.5851485495689135]","[0.06651727110147476, 0.1130213662981987, 0.03999999910593033]","[0.0, -0.0, 0.22397754838065104]",0.5660193984411794,-0.6243233068839992,"(0.0, 0.0, 0.0, 0.0, 0.0, 0.0)",-4.1682919187865135,-0.8056714846908786,0.3941103542319254,"(0.0, 0.0, 0.0, 0.0, 0.0, 0.0)",-2.198225627929706,-0.5861023193312966,-0.2289224454049205,"(0.0, 0.0, 0.0, 0.0, 0.0, 0.0)",3.820604435693855,0.8075470553017777,-0.37894844645967946,"(0.0, 0.0, 0.0, 0.0, 0.0, 0.0)",2.042603350968432,True,"(-0.030649960877181956, 0.18518857083242582, 0.03999955768665521)","(0.9999985970822142, -0.0016156090209537444, -0.0004423133447871018)",-0.00010573718012762436,30.811658405769297,True,"(0.03270343068010251, 0.1850334126489436, 0.040000442313344806)","(-0.999998597082214, 0.0016156090209445669, 0.00044231334480152154)",-0.00046070823607059265,29.068458508981703
74,Move,"(0.012151898734177212, 0.0, -0.012151898734177212)","(0.0, -0.0, 0.0)","(0.001639359511825394, 0.1724229504212763, 0.001756571977369861)","(1.5497605664874405, 0.000446589690600659, -0.0022242977584056457)","[0.0016392809503603884, 0.0024238880447574884, 0.0008416822942821263]","[-0.026750000193715096, 0.05299999937415123, 0.03999999910593033]","[0.0, -0.0, 0.5660194143489873]","[-0.06536190956830978, 0.11377105116844177, 0.03999999910593033]","[0.0, 0.0, -0.2396520716976892]","[0.026750000193715096, 0.05299999937415123, 0.03999999910593033]","[0.0, 0.0, -0.5861023337154947]","[0.06657449901103973, 0.11298340559005737, 0.03999999910593033]","[0.0, -0.0, 0.22144475901510954]",0.5631526712040056,-0.6880145369217134,"(0.0, 0.0, 0.0, 0.0, 0.0, 0.0)",-4.575481437892678,-0.8038696651892837,0.43243668038276706,"(0.0, 0.0, 0.0, 0.0, 0.0, 0.0)",-2.4135660089470736,-0.587100305799693,-0.23951675241510895,"(0.0, 0.0, 0.0, 0.0, 0.0, 0.0)",4.28815735029137,0.8057779801702181,-0.4245780315743193,"(0.0, 0.0, 0.0, 0.0, 0.0, 0.0)",2.305269328220197,True,"(-0.030423417976332218, 0.18525639625646806, 0.03999955470098116)","(0.9999980632964661, -0.001917058189202667, -0.0004452990188344595)",-0.00010343035429838099,33.90592995347732,True,"(0.03294315684875719, 0.18507863472326447, 0.04000044529901883)","(-0.9999980632964661, 0.001917058189199913, 0.0004452990188335856)",-0.00044977553782266116,32.576073710946815
75,Move,"(0.01316455696202531, 0.0, -0.01316455696202531)","(0.0, -0.0, 0.0)","(0.001909034431202425, 0.1726609403118403, 0.0016996707525263146)","(1.5541703665902105, 0.00044714791621495016, -0.0025460370741641944)","[0.0019089558697374194, 0.002661877935321466, 0.0007847810694385799]","[-0.026750000193715096, 0.05299999937415123, 0.03999999910593033]","[0.0, -0.0, 0.5631526469088365]","[-0.06518753618001938, 0.11388149112462997, 0.03999999910593033]","[0.0, 0.0, -0.24071699067501875]","[0.026750000193715096, 0.05299999937415123, 0.03999999910593033]","[0.0, 0.0, -0.5871002616230625]","[0.06663434207439423, 0.112943634390831, 0.03999999910593033]","[0.0, -0.0, 0.21867769983966337]",0.5600286998477757,-0.7497531254951696,"(0.0, 0.0, 0.0, 0.0, 0.0, 0.0)",-5.00187176675244,-0.8018989324918322,0.472975847388376,"(0.0, 0.0, 0.0, 0.0, 0.0, 0.0)",-2.642498369624719,-0.5881358060400078,-0.24852005767555846,"(0.0, 0.0, 0.0, 0.0, 0.0, 0.0)",4.731580468853373,0.8038271232079419,-0.4682056709462786,"(0.0, 0.0, 0.0, 0.0, 0.0, 0.0)",2.549122462208273,True,"(-0.03017293808730033, 0.18533034707502366, 0.03999955341032425)","(0.9999974265298334, -0.0022242957024706505, -0.0004465896757514841)",-0.00010199467006866993,37.13309314162359,True,"(0.033202611571373226, 0.18512918461624805, 0.040000446589675755)","(-0.9999974265298333, 0.0022242957024834215, 0.00044658967575798267)",-0.00044217009799780207,35.89906037338904
76,Move,"(0.01417721518987341, 0.0, -0.01417721518987341)","(0.0, -0.0, 0.0)","(0.0021994519758958106, 0.17292387294352646, 0.001637200830841908)","(1.5590786458377976, 0.0004470660444634291, -0.002882887594672644)","[0.002199373414430805, 0.002924810567007635, 0.0007223111477541733]","[-0.026750000193715096, 0.05299999937415123, 0.03999999910593033]","[0.0, -0.0, 0.5600287292520689]","[-0.06499715894460678, 0.11400126665830612, 0.03999999910593033]","[0.0, 0.0, -0.24187025441640403]","[0.026750000193715096, 0.05299999937415123, 0.03999999910593033]","[0.0, 0.0, -0.5881357564981218]","[0.06669639050960541, 0.11290229856967926, 0.03999999910593033]","[0.0, -0.0, 0.21569133618411138]",0.5566534982089484,-0.8100483933185543,"(0.0, 0.0, 0.0, 0.0, 0.0, 0.0)",-5.434197759491135,-0.7997574101690283,0.5139653574729315,"(0.0, 0.0, 0.0, 0.0, 0.0, 0.0)",-2.874360857667685,-0.5892046539071104,-0.2565234881046266,"(0.0, 0.0, 0.0, 0.0, 0.0, 0.0)",5.172143240336389,0.8016953830297525,-0.5116176427654657,"(0.0, 0.0, 0.0, 0.0, 0.0, 0.0)",2.7916329266471798,True,"(-0.02990018206217497, 0.18541053136930644, 0.039999552852098684)","(0.9999966588790555, -0.0025460340689351653, -0.0004471479013184376)",-0.00010130236874408874,40.393064464005775,True,"(0.03348037208819904, 0.18518470469971446, 0.04000044714790132)","(-0.9999966588790554, 0.0025460340689410824, 0.0004471479013198881)",-0.0004377790580284407,39.20347011827797
77,Move,"(0.01518987341772152, 0.0, -0.01518987341772152)","(0.0, -0.0, 0.0)","(0.002509926419908626, 0.17321141216086508, 0.0015695294056962926)","(1.5644780926082573, 0.00044633800722006597, -0.003234722423132014)","[0.0025098478584436204, 0.003212349784346258, 0.0006546397226085579]","[-0.026750000193715096, 0.05299999937415123, 0.03999999910593033]","[0.0, -0.0, 0.5566534444304999]","[-0.06479104608297348, 0.11413001269102097, 0.03999999910593033]","[0.0, 0.0, -0.24310390872138662]","[0.026750000193715096, 0.05299999937415123, 0.03999999910593033]","[0.0, 0.0, -0.5892046509133986]","[0.06676039844751358, 0.1128595694899559, 0.03999999910593033]","[0.0, -0.0, 0.2124907455286537]",0.5530329068815855,-0.8689419185670924,"(0.0, 0.0, 0.0, 0.0, 0.0, 0.0)",-5.868289977295371,-0.7974439256839108,0.555236276428209,"(0.0, 0.0, 0.0, 0.0, 0.0, 0.0)",-3.1065553735887623,-0.5903028465372295,-0.26356623122859385,"(0.0, 0.0, 0.0, 0.0, 0.0, 0.0)",5.613534217998521,0.7993830618302823,-0.5549570878728574,"(0.0, 0.0, 0.0, 0.0, 0.0, 0.0)",3.035075204438991,True,"(-0.029606000624736534, 0.18549681961016268, 0.03999955293397043)","(0.9999957445488292, -0.002882883313273366, -0.00044706602956999975)",-0.00010128509211524661,43.65991396616229,True,"(0.033775879279338915, 0.18524505056165821, 0.04000044706602957)","(-0.9999957445488291, 0.0028828833132864985, 0.0004470660295706674)",-0.00043637767881328233,42.51001845548259
78,Move,"(0.01620253164556962, 0.0, -0.01620253164556962)","(0.0, -0.0, 0.0)","(0.002839838589132197, 0.17352318834187272, 0.0014970579004269222)","(1.5703606153053742, 0.0004449094005467258, -0.003600793853473987)","[0.0028397600276671912, 0.003524125965353897, 0.0005821682173391875]","[-0.026750000193715096, 0.05299999937415123, 0.03999999910593033]","[0.0, -0.0, 0.5530329407436573]","[-0.06456947326660156, 0.11426734179258347, 0.03999999910593033]","[0.0, 0.0, -0.24441101813185792]","[0.026750000193715096, 0.05299999937415123, 0.03999999910593033]","[0.0, 0.0, -0.5903028914676647]","[0.06682611256837845, 0.11281559616327286, 0.03999999910593033]","[0.0, -0.0, 0.20908024030481898]",0.5491726569682854,-0.926459979192015,"(0.0, 0.0, 0.0, 0.0, 0.0, 0.0)",-6.3038452884614475,-0.7949579255043198,0.5966400431018497,"(0.0, 0.0, 0.0, 0.0, 0.0, 0.0)",-3.3388763803126773,-0.5914264356598006,-0.26966138941705947,"(0.0, 0.0, 0.0, 0.0, 0.0, 0.0)",6.055620034578152,0.79688994858761,-0.5983471782413681,"(0.0, 0.0, 0.0, 0.0, 0.0, 0.0)",3.2793897902369236,True,"(-0.0292911674722362, 0.18558905342720933, 0.039999553662007595)","(0.999994668681699, -0.0032347164598772386, -0.0004463379924000853)",-0.00010188389857662926,46.931083319607275,True,"(0.03408864094125867, 0.18531008966553175, 0.04000044633799241)","(-0.9999946686816991, 0.003234716459875265, 0.00044633799240564696)",-0.0004377419931861899,45.81705455046958
79,Move,"(0.01721518987341772, 0.0, -0.01721518987341772)","(0.0, -0.0, 0.0)","(0.003188603638100943, 0.17385879765700754, 0.0014202191433391497)","(1.5767173495401956, 0.0004427057836296255, -0.003980199767601294)","[0.0031885250766359374, 0.0038597352804887186, 0.000505329460251415]","[-0.026750000193715096, 0.05299999937415123, 0.03999999910593033]","[0.0, -0.0, 0.5491726744865307]","[-0.06433268636465073, 0.11441288143396378, 0.03999999910593033]","[0.0, 0.0, -0.2457852694389573]","[0.026750000193715096, 0.05299999937415123, 0.03999999910593033]","[0.0, 0.0, -0.5914264495879912]","[0.06689329445362091, 0.11277052760124207, 0.03999999910593033]","[0.0, -0.0, 0.20546352056047204]",0.5450783534798227,-0.9826328372310458,"(0.0, 0.0, 0.0, 0.0, 0.0, 0.0)",-6.740613243642387,-0.7922990792096838,0.6381231107126242,"(0.0, 0.0, 0.0, 0.0, 0.0, 0.0)",-3.571117788226106,-0.5925715475768215,-0.27482686008502266,"(0.0, 0.0, 0.0, 0.0, 0.0, 0.0)",6.498386430501664,0.7942157480116655,-0.6418081382266645,"(0.0, 0.0, 0.0, 0.0, 0.0, 0.0)",3.524621826503421,True,"(-0.028956394379318948, 0.1856870488274398, 0.03999955509061414)","(0.9999934181772727, -0.003600785715956254, -0.0004449093858650222)",-0.0001030459200318099,50.204278221016786,True,"(0.034418211344221766, 0.18537969954360012, 0.040000444909385875)","(-0.9999934181772728, 0.003600785715954903, 0.0004449093858731612)",-0.0004416575513869807,49.124134871698885
80,Move,"(0.01822784810126582, 0.0, -0.01822784810126582)","(0.0, -0.0, 0.0)","(0.003555393158087862, 0.1741637658784755, 0.0013559281298249628)","(1.5821412035235318, 0.000440841858912713, -0.004383299120114045)","[0.003555314596622856, 0.00416470350195669, 0.0004410384467372281]","[-0.026750000193715096, 0.05299999937415123, 0.03999999910593033]","[0.0, -0.0, 0.5450782927107248]","[-0.06408092379570007, 0.11456623673439026, 0.03999999910593033]","[0.0, 0.0, -0.24722073378244425]","[0.026750000193715096, 0.05299999937415123, 0.03999999910593033]","[0.0, 0.0, -0.5925715449625035]","[0.06696171313524246, 0.11272452026605606, 0.03999999910593033]","[0.0, -0.0, 0.2016442028527334]",0.5407554961271681,-1.0374857646371118,"(0.0, 0.0, 0.0, 0.0, 0.0, 0.0)",-7.30569565575318,-0.7894660587608974,0.6799249077087297,"(0.0, 0.0, 0.0, 0.0, 0.0, 0.0)",-3.9799515034675705,-0.5937332502337682,-0.2788086376672148,"(0.0, 0.0, 0.0, 0.0, 0.0, 0.0)",6.801408831496057,0.7913495058859694,-0.6878981101670708,"(0.0, 0.0, 0.0, 0.0, 0.0, 0.0)",3.630485952328898,True,"(-0.02860235780910393, 0.18579061004696962, 0.03999955729423084)","(0.9999919810219345, -0.0039801888685168756, -0.0004427057691632955)",-0.00010472251017246445,54.490334412820346,True,"(0.034764162645904116, 0.18545375455834845, 0.04000044270576917)","(-0.9999919810219344, 0.003980188868531101, 0.0004427057691684352)",-0.0004479231906293841,51.27104236482493
81,Move,"(0.01924050632911392, 0.0, -0.01924050632911392)","(0.0, -0.0, 0.0)","(0.0039211109726845165, 0.174266750015895, 0.0013590338099913188)","(1.582619716168092, 0.00017261289853200324, -0.0057775188639993804)","[0.003921032411219511, 0.004267687639376183, 0.00044414412690358404]","[-0.026750000193715096, 0.05299999937415123, 0.03999999910593033]","[0.0, -0.0, 0.5407555118381863]","[-0.0638144388794899, 0.11472704261541367, 0.03999999910593033]","[0.0, 0.0, -0.24871056575115708]","[0.026750000193715096, 0.05299999937415123, 0.03999999910593033]","[0.0, 0.0, -0.59373329137683]","[0.06703106313943863, 0.11267776787281036, 0.03999999910593033]","[0.0, -0.0, 0.1976162840502634]",0.5362051022751171,-1.0920945244922533,"(0.0, 0.0, 0.0, 0.0, 0.0, 0.0)",-8.316005821458852,-0.7861156262520751,0.8041038021173594,"(0.0, 0.0, 0.0, 0.0, 0.0, 0.0)",-4.933025007389159,-0.5949095273900357,-0.28230651750418234,"(0.0, 0.0, 0.0, 0.0, 0.0, 0.0)",6.515951523170274,0.7886103514193129,-0.6573970719975528,"(0.0, 0.0, 0.0, 0.0, 0.0, 0.0)",3.389592338656845,True,"(-0.02822978912552515, 0.18589956098594992, 0.03999955915815537)","(0.9999902961899558, -0.004383284657918764, -0.00044084184463448033)",-0.00010664828230991896,62.29408092449577,True,"(0.03512670491065674, 0.18553247504792886, 0.040000440841844634)","(-0.9999902961899559, 0.004383284657916292, 0.00044084184463456675)",-0.00045586220497572554,48.857681423772085
82,Move,"(0.020253164556962022, 0.0, -0.020253164556962022)","(0.0, -0.0, 0.0)","(0.004323374153247683, 0.17436992157002024, 0.001359070383527328)","(1.5825707988551427, 0.00017736525309293902, -0.006173500964127455)","[0.004323295591782678, 0.004370859193501414, 0.00044418070043959323]","[-0.026750000193715096, 0.05299999937415123, 0.03999999910593033]","[0.0, -0.0, 0.5362051358260762]","[-0.06353317201137543, 0.1148950606584549, 0.03999999910593033]","[0.0, 0.0, -0.2499105311768847]","[0.026750000193715096, 0.05299999937415123, 0.03999999910593033]","[0.0, 0.0, -0.5949094978792955]","[0.06710123270750046, 0.11263034492731094, 0.03999999910593033]","[0.0, -0.0, 0.19370085825356434]",0.5314418446585581,-1.1431818279741364,"(0.0, 0.0, 0.0, 0.0, 0.0, 0.0)",-8.247689512595148,-0.7829755095853308,0.7536280000186207,"(0.0, 0.0, 0.0, 0.0, 0.0, 0.0)",-4.476486283727334,-0.5960953880950338,-0.28460656919957017,"(0.0, 0.0, 0.0, 0.0, 0.0, 0.0)",7.624605727898422,0.7853452889208795,-0.7836149996240233,"(0.0, 0.0, 0.0, 0.0, 0.0, 0.0)",4.075803248223784,True,"(-0.02786314640747243, 0.18602463343873898, 0.039999827387102324)","(0.9999832952869555, -0.0057774866359868015, -0.00017261289767901412)",-0.00010167184183197682,61.43042499761442,True,"(0.03548235825322138, 0.18560689149924342, 0.04000017261289768)","(-0.9999832952869555, 0.0057774866359853695, 0.00017261289767927138)",-0.0004714666046315178,57.437172606340376
83,Move,"(0.021265822784810123, 0.0, -0.021265822784810123)","(0.0, -0.0, 0.0)","(0.0047407612643690835, 0.1744778377659809, 0.0013590737610477061)","(1.582523269210788, 0.0001820900298404141, -0.006611813187279917)","[0.004740682702904078, 0.004478775389462064, 0.0004441840779599714]","[-0.026750000193715096, 0.05299999937415123, 0.03999999910593033]","[0.0, -0.0, 0.531441787985149]","[-0.06323793530464172, 0.11506956070661545, 0.03999999910593033]","[0.0, 0.0, -0.2515336608511289]","[0.026750000193715096, 0.05299999937415123, 0.03999999910593033]","[0.0, 0.0, -0.5960954017368669]","[0.06717192381620407, 0.11258245259523392, 0.03999999910593033]","[0.0, -0.0, 0.18924992875976016]",0.5264531670426205,-1.197282627825033,"(0.0, 0.0, 0.0, 0.0, 0.0, 0.0)",-8.563419392239078,-0.7796273782965982,0.803551509295824,"(0.0, 0.0, 0.0, 0.0, 0.0, 0.0)",-4.573554687970184,-0.5972967065769085,-0.2883164356499266,"(0.0, 0.0, 0.0, 0.0, 0.0, 0.0)",8.208294946334519,0.7819268267306827,-0.8204309256472239,"(0.0, 0.0, 0.0, 0.0, 0.0, 0.0)",4.462491788701588,True,"(-0.02745249351846403, 0.18614237432123454, 0.03999982263474784)","(0.9999809282745284, -0.006173461652899317, -0.00017736525215984787)",-0.0001052072253068931,63.77111365572635,True,"(0.0358781350286131, 0.18569495370821074, 0.04000017736525217)","(-0.9999809282745283, 0.006173461652897913, 0.00017736525216884824)",-0.00048260835845878434,61.825122458263216
84,Move,"(0.02227848101265822, 0.0, -0.02227848101265822)","(0.0, -0.0, 0.0)","(0.005174080504652614, 0.1745902071207628, 0.0013589564173727483)","(1.5824838337145162, 0.00018709816510376556, -0.007055206252637227)","[0.005174001943187609, 0.004591144744243991, 0.00044406673428501356]","[-0.026750000193715096, 0.05299999937415123, 0.03999999910593033]","[0.0, -0.0, 0.5264531722167594]","[-0.06292783468961716, 0.11525081843137741, 0.03999999910593033]","[0.0, 0.0, -0.2531741953279298]","[0.026750000193715096, 0.05299999937415123, 0.03999999910593033]","[0.0, 0.0, -0.5972967481565623]","[0.06724347174167633, 0.11253384500741959, 0.03999999910593033]","[0.0, -0.0, 0.18463013493325167]",0.5212601769585572,-1.2463176201751855,"(0.0, 0.0, 0.0, 0.0, 0.0, 0.0)",-8.99763894922038,-0.7761132666147559,0.843386803642174,"(0.0, 0.0, 0.0, 0.0, 0.0, 0.0)",-4.804328910254267,-0.5985011332474834,-0.2890624009380044,"(0.0, 0.0, 0.0, 0.0, 0.0, 0.0)",8.64401368492262,0.778325094623822,-0.864415705646566,"(0.0, 0.0, 0.0, 0.0, 0.0, 0.0)",4.703236252020795,True,"(-0.027025837024385588, 0.18626602665861425, 0.03999981790997117)","(0.99997812546479, -0.006611764904016906, -0.00018209002883406907)",-0.00010911895178034212,67.01503872237933,True,"(0.036287743425289086, 0.1857859595341667, 0.040000182090028834)","(-0.9999781254647899, 0.006611764904021783, 0.0001820900288306728)",-0.0004955099065999225,65.02738795622882
85,Move,"(0.023291139240506332, 0.0, -0.023291139240506332)","(0.0, -0.0, 0.0)","(0.005622732885559255, 0.17470728078683476, 0.0013585843134270071)","(1.582464171337859, 0.00019236930810774387, -0.007506077484047337)","[0.00562265432409425, 0.004708218410315934, 0.00044369463033927243]","[-0.026750000193715096, 0.05299999937415123, 0.03999999910593033]","[0.0, -0.0, 0.5212602600368598]","[-0.06260408461093903, 0.11543785035610199, 0.03999999910593033]","[0.0, 0.0, -0.25485308791936245]","[0.026750000193715096, 0.05299999937415123, 0.03999999910593033]","[0.0, 0.0, -0.5985010570207208]","[0.06731514632701874, 0.11248503625392914, 0.03999999910593033]","[0.0, -0.0, 0.17982396379963522]",0.5158668124751362,-1.2944074760210358,"(0.0, 0.0, 0.0, 0.0, 0.0, 0.0)",-9.428119912125254,-0.772430692346741,0.8838178243235653,"(0.0, 0.0, 0.0, 0.0, 0.0, 0.0)",-5.026287251856799,-0.5997067701305219,-0.28935285192923005,"(0.0, 0.0, 0.0, 0.0, 0.0, 0.0)",9.081087609528522,0.774543451635152,-0.9075943172807948,"(0.0, 0.0, 0.0, 0.0, 0.0, 0.0)",4.949056307015793,True,"(-0.02658289806890487, 0.18639391789760237, 0.03999981290183599)","(0.9999750946331752, -0.007055147599386494, -0.00018709816400670038)",-0.00011330497936879717,70.1849938872069,True,"(0.036711795346518875, 0.18588071390367378, 0.04000018709816401)","(-0.9999750946331752, 0.007055147599384319, 0.00018709816400676614)",-0.0005099557004122991,68.25675185862838
86,Move,"(0.02430379746835443, 0.0, -0.02430379746835443)","(0.0, -0.0, 0.0)","(0.0060862467068386545, 0.17482802335190267, 0.0013581957342548771)","(1.5824436391420187, 0.00019793395228917004, -0.007963344389388708)","[0.006086168145373649, 0.00482896097538385, 0.00044330605116714244]","[-0.026750000193715096, 0.05299999937415123, 0.03999999910593033]","[0.0, -0.0, 0.515866831176761]","[-0.06226681172847748, 0.11563031375408173, 0.03999999910593033]","[0.0, 0.0, -0.2565638789944658]","[0.026750000193715096, 0.05299999937415123, 0.03999999910593033]","[0.0, 0.0, -0.5997067425277892]","[0.06738682836294174, 0.11243608593940735, 0.03999999910593033]","[0.0, -0.0, 0.17483666277163612]",0.5102785242541217,-1.3411891730434848,"(0.0, 0.0, 0.0, 0.0, 0.0, 0.0)",-9.861375037154843,-0.7685813003576881,0.9238540773727028,"(0.0, 0.0, 0.0, 0.0, 0.0, 0.0)",-5.252388107250845,-0.6009106611539562,-0.28893384562424096,"(0.0, 0.0, 0.0, 0.0, 0.0, 0.0)",9.510425842381494,0.770582057652116,-0.9507345559286606,"(0.0, 0.0, 0.0, 0.0, 0.0, 0.0)",5.189718382045624,True,"(-0.026124279735128354, 0.1865259143645746, 0.03999980763069309)","(0.9999718110302113, -0.00750600686178955, -0.00019236930690891255)",-0.00011773735359314336,73.37051049052988,True,"(0.03714986274104151, 0.1859789417095, 0.040000192369306915)","(-0.9999718110302114, 0.007506006861787131, 0.00019236930691878028)",-0.0005257966741989381,71.41611119549304
87,Move,"(0.025316455696202528, 0.0, -0.025316455696202528)","(0.0, -0.0, 0.0)","(0.00656415459871019, 0.17495220946055934, 0.0013577906927202286)","(1.5824223193173887, 0.00020377933190526506, -0.008425407517174618)","[0.006564076037245185, 0.004953147084040516, 0.0004429010096324939]","[-0.026750000193715096, 0.05299999937415123, 0.03999999910593033]","[0.0, -0.0, 0.5102785378245213]","[-0.06191626191139221, 0.11582781374454498, 0.03999999910593033]","[0.0, 0.0, -0.25830276943688923]","[0.026750000193715096, 0.05299999937415123, 0.03999999910593033]","[0.0, 0.0, -0.6009106979742925]","[0.06745835393667221, 0.11238712072372437, 0.03999999910593033]","[0.0, -0.0, 0.1696713924413912]",0.5045008366098542,-1.3866450346241812,"(0.0, 0.0, 0.0, 0.0, 0.0, 0.0)",-10.289156925491836,-0.7645669544605179,0.9634430153208493,"(0.0, 0.0, 0.0, 0.0, 0.0, 0.0)",-5.4726518035734575,-0.6021099601747791,-0.28783176499750224,"(0.0, 0.0, 0.0, 0.0, 0.0, 0.0)",9.940309941090371,0.7664415678809612,-0.9937175450771563,"(0.0, 0.0, 0.0, 0.0, 0.0, 0.0)",5.4320325567632635,True,"(-0.025650494325808, 0.1866617398878918, 0.03999980206604901)","(0.9999682731523242, -0.007963260067942981, -0.00019793395099553752)",-0.0001223816147220869,76.50580757041259,True,"(0.03760161076972062, 0.18608046937030062, 0.040000197933951)","(-0.9999682731523242, 0.007963260067941435, 0.0001979339509990358)",-0.0005428897272687034,74.57381296112852
88,Move,"(0.02632911392405063, 0.0, -0.02632911392405063)","(0.0, -0.0, 0.0)","(0.00705599291215067, 0.17507959970800444, 0.0013573697437367263)","(1.582400218432754, 0.00020990117220013292, -0.008891022851535781)","[0.0070559143506856645, 0.005080537331485613, 0.00044248006064899156]","[-0.026750000193715096, 0.05299999937415123, 0.03999999910593033]","[0.0, -0.0, 0.5045008770202601]","[-0.06155267730355263, 0.11602994054555893, 0.03999999910593033]","[0.0, 0.0, -0.26006612419393593]","[0.026750000193715096, 0.05299999937415123, 0.03999999910593033]","[0.0, 0.0, -0.6021099438917201]","[0.06752955168485641, 0.11233825236558914, 0.03999999910593033]","[0.0, -0.0, 0.16433162500063314]",0.49853923442908704,-1.430784523384123,"(0.0, 0.0, 0.0, 0.0, 0.0, 0.0)",-10.713858211740169,-0.7603895403352365,1.0025793900675244,"(0.0, 0.0, 0.0, 0.0, 0.0, 0.0)",-5.69033077828997,-0.6033019151417138,-0.28606919206432374,"(0.0, 0.0, 0.0, 0.0, 0.0, 0.0)",10.366756170457606,0.7621227395134358,-1.0365188082060839,"(0.0, 0.0, 0.0, 0.0, 0.0, 0.0)",5.673060348658541,True,"(-0.025162050133580777, 0.1868011119812621, 0.03999979622066952)","(0.9999644857017809, -0.008425307659509315, -0.0002037793304820508)",-0.00012721609920618828,79.60882497443696,True,"(0.03806668211970561, 0.18618510508735547, 0.040000203779330494)","(-0.999964485701781, 0.008425307659503124, 0.0002037793304938361)",-0.0005611055845727304,77.69844916964176
89,Move,"(0.02734177215189873, 0.0, -0.02734177215189873)","(0.0, -0.0, 0.0)","(0.007561299561741414, 0.17520995160396025, 0.0013569334039639739)","(1.582377339024099, 0.00021629883933067278, -0.00935904711159741)","[0.007561221000276409, 0.005210889227441423, 0.00044204372087623916]","[-0.026750000193715096, 0.05299999937415123, 0.03999999910593033]","[0.0, -0.0, 0.498539304814336]","[-0.06117630377411842, 0.11623629927635193, 0.03999999910593033]","[0.0, 0.0, -0.2618503073405804]","[0.026750000193715096, 0.05299999937415123, 0.03999999910593033]","[0.0, 0.0, -0.603301877837886]","[0.06760025024414062, 0.11228960007429123, 0.03999999910593033]","[0.0, -0.0, 0.15882082914638634]",0.4923991751147312,-1.473614235445407,"(0.0, 0.0, 0.0, 0.0, 0.0, 0.0)",-11.135262146628483,-0.7560509874311685,1.0412526969763243,"(0.0, 0.0, 0.0, 0.0, 0.0, 0.0)",-5.905299778604438,-0.6044838348262889,-0.2836607242980217,"(0.0, 0.0, 0.0, 0.0, 0.0, 0.0)",10.789635081802563,0.7576264907477361,-1.0790997037679224,"(0.0, 0.0, 0.0, 0.0, 0.0, 0.0)",5.912712354681493,True,"(-0.02465945078591103, 0.1869437485911591, 0.03999979009882935)","(0.9999604530883186, -0.008890905516477723, -0.00020990117064963355)",-0.00013221562254665123,82.67794090270387,True,"(0.038544723393477365, 0.18629265207033224, 0.04000020990117066)","(-0.9999604530883185, 0.008890905516491453, 0.00020990117066042359)",-0.0005803193559888977,80.78887652371989
90,Move,"(0.02835443037974683, 0.0, -0.02835443037974683)","(0.0, -0.0, 0.0)","(0.008079620633842922, 0.17534301820222656, 0.0013564820517936362)","(1.5823537007204647, 0.00022297038887140523, -0.009828364660743667)","[0.008079542072377916, 0.005343955825707736, 0.0004415923687059015]","[-0.026750000193715096, 0.05299999937415123, 0.03999999910593033]","[0.0, -0.0, 0.4923991896978182]","[-0.0607873797416687, 0.11644648760557175, 0.03999999910593033]","[0.0, 0.0, -0.2636517853425099]","[0.026750000193715096, 0.05299999937415123, 0.03999999910593033]","[0.0, 0.0, -0.6044837910744486]","[0.0676702931523323, 0.11224128305912018, 0.03999999910593033]","[0.0, -0.0, 0.1531426556572741]",0.48608612128205575,-1.5151329198421049,"(0.0, 0.0, 0.0, 0.0, 0.0, 0.0)",-11.552805468439676,-0.7515534104309246,1.0794184800585445,"(0.0, 0.0, 0.0, 0.0, 0.0, 0.0)",-6.117278670434241,-0.6056531437376673,-0.28063413873082776,"(0.0, 0.0, 0.0, 0.0, 0.0, 0.0)",11.208328210215674,0.7529538859364947,-1.1214251546979392,"(0.0, 0.0, 0.0, 0.0, 0.0, 0.0)",6.150642430735538,True,"(-0.02414319568620931, 0.18708936816011518, 0.039999783701162354)","(0.9999561810466909, -0.009358910264027508, -0.0002162988376501245)",-0.00013735640148641938,85.70901829352329,True,"(0.039035375976111994, 0.18640290749120525, 0.04000021629883765)","(-0.9999561810466909, 0.009358910264035071, 0.00021629883764499045)",-0.0006004143024059025,83.84057195633862
91,Move,"(0.02936708860759494, 0.0, -0.02936708860759494)","(0.0, -0.0, 0.0)","(0.008610506871637547, 0.1754785498530527, 0.0013560161404142157)","(1.5823293161939345, 0.00022991465538416573, -0.01029793086846744)","[0.008610428310172542, 0.005479487476533873, 0.00044112645732648096]","[-0.026750000193715096, 0.05299999937415123, 0.03999999910593033]","[0.0, -0.0, 0.48608611364452237]","[-0.06038616597652435, 0.11666010320186615, 0.03999999910593033]","[0.0, 0.0, -0.26546730773937177]","[0.026750000193715096, 0.05299999937415123, 0.03999999910593033]","[0.0, 0.0, -0.6056532088702096]","[0.06773953884840012, 0.11219339072704315, 0.03999999910593033]","[0.0, -0.0, 0.14730074634935186]",0.4796055067119913,-1.5553474968154661,"(0.0, 0.0, 0.0, 0.0, 0.0, 0.0)",-11.966344692000783,-0.7468990104863998,1.117055986685932,"(0.0, 0.0, 0.0, 0.0, 0.0, 0.0)",-6.326190855011849,-0.6068073506055922,-0.27700964830196434,"(0.0, 0.0, 0.0, 0.0, 0.0, 0.0)",11.622727409734994,0.7481061209039238,-1.1634636078170233,"(0.0, 0.0, 0.0, 0.0, 0.0, 0.0)",6.386772596452644,True,"(-0.023613774798031964, 0.1872376852709368, 0.03999977702961298)","(0.9999516771561386, -0.009828206185851637, -0.00022297038702275896)",-0.00014261572100438498,88.70097217419007,True,"(0.03953828409593184, 0.1865156626616838, 0.04000022297038703)","(-0.9999516771561389, 0.009828206185847708, 0.00022297038702373743)",-0.0006212793620318233,86.85265535390936
92,Move,"(0.03037974683544304, 0.0, -0.03037974683544304)","(0.0, -0.0, 0.0)","(0.009153512612815017, 0.1756162958998818, 0.001355536111163531)","(1.5823041996806206, 0.00023713069824278244, -0.010766758523519483)","[0.009153434051350011, 0.005617233523362991, 0.0004406464280757962]","[-0.026750000193715096, 0.05299999937415123, 0.03999999910593033]","[0.0, -0.0, 0.4796055069549238]","[-0.05997290462255478, 0.1168767437338829, 0.03999999910593033]","[0.0, 0.0, -0.2672935065449691]","[0.026750000193715096, 0.05299999937415123, 0.03999999910593033]","[0.0, 0.0, -0.6068072802472066]","[0.06780783087015152, 0.1121460422873497, 0.03999999910593033]","[0.0, -0.0, 0.14129880612254242]",0.47296273685690937,-1.594264765219672,"(0.0, 0.0, 0.0, 0.0, 0.0, 0.0)",-12.375639224308994,-0.7420900636163846,1.154147248803639,"(0.0, 0.0, 0.0, 0.0, 0.0, 0.0)",-6.5319199765498075,-0.607944023628112,-0.27280152540473956,"(0.0, 0.0, 0.0, 0.0, 0.0, 0.0)",12.03262344985681,0.7430844875814022,-1.2051919974051923,"(0.0, 0.0, 0.0, 0.0, 0.0, 0.0)",6.620966456505751,True,"(-0.023071671463551477, 0.1873884145943165, 0.03999977008534664)","(0.9999469503495251, -0.010297748585815128, -0.0002299146533552721)",-0.0001479720239892598,91.65210597368348,True,"(0.04005309138359538, 0.18663070436169937, 0.04000022991465336)","(-0.999946950349525, 0.010297748585823698, 0.0002299146533584632)",-0.0006428096492759308,89.82354241589249
