OSUrobotics/InHand-Manipulation/AnalyseData/Data/Trial Data/new_hand_human_filt_josh_2v2_d_none_1_kpNone_kdNone_dp1_step1_save_data.csv
,Phase,human_cube_pos,human_cube_orn,Cube_Pos,Cube_Orn,Cube_pos_in_start_pos,b'l_prox_pin'_link_pos,b'l_prox_pin'_link_orn,b'l_distal_pin'_link_pos,b'l_distal_pin'_link_orn,b'r_prox_pin'_link_pos,b'r_prox_pin'_link_orn,b'r_distal_pin'_link_pos,b'r_distal_pin'_link_orn,b'l_prox_pin'_joint_angle,b'l_prox_pin'_joint_vel,b'l_prox_pin'_joint_react_forces,b'l_prox_pin'_joint_motor_torque,b'l_distal_pin'_joint_angle,b'l_distal_pin'_joint_vel,b'l_distal_pin'_joint_react_forces,b'l_distal_pin'_joint_motor_torque,b'r_prox_pin'_joint_angle,b'r_prox_pin'_joint_vel,b'r_prox_pin'_joint_react_forces,b'r_prox_pin'_joint_motor_torque,b'r_distal_pin'_joint_angle,b'r_distal_pin'_joint_vel,b'r_distal_pin'_joint_react_forces,b'r_distal_pin'_joint_motor_torque,in_contact_l,contact_point_l_dist,contact_normal_l_dist,contact_distance_l_dist,contact_norm_force_l_dist,in_contact_r,contact_point_r_dist,contact_normal_r_dist,contact_distance_r_dist,contact_norm_force_r_dist
0,Open,,,,,,"[-0.026750000193715096, 0.05299999937415123, 0.03999999910593033]","[0.0, -0.0, 0.0]","[-0.026750000193715096, 0.125, 0.03999999910593033]","[0.0, -0.0, 0.0]","[0.026750000193715096, 0.05299999937415123, 0.03999999910593033]","[0.0, -0.0, 0.0]","[0.026750000193715096, 0.125, 0.03999999910593033]","[0.0, -0.0, 0.0]",0.0028636982559538428,0.6872875814289223,"(0.0, 0.0, 0.0, 0.0, 0.0, 0.0)",-74.42376671286476,0.025717978913313098,6.172314939195144,"(0.0, 0.0, 0.0, 0.0, 0.0, 0.0)",-28.347758017338414,-0.0028861714462846827,-0.6926811471083238,"(0.0, 0.0, 0.0, 0.0, 0.0, 0.0)",77.31812537484876,-0.025998027583603027,-6.239526620064726,"(0.0, 0.0, 0.0, 0.0, 0.0, 0.0)",29.325432325549183,False,,,,,False,,,,
1,Open,,,,,,"[-0.026750000193715096, 0.05299999937415123, 0.03999999910593033]","[0.0, -0.0, 0.0028636982488144678]","[-0.026956185698509216, 0.12499970197677612, 0.03999999910593033]","[0.0, -0.0, 0.028581675581217755]","[0.026750000193715096, 0.05299999937415123, 0.03999999910593033]","[0.0, 0.0, -0.0028861714423951343]","[0.026957804337143898, 0.12499970197677612, 0.03999999910593033]","[0.0, 0.0, -0.028884201286240394]",0.1595773284303585,37.61127124185712,"(0.0, 0.0, 0.0, 0.0, 0.0, 0.0)",53.472225824972774,0.02314589095046895,-0.6173011110825959,"(0.0, 0.0, 0.0, 0.0, 0.0, 0.0)",3.3014509125464437,-0.15959755430165623,-37.61073188528917,"(0.0, 0.0, 0.0, 0.0, 0.0, 0.0)",-53.45543824447724,-0.023397935520559333,0.6240220951304867,"(0.0, 0.0, 0.0, 0.0, 0.0, 0.0)",-3.2927232380167535,False,,,,,False,,,,
2,Open,,,,,,"[-0.026750000193715096, 0.05299999937415123, 0.03999999910593033]","[0.0, -0.0, 0.15957730699277592]","[-0.03819086775183678, 0.1240852028131485, 0.03999999910593033]","[0.0, -0.0, 0.1827232399786182]","[0.026750000193715096, 0.05299999937415123, 0.03999999910593033]","[0.0, 0.0, -0.15959754249378824]","[0.03819230571389198, 0.12408497184515, 0.03999999910593033]","[0.0, 0.0, -0.1829954723320542]",0.30061959558732265,33.8501441176714,"(0.0, 0.0, 0.0, 0.0, 0.0, 0.0)",-5.433290843096747,0.020831748867960086,-0.555394099802127,"(0.0, 0.0, 0.0, 0.0, 0.0, 0.0)",-0.37949999689540415,-0.30063779887149056,-33.849658696760244,"(0.0, 0.0, 0.0, 0.0, 0.0, 0.0)",5.433149501288634,-0.02105858889910766,0.5614431891484022,"(0.0, 0.0, 0.0, 0.0, 0.0, 0.0)",0.37943043762158307,False,,,,,False,,,,
3,Open,,,,,,"[-0.026750000193715096, 0.05299999937415123, 0.03999999910593033]","[0.0, -0.0, 0.30061964608852465]","[-0.048070069402456284, 0.12177103012800217, 0.03999999910593033]","[0.0, -0.0, 0.3214513597309629]","[0.026750000193715096, 0.05299999937415123, 0.03999999910593033]","[0.0, 0.0, -0.30063782483534385]","[0.04807132109999657, 0.12177064269781113, 0.03999999910593033]","[0.0, 0.0, -0.32169639446592324]",0.4275576360285904,30.465129705904268,"(0.0, 0.0, 0.0, 0.0, 0.0, 0.0)",-4.896562760502833,0.018748978964657985,-0.49986477679250463,"(0.0, 0.0, 0.0, 0.0, 0.0, 0.0)",-0.3438186216350169,-0.4275740189843415,-30.464692827084228,"(0.0, 0.0, 0.0, 0.0, 0.0, 0.0)",4.8964345239877005,-0.018953134917884834,0.505308955493478,"(0.0, 0.0, 0.0, 0.0, 0.0, 0.0)",0.34375511365495653,False,,,,,False,,,,
4,Open,,,,,,"[-0.026750000193715096, 0.05299999937415123, 0.03999999910593033]","[0.0, -0.0, 0.42755761853039154]","[-0.056604765355587006, 0.1185186430811882, 0.03999999910593033]","[0.0, -0.0, 0.4463066270391506]","[0.026750000193715096, 0.05299999937415123, 0.03999999910593033]","[0.0, 0.0, -0.42757404208311445]","[0.05660583823919296, 0.1185181587934494, 0.03999999910593033]","[0.0, 0.0, -0.4465272228574986]",0.5418018724257314,27.418616735313837,"(0.0, 0.0, 0.0, 0.0, 0.0, 0.0)",-4.412236817968903,0.016874447698417276,-0.44988750389777044,"(0.0, 0.0, 0.0, 0.0, 0.0, 0.0)",-0.3112578673856835,-0.5418166170859073,-27.418223544375806,"(0.0, 0.0, 0.0, 0.0, 0.0, 0.0)",4.412120589674461,-0.017058187988154127,0.4547872631353701,"(0.0, 0.0, 0.0, 0.0, 0.0, 0.0)",0.31119999541872967,False,,,,,False,,,,
5,Open,,,,,,"[-0.026750000193715096, 0.05299999937415123, 0.03999999910593033]","[0.0, -0.0, 0.5418019400761332]","[-0.06387900561094284, 0.11468822509050369, 0.03999999910593033]","[0.0, -0.0, 0.5586763123738882]","[0.026750000193715096, 0.05299999937415123, 0.03999999910593033]","[0.0, 0.0, -0.5418166677071254]","[0.06387991458177567, 0.11468767374753952, 0.03999999910593033]","[0.0, 0.0, -0.5588748551425957]",0.6446216851831583,24.67675506178245,"(0.0, 0.0, 0.0, 0.0, 0.0, 0.0)",-3.975330693632137,0.015187334633278446,-0.4049071356333192,"(0.0, 0.0, 0.0, 0.0, 0.0, 0.0)",-0.2816071653694913,-0.6446349553773166,-24.67640118993823,"(0.0, 0.0, 0.0, 0.0, 0.0, 0.0)",3.975225427671302,-0.01535270083200906,0.409316917474816,"(0.0, 0.0, 0.0, 0.0, 0.0, 0.0)",0.28155450162657786,False,,,,,False,,,,
6,Open,,,,,,"[-0.026750000193715096, 0.05299999937415123, 0.03999999910593033]","[0.0, -0.0, 0.6446216983098856]","[-0.07001452147960663, 0.11055155843496323, 0.03999999910593033]","[0.0, -0.0, 0.6598089287160823]","[0.026750000193715096, 0.05299999937415123, 0.03999999910593033]","[0.0, 0.0, -0.644634967879878]","[0.07001528143882751, 0.11055097728967667, 0.03999999910593033]","[0.0, 0.0, -0.6599877329949964]",0.7371595166648425,22.209079555604205,"(0.0, 0.0, 0.0, 0.0, 0.0, 0.0)",-3.5812948349547464,0.013668901111545678,-0.3644240452158641,"(0.0, 0.0, 0.0, 0.0, 0.0, 0.0)",-0.25464125660078457,-0.737171459839585,-22.20876107094441,"(0.0, 0.0, 0.0, 0.0, 0.0, 0.0)",3.5811995605906057,-0.01381773063402154,0.3683928475170044,"(0.0, 0.0, 0.0, 0.0, 0.0, 0.0)",0.2545933902665499,False,,,,,False,,,,
7,Open,,,,,,"[-0.026750000193715096, 0.05299999937415123, 0.03999999910593033]","[0.0, -0.0, 0.7371595400859692]","[-0.07514750957489014, 0.10630742460489273, 0.03999999910593033]","[0.0, -0.0, 0.7508283868993905]","[0.026750000193715096, 0.05299999937415123, 0.03999999910593033]","[0.0, 0.0, -0.7371714711336782]","[0.07514814287424088, 0.10630684345960617, 0.03999999910593033]","[0.0, 0.0, -0.750989167509555]",0.8204435649983582,19.988171600043785,"(0.0, 0.0, 0.0, 0.0, 0.0, 0.0)",-3.2259980823944012,0.01230228208777883,-0.32798856570404317,"(0.0, 0.0, 0.0, 0.0, 0.0, 0.0)",-0.23014491551259536,-0.8204543138556265,-19.987884963849964,"(0.0, 0.0, 0.0, 0.0, 0.0, 0.0)",3.225911902119173,-0.012436228606816148,0.33156048652929415,"(0.0, 0.0, 0.0, 0.0, 0.0, 0.0)",0.23010145595163894,False,,,,,False,,,,
8,Open,,,,,,"[-0.026750000193715096, 0.05299999937415123, 0.03999999910593033]","[0.0, -0.0, 0.8204435774406766]","[-0.07941428571939468, 0.1020965725183487, 0.03999999910593033]","[0.0, -0.0, 0.8327459142786269]","[0.026750000193715096, 0.05299999937415123, 0.03999999910593033]","[0.0, 0.0, -0.8204543695347751]","[0.07941480726003647, 0.10209600627422333, 0.03999999910593033]","[0.0, 0.0, -0.8328905496331522]",0.8953992084985224,17.9893544400394,"(0.0, 0.0, 0.0, 0.0, 0.0, 0.0)",-2.905692777507757,0.011072298781000885,-0.2951959936267068,"(0.0, 0.0, 0.0, 0.0, 0.0, 0.0)",-0.20791432075989408,-0.8954088824700639,-17.989096467464968,"(0.0, 0.0, 0.0, 0.0, 0.0, 0.0)",2.9056148642503405,-0.011192850601700187,0.29841072122783063,"(0.0, 0.0, 0.0, 0.0, 0.0, 0.0)",0.20787489947010138,False,,,,,False,,,,
9,Open,,,,,,"[-0.026750000193715096, 0.05299999937415123, 0.03999999910593033]","[0.0, -0.0, 0.8953992050914552]","[-0.08294302970170975, 0.09801492840051651, 0.03999999910593033]","[0.0, -0.0, 0.9064715399310761]","[0.026750000193715096, 0.05299999937415123, 0.03999999910593033]","[0.0, 0.0, -0.8954089117450801]","[0.08294346183538437, 0.09801438450813293, 0.03999999910593033]","[0.0, 0.0, -0.9066016844299951]",0.9628593041458897,16.19042295536815,"(0.0, 0.0, 0.0, 0.0, 0.0, 0.0)",-2.616982039675733,0.009965068902900796,-0.2657351707440213,"(0.0, 0.0, 0.0, 0.0, 0.0, 0.0)",-0.18776321705209223,-0.9628679942230576,-16.190186820718473,"(0.0, 0.0, 0.0, 0.0, 0.0, 0.0)",2.6169114018744533,-0.010073795468150126,0.26857323205201467,"(0.0, 0.0, 0.0, 0.0, 0.0, 0.0)",0.18772187735637863,False,,,,,False,,,,
10,Open,,,,,,"[-0.026750000193715096, 0.05299999937415123, 0.03999999910593033]","[0.0, -0.0, 0.9628592963772022]","[-0.08584962040185928, 0.09412462264299393, 0.03999999910593033]","[0.0, -0.0, 0.9728243569481114]","[0.026750000193715096, 0.05299999937415123, 0.03999999910593033]","[0.0, 0.0, -0.9628681466677605]","[0.08584997802972794, 0.09412410855293274, 0.03999999910593033]","[0.0, 0.0, -0.9729417790417357]",1.0235733886234697,14.571380274619202,"(0.0, 0.0, 0.0, 0.0, 0.0, 0.0)",-2.3567892704332074,0.008968562012610717,-0.23916165366961917,"(0.0, 0.0, 0.0, 0.0, 0.0, 0.0)",-0.1694953232042601,-1.0235811948007518,-14.571168138646623,"(0.0, 0.0, 0.0, 0.0, 0.0, 0.0)",2.3567257076227035,-0.009066622987564308,0.2417213953405963,"(0.0, 0.0, 0.0, 0.0, 0.0, 0.0)",0.1694640550215791,False,,,,,False,,,,
11,Open,,,,,,"[-0.026750000193715096, 0.05299999937415123, 0.03999999910593033]","[0.0, -0.0, 1.0235732790301837]","[-0.08823604136705399, 0.09046287834644318, 0.03999999910593033]","[0.0, -0.0, 1.0325419832787965]","[0.026750000193715096, 0.05299999937415123, 0.03999999910593033]","[0.0, 0.0, -1.0235812274279317]","[0.08823633193969727, 0.09046239405870438, 0.03999999910593033]","[0.0, 0.0, -1.0326478519026991]",1.07821606320068,13.114241898530471,"(0.0, 0.0, 0.0, 0.0, 0.0, 0.0)",-2.1223297150147444,0.008071705811349646,-0.21524548830265727,"(0.0, 0.0, 0.0, 0.0, 0.0, 0.0)",-0.15296241309945793,-1.0782230753206767,-13.114051324781958,"(0.0, 0.0, 0.0, 0.0, 0.0, 0.0)",2.12227232080801,-0.00816014715553388,0.21755419968730244,"(0.0, 0.0, 0.0, 0.0, 0.0, 0.0)",0.15293405823377063,False,,,,,False,,,,
12,Open,,,,,,"[-0.026750000193715096, 0.05299999937415123, 0.03999999910593033]","[0.0, -0.0, 1.0782160875824645]","[-0.09019032120704651, 0.08704887330532074, 0.03999999910593033]","[0.0, -0.0, 1.0862877612375414]","[0.026750000193715096, 0.05299999937415123, 0.03999999910593033]","[0.0, 0.0, -1.078222977413882]","[0.09019055962562561, 0.08704842627048492, 0.03999999910593033]","[0.0, 0.0, -1.086383440636339]",1.1273944690058637,11.802817393244087,"(0.0, 0.0, 0.0, 0.0, 0.0, 0.0)",-1.9110844292623412,0.0072645352302146814,-0.19372093947239152,"(0.0, 0.0, 0.0, 0.0, 0.0, 0.0)",-0.13800363537776744,-1.127400767788609,-11.802646192303762,"(0.0, 0.0, 0.0, 0.0, 0.0, 0.0)",1.9110326220035891,-0.0073443003468003755,0.19580323409604117,"(0.0, 0.0, 0.0, 0.0, 0.0, 0.0)",0.13797793774786143,False,,,,,False,,,,
13,Open,,,,,,"[-0.026750000193715096, 0.05299999937415123, 0.03999999910593033]","[0.0, -0.0, 1.1273943743462997]","[-0.0917874127626419, 0.08388906717300415, 0.03999999910593033]","[0.0, -0.0, 1.1346590670124865]","[0.026750000193715096, 0.05299999937415123, 0.03999999910593033]","[0.0, 0.0, -1.127400718904607]","[0.09178761392831802, 0.08388865739107132, 0.03999999910593033]","[0.0, 0.0, -1.134745111288055]",1.1716550330420206,10.622535368677626,"(0.0, 0.0, 0.0, 0.0, 0.0, 0.0)",-1.7207760069081794,0.006538081707193213,-0.17434884552515237,"(0.0, 0.0, 0.0, 0.0, 0.0, 0.0)",-0.12447661697107924,-1.1716606910097482,-10.622381573073383,"(0.0, 0.0, 0.0, 0.0, 0.0, 0.0)",1.7207292566310783,-0.006610021498538631,0.17622692358281872,"(0.0, 0.0, 0.0, 0.0, 0.0, 0.0)",0.12445333997040094,False,,,,,False,,,,
14,Open,,,,,,"[-0.026750000193715096, 0.05299999937415123, 0.03999999910593033]","[0.0, -0.0, 1.17165497759142]","[-0.09309044480323792, 0.08098116517066956, 0.03999999910593033]","[0.0, -0.0, 1.1781932312634587]","[0.026750000193715096, 0.05299999937415123, 0.03999999910593033]","[0.0, 0.0, -1.1716605985979762]","[0.09309060126543045, 0.08098078519105911, 0.03999999910593033]","[0.0, 0.0, -1.178270796658152]",1.2114895396003407,9.560281573996845,"(0.0, 0.0, 0.0, 0.0, 0.0, 0.0)",-1.5493464184878754,0.005884273536473892,-0.15691396097263716,"(0.0, 0.0, 0.0, 0.0, 0.0, 0.0)",-0.11225036449344186,-1.2114946219087734,-9.560143415766044,"(0.0, 0.0, 0.0, 0.0, 0.0, 0.0)",1.5493042428034185,-0.005949155473387951,0.1586078460361634,"(0.0, 0.0, 0.0, 0.0, 0.0, 0.0)",0.11222929013608758,False,,,,,False,,,,
15,Open,,,,,,"[-0.026750000193715096, 0.05299999937415123, 0.03999999910593033]","[0.0, -0.0, 1.2114895366869167]","[-0.09415213763713837, 0.07831702381372452, 0.03999999910593033]","[0.0, -0.0, 1.217373866954241]","[0.026750000193715096, 0.05299999937415123, 0.03999999910593033]","[0.0, 0.0, -1.2114945655338818]","[0.09415226429700851, 0.07831668108701706, 0.03999999910593033]","[0.0, 0.0, -1.2174436451143456]",1.247340594532334,8.604253183678367,"(0.0, 0.0, 0.0, 0.0, 0.0, 0.0)",-1.3949366626273376,0.005295846182826503,-0.14122256487537344,"(0.0, 0.0, 0.0, 0.0, 0.0, 0.0)",-0.10120466920977467,-1.2473451597178962,-8.604129074189437,"(0.0, 0.0, 0.0, 0.0, 0.0, 0.0)",1.3948986229890905,-0.0053543624843922985,0.1427503173589564,"(0.0, 0.0, 0.0, 0.0, 0.0, 0.0)",0.10118559717358673,False,,,,,False,,,,
16,Open,,,,,,"[-0.026750000193715096, 0.05299999937415123, 0.03999999910593033]","[0.0, -0.0, 1.2473405247091465]","[-0.09501627087593079, 0.07588484138250351, 0.03999999910593033]","[0.0, -0.0, 1.2526363990057872]","[0.026750000193715096, 0.05299999937415123, 0.03999999910593033]","[0.0, 0.0, -1.2473450561350814]","[0.09501637518405914, 0.07588452845811844, 0.03999999910593033]","[0.0, 0.0, -1.2526994945003431]",1.2796065430946884,7.743827654965079,"(0.0, 0.0, 0.0, 0.0, 0.0, 0.0)",-1.2558681504615996,0.004766261564543853,-0.12710030838783606,"(0.0, 0.0, 0.0, 0.0, 0.0, 0.0)",-0.09122946836189574,-1.2796106437461066,-7.743716166770495,"(0.0, 0.0, 0.0, 0.0, 0.0, 0.0)",1.2558338486111262,-0.0048190365758108995,0.12847821805953577,"(0.0, 0.0, 0.0, 0.0, 0.0, 0.0)",0.09121221496110384,False,,,,,False,,,,
17,Open,,,,,,"[-0.026750000193715096, 0.05299999937415123, 0.03999999910593033]","[0.0, -0.0, 1.279606409124563]","[-0.09571901708841324, 0.0736706331372261, 0.03999999910593033]","[0.0, -0.0, 1.28437298431252]","[0.026750000193715096, 0.05299999937415123, 0.03999999910593033]","[0.0, 0.0, -1.2796106525936015]","[0.0957190990447998, 0.07367035001516342, 0.03999999910593033]","[0.0, 0.0, -1.2844295613342638]",1.3086458960095868,6.969444699575651,"(0.0, 0.0, 0.0, 0.0, 0.0, 0.0)",-1.1306257070377301,0.004289635408089468,-0.11439027754905248,"(0.0, 0.0, 0.0, 0.0, 0.0, 0.0)",-0.08222418680157118,-1.3086495793714958,-6.969344550093446,"(0.0, 0.0, 0.0, 0.0, 0.0, 0.0)",1.130594781648955,-0.004337232254354257,0.11563303714959415,"(0.0, 0.0, 0.0, 0.0, 0.0, 0.0)",0.08220858392691464,False,,,,,False,,,,
18,Open,,,,,,"[-0.026750000193715096, 0.05299999937415123, 0.03999999910593033]","[0.0, -0.0, 1.3086459205076355]","[-0.09629011154174805, 0.0716593861579895, 0.03999999910593033]","[0.0, -0.0, 1.3129355885526113]","[0.026750000193715096, 0.05299999937415123, 0.03999999910593033]","[0.0, 0.0, -1.308649569130343]","[0.09629017859697342, 0.07165912538766861, 0.03999999910593033]","[0.0, 0.0, -1.312986924720132]",1.3347813936849748,6.27251944209315,"(0.0, 0.0, 0.0, 0.0, 0.0, 0.0)",-1.0178136135765579,0.003860671867280521,-0.10295124979414724,"(0.0, 0.0, 0.0, 0.0, 0.0, 0.0)",-0.07409495376010387,-1.3347846214343462,-6.272410095084102,"(0.0, 0.0, 0.0, 0.0, 0.0, 0.0)",1.0177850357732836,-0.0039047078765492254,0.10380585067320762,"(0.0, 0.0, 0.0, 0.0, 0.0, 0.0)",0.07405380859946255,False,,,,,False,,,,
19,Open,,,,,,"[-0.026750000193715096, 0.05299999937415123, 0.03999999910593033]","[0.0, -0.0, 1.334781482161592]","[-0.09675398468971252, 0.06983575224876404, 0.03999999910593033]","[0.0, -0.0, 1.3386420763869566]","[0.026750000193715096, 0.05299999937415123, 0.03999999910593033]","[0.0, 0.0, -1.3347844615433213]","[0.0967540368437767, 0.06983552873134613, 0.03999999910593033]","[0.0, 0.0, -1.3386893465906344]",1.3583033329588656,5.645265425733771,"(0.0, 0.0, 0.0, 0.0, 0.0, 0.0)",-0.9162894485067246,0.0034746046805524686,-0.09265612481473251,"(0.0, 0.0, 0.0, 0.0, 0.0, 0.0)",-0.06676498651239852,-1.3583061592909116,-5.645169085575695,"(0.0, 0.0, 0.0, 0.0, 0.0, 0.0)",0.9162644402532643,-0.003515316355551213,0.09345396503952298,"(0.0, 0.0, 0.0, 0.0, 0.0, 0.0)",0.06675757992540086,False,,,,,False,,,,
20,Open,,,,,,"[-0.026750000193715096, 0.05299999937415123, 0.03999999910593033]","[0.0, -0.0, 1.3583033782093388]","[-0.09713058918714523, 0.06818462163209915, 0.03999999910593033]","[0.0, -0.0, 1.3617778549615713]","[0.026750000193715096, 0.05299999937415123, 0.03999999910593033]","[0.0, 0.0, -1.358306171033049]","[0.09713063389062881, 0.06818442046642303, 0.03999999910593033]","[0.0, 0.0, -1.3618216630795579]",1.3794730705147613,5.080737013414941,"(0.0, 0.0, 0.0, 0.0, 0.0, 0.0)",-0.824843238341657,0.0031271442124972217,-0.08339051233325927,"(0.0, 0.0, 0.0, 0.0, 0.0, 0.0)",-0.06015099984243396,-1.3794755433618204,-5.080652177018124,"(0.0, 0.0, 0.0, 0.0, 0.0, 0.0)",0.8248206969750995,-0.0031647562751902763,0.08413441928662488,"(0.0, 0.0, 0.0, 0.0, 0.0, 0.0)",0.06014403042415934,False,,,,,False,,,,
21,Open,,,,,,"[-0.026750000193715096, 0.05299999937415123, 0.03999999910593033]","[0.0, -0.0, 1.3794732170435209]","[-0.09743624925613403, 0.06669139117002487, 0.03999999910593033]","[0.0, -0.0, 1.3826000766585136]","[0.026750000193715096, 0.05299999937415123, 0.03999999910593033]","[0.0, 0.0, -1.379475506721758]","[0.09743628650903702, 0.06669121235609055, 0.03999999910593033]","[0.0, 0.0, -1.3826403872801236]",1.3985258272895291,4.572661625944267,"(0.0, 0.0, 0.0, 0.0, 0.0, 0.0)",-0.7425069006638333,0.0028144297912474996,-0.07505146109993333,"(0.0, 0.0, 0.0, 0.0, 0.0, 0.0)",-0.05418653237539115,-1.3985279890256384,-4.57258695931631,"(0.0, 0.0, 0.0, 0.0, 0.0, 0.0)",0.7424865850776085,-0.002849155221625309,0.07574425285559212,"(0.0, 0.0, 0.0, 0.0, 0.0, 0.0)",0.054179986454517805,False,,,,,False,,,,
22,Open,,,,,,"[-0.026750000193715096, 0.05299999937415123, 0.03999999910593033]","[0.0, -0.0, 1.3985258812912096]","[-0.09768426418304443, 0.06534221768379211, 0.03999999910593033]","[0.0, -0.0, 1.401340253282553]","[0.026750000193715096, 0.05299999937415123, 0.03999999910593033]","[0.0, 0.0, -1.3985280648022782]","[0.09768428653478622, 0.06534206122159958, 0.03999999910593033]","[0.0, 0.0, -1.401377053442374]",1.4156732445605762,4.1153801450513035,"(0.0, 0.0, 0.0, 0.0, 0.0, 0.0)",-0.6683760541378199,0.0025337575418392343,-0.06736133985798368,"(0.0, 0.0, 0.0, 0.0, 0.0, 0.0)",-0.04879014140050342,-1.4156751901230746,-4.115328263384682,"(0.0, 0.0, 0.0, 0.0, 0.0, 0.0)",0.6683581754579101,-0.0025650106351751403,0.06819470074804054,"(0.0, 0.0, 0.0, 0.0, 0.0, 0.0)",0.048803181728066504,False,,,,,False,,,,
23,Open,,,,,,"[-0.026750000193715096, 0.05299999937415123, 0.03999999910593033]","[0.0, -0.0, 1.4156732790640367]","[-0.09788545966148376, 0.06412412226200104, 0.03999999910593033]","[0.0, -0.0, 1.4182068992666514]","[0.026750000193715096, 0.05299999937415123, 0.03999999910593033]","[0.0, 0.0, -1.4156752315845986]","[0.09788548201322556, 0.0641239807009697, 0.03999999910593033]","[0.0, 0.0, -1.418240297588195]",1.4311059201045186,3.703842130546173,"(0.0, 0.0, 0.0, 0.0, 0.0, 0.0)",-0.6016354692971831,0.002281076294111699,-0.060643499454608465,"(0.0, 0.0, 0.0, 0.0, 0.0, 0.0)",-0.043964917254376304,-1.431107671110767,-3.7037954370462103,"(0.0, 0.0, 0.0, 0.0, 0.0, 0.0)",0.601618906864393,-0.002309203927423731,0.061393609860338254,"(0.0, 0.0, 0.0, 0.0, 0.0, 0.0)",0.04395537798258018,False,,,,,False,,,,
24,Open,,,,,,"[-0.026750000193715096, 0.05299999937415123, 0.03999999910593033]","[0.0, -0.0, 1.431106067090066]","[-0.09804865717887878, 0.06302502751350403, 0.03999999910593033]","[0.0, -0.0, 1.4333870462508926]","[0.026750000193715096, 0.05299999937415123, 0.03999999910593033]","[0.0, 0.0, -1.4311075924426346]","[0.09804867953062057, 0.06302490830421448, 0.03999999910593033]","[0.0, 0.0, -1.4334167865153191]",1.4449953280940668,3.3334579174915544,"(0.0, 0.0, 0.0, 0.0, 0.0, 0.0)",-0.5415505261814281,0.0020535941428323577,-0.0545957163070419,"(0.0, 0.0, 0.0, 0.0, 0.0, 0.0)",-0.039595160069895885,-1.4449969039996904,-3.3334158933415914,"(0.0, 0.0, 0.0, 0.0, 0.0, 0.0)",0.5415355971603744,-0.0020789088768519244,0.05527081213723353,"(0.0, 0.0, 0.0, 0.0, 0.0, 0.0)",0.03958655320154549,False,,,,,False,,,,
25,Open,,,,,,"[-0.026750000193715096, 0.05299999937415123, 0.03999999910593033]","[0.0, -0.0, 1.4449953236050408]","[-0.09818101674318314, 0.062033798545598984, 0.03999999910593033]","[0.0, -0.0, 1.4470489205564803]","[0.026750000193715096, 0.05299999937415123, 0.03999999910593033]","[0.0, 0.0, -1.4449971061677662]","[0.09818103164434433, 0.06203368678689003, 0.03999999910593033]","[0.0, 0.0, -1.4470757789026303]",1.4574957952846601,3.0001121257423975,"(0.0, 0.0, 0.0, 0.0, 0.0, 0.0)",-0.4874591163422106,0.001848798000532221,-0.049151074152032785,"(0.0, 0.0, 0.0, 0.0, 0.0, 0.0)",-0.03565727273069659,-1.4574972135997213,-3.000074304007432,"(0.0, 0.0, 0.0, 0.0, 0.0, 0.0)",0.4874456696595422,-0.0018715811386345559,0.04975865717216847,"(0.0, 0.0, 0.0, 0.0, 0.0, 0.0)",0.035649517044776216,False,,,,,False,,,,
26,Open,,,,,,"[-0.026750000193715096, 0.05299999937415123, 0.03999999910593033]","[0.0, -0.0, 1.4574957494266667]","[-0.09828836470842361, 0.06114019453525543, 0.03999999910593033]","[0.0, -0.0, 1.4593445319119962]","[0.026750000193715096, 0.05299999937415123, 0.03999999910593033]","[0.0, 0.0, -1.4574971848934346]","[0.09828837215900421, 0.061140093952417374, 0.03999999910593033]","[0.0, 0.0, -1.4593689254001878]",1.4687462157561941,2.700100913168159,"(0.0, 0.0, 0.0, 0.0, 0.0, 0.0)",-0.4387647386637656,0.001664425421748265,-0.04424941890814946,"(0.0, 0.0, 0.0, 0.0, 0.0, 0.0)",-0.03210904798338725,-1.4687474922397492,-2.70006687360669,"(0.0, 0.0, 0.0, 0.0, 0.0, 0.0)",0.43875262810008697,-0.0016849301356551215,0.04479624071506425,"(0.0, 0.0, 0.0, 0.0, 0.0, 0.0)",0.03210206017482911,False,,,,,False,,,,
27,Open,,,,,,"[-0.026750000193715096, 0.05299999937415123, 0.03999999910593033]","[0.0, -0.0, 1.4687461344095891]","[-0.09837540984153748, 0.060334861278533936, 0.03999999910593033]","[0.0, -0.0, 1.470410718939128]","[0.026750000193715096, 0.05299999937415123, 0.03999999910593033]","[0.0, 0.0, -1.4687474899518769]","[0.09837542474269867, 0.060334768146276474, 0.03999999910593033]","[0.0, 0.0, -1.4704323216980226]",1.4788715941805748,2.4300908218513424,"(0.0, 0.0, 0.0, 0.0, 0.0, 0.0)",-0.3949299922947459,0.0014984396024311437,-0.03983659663610913,"(0.0, 0.0, 0.0, 0.0, 0.0, 0.0)",-0.028912305224088167,-1.4788727430157742,-2.430060186246021,"(0.0, 0.0, 0.0, 0.0, 0.0, 0.0)",0.39491908586583524,-0.001516893745502234,0.04032873363669301,"(0.0, 0.0, 0.0, 0.0, 0.0, 0.0)",0.028906009969804115,False,,,,,False,,,,
28,Open,,,,,,"[-0.026750000193715096, 0.05299999937415123, 0.03999999910593033]","[0.0, -0.0, 1.4788716114387848]","[-0.09844601154327393, 0.05960926413536072, 0.03999999910593033]","[0.0, -0.0, 1.480369967321747]","[0.026750000193715096, 0.05299999937415123, 0.03999999910593033]","[0.0, 0.0, -1.4788727099725336]","[0.09844601899385452, 0.05960918217897415, 0.03999999910593033]","[0.0, 0.0, -1.4803897176078398]",1.4879844347625173,2.1870817396662066,"(0.0, 0.0, 0.0, 0.0, 0.0, 0.0)",-0.35547077884469186,0.001349006873756257,-0.035863854881972794,"(0.0, 0.0, 0.0, 0.0, 0.0, 0.0)",-0.026032532459863006,-1.487985468714197,-2.1870541676214206,"(0.0, 0.0, 0.0, 0.0, 0.0, 0.0)",0.3554609574551474,-0.0013656155129400406,0.03630677581492639,"(0.0, 0.0, 0.0, 0.0, 0.0, 0.0)",0.026026861690451878,False,,,,,False,,,,
29,Close,,,"(3.81934867813925e-09, 0.16999994350316303, 7.914305593766253e-05)","(1.570060628375192, 1.2357610732009135e-06, -4.058049780411255e-09)",,"[-0.026750000193715096, 0.05299999937415123, 0.03999999910593033]","[0.0, -0.0, 1.4879846218463189]","[-0.09850326180458069, 0.05895564332604408, 0.03999999910593033]","[0.0, -0.0, 1.4893335380226298]","[0.026750000193715096, 0.05299999937415123, 0.03999999910593033]","[0.0, 0.0, -1.4879853833286059]","[0.09850326925516129, 0.05895556882023811, 0.03999999910593033]","[0.0, 0.0, -1.489351164820381]",1.4961859912862656,1.9683735656995869,"(0.0, 0.0, 0.0, 0.0, 0.0, 0.0)",-0.3199510553077944,0.0012144764412073583,-0.03228730381173568,"(0.0, 0.0, 0.0, 0.0, 0.0, 0.0)",-0.023438547864251393,-1.4961869218427772,-1.9683487508592754,"(0.0, 0.0, 0.0, 0.0, 0.0, 0.0)",0.31994221152103813,-0.0012294241357861321,0.03268593051693805,"(0.0, 0.0, 0.0, 0.0, 0.0, 0.0)",0.02343344009160656,False,,,,,False,,,,
30,Close,,,"(1.0944139056781095e-09, 0.16999988769159885, 0.00015196320828894536)","(1.5701173533572137, -2.546764106166517e-06, -4.5739975761669185e-08)",,"[-0.026750000193715096, 0.05299999937415123, 0.03999999910593033]","[0.0, -0.0, 1.4961859237531725]","[-0.09854969382286072, 0.058366961777210236, 0.03999999910593033]","[0.0, -0.0, 1.4974005873829956]","[0.026750000193715096, 0.05299999937415123, 0.03999999910593033]","[0.0, 0.0, -1.4961870219527165]","[0.09854969382286072, 0.05836689472198486, 0.03999999910593033]","[0.0, 0.0, -1.4974162740114767]",1.4065673921576392,-21.50846379087038,"(0.0, 0.0, 0.0, 0.0, 0.0, 0.0)",-36.835246198004974,-0.0889065374658138,-21.629043337685076,"(0.0, 0.0, 0.0, 0.0, 0.0, 0.0)",-4.936581773530031,-1.4065682296584996,21.508486124226657,"(0.0, 0.0, 0.0, 0.0, 0.0, 0.0)",36.83523823302541,0.08889308454109726,21.629402082452014,"(0.0, 0.0, 0.0, 0.0, 0.0, 0.0)",4.936577171332534,False,,,,,False,,,,
31,Close,,,"(3.541182751898146e-08, 0.16999980114439886, 0.00021906657186990329)","(1.570205104748173, 3.3042409187358476e-05, -8.114213793408995e-08)",,"[-0.026750000193715096, 0.05299999937415123, 0.03999999910593033]","[0.0, -0.0, 1.4065674382065954]","[-0.0977812185883522, 0.06477139890193939, 0.03999999910593033]","[0.0, -0.0, 1.3176607325096803]","[0.026750000193715096, 0.05299999937415123, 0.03999999910593033]","[0.0, 0.0, -1.4065680331882469]","[0.0977812260389328, 0.06477133929729462, 0.03999999910593033]","[0.0, 0.0, -1.317675087641738]",1.3259106529418752,-19.35761741178334,"(0.0, 0.0, 0.0, 0.0, 0.0, 0.0)",3.339540681020147,-0.1700163992654628,-19.466366831915764,"(0.0, 0.0, 0.0, 0.0, 0.0, 0.0)",0.43768300928401094,-1.3259114066926496,19.35763751180399,"(0.0, 0.0, 0.0, 0.0, 0.0, 0.0)",-3.339547244371716,0.17000429163741898,19.46668970311721,"(0.0, 0.0, 0.0, 0.0, 0.0, 0.0)",-0.43768657583187814,False,,,,,False,,,,
32,Close,,,"(3.3615388764661996e-08, 0.16999974452330985, 0.0002807753877344858)","(1.570291177472822, 7.027968339645704e-05, -7.017997691912602e-06)",,"[-0.026750000193715096, 0.05299999937415123, 0.03999999910593033]","[0.0, -0.0, 1.325910602539969]","[-0.09660188108682632, 0.07045607268810272, 0.03999999910593033]","[0.0, -0.0, 1.15589431284009]","[0.026750000193715096, 0.05299999937415123, 0.03999999910593033]","[0.0, 0.0, -1.3259115331240872]","[0.09660189598798752, 0.07045602053403854, 0.03999999910593033]","[0.0, 0.0, -1.1559071067962101]",1.2533195876476877,-17.421855670605005,"(0.0, 0.0, 0.0, 0.0, 0.0, 0.0)",3.010086434993722,-0.2430152269620096,-17.51971864717124,"(0.0, 0.0, 0.0, 0.0, 0.0, 0.0)",0.3969977288579383,-1.2533202660233846,17.42187376062359,"(0.0, 0.0, 0.0, 0.0, 0.0, 0.0)",-3.01009239907131,0.24300433010061484,17.520009231167002,"(0.0, 0.0, 0.0, 0.0, 0.0, 0.0)",-0.3970009928699217,False,,,,,False,,,,
33,Close,,,"(1.2478111592350428e-07, 0.16999960627903718, 0.0003375139766032445)","(1.57037577903343, 0.00010886812619698478, -5.122611406550077e-06)",,"[-0.026750000193715096, 0.05299999937415123, 0.03999999910593033]","[0.0, -0.0, 1.2533194489161892]","[-0.0951518788933754, 0.0754762664437294, 0.03999999910593033]","[0.0, -0.0, 1.0103044793364557]","[0.026750000193715096, 0.05299999937415123, 0.03999999910593033]","[0.0, 0.0, -1.2533201846969224]","[0.09515189379453659, 0.07547622174024582, 0.03999999910593033]","[0.0, 0.0, -1.0103160002987672]",1.187987628882919,-15.67967010354451,"(0.0, 0.0, 0.0, 0.0, 0.0, 0.0)",2.7127127563058244,-0.3087137042658817,-15.767634552929295,"(0.0, 0.0, 0.0, 0.0, 0.0, 0.0)",0.35978531150928766,-1.1879882394210461,15.679686384561233,"(0.0, 0.0, 0.0, 0.0, 0.0, 0.0)",-2.712718170202468,0.3087038970906264,15.76789607760277,"(0.0, 0.0, 0.0, 0.0, 0.0, 0.0)",-0.3597882929636335,False,,,,,False,,,,
34,Close,,,"(1.2869375943716067e-07, 0.16999954011037427, 0.0003897330311484781)","(1.5704582297133811, 0.00014962636826286856, -9.931543140989753e-06)",,"[-0.026750000193715096, 0.05299999937415123, 0.03999999910593033]","[0.0, -0.0, 1.187987667070755]","[-0.09353858232498169, 0.07989396899938583, 0.03999999910593033]","[0.0, -0.0, 0.8792740751701014]","[0.026750000193715096, 0.05299999937415123, 0.03999999910593033]","[0.0, 0.0, -1.1879882623869136]","[0.09353859722614288, 0.07989392429590225, 0.03999999910593033]","[0.0, 0.0, -0.8792843094067142]",1.129188865994561,-14.111703093205922,"(0.0, 0.0, 0.0, 0.0, 0.0, 0.0)",2.444364691627728,-0.3678423338392935,-14.190871097618839,"(0.0, 0.0, 0.0, 0.0, 0.0, 0.0)",0.32580042782017765,-1.1291894154788755,14.111717746120975,"(0.0, 0.0, 0.0, 0.0, 0.0, 0.0)",-2.4443696014050813,0.3678335073815638,14.191106469824968,"(0.0, 0.0, 0.0, 0.0, 0.0, 0.0)",-0.3258031464690409,False,,,,,False,,,,
35,Close,,,"(2.214777882328744e-07, 0.1699994037241051, 0.00043775502472273846)","(1.5705392813318708, 0.00019167716059505157, -8.197629384028044e-06)",,"[-0.026750000193715096, 0.05299999937415123, 0.03999999910593033]","[0.0, -0.0, 1.1291890283409396]","[-0.09184274077415466, 0.08377231657505035, 0.03999999910593033]","[0.0, -0.0, 0.7613465189310478]","[0.026750000193715096, 0.05299999937415123, 0.03999999910593033]","[0.0, 0.0, -1.1291894580384154]","[0.09184275567531586, 0.08377227932214737, 0.03999999910593033]","[0.0, 0.0, -0.7613559159589215]",1.0762699793950452,-12.700532783883823,"(0.0, 0.0, 0.0, 0.0, 0.0, 0.0)",2.2023058622240206,-0.4210581004553642,-12.77178398785696,"(0.0, 0.0, 0.0, 0.0, 0.0, 0.0)",0.2948450783287482,-1.0762704739309281,12.700545971507374,"(0.0, 0.0, 0.0, 0.0, 0.0, 0.0)",-2.2023103112925155,0.4210501566434074,12.771995822842472,"(0.0, 0.0, 0.0, 0.0, 0.0, 0.0)",-0.29484755381795436,False,,,,,False,,,,
36,Close,,,"(2.1912693646655245e-07, 0.16999934361709665, 0.00048195644927493227)","(1.570618438864166, 0.00023565575874574216, -1.284578680687581e-05)",,"[-0.026750000193715096, 0.05299999937415123, 0.03999999910593033]","[0.0, -0.0, 1.0762698553554748]","[-0.09012393653392792, 0.0871722623705864, 0.03999999910593033]","[0.0, -0.0, 0.6552118754648316]","[0.026750000193715096, 0.05299999937415123, 0.03999999910593033]","[0.0, 0.0, -1.0762704893583]","[0.09012395888566971, 0.08717223256826401, 0.03999999910593033]","[0.0, 0.0, -0.6552203583131379]",1.0286429814555407,-11.430479505481086,"(0.0, 0.0, 0.0, 0.0, 0.0, 0.0)",1.9840011641871713,-0.4689522904105532,-11.494605589245369,"(0.0, 0.0, 0.0, 0.0, 0.0, 0.0)",0.2666765720436027,-1.0286434265378352,11.430491374342276,"(0.0, 0.0, 0.0, 0.0, 0.0, 0.0)",-1.98400519286662,0.4689451409797921,11.494796240732331,"(0.0, 0.0, 0.0, 0.0, 0.0, 0.0)",-0.266678823235124,False,,,,,False,,,,
37,Close,,,"(3.1131510510826827e-07, 0.1699992121070206, 0.0005226007520883845)","(1.5706964879884588, 0.0002806415891518861, -1.130775945746563e-05)",,"[-0.026750000193715096, 0.05299999937415123, 0.03999999910593033]","[0.0, -0.0, 1.0286430834369138]","[-0.0884251669049263, 0.09015068411827087, 0.03999999910593033]","[0.0, -0.0, 0.5596906493968803]","[0.026750000193715096, 0.05299999937415123, 0.03999999910593033]","[0.0, 0.0, -1.0286435120859125]","[0.08842518925666809, 0.09015065431594849, 0.03999999910593033]","[0.0, 0.0, -0.5596983211672015]",0.9857786833099866,-10.287431554932976,"(0.0, 0.0, 0.0, 0.0, 0.0, 0.0)",1.7871610171986225,-0.5120570613701537,-10.345145030304119,"(0.0, 0.0, 0.0, 0.0, 0.0, 0.0)",0.2410748761263989,-0.9857790838840517,10.28744223690805,"(0.0, 0.0, 0.0, 0.0, 0.0, 0.0)",-1.787164662869521,0.5120506268824687,10.345316616642386,"(0.0, 0.0, 0.0, 0.0, 0.0, 0.0)",-0.24107692103226736,False,,,,,False,,,,
38,Close,,,"(3.099184260814144e-07, 0.16999915308726163, 0.0005600347082347051)","(1.5707725585361196, 0.00032764712564810247, -1.5390013383513143e-05)",,"[-0.026750000193715096, 0.05299999937415123, 0.03999999910593033]","[0.0, -0.0, 0.9857787268997293]","[-0.08677656948566437, 0.09275941550731659, 0.03999999910593033]","[0.0, -0.0, 0.4737216221937432]","[0.026750000193715096, 0.05299999937415123, 0.03999999910593033]","[0.0, 0.0, -0.9857791586690391]","[0.08677658438682556, 0.0927593931555748, 0.03999999910593033]","[0.0, 0.0, -0.4737284761663587]",0.9472008149783954,-9.258688399581896,"(0.0, 0.0, 0.0, 0.0, 0.0, 0.0)",1.6097084905240464,-0.5508513552331383,-9.310630527116313,"(0.0, 0.0, 0.0, 0.0, 0.0, 0.0)",0.21783081714066702,-0.9472011754950539,9.258698013359455,"(0.0, 0.0, 0.0, 0.0, 0.0, 0.0)",-1.6097117877139937,0.5508455641942218,9.310784954820754,"(0.0, 0.0, 0.0, 0.0, 0.0, 0.0)",-0.21783267281108531,False,,,,,False,,,,
39,Close,,,"(4.010616501054989e-07, 0.16999902640520323, 0.0005944331352694379)","(1.570848092729293, 0.00037509861186959414, -1.4060502520249231e-05)",,"[-0.026750000193715096, 0.05299999937415123, 0.03999999910593033]","[0.0, -0.0, 0.9472007610341259]","[-0.08519845455884933, 0.09504495561122894, 0.03999999910593033]","[0.0, -0.0, 0.3963494673468899]","[0.026750000193715096, 0.05299999937415123, 0.03999999910593033]","[0.0, 0.0, -0.9472011867132297]","[0.08519846946001053, 0.09504493325948715, 0.03999999910593033]","[0.0, 0.0, -0.3963555750690063]",0.9124807334800206,-8.332819559609943,"(0.0, 0.0, 0.0, 0.0, 0.0, 0.0)",1.4497611376266515,-0.5857662197098245,-8.37956747440468,"(0.0, 0.0, 0.0, 0.0, 0.0, 0.0)",0.19674711261437697,-0.9124810579450133,8.332828212009746,"(0.0, 0.0, 0.0, 0.0, 0.0, 0.0)",-1.4497641181273477,0.5857610077747997,8.379706459338678,"(0.0, 0.0, 0.0, 0.0, 0.0, 0.0)",-0.1967487950744121,False,,,,,False,,,,
40,Close,,,"(3.7065737117817667e-07, 0.16999903038777264, 0.0006260749884045741)","(1.5708440552876672, 0.0003450812083093569, -1.4055585787506206e-05)",,"[-0.026750000193715096, 0.05299999937415123, 0.03999999910593033]","[0.0, -0.0, 0.9124807402838544]","[-0.08370371907949448, 0.09704854339361191, 0.03999999910593033]","[0.0, -0.0, 0.326714526237436]","[0.026750000193715096, 0.05299999937415123, 0.03999999910593033]","[0.0, 0.0, -0.9124811663733811]","[0.08370373398065567, 0.09704852104187012, 0.03999999910593033]","[0.0, 0.0, -0.3267200525344144]",0.8812326601320185,-7.499537603520494,"(0.0, 0.0, 0.0, 0.0, 0.0, 0.0)",1.3056085558176476,-0.6171898069729824,-7.5416609431579,"(0.0, 0.0, 0.0, 0.0, 0.0, 0.0)",0.1776333969588614,-0.881232952150512,7.499545390680321,"(0.0, 0.0, 0.0, 0.0, 0.0, 0.0)",-1.3056112487751819,0.6171851162332553,7.541786030029371,"(0.0, 0.0, 0.0, 0.0, 0.0, 0.0)",-0.17763492113459536,False,,,,,False,,,,
41,Close,,,"(3.4270442829422943e-07, 0.16999903405067468, 0.0006551854712055399)","(1.5708403346470585, 0.00031745834551880395, -1.4051356921060395e-05)",,"[-0.026750000193715096, 0.05299999937415123, 0.03999999910593033]","[0.0, -0.0, 0.8812326574248659]","[-0.08229970186948776, 0.09880644083023071, 0.03999999910593033]","[0.0, -0.0, 0.2640428438665389]","[0.026750000193715096, 0.05299999937415123, 0.03999999910593033]","[0.0, 0.0, -0.8812328730718287]","[0.08229971677064896, 0.09880642592906952, 0.03999999910593033]","[0.0, 0.0, -0.26404782646303376]",0.8531093941188167,-6.749583843168445,"(0.0, 0.0, 0.0, 0.0, 0.0, 0.0)",1.1757252227724653,-0.6454710151339783,-6.787489958639025,"(0.0, 0.0, 0.0, 0.0, 0.0, 0.0)",0.16033492565856985,-0.8531096569354608,6.7495908516122896,"(0.0, 0.0, 0.0, 0.0, 0.0, 0.0)",-1.1757276550342486,0.6454667934698494,6.787602536782573,"(0.0, 0.0, 0.0, 0.0, 0.0, 0.0)",-0.16033630557510498,False,,,,,False,,,,
42,Close,,,"(3.170084489805676e-07, 0.16999903740907232, 0.0006819671107686485)","(1.5708369117719745, 0.00029204530033491666, -1.4047683117437294e-05)",,"[-0.026750000193715096, 0.05299999937415123, 0.03999999910593033]","[0.0, -0.0, 0.853109524451608]","[-0.08098968118429184, 0.10035036504268646, 0.03999999910593033]","[0.0, -0.0, 0.20763839210402174]","[0.026750000193715096, 0.05299999937415123, 0.03999999910593033]","[0.0, 0.0, -0.8531096230941355]","[0.08098969608545303, 0.10035035014152527, 0.03999999910593033]","[0.0, 0.0, -0.20764290015238748]",0.827798454706935,-6.074625458851601,"(0.0, 0.0, 0.0, 0.0, 0.0, 0.0)",1.0586965825175305,-0.6709240840307901,-6.108736535234831,"(0.0, 0.0, 0.0, 0.0, 0.0, 0.0)",0.14467306511953135,-0.8277986912419147,6.074631766451059,"(0.0, 0.0, 0.0, 0.0, 0.0, 0.0)",-1.0586987784773754,0.6709202845345447,6.108837855526868,"(0.0, 0.0, 0.0, 0.0, 0.0, 0.0)",-0.14467431361093772,False,,,,,False,,,,
43,Close,,,"(2.933854053818763e-07, 0.16999904048782724, 0.0007066062149791044)","(1.570833762833206, 0.00026866528955929084, -1.4044478962391253e-05)",,"[-0.026750000193715096, 0.05299999937415123, 0.03999999910593033]","[0.0, -0.0, 0.8277984323872327]","[-0.07977395504713058, 0.10170790553092957, 0.03999999910593033]","[0.0, -0.0, 0.15687435886958723]","[0.026750000193715096, 0.05299999937415123, 0.03999999910593033]","[0.0, 0.0, -0.8277987052452376]","[0.07977396249771118, 0.10170789808034897, 0.03999999910593033]","[0.0, 0.0, -0.15687840334996264]",0.8050186092362415,-5.467162912966442,"(0.0, 0.0, 0.0, 0.0, 0.0, 0.0)",0.9532674632456022,-0.6938318293514667,-5.497858876962378,"(0.0, 0.0, 0.0, 0.0, 0.0, 0.0)",0.13050677509105155,-0.8050188221177232,5.467168589805953,"(0.0, 0.0, 0.0, 0.0, 0.0, 0.0)",-0.9532694452180411,0.6938284098061756,5.49795006519142,"(0.0, 0.0, 0.0, 0.0, 0.0, 0.0)",-0.1305079040521514,False,,,,,False,,,,
44,Close,,,"(2.716665243631569e-07, 0.16999904330973667, 0.0007292741870461168)","(1.5708308659079104, 0.0002471556717706421, -1.4041672170869124e-05)",,"[-0.026750000193715096, 0.05299999937415123, 0.03999999910593033]","[0.0, -0.0, 0.805018693680134]","[-0.07865073531866074, 0.10290304571390152, 0.03999999910593033]","[0.0, -0.0, 0.11118677719598301]","[0.026750000193715096, 0.05299999937415123, 0.03999999910593033]","[0.0, 0.0, -0.8050187952188965]","[0.07865074276924133, 0.10290303081274033, 0.03999999910593033]","[0.0, 0.0, -0.11119041327055598]",0.7845167483126173,-4.920446621669796,"(0.0, 0.0, 0.0, 0.0, 0.0, 0.0)",0.8582975487500909,-0.7144487850548936,-4.948069368822471,"(0.0, 0.0, 0.0, 0.0, 0.0, 0.0)",0.1176999161889477,-0.784516939905951,4.92045173082536,"(0.0, 0.0, 0.0, 0.0, 0.0, 0.0)",-0.8582993370681863,0.7144457074653335,4.948151438197915,"(0.0, 0.0, 0.0, 0.0, 0.0, 0.0)",-0.11770093656214896,False,,,,,False,,,,
45,Close,,,"(2.516969865132219e-07, 0.16999904589570924, 0.0007501287178845268)","(1.5708282008276189, 0.00022736681665442665, -1.4039201576373432e-05)",,"[-0.026750000193715096, 0.05299999937415123, 0.03999999910593033]","[0.0, -0.0, 0.7845167193080385]","[-0.07761679589748383, 0.10395654290914536, 0.03999999910593033]","[0.0, -0.0, 0.07006796221856504]","[0.026750000193715096, 0.05299999937415123, 0.03999999910593033]","[0.0, 0.0, -0.7845169946958266]","[0.07761680334806442, 0.10395653545856476, 0.03999999910593033]","[0.0, 0.0, -0.0700712393676473]",0.7660650734813556,-4.428401959502817,"(0.0, 0.0, 0.0, 0.0, 0.0, 0.0)",0.7727568234003241,-0.7330040315567423,-4.453259160443693,"(0.0, 0.0, 0.0, 0.0, 0.0, 0.0)",0.10612741338544372,-0.7660652459153559,4.428406557742824,"(0.0, 0.0, 0.0, 0.0, 0.0, 0.0)",-0.7727584365663333,0.7330012617272241,4.45333302285373,"(0.0, 0.0, 0.0, 0.0, 0.0, 0.0)",-0.10612833521093963,False,,,,,False,,,,
46,Close,,,"(2.333347390594828e-07, 0.16999904826492623, 0.0007693148831024706)","(1.5708257490378579, 0.0002091610641525209, -1.4037015415859222e-05)",,"[-0.026750000193715096, 0.05299999937415123, 0.03999999910593033]","[0.0, -0.0, 0.7660650530029621]","[-0.07666795700788498, 0.10488639026880264, 0.03999999910593033]","[0.0, -0.0, 0.033061044660046196]","[0.026750000193715096, 0.05299999937415123, 0.03999999910593033]","[0.0, 0.0, -0.7660653079646047]","[0.07666796445846558, 0.10488638281822205, 0.03999999910593033]","[0.0, 0.0, -0.033063985266685345]",0.74945856613322,-3.9855617635525347,"(0.0, 0.0, 0.0, 0.0, 0.0, 0.0)",0.6957152511565597,-0.7497037410960915,-4.007930289443809,"(0.0, 0.0, 0.0, 0.0, 0.0, 0.0)",0.09567463416818292,-0.7494587213238203,3.985565901968542,"(0.0, 0.0, 0.0, 0.0, 0.0, 0.0)",-0.6957167059865031,0.7497012482505058,4.007996765587582,"(0.0, 0.0, 0.0, 0.0, 0.0, 0.0)",-0.09567546663768112,False,,,,,False,,,,
47,Close,,,"(2.164494170985396e-07, 0.16999905043498784, 0.0007869661522295512)","(1.5708234934690006, 0.00019241176686715026, -1.4035069884058327e-05)",,"[-0.026750000193715096, 0.05299999937415123, 0.03999999910593033]","[0.0, -0.0, 0.7494586645069632]","[-0.07579945772886276, 0.10570816695690155, 0.03999999910593033]","[0.0, 0.0, -0.00024517497390629434]","[0.026750000193715096, 0.05299999937415123, 0.03999999910593033]","[0.0, 0.0, -0.7494587081400255]","[0.07579946517944336, 0.10570815205574036, 0.03999999910593033]","[0.0, -0.0, 0.00024252691827580863]",0.734512709519898,-3.587005587197282,"(0.0, 0.0, 0.0, 0.0, 0.0, 0.0)",0.62633335179107,-0.764733468564619,-3.6071345924465845,"(0.0, 0.0, 0.0, 0.0, 0.0, 0.0)",0.08623673664179632,-0.7345128491914382,3.587009311771688,"(0.0, 0.0, 0.0, 0.0, 0.0, 0.0)",-0.6263346635522226,0.764731225004477,3.6071944209530913,"(0.0, 0.0, 0.0, 0.0, 0.0, 0.0)",-0.08623748815382132,False,,,,,False,,,,
48,Close,,,"(1.9902478476784827e-07, 0.16999905216510208, 0.0008031506134021987)","(1.5708213694672764, 0.00017518801370081493, -1.4031269663123633e-05)",,"[-0.026750000193715096, 0.05299999937415123, 0.03999999910593033]","[0.0, -0.0, 0.7345126628086843]","[-0.07500623911619186, 0.10643533617258072, 0.03999999910593033]","[0.0, 0.0, -0.030220758479311768]","[0.026750000193715096, 0.05299999937415123, 0.03999999910593033]","[0.0, 0.0, -0.7345128981556924]","[0.07500624656677246, 0.10643532872200012, 0.03999999910593033]","[0.0, -0.0, 0.030218374565837484]",0.7210614385679082,-3.228305028477553,"(0.0, 0.0, 0.0, 0.0, 0.0, 0.0)",0.5638237578306897,-0.7782613489349801,-3.246691288886664,"(0.0, 0.0, 0.0, 0.0, 0.0, 0.0)",0.07768815570995548,-0.7210615642722944,3.2283083805945183,"(0.0, 0.0, 0.0, 0.0, 0.0, 0.0)",-0.5638249401106918,0.7782593297415619,3.246745136900362,"(0.0, 0.0, 0.0, 0.0, 0.0, 0.0)",-0.07768883366471367,False,,,,,False,,,,
49,Close,,,"(1.829952770055461e-07, 0.16999905372445817, 0.0008180403399685488)","(1.570819414349252, 0.00015934185659606824, -1.4027683436977707e-05)",,"[-0.026750000193715096, 0.05299999937415123, 0.03999999910593033]","[0.0, -0.0, 0.7210615171500641]","[-0.07428312301635742, 0.10707958787679672, 0.03999999910593033]","[0.0, 0.0, -0.057199913996044106]","[0.026750000193715096, 0.05299999937415123, 0.03999999910593033]","[0.0, 0.0, -0.7210615729227128]","[0.07428313046693802, 0.10707958042621613, 0.03999999910593033]","[0.0, -0.0, 0.05719776910615926]",0.7089552947111173,-2.9054745256297965,"(0.0, 0.0, 0.0, 0.0, 0.0, 0.0)",0.5075985124068872,-0.7904363204053063,-2.921993152878289,"(0.0, 0.0, 0.0, 0.0, 0.0, 0.0)",0.0700370652242526,-0.7089554078450649,2.905477542535066,"(0.0, 0.0, 0.0, 0.0, 0.0, 0.0)",-0.5075995783274915,0.7904345031408967,2.922041615840362,"(0.0, 0.0, 0.0, 0.0, 0.0, 0.0)",-0.07003767717030578,False,,,,,False,,,,
50,Close,,,"(1.6824673743256467e-07, 0.1699990551245479, 0.0008317388481299668)","(1.5708176157312883, 0.00014476218911187202, -1.4024269618189447e-05)",,"[-0.026750000193715096, 0.05299999937415123, 0.03999999910593033]","[0.0, -0.0, 0.7089552779168017]","[-0.07362496107816696, 0.10765105485916138, 0.03999999910593033]","[0.0, 0.0, -0.08148102045451616]","[0.026750000193715096, 0.05299999937415123, 0.03999999910593033]","[0.0, 0.0, -0.7089554724698194]","[0.07362496852874756, 0.10765104740858078, 0.03999999910593033]","[0.0, -0.0, 0.08147908750003346]",0.6980597652400056,-2.6149270730668164,"(0.0, 0.0, 0.0, 0.0, 0.0, 0.0)",0.45693916732635087,-0.8013936851756889,-2.6297675448918194,"(0.0, 0.0, 0.0, 0.0, 0.0, 0.0)",0.06310194659006269,-0.6980598670605584,2.614929788281559,"(0.0, 0.0, 0.0, 0.0, 0.0, 0.0)",-0.45694012793573996,0.8013920496464395,2.6298111613302853,"(0.0, 0.0, 0.0, 0.0, 0.0, 0.0)",-0.06310249855607036,False,,,,,False,,,,
51,Close,,,"(1.5467563622979943e-07, 0.16999905637827833, 0.0008443414385907251)","(1.5708159610858068, 0.00013134778772846267, -1.4021000350500778e-05)",,"[-0.026750000193715096, 0.05299999937415123, 0.03999999910593033]","[0.0, -0.0, 0.6980597686270504]","[-0.07302673906087875, 0.10815852880477905, 0.03999999910593033]","[0.0, 0.0, -0.10333391736440195]","[0.026750000193715096, 0.05299999937415123, 0.03999999910593033]","[0.0, 0.0, -0.6980598246378259]","[0.07302674651145935, 0.10815852135419846, 0.03999999910593033]","[0.0, -0.0, 0.10333216753005534]",0.688253788716005,-2.353434365760135,"(0.0, 0.0, 0.0, 0.0, 0.0, 0.0)",0.4113266183832289,-0.8112552146648871,-2.366767077407574,"(0.0, 0.0, 0.0, 0.0, 0.0, 0.0)",0.056847265920317136,-0.6882538803545026,2.353436809453404,"(0.0, 0.0, 0.0, 0.0, 0.0, 0.0)",-0.41132748396878743,0.8112537426964256,2.3668063319966586,"(0.0, 0.0, 0.0, 0.0, 0.0, 0.0)",-0.05684776367314185,False,,,,,False,,,,
52,Close,,,"(1.4218689494125696e-07, 0.1699990574974982, 0.0008559357877455603)","(1.5708144388885492, 0.00011900551992286609, -1.4017852160383773e-05)",,"[-0.026750000193715096, 0.05299999937415123, 0.03999999910593033]","[0.0, -0.0, 0.6882538042795985]","[-0.07248364388942719, 0.10860966145992279, 0.03999999910593033]","[0.0, 0.0, -0.12300143806577217]","[0.026750000193715096, 0.05299999937415123, 0.03999999910593033]","[0.0, 0.0, -0.688253900607872]","[0.07248364388942719, 0.1086096540093422, 0.03999999910593033]","[0.0, -0.0, 0.1229998616385239]",0.6794284098444044,-2.11809092918412,"(0.0, 0.0, 0.0, 0.0, 0.0, 0.0)",0.3702598375873275,-0.8201305021143901,-2.1300689878806947,"(0.0, 0.0, 0.0, 0.0, 0.0, 0.0)",0.05120747879249893,-0.6794284923190523,2.1180931285080637,"(0.0, 0.0, 0.0, 0.0, 0.0, 0.0)",-0.3702606174541456,0.8201291773498638,2.130104316825182,"(0.0, 0.0, 0.0, 0.0, 0.0, 0.0)",-0.05120792756636835,False,,,,,False,,,,
53,Close,,,"(1.3069318359667655e-07, 0.16999905849308736, 0.0008666025576369797)","(1.5708130385376875, 0.00010764969664192631, -1.4014805279927747e-05)",,"[-0.026750000193715096, 0.05299999937415123, 0.03999999910593033]","[0.0, -0.0, 0.6794284238724229]","[-0.07199108600616455, 0.10901110619306564, 0.03999999910593033]","[0.0, 0.0, -0.1407020954927592]","[0.026750000193715096, 0.05299999937415123, 0.03999999910593033]","[0.0, 0.0, -0.6794284800706577]","[0.07199109345674515, 0.10901109874248505, 0.03999999910593033]","[0.0, -0.0, 0.1407007112178224]",0.671485568859964,-1.9062818362657072,"(0.0, 0.0, 0.0, 0.0, 0.0, 0.0)",0.3332871933363488,-0.8281181805019823,-1.917042813022114,"(0.0, 0.0, 0.0, 0.0, 0.0, 0.0)",0.04612310774265765,-0.6714856430871471,1.9062838156572566,"(0.0, 0.0, 0.0, 0.0, 0.0, 0.0)",-0.3332878958965228,0.828116988220299,1.9170746089044577,"(0.0, 0.0, 0.0, 0.0, 0.0, 0.0)",-0.04612351228394919,False,,,,,False,,,,
54,Close,,,"(1.2011427818573467e-07, 0.1699990593750375, 0.0008764159571230992)","(1.5708117502799932, 9.720147740155148e-05, -1.401184306968741e-05)",,"[-0.026750000193715096, 0.05299999937415123, 0.03999999910593033]","[0.0, -0.0, 0.6714856028191667]","[-0.07154478132724762, 0.10936867445707321, 0.03999999910593033]","[0.0, 0.0, -0.15663262369091477]","[0.026750000193715096, 0.05299999937415123, 0.03999999910593033]","[0.0, 0.0, -0.6714856028191667]","[0.07154478132724762, 0.10936867445707321, 0.03999999910593033]","[0.0, -0.0, 0.15663133126355527]",0.6643370119739677,-1.7156536526391368,"(0.0, 0.0, 0.0, 0.0, 0.0, 0.0)",0.30000165731264755,-0.8353070186560267,-1.7253211569706801,"(0.0, 0.0, 0.0, 0.0, 0.0, 0.0)",0.04154024050886632,-0.6643370787784324,1.7156554340915304,"(0.0, 0.0, 0.0, 0.0, 0.0, 0.0)",-0.3000022901674396,0.8353059456082715,1.7253497731133995,"(0.0, 0.0, 0.0, 0.0, 0.0, 0.0)",-0.04154060511812987,False,,,,,False,,,,
55,Close,,,"(1.1037647371961713e-07, 0.1699990601525258, 0.0008854442581503696)","(1.5708105651429198, 8.75883229318309e-05, -1.4008951527554161e-05)",,"[-0.026750000193715096, 0.05299999937415123, 0.03999999910593033]","[0.0, -0.0, 0.6643370606126838]","[-0.07114068418741226, 0.1096874549984932, 0.03999999910593033]","[0.0, 0.0, -0.17097000999252415]","[0.026750000193715096, 0.05299999937415123, 0.03999999910593033]","[0.0, 0.0, -0.6643370606126838]","[0.07114069163799286, 0.1096874475479126, 0.03999999910593033]","[0.0, -0.0, 0.17096887613011708]",0.6579033107765709,-1.5440882873752244,"(0.0, 0.0, 0.0, 0.0, 0.0, 0.0)",0.27003645056599995,-0.8417769077506775,-1.5527733827161674,"(0.0, 0.0, 0.0, 0.0, 0.0, 0.0)",0.03741004622933521,-0.6579033709005891,1.5440898906823783,"(0.0, 0.0, 0.0, 0.0, 0.0, 0.0)",-0.27003702058115214,0.8417759420128882,1.5527991371079841,"(0.0, 0.0, 0.0, 0.0, 0.0, 0.0)",-0.0374103748004003,False,,,,,False,,,,
56,Close,,,"(1.0141204624855539e-07, 0.16999906083398253, 0.0008937502707230196)","(1.5708094748721122, 7.874349156136534e-05, -1.4006118886059232e-05)",,"[-0.026750000193715096, 0.05299999937415123, 0.03999999910593033]","[0.0, -0.0, 0.6579033304946226]","[-0.07077505439519882, 0.10997187346220016, 0.03999999910593033]","[0.0, 0.0, -0.18387360768123304]","[0.026750000193715096, 0.05299999937415123, 0.03999999910593033]","[0.0, 0.0, -0.6579033304946226]","[0.07077506184577942, 0.10997187346220016, 0.03999999910593033]","[0.0, -0.0, 0.18387257679304547]",0.6521129796989138,-1.3896794586377028,"(0.0, 0.0, 0.0, 0.0, 0.0, 0.0)",0.24306110476118237,-0.8475997491444732,-1.397481934510973,"(0.0, 0.0, 0.0, 0.0, 0.0, 0.0)",0.03368832619544037,-0.6521130338105302,1.38968090161414,"(0.0, 0.0, 0.0, 0.0, 0.0, 0.0)",-0.24306161813579436,0.8475988799851396,1.397505113340336,"(0.0, 0.0, 0.0, 0.0, 0.0, 0.0)",-0.033688622251651854,False,,,,,False,,,,
57,Close,,,"(9.315876153061721e-08, 0.16999906142715257, 0.0009013917798735651)","(1.5708084718739261, 7.060557585751332e-05, -1.4003335250453235e-05)",,"[-0.026750000193715096, 0.05299999937415123, 0.03999999910593033]","[0.0, -0.0, 0.6521129301518677]","[-0.07044443488121033, 0.11022583395242691, 0.03999999910593033]","[0.0, 0.0, -0.19548677437984102]","[0.026750000193715096, 0.05299999937415123, 0.03999999910593033]","[0.0, 0.0, -0.6521129866161153]","[0.07044444233179092, 0.11022583395242691, 0.03999999910593033]","[0.0, -0.0, 0.19548584008754363]",0.6469016817290224,-1.2507115127739319,"(0.0, 0.0, 0.0, 0.0, 0.0, 0.0)",0.21877790092296176,-0.8528402534285088,-1.2577210281685454,"(0.0, 0.0, 0.0, 0.0, 0.0, 0.0)",0.030335098336970068,-0.6469017304294772,1.2507128114527255,"(0.0, 0.0, 0.0, 0.0, 0.0, 0.0)",-0.21877836325235864,0.852839471189322,1.2577418890037801,"(0.0, 0.0, 0.0, 0.0, 0.0, 0.0)",-0.030335365064644435,False,,,,,False,,,,
58,Close,,,"(8.555942405432807e-08, 0.169999061939152, 0.0009084219476744351)","(1.5708075491625455, 6.311807629780442e-05, -1.4000592316416861e-05)",,"[-0.026750000193715096, 0.05299999937415123, 0.03999999910593033]","[0.0, -0.0, 0.6469017074975589]","[-0.0701456218957901, 0.11045276373624802, 0.03999999910593033]","[0.0, 0.0, -0.20593858969436946]","[0.026750000193715096, 0.05299999937415123, 0.03999999910593033]","[0.0, 0.0, -0.6469017640113621]","[0.0701456293463707, 0.11045276373624802, 0.03999999910593033]","[0.0, -0.0, 0.20593772032056773]",0.6422115135561202,-1.1256403614965385,"(0.0, 0.0, 0.0, 0.0, 0.0, 0.0)",0.1969186510408751,-0.8575566595637385,-1.1319374724551214,"(0.0, 0.0, 0.0, 0.0, 0.0, 0.0)",0.02731421419325728,-0.6422115573865295,1.1256415303074527,"(0.0, 0.0, 0.0, 0.0, 0.0, 0.0)",-0.19691906737392695,0.857555955552266,1.1319562471065598,"(0.0, 0.0, 0.0, 0.0, 0.0, 0.0)",-0.027314454472476286,False,,,,,False,,,,
59,Move,,,"(7.856146458188082e-08, 0.16999906237651977, 0.0009148896830875328)","(1.570806700311329, 5.6229009013555825e-05, -1.3997883116536091e-05)","[0.0, 0.0, 0.0]","[-0.026750000193715096, 0.05299999937415123, 0.03999999910593033]","[0.0, -0.0, 0.6422115222668433]","[-0.06987567991018295, 0.11065566539764404, 0.03999999910593033]","[0.0, 0.0, -0.21534513059579152]","[0.026750000193715096, 0.05299999937415123, 0.03999999910593033]","[0.0, 0.0, -0.6422115222668433]","[0.06987568736076355, 0.11065565794706345, 0.03999999910593033]","[0.0, -0.0, 0.21534440667137278]",0.6379903622005081,-1.0130763253468844,"(0.0, 0.0, 0.0, 0.0, 0.0, 0.0)",0.1772417907685849,-0.8618013820989872,-1.0187334084596666,"(0.0, 0.0, 0.0, 0.0, 0.0, 0.0)",0.024593006844346194,-0.6379904016478766,1.0130773772767077,"(0.0, 0.0, 0.0, 0.0, 0.0, 0.0)",-0.1772421656598592,0.8618007484920809,1.0187503055555542,"(0.0, 0.0, 0.0, 0.0, 0.0, 0.0)",-0.024593223277222475,False,,,,,False,,,,
60,Move,,,"(7.401516409568614e-08, 0.16999906300717613, 0.0009208949427309998)","(1.5708059692049128, 5.171406878410257e-05, -1.3997173531974541e-05)","[-4.5463004861946844e-09, 6.306563604674409e-10, 6.005259643466999e-06]","[-0.026750000193715096, 0.05299999937415123, 0.03999999910593033]","[0.0, -0.0, 0.6379903239810443]","[-0.06963192671537399, 0.1108371913433075, 0.03999999910593033]","[0.0, 0.0, -0.22381105891447603]","[0.026750000193715096, 0.05299999937415123, 0.03999999910593033]","[0.0, 0.0, -0.6379904179642307]","[0.06963192671537399, 0.1108371838927269, 0.03999999910593033]","[0.0, -0.0, 0.2238103496281897]",0.6151106448132494,-5.491132172942081,"(0.0, 0.0, 0.0, 0.0, 0.0, 0.0)",-6.452665442059406,-0.861376476584078,0.10197732357819667,"(0.0, 0.0, 0.0, 0.0, 0.0, 0.0)",-0.3678256872069871,-0.6151107211023206,5.49112333093344,"(0.0, 0.0, 0.0, 0.0, 0.0, 0.0)",6.4526488813456275,0.8613758359403874,-0.10197901240645368,"(0.0, 0.0, 0.0, 0.0, 0.0, 0.0)",0.367822569608967,False,,,,,False,,,,
61,Move,,,"(6.525914894996629e-05, 0.17034549924699985, 0.0010599972911332271)","(1.5643418948863228, 0.00019756758581128655, -0.0007979465667837037)","[6.51805874853844e-05, 0.0003464368704800824, 0.0001451076080456943]","[-0.026750000193715096, 0.05299999937415123, 0.03999999910593033]","[0.0, -0.0, 0.6151107619663475]","[-0.06829752027988434, 0.1118030920624733, 0.03999999910593033]","[0.0, 0.0, -0.24626583260412285]","[0.026750000193715096, 0.05299999937415123, 0.03999999910593033]","[0.0, 0.0, -0.6151107619663475]","[0.06829752773046494, 0.1118030920624733, 0.03999999910593033]","[0.0, -0.0, 0.24626512291062116]",0.5955752141317767,-4.688503363553432,"(0.0, 0.0, 0.0, 0.0, 0.0, 0.0)",-45.00497745022208,-0.8415870871192873,4.74945347154976,"(0.0, 0.0, 0.0, 0.0, 0.0, 0.0)",-23.059931371689494,-0.5955448491391095,4.695809271170633,"(0.0, 0.0, 0.0, 0.0, 0.0, 0.0)",43.23318294915852,0.8422035628153546,-4.6013455500078555,"(0.0, 0.0, 0.0, 0.0, 0.0, 0.0)",22.069641118304144,True,"(-0.03288697457750185, 0.18306431854655236, 0.03999994828593124)","(0.9999999985648673, -1.3997173514220156e-05, -5.1714068759940104e-05)",0.0009292531701883565,356.6339741532247,True,"(0.03288703015306213, 0.1830643680413066, 0.04000005171406876)","(-0.9999999985648671, 1.3997173511734106e-05, 5.171406875943059e-05)",0.0009247530823781432,342.7715265064245
62,Move,"(0.0, 0.0, 0.0)","(0.0, -0.0, 0.0)","(0.00016176907707885982, 0.1707693452917522, 0.0012989925378610815)","(1.5534591124871693, 0.0004787164858531117, -0.0016283525167942662)","[0.00016169051561427792, 0.0007702829152324286, 0.0003841028547735487]","[-0.026750000193715096, 0.05299999937415123, 0.03999999910593033]","[0.0, -0.0, 0.5955752013723817]","[-0.06714092195034027, 0.11260347068309784, 0.03999999910593033]","[0.0, 0.0, -0.24601191091095626]","[0.026750000193715096, 0.05299999937415123, 0.03999999910593033]","[0.0, 0.0, -0.5955448282145998]","[0.06713911145925522, 0.11260469257831573, 0.03999999910593033]","[0.0, -0.0, 0.24665871425412253]",0.5770970863026407,-4.434750678992653,"(0.0, 0.0, 0.0, 0.0, 0.0, 0.0)",-74.216991464433,-0.8118510477141068,7.136649457243333,"(0.0, 0.0, 0.0, 0.0, 0.0, 0.0)",-37.925886686416035,-0.5770027663054788,4.450099880071379,"(0.0, 0.0, 0.0, 0.0, 0.0, 0.0)",71.59542729703927,0.8135423522151852,-6.8786905440406345,"(0.0, 0.0, 0.0, 0.0, 0.0, 0.0)",36.48541574902841,True,"(-0.03174847508695295, 0.18387264798951586, 0.039999802432415486)","(0.9999996621241859, -0.0007979464665354236, -0.00019756758451820386)",-0.00012778851818418658,569.3447197200067,True,"(0.03170057208622861, 0.18385320898267102, 0.04000019756758453)","(-0.9999996621241859, 0.000797946466530682, 0.0001975675845268032)",-0.0003431686908733604,549.2894386560039
63,Move,"(0.0, 0.0, 0.0)","(0.0, -0.0, 0.0)","(0.00020568277152142672, 0.17108007810661616, 0.0015665957510685746)","(1.5453980215674303, 0.000111515188929202, -0.0017071052919336999)","[0.00020560421005684482, 0.0010810157300963907, 0.0006517060679810417]","[-0.026750000193715096, 0.05299999937415123, 0.03999999910593033]","[0.0, -0.0, 0.5770971029289548]","[-0.06603273004293442, 0.11333960294723511, 0.03999999910593033]","[0.0, 0.0, -0.23475396337288265]","[0.026750000193715096, 0.05299999937415123, 0.03999999910593033]","[0.0, 0.0, -0.5770027543990871]","[0.06602703779935837, 0.11334330588579178, 0.03999999910593033]","[0.0, -0.0, 0.23653958539744188]",0.5794049036230126,0.5538761568892605,"(0.0, 0.0, 0.0, 0.0, 0.0, 0.0)",6.463398382125684,-0.8148246516546248,-0.7136649457243331,"(0.0, 0.0, 0.0, 0.0, 0.0, 0.0)",-0.3132437639552526,-0.5792909173753424,-0.5491562567672865,"(0.0, 0.0, 0.0, 0.0, 0.0, 0.0)",-6.168526092763459,0.816398113125576,0.6853826184937892,"(0.0, 0.0, 0.0, 0.0, 0.0, 0.0)",0.4843279262270409,True,"(-0.031444796583357706, 0.18499061107506645, 0.03999952128353242)","(0.9999985596497506, -0.001628351610594178, -0.00047871646757696387)",-0.00031179525141168197,0.0,True,"(0.03131121408290698, 0.18493748302127025, 0.04000047871646757)","(-0.9999985596497506, 0.0016283516106173662, 0.0004787164675665853)",-0.0008521967977077762,2.6063763032467833
64,Move,"(0.0, 0.0, 0.0)","(0.0, -0.0, 0.0)","(0.00022863255556310164, 0.17132534566009866, 0.0017817809430945662)","(1.5389812530606066, -0.0005115561147247039, -0.0015040892334270146)","[0.00022855399409851975, 0.001326283283578894, 0.0008668912600070333]","[-0.026750000193715096, 0.05299999937415123, 0.03999999910593033]","[0.0, -0.0, 0.579404963823502]","[-0.06617187708616257, 0.1132487803697586, 0.03999999910593033]","[0.0, 0.0, -0.23541975218355068]","[0.026750000193715096, 0.05299999937415123, 0.03999999910593033]","[0.0, 0.0, -0.5792908612503161]","[0.0661650076508522, 0.11325327306985855, 0.03999999910593033]","[0.0, -0.0, 0.23710717397414022]",0.5797513808116179,0.08315452526530098,"(0.0, 0.0, 0.0, 0.0, 0.0, 0.0)",-0.6050375367812804,-0.814527291260573,0.07136649457243294,"(0.0, 0.0, 0.0, 0.0, 0.0, 0.0)",0.034421400468785654,-0.5795726218654018,-0.06760907761424056,"(0.0, 0.0, 0.0, 0.0, 0.0, 0.0)",0.7665063091919545,0.8161097861675795,-0.0691984699191669,"(0.0, 0.0, 0.0, 0.0, 0.0, 0.0)",0.053855342944198144,True,"(-0.03153624672337042, 0.1848773360806098, 0.03999988848481131)","(0.9999985366783054, -0.0017071044521785321, -0.00011151518869260015)",-0.00019027688613627917,0.0,True,"(0.03140855455848045, 0.18482838312462146, 0.040000111515188716)","(-0.9999985366783054, 0.0017071044521866892, 0.00011151518871161896)",-0.00078492877512987,1.0848291031633404
65,Move,"(0.0, 0.0, 0.0)","(0.0, -0.0, 0.0)","(0.0002237996286518909, 0.17150000256917627, 0.001940649622605571)","(1.5343522258309124, -0.00047651116634681256, 0.0001421111770942923)","[0.00022372106718730902, 0.001500940192656508, 0.0010257599395180382]","[-0.026750000193715096, 0.05299999937415123, 0.03999999910593033]","[0.0, -0.0, 0.5797513227663355]","[-0.06619274616241455, 0.11323511600494385, 0.03999999910593033]","[0.0, 0.0, -0.23477592089543164]","[0.026750000193715096, 0.05299999937415123, 0.03999999910593033]","[0.0, 0.0, -0.5795726052946306]","[0.066181980073452, 0.11324217170476913, 0.03999999910593033]","[0.0, -0.0, 0.2365371594096435]",0.5800025616547534,0.060283402352518105,"(0.0, 0.0, 0.0, 0.0, 0.0, 0.0)",-0.08748273569737293,-0.8144858392632507,0.009948479357356231,"(0.0, 0.0, 0.0, 0.0, 0.0, 0.0)",-0.03698050673507062,-0.5797525491516632,-0.043182548702726024,"(0.0, 0.0, 0.0, 0.0, 0.0, 0.0)",0.48238937928899434,0.8160161547367439,-0.022471543400536233,"(0.0, 0.0, 0.0, 0.0, 0.0, 0.0)",0.2704517896335122,True,"(-0.031603244206664965, 0.1848855177353106, 0.04000051155609242)","(0.9999987380133237, -0.0015040884695228407, 0.0005115560924198289)",-0.00012731792398353096,0.35999952617233855,True,"(0.031466330982812346, 0.18483630494496486, 0.039999488443907584)","(-0.9999987380133238, 0.0015040884695226016, -0.0005115560924128912)",-0.0007231113600530659,3.369662367872243
66,Move,"(0.0, 0.0, 0.0)","(0.0, -0.0, 0.0)","(0.00022550507066505346, 0.17161324240666584, 0.0020486395441768872)","(1.5313204641955769, -0.00043510357821182905, 0.0014802280864010073)","[0.00022542650920047156, 0.001614180030146073, 0.0011337498610893544]","[-0.026750000193715096, 0.05299999937415123, 0.03999999910593033]","[0.0, -0.0, 0.5800025345126305]","[-0.0662078782916069, 0.11322520673274994, 0.03999999910593033]","[0.0, 0.0, -0.23448325220259242]","[0.026750000193715096, 0.05299999937415123, 0.03999999910593033]","[0.0, 0.0, -0.5797525332723408]","[0.06619282066822052, 0.11323507130146027, 0.03999999910593033]","[0.0, -0.0, 0.23626362585639601]",0.5803648053801903,0.08693849410486276,"(0.0, 0.0, 0.0, 0.0, 0.0, 0.0)",0.037953685794621196,-0.8144899844629829,-0.0009948479357353435,"(0.0, 0.0, 0.0, 0.0, 0.0, 0.0)",0.0017222031438220934,-0.5800418801404819,-0.06943943731646907,"(0.0, 0.0, 0.0, 0.0, 0.0, 0.0)",-7.85936063081691e-05,0.8160185237391518,0.000568560577887671,"(0.0, 0.0, 0.0, 0.0, 0.0, 0.0)",0.02104360216469283,True,"(-0.03163934086962272, 0.18488708109643395, 0.040000476511148325)","(0.999999876370764, 0.0001421111604871146, 0.00047651114831934996)",-0.00011690101480212677,0.0,True,"(0.03149675446595741, 0.18483678341229268, 0.0399995234888517)","(-0.999999876370764, -0.00014211116047522937, -0.00047651114830566093)",-0.0006670174346345283,0.2746050167511358
67,Move,"(0.0, 0.0, 0.0)","(0.0, -0.0, 0.0)","(0.0002327584913457293, 0.17166561651237805, 0.002105583310776133)","(1.5299033965650388, -0.00040139991353901455, 0.002441042839548263)","[0.0002326799298811474, 0.0016665541358582836, 0.0011906936276886001]","[-0.026750000193715096, 0.05299999937415123, 0.03999999910593033]","[0.0, -0.0, 0.5803648224707226]","[-0.0662296935915947, 0.11321090906858444, 0.03999999910593033]","[0.0, 0.0, -0.23412518280782485]","[0.026750000193715096, 0.05299999937415123, 0.03999999910593033]","[0.0, 0.0, -0.580041927182697]","[0.06621024757623672, 0.11322365701198578, 0.03999999910593033]","[0.0, -0.0, 0.23597665124909928]",0.5807703725549995,0.09733612195419906,"(0.0, 0.0, 0.0, 0.0, 0.0, 0.0)",0.015408122277266975,-0.8144895699430097,9.94847935738008e-05,"(0.0, 0.0, 0.0, 0.0, 0.0, 0.0)",0.0012603606999926054,-0.5803664136592744,-0.07788804451022853,"(0.0, 0.0, 0.0, 0.0, 0.0, 0.0)",0.06291427361658022,0.8159977732678637,-0.004980113109160195,"(0.0, 0.0, 0.0, 0.0, 0.0, 0.0)",0.043490476144590576,True,"(-0.031686819662577914, 0.1848861381415658, 0.04000043510356449)","(0.9999988098051494, 0.00148022740573809, 0.0004351035644904234)",-8.387230296911206e-05,0.0,True,"(0.03153473015152192, 0.18483369728658094, 0.03999956489643551)","(-0.9999988098051494, -0.001480227405741159, -0.0004351035644923483)",-0.0006147295094766097,0.5799288029600264
68,Move,"(0.0, 0.0, 0.0)","(0.0, -0.0, 0.0)","(0.00023897918944175954, 0.1716712039614676, 0.00211121035281495)","(1.5301153763509245, -0.0003762970767464603, 0.0027135199159169384)","[0.00023890062797717764, 0.0016721415849478283, 0.0011963206697274173]","[-0.026750000193715096, 0.05299999937415123, 0.03999999910593033]","[0.0, -0.0, 0.5807703962881401]","[-0.06625410914421082, 0.11319489777088165, 0.03999999910593033]","[0.0, 0.0, -0.23371923486214696]","[0.026750000193715096, 0.05299999937415123, 0.03999999910593033]","[0.0, 0.0, -0.580366420832635]","[0.06622979044914246, 0.11321084946393967, 0.03999999910593033]","[0.0, -0.0, 0.23563137578644816]",0.5812058003394712,0.10450266827321021,"(0.0, 0.0, 0.0, 0.0, 0.0, 0.0)",0.010534819345047377,-0.814489611395007,-9.948479357646534e-06,"(0.0, 0.0, 0.0, 0.0, 0.0, 0.0)",0.0007748822467584245,-0.580712487388618,-0.08305769504246117,"(0.0, 0.0, 0.0, 0.0, 0.0, 0.0)",0.12391980951428612,0.8159667299556816,-0.007450394923687021,"(0.0, 0.0, 0.0, 0.0, 0.0, 0.0)",0.0730369688600886,True,"(-0.03174033884651257, 0.18488469422137718, 0.04000040139990275)","(0.999996940095703, 0.002441040218651609, 0.0004013999027532042)",-3.4478962177767885e-05,0.0,True,"(0.03157900285662958, 0.18483155047792127, 0.03999959860009724)","(-0.9999969400957028, -0.0024410402186758723, -0.0004013999027593822)",-0.0005665015116263261,1.0022392673791496
69,Move,"(0.0, 0.0, 0.0)","(0.0, -0.0, 0.0)","(0.0002461387598469681, 0.17166712349735871, 0.002065755396947279)","(1.5319446656696907, -0.00034958993653170617, 0.0029410057083286948)","[0.0002460601983823862, 0.0016680611208389484, 0.0011508657138597463]","[-0.026750000193715096, 0.05299999937415123, 0.03999999910593033]","[0.0, -0.0, 0.5812058059400319]","[-0.0662803128361702, 0.11317768692970276, 0.03999999910593033]","[0.0, 0.0, -0.23328378616676293]","[0.026750000193715096, 0.05299999937415123, 0.03999999910593033]","[0.0, 0.0, -0.5807125062168941]","[0.06625062227249146, 0.11319718509912491, 0.03999999910593033]","[0.0, -0.0, 0.2352542477604336]",0.5816569133784772,0.10826712936143768,"(0.0, 0.0, 0.0, 0.0, 0.0, 0.0)",0.005552308371592461,-0.814489695226737,-2.0119615201882413e-05,"(0.0, 0.0, 0.0, 0.0, 0.0, 0.0)",0.00041329536551545926,-0.5810634740427746,-0.08423679699757372,"(0.0, 0.0, 0.0, 0.0, 0.0, 0.0)",-0.0007895906124994621,0.8159686109487845,0.00045143834467251554,"(0.0, 0.0, 0.0, 0.0, 0.0, 0.0)",0.000783239428396082,True,"(-0.0317977611944352, 0.18488234444881307, 0.040000376297067854)","(0.9999962476076086, 0.0027135163937769516, 0.0003762970678508271)",2.651475233372985e-05,0.0,True,"(0.03162685127740922, 0.1848302966712882, 0.03999962370293212)","(-0.9999962476076084, -0.0027135163937615945, -0.00037629706787936987)",-0.000522280167780706,0.0007319037591125701
70,Move,"(0.0, 0.0, 0.0)","(0.0, -0.0, 0.0)","(0.00025327343977822164, 0.171659543805691, 0.001969181426699923)","(1.5353965789198187, -0.0003237864314785592, 0.0031681611455652843)","[0.00025319487831363974, 0.0016604814291712455, 0.0010542917436123904]","[-0.026750000193715096, 0.05299999937415123, 0.03999999910593033]","[0.0, -0.0, 0.5816569383050548]","[-0.06630745530128479, 0.11315985023975372, 0.03999999910593033]","[0.0, 0.0, -0.2328327670563111]","[0.026750000193715096, 0.05299999937415123, 0.03999999910593033]","[0.0, 0.0, -0.5810634668521766]","[0.06627175211906433, 0.11318331211805344, 0.03999999910593033]","[0.0, -0.0, 0.23490515445532298]",0.5821082378657088,0.10831787693556993,"(0.0, 0.0, 0.0, 0.0, 0.0, 0.0)",0.00010328357269491769,-0.8144897157093919,-4.915837181395493e-06,"(0.0, 0.0, 0.0, 0.0, 0.0, 0.0)",9.413172827406931e-06,-0.58141098419951,-0.08340243761648482,"(0.0, 0.0, 0.0, 0.0, 0.0, 0.0)",0.0011470728455663596,0.8159683225691505,-6.921111215640809e-05,"(0.0, 0.0, 0.0, 0.0, 0.0, 0.0)",3.270150507102748e-05,True,"(-0.03185724781944671, 0.18487982748842458, 0.04000034958992941)","(0.9999956141395321, 0.002941001288896877, 0.0003495899294104972)",9.112645796502966e-05,0.0,True,"(0.03167298840646239, 0.18482793517210516, 0.03999965041007059)","(-0.9999956141395321, -0.002941001288900693, -0.0003495899294109558)",-0.0004813201041644832,0.0
71,Move,"(0.0, 0.0, 0.0)","(0.0, -0.0, 0.0)","(0.00026040061483624424, 0.17164893124235925, 0.00182158013927238)","(1.5404725735745992, -0.0002995276374360212, 0.0033944154601812365)","[0.00026032205337166235, 0.0016498688658394822, 0.0009066904561848472]","[-0.026750000193715096, 0.05299999937415123, 0.03999999910593033]","[0.0, -0.0, 0.5821083103719297]","[-0.06633460521697998, 0.1131419911980629, 0.03999999910593033]","[0.0, 0.0, -0.23238149440184702]","[0.026750000193715096, 0.05299999937415123, 0.03999999910593033]","[0.0, 0.0, -0.5814109792903371]","[0.0662926584482193, 0.11316957324743271, 0.03999999910593033]","[0.0, -0.0, 0.23455733299035258]",0.5825522977107963,0.10657436282101518,"(0.0, 0.0, 0.0, 0.0, 0.0, 0.0)",-0.002518215713920918,-0.8144891796605105,0.0001286517315395953,"(0.0, 0.0, 0.0, 0.0, 0.0, 0.0)",-0.0001741380881607846,-0.5817468655254737,-0.08061151823129988,"(0.0, 0.0, 0.0, 0.0, 0.0, 0.0)",0.004062110895641569,0.8159674649867111,-0.00020581978545164517,"(0.0, 0.0, 0.0, 0.0, 0.0, 0.0)",0.0002890625022577207,True,"(-0.031916765679505896, 0.18487728417866023, 0.040000323786425825)","(0.9999949289631126, 0.0031681556795633285, 0.00032378642582775864)",0.0001556869681601302,0.0,True,"(0.03171882196658361, 0.18482565144250013, 0.03999967621357418)","(-0.9999949289631127, -0.0031681556795639973, -0.0003237864258262596)",-0.0004405841882661253,0.0
72,Move,"(0.0, 0.0, 0.0)","(0.0, -0.0, 0.0)","(0.00026751929400690777, 0.17163596794620686, 0.0016229580999214358)","(1.5471731034631837, -0.0002774135591614632, 0.003619881955648369)","[0.00026744073254232587, 0.001636905569687097, 0.000708068416833903]","[-0.026750000193715096, 0.05299999937415123, 0.03999999910593033]","[0.0, -0.0, 0.5825523291625185]","[-0.06636130809783936, 0.11312440782785416, 0.03999999910593033]","[0.0, 0.0, -0.23193689295565076]","[0.026750000193715096, 0.05299999937415123, 0.03999999910593033]","[0.0, 0.0, -0.5817468907668804]","[0.06631287187337875, 0.1131562888622284, 0.03999999910593033]","[0.0, -0.0, 0.23422058649757474]",0.5829814432223599,0.102994922775272,"(0.0, 0.0, 0.0, 0.0, 0.0, 0.0)",-0.005242183106940513,-0.8144891474530722,7.729785190916958e-06,"(0.0, 0.0, 0.0, 0.0, 0.0, 0.0)",-0.0004031265574529317,-0.5820634744437609,-0.07598614038893549,"(0.0, 0.0, 0.0, 0.0, 0.0, 0.0)",0.006793122168156229,0.8159674385962579,-6.333708792132377e-06,"(0.0, 0.0, 0.0, 0.0, 0.0, 0.0)",0.0005268487654335963,True,"(-0.031975364263829506, 0.18487477691553872, 0.040000299527632954)","(0.9999941941192293, 0.0033944087894824527, 0.0002995276329555704)",0.00021924902462849846,0.0,True,"(0.03176316266602002, 0.1848234417107472, 0.039999700472367054)","(-0.9999941941192293, -0.003394408789479519, -0.00029952763294800944)",-0.00040126496273234174,0.0
73,Move,"(0.0, 0.0, 0.0)","(0.0, -0.0, 0.0)","(0.00027462724007358747, 0.17162158179961698, 0.0013733123836479743)","(1.5554985174136766, -0.0002580401041830133, 0.0038446507604489866)","[0.0002745486786090056, 0.0016225194230972129, 0.00045842270056044147]","[-0.026750000193715096, 0.05299999937415123, 0.03999999910593033]","[0.0, -0.0, 0.5829814129395106]","[-0.0663871094584465, 0.11310740560293198, 0.03999999910593033]","[0.0, 0.0, -0.23150771094266998]","[0.026750000193715096, 0.05299999937415123, 0.03999999910593033]","[0.0, 0.0, -0.5820634712316858]","[0.06633191555738449, 0.11314376443624496, 0.03999999910593033]","[0.0, -0.0, 0.23390394761742292]",0.5833876573460162,0.0974913896775149,"(0.0, 0.0, 0.0, 0.0, 0.0, 0.0)",-0.008052545629511987,-0.8144890233188733,2.979220774828776e-05,"(0.0, 0.0, 0.0, 0.0, 0.0, 0.0)",-0.0005982842068243348,-0.5823528706151218,-0.06945508112658684,"(0.0, 0.0, 0.0, 0.0, 0.0, 0.0)",0.009567306002795989,0.815967289970204,-3.567025294776323e-05,"(0.0, 0.0, 0.0, 0.0, 0.0, 0.0)",0.000710608618448799,True,"(-0.03203195879636084, 0.1848723197272823, 0.04000027741355561)","(0.9999934097555788, 0.003619873910818436, 0.0002774135556081094)",0.0002807057270396518,0.0,True,"(0.031804902591986775, 0.18482130670412136, 0.0399997225864444)","(-0.9999934097555789, -0.0036198739108118136, -0.0002774135555981122)",-0.00036444823140146447,0.0
74,Move,"(0.0, 0.0, 0.0)","(0.0, -0.0, 0.0)","(0.0002817207982014786, 0.17160694686531305, 0.001072640296024074)","(1.5654490095498959, -0.00024199966530436668, 0.0040687819880146255)","[0.0002816422367368967, 0.0016078844887932875, 0.00015775061293654127]","[-0.026750000193715096, 0.05299999937415123, 0.03999999910593033]","[0.0, -0.0, 0.583387637482778]","[-0.06641151756048203, 0.11309129744768143, 0.03999999910593033]","[0.0, 0.0, -0.23110137443740703]","[0.026750000193715096, 0.05299999937415123, 0.03999999910593033]","[0.0, 0.0, -0.5823528193172774]","[0.0663493201136589, 0.1131323054432869, 0.03999999910593033]","[0.0, -0.0, 0.2336144285403786]",0.5837626070435377,0.08998792740515428,"(0.0, 0.0, 0.0, 0.0, 0.0, 0.0)",-0.010991827001304029,-0.8144888614218506,3.8855285454326775e-05,"(0.0, 0.0, 0.0, 0.0, 0.0, 0.0)",-0.000818870336933757,-0.5826068009270411,-0.06094327486064355,"(0.0, 0.0, 0.0, 0.0, 0.0, 0.0)",0.012479548988293706,0.8159671068680779,-4.394451024144591e-05,"(0.0, 0.0, 0.0, 0.0, 0.0, 0.0)",0.0009299927409104452,True,"(-0.032085534948365045, 0.18486998593396692, 0.0400002580401013)","(0.9999925760472673, 0.003844641160937293, 0.0002580401013086735)",0.0003390200985207302,0.0,True,"(0.031843063455785484, 0.18481932913290058, 0.03999974195989868)","(-0.9999925760472672, -0.0038446411609447013, -0.0002580401013165318)",-0.000331089565216458,0.0
75,Move,"(0.0, 0.0, 0.0)","(0.0, -0.0, 0.0)","(0.0002335126651689572, 0.17165122396461255, 0.0009552758473716282)","(1.5713667327293013, 0.0016860859536371707, 0.005674314913392067)","[0.0002334341037043753, 0.001652161588092782, 4.0386164284095336e-05]","[-0.026750000193715096, 0.05299999937415123, 0.03999999910593033]","[0.0, -0.0, 0.5837626448013279]","[-0.06643404811620712, 0.11307641863822937, 0.03999999910593033]","[0.0, 0.0, -0.2307262654742746]","[0.026750000193715096, 0.05299999937415123, 0.03999999910593033]","[0.0, 0.0, -0.582606793904136]","[0.066364586353302, 0.11312224715948105, 0.03999999910593033]","[0.0, -0.0, 0.233360307122404]",0.5840975693350949,0.0803909499737374,"(0.0, 0.0, 0.0, 0.0, 0.0, 0.0)",-0.014073274321130886,-0.8144888776115529,-3.885528544245176e-06,"(0.0, 0.0, 0.0, 0.0, 0.0, 0.0)",-0.0010539988779381675,-0.5828179499872346,-0.05067577444643931,"(0.0, 0.0, 0.0, 0.0, 0.0, 0.0)",0.8188416284116538,0.8159428794704565,-0.0058145754291536,"(0.0, 0.0, 0.0, 0.0, 0.0, 0.0)",0.4205268795641711,True,"(-0.03213499017661762, 0.18486783068104506, 0.04000024199966294)","(0.9999916932363101, 0.0040687706424386546, 0.00024199966294177983)",0.00039306654682690187,0.0,True,"(0.031876551169737866, 0.184817559673531, 0.03999975800033705)","(-0.99999169323631, -0.004068770642436687, -0.00024199966294761934)",-0.0003022599651075854,6.081926698957434
76,Move,"(0.0, 0.0, 0.0)","(0.0, -0.0, 0.0)","(0.00023343873597927713, 0.1716497988485619, 0.0010026241931090209)","(1.5727607204556735, 0.001551190512937324, 0.0056743409398418545)","[0.00023336017451469523, 0.0016507364720421414, 8.773451002148805e-05]","[-0.026750000193715096, 0.05299999937415123, 0.03999999910593033]","[0.0, -0.0, 0.5840976199881289]","[-0.06645417213439941, 0.11306312680244446, 0.03999999910593033]","[0.0, 0.0, -0.2303913021057239]","[0.026750000193715096, 0.05299999937415123, 0.03999999910593033]","[0.0, 0.0, -0.5828179388692861]","[0.06637728214263916, 0.1131138801574707, 0.03999999910593033]","[0.0, -0.0, 0.2331248899705179]",0.5843833435284225,0.06858580639859824,"(0.0, 0.0, 0.0, 0.0, 0.0, 0.0)",-0.01731276346454442,-0.8144888759919515,3.887043195697511e-07,"(0.0, 0.0, 0.0, 0.0, 0.0, 0.0)",-0.0012909049144452195,-0.582974403760325,-0.03754890554172618,"(0.0, 0.0, 0.0, 0.0, 0.0, 0.0)",0.019968220086967806,0.8159455473571268,0.0006402928008662637,"(0.0, 0.0, 0.0, 0.0, 0.0, 0.0)",0.0021436004205548213,True,"(-0.03217916725659939, 0.1848672895224293, 0.039998313914845256)","(0.9999824796986265, 0.005674276397648592, -0.0016860851547450214)",0.00044295113108424846,0.0,True,"(0.031906131529954, 0.18481546855570996, 0.04000168608515476)","(-0.9999824796986265, -0.005674276397641332, 0.0016860851547562511)",-0.00027907324809543327,0.0
77,Move,"(0.0, 0.0, 0.0)","(0.0, -0.0, 0.0)","(0.00023331560442920875, 0.17165005198152689, 0.000999095475145805)","(1.572522180784735, 0.0014271329025951863, 0.005673845572389628)","[0.00023323704296462685, 0.0016509896050071193, 8.420579205827223e-05]","[-0.026750000193715096, 0.05299999937415123, 0.03999999910593033]","[0.0, -0.0, 0.5843833827079373]","[-0.06647133082151413, 0.11305177956819534, 0.03999999910593033]","[0.0, 0.0, -0.23010556422067874]","[0.026750000193715096, 0.05299999937415123, 0.03999999910593033]","[0.0, 0.0, -0.5829743793410241]","[0.06638668477535248, 0.11310768127441406, 0.03999999910593033]","[0.0, -0.0, 0.23297113950955778]",0.5846589647910972,0.06614910304195919,"(0.0, 0.0, 0.0, 0.0, 0.0, 0.0)",-0.0035607769328266283,-0.8144888761539116,-3.887043213418125e-08,"(0.0, 0.0, 0.0, 0.0, 0.0, 0.0)",-0.00026558892467322436,-0.583099432108772,-0.03000680362727426,"(0.0, 0.0, 0.0, 0.0, 0.0, 0.0)",0.010991154097683725,0.8159454189097941,-3.082735982580043e-05,"(0.0, 0.0, 0.0, 0.0, 0.0, 0.0)",0.0007518457080141975,True,"(-0.032216849538394654, 0.18486544693413476, 0.03999844881010914)","(0.999982697894252, 0.005674303662613423, -0.0015511898908684722)",0.0004752279558698048,0.0,True,"(0.03192656383080442, 0.18481441450024294, 0.04000155118989086)","(-0.9999826978942521, -0.005674303662618326, 0.0015511898908574585)",-0.00025321716626013703,0.0
78,Move,"(0.0, 0.0, 0.0)","(0.0, -0.0, 0.0)","(0.00023319432111932852, 0.17165047039989287, 0.0009895082211110343)","(1.5721019126175024, 0.001301230010633783, 0.0056728115600280194)","[0.00023311575965474663, 0.001651408023373102, 7.461853802350144e-05]","[-0.026750000193715096, 0.05299999937415123, 0.03999999910593033]","[0.0, -0.0, 0.5846589377019289]","[-0.0664878785610199, 0.11304082721471786, 0.03999999910593033]","[0.0, 0.0, -0.22982987984743167]","[0.026750000193715096, 0.05299999937415123, 0.03999999910593033]","[0.0, 0.0, -0.5830994769155812]","[0.06639419496059418, 0.11310272663831711, 0.03999999910593033]","[0.0, -0.0, 0.23284597227857248]",0.5849274118955818,0.06442730507630755,"(0.0, 0.0, 0.0, 0.0, 0.0, 0.0)",-0.0025116580195049796,-0.8144888761212602,7.83634282936359e-09,"(0.0, 0.0, 0.0, 0.0, 0.0, 0.0)",-0.00018728744436290496,-0.5832218721487532,-0.029385609595474094,"(0.0, 0.0, 0.0, 0.0, 0.0, 0.0)",0.0009095641850229189,0.815945475689735,1.3627185815109566e-05,"(0.0, 0.0, 0.0, 0.0, 0.0, 0.0)",7.234038181920237e-05,True,"(-0.03225319245014871, 0.1848636590294965, 0.03999857286758185)","(0.9999828854437955, 0.005673809351918449, -0.001427132418151257)",0.0005066388048655699,0.0,True,"(0.03194305405473611, 0.18481364601754544, 0.040001427132418166)","(-0.9999828854437954, -0.005673809351922026, 0.0014271324181615638)",-0.00023177720552004417,0.0
79,Move,"(0.0, 0.0, 0.0)","(0.0, -0.0, 0.0)","(0.00023288760293168665, 0.17165076252601857, 0.00098953673957329)","(1.5718291733262362, 0.0010291712053702102, 0.005671118047226586)","[0.00023280904146710476, 0.0016517001494988082, 7.464705648575721e-05]","[-0.026750000193715096, 0.05299999937415123, 0.03999999910593033]","[0.0, -0.0, 0.5849274020173293]","[-0.06650400161743164, 0.11303015798330307, 0.03999999910593033]","[0.0, 0.0, -0.22956146939707398]","[0.026750000193715096, 0.05299999937415123, 0.03999999910593033]","[0.0, 0.0, -0.5832218455236623]","[0.06640155613422394, 0.11309786885976791, 0.03999999910593033]","[0.0, -0.0, 0.23272359753592214]",0.5851971066548532,0.06472674222514058,"(0.0, 0.0, 0.0, 0.0, 0.0, 0.0)",0.0004556395037873151,-0.8144888761245254,-7.836344906309023e-10,"(0.0, 0.0, 0.0, 0.0, 0.0, 0.0)",3.40467488751735e-05,-0.5833476580078866,-0.03018860619201319,"(0.0, 0.0, 0.0, 0.0, 0.0, 0.0)",-0.0011879005826377026,0.8159454700117409,-1.362718580644181e-06,"(0.0, 0.0, 0.0, 0.0, 0.0, 0.0)",-9.014188476004111e-05,True,"(-0.032288588934464554, 0.18486190748789594, 0.03999869877035657)","(0.9999830630616235, 0.0056727763315732, -0.001301229643424697)",0.0005370476348540465,0.0,True,"(0.031959189721149694, 0.18481288588793182, 0.04000130122964343)","(-0.9999830630616237, -0.0056727763315781755, 0.0013012296434304386)",-0.00021063699243847382,0.0
80,Move,"(0.0, 0.0, 0.0)","(0.0, -0.0, 0.0)","(0.00023260727855851397, 0.17165103446220353, 0.0009895634964226883)","(1.571557041452747, 0.0007576670529049575, 0.005670082608699583)","[0.00023252871709393208, 0.0016519720856837672, 7.467381333515545e-05]","[-0.026750000193715096, 0.05299999937415123, 0.03999999910593033]","[0.0, -0.0, 0.585197065530767]","[-0.06652018427848816, 0.1130194291472435, 0.03999999910593033]","[0.0, 0.0, -0.22929177336072498]","[0.026750000193715096, 0.05299999937415123, 0.03999999910593033]","[0.0, 0.0, -0.5833476738944103]","[0.06640911847352982, 0.11309288442134857, 0.03999999910593033]","[0.0, -0.0, 0.23259779389808008]",0.5854681813358151,0.06505792343085924,"(0.0, 0.0, 0.0, 0.0, 0.0, 0.0)",0.0005023248795988373,-0.8144888761274963,-7.130385818551152e-10,"(0.0, 0.0, 0.0, 0.0, 0.0, 0.0)",3.7530640449091345e-05,-0.5834767492651527,-0.03098190174387483,"(0.0, 0.0, 0.0, 0.0, 0.0, 0.0)",-0.001171999942862159,0.815945472487394,5.941567551974935e-07,"(0.0, 0.0, 0.0, 0.0, 0.0, 0.0)",-8.723910268067585e-05,True,"(-0.032324149304882074, 0.18486013758222278, 0.03999897082897631)","(0.999983389665024, 0.005671084645198921, -0.0010291710236881915)",0.0005617328309054565,0.0,True,"(0.0319757706632864, 0.18481210570049944, 0.04000102917102368)","(-0.9999833896650238, -0.005671084645210919, 0.0010291710236840057)",-0.00018315379476109304,0.0
81,Move,"(0.0, 0.0, 0.0)","(0.0, -0.0, 0.0)","(0.00023235804593237406, 0.17165127363241714, 0.00098958939668723)","(1.5712854813300043, 0.0004867050134192812, 0.005670178150512339)","[0.00023227948446779217, 0.0016522112558973734, 7.469971359969725e-05]","[-0.026750000193715096, 0.05299999937415123, 0.03999999910593033]","[0.0, -0.0, 0.5854682128885929]","[-0.06653645634651184, 0.11300864815711975, 0.03999999910593033]","[0.0, 0.0, -0.22902067335680457]","[0.026750000193715096, 0.05299999937415123, 0.03999999910593033]","[0.0, 0.0, -0.5834767906566798]","[0.06641687452793121, 0.11308776587247849, 0.03999999910593033]","[0.0, -0.0, 0.23246870843453177]",0.5857383472181582,0.06483981176234485,"(0.0, 0.0, 0.0, 0.0, 0.0, 0.0)",-0.00030410683682915784,-0.8144888761271992,7.130296353363193e-11,"(0.0, 0.0, 0.0, 0.0, 0.0, 0.0)",-2.262375610907875e-05,-0.5836094623967533,-0.031851151584150146,"(0.0, 0.0, 0.0, 0.0, 0.0, 0.0)",-0.0012840045532120298,0.8159454722398287,-5.9415675046636807e-08,"(0.0, 0.0, 0.0, 0.0, 0.0, 0.0)",-9.58592346619072e-05,True,"(-0.03235989122169706, 0.18485834962274644, 0.039999242333019595)","(0.9999836380996187, 0.005670050599237113, -0.0007576669804052524)",0.0005866362365918339,0.0,True,"(0.03199278670788842, 0.184811301863041, 0.04000075766698041)","(-0.9999836380996187, -0.005670050599234728, 0.0007576669804134502)",-0.0001552775279701201,0.0
82,Move,"(0.0, 0.0, 0.0)","(0.0, -0.0, 0.0)","(0.00023210081921944413, 0.17165152025506564, 0.000989614691851133)","(1.5710144785813538, 0.00021629282492339528, 0.005670100547179602)","[0.00023202225775486224, 0.001652457878545871, 7.472500876360018e-05]","[-0.026750000193715096, 0.05299999937415123, 0.03999999910593033]","[0.0, -0.0, 0.5857382532494954]","[-0.06655266880989075, 0.11299789696931839, 0.03999999910593033]","[0.0, 0.0, -0.2287505468444818]","[0.026750000193715096, 0.05299999937415123, 0.03999999910593033]","[0.0, 0.0, -0.5836094699000467]","[0.06642484664916992, 0.11308249831199646, 0.03999999910593033]","[0.0, -0.0, 0.2323360125993014]",0.5860078418823664,0.06467871940996872,"(0.0, 0.0, 0.0, 0.0, 0.0, 0.0)",-0.0002204415338838743,-0.8144888761272283,-6.986903898223093e-12,"(0.0, 0.0, 0.0, 0.0, 0.0, 0.0)",-1.638330831753492e-05,-0.5837457499826236,-0.03270902060889558,"(0.0, 0.0, 0.0, 0.0, 0.0, 0.0)",-0.0012674311834755955,0.81594547226473,5.976300521919431e-09,"(0.0, 0.0, 0.0, 0.0, 0.0, 0.0)",-9.455088330700503e-05,True,"(-0.032395512907530545, 0.18485655914466317, 0.0399995132950058)","(0.999983806143962, 0.005670147095407302, -0.000486704994202279)",0.0006114538071306042,0.0,True,"(0.03201028034571596, 0.1848104721163856, 0.040000486704994204)","(-0.9999838061439621, -0.005670147095419687, 0.0004867049942011777)",-0.00012696370358264024,0.0
83,Move,"(0.0, 0.0, 0.0)","(0.0, -0.0, 0.0)","(0.0002319275176891393, 0.17165169475244357, 0.0009896928730057436)","(1.5708405222433104, 4.4728232619571706e-05, 0.005670094581175896)","[0.0002318489562245574, 0.001652632375923807, 7.480318991821074e-05]","[-0.026750000193715096, 0.05299999937415123, 0.03999999910593033]","[0.0, -0.0, 0.5860078253319974]","[-0.06656883656978607, 0.11298716813325882, 0.03999999910593033]","[0.0, 0.0, -0.22848104329684732]","[0.026750000193715096, 0.05299999937415123, 0.03999999910593033]","[0.0, 0.0, -0.5837457116332436]","[0.06643303483724594, 0.1130770891904831, 0.03999999910593033]","[0.0, -0.0, 0.2321997389097812]",0.5862766861655048,0.06452262795320075,"(0.0, 0.0, 0.0, 0.0, 0.0, 0.0)",-0.00021313932770063702,-0.8144888761272254,6.981082377784193e-13,"(0.0, 0.0, 0.0, 0.0, 0.0, 0.0)",-1.5838897256242425e-05,-0.5838855778802584,-0.03355869543235546,"(0.0, 0.0, 0.0, 0.0, 0.0, 0.0)",-0.0012556205196487854,0.8159454722622399,-5.976312777989088e-10,"(0.0, 0.0, 0.0, 0.0, 0.0, 0.0)",-9.367796484346693e-05,True,"(-0.03243104568134374, 0.18485476335372347, 0.03999978370717676)","(0.9999839016320433, 0.005670070032273791, -0.00021629282323734023)",0.0006361957950001927,0.0,True,"(0.03202824509405369, 0.1848096177721347, 0.040000216292823236)","(-0.9999839016320432, -0.005670070032275548, 0.00021629282323742653)",-9.819715871988546e-05,0.0
84,Move,"(-1e-05, 0.0, -5e-05)","(0.0, 0.016920967098085028, 0.0)","(0.00023191144256727304, 0.17165170970042054, 0.0009896046989664971)","(1.570827028754591, 2.8386584463627092e-05, 0.005670083111902301)","[0.00023183288110269115, 0.0016526473239007744, 7.471501587896431e-05]","[-0.026750000193715096, 0.05299999937415123, 0.03999999910593033]","[0.0, -0.0, 0.5862766437726725]","[-0.06658495962619781, 0.11297646164894104, 0.03999999910593033]","[0.0, 0.0, -0.2282121739114828]","[0.026750000193715096, 0.05299999937415123, 0.03999999910593033]","[0.0, 0.0, -0.5838855386378895]","[0.06644143164157867, 0.11307153850793839, 0.03999999910593033]","[0.0, -0.0, 0.23205988737975494]",0.5865448819449167,0.06436698705887291,"(0.0, 0.0, 0.0, 0.0, 0.0, 0.0)",-0.00021251702937704185,-0.8144888761272258,-6.927791663073065e-14,"(0.0, 0.0, 0.0, 0.0, 0.0, 0.0)",-1.5792767783800463e-05,-0.5840289519308823,-0.034409772149746255,"(0.0, 0.0, 0.0, 0.0, 0.0, 0.0)",-0.0012578889693493434,0.8159454722624889,5.976286132630939e-11,"(0.0, 0.0, 0.0, 0.0, 0.0, 0.0)",-9.38472533255723e-05,True,"(-0.032466492292015564, 0.18485296242645255, 0.0399999552717674)","(0.9999839240564965, 0.005670064193318668, -4.4728232600963815e-05)",0.0006647877879200904,0.0,True,"(0.032046676464947466, 0.18480873861788255, 0.040000044728232605)","(-0.9999839240564964, -0.005670064193327799, 4.47282326017065e-05)",-7.290527440949549e-05,0.0
85,Move,"(-0.00011000000000000002, 0.0, -9e-05)","(0.0, 0.03446676206838401, 0.0)","(0.00023190064725872272, 0.17165171994606593, 0.0009895364213594509)","(1.570818165413495, 1.732082720894234e-05, 0.0056700726607254335)","[0.00023182208579414083, 0.001652657569546162, 7.464673827191804e-05]","[-0.026750000193715096, 0.05299999937415123, 0.03999999910593033]","[0.0, -0.0, 0.5865448689982244]","[-0.06660104542970657, 0.11296577751636505, 0.03999999910593033]","[0.0, 0.0, -0.22794401265307235]","[0.026750000193715096, 0.05299999937415123, 0.03999999910593033]","[0.0, 0.0, -0.584029019531562]","[0.06645004451274872, 0.11306584626436234, 0.03999999910593033]","[0.0, -0.0, 0.23191653102058946]",0.5867549078334754,0.05040621325407538,"(0.0, 0.0, 0.0, 0.0, 0.0, 0.0)",-0.020482340249809317,-0.8144888761272258,7.993616576971205e-15,"(0.0, 0.0, 0.0, 0.0, 0.0, 0.0)",-0.001527803225462367,-0.5842180052723409,-0.04537280195006928,"(0.0, 0.0, 0.0, 0.0, 0.0, 0.0)",-0.016105266754598422,0.815945472262464,-5.97655258287989e-12,"(0.0, 0.0, 0.0, 0.0, 0.0, 0.0)",-0.001201375635708496,True,"(-0.03250185293671302, 0.18485115634261445, 0.03999997161341554)","(0.9999839247189266, 0.005670052727623057, -2.8386584461362532e-05)",0.0006995047986750926,0.0,True,"(0.03206557516518835, 0.18480783449684143, 0.040000028386584466)","(-0.9999839247189265, -0.005670052727623857, 2.838658445810096e-05)",-5.3358652651616744e-05,0.0
86,Move,"(-0.00021, 0.0, -0.00014000000000000001)","(0.0, 0.03446676206838401, 0.0)","(0.00023189401679150442, 0.17165172704306678, 0.000989498427651994)","(1.5708124689647192, 1.0401876920650199e-05, 0.0056700624924212)","[0.00023181545532692253, 0.0016526646665470102, 7.460874456446118e-05]","[-0.026750000193715096, 0.05299999937415123, 0.03999999910593033]","[0.0, -0.0, 0.5867549295008254]","[-0.06661363691091537, 0.11295740306377411, 0.03999999910593033]","[0.0, 0.0, -0.22773396566008333]","[0.026750000193715096, 0.05299999937415123, 0.03999999910593033]","[0.0, 0.0, -0.5842180817268815]","[0.06646139919757843, 0.11305834352970123, 0.03999999910593033]","[0.0, -0.0, 0.2317274709080379]",0.5869249118100129,0.040800954369021834,"(0.0, 0.0, 0.0, 0.0, 0.0, 0.0)",-0.014090730157267051,-0.8144888761272258,6.299807545203859e-21,"(0.0, 0.0, 0.0, 0.0, 0.0, 0.0)",-0.0010510495236484368,-0.5844231114784368,-0.04922548946301386,"(0.0, 0.0, 0.0, 0.0, 0.0, 0.0)",-0.0056680303806659425,0.8159454722624665,5.968558978267259e-13,"(0.0, 0.0, 0.0, 0.0, 0.0, 0.0)",-0.0004228314406438826,True,"(-0.03252954375269306, 0.18484973536372934, 0.03999998267917279)","(0.9999839250310748, 0.005670042278049374, -1.7320827209624672e-05)",0.0007267609597648277,0.0,True,"(0.032090494835351244, 0.18480663817416562, 0.04000001732082721)","(-0.9999839250310748, -0.0056700422780525716, 1.7320827208366604e-05)",-2.8003877881248554e-05,0.0
87,Move,"(-0.00031, 0.0, -0.00018)","(0.0, 0.03446676206838401, 0.0)","(0.00023188997279771786, 0.17165173216771587, 0.0009894787718268644)","(1.5708087554093777, 6.058987738511609e-06, 0.005670052469333052)","[0.00023181141133313596, 0.0016526697911961041, 7.458908873933154e-05]","[-0.026750000193715096, 0.05299999937415123, 0.03999999910593033]","[0.0, -0.0, 0.5869248781779463]","[-0.06662382930517197, 0.1129506304860115, 0.03999999910593033]","[0.0, 0.0, -0.22756400497938314]","[0.026750000193715096, 0.05299999937415123, 0.03999999910593033]","[0.0, 0.0, -0.5844231522255432]","[0.06647372245788574, 0.1130502000451088, 0.03999999910593033]","[0.0, -0.0, 0.23152232030148928]",0.5871145614683271,0.04551591799538964,"(0.0, 0.0, 0.0, 0.0, 0.0, 0.0)",0.006932952735508402,-0.8144888761272258,1.5087774372967225e-21,"(0.0, 0.0, 0.0, 0.0, 0.0, 0.0)",0.0005171815900393268,-0.5845971802368916,-0.04177650202914149,"(0.0, 0.0, 0.0, 0.0, 0.0, 0.0)",0.010925017571712591,0.8159454722624663,-5.861977675899945e-14,"(0.0, 0.0, 0.0, 0.0, 0.0, 0.0)",0.0008149075826950398,True,"(-0.03255195766985032, 0.18484858090166711, 0.039999989598123085)","(0.9999839251846339, 0.00567003211045003, -1.0401876918233307e-05)",0.0007489047006907918,0.0,True,"(0.03211753022409558, 0.18480533494022222, 0.04000001040187693)","(-0.9999839251846337, -0.005670032110456425, 1.0401876928745764e-05)",-6.999405906044137e-07,0.0
88,Move,"(-0.00039, 0.0, -0.00025)","(0.0, -0.0, 0.0)","(0.00023188626599777163, 0.17165173699448347, 0.0009894603479570906)","(1.5708053386130945, 2.0522152477982404e-06, 0.005670042493724588)","[0.00023180770453318973, 0.0016526746179637009, 7.457066486955778e-05]","[-0.026750000193715096, 0.05299999937415123, 0.03999999910593033]","[0.0, -0.0, 0.5871145915265974]","[-0.06663519889116287, 0.11294306814670563, 0.03999999910593033]","[0.0, 0.0, -0.22737431754362497]","[0.026750000193715096, 0.05299999937415123, 0.03999999910593033]","[0.0, 0.0, -0.5845971425364803]","[0.06648417562246323, 0.11304327845573425, 0.03999999910593033]","[0.0, -0.0, 0.23134832636174388]",0.5873189881415383,0.049062401570680834,"(0.0, 0.0, 0.0, 0.0, 0.0, 0.0)",0.005218473331473187,-0.8144888761272258,-3.3881317890172014e-21,"(0.0, 0.0, 0.0, 0.0, 0.0, 0.0)",0.00038929730348127937,-0.5847468201607685,-0.0359135817304574,"(0.0, 0.0, 0.0, 0.0, 0.0, 0.0)",0.008598087116525151,0.8159454722624663,5.329069724107363e-15,"(0.0, 0.0, 0.0, 0.0, 0.0, 0.0)",0.0006413419209885032,True,"(-0.03257696151028268, 0.18484728853475618, 0.039999993941012266)","(0.9999839252772085, 0.005670022087722665, -6.058987738262324e-06)",0.0007737421692790703,0.0,True,"(0.032140474305405724, 0.18480422456803575, 0.040000006058987736)","(-0.9999839252772083, -0.005670022087724473, 6.058987733147858e-06)",2.241078029133037e-05,0.0
89,Move,"(-0.00046, 0.0, -0.00030000000000000003)","(0.0, 0.03446676206838401, 0.0)","(0.00023188288104409422, 0.17165174154878843, 0.0009894433953636615)","(1.5708021951393922, -1.6341212054664537e-06, 0.005670032548965405)","[0.00023180431957951233, 0.0016526791722686618, 7.455371227612869e-05]","[-0.026750000193715096, 0.05299999937415123, 0.03999999910593033]","[0.0, -0.0, 0.5873189996347133]","[-0.06664744764566422, 0.112934909760952, 0.03999999910593033]","[0.0, 0.0, -0.2271698726796775]","[0.026750000193715096, 0.05299999937415123, 0.03999999910593033]","[0.0, 0.0, -0.5847468009156029]","[0.06649315357208252, 0.11303733289241791, 0.03999999910593033]","[0.0, -0.0, 0.23119868454837073]",0.5876427083094911,0.07769284030866706,"(0.0, 0.0, 0.0, 0.0, 0.0, 0.0)",0.04204959850788983,-0.8144888761272258,-1.5828928201814738e-20,"(0.0, 0.0, 0.0, 0.0, 0.0, 0.0)",0.0031366884780092232,-0.5847717747202019,-0.00598909426400817,"(0.0, 0.0, 0.0, 0.0, 0.0, 0.0)",0.04392863480726746,0.8159454722624663,1.3076071123238261e-20,"(0.0, 0.0, 0.0, 0.0, 0.0, 0.0)",0.003276800521699956,True,"(-0.03260391331083558, 0.18484589016019895, 0.03999999794778475)","(0.9999839253500199, 0.005670012112369894, -2.052215248664687e-06)",0.0008005416138255919,0.0,True,"(0.03216019825630409, 0.18480326683458098, 0.04000000205221524)","(-0.9999839253500199, -0.005670012112362719, 2.0522152420431386e-06)",4.2288840546841926e-05,0.0
90,Move,"(-0.00047000000000000004, 0.0, -0.00032)","(0.0, 0.01751786970226709, 0.0)","(0.00023187979208192706, 0.17165174585247586, 0.0009894277975853048)","(1.5707993030221898, -5.025716880848074e-06, 0.005670022629975995)","[0.00023180123061734517, 0.001652683475956096, 7.453811449777202e-05]","[-0.026750000193715096, 0.05299999937415123, 0.03999999910593033]","[0.0, -0.0, 0.5876427745173668]","[-0.0666668489575386, 0.11292199045419693, 0.03999999910593033]","[0.0, 0.0, -0.22684618666177325]","[0.026750000193715096, 0.05299999937415123, 0.03999999910593033]","[0.0, 0.0, -0.5847717723274984]","[0.0664946511387825, 0.11303634196519852, 0.03999999910593033]","[0.0, -0.0, 0.23117368115725814]",0.5878485787038517,0.049408894646546984,"(0.0, 0.0, 0.0, 0.0, 0.0, 0.0)",-0.04150938995452249,-0.8144888761272258,-1.291725244562808e-20,"(0.0, 0.0, 0.0, 0.0, 0.0, 0.0)",-0.0030962708854438783,-0.5848878785858337,-0.027864927751617277,"(0.0, 0.0, 0.0, 0.0, 0.0, 0.0)",-0.0321212901871179,0.8159454722624663,7.01862749751244e-21,"(0.0, 0.0, 0.0, 0.0, 0.0, 0.0)",-0.002396060751918685,True,"(-0.03264659228911602, 0.18484366449744744, 0.04000000163412121)","(0.9999839254071774, 0.005670002167771542, 1.6341212055824473e-06)",0.0008430854935818825,0.0,True,"(0.0321634874881991, 0.18480310684021262, 0.039999998365878794)","(-0.9999839254071774, -0.005670002167768953, -1.6341212029421264e-06)",4.5724148518645134e-05,0.0
91,Move,"(-0.00037000000000000005, 0.0, -0.00035000000000000005)","(0.0, 0.01751786970226709, 0.0)","(0.00023187697547285207, 0.17165174992553736, 0.0009894134439719126)","(1.5707966422673538, -8.14610980930531e-06, 0.005670012732658088)","[0.00023179841400827018, 0.0016526875490175952, 7.452376088437976e-05]","[-0.026750000193715096, 0.05299999937415123, 0.03999999910593033]","[0.0, -0.0, 0.5878485997792238]","[-0.06667918711900711, 0.11291377246379852, 0.03999999910593033]","[0.0, 0.0, -0.2266403365877766]","[0.026750000193715096, 0.05299999937415123, 0.03999999910593033]","[0.0, 0.0, -0.5848879295344316]","[0.06650162488222122, 0.11303173005580902, 0.03999999910593033]","[0.0, -0.0, 0.23105758969605103]",0.588122707500604,0.0657909112205818,"(0.0, 0.0, 0.0, 0.0, 0.0, 0.0)",0.02406558639704293,-0.8144888761272258,4.182225177068108e-21,"(0.0, 0.0, 0.0, 0.0, 0.0, 0.0)",0.001795186927521702,-0.5849463327095198,-0.014028989684657106,"(0.0, 0.0, 0.0, 0.0, 0.0, 0.0)",0.02030815513370298,0.8159454722624663,1.2387856853594142e-20,"(0.0, 0.0, 0.0, 0.0, 0.0, 0.0)",0.0015148583608342783,True,"(-0.032673733682650356, 0.18484224189285386, 0.04000000502571688)","(0.9999839254521244, 0.005669992248878802, 5.02571687852651e-06)",0.0008700992766680111,0.0,True,"(0.03217879095340823, 0.18480236133291172, 0.03999999497428312)","(-0.9999839254521243, -0.005669992248880999, -5.025716875591333e-06)",6.115838430063056e-05,0.0
92,Move,"(-0.00021, 0.0, -0.0004)","(0.0, -0.0, 0.0)","(0.00023187440942229202, 0.17165175378643352, 0.0009894002352760585)","(1.5707941943663373, -1.1016986602576474e-05, 0.0056700028534337745)","[0.00023179584795771012, 0.0016526914099137535, 7.451055218852566e-05]","[-0.026750000193715096, 0.05299999937415123, 0.03999999910593033]","[0.0, -0.0, 0.588122693654074]","[-0.06669560819864273, 0.11290282756090164, 0.03999999910593033]","[0.0, 0.0, -0.22636615605895036]","[0.026750000193715096, 0.05299999937415123, 0.03999999910593033]","[0.0, 0.0, -0.5849463333939008]","[0.06650513410568237, 0.11302940547466278, 0.03999999910593033]","[0.0, -0.0, 0.23099913743903386]",0.5883664372455883,0.058495138796232866,"(0.0, 0.0, 0.0, 0.0, 0.0, 0.0)",-0.010695901829498889,-0.8144888761272258,-8.470329472543003e-22,"(0.0, 0.0, 0.0, 0.0, 0.0, 0.0)",-0.0007977895405355844,-0.5850261795310809,-0.019163237174668956,"(0.0, 0.0, 0.0, 0.0, 0.0, 0.0)",-0.007541950148915605,0.8159454722624663,-5.0954325733266505e-22,"(0.0, 0.0, 0.0, 0.0, 0.0, 0.0)",-0.0005625881619788309,True,"(-0.03270987362283831, 0.1848403389390685, 0.040000008146109815)","(0.9999839254876918, 0.005669982351603942, 8.146109811049144e-06)",0.000906125035417482,0.0,True,"(0.03218649566535096, 0.18480198532922082, 0.039999991853890186)","(-0.9999839254876918, -0.005669982351606513, -8.146109809686761e-06)",6.898523329964308e-05,0.0
