OSUrobotics/InHand-Manipulation/AnalyseData/Data/Trial Data/new_hand_expected_exp_2v2_g_none_1_kpNone_kdNone_dp1_step1_save_data.csv
,Phase,human_cube_pos,human_cube_orn,Cube_Pos,Cube_Orn,Cube_pos_in_start_pos,b'l_prox_pin'_link_pos,b'l_prox_pin'_link_orn,b'l_distal_pin'_link_pos,b'l_distal_pin'_link_orn,b'r_prox_pin'_link_pos,b'r_prox_pin'_link_orn,b'r_distal_pin'_link_pos,b'r_distal_pin'_link_orn,b'l_prox_pin'_joint_angle,b'l_prox_pin'_joint_vel,b'l_prox_pin'_joint_react_forces,b'l_prox_pin'_joint_motor_torque,b'l_distal_pin'_joint_angle,b'l_distal_pin'_joint_vel,b'l_distal_pin'_joint_react_forces,b'l_distal_pin'_joint_motor_torque,b'r_prox_pin'_joint_angle,b'r_prox_pin'_joint_vel,b'r_prox_pin'_joint_react_forces,b'r_prox_pin'_joint_motor_torque,b'r_distal_pin'_joint_angle,b'r_distal_pin'_joint_vel,b'r_distal_pin'_joint_react_forces,b'r_distal_pin'_joint_motor_torque,in_contact_l,contact_point_l_dist,contact_normal_l_dist,contact_distance_l_dist,contact_norm_force_l_dist,in_contact_r,contact_point_r_dist,contact_normal_r_dist,contact_distance_r_dist,contact_norm_force_r_dist
0,Open,,,,,,"[-0.026750000193715096, 0.05299999937415123, 0.03999999910593033]","[0.0, -0.0, 0.0]","[-0.026750000193715096, 0.125, 0.03999999910593033]","[0.0, -0.0, 0.0]","[0.026750000193715096, 0.05299999937415123, 0.03999999910593033]","[0.0, -0.0, 0.0]","[0.026750000193715096, 0.125, 0.03999999910593033]","[0.0, -0.0, 0.0]",0.0028636982559538428,0.6872875814289223,"(0.0, 0.0, 0.0, 0.0, 0.0, 0.0)",-74.42376671286476,0.025717978913313098,6.172314939195144,"(0.0, 0.0, 0.0, 0.0, 0.0, 0.0)",-28.347758017338414,-0.0028861714462846827,-0.6926811471083238,"(0.0, 0.0, 0.0, 0.0, 0.0, 0.0)",77.31812537484876,-0.025998027583603027,-6.239526620064726,"(0.0, 0.0, 0.0, 0.0, 0.0, 0.0)",29.325432325549183,False,,,,,False,,,,
1,Open,,,,,,"[-0.026750000193715096, 0.05299999937415123, 0.03999999910593033]","[0.0, -0.0, 0.0028636982488144678]","[-0.026956185698509216, 0.12499970197677612, 0.03999999910593033]","[0.0, -0.0, 0.028581675581217755]","[0.026750000193715096, 0.05299999937415123, 0.03999999910593033]","[0.0, 0.0, -0.0028861714423951343]","[0.026957804337143898, 0.12499970197677612, 0.03999999910593033]","[0.0, 0.0, -0.028884201286240394]",0.1595773284303585,37.61127124185712,"(0.0, 0.0, 0.0, 0.0, 0.0, 0.0)",53.472225824972774,0.02314589095046895,-0.6173011110825959,"(0.0, 0.0, 0.0, 0.0, 0.0, 0.0)",3.3014509125464437,-0.15959755430165623,-37.61073188528917,"(0.0, 0.0, 0.0, 0.0, 0.0, 0.0)",-53.45543824447724,-0.023397935520559333,0.6240220951304867,"(0.0, 0.0, 0.0, 0.0, 0.0, 0.0)",-3.2927232380167535,False,,,,,False,,,,
2,Open,,,,,,"[-0.026750000193715096, 0.05299999937415123, 0.03999999910593033]","[0.0, -0.0, 0.15957730699277592]","[-0.03819086775183678, 0.1240852028131485, 0.03999999910593033]","[0.0, -0.0, 0.1827232399786182]","[0.026750000193715096, 0.05299999937415123, 0.03999999910593033]","[0.0, 0.0, -0.15959754249378824]","[0.03819230571389198, 0.12408497184515, 0.03999999910593033]","[0.0, 0.0, -0.1829954723320542]",0.30061959558732265,33.8501441176714,"(0.0, 0.0, 0.0, 0.0, 0.0, 0.0)",-5.433290843096747,0.020831748867960086,-0.555394099802127,"(0.0, 0.0, 0.0, 0.0, 0.0, 0.0)",-0.37949999689540415,-0.30063779887149056,-33.849658696760244,"(0.0, 0.0, 0.0, 0.0, 0.0, 0.0)",5.433149501288634,-0.02105858889910766,0.5614431891484022,"(0.0, 0.0, 0.0, 0.0, 0.0, 0.0)",0.37943043762158307,False,,,,,False,,,,
3,Open,,,,,,"[-0.026750000193715096, 0.05299999937415123, 0.03999999910593033]","[0.0, -0.0, 0.30061964608852465]","[-0.048070069402456284, 0.12177103012800217, 0.03999999910593033]","[0.0, -0.0, 0.3214513597309629]","[0.026750000193715096, 0.05299999937415123, 0.03999999910593033]","[0.0, 0.0, -0.30063782483534385]","[0.04807132109999657, 0.12177064269781113, 0.03999999910593033]","[0.0, 0.0, -0.32169639446592324]",0.4275576360285904,30.465129705904268,"(0.0, 0.0, 0.0, 0.0, 0.0, 0.0)",-4.896562760502833,0.018748978964657985,-0.49986477679250463,"(0.0, 0.0, 0.0, 0.0, 0.0, 0.0)",-0.3438186216350169,-0.4275740189843415,-30.464692827084228,"(0.0, 0.0, 0.0, 0.0, 0.0, 0.0)",4.8964345239877005,-0.018953134917884834,0.505308955493478,"(0.0, 0.0, 0.0, 0.0, 0.0, 0.0)",0.34375511365495653,False,,,,,False,,,,
4,Open,,,,,,"[-0.026750000193715096, 0.05299999937415123, 0.03999999910593033]","[0.0, -0.0, 0.42755761853039154]","[-0.056604765355587006, 0.1185186430811882, 0.03999999910593033]","[0.0, -0.0, 0.4463066270391506]","[0.026750000193715096, 0.05299999937415123, 0.03999999910593033]","[0.0, 0.0, -0.42757404208311445]","[0.05660583823919296, 0.1185181587934494, 0.03999999910593033]","[0.0, 0.0, -0.4465272228574986]",0.5418018724257314,27.418616735313837,"(0.0, 0.0, 0.0, 0.0, 0.0, 0.0)",-4.412236817968903,0.016874447698417276,-0.44988750389777044,"(0.0, 0.0, 0.0, 0.0, 0.0, 0.0)",-0.3112578673856835,-0.5418166170859073,-27.418223544375806,"(0.0, 0.0, 0.0, 0.0, 0.0, 0.0)",4.412120589674461,-0.017058187988154127,0.4547872631353701,"(0.0, 0.0, 0.0, 0.0, 0.0, 0.0)",0.31119999541872967,False,,,,,False,,,,
5,Open,,,,,,"[-0.026750000193715096, 0.05299999937415123, 0.03999999910593033]","[0.0, -0.0, 0.5418019400761332]","[-0.06387900561094284, 0.11468822509050369, 0.03999999910593033]","[0.0, -0.0, 0.5586763123738882]","[0.026750000193715096, 0.05299999937415123, 0.03999999910593033]","[0.0, 0.0, -0.5418166677071254]","[0.06387991458177567, 0.11468767374753952, 0.03999999910593033]","[0.0, 0.0, -0.5588748551425957]",0.6446216851831583,24.67675506178245,"(0.0, 0.0, 0.0, 0.0, 0.0, 0.0)",-3.975330693632137,0.015187334633278446,-0.4049071356333192,"(0.0, 0.0, 0.0, 0.0, 0.0, 0.0)",-0.2816071653694913,-0.6446349553773166,-24.67640118993823,"(0.0, 0.0, 0.0, 0.0, 0.0, 0.0)",3.975225427671302,-0.01535270083200906,0.409316917474816,"(0.0, 0.0, 0.0, 0.0, 0.0, 0.0)",0.28155450162657786,False,,,,,False,,,,
6,Open,,,,,,"[-0.026750000193715096, 0.05299999937415123, 0.03999999910593033]","[0.0, -0.0, 0.6446216983098856]","[-0.07001452147960663, 0.11055155843496323, 0.03999999910593033]","[0.0, -0.0, 0.6598089287160823]","[0.026750000193715096, 0.05299999937415123, 0.03999999910593033]","[0.0, 0.0, -0.644634967879878]","[0.07001528143882751, 0.11055097728967667, 0.03999999910593033]","[0.0, 0.0, -0.6599877329949964]",0.7371595166648425,22.209079555604205,"(0.0, 0.0, 0.0, 0.0, 0.0, 0.0)",-3.5812948349547464,0.013668901111545678,-0.3644240452158641,"(0.0, 0.0, 0.0, 0.0, 0.0, 0.0)",-0.25464125660078457,-0.737171459839585,-22.20876107094441,"(0.0, 0.0, 0.0, 0.0, 0.0, 0.0)",3.5811995605906057,-0.01381773063402154,0.3683928475170044,"(0.0, 0.0, 0.0, 0.0, 0.0, 0.0)",0.2545933902665499,False,,,,,False,,,,
7,Open,,,,,,"[-0.026750000193715096, 0.05299999937415123, 0.03999999910593033]","[0.0, -0.0, 0.7371595400859692]","[-0.07514750957489014, 0.10630742460489273, 0.03999999910593033]","[0.0, -0.0, 0.7508283868993905]","[0.026750000193715096, 0.05299999937415123, 0.03999999910593033]","[0.0, 0.0, -0.7371714711336782]","[0.07514814287424088, 0.10630684345960617, 0.03999999910593033]","[0.0, 0.0, -0.750989167509555]",0.8204435649983582,19.988171600043785,"(0.0, 0.0, 0.0, 0.0, 0.0, 0.0)",-3.2259980823944012,0.01230228208777883,-0.32798856570404317,"(0.0, 0.0, 0.0, 0.0, 0.0, 0.0)",-0.23014491551259536,-0.8204543138556265,-19.987884963849964,"(0.0, 0.0, 0.0, 0.0, 0.0, 0.0)",3.225911902119173,-0.012436228606816148,0.33156048652929415,"(0.0, 0.0, 0.0, 0.0, 0.0, 0.0)",0.23010145595163894,False,,,,,False,,,,
8,Open,,,,,,"[-0.026750000193715096, 0.05299999937415123, 0.03999999910593033]","[0.0, -0.0, 0.8204435774406766]","[-0.07941428571939468, 0.1020965725183487, 0.03999999910593033]","[0.0, -0.0, 0.8327459142786269]","[0.026750000193715096, 0.05299999937415123, 0.03999999910593033]","[0.0, 0.0, -0.8204543695347751]","[0.07941480726003647, 0.10209600627422333, 0.03999999910593033]","[0.0, 0.0, -0.8328905496331522]",0.8953992084985224,17.9893544400394,"(0.0, 0.0, 0.0, 0.0, 0.0, 0.0)",-2.905692777507757,0.011072298781000885,-0.2951959936267068,"(0.0, 0.0, 0.0, 0.0, 0.0, 0.0)",-0.20791432075989408,-0.8954088824700639,-17.989096467464968,"(0.0, 0.0, 0.0, 0.0, 0.0, 0.0)",2.9056148642503405,-0.011192850601700187,0.29841072122783063,"(0.0, 0.0, 0.0, 0.0, 0.0, 0.0)",0.20787489947010138,False,,,,,False,,,,
9,Open,,,,,,"[-0.026750000193715096, 0.05299999937415123, 0.03999999910593033]","[0.0, -0.0, 0.8953992050914552]","[-0.08294302970170975, 0.09801492840051651, 0.03999999910593033]","[0.0, -0.0, 0.9064715399310761]","[0.026750000193715096, 0.05299999937415123, 0.03999999910593033]","[0.0, 0.0, -0.8954089117450801]","[0.08294346183538437, 0.09801438450813293, 0.03999999910593033]","[0.0, 0.0, -0.9066016844299951]",0.9628592876486701,16.190418996035465,"(0.0, 0.0, 0.0, 0.0, 0.0, 0.0)",-2.616982039675733,0.009965290062605858,-0.26568209241480656,"(0.0, 0.0, 0.0, 0.0, 0.0, 0.0)",-0.18775783729375353,-0.9628679942230576,-16.190186820718473,"(0.0, 0.0, 0.0, 0.0, 0.0, 0.0)",2.6169116334278195,-0.010073786659150813,0.26857534621184953,"(0.0, 0.0, 0.0, 0.0, 0.0, 0.0)",0.187722108909745,False,,,,,False,,,,
10,Open,,,,,,"[-0.026750000193715096, 0.05299999937415123, 0.03999999910593033]","[0.0, -0.0, 0.9628592963772022]","[-0.08584962040185928, 0.09412462264299393, 0.03999999910593033]","[0.0, -0.0, 0.9728246761305416]","[0.026750000193715096, 0.05299999937415123, 0.03999999910593033]","[0.0, 0.0, -0.9628681466677605]","[0.08584997802972794, 0.09412410855293274, 0.03999999910593033]","[0.0, 0.0, -0.9729417790417357]",1.0235733588838032,14.57137709643192,"(0.0, 0.0, 0.0, 0.0, 0.0, 0.0)",-2.356789246056587,0.008968960705874744,-0.23911904561546746,"(0.0, 0.0, 0.0, 0.0, 0.0, 0.0)",-0.16949635495257384,-1.0235811948007518,-14.571168138646623,"(0.0, 0.0, 0.0, 0.0, 0.0, 0.0)",2.3567256501387286,-0.009066607604651448,0.24172297307984775,"(0.0, 0.0, 0.0, 0.0, 0.0, 0.0)",0.16946399753760524,False,,,,,False,,,,
11,Open,,,,,,"[-0.026750000193715096, 0.05299999937415123, 0.03999999910593033]","[0.0, -0.0, 1.0235732790301837]","[-0.08823604136705399, 0.09046287834644318, 0.03999999910593033]","[0.0, -0.0, 1.0325423083164225]","[0.026750000193715096, 0.05299999937415123, 0.03999999910593033]","[0.0, 0.0, -1.0235812274279317]","[0.08823633193969727, 0.09046239405870438, 0.03999999910593033]","[0.0, 0.0, -1.0326479037372749]",1.078216022995423,13.114239386788727,"(0.0, 0.0, 0.0, 0.0, 0.0, 0.0)",-2.1223296975724493,0.008072244810550301,-0.215211814877866,"(0.0, 0.0, 0.0, 0.0, 0.0, 0.0)",-0.1529632973210469,-1.0782230753206767,-13.114051324781958,"(0.0, 0.0, 0.0, 0.0, 0.0, 0.0)",2.122272274708909,-0.008160126984954354,0.21755534872730237,"(0.0, 0.0, 0.0, 0.0, 0.0, 0.0)",0.15293401213466845,False,,,,,False,,,,
12,Open,,,,,,"[-0.026750000193715096, 0.05299999937415123, 0.03999999910593033]","[0.0, -0.0, 1.078215882979514]","[-0.09019032120704651, 0.08704887330532074, 0.03999999910593033]","[0.0, -0.0, 1.0862882926740116]","[0.026750000193715096, 0.05299999937415123, 0.03999999910593033]","[0.0, 0.0, -1.078222977413882]","[0.09019055962562561, 0.08704842627048492, 0.03999999910593033]","[0.0, 0.0, -1.0863833790205233]",1.1273944206958806,11.802815448109852,"(0.0, 0.0, 0.0, 0.0, 0.0, 0.0)",-1.9110844168611731,0.007265182884681461,-0.19369486220852175,"(0.0, 0.0, 0.0, 0.0, 0.0, 0.0)",-0.13800439004610457,-1.127400767788609,-11.802646192303762,"(0.0, 0.0, 0.0, 0.0, 0.0, 0.0)",1.9110325851897776,-0.007344276810443619,0.19580404188257655,"(0.0, 0.0, 0.0, 0.0, 0.0, 0.0)",0.13797790093405082,False,,,,,False,,,,
13,Open,,,,,,"[-0.026750000193715096, 0.05299999937415123, 0.03999999910593033]","[0.0, -0.0, 1.1273943743462997]","[-0.0917874127626419, 0.08388907462358475, 0.03999999910593033]","[0.0, -0.0, 1.1346596248576977]","[0.026750000193715096, 0.05299999937415123, 0.03999999910593033]","[0.0, 0.0, -1.127400718904607]","[0.09178761392831802, 0.08388865739107132, 0.03999999910593033]","[0.0, 0.0, -1.134745111288055]",1.1716549786262926,10.622533903298867,"(0.0, 0.0, 0.0, 0.0, 0.0, 0.0)",-1.7207759982695574,0.00653881121780902,-0.17432920004938585,"(0.0, 0.0, 0.0, 0.0, 0.0, 0.0)",-0.12447725819906867,-1.1716606910097482,-10.622381573073383,"(0.0, 0.0, 0.0, 0.0, 0.0, 0.0)",1.7207292273800263,-0.006609995722787257,0.17622746103752684,"(0.0, 0.0, 0.0, 0.0, 0.0, 0.0)",0.12445331071934837,False,,,,,False,,,,
14,Open,,,,,,"[-0.026750000193715096, 0.05299999937415123, 0.03999999910593033]","[0.0, -0.0, 1.17165497759142]","[-0.09309044480323792, 0.08098116517066956, 0.03999999910593033]","[0.0, -0.0, 1.1781937273122836]","[0.026750000193715096, 0.05299999937415123, 0.03999999910593033]","[0.0, 0.0, -1.1716605985979762]","[0.09309060126543045, 0.08098078519105911, 0.03999999910593033]","[0.0, 0.0, -1.178270796658152]",1.2114894807636634,9.56028051296898,"(0.0, 0.0, 0.0, 0.0, 0.0, 0.0)",-1.549346412635057,0.005885062316220725,-0.15689973638119079,"(0.0, 0.0, 0.0, 0.0, 0.0, 0.0)",-0.11225090666269867,-1.2114946219087734,-9.560143415766044,"(0.0, 0.0, 0.0, 0.0, 0.0, 0.0)",1.5493042197033076,-0.00594912834521185,0.1586081706180975,"(0.0, 0.0, 0.0, 0.0, 0.0, 0.0)",0.11222926703597672,False,,,,,False,,,,
15,Open,,,,,,"[-0.026750000193715096, 0.05299999937415123, 0.03999999910593033]","[0.0, -0.0, 1.2114893406881728]","[-0.09415213763713837, 0.07831703126430511, 0.03999999910593033]","[0.0, -0.0, 1.2173745989650702]","[0.026750000193715096, 0.05299999937415123, 0.03999999910593033]","[0.0, 0.0, -1.2114945655338818]","[0.09415226429700851, 0.07831668108701706, 0.03999999910593033]","[0.0, 0.0, -1.2174436451143456]",1.247340532687297,8.604252461672083,"(0.0, 0.0, 0.0, 0.0, 0.0, 0.0)",-1.3949366588174594,0.00529667529397997,-0.14121288533778104,"(0.0, 0.0, 0.0, 0.0, 0.0, 0.0)",-0.1012051251161189,-1.2473451597178962,-8.604129074189437,"(0.0, 0.0, 0.0, 0.0, 0.0, 0.0)",1.394898604883462,-0.005354334697048719,0.1427504755591516,"(0.0, 0.0, 0.0, 0.0, 0.0, 0.0)",0.1011855790679586,False,,,,,False,,,,
16,Open,,,,,,"[-0.026750000193715096, 0.05299999937415123, 0.03999999910593033]","[0.0, -0.0, 1.2473405247091465]","[-0.09501627087593079, 0.07588484138250351, 0.03999999910593033]","[0.0, -0.0, 1.2526371614229614]","[0.026750000193715096, 0.05299999937415123, 0.03999999910593033]","[0.0, 0.0, -1.2473450561350814]","[0.09501637518405914, 0.07588452845811844, 0.03999999910593033]","[0.0, 0.0, -1.252699591080442]",1.2796064794185673,7.743827215504874,"(0.0, 0.0, 0.0, 0.0, 0.0, 0.0)",-1.2558681481324276,0.004767115224099335,-0.12709441677135241,"(0.0, 0.0, 0.0, 0.0, 0.0, 0.0)",-0.09122984935698081,-1.2796106437461066,-7.743716166770495,"(0.0, 0.0, 0.0, 0.0, 0.0, 0.0)",1.2558338345532607,-0.004819008666073119,0.128478247434144,"(0.0, 0.0, 0.0, 0.0, 0.0, 0.0)",0.09121220090323832,False,,,,,False,,,,
17,Open,,,,,,"[-0.026750000193715096, 0.05299999937415123, 0.03999999910593033]","[0.0, -0.0, 1.279606409124563]","[-0.09571900963783264, 0.0736706405878067, 0.03999999910593033]","[0.0, -0.0, 1.2843736758198352]","[0.026750000193715096, 0.05299999937415123, 0.03999999910593033]","[0.0, 0.0, -1.2796106525936015]","[0.0957190990447998, 0.07367035001516342, 0.03999999910593033]","[0.0, 0.0, -1.2844295613342638]",1.3086458314767107,6.969444493954387,"(0.0, 0.0, 0.0, 0.0, 0.0, 0.0)",-1.1305941221975622,0.00429170208951155,-0.1140991523010686,"(0.0, 0.0, 0.0, 0.0, 0.0, 0.0)",-0.082192919359827,-1.3086495793714958,-6.969344550093446,"(0.0, 0.0, 0.0, 0.0, 0.0, 0.0)",1.1305631934145834,-0.004338405935744441,0.11534465527888274,"(0.0, 0.0, 0.0, 0.0, 0.0, 0.0)",0.08217699569254354,False,,,,,False,,,,
18,Open,,,,,,"[-0.026750000193715096, 0.05299999937415123, 0.03999999910593033]","[0.0, -0.0, 1.308645825919811]","[-0.09629011154174805, 0.0716593861579895, 0.03999999910593033]","[0.0, -0.0, 1.3129373548657892]","[0.026750000193715096, 0.05299999937415123, 0.03999999910593033]","[0.0, 0.0, -1.308649569130343]","[0.09629017859697342, 0.07165912538766861, 0.03999999910593033]","[0.0, 0.0, -1.3129881167123505]",1.3347812483290395,6.272500044558946,"(0.0, 0.0, 0.0, 0.0, 0.0, 0.0)",-1.0178482622338179,0.003863702481573626,-0.10271990590510163,"(0.0, 0.0, 0.0, 0.0, 0.0, 0.0)",-0.07410352518858664,-1.3347846214343462,-6.272410095084102,"(0.0, 0.0, 0.0, 0.0, 0.0, 0.0)",1.0178203769740246,-0.0039057357160976183,0.10384085271523745,"(0.0, 0.0, 0.0, 0.0, 0.0, 0.0)",0.0740891498002037,False,,,,,False,,,,
19,Open,,,,,,"[-0.026750000193715096, 0.05299999937415123, 0.03999999910593033]","[0.0, -0.0, 1.3347813147466918]","[-0.09675397723913193, 0.06983575969934464, 0.03999999910593033]","[0.0, -0.0, 1.3386449621367835]","[0.026750000193715096, 0.05299999937415123, 0.03999999910593033]","[0.0, 0.0, -1.3347844615433213]","[0.0967540368437767, 0.06983552873134613, 0.03999999910593033]","[0.0, 0.0, -1.3386905382854437]",1.3583031234961356,5.645250040103052,"(0.0, 0.0, 0.0, 0.0, 0.0, 0.0)",-0.9162890978823036,0.0034783869891320215,-0.09247571818598516,"(0.0, 0.0, 0.0, 0.0, 0.0, 0.0)",-0.06677007440367574,-1.3583061592909116,-5.645169085575695,"(0.0, 0.0, 0.0, 0.0, 0.0, 0.0)",0.9162639666346021,-0.003516216695348753,0.09348456497972772,"(0.0, 0.0, 0.0, 0.0, 0.0, 0.0)",0.06675710630673855,False,,,,,False,,,,
20,Open,,,,,,"[-0.026750000193715096, 0.05299999937415123, 0.03999999910593033]","[0.0, -0.0, 1.3583030429358363]","[-0.09713058918714523, 0.06818463653326035, 0.03999999910593033]","[0.0, -0.0, 1.3617816714487538]","[0.026750000193715096, 0.05299999937415123, 0.03999999910593033]","[0.0, 0.0, -1.358306171033049]","[0.09713063389062881, 0.06818442046642303, 0.03999999910593033]","[0.0, 0.0, -1.361822351334537]",1.379472811146522,5.0807250360927485,"(0.0, 0.0, 0.0, 0.0, 0.0, 0.0)",-0.8248429295126702,0.003131498553648039,-0.08325322451615583,"(0.0, 0.0, 0.0, 0.0, 0.0, 0.0)",-0.06015531267018523,-1.3794755433618204,-5.080652177018124,"(0.0, 0.0, 0.0, 0.0, 0.0, 0.0)",0.8248202834423316,-0.003165545104486833,0.08416118180686077,"(0.0, 0.0, 0.0, 0.0, 0.0, 0.0)",0.06014361689139186,False,,,,,False,,,,
21,Open,,,,,,"[-0.026750000193715096, 0.05299999937415123, 0.03999999910593033]","[0.0, -0.0, 1.3794728975130914]","[-0.09743624925613403, 0.06669140607118607, 0.03999999910593033]","[0.0, -0.0, 1.382604304378769]","[0.026750000193715096, 0.05299999937415123, 0.03999999910593033]","[0.0, 0.0, -1.379475506721758]","[0.09743628650903702, 0.06669121235609055, 0.03999999910593033]","[0.0, 0.0, -1.3826409668082853]",1.3985255300318697,4.572652532483473,"(0.0, 0.0, 0.0, 0.0, 0.0, 0.0)",-0.7425066286387145,0.0028192047313806493,-0.07495051734417352,"(0.0, 0.0, 0.0, 0.0, 0.0, 0.0)",-0.054190171953983096,-1.3985279890256384,-4.57258695931631,"(0.0, 0.0, 0.0, 0.0, 0.0, 0.0)",0.7424862245436853,-0.0028498464605416357,0.07576767454684734,"(0.0, 0.0, 0.0, 0.0, 0.0, 0.0)",0.0541796259205944,False,,,,,False,,,,
22,Open,,,,,,"[-0.026750000193715096, 0.05299999937415123, 0.03999999910593033]","[0.0, -0.0, 1.398525454133583]","[-0.09768425673246384, 0.0653422400355339, 0.03999999910593033]","[0.0, -0.0, 1.4013447262228373]","[0.026750000193715096, 0.05299999937415123, 0.03999999910593033]","[0.0, 0.0, -1.3985280648022782]","[0.09768428653478622, 0.06534206122159958, 0.03999999910593033]","[0.0, 0.0, -1.4013779844801912]",1.4156729770286829,4.1153872792351285,"(0.0, 0.0, 0.0, 0.0, 0.0, 0.0)",-0.6683758137814145,0.002538055332395241,-0.06747585575649792,"(0.0, 0.0, 0.0, 0.0, 0.0, 0.0)",-0.04881194552870251,-1.4156751901230746,-4.115328263384682,"(0.0, 0.0, 0.0, 0.0, 0.0, 0.0)",0.6683574317692884,-0.002565632738451909,0.06821129330153437,"(0.0, 0.0, 0.0, 0.0, 0.0, 0.0)",0.0488024380394442,False,,,,,False,,,,
23,Open,,,,,,"[-0.026750000193715096, 0.05299999937415123, 0.03999999910593033]","[0.0, -0.0, 1.4156730334745993]","[-0.09788545966148376, 0.06412414461374283, 0.03999999910593033]","[0.0, -0.0, 1.418211036917125]","[0.026750000193715096, 0.05299999937415123, 0.03999999910593033]","[0.0, 0.0, -1.4156752315845986]","[0.09788548201322556, 0.0641239807009697, 0.03999999910593033]","[0.0, 0.0, -1.418240879504808]",1.4311056793258146,3.703848551311612,"(0.0, 0.0, 0.0, 0.0, 0.0, 0.0)",-0.6016352863054336,0.002284944287465684,-0.060746650783093666,"(0.0, 0.0, 0.0, 0.0, 0.0, 0.0)",-0.04396376851645251,-1.431107671110767,-3.7037954370462103,"(0.0, 0.0, 0.0, 0.0, 0.0, 0.0)",0.6016187276545472,-0.0023097638175418747,0.061408541018408244,"(0.0, 0.0, 0.0, 0.0, 0.0, 0.0)",0.043955198772734246,False,,,,,False,,,,
24,Open,,,,,,"[-0.026750000193715096, 0.05299999937415123, 0.03999999910593033]","[0.0, -0.0, 1.4311058207082674]","[-0.09804865717887878, 0.06302504986524582, 0.03999999910593033]","[0.0, -0.0, 1.433390691262394]","[0.026750000193715096, 0.05299999937415123, 0.03999999910593033]","[0.0, 0.0, -1.4311075924426346]","[0.09804867953062057, 0.06302490830421448, 0.03999999910593033]","[0.0, 0.0, -1.433417470845748]",1.4449951113932331,3.333463696180452,"(0.0, 0.0, 0.0, 0.0, 0.0, 0.0)",-0.5415503506795546,0.0020570753203455715,-0.05468855210882702,"(0.0, 0.0, 0.0, 0.0, 0.0, 0.0)",-0.039594115216637325,-1.4449969039996904,-3.3334158933415914,"(0.0, 0.0, 0.0, 0.0, 0.0, 0.0)",0.541535435877482,-0.002079412775410495,0.055284250111531166,"(0.0, 0.0, 0.0, 0.0, 0.0, 0.0)",0.03958639191865308,False,,,,,False,,,,
25,Open,,,,,,"[-0.026750000193715096, 0.05299999937415123, 0.03999999910593033]","[0.0, -0.0, 1.444995076522675]","[-0.09818101674318314, 0.062033817172050476, 0.03999999910593033]","[0.0, -0.0, 1.4470522962768402]","[0.026750000193715096, 0.05299999937415123, 0.03999999910593033]","[0.0, 0.0, -1.4449971061677662]","[0.09818103164434433, 0.06203368678689003, 0.03999999910593033]","[0.0, 0.0, -1.4470761943538692]",1.45749560025391,3.0001173265624064,"(0.0, 0.0, 0.0, 0.0, 0.0, 0.0)",-0.4874589573784058,0.001851931045420989,-0.04923462598189979,"(0.0, 0.0, 0.0, 0.0, 0.0, 0.0)",-0.03565633120497695,-1.4574972135997213,-3.000074304007432,"(0.0, 0.0, 0.0, 0.0, 0.0, 0.0)",0.4874455243270462,-0.0018720346450414762,0.04977075128856451,"(0.0, 0.0, 0.0, 0.0, 0.0, 0.0)",0.03564937171228022,False,,,,,False,,,,
26,Open,,,,,,"[-0.026750000193715096, 0.05299999937415123, 0.03999999910593033]","[0.0, -0.0, 1.4574954921785264]","[-0.09828835725784302, 0.061140209436416626, 0.03999999910593033]","[0.0, -0.0, 1.4593474823067423]","[0.026750000193715096, 0.05299999937415123, 0.03999999910593033]","[0.0, 0.0, -1.4574971848934346]","[0.09828837215900421, 0.061140093952417374, 0.03999999910593033]","[0.0, 0.0, -1.4593694397653831]",1.4687460402285188,2.700105593906164,"(0.0, 0.0, 0.0, 0.0, 0.0, 0.0)",-0.4387645947805427,0.0016672451487475934,-0.044324615201614966,"(0.0, 0.0, 0.0, 0.0, 0.0, 0.0)",-0.032108199676446195,-1.4687474922397492,-2.70006687360669,"(0.0, 0.0, 0.0, 0.0, 0.0, 0.0)",0.4387524971567325,-0.0016853382893528596,0.04480712536526797,"(0.0, 0.0, 0.0, 0.0, 0.0, 0.0)",0.03210192923147444,False,,,,,False,,,,
27,Open,,,,,,"[-0.026750000193715096, 0.05299999937415123, 0.03999999910593033]","[0.0, -0.0, 1.4687462228928074]","[-0.09837540984153748, 0.06033487245440483, 0.03999999910593033]","[0.0, -0.0, 1.4704133245237396]","[0.026750000193715096, 0.05299999937415123, 0.03999999910593033]","[0.0, 0.0, -1.4687474899518769]","[0.09837542474269867, 0.060334768146276474, 0.03999999910593033]","[0.0, 0.0, -1.4704329951986796]",1.478871436205667,2.430095034515549,"(0.0, 0.0, 0.0, 0.0, 0.0, 0.0)",-0.394929862139441,0.0015009773446580906,-0.03990427298148066,"(0.0, 0.0, 0.0, 0.0, 0.0, 0.0)",-0.028911540991871522,-1.4788727430157742,-2.430060186246021,"(0.0, 0.0, 0.0, 0.0, 0.0, 0.0)",0.39491896790015035,-0.001517261081966714,0.04033852977267494,"(0.0, 0.0, 0.0, 0.0, 0.0, 0.0)",0.02890589200411927,False,,,,,False,,,,
28,Open,,,,,,"[-0.026750000193715096, 0.05299999937415123, 0.03999999910593033]","[0.0, -0.0, 1.4788714352834713]","[-0.09844600409269333, 0.05960927531123161, 0.03999999910593033]","[0.0, -0.0, 1.480372508787761]","[0.026750000193715096, 0.05299999937415123, 0.03999999910593033]","[0.0, 0.0, -1.4788727099725336]","[0.09844601899385452, 0.05960918217897415, 0.03999999910593033]","[0.0, 0.0, -1.4803900544382056]",1.4879842925851003,2.1870855310639947,"(0.0, 0.0, 0.0, 0.0, 0.0, 0.0)",-0.3554706611703565,0.001351290830885638,-0.035924763305388616,"(0.0, 0.0, 0.0, 0.0, 0.0, 0.0)",-0.026031844038894282,-1.487985468714197,-2.1870541676214206,"(0.0, 0.0, 0.0, 0.0, 0.0, 0.0)",0.3554608511915877,-0.001365946114079445,0.03631559229294455,"(0.0, 0.0, 0.0, 0.0, 0.0, 0.0)",0.026026755426892093,False,,,,,False,,,,
29,Close,,,"(3.819349109750643e-09, 0.16999994350316286, 7.914305593764796e-05)","(1.5700606283751846, 1.2357610516186277e-06, -4.058049624060407e-09)",,"[-0.026750000193715096, 0.05299999937415123, 0.03999999910593033]","[0.0, -0.0, 1.4879842849605203]","[-0.09850326180458069, 0.05895565450191498, 0.03999999910593033]","[0.0, -0.0, 1.4893357278409396]","[0.026750000193715096, 0.05299999937415123, 0.03999999910593033]","[0.0, 0.0, -1.4879853833286059]","[0.09850326925516129, 0.05895556882023811, 0.03999999910593033]","[0.0, 0.0, -1.4893513332680077]",1.4961858633265903,1.9683769779575933,"(0.0, 0.0, 0.0, 0.0, 0.0, 0.0)",-0.31995094896823073,0.0012165319928285922,-0.03234212113369103,"(0.0, 0.0, 0.0, 0.0, 0.0, 0.0)",-0.02343792779000599,-1.4961869218427772,-1.9683487508592754,"(0.0, 0.0, 0.0, 0.0, 0.0, 0.0)",0.31994211580738524,-0.0012297216752996233,0.03269386530715718,"(0.0, 0.0, 0.0, 0.0, 0.0, 0.0)",0.02343334437795369,False,,,,,False,,,,
30,Close,,,"(1.09441459674075e-09, 0.16999988769159868, 0.0001519632082907279)","(1.5701173533571526, -2.5467641220651055e-06, -4.573996600559749e-08)",,"[-0.026750000193715096, 0.05299999937415123, 0.03999999910593033]","[0.0, -0.0, 1.4961860174198076]","[-0.09854969382286072, 0.05836696922779083, 0.03999999910593033]","[0.0, -0.0, 1.4974025341106605]","[0.026750000193715096, 0.05299999937415123, 0.03999999910593033]","[0.0, 0.0, -1.4961870219527165]","[0.09854969382286072, 0.05836689472198486, 0.03999999910593033]","[0.0, 0.0, -1.4974167044724178]",1.4065672769939312,-21.50846071983817,"(0.0, 0.0, 0.0, 0.0, 0.0, 0.0)",-36.83524610171859,-0.08890468746940376,-21.629092670935766,"(0.0, 0.0, 0.0, 0.0, 0.0, 0.0)",-4.936581214831643,-1.4065682296584996,21.508486124226657,"(0.0, 0.0, 0.0, 0.0, 0.0, 0.0)",36.83523814678565,0.0888928167555427,21.629409223402156,"(0.0, 0.0, 0.0, 0.0, 0.0, 0.0)",4.936577085092772,False,,,,,False,,,,
31,Close,,,"(3.541182821644653e-08, 0.1699998011443987, 0.00021906657187154062)","(1.570205104748116, 3.3042409171564205e-05, -8.114212850492596e-08)",,"[-0.026750000193715096, 0.05299999937415123, 0.03999999910593033]","[0.0, -0.0, 1.4065674382065954]","[-0.0977812185883522, 0.06477140635251999, 0.03999999910593033]","[0.0, -0.0, 1.3176625934179576]","[0.026750000193715096, 0.05299999937415123, 0.03999999910593033]","[0.0, 0.0, -1.4065680331882469]","[0.0977812260389328, 0.06477133929729462, 0.03999999910593033]","[0.0, 0.0, -1.3176753491400532]",1.3259105492945382,-19.357614647854348,"(0.0, 0.0, 0.0, 0.0, 0.0, 0.0)",3.3395407019063446,-0.17001473426920377,-19.466411231952,"(0.0, 0.0, 0.0, 0.0, 0.0, 0.0)",0.4376834422569755,-1.3259114066926496,19.35763751180399,"(0.0, 0.0, 0.0, 0.0, 0.0, 0.0)",-3.3395473112045253,0.1700040506304986,19.466696129989415,"(0.0, 0.0, 0.0, 0.0, 0.0, 0.0)",-0.43768664266468643,False,,,,,False,,,,
32,Close,,,"(3.361538948490201e-08, 0.16999974452330968, 0.00028077538773600935)","(1.5702911774727688, 7.027968338074274e-05, -7.017997684986258e-06)",,"[-0.026750000193715096, 0.05299999937415123, 0.03999999910593033]","[0.0, -0.0, 1.325910602539969]","[-0.09660188108682632, 0.07045608013868332, 0.03999999910593033]","[0.0, -0.0, 1.1558959321658662]","[0.026750000193715096, 0.05299999937415123, 0.03999999910593033]","[0.0, 0.0, -1.3259115331240872]","[0.09660189598798752, 0.07045602053403854, 0.03999999910593033]","[0.0, 0.0, -1.1559073716167563]",1.2533194943650845,-17.42185318306892,"(0.0, 0.0, 0.0, 0.0, 0.0, 0.0)",3.0100864599566086,-0.2430137284658432,-17.519758607193467,"(0.0, 0.0, 0.0, 0.0, 0.0, 0.0)",0.39699812510351973,-1.2533202660233846,17.42187376062359,"(0.0, 0.0, 0.0, 0.0, 0.0, 0.0)",-3.0100924602349655,0.24300411319445853,17.52001501535039,"(0.0, 0.0, 0.0, 0.0, 0.0, 0.0)",-0.39700105403357716,False,,,,,False,,,,
33,Close,,,"(1.2478111664315067e-07, 0.16999960627903704, 0.000337513976604643)","(1.5703757790333803, 0.0001088681261817636, -5.122611399447184e-06)",,"[-0.026750000193715096, 0.05299999937415123, 0.03999999910593033]","[0.0, -0.0, 1.2533194489161892]","[-0.0951518788933754, 0.07547627389431, 0.03999999910593033]","[0.0, -0.0, 1.0103057011386807]","[0.026750000193715096, 0.05299999937415123, 0.03999999910593033]","[0.0, 0.0, -1.2533201846969224]","[0.09515189379453659, 0.07547622174024582, 0.03999999910593033]","[0.0, 0.0, -1.010316110149499]",1.1879875449285762,-15.679667864762028,"(0.0, 0.0, 0.0, 0.0, 0.0, 0.0)",2.712712783767229,-0.30871235561933186,-15.767670516837281,"(0.0, 0.0, 0.0, 0.0, 0.0, 0.0)",0.3597856734528228,-1.1879882394210461,15.679686384561233,"(0.0, 0.0, 0.0, 0.0, 0.0, 0.0)",-2.712718226071338,0.30870370187508567,15.767901283350515,"(0.0, 0.0, 0.0, 0.0, 0.0, 0.0)",-0.35978834883250516,False,,,,,False,,,,
34,Close,,,"(1.2869376016944667e-07, 0.16999954011037416, 0.00038973303114976833)","(1.5704582297133343, 0.0001496263682483943, -9.931543136061158e-06)",,"[-0.026750000193715096, 0.05299999937415123, 0.03999999910593033]","[0.0, -0.0, 1.1879876003522736]","[-0.09353857487440109, 0.07989397644996643, 0.03999999910593033]","[0.0, -0.0, 0.8792752425767008]","[0.026750000193715096, 0.05299999937415123, 0.03999999910593033]","[0.0, 0.0, -1.1879882623869136]","[0.09353859722614288, 0.07989392429590225, 0.03999999910593033]","[0.0, 0.0, -0.8792844680170303]",1.1291887904356523,-14.1117010783017,"(0.0, 0.0, 0.0, 0.0, 0.0, 0.0)",2.44436472036771,-0.36784112005739866,-14.190903465136039,"(0.0, 0.0, 0.0, 0.0, 0.0, 0.0)",0.3258007578595482,-1.1291894154788755,14.111717746120975,"(0.0, 0.0, 0.0, 0.0, 0.0, 0.0)",-2.444369652349295,0.3678333316875771,14.191111154997946,"(0.0, 0.0, 0.0, 0.0, 0.0, 0.0)",-0.32580319741325486,False,,,,,False,,,,
35,Close,,,"(2.2147778895778094e-07, 0.169999403724105, 0.00043775502472391954)","(1.5705392813318275, 0.0001916771605813282, -8.19762937926826e-06)",,"[-0.026750000193715096, 0.05299999937415123, 0.03999999910593033]","[0.0, -0.0, 1.1291888000608494]","[-0.09184273332357407, 0.08377231657505035, 0.03999999910593033]","[0.0, -0.0, 0.7613476921786614]","[0.026750000193715096, 0.05299999937415123, 0.03999999910593033]","[0.0, 0.0, -1.1291894580384154]","[0.09184275567531586, 0.08377227932214737, 0.03999999910593033]","[0.0, 0.0, -0.7613561373098183]",1.0762699113920273,-12.700530970470014,"(0.0, 0.0, 0.0, 0.0, 0.0, 0.0)",2.202305891359772,-0.4210570080516588,-12.77181311862243,"(0.0, 0.0, 0.0, 0.0, 0.0, 0.0)",0.2948453788489373,-1.0762704739309281,12.700545971507374,"(0.0, 0.0, 0.0, 0.0, 0.0, 0.0)",-2.2023103576802145,0.4210499985188194,12.77200003949815,"(0.0, 0.0, 0.0, 0.0, 0.0, 0.0)",-0.2948476002056522,False,,,,,False,,,,
36,Close,,,"(2.1912693722736075e-07, 0.16999934361709654, 0.000481956449276018)","(1.5706184388641253, 0.00023565575873296478, -1.2845786801691941e-05)",,"[-0.026750000193715096, 0.05299999937415123, 0.03999999910593033]","[0.0, -0.0, 1.0762698553554748]","[-0.09012393653392792, 0.08717226982116699, 0.03999999910593033]","[0.0, -0.0, 0.6552128934948661]","[0.026750000193715096, 0.05299999937415123, 0.03999999910593033]","[0.0, 0.0, -1.0762704893583]","[0.09012395888566971, 0.08717223256826401, 0.03999999910593033]","[0.0, 0.0, -0.6552204147476549]",1.0286429202528247,-11.430477873408655,"(0.0, 0.0, 0.0, 0.0, 0.0, 0.0)",1.9840011930578276,-0.46895130724721834,-11.494631806934295,"(0.0, 0.0, 0.0, 0.0, 0.0, 0.0)",0.26667684533441977,-1.0286434265378352,11.430491374342276,"(0.0, 0.0, 0.0, 0.0, 0.0, 0.0)",-1.984005235051249,0.4689449986676629,11.494800035722442,"(0.0, 0.0, 0.0, 0.0, 0.0, 0.0)",-0.26667886541975433,False,,,,,False,,,,
37,Close,,,"(3.1131510586280866e-07, 0.1699992121070205, 0.0005226007520893923)","(1.5706964879884222, 0.0002806415891397876, -1.1307759452448239e-05)",,"[-0.026750000193715096, 0.05299999937415123, 0.03999999910593033]","[0.0, -0.0, 1.0286429345076582]","[-0.0884251669049263, 0.09015069156885147, 0.03999999910593033]","[0.0, -0.0, 0.5596916647508587]","[0.026750000193715096, 0.05299999937415123, 0.03999999910593033]","[0.0, 0.0, -1.0286435120859125]","[0.08842518925666809, 0.09015065431594849, 0.03999999910593033]","[0.0, 0.0, -0.5596984028120249]",0.9857786282275423,-10.287430086067793,"(0.0, 0.0, 0.0, 0.0, 0.0, 0.0)",1.787161045327472,-0.5120561765231523,-10.345168626224153,"(0.0, 0.0, 0.0, 0.0, 0.0, 0.0)",0.24107512437447856,-0.9857790838840517,10.28744223690805,"(0.0, 0.0, 0.0, 0.0, 0.0, 0.0)",-1.787164701188607,0.5120504988015524,10.345320032133483,"(0.0, 0.0, 0.0, 0.0, 0.0, 0.0)",-0.24107695935135354,False,,,,,False,,,,
38,Close,,,"(3.0991842655903425e-07, 0.169999153087261, 0.0005600347082356065)","(1.570772558536085, 0.00032764712563817383, -1.5390013302753274e-05)",,"[-0.026750000193715096, 0.05299999937415123, 0.03999999910593033]","[0.0, -0.0, 0.9857786218799983]","[-0.08677656948566437, 0.09275941550731659, 0.03999999910593033]","[0.0, -0.0, 0.4737224893055005]","[0.026750000193715096, 0.05299999937415123, 0.03999999910593033]","[0.0, 0.0, -0.9857791586690391]","[0.08677658438682556, 0.0927593931555748, 0.03999999910593033]","[0.0, 0.0, -0.47372859204714834]",0.9472007654041954,-9.258687077603232,"(0.0, 0.0, 0.0, 0.0, 0.0, 0.0)",1.6097085175776904,-0.550850558870837,-9.310651763444346,"(0.0, 0.0, 0.0, 0.0, 0.0, 0.0)",0.21783104241587867,-0.9472011754950539,9.258698013359455,"(0.0, 0.0, 0.0, 0.0, 0.0, 0.0)",-1.609711822487034,0.5508454489213972,9.310788028762744,"(0.0, 0.0, 0.0, 0.0, 0.0, 0.0)",-0.21783270758412676,False,,,,,False,,,,
39,Close,,,"(4.0106165104263135e-07, 0.169999026405202, 0.0005944331352702725)","(1.570848092729261, 0.0003750986118602944, -1.4060502423520339e-05)",,"[-0.026750000193715096, 0.05299999937415123, 0.03999999910593033]","[0.0, -0.0, 0.9472008140782049]","[-0.08519845455884933, 0.09504495561122894, 0.03999999910593033]","[0.0, -0.0, 0.39635019782230363]","[0.026750000193715096, 0.05299999937415123, 0.03999999910593033]","[0.0, 0.0, -0.9472011867132297]","[0.08519846946001053, 0.09504493325948715, 0.03999999910593033]","[0.0, 0.0, -0.3963557154153113]",0.9124806888632406,-8.332818369829143,"(0.0, 0.0, 0.0, 0.0, 0.0, 0.0)",1.4497611633824499,-0.5857655029837533,-8.379586587099913,"(0.0, 0.0, 0.0, 0.0, 0.0, 0.0)",0.19674731686213875,-0.9124810579450133,8.332828212009746,"(0.0, 0.0, 0.0, 0.0, 0.0, 0.0)",-1.4497641496546352,0.5857609040292575,8.379709225886469,"(0.0, 0.0, 0.0, 0.0, 0.0, 0.0)",-0.1967488266016999,False,,,,,False,,,,
40,Close,,,"(3.70657372146465e-07, 0.16999903038777142, 0.0006260749884053443)","(1.5708440552876382, 0.00034508120830118214, -1.4055585689260766e-05)",,"[-0.026750000193715096, 0.05299999937415123, 0.03999999910593033]","[0.0, -0.0, 0.9124807402838544]","[-0.08370371162891388, 0.09704854339361191, 0.03999999910593033]","[0.0, -0.0, 0.32671521193417863]","[0.026750000193715096, 0.05299999937415123, 0.03999999910593033]","[0.0, 0.0, -0.9124811663733811]","[0.08370373398065567, 0.09704852104187012, 0.03999999910593033]","[0.0, 0.0, -0.32672018954414506]",0.8812326199769166,-7.499536532717775,"(0.0, 0.0, 0.0, 0.0, 0.0, 0.0)",1.3056085801322186,-0.6171891619197363,-7.541678144635914,"(0.0, 0.0, 0.0, 0.0, 0.0, 0.0)",0.17763358199117588,-0.881232952150512,7.499545390680321,"(0.0, 0.0, 0.0, 0.0, 0.0, 0.0)",-1.305611277336412,0.617185022862301,7.541788519930457,"(0.0, 0.0, 0.0, 0.0, 0.0, 0.0)",-0.17763494969582577,False,,,,,False,,,,
41,Close,,,"(3.427044292909036e-07, 0.1699990340506735, 0.0006551854712062516)","(1.5708403346470328, 0.0003174583455114455, -1.4051356821419932e-05)",,"[-0.026750000193715096, 0.05299999937415123, 0.03999999910593033]","[0.0, -0.0, 0.8812326035131218]","[-0.08229970186948776, 0.09880644828081131, 0.03999999910593033]","[0.0, -0.0, 0.26404346611112495]","[0.026750000193715096, 0.05299999937415123, 0.03999999910593033]","[0.0, 0.0, -0.8812328730718287]","[0.08229971677064896, 0.09880642592906952, 0.03999999910593033]","[0.0, 0.0, -0.2640479150919315]",0.8531093579792249,-6.749582879446001,"(0.0, 0.0, 0.0, 0.0, 0.0, 0.0)",1.1757252455852583,-0.6454704345862542,-6.78750543996429,"(0.0, 0.0, 0.0, 0.0, 0.0, 0.0)",0.16033509317806058,-0.8531096569354608,6.7495908516122896,"(0.0, 0.0, 0.0, 0.0, 0.0, 0.0)",-1.1757276808922346,0.645466709436021,6.787604777692787,"(0.0, 0.0, 0.0, 0.0, 0.0, 0.0)",-0.16033633143309114,False,,,,,False,,,,
42,Close,,,"(3.170084497545684e-07, 0.16999903740907119, 0.0006819671107693073)","(1.570836911771951, 0.00029204530032808255, -1.4047683015968837e-05)",,"[-0.026750000193715096, 0.05299999937415123, 0.03999999910593033]","[0.0, -0.0, 0.8531093567174074]","[-0.08098968118429184, 0.10035036504268646, 0.03999999910593033]","[0.0, -0.0, 0.2076389231904772]","[0.026750000193715096, 0.05299999937415123, 0.03999999910593033]","[0.0, 0.0, -0.8531096230941355]","[0.08098969608545303, 0.10035035014152527, 0.03999999910593033]","[0.0, 0.0, -0.2076429742570099]",0.8277984221813024,-6.0746245915014,"(0.0, 0.0, 0.0, 0.0, 0.0, 0.0)",1.0586966037970245,-0.6709235615380169,-6.1087504684230565,"(0.0, 0.0, 0.0, 0.0, 0.0, 0.0)",0.14467321668423558,-0.8277986912419147,6.074631766451059,"(0.0, 0.0, 0.0, 0.0, 0.0, 0.0)",-1.0586988018726124,0.6709202089041267,6.108839872345364,"(0.0, 0.0, 0.0, 0.0, 0.0, 0.0)",-0.14467433700617466,False,,,,,False,,,,
43,Close,,,"(2.93385406087929e-07, 0.16999904048782613, 0.0007066062149797113)","(1.5708337628331848, 0.0002686652895538331, -1.4044478861914954e-05)",,"[-0.026750000193715096, 0.05299999937415123, 0.03999999910593033]","[0.0, -0.0, 0.8277984323872327]","[-0.07977395504713058, 0.10170790553092957, 0.03999999910593033]","[0.0, -0.0, 0.15687485461046338]","[0.026750000193715096, 0.05299999937415123, 0.03999999910593033]","[0.0, 0.0, -0.8277987052452376]","[0.07977396249771118, 0.10170789808034897, 0.03999999910593033]","[0.0, 0.0, -0.15687847762667875]",0.8050185799631722,-5.467162132351259,"(0.0, 0.0, 0.0, 0.0, 0.0, 0.0)",0.9532674830029981,-0.6938313591081322,-5.497871416827678,"(0.0, 0.0, 0.0, 0.0, 0.0, 0.0)",0.1305069121449798,-0.8050188221177232,5.467168589805953,"(0.0, 0.0, 0.0, 0.0, 0.0, 0.0)",-0.9532694663734236,0.6938283417388244,5.49795188032743,"(0.0, 0.0, 0.0, 0.0, 0.0, 0.0)",-0.13050792520753388,False,,,,,False,,,,
44,Close,,,"(2.716665250887489e-07, 0.16999904330973556, 0.0007292741870466809)","(1.5708308659078907, 0.0002471556717650467, -1.4041672069322908e-05)",,"[-0.026750000193715096, 0.05299999937415123, 0.03999999910593033]","[0.0, -0.0, 0.8050185839979388]","[-0.07865073531866074, 0.10290304571390152, 0.03999999910593033]","[0.0, -0.0, 0.11118723016400785]","[0.026750000193715096, 0.05299999937415123, 0.03999999910593033]","[0.0, 0.0, -0.8050187952188965]","[0.07865074276924133, 0.10290303081274033, 0.03999999910593033]","[0.0, 0.0, -0.11119048022217565]",0.784516721966855,-4.920445919116134,"(0.0, 0.0, 0.0, 0.0, 0.0, 0.0)",0.8582975670224743,-0.7144483618360385,-4.948080654697517,"(0.0, 0.0, 0.0, 0.0, 0.0, 0.0)",0.11770004006048959,-0.784516939905951,4.92045173082536,"(0.0, 0.0, 0.0, 0.0, 0.0, 0.0)",-0.8582993561887614,0.7144456462047399,4.948153071819748,"(0.0, 0.0, 0.0, 0.0, 0.0, 0.0)",-0.11770095568272418,False,,,,,False,,,,
45,Close,,,"(2.51696986958339e-07, 0.1699990458957082, 0.0007501287178850499)","(1.5708282008276007, 0.000227366816649173, -1.4039201474218165e-05)",,"[-0.026750000193715096, 0.05299999937415123, 0.03999999910593033]","[0.0, -0.0, 0.7845167193080385]","[-0.07761679589748383, 0.10395654290914536, 0.03999999910593033]","[0.0, -0.0, 0.07006835685702544]","[0.026750000193715096, 0.05299999937415123, 0.03999999910593033]","[0.0, 0.0, -0.7845169946958266]","[0.07761680334806442, 0.10395653545856476, 0.03999999910593033]","[0.0, 0.0, -0.0700712989357174]",0.7660650497701694,-4.42840132720452,"(0.0, 0.0, 0.0, 0.0, 0.0, 0.0)",0.7727568402429666,-0.7330036506599046,-4.453269317727849,"(0.0, 0.0, 0.0, 0.0, 0.0, 0.0)",0.106127525293464,-0.7660652459153559,4.428406557742824,"(0.0, 0.0, 0.0, 0.0, 0.0, 0.0)",-0.7727584538402424,0.7330012065927102,4.453334493112861,"(0.0, 0.0, 0.0, 0.0, 0.0, 0.0)",-0.10612835248484857,False,,,,,False,,,,
46,Close,,,"(2.3333473952068603e-07, 0.16999904826492518, 0.0007693148831029557)","(1.5708257490378412, 0.00020916106414766092, -1.403701531280991e-05)",,"[-0.026750000193715096, 0.05299999937415123, 0.03999999910593033]","[0.0, -0.0, 0.7660649977175382]","[-0.07666795700788498, 0.10488639771938324, 0.03999999910593033]","[0.0, -0.0, 0.03306140223906952]","[0.026750000193715096, 0.05299999937415123, 0.03999999910593033]","[0.0, 0.0, -0.7660653079646047]","[0.07666796445846558, 0.10488638281822205, 0.03999999910593033]","[0.0, 0.0, -0.033064041138401834]",0.7494585447931524,-3.985561194484066,"(0.0, 0.0, 0.0, 0.0, 0.0, 0.0)",0.6957152666369016,-0.7497033982890566,-4.007939430996486,"(0.0, 0.0, 0.0, 0.0, 0.0, 0.0)",0.09567473522853766,-0.7494587213238203,3.985565901968542,"(0.0, 0.0, 0.0, 0.0, 0.0, 0.0)",-0.6957167215859875,0.7497011986294615,4.007998088820328,"(0.0, 0.0, 0.0, 0.0, 0.0, 0.0)",-0.09567548223716564,False,,,,,False,,,,
47,Close,,,"(2.1644941757498085e-07, 0.1699990504349868, 0.0007869661522299996)","(1.5708234934689855, 0.0001924117668631307, -1.4035069780186692e-05)",,"[-0.026750000193715096, 0.05299999937415123, 0.03999999910593033]","[0.0, -0.0, 0.7494586090384826]","[-0.07579945772886276, 0.10570816695690155, 0.03999999910593033]","[0.0, 0.0, -0.000244853492999894]","[0.026750000193715096, 0.05299999937415123, 0.03999999910593033]","[0.0, 0.0, -0.7494587081400255]","[0.07579946517944336, 0.10570815205574036, 0.03999999910593033]","[0.0, -0.0, 0.00024247731079752444]",0.7345126903138371,-3.587005075035659,"(0.0, 0.0, 0.0, 0.0, 0.0, 0.0)",0.626333365984163,-0.764733160038395,-3.6071428198412123,"(0.0, 0.0, 0.0, 0.0, 0.0, 0.0)",0.08623682787405348,-0.7345128491914382,3.587009311771688,"(0.0, 0.0, 0.0, 0.0, 0.0, 0.0)",-0.6263346776346612,0.7647311803455538,3.607195611862134,"(0.0, 0.0, 0.0, 0.0, 0.0, 0.0)",-0.08623750223625977,False,,,,,False,,,,
48,Close,,,"(1.9902478529523268e-07, 0.16999905216510106, 0.0008031506134026157)","(1.5708213694672628, 0.00017518801369688713, -1.4031269556480368e-05)",,"[-0.026750000193715096, 0.05299999937415123, 0.03999999910593033]","[0.0, -0.0, 0.7345126628086843]","[-0.07500623911619186, 0.10643533617258072, 0.03999999910593033]","[0.0, 0.0, -0.03022046980229406]","[0.026750000193715096, 0.05299999937415123, 0.03999999910593033]","[0.0, 0.0, -0.7345128981556924]","[0.07500624656677246, 0.10643532872200012, 0.03999999910593033]","[0.0, -0.0, 0.03021832986745902]",0.7210614212824534,-3.228304567532092,"(0.0, 0.0, 0.0, 0.0, 0.0, 0.0)",0.5638237707840803,-0.7782610712626786,-3.246698693828069,"(0.0, 0.0, 0.0, 0.0, 0.0, 0.0)",0.07768823801248652,-0.7210615642722944,3.2283083805945183,"(0.0, 0.0, 0.0, 0.0, 0.0, 0.0)",-0.5638249528147553,0.7782592895487316,3.2467462087626835,"(0.0, 0.0, 0.0, 0.0, 0.0, 0.0)",-0.07768884636877696,False,,,,,False,,,,
49,Close,,,"(1.829952775457341e-07, 0.16999905372445717, 0.0008180403399689366)","(1.5708194143492393, 0.00015934185659229473, -1.4027683329641553e-05)",,"[-0.026750000193715096, 0.05299999937415123, 0.03999999910593033]","[0.0, -0.0, 0.7210614193238458]","[-0.07428312301635742, 0.10707958787679672, 0.03999999910593033]","[0.0, 0.0, -0.05719964992344959]","[0.026750000193715096, 0.05299999937415123, 0.03999999910593033]","[0.0, 0.0, -0.7210615729227128]","[0.07428313046693802, 0.10707958042621613, 0.03999999910593033]","[0.0, -0.0, 0.05719773186848648]",0.7089552791542081,-2.905474110778883,"(0.0, 0.0, 0.0, 0.0, 0.0, 0.0)",0.5075985242705942,-0.7904360705014085,-2.921999817295172,"(0.0, 0.0, 0.0, 0.0, 0.0, 0.0)",0.07003713951344083,-0.7089554078450649,2.905477542535066,"(0.0, 0.0, 0.0, 0.0, 0.0, 0.0)",-0.5075995897946305,0.7904344669675306,2.9220425805117625,"(0.0, 0.0, 0.0, 0.0, 0.0, 0.0)",-0.07003768863744474,False,,,,,False,,,,
50,Close,,,"(1.682467379846132e-07, 0.1699990551245469, 0.0008317388481303276)","(1.570817615731277, 0.00014476218910829968, -1.4024269510216624e-05)",,"[-0.026750000193715096, 0.05299999937415123, 0.03999999910593033]","[0.0, -0.0, 0.7089552779168017]","[-0.07362496107816696, 0.10765105485916138, 0.03999999910593033]","[0.0, 0.0, -0.08148078223376223]","[0.026750000193715096, 0.05299999937415123, 0.03999999910593033]","[0.0, 0.0, -0.7089554724698194]","[0.07362496852874756, 0.10765104740858078, 0.03999999910593033]","[0.0, -0.0, 0.0814790502780401]",0.6980597512387873,-2.6149266997009946,"(0.0, 0.0, 0.0, 0.0, 0.0, 0.0)",0.45693917814201784,-0.8013934602632394,-2.6297735428394082,"(0.0, 0.0, 0.0, 0.0, 0.0, 0.0)",0.06310201359777694,-0.6980598670605584,2.614929788281559,"(0.0, 0.0, 0.0, 0.0, 0.0, 0.0)",-0.45694013827892466,0.8013920170905735,2.6298120295302843,"(0.0, 0.0, 0.0, 0.0, 0.0, 0.0)",-0.06310250889925509,False,,,,,False,,,,
51,Close,,,"(1.546756367802499e-07, 0.16999905637827734, 0.0008443414385910609)","(1.5708159610857961, 0.00013134778772512943, -1.402100024143693e-05)",,"[-0.026750000193715096, 0.05299999937415123, 0.03999999910593033]","[0.0, -0.0, 0.6980597686270504]","[-0.07302673906087875, 0.10815852880477905, 0.03999999910593033]","[0.0, 0.0, -0.10333370902653251]","[0.026750000193715096, 0.05299999937415123, 0.03999999910593033]","[0.0, 0.0, -0.6980598246378259]","[0.07302674651145935, 0.10815852135419846, 0.03999999910593033]","[0.0, -0.0, 0.10333215264877679]",0.6882537761149086,-2.3534340297308955,"(0.0, 0.0, 0.0, 0.0, 0.0, 0.0)",0.41132662822933225,-0.8112550122446371,-2.3667724755354502,"(0.0, 0.0, 0.0, 0.0, 0.0, 0.0)",0.056847326346645,-0.6882538803545026,2.353436809453404,"(0.0, 0.0, 0.0, 0.0, 0.0, 0.0)",-0.4113274932960819,0.8112537133962935,2.3668071133728046,"(0.0, 0.0, 0.0, 0.0, 0.0, 0.0)",-0.0568477730004364,False,,,,,False,,,,
52,Close,,,"(1.4218689550358636e-07, 0.1699990574974972, 0.0008559357877458743)","(1.5708144388885392, 0.00011900551991941484, -1.4017852050493115e-05)",,"[-0.026750000193715096, 0.05299999937415123, 0.03999999910593033]","[0.0, -0.0, 0.6882538042795985]","[-0.07248363643884659, 0.10860966145992279, 0.03999999910593033]","[0.0, 0.0, -0.12300123728040792]","[0.026750000193715096, 0.05299999937415123, 0.03999999910593033]","[0.0, 0.0, -0.688253900607872]","[0.07248364388942719, 0.1086096540093422, 0.03999999910593033]","[0.0, -0.0, 0.12299984676553348]",0.6794283985034177,-2.118090626757806,"(0.0, 0.0, 0.0, 0.0, 0.0, 0.0)",0.3702598465395096,-0.8201303199370257,-2.1300738461732434,"(0.0, 0.0, 0.0, 0.0, 0.0, 0.0)",0.051207533272865695,-0.6794284923190523,2.1180931285080637,"(0.0, 0.0, 0.0, 0.0, 0.0, 0.0)",-0.37026062586363284,0.8201291509798778,2.130105020060234,"(0.0, 0.0, 0.0, 0.0, 0.0, 0.0)",-0.051207935975855504,False,,,,,False,,,,
53,Close,,,"(1.3069318416839e-07, 0.16999905849308636, 0.0008666025576372722)","(1.5708130385376784, 0.00010764969663878531, -1.401480516953977e-05)",,"[-0.026750000193715096, 0.05299999937415123, 0.03999999910593033]","[0.0, -0.0, 0.6794284238724229]","[-0.07199108600616455, 0.10901110619306564, 0.03999999910593033]","[0.0, 0.0, -0.14070193198542613]","[0.026750000193715096, 0.05299999937415123, 0.03999999910593033]","[0.0, 0.0, -0.6794284800706577]","[0.07199109345674515, 0.10901109874248505, 0.03999999910593033]","[0.0, -0.0, 0.1407006814892172]",0.6714855586530759,-1.9062815640820263,"(0.0, 0.0, 0.0, 0.0, 0.0, 0.0)",0.33328720146674756,-0.82811801654313,-1.9170471854650495,"(0.0, 0.0, 0.0, 0.0, 0.0, 0.0)",0.0461231568532664,-0.6714856430871471,1.9062838156572566,"(0.0, 0.0, 0.0, 0.0, 0.0, 0.0)",-0.33328790347714454,0.8281169644874314,1.917075241812861,"(0.0, 0.0, 0.0, 0.0, 0.0, 0.0)",-0.04612351986457081,False,,,,,False,,,,
54,Close,,,"(1.201142787701026e-07, 0.1699990593750365, 0.0008764159571233717)","(1.5708117502799854, 9.720147739875066e-05, -1.4011842957469135e-05)",,"[-0.026750000193715096, 0.05299999937415123, 0.03999999910593033]","[0.0, -0.0, 0.6714856028191667]","[-0.07154478132724762, 0.10936867445707321, 0.03999999910593033]","[0.0, 0.0, -0.1566324602805662]","[0.026750000193715096, 0.05299999937415123, 0.03999999910593033]","[0.0, 0.0, -0.6714856028191667]","[0.07154478132724762, 0.10936867445707321, 0.03999999910593033]","[0.0, -0.0, 0.15663130155257995]",0.6643370027877683,-1.7156534076738226,"(0.0, 0.0, 0.0, 0.0, 0.0, 0.0)",0.30000166468946887,-0.8353068710937589,-1.7253250921509458,"(0.0, 0.0, 0.0, 0.0, 0.0, 0.0)",0.041540284771796165,-0.6643370787784324,1.7156554340915304,"(0.0, 0.0, 0.0, 0.0, 0.0, 0.0)",-0.3000022969997827,0.8353059242487986,1.725350342728124,"(0.0, 0.0, 0.0, 0.0, 0.0, 0.0)",-0.041540611950472935,False,,,,,False,,,,
55,Close,,,"(1.1037647424359984e-07, 0.16999906015252483, 0.0008854442581506275)","(1.5708105651429114, 8.758832292823178e-05, -1.4008951415989527e-05)",,"[-0.026750000193715096, 0.05299999937415123, 0.03999999910593033]","[0.0, -0.0, 0.6643370606126838]","[-0.07114068418741226, 0.1096874549984932, 0.03999999910593033]","[0.0, 0.0, -0.17096987637179278]","[0.026750000193715096, 0.05299999937415123, 0.03999999910593033]","[0.0, 0.0, -0.6643370606126838]","[0.07114069163799286, 0.1096874475479126, 0.03999999910593033]","[0.0, -0.0, 0.17096884643662202]",0.6579033025089914,-1.5440880669064398,"(0.0, 0.0, 0.0, 0.0, 0.0, 0.0)",0.2700364572532802,-0.8417767749452665,-1.5527769243618206,"(0.0, 0.0, 0.0, 0.0, 0.0, 0.0)",0.03741008611729049,-0.6579033709005891,1.5440898906823783,"(0.0, 0.0, 0.0, 0.0, 0.0, 0.0)",-0.27003702673818186,0.8417759227894597,1.5527996497586782,"(0.0, 0.0, 0.0, 0.0, 0.0, 0.0)",-0.03741038095743008,False,,,,,False,,,,
56,Close,,,"(1.0141204673652616e-07, 0.16999906083398159, 0.0008937502707232629)","(1.570809474872104, 7.87434915574051e-05, -1.4006118772737545e-05)",,"[-0.026750000193715096, 0.05299999937415123, 0.03999999910593033]","[0.0, -0.0, 0.6579033304946226]","[-0.07077505439519882, 0.10997187346220016, 0.03999999910593033]","[0.0, 0.0, -0.18387348897538708]","[0.026750000193715096, 0.05299999937415123, 0.03999999910593033]","[0.0, 0.0, -0.6579033304946226]","[0.07077506184577942, 0.10997187346220016, 0.03999999910593033]","[0.0, -0.0, 0.1838725619548152]",0.6521129722580923,-1.3896792602157946,"(0.0, 0.0, 0.0, 0.0, 0.0, 0.0)",0.24306111081870946,-0.8475996296201711,-1.3974851219770965,"(0.0, 0.0, 0.0, 0.0, 0.0, 0.0)",0.033688362136148925,-0.6521130338105302,1.38968090161414,"(0.0, 0.0, 0.0, 0.0, 0.0, 0.0)",-0.24306162368353448,0.8475988626841415,1.3975055747236533,"(0.0, 0.0, 0.0, 0.0, 0.0, 0.0)",-0.03368862779939208,False,,,,,False,,,,
57,Close,,,"(9.31587620256511e-08, 0.16999906142715163, 0.0009013917798737923)","(1.570808471873919, 7.060557585400826e-05, -1.4003335136779464e-05)",,"[-0.026750000193715096, 0.05299999937415123, 0.03999999910593033]","[0.0, -0.0, 0.6521129301518677]","[-0.07044443488121033, 0.11022583395242691, 0.03999999910593033]","[0.0, 0.0, -0.19548665573955404]","[0.026750000193715096, 0.05299999937415123, 0.03999999910593033]","[0.0, 0.0, -0.6521129866161153]","[0.07044444233179092, 0.11022583395242691, 0.03999999910593033]","[0.0, -0.0, 0.19548582525750646]",0.646901675032283,-1.2507113341942153,"(0.0, 0.0, 0.0, 0.0, 0.0, 0.0)",0.2187779064062842,-0.8528401458571484,-1.2577238968745574,"(0.0, 0.0, 0.0, 0.0, 0.0, 0.0)",0.03033513071724496,-0.6469017304294772,1.2507128114527255,"(0.0, 0.0, 0.0, 0.0, 0.0, 0.0)",-0.2187783682505172,0.8528394556185027,1.2577423042466835,"(0.0, 0.0, 0.0, 0.0, 0.0, 0.0)",-0.03033537006280305,False,,,,,False,,,,
58,Close,,,"(8.555942447331213e-08, 0.16999906193915107, 0.000908421947674647)","(1.5708075491625393, 6.311807629477444e-05, -1.4000592203169427e-05)",,"[-0.026750000193715096, 0.05299999937415123, 0.03999999910593033]","[0.0, -0.0, 0.6469017074975589]","[-0.0701456218957901, 0.11045276373624802, 0.03999999910593033]","[0.0, 0.0, -0.20593848593871938]","[0.026750000193715096, 0.05299999937415123, 0.03999999910593033]","[0.0, 0.0, -0.6469017640113621]","[0.0701456293463707, 0.11045276373624802, 0.03999999910593033]","[0.0, -0.0, 0.2059377054983325]",0.6422115075290548,-1.1256402007747932,"(0.0, 0.0, 0.0, 0.0, 0.0, 0.0)",0.19691865600140895,-0.8575565627499749,-1.1319400542783593,"(0.0, 0.0, 0.0, 0.0, 0.0, 0.0)",0.027314243362735774,-0.6422115573865295,1.1256415303074527,"(0.0, 0.0, 0.0, 0.0, 0.0, 0.0)",-0.19691907187647334,0.8575559415385998,1.1319566208232932,"(0.0, 0.0, 0.0, 0.0, 0.0, 0.0)",-0.027314458975022625,False,,,,,False,,,,
59,Move,,,"(7.856146500561274e-08, 0.16999906237651882, 0.0009148896830877347)","(1.5708067003113224, 5.6229009009845055e-05, -1.399788300299107e-05)","[0.0, 0.0, 0.0]","[-0.026750000193715096, 0.05299999937415123, 0.03999999910593033]","[0.0, -0.0, 0.6422115222668433]","[-0.06987567991018295, 0.11065566539764404, 0.03999999910593033]","[0.0, 0.0, -0.21534502689171695]","[0.026750000193715096, 0.05299999937415123, 0.03999999910593033]","[0.0, 0.0, -0.6422115222668433]","[0.06987568736076355, 0.11065565794706345, 0.03999999910593033]","[0.0, -0.0, 0.2153443918565048]",0.6379903567761492,-1.0130761806973148,"(0.0, 0.0, 0.0, 0.0, 0.0, 0.0)",0.17724179525373857,-0.861801294967015,-1.0187357320896053,"(0.0, 0.0, 0.0, 0.0, 0.0, 0.0)",0.024593033118920006,-0.6379904016478766,1.0130773772767077,"(0.0, 0.0, 0.0, 0.0, 0.0, 0.0)",-0.1772421697155535,0.8618007358798453,1.0187506418989196,"(0.0, 0.0, 0.0, 0.0, 0.0, 0.0)",-0.024593227332916724,False,,,,,False,,,,
60,Move,,,"(7.401516452493873e-08, 0.16999906300717518, 0.0009208949427311885)","(1.5708059692049072, 5.171406878091127e-05, -1.3997173418156156e-05)","[-4.546300480674002e-09, 6.306563604674409e-10, 6.005259643453772e-06]","[-0.026750000193715096, 0.05299999937415123, 0.03999999910593033]","[0.0, -0.0, 0.6379903239810443]","[-0.06963192671537399, 0.1108371913433075, 0.03999999910593033]","[0.0, 0.0, -0.2238109552587812]","[0.026750000193715096, 0.05299999937415123, 0.03999999910593033]","[0.0, 0.0, -0.6379904179642307]","[0.06963192671537399, 0.1108371838927269, 0.03999999910593033]","[0.0, -0.0, 0.22381033482023305]",0.615110639462399,-5.491132155300077,"(0.0, 0.0, 0.0, 0.0, 0.0, 0.0)",-6.452665348763696,-0.8613763884842398,0.10197755586604229,"(0.0, 0.0, 0.0, 0.0, 0.0, 0.0)",-0.36782542138199165,-0.6151107211023208,5.491123330933392,"(0.0, 0.0, 0.0, 0.0, 0.0, 0.0)",6.4526488408560905,0.8613758231880564,-0.10197904602934349,"(0.0, 0.0, 0.0, 0.0, 0.0, 0.0)",0.36782252911949487,False,,,,,False,,,,
61,Move,,,"(6.525734425186348e-05, 0.17034549853437667, 0.001059997142676121)","(1.5643418998519334, 0.00019756355969089426, -0.0007979474479338168)","[6.517878278685787e-05, 0.00034643615785784343, 0.00014510745958838623]","[-0.026750000193715096, 0.05299999937415123, 0.03999999910593033]","[0.0, -0.0, 0.6151107619663475]","[-0.06829752027988434, 0.1118030920624733, 0.03999999910593033]","[0.0, 0.0, -0.24626574387408112]","[0.026750000193715096, 0.05299999937415123, 0.03999999910593033]","[0.0, 0.0, -0.6151107619663475]","[0.06829752773046494, 0.1118030920624733, 0.03999999910593033]","[0.0, -0.0, 0.24626510812228053]",0.59557520589455,-4.68850405628373,"(0.0, 0.0, 0.0, 0.0, 0.0, 0.0)",-45.004877301260535,-0.841587039207075,4.749443826519566,"(0.0, 0.0, 0.0, 0.0, 0.0, 0.0)",-23.059879711313982,-0.5955448471476087,4.6958097491309045,"(0.0, 0.0, 0.0, 0.0, 0.0, 0.0)",43.2331221848827,0.8422035798107438,-4.601338410555013,"(0.0, 0.0, 0.0, 0.0, 0.0, 0.0)",22.069611273367745,True,"(-0.03288698015965098, 0.18306432161630465, 0.039999948285931244)","(0.9999999985648672, -1.399717339714095e-05, -5.171406875791205e-05)",0.0009292587523792685,356.63318049990795,True,"(0.032887031061809374, 0.18306436848012048, 0.04000005171406876)","(-0.9999999985648671, 1.3997173395198976e-05, 5.171406875668148e-05)",0.0009247539911204204,342.7710504396539
62,Move,"(0.0, 0.0, 0.0)","(0.0, -0.0, 0.0)","(0.00016176697229314485, 0.17076934431250207, 0.001298992481510786)","(1.553459115144406, 0.0004787126916021603, -0.0016283617000435679)","[0.00016168841082813925, 0.0007702819359832469, 0.0003841027984230513]","[-0.026750000193715096, 0.05299999937415123, 0.03999999910593033]","[0.0, -0.0, 0.5955751094143519]","[-0.06714092195034027, 0.11260347068309784, 0.03999999910593033]","[0.0, 0.0, -0.24601185159459507]","[0.026750000193715096, 0.05299999937415123, 0.03999999910593033]","[0.0, 0.0, -0.5955448282145998]","[0.06713911145925522, 0.11260469257831573, 0.03999999910593033]","[0.0, -0.0, 0.24665872904210193]",0.5770970782178444,-4.434750642409365,"(0.0, 0.0, 0.0, 0.0, 0.0, 0.0)",-74.21698749878065,-0.811850997818181,7.136649933334551,"(0.0, 0.0, 0.0, 0.0, 0.0, 0.0)",-37.92588619525253,-0.5770027641966642,4.450099908226674,"(0.0, 0.0, 0.0, 0.0, 0.0, 0.0)",71.59541053355323,0.8135423707664626,-6.878690170627483,"(0.0, 0.0, 0.0, 0.0, 0.0, 0.0)",36.485404729774935,True,"(-0.03174847742362094, 0.1838726496858637, 0.03999980243644159)","(0.9999996621242782, -0.0007979473476813144, -0.0001975635584110712)",-0.00012778812911608492,569.3446982775357,True,"(0.031700570614753176, 0.18385320841010633, 0.0400001975635584)","(-0.9999996621242783, 0.0007979473476767542, 0.0001975635584049517)",-0.0003431682129125587,549.2893233704585
63,Move,"(-0.0010126582278481, 0.0, 0.0)","(0.0, -0.0, 0.0)","(0.00020568050408397375, 0.17108007690663649, 0.0015665957858292871)","(1.5453980212159237, 0.00011151380297923225, -0.0017071234802152205)","[0.00020560194261896815, 0.0010810145301176632, 0.0006517061027415524]","[-0.026750000193715096, 0.05299999937415123, 0.03999999910593033]","[0.0, -0.0, 0.5770971029289548]","[-0.06603273004293442, 0.11333960294723511, 0.03999999910593033]","[0.0, 0.0, -0.23475391897699402]","[0.026750000193715096, 0.05299999937415123, 0.03999999910593033]","[0.0, 0.0, -0.5770027543990871]","[0.06602703779935837, 0.11334330588579178, 0.03999999910593033]","[0.0, -0.0, 0.23653961426052006]",0.579404895675538,0.5538761898464655,"(0.0, 0.0, 0.0, 0.0, 0.0, 0.0)",6.4633983195225495,-0.8148246019570704,-0.7136649933334551,"(0.0, 0.0, 0.0, 0.0, 0.0, 0.0)",-0.3132438216507522,-0.5792909153140746,-0.5491562681785016,"(0.0, 0.0, 0.0, 0.0, 0.0, 0.0)",-6.16852739973914,0.8163981315451861,0.6853825868936365,"(0.0, 0.0, 0.0, 0.0, 0.0, 0.0)",0.4843271556067679,True,"(-0.03144479909141533, 0.18499061278782541, 0.039999521287326686)","(0.9999985596366134, -0.0016283607938474471, -0.0004787126733201028)",-0.00031179486038545077,0.0,True,"(0.0313112124765586, 0.1849374824167095, 0.040000478712673315)","(-0.9999985596366132, 0.0016283607938671909, 0.0004787126733090728)",-0.0008521962835819142,2.606367117194445
64,Move,"(-0.0020253164556962, 0.0, 0.0)","(0.0, -0.0, 0.0)","(0.00021170327392301067, 0.17132131855005037, 0.0017801150020564044)","(1.5390349482092727, -0.0007774764700709297, -0.0013888582788627762)","[0.00021162471245800507, 0.0013222561735315441, 0.0008652253189686697]","[-0.026750000193715096, 0.05299999937415123, 0.03999999910593033]","[0.0, -0.0, 0.579404963823502]","[-0.06617187708616257, 0.1132487803697586, 0.03999999910593033]","[0.0, 0.0, -0.23541970778940716]","[0.026750000193715096, 0.05299999937415123, 0.03999999910593033]","[0.0, 0.0, -0.5792908612503161]","[0.0661650076508522, 0.11325327306985855, 0.03999999910593033]","[0.0, -0.0, 0.23710723316040327]",0.5799708580205206,0.1358309627958309,"(0.0, 0.0, 0.0, 0.0, 0.0, 0.0)",-0.5276938825575994,-0.8145272415431815,0.0713664993333446,"(0.0, 0.0, 0.0, 0.0, 0.0, 0.0)",0.040190789676413666,-0.5793529322985979,-0.01488407628556443,"(0.0, 0.0, 0.0, 0.0, 0.0, 0.0)",0.9896974007631115,0.816106544197846,-0.06998096336162296,"(0.0, 0.0, 0.0, 0.0, 0.0, 0.0)",0.14498595474653386,True,"(-0.03153624923514486, 0.18487733778001617, 0.039999888486197246)","(0.9999985366474105, -0.001707122640433851, -0.00011151380275540046)",-0.00019027644015300206,0.0,True,"(0.031408552968427136, 0.18482838253269274, 0.04000011151380275)","(-0.9999985366474103, 0.0017071226404405677, 0.0001115138027507468)",-0.000784928296535469,2.1968896509796765
65,Move,"(-0.0030379746835443, 0.0, 0.0)","(0.0, -0.0, 0.0)","(0.0001663638363805138, 0.17149131841193194, 0.0019425396195108155)","(1.5346983758428956, -0.0011300831214859544, 0.0002876002676046732)","[0.0001662852749155082, 0.0014922560354131142, 0.0010276499364230808]","[-0.026750000193715096, 0.05299999937415123, 0.03999999910593033]","[0.0, -0.0, 0.5799708718766755]","[-0.06620597094297409, 0.11322645843029022, 0.03999999910593033]","[0.0, 0.0, -0.23455640151601143]","[0.026750000193715096, 0.05299999937415123, 0.03999999910593033]","[0.0, 0.0, -0.5793529078847575]","[0.06616874784231186, 0.11325082927942276, 0.03999999910593033]","[0.0, -0.0, 0.23675361721181984]",0.5806391395477738,0.16038756654076342,"(0.0, 0.0, 0.0, 0.0, 0.0, 0.0)",-0.005282658021834579,-0.8144785451738491,0.011687128639768146,"(0.0, 0.0, 0.0, 0.0, 0.0, 0.0)",-0.024328601973723486,-0.5791146614507595,0.05718500348119034,"(0.0, 0.0, 0.0, 0.0, 0.0, 0.0)",0.889996580343745,0.8160210402428603,-0.020520949196579506,"(0.0, 0.0, 0.0, 0.0, 0.0, 0.0)",0.4720516673787342,True,"(-0.03163219382832046, 0.18488434680563892, 0.04000077747639176)","(0.9999987333019715, -0.0013888574125899, 0.0007774763917614639)",-0.00012702097355952771,0.2657232745508342,True,"(0.03143760019682694, 0.18483755170622507, 0.03999922252360824)","(-0.9999987333019715, 0.0013888574126086285, -0.0007774763917574493)",-0.0007231994864567737,5.940775607716012
66,Move,"(-0.0040506329113924, 0.0, 0.0)","(0.0, -0.0, 0.0)","(9.74503144059628e-05, 0.17161557188214457, 0.0020379099011308657)","(1.532067957275432, -0.0010637479448654286, 0.001846028988479441)","[9.737175294095718e-05, 0.0016165095056257517, 0.001123020218043131]","[-0.026750000193715096, 0.05299999937415123, 0.03999999910593033]","[0.0, -0.0, 0.5806390870965794]","[-0.06624620407819748, 0.11320007592439651, 0.03999999910593033]","[0.0, 0.0, -0.2338394209815656]","[0.026750000193715096, 0.05299999937415123, 0.03999999910593033]","[0.0, 0.0, -0.5791146670008914]","[0.06615439057350159, 0.11326021701097488, 0.03999999910593033]","[0.0, -0.0, 0.23690639010006478]",0.5816068447359525,0.23224924516286996,"(0.0, 0.0, 0.0, 0.0, 0.0, 0.0)",0.10414582182041376,-0.8144834148107823,-0.0011687128639765731,"(0.0, 0.0, 0.0, 0.0, 0.0, 0.0)",0.006466296183701264,-0.5787982136711454,0.07594746710740566,"(0.0, 0.0, 0.0, 0.0, 0.0, 0.0)",0.5767154415544027,0.8159223441271988,-0.023687067758764804,"(0.0, 0.0, 0.0, 0.0, 0.0, 0.0)",0.3300800058722955,True,"(-0.03172381940040038, 0.18488369535632834, 0.040001130082880955)","(0.999999320099207, 0.0002876000799910259, 0.0011300828809572918)",-0.00011669864439703798,0.0,True,"(0.0314123069996316, 0.18484011203847747, 0.039998869917119054)","(-0.9999993200992071, -0.0002876000799918104, -0.001130082880946644)",-0.0006672313481753116,4.197414791787021
67,Move,"(-0.0050632911392405, 0.0, 0.0)","(0.0, -0.0, 0.0)","(1.5865536425951969e-06, 0.17169179156319617, 0.0020748911505440353)","(1.5312909984325163, -0.0010058952780896309, 0.0026630695125885915)","[1.5079921775895842e-06, 0.0016927291866773442, 0.0011600014674563006]","[-0.026750000193715096, 0.05299999937415123, 0.03999999910593033]","[0.0, -0.0, 0.5816068353632768]","[-0.06630444526672363, 0.1131618320941925, 0.03999999910593033]","[0.0, 0.0, -0.23287657933505623]","[0.026750000193715096, 0.05299999937415123, 0.03999999910593033]","[0.0, 0.0, -0.5787983032531568]","[0.06613531708717346, 0.11327268928289413, 0.03999999910593033]","[0.0, -0.0, 0.23712416198821173]",0.5827998388987577,0.2863185990732653,"(0.0, 0.0, 0.0, 0.0, 0.0, 0.0)",0.07958931343504534,-0.814482927847089,0.00011687128639792399,"(0.0, 0.0, 0.0, 0.0, 0.0, 0.0)",0.006067942788187927,-0.5783261899634013,0.113285689858561,"(0.0, 0.0, 0.0, 0.0, 0.0, 0.0)",0.6554616889058617,0.8158328002595241,-0.021490528241933485,"(0.0, 0.0, 0.0, 0.0, 0.0, 0.0)",0.3645746542914128,True,"(-0.03185109320189717, 0.1848792482325145, 0.04000106374774426)","(0.9999977303101432, 0.0018460268955353713, 0.0010637477442556305)",-7.639650830833176e-05,0.0,True,"(0.031377651500751357, 0.18484367093397017, 0.03999893625225574)","(-0.999997730310143, -0.0018460268955490255, -0.0010637477442560568)",-0.0006150686160137514,4.588489268121485
68,Move,"(-0.0060759493670886, 0.0, 0.0)","(0.0, -0.0, 0.0)","(-0.0001227330751182193, 0.1717352805472091, 0.0020594124360905543)","(1.5322693939258076, -0.0010467383308444544, 0.0027854346921237644)","[-0.0001228116365832249, 0.001736218170690279, 0.0011445227530028196]","[-0.026750000193715096, 0.05299999937415123, 0.03999999910593033]","[0.0, -0.0, 0.5827998753132078]","[-0.06637618690729141, 0.1131146028637886, 0.03999999910593033]","[0.0, 0.0, -0.23168306661130886]","[0.026750000193715096, 0.05299999937415123, 0.03999999910593033]","[0.0, 0.0, -0.5783262516282734]","[0.06610686331987381, 0.11329127103090286, 0.03999999910593033]","[0.0, -0.0, 0.23750661172122522]",0.5842040279622962,0.33700537524923385,"(0.0, 0.0, 0.0, 0.0, 0.0, 0.0)",0.07448259426174772,-0.8144829765434584,-1.1687128640858204e-05,"(0.0, 0.0, 0.0, 0.0, 0.0, 0.0)",0.00554411536018024,-0.5776858482411655,0.15368201333659953,"(0.0, 0.0, 0.0, 0.0, 0.0, 0.0)",0.6657464020625372,0.8158064748681187,-0.006318093937273993,"(0.0, 0.0, 0.0, 0.0, 0.0, 0.0)",0.3684294558551333,True,"(-0.03200845451845401, 0.18487270910911935, 0.04000100589510846)","(0.9999959481216627, 0.002663065017587776, 0.0010058951084572496)",-2.3339151196835635e-05,0.0,True,"(0.031321826064478336, 0.18484852112167202, 0.03999899410489154)","(-0.9999959481216625, -0.002663065017603316, -0.0010058951084585498)",-0.0005667016878575497,4.620115782644424
69,Move,"(-0.0070886075949367, 0.0, 0.0)","(0.0, -0.0, 0.0)","(-0.00026669583956488794, 0.1717724992944798, 0.0019983882087432586)","(1.5346771748413357, -0.0010800469041704103, 0.002897503686090066)","[-0.00026677440102989354, 0.0017734369179609744, 0.001083498525655524]","[-0.026750000193715096, 0.05299999937415123, 0.03999999910593033]","[0.0, -0.0, 0.5842039917744715]","[-0.06646056473255157, 0.1130588948726654, 0.03999999910593033]","[0.0, 0.0, -0.23027895230055376]","[0.026750000193715096, 0.05299999937415123, 0.03999999910593033]","[0.0, 0.0, -0.5776858608086404]","[0.06606824696063995, 0.11331646144390106, 0.03999999910593033]","[0.0, -0.0, 0.23812064228327343]",0.5857973373371077,0.38239424995477383,"(0.0, 0.0, 0.0, 0.0, 0.0, 0.0)",0.06673333805948095,-0.8144829716738214,1.1687128651516332e-06,"(0.0, 0.0, 0.0, 0.0, 0.0, 0.0)",0.004980849332279364,-0.5768752379287273,0.19454647498516903,"(0.0, 0.0, 0.0, 0.0, 0.0, 0.0)",0.62173220926362,0.8157919938061979,-0.0034754548609940983,"(0.0, 0.0, 0.0, 0.0, 0.0, 0.0)",0.29231397624632566,True,"(-0.03219361564278954, 0.18486391180171693, 0.04000104673813971)","(0.9999955728509048, 0.002785429564321398, 0.0010467381397053733)",3.445756297002983e-05,0.0,True,"(0.03123927877336386, 0.18485283018076548, 0.03999895326186031)","(-0.9999955728509047, -0.002785429564317659, -0.0010467381396927348)",-0.0005218754096554155,4.239775426641064
70,Move,"(-0.00810126582278481, 0.0, 0.0)","(0.0, -0.0, 0.0)","(-0.0004308364373584494, 0.17180559093604297, 0.0018923961888017461)","(1.5385110503280675, -0.0011183309893650856, 0.0029630183300626057)","[-0.000430914998823455, 0.001806528559524151, 0.0009775065057140114]","[-0.026750000193715096, 0.05299999937415123, 0.03999999910593033]","[0.0, -0.0, 0.5857973653719543]","[-0.06655620783567429, 0.11299555003643036, 0.03999999910593033]","[0.0, 0.0, -0.22868567690010935]","[0.026750000193715096, 0.05299999937415123, 0.03999999910593033]","[0.0, 0.0, -0.5768752933809465]","[0.06601934134960175, 0.11334831267595291, 0.03999999910593033]","[0.0, -0.0, 0.23891679538859042]",0.5875591796653652,0.42284215878179765,"(0.0, 0.0, 0.0, 0.0, 0.0, 0.0)",0.05948988856602679,-0.8144829721607851,-1.1687128598225288e-07,"(0.0, 0.0, 0.0, 0.0, 0.0, 0.0)",0.004439566159657112,-0.5758899563388741,0.23646758156477785,"(0.0, 0.0, 0.0, 0.0, 0.0, 0.0)",0.632324768711656,0.8157777723113852,-0.003413158755063526,"(0.0, 0.0, 0.0, 0.0, 0.0, 0.0)",0.29547329222303675,True,"(-0.03240370364750124, 0.1848535899961371, 0.0400010800466942)","(0.9999952189909788, 0.0028974979417850195, 0.0010800466941944488)",9.790785675711947e-05,0.0,True,"(0.031133429382736152, 0.18485761516541022, 0.03999891995330581)","(-0.9999952189909789, -0.0028974979417699352, -0.001080046694189874)",-0.00048106764576953605,4.309160310800257
71,Move,"(-0.00911392405063291, 0.0, 0.0)","(0.0, -0.0, 0.0)","(-0.000615743567905589, 0.1718357109360979, 0.001741902399519429)","(1.5437708203646263, -0.0011742957556927945, 0.0029627327378484608)","[-0.0006158221293705946, 0.0018366485595790738, 0.0008270127164316944]","[-0.026750000193715096, 0.05299999937415123, 0.03999999910593033]","[0.0, -0.0, 0.5875591821124717]","[-0.06666184216737747, 0.11292532831430435, 0.03999999910593033]","[0.0, 0.0, -0.2269237734842933]","[0.026750000193715096, 0.05299999937415123, 0.03999999910593033]","[0.0, 0.0, -0.5758899673500587]","[0.0659598633646965, 0.11338697373867035, 0.03999999910593033]","[0.0, -0.0, 0.23988782432021127]",0.5894789979249424,0.46075638229853855,"(0.0, 0.0, 0.0, 0.0, 0.0, 0.0)",0.05578148796308713,-0.8144829721120888,1.1687128598229015e-08,"(0.0, 0.0, 0.0, 0.0, 0.0, 0.0)",0.004163551989326096,-0.5747262103437591,0.27929903882758866,"(0.0, 0.0, 0.0, 0.0, 0.0, 0.0)",0.6411337489913003,0.8157650148247151,-0.003061796800823526,"(0.0, 0.0, 0.0, 0.0, 0.0, 0.0)",0.29869159945467144,True,"(-0.032635993530579235, 0.18484172809396784, 0.04000111833075625)","(0.9999949849351089, 0.0029630121415743066, 0.0011183307562450204)",0.00016375200475627117,0.0,True,"(0.03100452382770455, 0.18486327273871456, 0.03999888166924376)","(-0.9999949849351089, -0.002963012141575126, -0.0011183307562470832)",-0.0004434908496417018,4.3649890739581805
72,Move,"(-0.010126582278481011, 0.0, 0.0)","(0.0, -0.0, 0.0)","(-0.0008218630660058054, 0.17186363079495628, 0.001547254664520309)","(1.5504564483669707, -0.0012572235088406034, 0.002884001022899095)","[-0.000821941627470811, 0.0018645684184374622, 0.0006323649814325744]","[-0.026750000193715096, 0.05299999937415123, 0.03999999910593033]","[0.0, -0.0, 0.5894790419964563]","[-0.0667768195271492, 0.11284859478473663, 0.03999999910593033]","[0.0, 0.0, -0.22500398471295135]","[0.026750000193715096, 0.05299999937415123, 0.03999999910593033]","[0.0, 0.0, -0.5747261612002389]","[0.06588955968618393, 0.11343256384134293, 0.03999999910593033]","[0.0, -0.0, 0.24103882740229318]",0.5915449497158239,0.49582842981157427,"(0.0, 0.0, 0.0, 0.0, 0.0, 0.0)",0.051619395326561186,-0.8144829721169584,-1.1687131262760886e-09,"(0.0, 0.0, 0.0, 0.0, 0.0, 0.0)",0.0038535507889313142,-0.5733807024683146,0.3229218901066768,"(0.0, 0.0, 0.0, 0.0, 0.0, 0.0)",0.6476775407991705,0.81575355237033,-0.002750989052415981,"(0.0, 0.0, 0.0, 0.0, 0.0, 0.0)",0.30096713668318603,True,"(-0.03288908722058852, 0.1848282650122866, 0.04000117429548581)","(0.9999949216284169, 0.0029627263607214334, 0.0011742954858076715)",0.0002297594951385652,0.0,True,"(0.030851972957550572, 0.18486973289476433, 0.03999882570451419)","(-0.9999949216284169, -0.002962726360721271, -0.0011742954858111913)",-0.0004089012953009714,4.405590330089269
73,Move,"(-0.01113924050632911, 0.0, 0.0)","(0.0, -0.0, 0.0)","(-0.0010496010554880363, 0.17188997729425146, 0.0013087620720472694)","(1.5585678984515972, -0.0013752348107405805, 0.0027172063640117376)","[-0.001049679616953042, 0.0018909149177326334, 0.0003938723889595347]","[-0.026750000193715096, 0.05299999937415123, 0.03999999910593033]","[0.0, -0.0, 0.5915450160394545]","[-0.06690037995576859, 0.11276576668024063, 0.03999999910593033]","[0.0, 0.0, -0.22293800583152337]","[0.026750000193715096, 0.05299999937415123, 0.03999999910593033]","[0.0, 0.0, -0.5733806867473831]","[0.06580821424722672, 0.1134851723909378, 0.03999999910593033]","[0.0, -0.0, 0.24237288125738]",0.5937446184163477,0.5279204881257211,"(0.0, 0.0, 0.0, 0.0, 0.0, 0.0)",0.047254278543185424,-0.8144829721164715,1.1687184553466068e-10,"(0.0, 0.0, 0.0, 0.0, 0.0, 0.0)",0.0035284216326796846,-0.5718502883555843,0.36729938705529513,"(0.0, 0.0, 0.0, 0.0, 0.0, 0.0)",0.6534997519565022,0.8157432653870673,-0.002468875983043223,"(0.0, 0.0, 0.0, 0.0, 0.0, 0.0)",0.302931621570096,True,"(-0.033161416381146835, 0.1848131559660368, 0.04000125722317764)","(0.9999950509698476, 0.0028839947457323717, 0.0012572231776414513)",0.00029370245109270444,0.0,True,"(0.03067535086874898, 0.18487694824280648, 0.039998742776822346)","(-0.9999950509698476, -0.0028839947457278844, -0.0012572231776488512)",-0.000377068693473622,4.4413145518596675
74,Move,"(-0.012151898734177212, 0.0, 0.0)","(0.0, -0.0, 0.0)","(-0.0012993458918302803, 0.17191533630973269, 0.0010267206583060517)","(1.5681050527708187, -0.0015358335115647325, 0.0024534101046209313)","[-0.001299424453295286, 0.0019162739332138634, 0.00011183097521831695]","[-0.026750000193715096, 0.05299999937415123, 0.03999999910593033]","[0.0, -0.0, 0.5937446634382681]","[-0.06703174114227295, 0.11267730593681335, 0.03999999910593033]","[0.0, 0.0, -0.2207383588207688]","[0.026750000193715096, 0.05299999937415123, 0.03999999910593033]","[0.0, 0.0, -0.5718502539088094]","[0.06571559607982635, 0.11354487389326096, 0.03999999910593033]","[0.0, -0.0, 0.24389297119704587]",0.5960650829320351,0.556911483764953,"(0.0, 0.0, 0.0, 0.0, 0.0, 0.0)",0.042710624849100126,-0.8144829721165202,-1.1686651646414248e-11,"(0.0, 0.0, 0.0, 0.0, 0.0, 0.0)",0.0031899631130249653,-0.5701318247130078,0.4124312742183576,"(0.0, 0.0, 0.0, 0.0, 0.0, 0.0)",0.6590563418953581,0.8157340063323674,-0.002222173127981192,"(0.0, 0.0, 0.0, 0.0, 0.0, 0.0)",0.3047475685566514,True,"(-0.03345133683502874, 0.18479636765048502, 0.040001375234377266)","(0.9999953627653065, 0.00271720045091545, 0.001375234377259414)",0.0003533056748445438,0.0,True,"(0.030474248010570693, 0.184884850654809, 0.03999862476562274)","(-0.9999953627653067, -0.002717200450910155, -0.0013752343772527034)",-0.00034777900122646987,4.47518114415649
75,Move,"(-0.01316455696202531, 0.0, 0.0)","(0.0, -0.0, 0.0)","(-0.0015793485392476049, 0.171992731205133, 0.0010312681951481141)","(1.5725664694998032, 0.0004149633163782698, 0.007380788233999801)","[-0.0015794271007126106, 0.0019936688286141813, 0.00011637851206037944]","[-0.026750000193715096, 0.05299999937415123, 0.03999999910593033]","[0.0, -0.0, 0.5960650505443116]","[-0.06717011332511902, 0.11258367449045181, 0.03999999910593033]","[0.0, 0.0, -0.218417892194993]","[0.026750000193715096, 0.05299999937415123, 0.03999999910593033]","[0.0, 0.0, -0.570131854599794]","[0.06561149656772614, 0.11361175030469894, 0.03999999910593033]","[0.0, -0.0, 0.2456021728250459]",0.5984927987961566,0.5826518073891479,"(0.0, 0.0, 0.0, 0.0, 0.0, 0.0)",0.03794647083349322,-0.8144829721165153,1.169730978745065e-12,"(0.0, 0.0, 0.0, 0.0, 0.0, 0.0)",0.0028350365665251237,-0.5682270124896299,0.4571549336106855,"(0.0, 0.0, 0.0, 0.0, 0.0, 0.0)",1.805515477238127,0.8156012140529537,-0.031870147059275857,"(0.0, 0.0, 0.0, 0.0, 0.0, 0.0)",1.068739367574416,True,"(-0.03375713786748104, 0.18477787837777343, 0.040001535832907775)","(0.9999958110024325, 0.0024534047498208688, 0.0015358329077725039)",0.00040624099573396,0.0,True,"(0.030248256729552107, 0.1848933563215342, 0.039998464167092206)","(-0.9999958110024324, -0.0024534047498233438, -0.0015358329077884369)",-0.0003208342981343765,13.312163467940646
76,Move,"(-0.01417721518987341, 0.0, 0.0)","(0.0, -0.0, 0.0)","(-0.0018233262839676325, 0.1720171935963033, 0.0010782757967554989)","(1.5740505372702873, 0.00037828921353854847, 0.011765957629417529)","[-0.0018234048454326382, 0.0020181312197844747, 0.00016338611366776418]","[-0.026750000193715096, 0.05299999937415123, 0.03999999910593033]","[0.0, -0.0, 0.5984928578161248]","[-0.06731464713811874, 0.112485371530056, 0.03999999910593033]","[0.0, 0.0, -0.2159902055249081]","[0.026750000193715096, 0.05299999937415123, 0.03999999910593033]","[0.0, 0.0, -0.5682270180996054]","[0.06549597531557083, 0.11368566006422043, 0.03999999910593033]","[0.0, -0.0, 0.24737422814464097]",0.601013472742695,0.604961747169221,"(0.0, 0.0, 0.0, 0.0, 0.0, 0.0)",0.03291754353245075,-0.8144829721165158,-1.1723955140041653e-13,"(0.0, 0.0, 0.0, 0.0, 0.0, 0.0)",0.002460329070119959,-0.5661219781537444,0.5052082406125178,"(0.0, 0.0, 0.0, 0.0, 0.0, 0.0)",0.30568607422216804,0.8156045697616651,0.0008053700907216244,"(0.0, 0.0, 0.0, 0.0, 0.0, 0.0)",0.1401029900187172,True,"(-0.034077050381702056, 0.18476297833815383, 0.03999958503669554)","(0.9999726760112433, 0.007380720586040081, -0.000414963304464494)",0.0004587314824565268,0.0,True,"(0.030006492673421994, 0.18490133861595695, 0.040000414963304455)","(-0.9999726760112431, -0.00738072058604678, 0.00041496330445885653)",-0.00029591696874240494,1.7597719219132626
77,Move,"(-0.01518987341772152, 0.0, 0.0)","(0.0, -0.0, 0.0)","(-0.0020851879134763905, 0.1720515843723616, 0.0010800642955492653)","(1.5740785768746979, 0.00034650518853256303, 0.016451566903958863)","[-0.0020852664749413962, 0.002052521995842771, 0.00016517461246153063]","[-0.026750000193715096, 0.05299999937415123, 0.03999999910593033]","[0.0, -0.0, 0.6010134303086905]","[-0.06746446341276169, 0.1123829334974289, 0.03999999910593033]","[0.0, 0.0, -0.21346950806961032]","[0.026750000193715096, 0.05299999937415123, 0.03999999910593033]","[0.0, 0.0, -0.566121944111995]","[0.06536814570426941, 0.11376708745956421, 0.03999999910593033]","[0.0, -0.0, 0.249482592029739]",0.6036884809451876,0.6420019685982005,"(0.0, 0.0, 0.0, 0.0, 0.0, 0.0)",0.054552548708534765,-0.8144829721165158,1.0658141036401503e-14,"(0.0, 0.0, 0.0, 0.0, 0.0, 0.0)",0.004074554145167562,-0.5638256075600562,0.551128942485187,"(0.0, 0.0, 0.0, 0.0, 0.0, 0.0)",0.5376960750582257,0.815568074288607,-0.008758913533926148,"(0.0, 0.0, 0.0, 0.0, 0.0, 0.0)",0.29316491366321107,True,"(-0.03440917844377592, 0.18474595504108693, 0.039999621710795484)","(0.9999307103726589, 0.011765685313976803, -0.0003782892045193308)",0.000488556032863251,0.0,True,"(0.02972861427068617, 0.18490550515548101, 0.040000378289204525)","(-0.9999307103726588, -0.01176568531397525, 0.0003782892045204643)",-0.0002733288494860736,3.6041727944011783
78,Move,"(-0.01620253164556962, 0.0, 0.0)","(0.0, -0.0, 0.0)","(-0.0023646003855344504, 0.1721022071406825, 0.0010396154755411776)","(1.5727438544320544, 0.00032024855424167385, 0.021609229300777924)","[-0.002364678946999456, 0.002103144764163678, 0.00012472579245344294]","[-0.026750000193715096, 0.05299999937415123, 0.03999999910593033]","[0.0, -0.0, 0.6036884838549317]","[-0.06762316823005676, 0.11227380484342575, 0.03999999910593033]","[0.0, 0.0, -0.21079448937922654]","[0.026750000193715096, 0.05299999937415123, 0.03999999910593033]","[0.0, 0.0, -0.563825632592304]","[0.06522849947214127, 0.11385560780763626, 0.03999999910593033]","[0.0, -0.0, 0.2517424849324176]",0.606509265456448,0.6769882827025144,"(0.0, 0.0, 0.0, 0.0, 0.0, 0.0)",0.051548319179901395,-0.8144829721165158,0.0,"(0.0, 0.0, 0.0, 0.0, 0.0, 0.0)",0.003851119193662694,-0.5613542041533587,0.5931368176074099,"(0.0, 0.0, 0.0, 0.0, 0.0, 0.0)",0.5143481249239348,0.8155404986745559,-0.0066181473722520855,"(0.0, 0.0, 0.0, 0.0, 0.0, 0.0)",0.27516011837335314,True,"(-0.03476160317411861, 0.18472700569635783, 0.03999965349481841)","(0.9998646160006104, 0.01645082381253317, -0.0003465051815962324)",0.000516956924450307,0.0,True,"(0.02942833297252015, 0.18491087850267057, 0.04000034650518159)","(-0.9998646160006104, -0.016450823812530893, 0.00034650518159335856)",-0.00025268482664030664,3.4547681540772546
79,Move,"(-0.01721518987341772, 0.0, 0.0)","(0.0, -0.0, 0.0)","(-0.0026601979254477015, 0.17217045824752858, 0.0009566777484932525)","(1.5700352197449061, 0.000300244316656552, 0.027275099943443872)","[-0.0026602764869127072, 0.002171395871009757, 4.178806540551777e-05]","[-0.026750000193715096, 0.05299999937415123, 0.03999999910593033]","[0.0, -0.0, 0.6065093112258921]","[-0.0677902027964592, 0.11215827614068985, 0.03999999910593033]","[0.0, 0.0, -0.20797372146551232]","[0.026750000193715096, 0.05299999937415123, 0.03999999910593033]","[0.0, 0.0, -0.5613542111335733]","[0.06507798284292221, 0.11395052075386047, 0.03999999910593033]","[0.0, -0.0, 0.2541863065516207]",0.6094806759479776,0.7131385179671071,"(0.0, 0.0, 0.0, 0.0, 0.0, 0.0)",0.053268254248830464,-0.8144829721165158,0.0,"(0.0, 0.0, 0.0, 0.0, 0.0, 0.0)",0.003980078678418288,-0.5587160432261833,0.6331586225220976,"(0.0, 0.0, 0.0, 0.0, 0.0, 0.0)",0.4927302769181179,0.8155140995465544,-0.0063357907203541106,"(0.0, 0.0, 0.0, 0.0, 0.0, 0.0)",0.2592996281346836,True,"(-0.03513319206084171, 0.1847062190453634, 0.03999967975145123)","(0.9997664784222143, 0.021607546462084244, -0.0003202485487665163)",0.000541075444501806,0.0,True,"(0.02910433203992338, 0.1849153736391263, 0.040000320248548764)","(-0.9997664784222144, -0.021607546462082017, 0.00032024854876307234)",-0.00023403145679512237,3.3105027861213854
80,Move,"(-0.01822784810126582, 0.0, 0.0)","(0.0, -0.0, 0.0)","(-0.0029254128178629723, 0.17221134723976103, 0.0009593196144027105)","(1.5681038216215275, -0.0017094539230207372, 0.030728703515452285)","[-0.002925491379327978, 0.0022122848632422087, 4.4429931314975786e-05]","[-0.026750000193715096, 0.05299999937415123, 0.03999999910593033]","[0.0, -0.0, 0.6094806610850365]","[-0.0679658055305481, 0.1120360717177391, 0.03999999910593033]","[0.0, 0.0, -0.2050023090462444]","[0.026750000193715096, 0.05299999937415123, 0.03999999910593033]","[0.0, 0.0, -0.5587160618786478]","[0.06491705030202866, 0.11405142396688461, 0.03999999910593033]","[0.0, -0.0, 0.2567980775600516]",0.6126083901504789,0.7506514086002979,"(0.0, 0.0, 0.0, 0.0, 0.0, 0.0)",0.055280486087142304,-0.8144829721165158,1.3552527156068805e-20,"(0.0, 0.0, 0.0, 0.0, 0.0, 0.0)",0.004130900741016078,-0.555918973291782,0.6712967842563118,"(0.0, 0.0, 0.0, 0.0, 0.0, 0.0)",0.7815550495773308,0.8154905244466837,-0.005658023968986238,"(0.0, 0.0, 0.0, 0.0, 0.0, 0.0)",0.44008597504628205,True,"(-0.0355245775648257, 0.18468342129577878, 0.03999969975568786)","(0.9996280124641328, 0.02727171704093007, -0.00030024431214502074)",0.0005626277686885396,0.0,True,"(0.028758259799595155, 0.18491902717250122, 0.04000030024431214)","(-0.9996280124641328, -0.027271717040931873, 0.00030024431213902)",-0.00021727599958913164,5.5485150119767885
81,Move,"(-0.01924050632911392, 0.0, 0.0)","(0.0, -0.0, 0.0)","(-0.0032525504196191327, 0.17224606495453862, 0.0010025145548486244)","(1.5683162716215282, -0.0028894822231359096, 0.032965292436985504)","[-0.0032526289810841384, 0.0022470025780197966, 8.762487176088973e-05]","[-0.026750000193715096, 0.05299999937415123, 0.03999999910593033]","[0.0, -0.0, 0.6126083856741329]","[-0.06815025210380554, 0.11190687119960785, 0.03999999910593033]","[0.0, 0.0, -0.2018745466000389]","[0.026750000193715096, 0.05299999937415123, 0.03999999910593033]","[0.0, 0.0, -0.5559190411433181]","[0.06474613398313522, 0.11415793746709824, 0.03999999910593033]","[0.0, -0.0, 0.2595715073005135]",0.6158983301210917,0.7895855929470823,"(0.0, 0.0, 0.0, 0.0, 0.0, 0.0)",0.05737939233689665,-0.8144829721165158,0.0,"(0.0, 0.0, 0.0, 0.0, 0.0, 0.0)",0.0042882550630323766,-0.5529736468851065,0.7068783376021003,"(0.0, 0.0, 0.0, 0.0, 0.0, 0.0)",1.5068094020382337,0.8154180898406884,-0.017384305438855167,"(0.0, 0.0, 0.0, 0.0, 0.0, 0.0)",0.823322293594565,True,"(-0.03593641345616288, 0.18465565856094093, 0.04000170945309045)","(0.9995264501133256, 0.030723822906419774, 0.0017094530904562275)",0.000586291142715186,0.0,True,"(0.028390956089980615, 0.18492430571375978, 0.03999829054690955)","(-0.9995264501133256, -0.030723822906425037, -0.001709453090445689)",-0.0002011341696041136,11.079632833612926
82,Move,"(-0.020253164556962022, 0.0, 0.0)","(0.0, -0.0, 0.0)","(-0.003614909929539139, 0.1722765722516053, 0.0010257060453174348)","(1.5685127332297757, -0.0034405613562325916, 0.036020800015989146)","[-0.003614988491004145, 0.0022775098750864864, 0.00011081636222970014]","[-0.026750000193715096, 0.05299999937415123, 0.03999999910593033]","[0.0, -0.0, 0.6158983341894068]","[-0.06834382563829422, 0.11177034676074982, 0.03999999910593033]","[0.0, 0.0, -0.19858463429361464]","[0.026750000193715096, 0.05299999937415123, 0.03999999910593033]","[0.0, 0.0, -0.5529736398782636]","[0.06456584483385086, 0.11426958441734314, 0.03999999910593033]","[0.0, -0.0, 0.2624444543899595]",0.6193247790596651,0.8223477452576001,"(0.0, 0.0, 0.0, 0.0, 0.0, 0.0)",0.04832979150960087,-0.8144829721165158,-1.3552527156068805e-20,"(0.0, 0.0, 0.0, 0.0, 0.0, 0.0)",0.0036140685982987207,-0.5498849693338113,0.7412826123108749,"(0.0, 0.0, 0.0, 0.0, 0.0, 0.0)",0.9870235798407964,0.815376203974729,-0.010052607830275975,"(0.0, 0.0, 0.0, 0.0, 0.0, 0.0)",0.5516468994425158,True,"(-0.036369469612597884, 0.18462367051811013, 0.040002889478202366)","(0.999452521668516, 0.03295918454942082, 0.002889478202367679)",0.0006181426892591841,0.0,True,"(0.028007489181782058, 0.18493185095310838, 0.03999711052179763)","(-0.9994525216685157, -0.03295918454942809, -0.0028894782023690074)",-0.00018628658476453917,7.143778685828715
83,Move,"(-0.021265822784810123, 0.0, 0.0)","(0.0, -0.0, 0.0)","(-0.004007922553670101, 0.17229776498945906, 0.0010338385323857143)","(1.568694377031596, -0.0035214674310374656, 0.03951697486607616)","[-0.004008001115135106, 0.00229870261294024, 0.00011894884929797961]","[-0.026750000193715096, 0.05299999937415123, 0.03999999910593033]","[0.0, -0.0, 0.6193247231825473]","[-0.06854495406150818, 0.1116274818778038, 0.03999999910593033]","[0.0, 0.0, -0.19515821148395643]","[0.026750000193715096, 0.05299999937415123, 0.03999999910593033]","[0.0, 0.0, -0.5498849924837564]","[0.06437642127275467, 0.11438609659671783, 0.03999999910593033]","[0.0, -0.0, 0.26549126346703045]",0.6228669481231928,0.8501205752466534,"(0.0, 0.0, 0.0, 0.0, 0.0, 0.0)",0.04101485370029081,-0.8144829721165158,0.0,"(0.0, 0.0, 0.0, 0.0, 0.0, 0.0)",0.0030691751020636908,-0.5466524852451611,0.7757961812760473,"(0.0, 0.0, 0.0, 0.0, 0.0, 0.0)",0.9064512568937927,0.8153251695456133,-0.012248262987773154,"(0.0, 0.0, 0.0, 0.0, 0.0, 0.0)",0.5262814710489321,True,"(-0.03682040236297679, 0.18458956653510558, 0.040003440554568316)","(0.9993454062399192, 0.03601279788399605, 0.0034405545683200765)",0.0006462267395025965,0.0,True,"(0.027602945980765806, 0.18493663731915572, 0.03999655944543168)","(-0.9993454062399191, -0.036012797883995244, -0.0034405545683173985)",-0.0001725725799849376,6.558761342717542
84,Move,"(-0.02227848101265822, 0.0, 0.0)","(0.0, -0.0, 0.0)","(-0.004427866426752866, 0.17231164158783377, 0.001032717946734247)","(1.5688633890591694, -0.003317905645633677, 0.04334619453818705)","[-0.004427944988217871, 0.002312579211314947, 0.00011782826364651233]","[-0.026750000193715096, 0.05299999937415123, 0.03999999910593033]","[0.0, -0.0, 0.6228669250790264]","[-0.06875236332416534, 0.11147907376289368, 0.03999999910593033]","[0.0, 0.0, -0.19161604637050192]","[0.026750000193715096, 0.05299999937415123, 0.03999999910593033]","[0.0, 0.0, -0.5466525008201996]","[0.06417779624462128, 0.11450739949941635, 0.03999999910593033]","[0.0, -0.0, 0.2686727131197807]",0.6265247718523375,0.8778776949947131,"(0.0, 0.0, 0.0, 0.0, 0.0, 0.0)",0.04100101156738236,-0.8144829721165158,0.0,"(0.0, 0.0, 0.0, 0.0, 0.0, 0.0)",0.0030688092987821583,-0.5432719049362864,0.8113392741299313,"(0.0, 0.0, 0.0, 0.0, 0.0, 0.0)",0.8391057783245395,0.8152838097634738,-0.00992634771347801,"(0.0, 0.0, 0.0, 0.0, 0.0, 0.0)",0.48807889124919507,True,"(-0.03728644916680441, 0.18455302404911245, 0.04000352146015291)","(0.9992131104309607, 0.03950644581933731, 0.0035214601529070188)",0.0006709489852447526,0.0,True,"(0.027180066321680837, 0.1849402789311892, 0.0399964785398471)","(-0.9992131104309608, -0.03950644581933488, -0.0035214601529025254)",-0.0001598856402574426,6.02868261455597
85,Move,"(-0.023291139240506332, 0.0, 0.0)","(0.0, -0.0, 0.0)","(-0.0048722411148894125, 0.1723227582573401, 0.0010247835104874106)","(1.5690197240149715, -0.0029072830870486392, 0.04750440973089116)","[-0.004872319676354418, 0.0023236958808212638, 0.00010989382739967591]","[-0.026750000193715096, 0.05299999937415123, 0.03999999910593033]","[0.0, -0.0, 0.6265247409289469]","[-0.06896598637104034, 0.11132504045963287, 0.03999999910593033]","[0.0, 0.0, -0.18795820787217601]","[0.026750000193715096, 0.05299999937415123, 0.03999999910593033]","[0.0, 0.0, -0.5432719030527482]","[0.06396964937448502, 0.11463357508182526, 0.03999999910593033]","[0.0, -0.0, 0.2720119058737674]",0.6302940415707888,0.9046247324283215,"(0.0, 0.0, 0.0, 0.0, 0.0, 0.0)",0.03952722936077783,-0.8144829721165158,1.3552527156068805e-20,"(0.0, 0.0, 0.0, 0.0, 0.0, 0.0)",0.00295956225890713,-0.5397419442772694,0.8471905581640811,"(0.0, 0.0, 0.0, 0.0, 0.0, 0.0)",0.7994297513167626,0.8152539581293756,-0.007164392183568304,"(0.0, 0.0, 0.0, 0.0, 0.0, 0.0)",0.45762470761856605,True,"(-0.03776758209656948, 0.18451377485862663, 0.04000331789955811)","(0.9990552017197839, 0.04333238349276965, 0.003317899558117219)",0.0006901691203253516,0.0,True,"(0.026736958353012402, 0.18494202930057158, 0.0399966821004419)","(-0.9990552017197835, -0.04333238349277923, -0.0033178995581081695)",-0.00014803555839207534,5.713058817840385
86,Move,"(-0.02430379746835443, 0.0, 0.0)","(0.0, -0.0, 0.0)","(-0.00533975876558989, 0.1723341770982295, 0.0010109683498854857)","(1.5691639880994082, -0.0023188427172532193, 0.05199391388565936)","[-0.005339837327054895, 0.0023351147217106905, 9.6078666797751e-05]","[-0.026750000193715096, 0.05299999937415123, 0.03999999910593033]","[0.0, -0.0, 0.6302941060733808]","[-0.0691855251789093, 0.11116550862789154, 0.03999999910593033]","[0.0, 0.0, -0.18418894221511542]","[0.026750000193715096, 0.05299999937415123, 0.03999999910593033]","[0.0, 0.0, -0.5397419842897596]","[0.06375185400247574, 0.11476457864046097, 0.03999999910593033]","[0.0, -0.0, 0.27551203205656444]",0.6341698439932336,0.9301925813867564,"(0.0, 0.0, 0.0, 0.0, 0.0, 0.0)",0.03780488994541385,-0.8144829721165158,0.0,"(0.0, 0.0, 0.0, 0.0, 0.0, 0.0)",0.0028317701779079093,-0.5360626018400046,0.8830421849435481,"(0.0, 0.0, 0.0, 0.0, 0.0, 0.0)",0.7796860345810501,0.8152292976763595,-0.005918508723871429,"(0.0, 0.0, 0.0, 0.0, 0.0, 0.0)",0.4405753577787416,True,"(-0.038263230663800926, 0.1844717010543107, 0.040002907278991515)","(0.9988676563249897, 0.04748634410741152, 0.0029072789915166593)",0.000702951125753573,0.0,True,"(0.02627333388932366, 0.18494162262129643, 0.03999709272100849)","(-0.9988676563249896, -0.04748634410741771, -0.0029072789915168154)",-0.00013716456817808542,5.5576613193943425
87,Move,"(-0.025316455696202528, 0.0, 0.0)","(0.0, -0.0, 0.0)","(-0.005834797138253884, 0.17234427950268488, 0.0009528203879317973)","(1.5709383702287283, -0.001954988602985327, 0.05508623406403384)","[-0.005834875699718889, 0.0023452171261660604, 3.79307048440626e-05]","[-0.026750000193715096, 0.05299999937415123, 0.03999999910593033]","[0.0, -0.0, 0.6341698091419177]","[-0.06941064447164536, 0.11100059747695923, 0.03999999910593033]","[0.0, 0.0, -0.18031313494930812]","[0.026750000193715096, 0.05299999937415123, 0.03999999910593033]","[0.0, 0.0, -0.5360626504939048]","[0.06352435052394867, 0.11490029841661453, 0.03999999910593033]","[0.0, -0.0, 0.27916673103941403]",0.638147894352231,0.9547320861593649,"(0.0, 0.0, 0.0, 0.0, 0.0, 0.0)",0.03630370347903784,-0.8144829721165158,0.0,"(0.0, 0.0, 0.0, 0.0, 0.0, 0.0)",0.0027204638411875864,-0.5322335015493846,0.9189840697487898,"(0.0, 0.0, 0.0, 0.0, 0.0, 0.0)",0.6757861060223437,0.8152225482408804,-0.001619864515006399,"(0.0, 0.0, 0.0, 0.0, 0.0, 0.0)",0.3532510337469727,True,"(-0.03877273142124018, 0.1844267036457088, 0.04000231884063918)","(0.9986459360586858, 0.05197035088934143, 0.002318840639171518)",0.0007088355082401666,0.0,True,"(0.025789648499073614, 0.1849390725133115, 0.03999768115936082)","(-0.9986459360586855, -0.05197035088934912, -0.0023188406391721314)",-0.00012725832031320217,4.729614214610381
88,Move,"(-0.02632911392405063, 0.0, 0.0)","(0.0, -0.0, 0.0)","(-0.0063285690554308925, 0.17235450699565907, 0.0009472763470254787)","(1.5709318344316703, -0.001520052892935938, 0.06012412824186016)","[-0.006328647616895898, 0.002355444619140251, 3.2386663937744e-05]","[-0.026750000193715096, 0.05299999937415123, 0.03999999910593033]","[0.0, -0.0, 0.6381478616892318]","[-0.06964103877544403, 0.11083043366670609, 0.03999999910593033]","[0.0, 0.0, -0.17633508615901433]","[0.026750000193715096, 0.05299999937415123, 0.03999999910593033]","[0.0, 0.0, -0.5322335871095378]","[0.06328705698251724, 0.11504065990447998, 0.03999999910593033]","[0.0, -0.0, 0.28298905379417927]",0.6422243084414293,0.9783393814076052,"(0.0, 0.0, 0.0, 0.0, 0.0, 0.0)",0.03494338348824577,-0.8144829721165158,0.0,"(0.0, 0.0, 0.0, 0.0, 0.0, 0.0)",0.002619655885278242,-0.5282566275057344,0.9544497704760435,"(0.0, 0.0, 0.0, 0.0, 0.0, 0.0)",0.7976969713381111,0.8151846486401529,-0.00909590417456947,"(0.0, 0.0, 0.0, 0.0, 0.0, 0.0)",0.4587931929378142,True,"(-0.039295407024145745, 0.18437695251621378, 0.04000195498735767)","(0.9984812289514832, 0.055058273274474996, 0.001954987357666623)",0.0007109529280799428,0.0,True,"(0.02528487934080878, 0.1849354133537231, 0.039998045012642335)","(-0.9984812289514841, -0.05505827327446293, -0.001954987357663683)",-0.00011800736446942672,5.717249898821234
89,Move,"(-0.02734177215189873, 0.0, 0.0)","(0.0, -0.0, 0.0)","(-0.006831129728296694, 0.1723501190125905, 0.0009508335043296408)","(1.5709253746295158, -0.0013994643226997907, 0.06491585489842955)","[-0.006831208289761699, 0.0023510566360716856, 3.5943821241906054e-05]","[-0.026750000193715096, 0.05299999937415123, 0.03999999910593033]","[0.0, -0.0, 0.642224320408407]","[-0.06987641751766205, 0.11065511405467987, 0.03999999910593033]","[0.0, 0.0, -0.17225866054874397]","[0.026750000193715096, 0.05299999937415123, 0.03999999910593033]","[0.0, 0.0, -0.5282566421704223]","[0.06304004043340683, 0.11518546938896179, 0.03999999910593033]","[0.0, -0.0, 0.28692801934919043]",0.6463788604056916,0.9970924714229515,"(0.0, 0.0, 0.0, 0.0, 0.0, 0.0)",0.02782421974926319,-0.8144829721165158,0.0,"(0.0, 0.0, 0.0, 0.0, 0.0, 0.0)",0.0020892629859921184,-0.5241365594919454,0.988816323309368,"(0.0, 0.0, 0.0, 0.0, 0.0, 0.0)",0.7751434805238478,0.8151461142904333,-0.009248243932734422,"(0.0, 0.0, 0.0, 0.0, 0.0, 0.0)",0.4508113190312869,True,"(-0.03983090472432792, 0.18432568064400892, 0.04000152005230759)","(0.998191935825789, 0.06008784147684077, 0.0015200523075804854)",0.0007030756295023478,0.0,True,"(0.024762909725551965, 0.1849288971832424, 0.03999847994769243)","(-0.9981919358257888, -0.06008784147684552, -0.001520052307569661)",-0.00010980796029887223,5.558592261415503
90,Move,"(-0.02835443037974683, 0.0, 0.0)","(0.0, -0.0, 0.0)","(-0.007361127396573705, 0.17234183323551855, 0.0009469972028437046)","(1.5709166259895317, -0.001062868837778279, 0.06980124937685606)","[-0.00736120595803871, 0.0023427708589997265, 3.2107519755969894e-05]","[-0.026750000193715096, 0.05299999937415123, 0.03999999910593033]","[0.0, -0.0, 0.6463788263453846]","[-0.0701155811548233, 0.11047544330358505, 0.03999999910593033]","[0.0, 0.0, -0.1681041100776584]","[0.026750000193715096, 0.05299999937415123, 0.03999999910593033]","[0.0, 0.0, -0.5241365713382076]","[0.06278352439403534, 0.11533445864915848, 0.03999999910593033]","[0.0, -0.0, 0.2910095723889347]",0.6506257426770243,1.0192517451198606,"(0.0, 0.0, 0.0, 0.0, 0.0, 0.0)",0.03283197303930341,-0.8144829721165158,0.0,"(0.0, 0.0, 0.0, 0.0, 0.0, 0.0)",0.0024633438265062283,-0.5198675079071391,1.0245723803535103,"(0.0, 0.0, 0.0, 0.0, 0.0, 0.0)",0.8253045336533009,0.8151114569652937,-0.008317758033471552,"(0.0, 0.0, 0.0, 0.0, 0.0, 0.0)",0.47741767126204737,True,"(-0.04037643058466836, 0.18427083799952734, 0.04000139946386589)","(0.9978927285321492, 0.06487020767309469, 0.001399463865890219)",0.0006866632399175913,0.0,True,"(0.02422209918877624, 0.18492036778597978, 0.03999860053613411)","(-0.9978927285321497, -0.06487020767308777, -0.0013994638658896645)",-0.00010212726755244548,5.92310109818573
91,Move,"(-0.02936708860759494, 0.0, 0.0)","(0.0, -0.0, 0.0)","(-0.007916439248242611, 0.17233173962067347, 0.0009372210671512388)","(1.5709091046535935, -0.0005512172888204223, 0.07483732071196521)","[-0.007916517809707617, 0.002332677244154646, 2.233138406350409e-05]","[-0.026750000193715096, 0.05299999937415123, 0.03999999910593033]","[0.0, -0.0, 0.650625703458614]","[-0.07035928219556808, 0.1102907583117485, 0.03999999910593033]","[0.0, 0.0, -0.16385723663373727]","[0.026750000193715096, 0.05299999937415123, 0.03999999910593033]","[0.0, 0.0, -0.5198675257684988]","[0.06251709163188934, 0.1154877170920372, 0.03999999910593033]","[0.0, -0.0, 0.2952439483842719]",0.6549551369660302,1.0390546293614227,"(0.0, 0.0, 0.0, 0.0, 0.0, 0.0)",0.029379895050133425,-0.8144829721165158,0.0,"(0.0, 0.0, 0.0, 0.0, 0.0, 0.0)",0.002206480368196632,-0.5154523556337732,1.0596365456078112,"(0.0, 0.0, 0.0, 0.0, 0.0, 0.0)",0.7989580926449792,0.8150844808894774,-0.006474258195922029,"(0.0, 0.0, 0.0, 0.0, 0.0, 0.0)",0.4569922668799258,True,"(-0.04093384173643628, 0.18421242152758935, 0.04000106286863766)","(0.9975643182655803, 0.06974454267960217, 0.0010628686376626332)",0.0006615246106516712,0.0,True,"(0.023661399815855633, 0.18490907118998154, 0.03999893713136234)","(-0.9975643182655801, -0.06974454267960724, -0.0010628686376610455)",-9.502963316871565e-05,5.7226489957361935
92,Move,"(-0.03037974683544304, 0.0, 0.0)","(0.0, -0.0, 0.0)","(-0.008487277658798779, 0.1723363719418458, 0.000880644331003129)","(1.5696255776988501, 0.00018388454338283538, 0.0813370417479078)","[-0.008487356220263784, 0.0023373095653269893, -3.424535208460574e-05]","[-0.026750000193715096, 0.05299999937415123, 0.03999999910593033]","[0.0, -0.0, 0.6549550960802337]","[-0.07060690224170685, 0.11010141670703888, 0.03999999910593033]","[0.0, 0.0, -0.1595278221639515]","[0.026750000193715096, 0.05299999937415123, 0.03999999910593033]","[0.0, 0.0, -0.5154523356123608]","[0.0622408501803875, 0.11564502865076065, 0.03999999910593033]","[0.0, -0.0, 0.2996321423830533]",0.659361732830553,1.057583007485456,"(0.0, 0.0, 0.0, 0.0, 0.0, 0.0)",0.027515541832085,-0.8144829721165158,0.0,"(0.0, 0.0, 0.0, 0.0, 0.0, 0.0)",0.002067995611715256,-0.5108919962081643,1.0944862621461378,"(0.0, 0.0, 0.0, 0.0, 0.0, 0.0)",0.5439341484985523,0.8150758132696726,-0.0020802287531473188,"(0.0, 0.0, 0.0, 0.0, 0.0, 0.0)",0.29426435827605407,True,"(-0.041501829517581926, 0.1841504893258978, 0.040000551217260906)","(0.9972008429334878, 0.07476747295631153, 0.0005512172609008885)",0.0006261898672445962,0.0,True,"(0.023080949080535575, 0.184894559186048, 0.03999944878273909)","(-0.9972008429334884, -0.07476747295630205, -0.0005512172609098397)",-8.855537231112679e-05,3.7590892857030207
