OSUrobotics/InHand-Manipulation/AnalyseData/Data/Trial Data/new_hand_human_filt_josh_2v2_b_none_1_kpNone_kdNone_dp5_step5_save_data.csv
,Phase,human_cube_pos,human_cube_orn,Cube_Pos,Cube_Orn,Cube_pos_in_start_pos,b'l_prox_pin'_link_pos,b'l_prox_pin'_link_orn,b'l_distal_pin'_link_pos,b'l_distal_pin'_link_orn,b'r_prox_pin'_link_pos,b'r_prox_pin'_link_orn,b'r_distal_pin'_link_pos,b'r_distal_pin'_link_orn,b'l_prox_pin'_joint_angle,b'l_prox_pin'_joint_vel,b'l_prox_pin'_joint_react_forces,b'l_prox_pin'_joint_motor_torque,b'l_distal_pin'_joint_angle,b'l_distal_pin'_joint_vel,b'l_distal_pin'_joint_react_forces,b'l_distal_pin'_joint_motor_torque,b'r_prox_pin'_joint_angle,b'r_prox_pin'_joint_vel,b'r_prox_pin'_joint_react_forces,b'r_prox_pin'_joint_motor_torque,b'r_distal_pin'_joint_angle,b'r_distal_pin'_joint_vel,b'r_distal_pin'_joint_react_forces,b'r_distal_pin'_joint_motor_torque,in_contact_l,contact_point_l_dist,contact_normal_l_dist,contact_distance_l_dist,contact_norm_force_l_dist,in_contact_r,contact_point_r_dist,contact_normal_r_dist,contact_distance_r_dist,contact_norm_force_r_dist
0,Open,,,,,,"[-0.026750000193715096, 0.05299999937415123, 0.03999999910593033]","[0.0, -0.0, 0.42755761853039154]","[-0.056604765355587006, 0.1185186430811882, 0.03999999910593033]","[0.0, -0.0, 0.4463066270391506]","[0.026750000193715096, 0.05299999937415123, 0.03999999910593033]","[0.0, 0.0, -0.42757404208311445]","[0.05660583823919296, 0.1185181587934494, 0.03999999910593033]","[0.0, 0.0, -0.4465272228574986]",0.5418018724257314,27.418616735313837,"(0.0, 0.0, 0.0, 0.0, 0.0, 0.0)",-4.412236817968903,0.016874447698417276,-0.44988750389777044,"(0.0, 0.0, 0.0, 0.0, 0.0, 0.0)",-0.3112578673856835,-0.5418166170859073,-27.418223544375806,"(0.0, 0.0, 0.0, 0.0, 0.0, 0.0)",4.412120589674461,-0.017058187988154127,0.4547872631353701,"(0.0, 0.0, 0.0, 0.0, 0.0, 0.0)",0.31119999541872967,False,,,,,False,,,,
1,Open,,,,,,"[-0.026750000193715096, 0.05299999937415123, 0.03999999910593033]","[0.0, -0.0, 0.8953992050914552]","[-0.08294302970170975, 0.09801492840051651, 0.03999999910593033]","[0.0, -0.0, 0.9064715399310761]","[0.026750000193715096, 0.05299999937415123, 0.03999999910593033]","[0.0, 0.0, -0.8954089117450801]","[0.08294346183538437, 0.09801438450813293, 0.03999999910593033]","[0.0, 0.0, -0.9066016844299951]",0.9628592876486701,16.190418996035465,"(0.0, 0.0, 0.0, 0.0, 0.0, 0.0)",-2.616982039675733,0.009965290062605858,-0.26568209241480656,"(0.0, 0.0, 0.0, 0.0, 0.0, 0.0)",-0.18775783729375353,-0.9628679942230576,-16.190186820718473,"(0.0, 0.0, 0.0, 0.0, 0.0, 0.0)",2.6169116334278195,-0.010073786659150813,0.26857534621184953,"(0.0, 0.0, 0.0, 0.0, 0.0, 0.0)",0.187722108909745,False,,,,,False,,,,
2,Open,,,,,,"[-0.026750000193715096, 0.05299999937415123, 0.03999999910593033]","[0.0, -0.0, 1.17165497759142]","[-0.09309044480323792, 0.08098116517066956, 0.03999999910593033]","[0.0, -0.0, 1.1781937273122836]","[0.026750000193715096, 0.05299999937415123, 0.03999999910593033]","[0.0, 0.0, -1.1716605985979762]","[0.09309060126543045, 0.08098078519105911, 0.03999999910593033]","[0.0, 0.0, -1.178270796658152]",1.2114894807636634,9.56028051296898,"(0.0, 0.0, 0.0, 0.0, 0.0, 0.0)",-1.549346412635057,0.005885062316220725,-0.15689973638119079,"(0.0, 0.0, 0.0, 0.0, 0.0, 0.0)",-0.11225090666269867,-1.2114946219087734,-9.560143415766044,"(0.0, 0.0, 0.0, 0.0, 0.0, 0.0)",1.5493042197033076,-0.00594912834521185,0.1586081706180975,"(0.0, 0.0, 0.0, 0.0, 0.0, 0.0)",0.11222926703597672,False,,,,,False,,,,
3,Open,,,,,,"[-0.026750000193715096, 0.05299999937415123, 0.03999999910593033]","[0.0, -0.0, 1.3347813147466918]","[-0.09675397723913193, 0.06983575969934464, 0.03999999910593033]","[0.0, -0.0, 1.3386449621367835]","[0.026750000193715096, 0.05299999937415123, 0.03999999910593033]","[0.0, 0.0, -1.3347844615433213]","[0.0967540368437767, 0.06983552873134613, 0.03999999910593033]","[0.0, 0.0, -1.3386905382854437]",1.3583031234961356,5.645250040103052,"(0.0, 0.0, 0.0, 0.0, 0.0, 0.0)",-0.9162890978823036,0.0034783869891320215,-0.09247571818598516,"(0.0, 0.0, 0.0, 0.0, 0.0, 0.0)",-0.06677007440367574,-1.3583061592909116,-5.645169085575695,"(0.0, 0.0, 0.0, 0.0, 0.0, 0.0)",0.9162639666346021,-0.003516216695348753,0.09348456497972772,"(0.0, 0.0, 0.0, 0.0, 0.0, 0.0)",0.06675710630673855,False,,,,,False,,,,
4,Open,,,,,,"[-0.026750000193715096, 0.05299999937415123, 0.03999999910593033]","[0.0, -0.0, 1.4311058207082674]","[-0.09804865717887878, 0.06302504986524582, 0.03999999910593033]","[0.0, -0.0, 1.433390691262394]","[0.026750000193715096, 0.05299999937415123, 0.03999999910593033]","[0.0, 0.0, -1.4311075924426346]","[0.09804867953062057, 0.06302490830421448, 0.03999999910593033]","[0.0, 0.0, -1.433417470845748]",1.4449951113932331,3.333463696180452,"(0.0, 0.0, 0.0, 0.0, 0.0, 0.0)",-0.5415503506795546,0.0020570753203455715,-0.05468855210882702,"(0.0, 0.0, 0.0, 0.0, 0.0, 0.0)",-0.039594115216637325,-1.4449969039996904,-3.3334158933415914,"(0.0, 0.0, 0.0, 0.0, 0.0, 0.0)",0.541535435877482,-0.002079412775410495,0.055284250111531166,"(0.0, 0.0, 0.0, 0.0, 0.0, 0.0)",0.03958639191865308,False,,,,,False,,,,
5,Open,,,,,,"[-0.026750000193715096, 0.05299999937415123, 0.03999999910593033]","[0.0, -0.0, 1.4879842849605203]","[-0.09850326180458069, 0.05895565450191498, 0.03999999910593033]","[0.0, -0.0, 1.4893357278409396]","[0.026750000193715096, 0.05299999937415123, 0.03999999910593033]","[0.0, 0.0, -1.4879853833286059]","[0.09850326925516129, 0.05895556882023811, 0.03999999910593033]","[0.0, 0.0, -1.4893513332680077]",1.4961858633265903,1.9683769779575933,"(0.0, 0.0, 0.0, 0.0, 0.0, 0.0)",-0.31995094896823073,0.0012165319928285922,-0.03234212113369103,"(0.0, 0.0, 0.0, 0.0, 0.0, 0.0)",-0.02343792779000599,-1.4961869218427772,-1.9683487508592754,"(0.0, 0.0, 0.0, 0.0, 0.0, 0.0)",0.31994211580738524,-0.0012297216752996233,0.03269386530715718,"(0.0, 0.0, 0.0, 0.0, 0.0, 0.0)",0.02343334437795369,False,,,,,False,,,,
6,Open,,,,,,"[-0.026750000193715096, 0.05299999937415123, 0.03999999910593033]","[0.0, -0.0, 1.5215704989376362]","[-0.09866278618574142, 0.05654282495379448, 0.03999999910593033]","[0.0, -0.0, 1.522369838325666]","[0.026750000193715096, 0.05299999937415123, 0.03999999910593033]","[0.0, 0.0, -1.5215710825913402]","[0.09866278618574142, 0.0565427765250206, 0.03999999910593033]","[0.0, 0.0, -1.522379029767931]",1.5264134904357183,1.1623069217141797,"(0.0, 0.0, 0.0, 0.0, 0.0, 0.0)",-0.18898727227709852,0.000719444125508032,-0.019126791845346432,"(0.0, 0.0, 0.0, 0.0, 0.0, 0.0)",-0.013859938289241243,-1.5264141154789415,-1.162290253894895,"(0.0, 0.0, 0.0, 0.0, 0.0, 0.0)",0.18898204730565804,-0.0007272322869396521,0.019334487584604668,"(0.0, 0.0, 0.0, 0.0, 0.0, 0.0)",0.013857223880827028,False,,,,,False,,,,
7,Close,,,"(1.2478112216283415e-07, 0.16999960627914334, 0.0003375139776509844)","(1.5703757789650807, 0.0001088681168706304, -5.122612185789874e-06)",,"[-0.026750000193715096, 0.05299999937415123, 0.03999999910593033]","[0.0, -0.0, 1.2785329680082034]","[-0.09569678455591202, 0.07374466955661774, 0.03999999910593033]","[0.0, -0.0, 1.0351044933740032]","[0.026750000193715096, 0.05299999937415123, 0.03999999910593033]","[0.0, 0.0, -1.2785333261376617]","[0.09569679200649261, 0.07374463975429535, 0.03999999910593033]","[0.0, 0.0, -1.0351099865887758]",1.2106796019673873,-16.28478938579699,"(0.0, 0.0, 0.0, 0.0, 0.0, 0.0)",2.809472854136235,-0.3090860149933808,-15.757821278062295,"(0.0, 0.0, 0.0, 0.0, 0.0, 0.0)",0.3661538009495806,-1.2106799710491603,16.284799227977608,"(0.0, 0.0, 0.0, 0.0, 0.0, 0.0)",-2.8094757422584213,0.30908141619234186,15.75794391320213,"(0.0, 0.0, 0.0, 0.0, 0.0, 0.0)",-0.3661552191151056,False,,,,,False,,,,
8,Close,,,"(3.0991841452431125e-07, 0.1699991530873768, 0.0005600347089338349)","(1.5707725584893357, 0.0003276471180493337, -1.5390016504502985e-05)",,"[-0.026750000193715096, 0.05299999937415123, 0.03999999910593033]","[0.0, -0.0, 1.0006670909649218]","[-0.08736184239387512, 0.09186135232448578, 0.03999999910593033]","[0.0, -0.0, 0.48836557737534114]","[0.026750000193715096, 0.05299999937415123, 0.03999999910593033]","[0.0, 0.0, -1.0006671906734346]","[0.08736184984445572, 0.09186133742332458, 0.03999999910593033]","[0.0, 0.0, -0.4883688154364048]",0.9606001981650306,-9.616005284561718,"(0.0, 0.0, 0.0, 0.0, 0.0, 0.0)",1.667253264949997,-0.5510712009946406,-9.304767973476249,"(0.0, 0.0, 0.0, 0.0, 0.0, 0.0)",0.2218037572572205,-0.9606004161041268,9.616011096270952,"(0.0, 0.0, 0.0, 0.0, 0.0, 0.0)",-1.6672550198735234,0.5510684854486152,9.30484038803693,"(0.0, 0.0, 0.0, 0.0, 0.0, 0.0)",-0.22180464092959223,False,,,,,False,,,,
9,Close,,,"(2.933853975158492e-07, 0.16999904048792538, 0.0007066062154399696)","(1.5708337628024795, 0.00026866528465535426, -1.404448202163588e-05)",,"[-0.026750000193715096, 0.05299999937415123, 0.03999999910593033]","[0.0, -0.0, 0.8365897781630613]","[-0.08020010590553284, 0.1012398824095726, 0.03999999910593033]","[0.0, -0.0, 0.16552144688028117]","[0.026750000193715096, 0.05299999937415123, 0.03999999910593033]","[0.0, 0.0, -0.8365899294750984]","[0.08020011335611343, 0.101239874958992, 0.03999999910593033]","[0.0, 0.0, -0.1655233971102189]",0.8129308110141114,-5.678154960376304,"(0.0, 0.0, 0.0, 0.0, 0.0, 0.0)",0.9873874064507416,-0.6939616573792659,-5.494397555666588,"(0.0, 0.0, 0.0, 0.0, 0.0, 0.0)",0.13292457281458034,-0.8129309397049683,5.678158392132489,"(0.0, 0.0, 0.0, 0.0, 0.0, 0.0)",-0.987388459985631,0.6939600538790082,5.494440315842426,"(0.0, 0.0, 0.0, 0.0, 0.0, 0.0)",-0.13292511074891808,False,,,,,False,,,,
10,Close,,,"(1.9902477861274505e-07, 0.16999905216518962, 0.0008031506137060285)","(1.5708213694470277, 0.0001751880104672085, -1.4031272711042213e-05)",,"[-0.026750000193715096, 0.05299999937415123, 0.03999999910593033]","[0.0, -0.0, 0.7397039398326887]","[-0.075282983481884, 0.10618411004543304, 0.03999999910593033]","[0.0, 0.0, -0.025114755601520013]","[0.026750000193715096, 0.05299999937415123, 0.03999999910593033]","[0.0, 0.0, -0.7397039829241547]","[0.0752829909324646, 0.10618410259485245, 0.03999999910593033]","[0.0, -0.0, 0.025113617980755978]",0.7257335145957226,-3.3528937225526034,"(0.0, 0.0, 0.0, 0.0, 0.0, 0.0)",0.5840196078844049,-0.7783380408184963,-3.244652289205478,"(0.0, 0.0, 0.0, 0.0, 0.0, 0.0)",0.07914031685893824,-0.7257335905863868,3.3528957489703144,"(0.0, 0.0, 0.0, 0.0, 0.0, 0.0)",-0.5840202358821991,0.778337093974245,3.2446775397467595,"(0.0, 0.0, 0.0, 0.0, 0.0, 0.0)",-0.07914064000385382,False,,,,,False,,,,
11,Close,,,"(1.3069317882946781e-07, 0.16999905849316785, 0.0008666025578373041)","(1.570813038524343, 0.0001076496945073061, -1.4014808324094979e-05)",,"[-0.026750000193715096, 0.05299999937415123, 0.03999999910593033]","[0.0, -0.0, 0.6824937890365349]","[-0.07216256856918335, 0.10887216031551361, 0.03999999910593033]","[0.0, 0.0, -0.137687120736303]","[0.026750000193715096, 0.05299999937415123, 0.03999999910593033]","[0.0, 0.0, -0.6824937890365349]","[0.07216257601976395, 0.10887216031551361, 0.03999999910593033]","[0.0, -0.0, 0.1376864353718678]",0.6742443830336282,-1.9798502142300851,"(0.0, 0.0, 0.0, 0.0, 0.0, 0.0)",0.34523008433021124,-0.8281635344937409,-1.9158370237869804,"(0.0, 0.0, 0.0, 0.0, 0.0, 0.0)",0.046989708289177236,-0.6742444279053555,1.9798514108094807,"(0.0, 0.0, 0.0, 0.0, 0.0, 0.0)",-0.3452304573414294,0.8281629754068567,1.9158519335829844,"(0.0, 0.0, 0.0, 0.0, 0.0, 0.0)",-0.04698990114977892,False,,,,,False,,,,
12,Close,,,"(8.555941999099156e-08, 0.16999906193922792, 0.000908421947806545)","(1.5708075491537519, 6.311807488844542e-05, -1.4000595358663434e-05)",,"[-0.026750000193715096, 0.05299999937415123, 0.03999999910593033]","[0.0, -0.0, 0.6487117277688945]","[-0.070249542593956, 0.11037412285804749, 0.03999999910593033]","[0.0, 0.0, -0.20415830575541527]","[0.026750000193715096, 0.05299999937415123, 0.03999999910593033]","[0.0, 0.0, -0.6487117277688945]","[0.070249542593956, 0.11037411540746689, 0.03999999910593033]","[0.0, -0.0, 0.20415788801885543]",0.6438405657375271,-1.1690817530007243,"(0.0, 0.0, 0.0, 0.0, 0.0, 0.0)",0.20397674457790932,-0.8575834812137779,-1.1312243968345508,"(0.0, 0.0, 0.0, 0.0, 0.0, 0.0)",0.027828964636992654,-0.6438405922338334,1.1690824595688907,"(0.0, 0.0, 0.0, 0.0, 0.0, 0.0)",-0.20397696556653716,0.8575831510875931,1.1312332006820753,"(0.0, 0.0, 0.0, 0.0, 0.0, 0.0)",-0.027829079200348807,False,,,,,False,,,,
13,Close,,,"(5.567361934631568e-08, 0.16999906349286917, 0.0009359839309479349)","(1.5708039321322358, 3.37560108188707e-05, -1.3987283228090085e-05)",,"[-0.026750000193715096, 0.05299999937415123, 0.03999999910593033]","[0.0, -0.0, 0.62876384308693]","[-0.06909646838903427, 0.11123037338256836, 0.03999999910593033]","[0.0, 0.0, -0.24340789693353326]","[0.026750000193715096, 0.05299999937415123, 0.03999999910593033]","[0.0, 0.0, -0.62876384308693]","[0.06909646838903427, 0.11123037338256836, 0.03999999910593033]","[0.0, -0.0, 0.24340764580603796]",0.6258874156623524,-0.6903310843293964,"(0.0, 0.0, 0.0, 0.0, 0.0, 0.0)",0.12048853373387189,-0.8749547691894786,-0.6679421640099914,"(0.0, 0.0, 0.0, 0.0, 0.0, 0.0)",0.016461146679105913,-0.6258874313081562,0.6903315015508323,"(0.0, 0.0, 0.0, 0.0, 0.0, 0.0)",-0.12048866447898966,0.8749545742586229,0.6679473624521103,"(0.0, 0.0, 0.0, 0.0, 0.0, 0.0)",-0.016461214564379854,False,,,,,False,,,,
14,Move,,,"(0.0002849434880139787, 0.17128526654835666, 0.0018667775255450016)","(1.529867145493542, 0.001236551690390913, -0.0026252758006009144)","[0.0, 0.0, 0.0]","[-0.026750000193715096, 0.05299999937415123, 0.03999999910593033]","[0.0, -0.0, 0.5674368798319164]","[-0.06544800847768784, 0.113716259598732, 0.03999999910593033]","[0.0, 0.0, -0.23086444862254737]","[0.026750000193715096, 0.05299999937415123, 0.03999999910593033]","[0.0, 0.0, -0.5672775113046467]","[0.06543833017349243, 0.11372242867946625, 0.03999999910593033]","[0.0, -0.0, 0.2338230653212545]",0.5526433844132694,-3.5504372063580854,"(0.0, 0.0, 0.0, 0.0, 0.0, 0.0)",-74.66311326449657,-0.7739535469156117,5.843468067207706,"(0.0, 0.0, 0.0, 0.0, 0.0, 0.0)",-38.567738900473906,-0.5523653530093062,3.5789086898164406,"(0.0, 0.0, 0.0, 0.0, 0.0, 0.0)",70.97380681712595,0.7784689212282292,-5.431581853362886,"(0.0, 0.0, 0.0, 0.0, 0.0, 0.0)",36.631671368390464,True,"(-0.031139027298926508, 0.18549673152317092, 0.03999924353386678)","(0.9999971505660776, -0.0022642037706561637, -0.0007564661332230728)",-0.000503181178828863,565.4925793008347,True,"(0.030917119596597424, 0.1854085662421605, 0.04000075646613322)","(-0.9999971505660776, 0.002264203770598743, 0.0007564661332168607)",-0.0013606486484191646,538.0249494895718
15,Move,"(0.0, 0.0, 0.0)","(0.0, -0.0, 0.0)","(0.00016274991557831364, 0.17136475104845758, 0.0031640906121350575)","(1.4899865793592248, -0.0009251634143453488, -0.006053919932276661)","[-0.00012219357243566505, 7.948450010092367e-05, 0.001297313086590056]","[-0.026750000193715096, 0.05299999937415123, 0.03999999910593033]","[0.0, -0.0, 0.5448782568355026]","[-0.06406860798597336, 0.11457370966672897, 0.03999999910593033]","[0.0, 0.0, -0.2125956411648876]","[0.026750000193715096, 0.05299999937415123, 0.03999999910593033]","[0.0, 0.0, -0.5441825092896027]","[0.06402575969696045, 0.11459966003894806, 0.03999999910593033]","[0.0, -0.0, 0.21903630347083206]",0.5463765798653516,0.35960109272080254,"(0.0, 0.0, 0.0, 0.0, 0.0, 0.0)",-0.08406283938624641,-0.7590286933635231,-0.37315947580442554,"(0.0, 0.0, 0.0, 0.0, 0.0, 0.0)",-0.017297597694563044,-0.5456033040750284,-0.3409927387516254,"(0.0, 0.0, 0.0, 0.0, 0.0, 0.0)",0.7656171975284948,0.7645763731677416,0.32581485659360865,"(0.0, 0.0, 0.0, 0.0, 0.0, 0.0)",0.4026025408250114,True,"(-0.031076504252458274, 0.1869479334441972, 0.04000075744199429)","(0.9999871217005202, -0.0050182382101970815, 0.0007574419942935584)",-0.000622934270282677,0.221954412255134,True,"(0.03056815038234164, 0.1867763680017247, 0.03999924255800572)","(-0.9999871217005204, 0.005018238210180842, -0.0007574419942756659)",-0.0016523435419804678,5.374466445399798
16,Move,"(0.0, 0.0, 0.0)","(0.0, -0.0, 0.0)","(-6.337957008313859e-05, 0.17133241267644161, 0.0031880816687959806)","(1.4928112904341142, -0.0006545114769320461, -0.010066132815740028)","[-0.0003483230580971173, 4.714612808495722e-05, 0.001321304143250979]","[-0.026750000193715096, 0.05299999937415123, 0.03999999910593033]","[0.0, -0.0, 0.5488377527933422]","[-0.06431211531162262, 0.11442546546459198, 0.03999999910593033]","[0.0, 0.0, -0.21077310741645955]","[0.026750000193715096, 0.05299999937415123, 0.03999999910593033]","[0.0, 0.0, -0.547995687933414]","[0.06426037847995758, 0.11445707082748413, 0.03999999910593033]","[0.0, -0.0, 0.2169509060645669]",0.5491401313630154,0.07257638027151496,"(0.0, 0.0, 0.0, 0.0, 0.0, 0.0)",-0.3066840758721345,-0.7593620803589538,0.059702822107754495,"(0.0, 0.0, 0.0, 0.0, 0.0, 0.0)",-0.14686756004205834,-0.548295775753571,-0.07200558529027003,"(0.0, 0.0, 0.0, 0.0, 0.0, 0.0)",0.6643207661695938,0.7647109215877755,-0.05658230443565377,"(0.0, 0.0, 0.0, 0.0, 0.0, 0.0)",0.31795978197997554,True,"(-0.031452010065560435, 0.18685325265429348, 0.04000070146695575)","(0.9999532896982327, -0.009639832249190858, 0.0007014669557505881)",-0.00041340728276361165,2.188996256819944,True,"(0.030953383604334986, 0.1867059297891543, 0.03999929853304425)","(-0.9999532896982325, 0.009639832249198349, -0.0007014669557489135)",-0.0011026932160781453,4.854951800701028
17,Move,"(0.0, 0.0, 0.0)","(0.0, -0.0, 0.0)","(-0.00018503635318464252, 0.17122426474338426, 0.0020779038654625036)","(1.531170242882305, -0.00043878763907482236, -0.013303537154011802)","[-0.0004699798411986212, -6.1001804972399265e-05, 0.00021112633991750198]","[-0.026750000193715096, 0.05299999937415123, 0.03999999910593033]","[0.0, -0.0, 0.5506358975012704]","[-0.06442249566316605, 0.1143578290939331, 0.03999999910593033]","[0.0, 0.0, -0.20855083283645848]","[0.026750000193715096, 0.05299999937415123, 0.03999999910593033]","[0.0, 0.0, -0.5501015567963023]","[0.06438971310853958, 0.1143779456615448, 0.03999999910593033]","[0.0, -0.0, 0.21444578568664924]",0.550964684370257,0.07893443664831157,"(0.0, 0.0, 0.0, 0.0, 0.0, 0.0)",-0.012805702760149012,-0.7592039490970093,-0.004165241203613213,"(0.0, 0.0, 0.0, 0.0, 0.0, 0.0)",-0.0009088854239197933,-0.5505144833763652,-0.09910896464782581,"(0.0, 0.0, 0.0, 0.0, 0.0, 0.0)",0.016095086986517626,0.7645634140777361,0.003867817593457087,"(0.0, 0.0, 0.0, 0.0, 0.0, 0.0)",0.0011576950398015072,True,"(-0.0317234854629974, 0.1868532998353662, 0.0400004982027457)","(0.9999207622335561, -0.012578594845546423, 0.0004982027456894725)",-0.00022412003956257751,0.0,True,"(0.03126381973128947, 0.18671045140399978, 0.039999501797254304)","(-0.9999207622335559, 0.012578594845548739, -0.0004982027456943052)",-0.0007117677809595204,0.0
18,Move,"(0.0, 0.0, 0.0)","(0.0, -0.0, 0.0)","(-0.0004277538273214853, 0.17126797192516488, 0.0010311641756468666)","(1.58267588427068, 0.0064275966064735795, -0.009975418938230252)","[-0.000712697315335464, -1.7294623191776992e-05, -0.000835613349898135]","[-0.026750000193715096, 0.05299999937415123, 0.03999999910593033]","[0.0, -0.0, 0.5518777554812124]","[-0.064498670399189, 0.11431099474430084, 0.03999999910593033]","[0.0, 0.0, -0.2073373115301465]","[0.026750000193715096, 0.05299999937415123, 0.03999999910593033]","[0.0, 0.0, -0.5519942448843683]","[0.06450581550598145, 0.11430659145116806, 0.03999999910593033]","[0.0, -0.0, 0.21250639377830308]",0.5520437496503438,0.03985208879633559,"(0.0, 0.0, 0.0, 0.0, 0.0, 0.0)",-0.0790086018797588,-0.7592126439660251,0.0005663086930798626,"(0.0, 0.0, 0.0, 0.0, 0.0, 0.0)",-0.039238887150881335,-0.5522915816506297,-0.071355139069194,"(0.0, 0.0, 0.0, 0.0, 0.0, 0.0)",0.014569451659633744,0.7645069563132888,0.0015055403852617388,"(0.0, 0.0, 0.0, 0.0, 0.0, 0.0)",0.0030520617795980897,True,"(-0.031887665163757795, 0.18684622277729562, 0.039995032857574046)","(0.9999245374169422, -0.011235967587816038, -0.004967142425954457)",-7.92050836614995e-05,0.5421080363873477,True,"(0.03152023518786095, 0.18669992431467627, 0.040004967142425955)","(-0.999924537416942, 0.011235967587829097, 0.004967142425953457)",-0.0004360834064517454,0.0
19,Move,"(0.0, 0.0, 0.0)","(0.0, -0.0, 0.0)","(-0.00041778291509190216, 0.1712858287849603, 0.0009736516888248238)","(1.576376882617879, 0.005111791454885032, -0.010346600353356963)","[-0.0007027264031058808, 5.622366036350801e-07, -0.0008931258367201779]","[-0.026750000193715096, 0.05299999937415123, 0.03999999910593033]","[0.0, -0.0, 0.5522260863292079]","[-0.06452002376317978, 0.11429783701896667, 0.03999999910593033]","[0.0, 0.0, -0.20678545028574688]","[0.026750000193715096, 0.05299999937415123, 0.03999999910593033]","[0.0, 0.0, -0.5529631109328542]","[0.06456519663333893, 0.11426998674869537, 0.03999999910593033]","[0.0, -0.0, 0.21141555793991523]",0.5522425362611322,0.003963918503771326,"(0.0, 0.0, 0.0, 0.0, 0.0, 0.0)",-0.5037441888725221,-0.7588208643827545,0.045739669225345024,"(0.0, 0.0, 0.0, 0.0, 0.0, 0.0)",-0.2817833896017783,-0.553069050596091,-0.025432112892186606,"(0.0, 0.0, 0.0, 0.0, 0.0, 0.0)",0.007183279559051825,0.7643914749138225,0.003079503985766509,"(0.0, 0.0, 0.0, 0.0, 0.0, 0.0)",0.002142800571303537,True,"(-0.03194905333843053, 0.18685143297040394, 0.03999446620302089)","(0.9999315606046366, -0.010307822164258532, -0.005533796979109445)",-5.607961400218357e-05,3.816629944616403,True,"(0.03165858252404758, 0.1866972376303868, 0.040005533796979104)","(-0.9999315606046367, 0.010307822164254925, 0.0055337969791041325)",-0.0002591079968947621,0.0
20,Move,"(0.0, 0.0, 0.0)","(0.0, -0.0, 0.0)","(-0.00041412946657502797, 0.17128412241293697, 0.0009794418639587062)","(1.5745054030671848, 0.003433595280881431, -0.010192071029891513)","[-0.0006990729545890066, -1.1441354196839448e-06, -0.0008873356615862955]","[-0.026750000193715096, 0.05299999937415123, 0.03999999910593033]","[0.0, -0.0, 0.5524160738401002]","[-0.06453166902065277, 0.11429066210985184, 0.03999999910593033]","[0.0, 0.0, -0.2059214370065535]","[0.026750000193715096, 0.05299999937415123, 0.03999999910593033]","[0.0, 0.0, -0.553745124555058]","[0.06461309641599655, 0.11424039304256439, 0.03999999910593033]","[0.0, -0.0, 0.2106547816669222]",0.5524584692943358,0.010197172620407001,"(0.0, 0.0, 0.0, 0.0, 0.0, 0.0)",-0.335536413272587,-0.7582400729120646,0.023370905999995688,"(0.0, 0.0, 0.0, 0.0, 0.0, 0.0)",-0.1870604762476238,-0.5539012936600769,-0.037488583078341804,"(0.0, 0.0, 0.0, 0.0, 0.0, 0.0)",0.0061081361437704575,0.7643990516484416,-0.00020204625650688254,"(0.0, 0.0, 0.0, 0.0, 0.0, 0.0)",0.00045787756953678533,True,"(-0.03202339104695104, 0.186871621864301, 0.039996283512427594)","(0.9999411548919376, -0.010191882726079769, -0.003716487572406375)",-4.844327283309061e-05,2.498763565765114,True,"(0.03176157595800328, 0.18669178348502996, 0.040003716487572415)","(-0.9999411548919377, 0.01019188272608086, 0.003716487572411849)",-8.853626593888244e-05,0.0
21,Move,"(-5.9999999999999995e-05, 0.0, -0.00014000000000000001)","(0.0, 0.018053685782629343, 0.0)","(-0.00040821459653717757, 0.17128449451368796, 0.0009834584255080656)","(1.5732853420022626, 0.0023344524273968166, -0.01029905147961661)","[-0.0006931580845511563, -7.720346686945767e-07, -0.000883319100036936]","[-0.026750000193715096, 0.05299999937415123, 0.03999999910593033]","[0.0, -0.0, 0.5524204456237568]","[-0.06453194469213486, 0.1142904981970787, 0.03999999910593033]","[0.0, 0.0, -0.20528084223774715]","[0.026750000193715096, 0.05299999937415123, 0.03999999910593033]","[0.0, 0.0, -0.5547411466350657]","[0.06467407941818237, 0.11420264840126038, 0.03999999910593033]","[0.0, -0.0, 0.2096573493134311]",0.5523998348337217,-0.004948208631020936,"(0.0, 0.0, 0.0, 0.0, 0.0, 0.0)",-0.4333837905674389,-0.757581144093796,0.028837075284399483,"(0.0, 0.0, 0.0, 0.0, 0.0, 0.0)",-0.24200258952917916,-0.5549292398307956,-0.045144868470839754,"(0.0, 0.0, 0.0, 0.0, 0.0, 0.0)",0.007352460558855408,0.7643985545388833,1.3256254888460715e-05,"(0.0, 0.0, 0.0, 0.0, 0.0, 0.0)",0.0005482653919050871,True,"(-0.03207017230450924, 0.18689154298329191, 0.039997481138502065)","(0.9999440697097034, -0.010271941839310473, -0.0025188614979355494)",-4.2796996290174175e-05,3.2470629132339703,True,"(0.031894823959557096, 0.1866858537974465, 0.04000251886149794)","(-0.9999440697097033, 0.010271941839313552, 0.0025188614979379906)",8.631744001253633e-05,0.0
22,Move,"(5.9999999999999995e-05, 0.0, -0.00025)","(0.0, 0.03438473159354028, 0.0)","(-0.00035187167157517304, 0.17130050185836024, 0.000985220262564068)","(1.572474497223602, 0.001574130807375152, -0.011225704097083452)","[-0.0006368151595891518, 1.5235310003580693e-05, -0.0008815572629809337]","[-0.026750000193715096, 0.05299999937415123, 0.03999999910593033]","[0.0, -0.0, 0.5519825861981876]","[-0.06450510025024414, 0.11430703848600388, 0.03999999910593033]","[0.0, 0.0, -0.205117371703947]","[0.026750000193715096, 0.05299999937415123, 0.03999999910593033]","[0.0, 0.0, -0.5559839830470935]","[0.06475010514259338, 0.11415547132492065, 0.03999999910593033]","[0.0, -0.0, 0.20841466011088877]",0.5518753111535637,-0.02573553040267087,"(0.0, 0.0, 0.0, 0.0, 0.0, 0.0)",-0.5188024816658638,-0.7569860151118362,0.02733389994211792,"(0.0, 0.0, 0.0, 0.0, 0.0, 0.0)",-0.2982932507406923,-0.5562220947533429,-0.057161485619415586,"(0.0, 0.0, 0.0, 0.0, 0.0, 0.0)",0.009309701468917561,0.7643985871542414,-8.697428830473086e-07,"(0.0, 0.0, 0.0, 0.0, 0.0, 0.0)",0.0006944011119951325,True,"(-0.0320552066069667, 0.18691244924543068, 0.039998296815223794)","(0.9999375254367318, -0.01104737005280363, -0.0017031847762107263)",-3.1158478868943036e-05,3.9296648363949886,True,"(0.03206094918223291, 0.18667888646711395, 0.04000170318477621)","(-0.9999375254367316, 0.011047370052811513, 0.0017031847762092388)",0.00022588471444148813,0.0
23,Move,"(0.00064, 0.0, 0.00017)","(0.0, 0.13771171397010862, 0.0)","(-9.512315310867707e-06, 0.1713060323367655, 0.0009887657716805998)","(1.5718970972531858, 0.0011389288823799482, -0.01505283759511061)","[-0.0002944558033248464, 2.0765788408844132e-05, -0.0008780117538644018]","[-0.026750000193715096, 0.05299999937415123, 0.03999999910593033]","[0.0, -0.0, 0.5495268933237789]","[-0.06435444205999374, 0.11439955979585648, 0.03999999910593033]","[0.0, 0.0, -0.20719938510463679]","[0.026750000193715096, 0.05299999937415123, 0.03999999910593033]","[0.0, 0.0, -0.5582084392268889]","[0.06488606333732605, 0.11407078802585602, 0.03999999910593033]","[0.0, -0.0, 0.2061900597992976]",0.5489194603338311,-0.14579281896392823,"(0.0, 0.0, 0.0, 0.0, 0.0, 0.0)",-0.498728698824525,-0.756720590033864,0.00136629605854922,"(0.0, 0.0, 0.0, 0.0, 0.0, 0.0)",-0.31257137303798466,-0.5586852054087504,-0.11440598707624083,"(0.0, 0.0, 0.0, 0.0, 0.0, 0.0)",0.01863247888913153,0.7643985850143477,5.706383099379764e-08,"(0.0, 0.0, 0.0, 0.0, 0.0, 0.0)",0.0013896412772750554,True,"(-0.03175346830742308, 0.18693612142623675, 0.03999876368835256)","(0.9998974662037432, -0.014266345462120035, -0.0012363116474373927)",-2.1874426222493437e-05,3.946327954156981,True,"(0.03235833020819421, 0.1866677357476983, 0.04000123631164743)","(-0.9998974662037434, 0.014266345462107546, 0.0012363116474320035)",0.00021092676406569413,0.0
24,Move,"(0.00218, 0.0, 0.0018200000000000002)","(0.0, 0.01863837108204745, 0.0)","(8.594947219659405e-05, 0.17130741190650664, 0.0009893555315315407)","(1.571563156523091, 0.0007984247420822635, -0.01609212138195407)","[-0.00019899401581738465, 2.2145358149983085e-05, -0.0008774219940134609]","[-0.026750000193715096, 0.05299999937415123, 0.03999999910593033]","[0.0, -0.0, 0.5480093188633262]","[-0.06426121294498444, 0.11445656418800354, 0.03999999910593033]","[0.0, 0.0, -0.2083440999701505]","[0.026750000193715096, 0.05299999937415123, 0.03999999910593033]","[0.0, 0.0, -0.5616797158237965]","[0.06509782373905182, 0.11393804103136063, 0.03999999910593033]","[0.0, -0.0, 0.20271886533317718]",0.5479167594369085,-0.02219589939817309,"(0.0, 0.0, 0.0, 0.0, 0.0, 0.0)",-0.4611278353340354,-0.7562083261809415,0.034801008584182155,"(0.0, 0.0, 0.0, 0.0, 0.0, 0.0)",-0.2480056339423051,-0.5623698739539695,-0.16563182336459192,"(0.0, 0.0, 0.0, 0.0, 0.0, 0.0)",0.02697471518580802,0.7643985851547461,-3.743959808844011e-09,"(0.0, 0.0, 0.0, 0.0, 0.0, 0.0)",0.002011669746572313,True,"(-0.03157723570642581, 0.18695510413816607, 0.03999914703588774)","(0.9998706289952219, -0.01606230758398193, -0.0008529641122601934)",-1.8232635651534434e-05,3.4598671143965234,True,"(0.032822257879027456, 0.1866457878589034, 0.04000085296411225)","(-0.9998706289952219, 0.016062307583982454, 0.0008529641122489129)",0.0004943632944735636,0.0
25,Move,"(0.0047, 0.0, 0.00547)","(0.0, 0.016268213957839145, 0.0)","(0.00016282931351719386, 0.17131984950346144, 0.0009882861284238177)","(1.5713323953733387, 0.0005283258383721238, -0.017218595560649554)","[-0.00012211417449678482, 3.458295510477827e-05, -0.0008784913971211839]","[-0.026750000193715096, 0.05299999937415123, 0.03999999910593033]","[0.0, -0.0, 0.5471979227850359]","[-0.06421133875846863, 0.11448697745800018, 0.03999999910593033]","[0.0, 0.0, -0.208514825197842]","[0.026750000193715096, 0.05299999937415123, 0.03999999910593033]","[0.0, 0.0, -0.5683067977919624]","[0.06550081819295883, 0.1136825680732727, 0.03999999910593033]","[0.0, -0.0, 0.1960917786371987]",0.5470250010787855,-0.041496423987144766,"(0.0, 0.0, 0.0, 0.0, 0.0, 0.0)",-0.5274432914649771,-0.7555991233270384,0.027267170680543715,"(0.0, 0.0, 0.0, 0.0, 0.0, 0.0)",-0.30945907743982115,-0.5697367748393419,-0.3431933526011175,"(0.0, 0.0, 0.0, 0.0, 0.0, 0.0)",0.05588836279403982,0.7643985851455345,2.4564350553646364e-10,"(0.0, 0.0, 0.0, 0.0, 0.0, 0.0)",0.004166857507862057,True,"(-0.03151499521174754, 0.18697918311040193, 0.03999942316248055)","(0.9998555534439633, -0.016986450651680772, -0.000576837519454488)",-1.4447844955453344e-05,4.017701262338332,True,"(0.03370768354502623, 0.18659691055713468, 0.040000576837519466)","(-0.9998555534439634, 0.016986450651680942, 0.0005768375194597614)",0.0013141998212242464,0.0
26,Move,"(0.00757, 0.0, 0.010730000000000002)","(0.0, 0.034222415973104825, 0.0)","(0.0002328407641169312, 0.17133473520046683, 0.0009876511354258261)","(1.57122610603231, 0.0003615934275027463, -0.01832481198646034)","[-5.21027238970475e-05, 4.9468652110168376e-05, -0.0008791263901191755]","[-0.026750000193715096, 0.05299999937415123, 0.03999999910593033]","[0.0, -0.0, 0.5462361695949753]","[-0.06415218114852905, 0.11452297866344452, 0.03999999910593033]","[0.0, 0.0, -0.20878170888415368]","[0.026750000193715096, 0.05299999937415123, 0.03999999910593033]","[0.0, 0.0, -0.5799251651093263]","[0.06620322167873383, 0.11322826147079468, 0.03999999910593033]","[0.0, -0.0, 0.1844733950506369]",0.5460642647208205,-0.041232639364231057,"(0.0, 0.0, 0.0, 0.0, 0.0, 0.0)",-0.5048412291018407,-0.7548468753348503,0.04101698118274447,"(0.0, 0.0, 0.0, 0.0, 0.0, 0.0)",-0.2824830463722136,-0.5823197238739362,-0.5746855494187219,"(0.0, 0.0, 0.0, 0.0, 0.0, 0.0)",0.09357782494338672,0.7643985851461388,-1.6115109247039072e-11,"(0.0, 0.0, 0.0, 0.0, 0.0, 0.0)",0.006974505356166294,True,"(-0.0314365077327571, 0.18700556937038268, 0.03999962094238903)","(0.9998353540237479, -0.018141696710443498, -0.00037905761097330133)",-6.431968338151272e-06,3.827002144278783,False,,,,
27,Move,"(0.00757, 0.0, 0.010730000000000002)","(0.0, 0.034222415973104825, 0.0)","(0.001911557405037241, 0.17246440274596248, 0.002232593244536739)","(1.53238942085186, 0.009660679636290831, -0.056020806305499674)","[0.0016266139170232623, 0.001179136197605818, 0.0003658157189917375]","[-0.026750000193715096, 0.05299999937415123, 0.03999999910593033]","[0.0, -0.0, 0.49219567462258296]","[-0.060774464160203934, 0.11645341664552689, 0.03999999910593033]","[0.0, 0.0, -0.20349112124429178]","[0.026750000193715096, 0.05299999937415123, 0.03999999910593033]","[0.0, 0.0, -0.5281250976459443]","[0.063031867146492, 0.11519024521112442, 0.03999999910593033]","[0.0, -0.0, 0.1819648312618008]",0.47841261427779536,-3.3079111029580583,"(0.0, 0.0, 0.0, 0.0, 0.0, 0.0)",-70.55239301114608,-0.6702325053975958,6.109005658913544,"(0.0, 0.0, 0.0, 0.0, 0.0, 0.0)",-38.29640685845326,-0.5135077234097385,3.5081751483203085,"(0.0, 0.0, 0.0, 0.0, 0.0, 0.0)",66.86733963726438,0.687224058763784,-5.487809653131762,"(0.0, 0.0, 0.0, 0.0, 0.0, 0.0)",34.478340867167695,True,"(-0.02844272866358908, 0.18910777854107919, 0.039999650600917376)","(0.9998298358431946, -0.018443895414235745, -0.00034939908262615334)",-0.00019824742203756698,521.5050461201528,True,"(0.0322922125795759, 0.18846197000015347, 0.04215677681787993)","(-0.9985853880816181, 0.05182118200274755, 0.0119074684850468)",-0.0030260689204126257,495.7091597423093
28,Move,"(0.01042, 0.0, 0.01632)","(0.0, 0.034222415973104825, 0.0)","(0.002129190988193568, 0.17277023224014618, 0.003276983436382981)","(1.489652494359966, 7.705314095116291e-05, -0.060335566252977375)","[0.0018442475001795894, 0.0014849656917895193, 0.0014102059108379796]","[-0.026750000193715096, 0.05299999937415123, 0.03999999910593033]","[0.0, -0.0, 0.46994124463459647]","[-0.05935404449701309, 0.11719483137130737, 0.03999999910593033]","[0.0, 0.0, -0.1834123449170437]","[0.026750000193715096, 0.05299999937415123, 0.03999999910593033]","[0.0, 0.0, -0.5177580220649799]","[0.0623851902782917, 0.1155630350112915, 0.03999999910593033]","[0.0, -0.0, 0.15420181106960218]",0.4710004242787957,0.25419302328537985,"(0.0, 0.0, 0.0, 0.0, 0.0, 0.0)",-0.5731499807076834,-0.6550178150717821,-0.399407845233118,"(0.0, 0.0, 0.0, 0.0, 0.0, 0.0)",-0.3192987505265726,-0.5224384154284725,-1.1233097859481582,"(0.0, 0.0, 0.0, 0.0, 0.0, 0.0)",0.17843698339206618,0.6734861765488862,0.36634352573060797,"(0.0, 0.0, 0.0, 0.0, 0.0, 0.0)",0.009183593082631357,True,"(-0.028489401911260023, 0.190415411026389, 0.03999786710544075)","(0.9981142804159362, -0.06134601853891612, -0.002132894559247102)",-0.00033623249161444967,3.9750531657030104,True,"(0.033691367666170896, 0.1896598407573813, 0.04215677681787993)","(-0.9985853880816181, 0.05182118200274755, 0.0119074684850468)",-0.0014827476889464602,0.0
29,Move,"(0.013139999999999999, 0.0, 0.02101)","(0.0, -0.0, 0.0)","(0.0023343010452192077, 0.17279537121184046, 0.0032052323140575843)","(1.4928901677341428, -0.0014925241964033338, -0.05605885560705908)","[0.002049357557205229, 0.0015101046634838078, 0.0013384547885125827]","[-0.026750000193715096, 0.05299999937415123, 0.03999999910593033]","[0.0, -0.0, 0.47221323203458143]","[-0.05949980020523071, 0.11712059378623962, 0.03999999910593033]","[0.0, 0.0, -0.18390355459145635]","[0.026750000193715096, 0.05299999937415123, 0.03999999910593033]","[0.0, 0.0, -0.5422517967365844]","[0.06390675157308578, 0.11467151343822479, 0.03999999910593033]","[0.0, -0.0, 0.132235694830966]",0.47228308572353406,0.016782168611812143,"(0.0, 0.0, 0.0, 0.0, 0.0, 0.0)",-0.003048547306776099,-0.6560072685213018,0.026267144044804774,"(0.0, 0.0, 0.0, 0.0, 0.0, 0.0)",-0.0005346712908306376,-0.5464484902318205,-1.0072153544853217,"(0.0, 0.0, 0.0, 0.0, 0.0, 0.0)",0.16427673842938337,0.6743873069401499,-0.024034071634504307,"(0.0, 0.0, 0.0, 0.0, 0.0, 0.0)",0.012504898354345376,True,"(-0.028598852397480543, 0.1903318075233829, 0.04000162211395081)","(0.998427677752433, -0.05603160754622537, 0.0016221139508087632)",-0.00015319825009125945,0.0,True,"(0.036829588198569, 0.18944132879246856, 0.039998377886049194)","(-0.9984276777524328, 0.056031607546228844, -0.0016221139508133767)",0.001608655568077966,0.0
30,Move,"(0.01596, 0.0, 0.02438)","(0.0, 0.01863837108204745, 0.0)","(0.0023681000390400357, 0.17267460050636546, 0.0019592647584701574)","(1.53531677466245, -0.000928471882680022, -0.05586253741635722)","[0.002083156551026057, 0.0013893339580088038, 9.248723292515576e-05]","[-0.026750000193715096, 0.05299999937415123, 0.03999999910593033]","[0.0, -0.0, 0.4719968996468892]","[-0.05948593467473984, 0.1171276718378067, 0.03999999910593033]","[0.0, 0.0, -0.1835660734118445]","[0.026750000193715096, 0.05299999937415123, 0.03999999910593033]","[0.0, 0.0, -0.5691626586118808]","[0.0655527338385582, 0.113649383187294, 0.03999999910593033]","[0.0, -0.0, 0.10515898172527322]",0.47190241494773777,-0.022679160205639953,"(0.0, 0.0, 0.0, 0.0, 0.0, 0.0)",-0.43015351420290865,-0.6554787959264036,0.02020478938301735,"(0.0, 0.0, 0.0, 0.0, 0.0, 0.0)",-0.2194369528506595,-0.5742567647065445,-1.2225942739226225,"(0.0, 0.0, 0.0, 0.0, 0.0, 0.0)",0.19900860575804502,0.6743281750758914,0.0015768497135626447,"(0.0, 0.0, 0.0, 0.0, 0.0, 0.0)",0.014800740644340482,True,"(-0.028609706380960893, 0.1903490949037666, 0.04000102891322794)","(0.9984351552861808, -0.05591227080193778, 0.0010289132279352163)",-9.080061546142843e-05,3.129261246831403,False,,,,
31,Move,"(0.01596, 0.0, 0.02438)","(0.0, 0.01863837108204745, 0.0)","(0.004755082212339631, 0.17512605687136584, 0.0013111001295790091)","(1.573841776395645, 0.01594575645027041, -0.07751745719637633)","[0.004470138724325653, 0.0038407903230091855, -0.0005556773959659925]","[-0.026750000193715096, 0.05299999937415123, 0.03999999910593033]","[0.0, -0.0, 0.42078292563516606]","[-0.05616021528840065, 0.11871939897537231, 0.03999999910593033]","[0.0, 0.0, -0.1848432519990996]","[0.026750000193715096, 0.05299999937415123, 0.03999999910593033]","[0.0, 0.0, -0.5225048673392025]","[0.06268177181482315, 0.11539316922426224, 0.03999999910593033]","[0.0, -0.0, 0.10119375323693022]",0.40769734426019383,-3.140547195942736,"(0.0, 0.0, 0.0, 0.0, 0.0, 0.0)",-63.26563359397608,-0.5827548586289,5.489124391787449,"(0.0, 0.0, 0.0, 0.0, 0.0, 0.0)",-33.87943391897008,-0.5079781314542756,3.4864134620878433,"(0.0, 0.0, 0.0, 0.0, 0.0, 0.0)",62.87293904324983,0.6003639354855029,-5.600317211703271,"(0.0, 0.0, 0.0, 0.0, 0.0, 0.0)",34.39587208288822,True,"(-0.025190487464151482, 0.1919014810120258, 0.040000831313374244)","(0.9984437353874023, -0.05576213933956435, 0.0008313133742443304)",-0.00021566263888039684,457.81854212519835,True,"(0.03794843693383175, 0.1908516886136455, 0.042160787789100394)","(-0.9968486061036851, 0.0777142542135189, 0.015917009806393163)",-0.0007090938340577719,457.91815105284394
32,Move,"(0.01808, 0.0, 0.026910000000000003)","(0.0, 0.01863837108204745, 0.0)","(0.005335374696272972, 0.17742321637012454, 0.0009167565500328245)","(1.5689304868787581, 0.005049985096274484, -0.0946263898231376)","[0.005050431208258994, 0.00613794982176788, -0.0009500209755121771]","[-0.026750000193715096, 0.05299999937415123, 0.03999999910593033]","[0.0, -0.0, 0.3983044621795551]","[-0.0546756349503994, 0.11936383694410324, 0.03999999910593033]","[0.0, 0.0, -0.16940069656527507]","[0.026750000193715096, 0.05299999937415123, 0.03999999910593033]","[0.0, 0.0, -0.5195776185356804]","[0.06249897554516792, 0.11549808830022812, 0.03999999910593033]","[0.0, -0.0, 0.0654696987452176]",0.3989457764088226,0.15392270049455256,"(0.0, 0.0, 0.0, 0.0, 0.0, 0.0)",-0.9706138258343608,-0.5691776581113109,-0.3534054502524349,"(0.0, 0.0, 0.0, 0.0, 0.0, 0.0)",-0.5458540616542924,-0.5262137229076072,-1.5926702962293888,"(0.0, 0.0, 0.0, 0.0, 0.0, 0.0)",0.25479209674756986,0.5865789606904084,0.36759932786918714,"(0.0, 0.0, 0.0, 0.0, 0.0, 0.0)",0.014849764359386295,True,"(-0.024860864076912452, 0.19286241923843755, 0.03784598673735842)","(0.995971279646534, -0.08920552178808624, -0.009142483347576603)",-0.0002962631328276688,6.8924701667739035,True,"(0.04047399813701286, 0.19176778094052993, 0.042154013262641586)","(-0.9959712796465344, 0.0892055217880828, 0.009142483347581297)",0.0015061727997650277,0.0
33,Move,"(0.019960000000000002, 0.0, 0.028120000000000003)","(0.0, 0.06885498432042829, 0.0)","(0.0063179715061684035, 0.178237025084503, 0.0007508616338163413)","(1.5709871351973508, -0.004224901712403801, -0.1208235661790282)","[0.006033028018154425, 0.006951758536146352, -0.0011159158917286604]","[-0.026750000193715096, 0.05299999937415123, 0.03999999910593033]","[0.0, -0.0, 0.3952659619649641]","[-0.05447385832667351, 0.11944838613271713, 0.03999999910593033]","[0.0, 0.0, -0.17477717517257818]","[0.026750000193715096, 0.05299999937415123, 0.03999999910593033]","[0.0, 0.0, -0.5538970240838077]","[0.06462240219116211, 0.11423464119434357, 0.03999999910593033]","[0.0, -0.0, 0.033686865913852365]",0.3941203647912149,-0.2749300392546896,"(0.0, 0.0, 0.0, 0.0, 0.0, 0.0)",-0.22479083167491512,-0.5699272514737327,0.027797793183182096,"(0.0, 0.0, 0.0, 0.0, 0.0, 0.0)",-0.15645466881563255,-0.5597373040386869,-1.4016675700313037,"(0.0, 0.0, 0.0, 0.0, 0.0, 0.0)",0.22845457226843807,0.5874833913692388,-0.024118151435478023,"(0.0, 0.0, 0.0, 0.0, 0.0, 0.0)",0.017276339094237897,True,"(-0.024264760964887187, 0.19278115697167242, 0.03785007925707411)","(0.9955135687780359, -0.09448403169919926, -0.005049963631887385)",-0.0001277153466618597,0.15554180093523173,False,,,,
34,Move,"(0.019960000000000002, 0.0, 0.028120000000000003)","(0.0, 0.06885498432042829, 0.0)","(0.008560416423933377, 0.1789389903450823, 0.0017776692392661752)","(1.5410997501673411, 0.006152909023658329, -0.14463092522733753)","[0.008275472935919398, 0.007653723796725631, -8.910828627882645e-05]","[-0.026750000193715096, 0.05299999937415123, 0.03999999910593033]","[0.0, -0.0, 0.34424818440964533]","[-0.051049210131168365, 0.1207757219672203, 0.03999999910593033]","[0.0, 0.0, -0.1752298476039145]","[0.026750000193715096, 0.05299999937415123, 0.03999999910593033]","[0.0, 0.0, -0.5101020739814365]","[0.06190517544746399, 0.11583402007818222, 0.03999999910593033]","[0.0, -0.0, 0.030981697682283114]",0.3317716785801898,-2.994350665596762,"(0.0, 0.0, 0.0, 0.0, 0.0, 0.0)",-63.75656238088686,-0.4964084732491636,5.536685391902278,"(0.0, 0.0, 0.0, 0.0, 0.0, 0.0)",-33.72391979832346,-0.4959434498067618,3.398062627832097,"(0.0, 0.0, 0.0, 0.0, 0.0, 0.0)",60.2003783527346,0.5197787909801483,-5.113188695376101,"(0.0, 0.0, 0.0, 0.0, 0.0, 0.0)",31.67664961982844,True,"(-0.020809346180648322, 0.19407290406755817, 0.04214875755545875)","(0.9924200510661583, -0.12283051417660361, 0.0038867761647482877)",-0.00033702755115189615,452.6654808171928,True,"(0.04252583498403252, 0.19283765675865505, 0.042153889314038254)","(-0.9896313714292985, 0.1433471824419034, 0.009018534744252698)",-0.0007040827348198697,430.3252326727767
35,Move,"(0.02126, 0.0, 0.028499999999999998)","(0.0, 0.03438473159354028, 0.0)","(0.009786238779736186, 0.1786255866002683, 0.0026830238798600152)","(1.506381511941199, -0.0006539947596383077, -0.1326773558187357)","[0.009501295291722207, 0.007340320051911653, 0.0008162463543150136]","[-0.026750000193715096, 0.05299999937415123, 0.03999999910593033]","[0.0, -0.0, 0.31914895100261587]","[-0.049340616911649704, 0.12136419862508774, 0.03999999910593033]","[0.0, 0.0, -0.16181522792112896]","[0.026750000193715096, 0.05299999937415123, 0.03999999910593033]","[0.0, 0.0, -0.5112409694727692]","[0.06197671592235565, 0.11579393595457077, 0.03999999910593033]","[0.0, 0.0, -0.005755985951579321]",0.3187674950484755,-0.09154404328236028,"(0.0, 0.0, 0.0, 0.0, 0.0, 0.0)",-0.42005729760525695,-0.48249936095878077,-0.3684522412971403,"(0.0, 0.0, 0.0, 0.0, 0.0, 0.0)",-0.21956544735036898,-0.5187918186403601,-1.8121917836214751,"(0.0, 0.0, 0.0, 0.0, 0.0, 0.0)",0.29079763411765014,0.5069144096446462,0.3430501689467232,"(0.0, 0.0, 0.0, 0.0, 0.0, 0.0)",0.01780019913612188,True,"(-0.020086700910227625, 0.19506043364769843, 0.04214875755545875)","(0.9924200510661583, -0.12283051417660361, 0.0038867761647482877)",-0.0003905415517453624,3.0546705090556885,True,"(0.04543875400059651, 0.19345740861934047, 0.042153889314038254)","(-0.9896313714292985, 0.1433471824419034, 0.009018534744252698)",0.0016335681664826965,0.0
36,Move,"(0.022420000000000002, 0.0, 0.02844)","(0.0, 0.051312680008633295, 0.0)","(0.011229103177088855, 0.17840059735597927, 0.002533743362496871)","(1.5146211576009327, -0.00033217707382126124, -0.11700479631615356)","[0.010944159689074875, 0.007115330807622611, 0.0006669658369518692]","[-0.026750000193715096, 0.05299999937415123, 0.03999999910593033]","[0.0, -0.0, 0.31279681588942115]","[-0.048905909061431885, 0.12150631844997406, 0.03999999910593033]","[0.0, 0.0, -0.1706016428656233]","[0.026750000193715096, 0.05299999937415123, 0.03999999910593033]","[0.0, 0.0, -0.5479961863696354]","[0.06426040083169937, 0.11445705592632294, 0.03999999910593033]","[0.0, 0.0, -0.04014390794588585]",0.3112819016820727,-0.36357791432160197,"(0.0, 0.0, 0.0, 0.0, 0.0, 0.0)",-0.18329486445186605,-0.4832873694436549,0.026660379314798963,"(0.0, 0.0, 0.0, 0.0, 0.0, 0.0)",-0.11710781729990757,-0.5540241248034197,-1.4467185975733825,"(0.0, 0.0, 0.0, 0.0, 0.0, 0.0)",0.23576419910033963,0.5077584407803165,-0.022507496951210012,"(0.0, 0.0, 0.0, 0.0, 0.0, 0.0)",0.017801219901375395,True,"(-0.01900560129747436, 0.19494267285906197, 0.04214875755545875)","(0.9924200510661583, -0.12283051417660361, 0.0038867761647482877)",-0.00023555438735807358,1.5360062129422682,False,,,,
37,Move,"(0.022420000000000002, 0.0, 0.02844)","(0.0, 0.051312680008633295, 0.0)","(0.014367066240646017, 0.18027829148408844, 0.002195531915696633)","(1.548389853143516, 0.01708615848452866, -0.1180361579949542)","[0.014082122752632037, 0.008993024935731786, 0.00032875439015163117]","[-0.026750000193715096, 0.05299999937415123, 0.03999999910593033]","[0.0, -0.0, 0.2636681530617741]","[-0.04551490396261215, 0.12251171469688416, 0.03999999910593033]","[0.0, 0.0, -0.17668587108226674]","[0.026750000193715096, 0.05299999937415123, 0.03999999910593033]","[0.0, 0.0, -0.5075031303887519]","[0.06174175441265106, 0.11592517048120499, 0.03999999910593033]","[0.0, 0.0, -0.04579079817829566]",0.25190626275257677,-2.822847506315408,"(0.0, 0.0, 0.0, 0.0, 0.0, 0.0)",-58.34834084032299,-0.4194547796424048,5.015813026490879,"(0.0, 0.0, 0.0, 0.0, 0.0, 0.0)",-30.227379601793274,-0.49413814441599596,3.20759892617562,"(0.0, 0.0, 0.0, 0.0, 0.0, 0.0)",57.87061123987487,0.43969558174379086,-5.2840221474095515,"(0.0, 0.0, 0.0, 0.0, 0.0, 0.0)",32.2443672390028,True,"(-0.015173116455540737, 0.19573097471294088, 0.03785304325602601)","(0.9901713885046218, -0.1398437347119379, -0.002085964679989213)",-0.00020176806801918253,404.6591762170536,True,"(0.048294029235452854, 0.19377393574140522, 0.04422445595157059)","(-0.9927210351917755, 0.1192943808038519, 0.016546812272916853)",-0.0005430907370977078,410.6169436126275
38,Move,"(0.023710000000000002, 0.0, 0.02832)","(0.0, 0.06885498432042829, 0.0)","(0.015654092494777293, 0.1827527056998707, 0.0016065689273654254)","(1.5774794613737253, 0.014407348172287884, -0.1350414482328749)","[0.015369149006763314, 0.011467439151514047, -0.00026020859817957624]","[-0.026750000193715096, 0.05299999937415123, 0.03999999910593033]","[0.0, -0.0, 0.23915108453754033]","[-0.043805211782455444, 0.12295083701610565, 0.03999999910593033]","[0.0, 0.0, -0.16645444793081268]","[0.026750000193715096, 0.05299999937415123, 0.03999999910593033]","[0.0, 0.0, -0.5086376735765714]","[0.061813127249479294, 0.115885429084301, 0.03999999910593033]","[0.0, 0.0, -0.08338985976466172]",0.23856653542015915,-0.14029071473731447,"(0.0, 0.0, 0.0, 0.0, 0.0, 0.0)",0.025981935987289453,-0.4069909547619551,-0.33250226607930505,"(0.0, 0.0, 0.0, 0.0, 0.0, 0.0)",0.005164938153336341,-0.5157719876708651,-1.7122205785761253,"(0.0, 0.0, 0.0, 0.0, 0.0, 0.0)",0.2744849741437302,0.4266923882147169,0.34668215077349746,"(0.0, 0.0, 0.0, 0.0, 0.0, 0.0)",0.016540499385696964,True,"(-0.014214138205128304, 0.19647670039670642, 0.03785304325602601)","(0.9901713885046218, -0.1398437347119379, -0.002085964679989213)",-0.0002100666682309632,0.0,True,"(0.05130125618468692, 0.19418467597941197, 0.04422445595157059)","(-0.9927210351917755, 0.1192943808038519, 0.016546812272916853)",0.0014554975259818952,0.0
39,Move,"(0.02481, 0.0, 0.028210000000000002)","(0.0, 0.1033252370473163, 0.0)","(0.01798953413608132, 0.1839984445655112, 0.000798165289788404)","(1.5695618508623923, -0.00413421203770748, -0.18905812925681387)","[0.017704590648067342, 0.012713178017154547, -0.0010686122357565977]","[-0.026750000193715096, 0.05299999937415123, 0.03999999910593033]","[0.0, -0.0, 0.22977618956069995]","[-0.043148692697286606, 0.12310764938592911, 0.03999999910593033]","[0.0, 0.0, -0.1780241807635735]","[0.026750000193715096, 0.05299999937415123, 0.03999999910593033]","[0.0, 0.0, -0.5442053855625513]","[0.06402716785669327, 0.11459880322217941, 0.03999999910593033]","[0.0, 0.0, -0.11656506428765455]",0.22755134032281318,-0.5339665198579587,"(0.0, 0.0, 0.0, 0.0, 0.0, 0.0)",-0.5027692744535893,-0.407718150043146,0.019734308158054135,"(0.0, 0.0, 0.0, 0.0, 0.0, 0.0)",-0.24474838782462716,-0.5501268361153216,-1.4211504397320016,"(0.0, 0.0, 0.0, 0.0, 0.0, 0.0)",0.23160759948490514,0.42754552762749654,-0.022750414917564844,"(0.0, 0.0, 0.0, 0.0, 0.0, 0.0)",0.0174951987064306,True,"(-0.012854972342532474, 0.1954743905963536, 0.03388552348470525)","(0.9877276115312976, -0.15610496497675527, -0.005040369855901247)",-0.00011047545030020149,0.0,False,,,,
40,Move,"(0.02481, 0.0, 0.028210000000000002)","(0.0, 0.1033252370473163, 0.0)","(0.020997337023483394, 0.1848324172555303, 0.0008390953022802051)","(1.5674697163479216, 0.005858255195326018, -0.13351308180703483)","[0.020712393535469414, 0.013547150707173633, -0.0010276822232647967]","[-0.026750000193715096, 0.05299999937415123, 0.03999999910593033]","[0.0, -0.0, 0.1808705902591111]","[-0.03970179334282875, 0.12382549792528152, 0.03999999910593033]","[0.0, 0.0, -0.18885742437050185]","[0.026750000193715096, 0.05299999937415123, 0.03999999910593033]","[0.0, 0.0, -0.5059328371776075]","[0.061642903834581375, 0.11598003655672073, 0.03999999910593033]","[0.0, 0.0, -0.12452119285280733]",0.1694553032502629,-2.7396691794150008,"(0.0, 0.0, 0.0, 0.0, 0.0, 0.0)",-54.96484852213043,-0.34902489830993,4.968749454784955,"(0.0, 0.0, 0.0, 0.0, 0.0, 0.0)",-27.693513015555233,-0.4932730600709426,3.0383556970731207,"(0.0, 0.0, 0.0, 0.0, 0.0, 0.0)",56.69074823920943,0.3594915207705851,-5.260837995656449,"(0.0, 0.0, 0.0, 0.0, 0.0, 0.0)",31.80252056465052,True,"(-0.008526742840484495, 0.19638273815291563, 0.03578294397612437)","(0.9879511556519405, -0.15449546449172122, -0.00914688457795392)",-0.0010711934544423846,376.2893841790251,True,"(0.05435370359750106, 0.19461404461722184, 0.044217056023875614)","(-0.9879511556519421, 0.15449546449171314, 0.009146884577930328)",-0.00036851165635406975,394.44986071757666
41,Move,"(0.02648, 0.0, 0.02769)","(0.0, 0.12143826402451346, 0.0)","(0.022565465357838953, 0.18615546194947954, 0.0010681985609017372)","(1.5731671905619828, 0.01260820836812798, -0.16388469474918652)","[0.022280521869824974, 0.014870195401122888, -0.0007985789646432644]","[-0.026750000193715096, 0.05299999937415123, 0.03999999910593033]","[0.0, -0.0, 0.15302148550854122]","[-0.03772459924221039, 0.12415868043899536, 0.03999999910593033]","[0.0, 0.0, -0.17892630596136908]","[0.026750000193715096, 0.05299999937415123, 0.03999999910593033]","[0.0, 0.0, -0.509624476500006]","[0.06187515705823898, 0.11585079878568649, 0.03999999910593033]","[0.0, 0.0, -0.16322910931859566]",0.15129768388938,-0.4137135908947218,"(0.0, 0.0, 0.0, 0.0, 0.0, 0.0)",-0.49792277867533624,-0.3336145793682985,-0.40003282675778584,"(0.0, 0.0, 0.0, 0.0, 0.0, 0.0)",-0.3089243256453555,-0.5169681057616288,-1.762489068736038,"(0.0, 0.0, 0.0, 0.0, 0.0, 0.0)",0.2830605580891293,0.3477049053662146,0.3143097441165463,"(0.0, 0.0, 0.0, 0.0, 0.0, 0.0)",0.017546903026973818,True,"(-0.007363502384195083, 0.1965118426746731, 0.0338790283322489)","(0.9894522262017593, -0.14439952835575984, -0.011535522312253833)",-0.0007629929270455695,0.8541260229225482,True,"(0.0576344168525339, 0.19470798562441627, 0.044217056023875614)","(-0.9879511556519421, 0.15449546449171314, 0.009146884577930328)",0.0012145016325089924,0.0
42,Move,"(0.02719, 0.0, 0.02732)","(0.0, 0.1033252370473163, 0.0)","(0.025199358180251766, 0.18686906606611287, 0.000832064413966963)","(1.5687699527831598, 0.004901416917579933, -0.20144973427526963)","[0.024914414692237787, 0.015583799517756208, -0.0010347131115780385]","[-0.026750000193715096, 0.05299999937415123, 0.03999999910593033]","[0.0, -0.0, 0.13980584919889352]","[-0.036783263087272644, 0.12429749965667725, 0.03999999910593033]","[0.0, 0.0, -0.19475277826483114]","[0.026750000193715096, 0.05299999937415123, 0.03999999910593033]","[0.0, 0.0, -0.5454544160977949]","[0.06410408020019531, 0.11455219984054565, 0.03999999910593033]","[0.0, 0.0, -0.1968902928922078]",0.13712880237064448,-0.6424904219003799,"(0.0, 0.0, 0.0, 0.0, 0.0, 0.0)",-0.4868059252403992,-0.3344649208433425,0.022491526675362822,"(0.0, 0.0, 0.0, 0.0, 0.0, 0.0)",-0.23607374919554702,-0.5513394317780645,-1.4123984070479458,"(0.0, 0.0, 0.0, 0.0, 0.0, 0.0)",0.230158044785232,0.3484782252028954,-0.020621862311486886,"(0.0, 0.0, 0.0, 0.0, 0.0, 0.0)",0.0173637174886087,True,"(-0.006066628529068238, 0.19217541900797386, 0.029096021224452647)","(0.9820277199895567, -0.18845720481326697, -0.010268355568586535)",-0.0005279721494578138,0.0,False,,,,
43,Move,"(0.02719, 0.0, 0.02732)","(0.0, 0.1033252370473163, 0.0)","(0.028666024739571146, 0.18748656363143276, 0.0005644619602766314)","(1.5721879898278777, -0.01952946743907616, -0.1665037065632473)","[0.028381081251557166, 0.016201297083076105, -0.0013023155652683704]","[-0.026750000193715096, 0.05299999937415123, 0.03999999910593033]","[0.0, -0.0, 0.09343028174028113]","[-0.03346719592809677, 0.12468598037958145, 0.03999999910593033]","[0.0, 0.0, -0.19096846781194676]","[0.026750000193715096, 0.05299999937415123, 0.03999999910593033]","[0.0, 0.0, -0.5115053042736635]","[0.061993308365345, 0.11578462272882462, 0.03999999910593033]","[0.0, 0.0, -0.2085066144446829]",0.08310172149872566,-2.4788532564385193,"(0.0, 0.0, 0.0, 0.0, 0.0, 0.0)",-67.84541961502205,-0.26024550681775654,5.79677594137086,"(0.0, 0.0, 0.0, 0.0, 0.0, 0.0)",-34.191569944211835,-0.500524131924704,2.635469730599311,"(0.0, 0.0, 0.0, 0.0, 0.0, 0.0)",69.62917462571995,0.28189473887341937,-5.064940531153268,"(0.0, 0.0, 0.0, 0.0, 0.0, 0.0)",31.149277887739505,True,"(-0.0030076556565462632, 0.19267965012022953, 0.029096021224452647)","(0.9820277199895567, -0.18845720481326697, -0.010268355568586535)",-0.00011971583902250614,476.5891716584661,True,"(0.061319579653233064, 0.1947258563233506, 0.04421016728855098)","(-0.9791832180954203, 0.202965825109171, 0.002258149253304283)",-0.0003405644756778583,302.1331568587775
44,Move,"(0.02844, 0.0, 0.026790000000000005)","(0.0, 0.13771171397010862, 0.0)","(0.03025042677429123, 0.1880686478833898, 0.000616197766731716)","(1.5848183605892636, 0.001948729654064773, -0.1576143691813701)","[0.02996548328627725, 0.016783381335033154, -0.0012505797588132856]","[-0.026750000193715096, 0.05299999937415123, 0.03999999910593033]","[0.0, -0.0, 0.06390294576535423]","[-0.03134788200259209, 0.12485303729772568, 0.03999999910593033]","[0.0, 0.0, -0.17916836195423394]","[0.026750000193715096, 0.05299999937415123, 0.03999999910593033]","[0.0, 0.0, -0.5174059224589995]","[0.0623631626367569, 0.11557557433843613, 0.03999999910593033]","[0.0, 0.0, -0.24979644155272845]",0.06121750937391039,-0.644504497834594,"(0.0, 0.0, 0.0, 0.0, 0.0, 0.0)",-0.33545023747957337,-0.2446833946254861,-0.38690475435046945,"(0.0, 0.0, 0.0, 0.0, 0.0, 0.0)",-0.2149269483470273,-0.5245925215308522,-1.7247836113342219,"(0.0, 0.0, 0.0, 0.0, 0.0, 0.0)",0.3825151016273413,0.2690087919004776,0.3358293835625595,"(0.0, 0.0, 0.0, 0.0, 0.0, 0.0)",0.05238276892185879,True,"(-0.0016927748199174059, 0.19320139833865024, 0.029096021224452647)","(0.9820277199895567, -0.18845720481326697, -0.010268355568586535)",-2.6082651345439022e-05,3.1089375614345647,True,"(0.05426967176378568, 0.15262030636738555, 0.028997979616917854)","(-0.9689607735721577, 0.24720619442317088, -0.002028969506665429)",-0.0022136334996480955,1.0110197016876044
45,Move,"(0.02917, 0.0, 0.02633)","(0.0, 0.13771171397010862, 0.0)","(0.03267669938003192, 0.18812381331509231, 0.0006248951780068988)","(1.5700976718280406, 0.007348899438873547, -0.18223821260449719)","[0.03239175589201794, 0.016838546766735657, -0.0012418823475381028]","[-0.026750000193715096, 0.05299999937415123, 0.03999999910593033]","[0.0, -0.0, 0.047311033038997335]","[-0.030155124142766, 0.12491943687200546, 0.03999999910593033]","[0.0, 0.0, -0.1982944687323691]","[0.026750000193715096, 0.05299999937415123, 0.03999999910593033]","[0.0, 0.0, -0.5516719994070672]","[0.064486064016819, 0.11431875079870224, 0.03999999910593033]","[0.0, 0.0, -0.281723880858519]",0.04421805218171151,-0.7423156407166873,"(0.0, 0.0, 0.0, 0.0, 0.0, 0.0)",-0.017880429404378076,-0.24550068775391856,0.025154452901319756,"(0.0, 0.0, 0.0, 0.0, 0.0, 0.0)",-0.0649676417053934,-0.5572177374074612,-1.3309634606477723,"(0.0, 0.0, 0.0, 0.0, 0.0, 0.0)",0.21693246607347552,0.26985423888137233,-0.022545252823859663,"(0.0, 0.0, 0.0, 0.0, 0.0, 0.0)",0.016402711774910112,True,"(0.0008017177109837341, 0.19268813915264782, 0.029096021224452647)","(0.9820277199895567, -0.18845720481326697, -0.010268355568586535)",-1.8443736244043632e-05,0.971417155317976,True,"(0.057579237235361014, 0.15160296755890362, 0.028997979616917854)","(-0.9689607735721577, 0.24720619442317088, -0.002028969506665429)",-0.000792230357259179,0.0
46,Move,"(0.029930000000000002, 0.0, 0.025990000000000003)","(0.0, 0.13771171397010862, 0.0)","(0.03566710287226518, 0.18777189769609787, 0.0005868309332721698)","(1.5693437517247564, -0.0013963126791254222, -0.17946240915373865)","[0.035382159384251204, 0.01648663114774121, -0.0012799465922728318]","[-0.026750000193715096, 0.05299999937415123, 0.03999999910593033]","[0.0, -0.0, 0.02917602935583676]","[-0.02885037660598755, 0.12496935576200485, 0.03999999910593033]","[0.0, 0.0, -0.2159587800615859]","[0.026750000193715096, 0.05299999937415123, 0.03999999910593033]","[0.0, 0.0, -0.5833581215234446]","[0.06640974432229996, 0.11309246718883514, 0.03999999910593033]","[0.0, 0.0, -0.31356551300655816]",0.025872904091282158,-0.7927501387468511,"(0.0, 0.0, 0.0, 0.0, 0.0, 0.0)",-0.24986347331938336,-0.24516100412368136,-0.006287822304827947,"(0.0, 0.0, 0.0, 0.0, 0.0, 0.0)",-0.1886982901524426,-0.5890473320359947,-1.3654145826336797,"(0.0, 0.0, 0.0, 0.0, 0.0, 0.0)",0.22224710874716883,0.2697987691049558,0.0014791940377740787,"(0.0, 0.0, 0.0, 0.0, 0.0, 0.0)",0.01652874861307173,True,"(0.0032986610644721998, 0.19218068621910098, 0.029096021224452647)","(0.9820277199895567, -0.18845720481326697, -0.010268355568586535)",0.00010961879698389242,0.0,True,"(0.06069340933947479, 0.1505776692384334, 0.028997979616917854)","(-0.9689607735721577, 0.24720619442317088, -0.002028969506665429)",-5.1024396985337376e-05,0.0
47,Move,"(0.03019, 0.0, 0.02582)","(0.0, 0.156351830381408, 0.0)","(0.03828202496273165, 0.1874878211870878, 0.0006998648004091325)","(1.5735610198288834, 0.0013907943022250667, -0.18057289072900987)","[0.03799708147471767, 0.01620255463873113, -0.001166912725135869]","[-0.026750000193715096, 0.05299999937415123, 0.03999999910593033]","[0.0, -0.0, 0.010727777432716806]","[-0.027522385120391846, 0.12499585747718811, 0.03999999910593033]","[0.0, 0.0, -0.23426262463645806]","[0.026750000193715096, 0.05299999937415123, 0.03999999910593033]","[0.0, 0.0, -0.6145072021740156]","[0.06826203316450119, 0.11182814836502075, 0.03999999910593033]","[0.0, 0.0, -0.3447044445060805]",0.007450980213322484,-0.7864314184050735,"(0.0, 0.0, 0.0, 0.0, 0.0, 0.0)",-0.18483384374226164,-0.24497484552018658,0.00373523075865636,"(0.0, 0.0, 0.0, 0.0, 0.0, 0.0)",-0.16110735795894846,-0.6199786646897911,-1.313142615132965,"(0.0, 0.0, 0.0, 0.0, 0.0, 0.0)",0.21376165415184667,0.2698024076192342,-9.702704742320378e-05,"(0.0, 0.0, 0.0, 0.0, 0.0, 0.0)",0.015915896365720217,True,"(0.005851424473006933, 0.1916075085635469, 0.029096021224452647)","(0.9820277199895567, -0.18845720481326697, -0.010268355568586535)",0.00023857995208193035,0.0,True,"(0.06416079302059771, 0.15071331379934383, 0.02905898942429428)","(-0.9478508567708787, 0.31871067672315917, -0.0015026181741693634)",0.0005503650538035671,0.0
48,Move,"(0.03021, 0.0, 0.025679999999999998)","(0.0, 0.156351830381408, 0.0)","(0.04074362188664879, 0.18704357307651578, 0.0006903971635626903)","(1.569611778006948, 0.00042179675799397997, -0.18614673082586836)","[0.04045867839863481, 0.015758306528159127, -0.0011763803619823112]","[-0.026750000193715096, 0.05299999937415123, 0.03999999910593033]","[0.0, 0.0, -0.006508870035611044]","[-0.026281364262104034, 0.12499847263097763, 0.03999999910593033]","[0.0, 0.0, -0.2513489967116574]","[0.026750000193715096, 0.05299999937415123, 0.03999999910593033]","[0.0, 0.0, -0.644108035161834]","[0.06998495012521744, 0.11057376861572266, 0.03999999910593033]","[0.0, 0.0, -0.37430586163563906]",-0.009472660255163513,-0.7113097164126811,"(0.0, 0.0, 0.0, 0.0, 0.0, 0.0)",-0.3054072249611538,-0.24484189365715045,-0.00042225724668766475,"(0.0, 0.0, 0.0, 0.0, 0.0, 0.0)",-0.21076641071080912,-0.6492742158633169,-1.2398943772990194,"(0.0, 0.0, 0.0, 0.0, 0.0, 0.0)",0.20184252061333258,0.2698021688963124,6.365944580810634e-06,"(0.0, 0.0, 0.0, 0.0, 0.0, 0.0)",0.015028955932057952,True,"(0.009473645317666396, 0.1958985661608891, 0.03999815501475975)","(0.9826774202175158, -0.18531509335213603, -0.0018449852402579012)",-1.1061501084053158e-05,2.8537970245450235,True,"(0.06703639578496079, 0.1495632845718841, 0.02905898942429428)","(-0.9478508567708787, 0.31871067672315917, -0.0015026181741693634)",0.0013843575589485351,0.0
49,Move,"(0.03045, 0.0, 0.025380000000000003)","(0.0, 0.156351830381408, 0.0)","(0.043108906249598435, 0.1865889787953642, 0.0006978063802630903)","(1.571550392698893, -0.0012308734541755214, -0.1851697544168401)","[0.042823962761584455, 0.01530371224700755, -0.0011689711452819115]","[-0.026750000193715096, 0.05299999937415123, 0.03999999910593033]","[0.0, 0.0, -0.02266429836008382]","[-0.025118310004472733, 0.12498150765895844, 0.03999999910593033]","[0.0, 0.0, -0.2672985026885693]","[0.026750000193715096, 0.05299999937415123, 0.03999999910593033]","[0.0, 0.0, -0.6723505243151763]","[0.0715935230255127, 0.10932990908622742, 0.03999999910593033]","[0.0, 0.0, -0.40254844494090813]",-0.02549906910122279,-0.6803450326943078,"(0.0, 0.0, 0.0, 0.0, 0.0, 0.0)",-0.05577896620513692,-0.2446405779371483,-0.0015266407579529518,"(0.0, 0.0, 0.0, 0.0, 0.0, 0.0)",-0.07388076084061111,-0.6773074730767974,-1.1896493111732054,"(0.0, 0.0, 0.0, 0.0, 0.0, 0.0)",0.19366705879025645,0.26980218455892335,-4.1766962421974085e-07,"(0.0, 0.0, 0.0, 0.0, 0.0, 0.0)",0.014421353520352221,True,"(0.011765955113920139, 0.1953177039815213, 0.040001337749298226)","(0.9826260794527695, -0.18559148257960326, 0.0013377492982262647)",-1.1271640234767817e-05,1.1447916127929407,False,,,,
50,Move,"(0.03045, 0.0, 0.025380000000000003)","(0.0, 0.156351830381408, 0.0)","(0.04906250442144759, 0.1886115500157406, 0.0009050288473617922)","(1.5733053139058346, -0.014515034095198675, -0.35228012855643465)","[0.04877756093343361, 0.017326283467383935, -0.0009617486781832095]","[-0.026750000193715096, 0.05299999937415123, 0.03999999910593033]","[0.0, 0.0, -0.06874536558620817]","[-0.02180423215031624, 0.12482993304729462, 0.03999999910593033]","[0.0, 0.0, -0.29000673715393427]","[0.026750000193715096, 0.05299999937415123, 0.03999999910593033]","[0.0, 0.0, -0.6349218776534917]","[0.06945425271987915, 0.11096850037574768, 0.03999999910593033]","[0.0, 0.0, -0.3727925613941366]",-0.07765830059383118,-2.1391040434738375,"(0.0, 0.0, 0.0, 0.0, 0.0, 0.0)",-70.41110049890867,-0.19662077338763057,5.91373916640303,"(0.0, 0.0, 0.0, 0.0, 0.0, 0.0)",-31.236164008605606,-0.6245481766156585,2.4896739345295256,"(0.0, 0.0, 0.0, 0.0, 0.0, 0.0)",64.25828275631743,0.24447097060925488,-4.237983226851719,"(0.0, 0.0, 0.0, 0.0, 0.0, 0.0)",21.16428604027451,True,"(0.009179351757964135, 0.16920616690437784, 0.029443854117509733)","(0.9582421733839944, -0.2859578503638945, -0.0002120461725760239)",-0.0015942644543519876,590.5020371358634,True,"(0.06657592234511005, 0.15028381375724806, 0.051009537969219323)","(-0.92722879880371, 0.37437366892435386, 0.009545191729198866)",-0.001951589356813614,465.4658982793341
51,Move,"(0.030580000000000003, 0.0, 0.024940000000000004)","(0.0, 0.17193762060171738, 0.0)","(0.05142115553275192, 0.18876065783508178, 0.0008855235937121456)","(1.5784733897115322, -0.00434167719432356, -0.34394595764217517)","[0.05113621204473794, 0.017475391286725123, -0.0009812539318328562]","[-0.026750000193715096, 0.05299999937415123, 0.03999999910593033]","[0.0, 0.0, -0.10400434695245739]","[-0.019275179132819176, 0.12461094558238983, 0.03999999910593033]","[0.0, 0.0, -0.2732145301782163]","[0.026750000193715096, 0.05299999937415123, 0.03999999910593033]","[0.0, 0.0, -0.639039442790972]","[0.06969258189201355, 0.11079216748476028, 0.03999999910593033]","[0.0, 0.0, -0.4130059388344686]",-0.10895425192410071,-1.1879753381701708,"(0.0, 0.0, 0.0, 0.0, 0.0, 0.0)",-11.659362492535886,-0.16765864748880904,0.3723665028405392,"(0.0, 0.0, 0.0, 0.0, 0.0, 0.0)",-5.0287537712667705,-0.6454820361021961,-1.5462239681387946,"(0.0, 0.0, 0.0, 0.0, 0.0, 0.0)",9.16617361221543,0.22521028746461064,-0.19756715774099706,"(0.0, 0.0, 0.0, 0.0, 0.0, 0.0)",3.1712707422219335,True,"(0.010958896402043429, 0.16950117689932837, 0.029443854117509733)","(0.9582421733839944, -0.2859578503638945, -0.0002120461725760239)",-0.0010506254417981871,96.73614371134335,True,"(0.06820704163956967, 0.1497576663827503, 0.028995692059864908)","(-0.9159099624438792, 0.40136061166454495, -0.0043127833604750775)",-0.0022910685721591667,84.6604904878431
52,Move,"(0.03045, 0.0, 0.025030000000000004)","(0.0, 0.156351830381408, 0.0)","(0.05411882761298502, 0.18756702981546158, 0.0006016465214798748)","(1.5680905694189247, -0.001953609114356615, -0.350008513329996)","[0.05383388412497104, 0.016281763267104926, -0.0012651310040651268]","[-0.026750000193715096, 0.05299999937415123, 0.03999999910593033]","[0.0, 0.0, -0.13089762566273175]","[-0.017352262511849403, 0.12438405305147171, 0.03999999910593033]","[0.0, 0.0, -0.2873848624522464]","[0.026750000193715096, 0.05299999937415123, 0.03999999910593033]","[0.0, 0.0, -0.66912618147406]","[0.07141166180372238, 0.10947420448064804, 0.03999999910593033]","[0.0, 0.0, -0.45071276788874687]",-0.1355998130857912,-1.1285242816160466,"(0.0, 0.0, 0.0, 0.0, 0.0, 0.0)",-10.251627425762356,-0.1538319544979494,0.6372765790630435,"(0.0, 0.0, 0.0, 0.0, 0.0, 0.0)",-4.39537751114587,-0.6739369681053506,-1.154584236190929,"(0.0, 0.0, 0.0, 0.0, 0.0, 0.0)",8.197087920822216,0.21670900499536155,-0.40905368289817773,"(0.0, 0.0, 0.0, 0.0, 0.0, 0.0)",2.83974070208961,True,"(0.01351486867107314, 0.16884136336647565, 0.029443854117509733)","(0.9582421733839944, -0.2859578503638945, -0.0002120461725760239)",-0.000746136556658019,85.0144367596509,True,"(0.07140421031534612, 0.14848478334954116, 0.02905743882137312)","(-0.9001290583276081, 0.43561523390512075, -0.002654495063117578)",-0.0017838707061255592,75.89824648673537
53,Move,"(0.03051, 0.0, 0.02501)","(0.0, 0.17193762060171738, 0.0)","(0.05682101240869154, 0.186750674103932, 0.0006513536537562131)","(1.570151752542922, 0.0005440421040205433, -0.3537647369407792)","[0.056536068920677564, 0.01546540755557535, -0.0012154238717887885]","[-0.026750000193715096, 0.05299999937415123, 0.03999999910593033]","[0.0, 0.0, -0.1579609360194944]","[-0.015424050390720367, 0.1241036057472229, 0.03999999910593033]","[0.0, 0.0, -0.2998587513262256]","[0.026750000193715096, 0.05299999937415123, 0.03999999910593033]","[0.0, 0.0, -0.6954378045141212]","[0.07288195192813873, 0.10827967524528503, 0.03999999910593033]","[0.0, 0.0, -0.4863593082551455]",-0.16284827260127469,-1.1729623523262944,"(0.0, 0.0, 0.0, 0.0, 0.0, 0.0)",-10.040950446181373,-0.13938383744236507,0.603353769567176,"(0.0, 0.0, 0.0, 0.0, 0.0, 0.0)",-4.353225144964601,-0.700102261711327,-1.1194844134624937,"(0.0, 0.0, 0.0, 0.0, 0.0, 0.0)",8.836233304893225,0.20723106796010646,-0.443370147914422,"(0.0, 0.0, 0.0, 0.0, 0.0, 0.0)",3.0917945137870446,True,"(0.016163775285267398, 0.1687176162910252, 0.029447081630696044)","(0.9553787579127071, -0.2953829171172748, -0.0006010028801720368)",-0.0005608425008573491,82.71032056608898,True,"(0.07432143019697157, 0.14737284482157229, 0.029060027956985524)","(-0.8908328744606844, 0.4543308160079101, -0.0005471797700972241)",-0.0014091372481072225,81.94214100924006
54,Move,"(0.03051, 0.0, 0.0251)","(0.0, 0.17193762060171738, 0.0)","(0.05952610662688801, 0.18583743216253162, 0.0007256162236088867)","(1.5719722626888253, -1.6480497506157176e-05, -0.3584580418164572)","[0.05924116313887403, 0.014552165614174967, -0.001141161301936115]","[-0.026750000193715096, 0.05299999937415123, 0.03999999910593033]","[0.0, 0.0, -0.18474226612417885]","[-0.013524090871214867, 0.12377481907606125, 0.03999999910593033]","[0.0, 0.0, -0.3128281158594869]","[0.026750000193715096, 0.05299999937415123, 0.03999999910593033]","[0.0, 0.0, -0.7202801957745739]","[0.07424086332321167, 0.1071167066693306, 0.03999999910593033]","[0.0, 0.0, -0.5207996845791651]",-0.18944297926560696,-1.1281746624160807,"(0.0, 0.0, 0.0, 0.0, 0.0, 0.0)",-9.800884923488603,-0.12561279256504318,0.5935323733474006,"(0.0, 0.0, 0.0, 0.0, 0.0, 0.0)",-4.248032999285735,-0.7245783489229838,-1.031556711688491,"(0.0, 0.0, 0.0, 0.0, 0.0, 0.0)",7.762723260130013,0.1978685502814187,-0.38686768138316124,"(0.0, 0.0, 0.0, 0.0, 0.0, 0.0)",2.7869131614688247,True,"(0.018645463034747303, 0.16799330500977497, 0.02912700545995897)","(0.9514671873741104, -0.3077501784237337, -0.00013795129393339152)",-0.00040978369766095943,78.8083659419089,True,"(0.07702560177307459, 0.14613712579503163, 0.029060027956985524)","(-0.8908328744606844, 0.4543308160079101, -0.0005471797700972241)",-0.0011638310271690586,72.01411832977398
55,Move,"(0.0309, 0.0, 0.02486)","(0.0, 0.17193762060171738, 0.0)","(0.06198443766104127, 0.18493423463207495, 0.0007217306283635093)","(1.5705101714913137, -7.84350601807798e-05, -0.3607116131997053)","[0.06169949417302729, 0.013648968083718294, -0.0011450468971814923]","[-0.026750000193715096, 0.05299999937415123, 0.03999999910593033]","[0.0, 0.0, -0.2108801790767899]","[-0.011678915470838547, 0.12340498715639114, 0.03999999910593033]","[0.0, 0.0, -0.32501546371961154]","[0.026750000193715096, 0.05299999937415123, 0.03999999910593033]","[0.0, 0.0, -0.7432926425487006]","[0.07547353208065033, 0.1060095950961113, 0.03999999910593033]","[0.0, 0.0, -0.5523049139117819]",-0.21551961808847217,-1.1134750707443155,"(0.0, 0.0, 0.0, 0.0, 0.0, 0.0)",-9.632554623662177,-0.11175682638024444,0.5708251899080179,"(0.0, 0.0, 0.0, 0.0, 0.0, 0.0)",-4.115369067727859,-0.7472970576830955,-0.9610676751838494,"(0.0, 0.0, 0.0, 0.0, 0.0, 0.0)",6.909668550547807,0.18946026272967584,-0.36660632071189425,"(0.0, 0.0, 0.0, 0.0, 0.0, 0.0)",2.503007926751169,True,"(0.02102714092771986, 0.1672281377370869, 0.02912700545995897)","(0.9514671873741104, -0.3077501784237337, -0.00013795129393339152)",-0.0003454101468658555,79.37632072970912,True,"(0.07963485696577521, 0.1451644216341984, 0.029061535057942275)","(-0.8513171959861834, 0.5246513161649179, -0.0001681209129019131)",-0.0009485688709725406,62.37597954724955
56,Move,"(0.030680000000000002, 0.0, 0.025)","(0.0, 0.156351830381408, 0.0)","(0.06412829041831934, 0.1844098987293819, 0.0007703793234868092)","(1.5717103613021501, 0.000987134278066794, -0.35432528451875506)","[0.06384334693030537, 0.013124632181025248, -0.0010963982020581924]","[-0.026750000193715096, 0.05299999937415123, 0.03999999910593033]","[0.0, 0.0, -0.2352678655806158]","[-0.009966551326215267, 0.12301653623580933, 0.03999999910593033]","[0.0, 0.0, -0.337899206591764]","[0.026750000193715096, 0.05299999937415123, 0.03999999910593033]","[0.0, 0.0, -0.7645357310516334]","[0.07658854126930237, 0.10496267676353455, 0.03999999910593033]","[0.0, 0.0, -0.5810722360258987]",-0.2394550350974256,-1.004926356450072,"(0.0, 0.0, 0.0, 0.0, 0.0, 0.0)",-7.664011682320967,-0.10074005729549523,0.4539151587238998,"(0.0, 0.0, 0.0, 0.0, 0.0, 0.0)",-3.265875375866451,-0.768199722167116,-0.8793753145641138,"(0.0, 0.0, 0.0, 0.0, 0.0, 0.0)",5.46527396425226,0.1822523918653333,-0.2906544365441641,"(0.0, 0.0, 0.0, 0.0, 0.0, 0.0)",1.9961647029271568,True,"(0.02331644558289078, 0.16645755105288124, 0.02908633774651326)","(0.9434540385295199, -0.33150165471952914, -0.0010630618764525923)",-0.00030782234914210625,63.407137412932414,True,"(0.0819513918078007, 0.14409889521761632, 0.029062155505507867)","(-0.8457527366137004, 0.5335750156691877, -0.00010566012868444648)",-0.0007454820949371301,47.98485464817762
57,Move,"(0.030740000000000003, 0.0, 0.02492)","(0.0, 0.156351830381408, 0.0)","(0.06627271166176522, 0.18383451323937378, 0.0008326062383965021)","(1.572554470203799, -0.00013638865192726823, -0.34820033998704786)","[0.06598776817375125, 0.012549246691017119, -0.0010341712871484994]","[-0.026750000193715096, 0.05299999937415123, 0.03999999910593033]","[0.0, 0.0, -0.25804176232815323]","[-0.008376490324735641, 0.12261619418859482, 0.03999999910593033]","[0.0, 0.0, -0.35032080106954283]","[0.026750000193715096, 0.05299999937415123, 0.03999999910593033]","[0.0, 0.0, -0.7844071566654507]","[0.07761120796203613, 0.10396211594343185, 0.03999999910593033]","[0.0, 0.0, -0.608077019395972]",-0.2619868269612816,-0.9468176214805938,"(0.0, 0.0, 0.0, 0.0, 0.0, 0.0)",-8.561248336111987,-0.08988593603449632,0.5743459868977784,"(0.0, 0.0, 0.0, 0.0, 0.0, 0.0)",-3.8819064402480636,-0.7878852096986614,-0.834724544527152,"(0.0, 0.0, 0.0, 0.0, 0.0, 0.0)",5.87785795208527,0.1750367188279428,-0.31045123892999005,"(0.0, 0.0, 0.0, 0.0, 0.0, 0.0)",2.1528150188875133,True,"(0.02544822660543918, 0.1656532849522308, 0.029087047049712975)","(0.9408584522177853, -0.33879964109404603, -0.0004196247124075483)",-0.00019776220986102353,55.16268863009496,True,"(0.08402884091990578, 0.14293925914807776, 0.029062155505507867)","(-0.8457527366137004, 0.5335750156691877, -0.00010566012868444648)",-0.0006110847877725997,52.05388633970734
58,Move,"(0.03075, 0.0, 0.02495)","(0.0, 0.156351830381408, 0.0)","(0.06835933300292077, 0.18289506580386247, 0.0007975293402082576)","(1.570644601858856, -0.00032735453176441714, -0.3512711842460738)","[0.0680743895149068, 0.011609799255505815, -0.001069248185336744]","[-0.026750000193715096, 0.05299999937415123, 0.03999999910593033]","[0.0, 0.0, -0.2793902065537557]","[-0.006894591264426708, 0.1222081109881401, 0.03999999910593033]","[0.0, 0.0, -0.35923305577482983]","[0.026750000193715096, 0.05299999937415123, 0.03999999910593033]","[0.0, 0.0, -0.8032271049183682]","[0.07856124639511108, 0.10299594700336456, 0.03999999910593033]","[0.0, 0.0, -0.6340751315936064]",-0.28311823161915267,-0.8947232737807523,"(0.0, 0.0, 0.0, 0.0, 0.0, 0.0)",-8.268151738313323,-0.0776015650586269,0.5379034360495737,"(0.0, 0.0, 0.0, 0.0, 0.0, 0.0)",-3.8250108942712178,-0.8065073784556132,-0.7872857885705944,"(0.0, 0.0, 0.0, 0.0, 0.0, 0.0)",5.591763041534862,0.16788708990429932,-0.3035394207380052,"(0.0, 0.0, 0.0, 0.0, 0.0, 0.0)",2.0629505502885244,True,"(0.027312334668677683, 0.16494204560952402, 0.029087047049712975)","(0.9408584522177853, -0.33879964109404603, -0.0004196247124075483)",8.64178609197279e-06,45.08059696784452,True,"(0.08687654794106207, 0.14299875813677085, 0.02906786873349122)","(-0.8056190750610918, 0.5924337834252429, -0.0003437356010837587)",-0.0004283106157378875,39.55746967926832
59,Move,"(0.030719999999999997, 0.0, 0.024720000000000002)","(0.0, 0.156351830381408, 0.0)","(0.07050264406469706, 0.18210179318496048, 0.0008354760907730149)","(1.5708575210570221, 0.0007920096580644723, -0.3615644732043597)","[0.07021770057668308, 0.010816526636603818, -0.0010313014347719867]","[-0.026750000193715096, 0.05299999937415123, 0.03999999910593033]","[0.0, 0.0, -0.2999965710805953]","[-0.005472782999277115, 0.12178429961204529, 0.03999999910593033]","[0.0, 0.0, -0.3679782357108146]","[0.026750000193715096, 0.05299999937415123, 0.03999999910593033]","[0.0, 0.0, -0.8205983554126719]","[0.07942187786102295, 0.10208842158317566, 0.03999999910593033]","[0.0, 0.0, -0.6573646615664197]",-0.3036477805018618,-0.8762972793892372,"(0.0, 0.0, 0.0, 0.0, 0.0, 0.0)",-6.450214506545409,-0.06617870993911704,0.4327245924649209,"(0.0, 0.0, 0.0, 0.0, 0.0, 0.0)",-3.3215024943509928,-0.8235838363346939,-0.7165332804295161,"(0.0, 0.0, 0.0, 0.0, 0.0, 0.0)",4.359950883962053,0.16237041506316327,-0.2071853081975889,"(0.0, 0.0, 0.0, 0.0, 0.0, 0.0)",1.53446751122899,True,"(0.029106548146813092, 0.16421745699557072, 0.029087047049712975)","(0.9408584522177853, -0.33879964109404603, -0.0004196247124075483)",0.00011276464903851918,15.53428654059398,True,"(0.08870455621334107, 0.1419360697568966, 0.02906812770032152)","(-0.8005309048163141, 0.5992913814173509, -0.0003325550431413875)",-0.00036019854374690655,38.90127613148823
