OSUrobotics/InHand-Manipulation/AnalyseData/Data/Trial Data/Tries/new_hand_human_sub1_2v2_c_n_1_kpNone_kdNone_dp1_step1_save_data.csv
,Phase,human_cube_pos,human_cube_orn,Cube_Pos,Cube_Orn,Cube_pos_in_start_pos,b'l_prox_pin'_link_pos,b'l_prox_pin'_link_orn,b'l_distal_pin'_link_pos,b'l_distal_pin'_link_orn,b'r_prox_pin'_link_pos,b'r_prox_pin'_link_orn,b'r_distal_pin'_link_pos,b'r_distal_pin'_link_orn,b'l_prox_pin'_joint_angle,b'l_prox_pin'_joint_vel,b'l_prox_pin'_joint_react_forces,b'l_prox_pin'_joint_motor_torque,b'l_distal_pin'_joint_angle,b'l_distal_pin'_joint_vel,b'l_distal_pin'_joint_react_forces,b'l_distal_pin'_joint_motor_torque,b'r_prox_pin'_joint_angle,b'r_prox_pin'_joint_vel,b'r_prox_pin'_joint_react_forces,b'r_prox_pin'_joint_motor_torque,b'r_distal_pin'_joint_angle,b'r_distal_pin'_joint_vel,b'r_distal_pin'_joint_react_forces,b'r_distal_pin'_joint_motor_torque,in_contact_l,contact_point_l_dist,contact_normal_l_dist,contact_distance_l_dist,contact_norm_force_l_dist,in_contact_r,contact_point_r_dist,contact_normal_r_dist,contact_distance_r_dist,contact_norm_force_r_dist
0,Open,,,,,,"[-0.026750000193715096, 0.05299999937415123, 0.03999999910593033]","[0.0, -0.0, 0.0]","[-0.026750000193715096, 0.125, 0.03999999910593033]","[0.0, -0.0, 0.0]","[0.026750000193715096, 0.05299999937415123, 0.03999999910593033]","[0.0, -0.0, 0.0]","[0.026750000193715096, 0.125, 0.03999999910593033]","[0.0, -0.0, 0.0]",0.0,0.0,"(0.0, 0.0, 0.0, 0.0, 0.0, 0.0)",1.3400621000080305e-17,5.883223478113402e-32,1.4119736347472167e-29,"(0.0, 0.0, 0.0, 0.0, 0.0, 0.0)",1.0542555313129702e-18,-0.008068665190486622,-1.9364796457167894,"(0.0, 0.0, 0.0, 0.0, 0.0, 0.0)",193.26378306879909,-0.0700246186727924,-16.805908481470176,"(0.0, 0.0, 0.0, 0.0, 0.0, 0.0)",71.94009191575694,False,,,,,False,,,,
1,Open,,,,,,"[-0.026750000193715096, 0.05299999937415123, 0.03999999910593033]","[0.0, -0.0, 0.0]","[-0.026750000193715096, 0.125, 0.03999999910593033]","[0.0, -0.0, 5.883223447970011e-32]","[0.026750000193715096, 0.05299999937415123, 0.03999999910593033]","[0.0, 0.0, -0.008068665592501188]","[0.02733093686401844, 0.12499765306711197, 0.03999999910593033]","[0.0, 0.0, -0.0780932845685428]",0.157,37.68,"(0.0, 0.0, 0.0, 0.0, 0.0, 0.0)",54.702693795169004,5.294901130302062e-32,-1.4119736347472162e-30,"(0.0, 0.0, 0.0, 0.0, 0.0, 0.0)",3.9113724975844915,-0.1670280316324969,-38.150247946082466,"(0.0, 0.0, 0.0, 0.0, 0.0, 0.0)",-25.93345404555236,-0.0659493391739072,0.9780670797324476,"(0.0, 0.0, 0.0, 0.0, 0.0, 0.0)",-6.754749483880455,False,,,,,False,,,,
2,Open,,,,,,"[-0.026750000193715096, 0.05299999937415123, 0.03999999910593033]","[0.0, -0.0, 0.1569999988554567]","[-0.03800761699676514, 0.12411445379257202, 0.03999999910593033]","[0.0, -0.0, 0.1569999988554567]","[0.026750000193715096, 0.05299999937415123, 0.03999999910593033]","[0.0, 0.0, -0.16702801712980753]","[0.038720179349184036, 0.1239979937672615, 0.03999999910593033]","[0.0, 0.0, -0.23297739431320727]",0.29829999999999995,33.91199999999999,"(0.0, 0.0, 0.0, 0.0, 0.0, 0.0)",-5.390828189440958,5.294901130302062e-32,0.0,"(0.0, 0.0, 0.0, 0.0, 0.0, 0.0)",-0.3659219356209609,-0.3122944613104081,-34.863943122698686,"(0.0, 0.0, 0.0, 0.0, 0.0, 0.0)",95.8006544774165,-0.06705867534034729,-0.2662406799456205,"(0.0, 0.0, 0.0, 0.0, 0.0, 0.0)",9.049911776264722,False,,,,,False,,,,
3,Open,,,,,,"[-0.026750000193715096, 0.05299999937415123, 0.03999999910593033]","[0.0, -0.0, 0.29830000998707634]","[-0.04791048914194107, 0.12182030081748962, 0.03999999910593033]","[0.0, -0.0, 0.29830000998707634]","[0.026750000193715096, 0.05299999937415123, 0.03999999910593033]","[0.0, 0.0, -0.3122944642903269]","[0.048871491104364395, 0.12151744216680527, 0.03999999910593033]","[0.0, 0.0, -0.3793531994353912]",0.42546999999999996,30.5208,"(0.0, 0.0, 0.0, 0.0, 0.0, 0.0)",-4.858074537215091,5.294901130302062e-32,0.0,"(0.0, 0.0, 0.0, 0.0, 0.0, 0.0)",-0.33154044974508506,-0.44292449566296654,-31.35120824461403,"(0.0, 0.0, 0.0, 0.0, 0.0, 0.0)",100.88457241511576,-0.08373770380977785,-4.0029668326633345,"(0.0, 0.0, 0.0, 0.0, 0.0, 0.0)",24.077304806401806,False,,,,,False,,,,
4,Open,,,,,,"[-0.026750000193715096, 0.05299999937415123, 0.03999999910593033]","[0.0, -0.0, 0.4254700097131474]","[-0.056467924267053604, 0.11858082562685013, 0.03999999910593033]","[0.0, -0.0, 0.4254700097131474]","[0.026750000193715096, 0.05299999937415123, 0.03999999910593033]","[0.0, 0.0, -0.4429245237535421]","[0.057608019560575485, 0.1180521547794342, 0.03999999910593033]","[0.0, 0.0, -0.5266622746639338]",0.5399229999999999,27.46872,"(0.0, 0.0, 0.0, 0.0, 0.0, 0.0)",-4.377393708535371,5.294901130302062e-32,0.0,"(0.0, 0.0, 0.0, 0.0, 0.0, 0.0)",-0.30017707799641646,-0.5623038734984663,-28.651050680519948,"(0.0, 0.0, 0.0, 0.0, 0.0, 0.0)",144.45470973647488,-0.10456727132876567,-4.999096204557077,"(0.0, 0.0, 0.0, 0.0, 0.0, 0.0)",33.97911746732963,False,,,,,False,,,,
5,Open,,,,,,"[-0.026750000193715096, 0.05299999937415123, 0.03999999910593033]","[0.0, -0.0, 0.5399230359738098]","[-0.06376303732395172, 0.11475787311792374, 0.03999999910593033]","[0.0, -0.0, 0.5399230359738098]","[0.026750000193715096, 0.05299999937415123, 0.03999999910593033]","[0.0, 0.0, -0.5623038790270362]","[0.06513584405183792, 0.11391409486532211, 0.03999999910593033]","[0.0, 0.0, -0.6668711870723439]",0.6429307,24.721848,"(0.0, 0.0, 0.0, 0.0, 0.0, 0.0)",-3.943806903965684,5.294901130302062e-32,0.0,"(0.0, 0.0, 0.0, 0.0, 0.0, 0.0)",-0.2716098155097054,-0.6673401099248648,-25.208696742335626,"(0.0, 0.0, 0.0, 0.0, 0.0, 0.0)",94.97739775913854,-0.11755295807544866,-3.116564819203918,"(0.0, 0.0, 0.0, 0.0, 0.0, 0.0)",25.79194570087013,False,,,,,False,,,,
6,Open,,,,,,"[-0.026750000193715096, 0.05299999937415123, 0.03999999910593033]","[0.0, -0.0, 0.6429307111289271]","[-0.06991713494062424, 0.11062463372945786, 0.03999999910593033]","[0.0, -0.0, 0.6429307111289271]","[0.026750000193715096, 0.05299999937415123, 0.03999999910593033]","[0.0, 0.0, -0.6673401753977319]","[0.07131072133779526, 0.10955388844013214, 0.03999999910593033]","[0.0, 0.0, -0.7848931559948581]",0.73563763,22.249663200000004,"(0.0, 0.0, 0.0, 0.0, 0.0, 0.0)",-3.552789792259023,5.294901130302062e-32,0.0,"(0.0, 0.0, 0.0, 0.0, 0.0, 0.0)",-0.24562369466220793,-0.7579917869736262,-21.756402491702737,"(0.0, 0.0, 0.0, 0.0, 0.0, 0.0)",34.46450837185191,-0.10794166402774508,2.3067105714488583,"(0.0, 0.0, 0.0, 0.0, 0.0, 0.0)",8.765009015475858,False,,,,,False,,,,
7,Open,,,,,,"[-0.026750000193715096, 0.05299999937415123, 0.03999999910593033]","[0.0, -0.0, 0.7356376306875043]","[-0.07506632059812546, 0.10638101398944855, 0.03999999910593033]","[0.0, -0.0, 0.7356376306875043]","[0.026750000193715096, 0.05299999937415123, 0.03999999910593033]","[0.0, 0.0, -0.757991847340814]","[0.076247438788414, 0.10528770089149475, 0.03999999910593033]","[0.0, 0.0, -0.8659334873334429]",0.8190738670000001,20.024696880000004,"(0.0, 0.0, 0.0, 0.0, 0.0, 0.0)",-3.2002295086701533,2.3293280891773424e-07,5.5903874140256216e-05,"(0.0, 0.0, 0.0, 0.0, 0.0, 0.0)",-0.22200715926400075,-0.8391926082762636,-19.488197112632974,"(0.0, 0.0, 0.0, 0.0, 0.0, 0.0)",3.295349739497939,-0.09714776835574307,2.590534961280482,"(0.0, 0.0, 0.0, 0.0, 0.0, 0.0)",0.25803221970863044,False,,,,,False,,,,
8,Open,,,,,,"[-0.026750000193715096, 0.05299999937415123, 0.03999999910593033]","[0.0, -0.0, 0.8190738875671263]","[-0.07934698462486267, 0.10216865688562393, 0.03999999910593033]","[0.0, -0.0, 0.8190741465287105]","[0.026750000193715096, 0.05299999937415123, 0.03999999910593033]","[0.0, 0.0, -0.839192558822362]","[0.08032548427581787, 0.10110059380531311, 0.03999999910593033]","[0.0, 0.0, -0.9363403253067936]",0.8941664803,18.022227192,"(0.0, 0.0, 0.0, 0.0, 0.0, 0.0)",-2.8824197251771095,4.2009445145371055e-07,4.4918794208634316e-05,"(0.0, 0.0, 0.0, 0.0, 0.0, 0.0)",-0.2005835928406654,-0.9122733474486373,-17.539377401369673,"(0.0, 0.0, 0.0, 0.0, 0.0, 0.0)",2.7804978356880783,-0.0874331700712747,2.33150358827241,"(0.0, 0.0, 0.0, 0.0, 0.0, 0.0)",0.17017621517521792,False,,,,,False,,,,
9,Open,,,,,,"[-0.026750000193715096, 0.05299999937415123, 0.03999999910593033]","[0.0, -0.0, 0.894166469119967]","[-0.08288749307394028, 0.09808415919542313, 0.03999999910593033]","[0.0, -0.0, 0.894166894674561]","[0.026750000193715096, 0.05299999937415123, 0.03999999910593033]","[0.0, 0.0, -0.9122733503889549]","[0.08369457721710205, 0.09706035256385803, 0.03999999910593033]","[0.0, 0.0, -0.9997066729229968]",0.96174983227,16.220004472800003,"(0.0, 0.0, 0.0, 0.0, 0.0, 0.0)",-2.5959652512206968,5.681494863714967e-07,3.553320838026869e-05,"(0.0, 0.0, 0.0, 0.0, 0.0, 0.0)",-0.18114955764248034,-0.9780460127037736,-15.785439661232708,"(0.0, 0.0, 0.0, 0.0, 0.0, 0.0)",2.503992476159733,-0.0786900142246732,2.098357403184359,"(0.0, 0.0, 0.0, 0.0, 0.0, 0.0)",0.15360133560797545,False,,,,,False,,,,
10,Open,,,,,,"[-0.026750000193715096, 0.05299999937415123, 0.03999999910593033]","[0.0, -0.0, 0.9617498658906226]","[-0.08580395579338074, 0.09419016540050507, 0.03999999910593033]","[0.0, -0.0, 0.9617504517765805]","[0.026750000193715096, 0.05299999937415123, 0.03999999910593033]","[0.0, 0.0, -0.9780460255881384]","[0.08646733313798904, 0.09322238713502884, 0.03999999910593033]","[0.0, 0.0, -1.0567360258914282]",1.022574849043,14.598004025520002,"(0.0, 0.0, 0.0, 0.0, 0.0, 0.0)",-2.337816594086846,6.829231533297027e-07,2.7545680069969436e-05,"(0.0, 0.0, 0.0, 0.0, 0.0, 0.0)",-0.16354029854134106,-1.0372414114333963,-14.206895695109438,"(0.0, 0.0, 0.0, 0.0, 0.0, 0.0)",2.2548456713339484,-0.07082115822448021,1.8885254400463192,"(0.0, 0.0, 0.0, 0.0, 0.0, 0.0)",0.13860128234430863,False,,,,,False,,,,
11,Open,,,,,,"[-0.026750000193715096, 0.05299999937415123, 0.03999999910593033]","[0.0, -0.0, 1.0225748785172661]","[-0.08819860219955444, 0.09052424877882004, 0.03999999910593033]","[0.0, -0.0, 1.0225755149967983]","[0.026750000193715096, 0.05299999937415123, 0.03999999910593033]","[0.0, 0.0, -1.037241417801626]","[0.08874232321977615, 0.08961901068687439, 0.03999999910593033]","[0.0, 0.0, -1.1080626941470386]",1.0773173641387,13.138203622968001,"(0.0, 0.0, 0.0, 0.0, 0.0, 0.0)",-2.105207702642618,7.694903593429899e-07,2.0776129443188934e-05,"(0.0, 0.0, 0.0, 0.0, 0.0, 0.0)",-0.14759587787833617,-1.0905172702900567,-12.78620612559849,"(0.0, 0.0, 0.0, 0.0, 0.0, 0.0)",2.0303755786213302,-0.06373917358809339,1.6996763127328351,"(0.0, 0.0, 0.0, 0.0, 0.0, 0.0)",0.1250328149112744,False,,,,,False,,,,
12,Open,,,,,,"[-0.026750000193715096, 0.05299999937415123, 0.03999999910593033]","[0.0, -0.0, 1.0773173786594632]","[-0.09015969932079315, 0.08710587024688721, 0.03999999910593033]","[0.0, -0.0, 1.0773182784199262]","[0.026750000193715096, 0.05299999937415123, 0.03999999910593033]","[0.0, 0.0, -1.090517334189526]","[0.09060435742139816, 0.0862659215927124, 0.03999999910593033]","[0.0, 0.0, -1.1542564269670996]",1.1265856277248298,11.824383260671203,"(0.0, 0.0, 0.0, 0.0, 0.0, 0.0)",-1.895636869852492,8.322629993378343e-07,1.5065433598762668e-05,"(0.0, 0.0, 0.0, 0.0, 0.0, 0.0)",-0.13316806895824274,-1.138465543261051,-11.50758551303864,"(0.0, 0.0, 0.0, 0.0, 0.0, 0.0)",1.828159741200242,-0.05736537454460671,1.5297117704368035,"(0.0, 0.0, 0.0, 0.0, 0.0, 0.0)",0.11276577482950233,False,,,,,False,,,,
13,Open,,,,,,"[-0.026750000193715096, 0.05299999937415123, 0.03999999910593033]","[0.0, -0.0, 1.126585512342968]","[-0.09176240861415863, 0.08394166082143784, 0.03999999910593033]","[0.0, -0.0, 1.1265864725026016]","[0.026750000193715096, 0.05299999937415123, 0.03999999910593033]","[0.0, 0.0, -1.13846552283997]","[0.09212540090084076, 0.08316715806722641, 0.03999999910593033]","[0.0, 0.0, -1.1958309904194953]",1.1709270649523469,10.641944934604087,"(0.0, 0.0, 0.0, 0.0, 0.0, 0.0)",-1.7068426281171958,8.750681698751778e-07,1.0273240928962424e-05,"(0.0, 0.0, 0.0, 0.0, 0.0, 0.0)",-0.12011999884119333,-1.181618988934946,-10.356826961734775,"(0.0, 0.0, 0.0, 0.0, 0.0, 0.0)",1.6460093571929852,-0.051628943774705546,1.376743384776279,"(0.0, 0.0, 0.0, 0.0, 0.0, 0.0)",0.10168054944364863,False,,,,,False,,,,
14,Open,,,,,,"[-0.026750000193715096, 0.05299999937415123, 0.03999999910593033]","[0.0, -0.0, 1.170927100750299]","[-0.09307006001472473, 0.08102945238351822, 0.03999999910593033]","[0.0, -0.0, 1.1709279927689973]","[0.026750000193715096, 0.05299999937415123, 0.03999999910593033]","[0.0, 0.0, -1.181618964677462]","[0.09336595237255096, 0.08031877130270004, 0.03999999910593033]","[0.0, 0.0, -1.233247876832181]",1.2108343584571122,9.577750441143678,"(0.0, 0.0, 0.0, 0.0, 0.0, 0.0)",-1.5367816122769582,9.012180617793662e-07,6.275974057005224e-06,"(0.0, 0.0, 0.0, 0.0, 0.0, 0.0)",-0.1083256720668905,-1.2204570900414513,-9.3211442655613,"(0.0, 0.0, 0.0, 0.0, 0.0, 0.0)",1.4819475463743526,-0.046466145575958295,1.239071567699341,"(0.0, 0.0, 0.0, 0.0, 0.0, 0.0)",0.09166748660725833,False,,,,,False,,,,
15,Open,,,,,,"[-0.026750000193715096, 0.05299999937415123, 0.03999999910593033]","[0.0, -0.0, 1.2108343955497323]","[-0.09413553774356842, 0.07836118340492249, 0.03999999910593033]","[0.0, -0.0, 1.210835255049739]","[0.026750000193715096, 0.05299999937415123, 0.03999999910593033]","[0.0, 0.0, -1.2204571829136446]","[0.09437645971775055, 0.07771158218383789, 0.03999999910593033]","[0.0, 0.0, -1.2669233179031547]",1.2467509226114009,8.619975397029307,"(0.0, 0.0, 0.0, 0.0, 0.0, 0.0)",-1.3836082777937824,9.135722823677317e-07,2.9650129412077397e-06,"(0.0, 0.0, 0.0, 0.0, 0.0, 0.0)",-0.09766941677677543,-1.2554113810373062,-8.38902983900517,"(0.0, 0.0, 0.0, 0.0, 0.0, 0.0)",1.334189480132575,-0.04181961771093252,1.1151666876061868,"(0.0, 0.0, 0.0, 0.0, 0.0, 0.0)",0.08262627878010878,False,,,,,False,,,,
16,Open,,,,,,"[-0.026750000193715096, 0.05299999937415123, 0.03999999910593033]","[0.0, -0.0, 1.2467510110527222]","[-0.09500277042388916, 0.07592508941888809, 0.03999999910593033]","[0.0, -0.0, 1.246751870145374]","[0.026750000193715096, 0.05299999937415123, 0.03999999910593033]","[0.0, 0.0, -1.255411348379259]","[0.09519875049591064, 0.0753331333398819, 0.03999999910593033]","[0.0, 0.0, -1.2972309672073006]",1.2790758303502607,7.757977857326381,"(0.0, 0.0, 0.0, 0.0, 0.0, 0.0)",-1.2456264712746363,2.1141758111398655e-06,0.0002881448469053121,"(0.0, 0.0, 0.0, 0.0, 0.0, 0.0)",-0.088015399348708,-1.2868702429335757,-7.5501268551046525,"(0.0, 0.0, 0.0, 0.0, 0.0, 0.0)",1.2010989712673745,-0.037638748630864464,1.0034085792163332,"(0.0, 0.0, 0.0, 0.0, 0.0, 0.0)",0.07444006052486639,False,,,,,False,,,,
17,Open,,,,,,"[-0.026750000193715096, 0.05299999937415123, 0.03999999910593033]","[0.0, -0.0, 1.2790758758817962]","[-0.09570803493261337, 0.0737072303891182, 0.03999999910593033]","[0.0, -0.0, 1.2790780932516201]","[0.026750000193715096, 0.05299999937415123, 0.03999999910593033]","[0.0, 0.0, -1.2868702529032277]","[0.0958673357963562, 0.07316911965608597, 0.03999999910593033]","[0.0, 0.0, -1.3245087793274308]",1.3081682532711112,6.982181501004109,"(0.0, 0.0, 0.0, 0.0, 0.0, 0.0)",-1.12145472366965,1.9027582300258812e-06,-5.0740219467356254e-05,"(0.0, 0.0, 0.0, 0.0, 0.0, 0.0)",-0.07939114715284208,-1.315183223212741,-6.795115266999686,"(0.0, 0.0, 0.0, 0.0, 0.0, 0.0)",1.0813262344929835,-0.033874873767778015,0.9033299671407473,"(0.0, 0.0, 0.0, 0.0, 0.0, 0.0)",0.06713055017345074,False,,,,,False,,,,
18,Open,,,,,,"[-0.026750000193715096, 0.05299999937415123, 0.03999999910593033]","[0.0, -0.0, 1.3081682459906412]","[-0.09628119319677353, 0.07169260084629059, 0.03999999910593033]","[0.0, -0.0, 1.3081702011658356]","[0.026750000193715096, 0.05299999937415123, 0.03999999910593033]","[0.0, 0.0, -1.3151833180210462]","[0.0964106097817421, 0.07120437920093536, 0.03999999910593033]","[0.0, 0.0, -1.349058153261439]",1.334351427944,6.283961921493333,"(0.0, 0.0, 0.0, 0.0, 0.0, 0.0)",-1.0095234585863413,2.7618377923566443e-06,0.00020617909495938315,"(0.0, 0.0, 0.0, 0.0, 0.0, 0.0)",-0.07148780084672787,-1.3406649008914668,-6.11560264289422,"(0.0, 0.0, 0.0, 0.0, 0.0, 0.0)",0.9733796231570812,-0.030488273507324658,0.8127840625088054,"(0.0, 0.0, 0.0, 0.0, 0.0, 0.0)",0.060435192896783604,False,,,,,False,,,,
19,Open,,,,,,"[-0.026750000193715096, 0.05299999937415123, 0.03999999910593033]","[0.0, -0.0, 1.334351465706577]","[-0.09674673527479172, 0.06986585259437561, 0.03999999910593033]","[0.0, -0.0, 1.33435435145599]","[0.026750000193715096, 0.05299999937415123, 0.03999999910593033]","[0.0, 0.0, -1.3406650641721125]","[0.09685182571411133, 0.06942359358072281, 0.03999999910593033]","[0.0, 0.0, -1.3711530696282732]",1.3579162851496,5.655565729344001,"(0.0, 0.0, 0.0, 0.0, 0.0, 0.0)",-0.9088150211252332,3.4316066113876724e-06,0.0001607445165674468,"(0.0, 0.0, 0.0, 0.0, 0.0, 0.0)",-0.06444344013525093,-1.3635984108023202,-5.504042378604797,"(0.0, 0.0, 0.0, 0.0, 0.0, 0.0)",0.8762522980402716,-0.02744024570882781,0.7315266716392431,"(0.0, 0.0, 0.0, 0.0, 0.0, 0.0)",0.05446985052483407,False,,,,,False,,,,
20,Open,,,,,,"[-0.026750000193715096, 0.05299999937415123, 0.03999999910593033]","[0.0, -0.0, 1.3579163939939654]","[-0.09712471067905426, 0.0682118609547615, 0.03999999910593033]","[0.0, -0.0, 1.3579197824809437]","[0.026750000193715096, 0.05299999937415123, 0.03999999910593033]","[0.0, 0.0, -1.3635984874387626]","[0.09721000492572784, 0.06781173497438431, 0.03999999910593033]","[0.0, 0.0, -1.3910385869420074]",1.37912465663464,5.090009156409601,"(0.0, 0.0, 0.0, 0.0, 0.0, 0.0)",-0.8181093185961676,3.940702417530038e-06,0.0001221829934741677,"(0.0, 0.0, 0.0, 0.0, 0.0, 0.0)",-0.05806034967263589,-1.3842385697220883,-4.953638140744317,"(0.0, 0.0, 0.0, 0.0, 0.0, 0.0)",0.7887791417834831,-0.024696941374704916,0.6583930401894944,"(0.0, 0.0, 0.0, 0.0, 0.0, 0.0)",0.04906644857689494,False,,,,,False,,,,
21,Open,,,,,,"[-0.026750000193715096, 0.05299999937415123, 0.03999999910593033]","[0.0, -0.0, 1.3791247702213432]","[-0.0974314734339714, 0.0667160153388977, 0.03999999910593033]","[0.0, -0.0, 1.3791284782568445]","[0.026750000193715096, 0.05299999937415123, 0.03999999910593033]","[0.0, 0.0, -1.3842387704807777]","[0.09750068932771683, 0.06635437905788422, 0.03999999910593033]","[0.0, 0.0, -1.408935619520831]",1.398212190971176,4.581008240768642,"(0.0, 0.0, 0.0, 0.0, 0.0, 0.0)",-0.7364407507487188,4.314390796743166e-06,8.968521101115077e-05,"(0.0, 0.0, 0.0, 0.0, 0.0, 0.0)",-0.05230389643117988,-1.4028147127498793,-4.458274326669883,"(0.0, 0.0, 0.0, 0.0, 0.0, 0.0)",0.7100243788118592,-0.02222789596809768,0.5925708975857369,"(0.0, 0.0, 0.0, 0.0, 0.0, 0.0)",0.04419507766734469,False,,,,,False,,,,
22,Open,,,,,,"[-0.026750000193715096, 0.05299999937415123, 0.03999999910593033]","[0.0, -0.0, 1.3982120672717784]","[-0.09768038988113403, 0.06536446511745453, 0.03999999910593033]","[0.0, -0.0, 1.3982164487645397]","[0.026750000193715096, 0.05299999937415123, 0.03999999910593033]","[0.0, 0.0, -1.4028147367436141]","[0.09773654490709305, 0.06503787636756897, 0.03999999910593033]","[0.0, 0.0, -1.4250426427007885]",1.4153909718740585,4.122907416691778,"(0.0, 0.0, 0.0, 0.0, 0.0, 0.0)",-0.6629119687698639,4.574523674952359e-06,6.243189077020624e-05,"(0.0, 0.0, 0.0, 0.0, 0.0, 0.0)",-0.04711364623212332,-1.4195332414748913,-4.012446894002898,"(0.0, 0.0, 0.0, 0.0, 0.0, 0.0)",0.6391216750959775,-0.02000569064819732,0.5333292767760867,"(0.0, 0.0, 0.0, 0.0, 0.0, 0.0)",0.039804123486470444,False,,,,,False,,,,
23,Open,,,,,,"[-0.026750000193715096, 0.05299999937415123, 0.03999999910593033]","[0.0, -0.0, 1.415391158105469]","[-0.09788231551647186, 0.06414420157670975, 0.03999999910593033]","[0.0, -0.0, 1.415395709317307]","[0.026750000193715096, 0.05299999937415123, 0.03999999910593033]","[0.0, 0.0, -1.419533200978404]","[0.09792786836624146, 0.06384945660829544, 0.03999999910593033]","[0.0, 0.0, -1.4395389386881268]",1.4308518746866525,3.7106166750225977,"(0.0, 0.0, 0.0, 0.0, 0.0, 0.0)",-0.5967141397561109,4.7399630338636504e-06,3.9705446138709865e-05,"(0.0, 0.0, 0.0, 0.0, 0.0, 0.0)",-0.042434775014060074,-1.4345799173274023,-3.611202204602609,"(0.0, 0.0, 0.0, 0.0, 0.0, 0.0)",0.5752902758042565,-0.018005647771851804,0.4800102903229233,"(0.0, 0.0, 0.0, 0.0, 0.0, 0.0)",0.0358468230863414,False,,,,,False,,,,
24,Open,,,,,,"[-0.026750000193715096, 0.05299999937415123, 0.03999999910593033]","[0.0, -0.0, 1.4308518944899675]","[-0.09804610908031464, 0.06304314732551575, 0.03999999910593033]","[0.0, -0.0, 1.4308566269594332]","[0.026750000193715096, 0.05299999937415123, 0.03999999910593033]","[0.0, 0.0, -1.4345798203875788]","[0.09808305650949478, 0.06277728080749512, 0.03999999910593033]","[0.0, 0.0, -1.4525855975984745]",1.4447666872179874,3.339555007520341,"(0.0, 0.0, 0.0, 0.0, 0.0, 0.0)",-0.5371183361845069,4.8269553674989e-06,2.0878160072459843e-05,"(0.0, 0.0, 0.0, 0.0, 0.0, 0.0)",-0.03821759960562203,-1.448121925594662,-3.2500819841423465,"(0.0, 0.0, 0.0, 0.0, 0.0, 0.0)",0.5178266556878065,-0.016205556838873442,0.4320218239148067,"(0.0, 0.0, 0.0, 0.0, 0.0, 0.0)",0.0322808466635012,False,,,,,False,,,,
25,Open,,,,,,"[-0.026750000193715096, 0.05299999937415123, 0.03999999910593033]","[0.0, -0.0, 1.4447668540021588]","[-0.09817895293235779, 0.06205013021826744, 0.03999999910593033]","[0.0, -0.0, 1.4447715863131299]","[0.026750000193715096, 0.05299999937415123, 0.03999999910593033]","[0.0, 0.0, -1.448121993206969]","[0.09820891171693802, 0.06181041896343231, 0.03999999910593033]","[0.0, 0.0, -1.46432761016298]",1.4572900184961886,3.005599506768304,"(0.0, 0.0, 0.0, 0.0, 0.0, 0.0)",-0.483467731204937,4.849462099751187e-06,5.401615740548756e-06,"(0.0, 0.0, 0.0, 0.0, 0.0, 0.0)",-0.03441712855198442,-1.4603097330351957,-2.925073785728113,"(0.0, 0.0, 0.0, 0.0, 0.0, 0.0)",0.4660969568661882,-0.014585427836986846,0.38883096045278315,"(0.0, 0.0, 0.0, 0.0, 0.0, 0.0)",0.029067900465992856,False,,,,,False,,,,
26,Open,,,,,,"[-0.026750000193715096, 0.05299999937415123, 0.03999999910593033]","[0.0, -0.0, 1.4572900807517244]","[-0.0982866883277893, 0.061154916882514954, 0.03999999910593033]","[0.0, -0.0, 1.4572948921008348]","[0.026750000193715096, 0.05299999937415123, 0.03999999910593033]","[0.0, 0.0, -1.4603097470714805]","[0.09831098467111588, 0.06093886122107506, 0.03999999910593033]","[0.0, 0.0, -1.4748951413427742]",1.4685610166465697,2.705039556091476,"(0.0, 0.0, 0.0, 0.0, 0.0, 0.0)",-0.43517053908893033,4.819450845044722e-06,-7.202701129551542e-06,"(0.0, 0.0, 0.0, 0.0, 0.0, 0.0)",-0.030992645518402973,-1.471278759731676,-2.632566407155304,"(0.0, 0.0, 0.0, 0.0, 0.0, 0.0)",0.4195301522878829,-0.013127269246907155,0.3499580616191257,"(0.0, 0.0, 0.0, 0.0, 0.0, 0.0)",0.02617336062226555,False,,,,,False,,,,
27,Open,,,,,,"[-0.026750000193715096, 0.05299999937415123, 0.03999999910593033]","[0.0, -0.0, 1.4685611215819594]","[-0.09837405383586884, 0.06034812703728676, 0.03999999910593033]","[0.0, -0.0, 1.468565853091142]","[0.026750000193715096, 0.05299999937415123, 0.03999999910593033]","[0.0, 0.0, -1.4712788457263521]","[0.0983937606215477, 0.06015344336628914, 0.03999999910593033]","[0.0, 0.0, -1.4844061039497418]",1.4787049149819127,2.434535600482329,"(0.0, 0.0, 0.0, 0.0, 0.0, 0.0)",-0.39169363303347604,4.747151892642784e-06,-1.7351748576465223e-05,"(0.0, 0.0, 0.0, 0.0, 0.0, 0.0)",-0.02790732436186781,-1.4811508837585086,-2.3693097664397755,"(0.0, 0.0, 0.0, 0.0, 0.0, 0.0)",0.37761186810531283,-0.011814888241968555,0.3149714411852639,"(0.0, 0.0, 0.0, 0.0, 0.0, 0.0)",0.023565936472848985,False,,,,,False,,,,
28,Open,,,,,,"[-0.026750000193715096, 0.05299999937415123, 0.03999999910593033]","[0.0, -0.0, 1.4787049625213984]","[-0.09844490885734558, 0.059621214866638184, 0.03999999910593033]","[0.0, -0.0, 1.4787095898811649]","[0.026750000193715096, 0.05299999937415123, 0.03999999910593033]","[0.0, 0.0, -1.4811508165812142]","[0.09846089035272598, 0.059445831924676895, 0.03999999910593033]","[0.0, 0.0, -1.492965762433775]",1.4878344234837215,2.191082040434097,"(0.0, 0.0, 0.0, 0.0, 0.0, 0.0)",-0.35255677801820895,4.641283838470101e-06,-2.5408333001444004e-05,"(0.0, 0.0, 0.0, 0.0, 0.0, 0.0)",-0.02512787460267613,-1.4900357953826577,-2.132378789795796,"(0.0, 0.0, 0.0, 0.0, 0.0, 0.0)",0.33987880377374147,-0.010633710863257649,0.2834825708906175,"(0.0, 0.0, 0.0, 0.0, 0.0, 0.0)",0.021217361806457186,False,,,,,False,,,,
29,Close,,,"(0.010000165031897679, 0.16000264050809818, 0.003919197399597577)","(-5.388791991209616e-05, 3.3679978815229247e-06, -9.074720008653711e-11)",,"[-0.026750000193715096, 0.05299999937415123, 0.03999999910593033]","[0.0, -0.0, 1.487834617901085]","[-0.09850236773490906, 0.05896640568971634, 0.03999999910593033]","[0.0, -0.0, 1.4878390921106803]","[0.026750000193715096, 0.05299999937415123, 0.03999999910593033]","[0.0, 0.0, -1.4900358577435544]","[0.09851532429456711, 0.05880843847990036, 0.03999999910593033]","[0.0, 0.0, -1.5006695807985118]",1.4960509811353493,1.9719738363906854,"(0.0, 0.0, 0.0, 0.0, 0.0, 0.0)",-0.3173274216127963,4.509251873886308e-06,-3.168767150011037e-05,"(0.0, 0.0, 0.0, 0.0, 0.0, 0.0)",-0.022624215793833224,-1.498032215844392,-1.9191409108162163,"(0.0, 0.0, 0.0, 0.0, 0.0, 0.0)",0.30591369390909257,-0.00957062017308593,0.2551417656412126,"(0.0, 0.0, 0.0, 0.0, 0.0, 0.0)",0.019102112305110365,False,,,,,False,,,,
30,Close,,,"(0.010000330010418335, 0.1600052801621647, 0.0076635160840755065)","(-0.00010776674212266888, 6.7354271463595154e-06, -3.629275205618536e-10)",,"[-0.026750000193715096, 0.05299999937415123, 0.03999999910593033]","[0.0, -0.0, 1.4960509653323988]","[-0.09854896366596222, 0.058376654982566833, 0.03999999910593033]","[0.0, -0.0, 1.4960555203126162]","[0.026750000193715096, 0.05299999937415123, 0.03999999910593033]","[0.0, 0.0, -1.4980320325532246]","[0.09855947643518448, 0.05823439359664917, 0.03999999910593033]","[0.0, 0.0, -1.5076028800413472]",1.4064458830218143,-21.505223547248388,"(0.0, 0.0, 0.0, 0.0, 0.0, 0.0)",-36.32500847077206,-0.08999559064729075,-21.600023975799512,"(0.0, 0.0, 0.0, 0.0, 0.0, 0.0)",-4.679136399120495,-1.4082289942599528,21.552773180265405,"(0.0, 0.0, 0.0, 0.0, 0.0, 0.0)",36.31473208701179,0.08138609105625041,21.82961069504072,"(0.0, 0.0, 0.0, 0.0, 0.0, 0.0)",4.675963213372079,False,,,,,False,,,,
31,Close,,,"(0.010000494936733278, 0.16000791898094055, 0.011233038807318392)","(-0.00016163646818851668, 1.0102287881965475e-05, -8.164490687548302e-10)",,"[-0.026750000193715096, 0.05299999937415123, 0.03999999910593033]","[0.0, -0.0, 1.4064459844712927]","[-0.0977797880768776, 0.06478003412485123, 0.03999999910593033]","[0.0, -0.0, 1.316450240076391]","[0.026750000193715096, 0.05299999937415123, 0.03999999910593033]","[0.0, 0.0, -1.4082291009672807]","[0.09780067950487137, 0.06465335935354233, 0.03999999910593033]","[0.0, 0.0, -1.3268428349863826]",1.325801294719633,-19.354701192523546,"(0.0, 0.0, 0.0, 0.0, 0.0, 0.0)",3.2936342521930255,-0.17099646652613912,-19.44021021092361,"(0.0, 0.0, 0.0, 0.0, 0.0, 0.0)",0.4145426679866387,-1.3274060948339577,19.39749586223887,"(0.0, 0.0, 0.0, 0.0, 0.0, 0.0)",-3.3024243844052092,0.16324791947241268,19.646838819878944,"(0.0, 0.0, 0.0, 0.0, 0.0, 0.0)",-0.41699994760359754,False,,,,,False,,,,
32,Close,,,"(0.010000659812012168, 0.16001055698314023, 0.0146278458391823)","(-0.0002154970996661642, 1.346858017578936e-05, -1.4512199879406586e-09)",,"[-0.026750000193715096, 0.05299999937415123, 0.03999999910593033]","[0.0, -0.0, 1.3258013857525741]","[-0.09659997373819351, 0.07046370953321457, 0.03999999910593033]","[0.0, -0.0, 1.1548048042561467]","[0.026750000193715096, 0.05299999937415123, 0.03999999910593033]","[0.0, 0.0, -1.3274060658778382]","[0.09662791341543198, 0.07035159319639206, 0.03999999910593033]","[0.0, 0.0, -1.1641581075845935]",1.2532211652476697,-17.41923107327119,"(0.0, 0.0, 0.0, 0.0, 0.0, 0.0)",2.9685258329366073,-0.24389721437960032,-17.496179484830687,"(0.0, 0.0, 0.0, 0.0, 0.0, 0.0)",0.3760018756193849,-1.2546654853505619,17.457746276014984,"(0.0, 0.0, 0.0, 0.0, 0.0, 0.0)",-2.976480273609718,0.2369235243908578,17.682145180426822,"(0.0, 0.0, 0.0, 0.0, 0.0, 0.0)",-0.3782508099482112,False,,,,,False,,,,
33,Close,,,"(0.010000824637423049, 0.16001319418745247, 0.017848014970055004)","(-0.00026934863811186216, 1.6834304115272585e-05, -2.2671484573282825e-09)",,"[-0.026750000193715096, 0.05299999937415123, 0.03999999910593033]","[0.0, -0.0, 1.2532212515508983]","[-0.09514966607093811, 0.07548300176858902, 0.03999999910593033]","[0.0, -0.0, 1.0093239867956962]","[0.026750000193715096, 0.05299999937415123, 0.03999999910593033]","[0.0, 0.0, -1.254665405963893]","[0.09518206864595413, 0.07538418471813202, 0.03999999910593033]","[0.0, 0.0, -1.0177419933055243]",1.1878990487229026,-15.677307965944074,"(0.0, 0.0, 0.0, 0.0, 0.0, 0.0)",2.675103284419244,-0.30950785045582774,-15.746552658294572,"(0.0, 0.0, 0.0, 0.0, 0.0, 0.0)",0.34074508229325023,-1.1891989368155058,15.711971648413485,"(0.0, 0.0, 0.0, 0.0, 0.0, 0.0)",-2.6822973218910153,0.30323153162132754,15.913921735312746,"(0.0, 0.0, 0.0, 0.0, 0.0, 0.0)",-0.34279935345822066,False,,,,,False,,,,
34,Close,,,"(0.010000989414132393, 0.1600158306125408, 0.020893621515273818)","(-0.00032319108508158773, 2.0199459787849396e-05, -3.2641426920478403e-09)",,"[-0.026750000193715096, 0.05299999937415123, 0.03999999910593033]","[0.0, -0.0, 1.1878990574339587]","[-0.09353619813919067, 0.07989988476037979, 0.03999999910593033]","[0.0, -0.0, 0.8783912846834516]","[0.026750000193715096, 0.05299999937415123, 0.03999999910593033]","[0.0, 0.0, -1.1891990098250689]","[0.09357111155986786, 0.07981304824352264, 0.03999999910593033]","[0.0, 0.0, -0.8859674697633095]",1.1291091438506125,-14.109577169349663,"(0.0, 0.0, 0.0, 0.0, 0.0, 0.0)",2.4103712722760626,-0.36855738916456426,-14.17188929009676,"(0.0, 0.0, 0.0, 0.0, 0.0, 0.0)",0.3085687115248564,-1.1302790431339553,14.140774483572143,"(0.0, 0.0, 0.0, 0.0, 0.0, 0.0)",-2.4168742890236286,0.36290870417903687,14.322521413850238,"(0.0, 0.0, 0.0, 0.0, 0.0, 0.0)",-0.31044204201279674,False,,,,,False,,,,
35,Close,,,"(0.010001154143305145, 0.16001846627704427, 0.023764738319401603)","(-0.00037702444213104407, 2.3564047280946926e-05, -4.4421109431381166e-09)",,"[-0.026750000193715096, 0.05299999937415123, 0.03999999910593033]","[0.0, -0.0, 1.1291090274464952]","[-0.09184028208255768, 0.08377750217914581, 0.03999999910593033]","[0.0, -0.0, 0.7605517150898052]","[0.026750000193715096, 0.05299999937415123, 0.03999999910593033]","[0.0, 0.0, -1.130279133319625]","[0.09187624603509903, 0.08370133489370346, 0.03999999910593033]","[0.0, 0.0, -0.7673703325611945]",1.0761982294655512,-12.698619452414698,"(0.0, 0.0, 0.0, 0.0, 0.0, 0.0)",2.1715845710489208,-0.42170194324014043,-12.754692978138287,"(0.0, 0.0, 0.0, 0.0, 0.0, 0.0)",0.27924932151422227,-1.07725113882056,12.72669703521493,"(0.0, 0.0, 0.0, 0.0, 0.0, 0.0)",-2.177460276301377,0.41661812854294633,12.890261847338277,"(0.0, 0.0, 0.0, 0.0, 0.0, 0.0)",-0.2809551529003472,False,,,,,False,,,,
36,Close,,,"(0.010001318826104761, 0.16002110119957821, 0.02646143576036139)","(-0.0004308487108156613, 2.692806668198511e-05, -5.800961497533997e-09)",,"[-0.026750000193715096, 0.05299999937415123, 0.03999999910593033]","[0.0, -0.0, 1.076198055145404]","[-0.09012148529291153, 0.08717681467533112, 0.03999999910593033]","[0.0, -0.0, 0.6544962762796218]","[0.026750000193715096, 0.05299999937415123, 0.03999999910593033]","[0.0, 0.0, -1.0772510781061955]","[0.09015743434429169, 0.08711007237434387, 0.03999999910593033]","[0.0, 0.0, -0.6606329452337051]",1.028578406518996,-11.428757507173229,"(0.0, 0.0, 0.0, 0.0, 0.0, 0.0)",1.9562489498726314,-0.46953201391559385,-11.479216962108818,"(0.0, 0.0, 0.0, 0.0, 0.0, 0.0)",0.2525697399559188,-1.0295260249385039,11.454027331693439,"(0.0, 0.0, 0.0, 0.0, 0.0, 0.0)",-1.961555706583625,0.46495658231577774,11.601228905479532,"(0.0, 0.0, 0.0, 0.0, 0.0, 0.0)",-0.25412105363877113,False,,,,,False,,,,
37,Close,,,"(0.010001483463693249, 0.1600237353987347, 0.0289837817534302)","(-0.0004846638926905951, 3.0291518078376737e-05, -7.3406026780539124e-09)",,"[-0.026750000193715096, 0.05299999937415123, 0.03999999910593033]","[0.0, -0.0, 1.028578444789276]","[-0.08842276781797409, 0.09015467017889023, 0.03999999910593033]","[0.0, -0.0, 0.5590464126725148]","[0.026750000193715096, 0.05299999937415123, 0.03999999910593033]","[0.0, 0.0, -1.029526007298545]","[0.08845794945955276, 0.09009620547294617, 0.03999999910593033]","[0.0, 0.0, -0.564569399435659]",0.9857205658670964,-10.285881756455906,"(0.0, 0.0, 0.0, 0.0, 0.0, 0.0)",1.7621005438122825,-0.5125790520819234,-10.331289159919107,"(0.0, 0.0, 0.0, 0.0, 0.0, 0.0)",0.22832149176550065,-0.9865734224446535,10.308624598524094,"(0.0, 0.0, 0.0, 0.0, 0.0, 0.0)",-1.766891708603882,0.508461165120635,10.441099873165749,"(0.0, 0.0, 0.0, 0.0, 0.0, 0.0)",-0.22973068702752517,False,,,,,False,,,,
38,Close,,,"(0.010001648057231211, 0.16002636889308344, 0.03133184175509247)","(-0.0005384699893107284, 3.3654401557527444e-05, -9.06094284338731e-09)",,"[-0.026750000193715096, 0.05299999937415123, 0.03999999910593033]","[0.0, -0.0, 0.9857205423734198]","[-0.08677425980567932, 0.09276290237903595, 0.03999999910593033]","[0.0, -0.0, 0.47314147483112123]","[0.026750000193715096, 0.05299999937415123, 0.03999999910593033]","[0.0, 0.0, -0.9865734261287252]","[0.08680814504623413, 0.09271169453859329, 0.03999999910593033]","[0.0, 0.0, -0.4781122693565934]",0.9471485092803869,-9.257293580810316,"(0.0, 0.0, 0.0, 0.0, 0.0, 0.0)",1.587086438141582,-0.5513213633331018,-9.29815470028281,"(0.0, 0.0, 0.0, 0.0, 0.0, 0.0)",0.206306403170868,-0.9479160802001881,9.277762138671687,"(0.0, 0.0, 0.0, 0.0, 0.0, 0.0)",-1.5914107042435905,0.5476152664096928,9.396984309373877,"(0.0, 0.0, 0.0, 0.0, 0.0, 0.0)",-0.2075852193448244,False,,,,,False,,,,
39,Close,,,"(0.01000181260787789, 0.16002900170117218, 0.03350567876675359)","(-0.00059226700223067, 3.7016717206835695e-05, -1.0961890388082131e-08)",,"[-0.026750000193715096, 0.05299999937415123, 0.03999999910593033]","[0.0, -0.0, 0.9471486716739237]","[-0.08519625663757324, 0.09504801034927368, 0.03999999910593033]","[0.0, -0.0, 0.39582717163487297]","[0.026750000193715096, 0.05299999937415123, 0.03999999910593033]","[0.0, 0.0, -0.9479160840165974]","[0.08522851020097733, 0.09500313550233841, 0.03999999910593033]","[0.0, 0.0, -0.4003008647547732]",0.9124336583523481,-8.331564222729286,"(0.0, 0.0, 0.0, 0.0, 0.0, 0.0)",1.4293465062267445,-0.5861894225076075,-8.368334201881392,"(0.0, 0.0, 0.0, 0.0, 0.0, 0.0)",0.18633757536892917,-0.9131244721801693,8.349985924804516,"(0.0, 0.0, 0.0, 0.0, 0.0, 0.0)",-1.433248242084051,0.5828539364930729,8.45728082001123,"(0.0, 0.0, 0.0, 0.0, 0.0, 0.0)",-0.18749704763631705,False,,,,,False,,,,
40,Close,,,"(0.010001977116791199, 0.1600316338415276, 0.035505353338314005)","(-0.0006460549330047555, 4.037846511369274e-05, -1.3043353742532214e-08)",,"[-0.026750000193715096, 0.05299999937415123, 0.03999999910593033]","[0.0, -0.0, 0.9124336635104583]","[-0.08370164036750793, 0.0970512256026268, 0.03999999910593033]","[0.0, -0.0, 0.3262442150321584]","[0.026750000193715096, 0.05299999937415123, 0.03999999910593033]","[0.0, 0.0, -0.9131245532476111]","[0.08373206108808517, 0.09701187163591385, 0.03999999910593033]","[0.0, 0.0, -0.3302705841133475]",0.8811902925171133,-7.498407800456356,"(0.0, 0.0, 0.0, 0.0, 0.0, 0.0)",1.2871965063691413,-0.6175706567763247,-7.531496224492115,"(0.0, 0.0, 0.0, 0.0, 0.0, 0.0)",0.16823988009592084,-0.8818120249621524,7.514987332324067,"(0.0, 0.0, 0.0, 0.0, 0.0, 0.0)",-1.2907160846573733,0.6145687204653795,7.61154815335357,"(0.0, 0.0, 0.0, 0.0, 0.0, 0.0)",-0.16929032064296096,False,,,,,False,,,,
41,Close,,,"(0.010002141585127773, 0.16003426533265583, 0.03733092357160428)","(-0.0006998337831870475, 4.3739645365482716e-05, -1.5305241372964883e-08)",,"[-0.026750000193715096, 0.05299999937415123, 0.03999999910593033]","[0.0, -0.0, 0.8811903688816151]","[-0.08229776471853256, 0.09880879521369934, 0.03999999910593033]","[0.0, -0.0, 0.2636196251065186]","[0.026750000193715096, 0.05299999937415123, 0.03999999910593033]","[0.0, 0.0, -0.8818121535754343]","[0.08232623338699341, 0.098774254322052, 0.03999999910593033]","[0.0, 0.0, -0.26724331826119446]",0.853071263265402,-6.7485670204107215,"(0.0, 0.0, 0.0, 0.0, 0.0, 0.0)",1.1591124175888132,-0.6458137504217961,-6.77834247491313,"(0.0, 0.0, 0.0, 0.0, 0.0, 0.0)",0.1518500972569631,-0.8536308224659371,6.763488599091658,"(0.0, 0.0, 0.0, 0.0, 0.0, 0.0)",-1.1622865309865396,0.643112008739745,6.850389185847702,"(0.0, 0.0, 0.0, 0.0, 0.0, 0.0)",-0.15280109527428076,False,,,,,False,,,,
42,Close,,,"(0.010002306014043007, 0.16003689619304312, 0.038982445123681576)","(-0.0007536035543313348, 4.7100258049582536e-05, -1.7747461781428295e-08)",,"[-0.026750000193715096, 0.05299999937415123, 0.03999999910593033]","[0.0, -0.0, 0.8530713239495782]","[-0.08098787814378738, 0.10035242885351181, 0.03999999910593033]","[0.0, -0.0, 0.2072574956851119]","[0.026750000193715096, 0.05299999937415123, 0.03999999910593033]","[0.0, 0.0, -0.8536307856313979]","[0.08101436495780945, 0.10032207518815994, 0.03999999910593033]","[0.0, 0.0, -0.21051882644475053]",0.8277641369388617,-6.073710318369648,"(0.0, 0.0, 0.0, 0.0, 0.0, 0.0)",1.043715976216214,-0.6712325191394197,-6.100504492229669,"(0.0, 0.0, 0.0, 0.0, 0.0, 0.0)",0.1370167890019201,-0.8282677402193435,6.0871397391824935,"(0.0, 0.0, 0.0, 0.0, 0.0, 0.0)",-1.0465779375227178,0.6688009525283538,6.165346509266115,"(0.0, 0.0, 0.0, 0.0, 0.0, 0.0)",-0.1378772244212715,False,,,,,False,,,,
43,Close,,,"(0.010002470404691093, 0.16003952644115657, 0.04045997120998789)","(-0.0008073642479911328, 5.0460303253361964e-05, -2.0369923505779015e-08)",,"[-0.026750000193715096, 0.05299999937415123, 0.03999999910593033]","[0.0, -0.0, 0.8277641182932235]","[-0.07977228611707687, 0.10170972347259521, 0.03999999910593033]","[0.0, -0.0, 0.1565316389415725]","[0.026750000193715096, 0.05299999937415123, 0.03999999910593033]","[0.0, 0.0, -0.8282677342123946]","[0.07979680597782135, 0.10168302059173584, 0.03999999910593033]","[0.0, 0.0, -0.1594667900835625]",0.8049877232449756,-5.4663392865326825,"(0.0, 0.0, 0.0, 0.0, 0.0, 0.0)",0.9397613626777375,-0.6941093969081942,-5.49045066450586,"(0.0, 0.0, 0.0, 0.0, 0.0, 0.0)",0.12359998406321729,-0.8054409661974091,5.478425765264244,"(0.0, 0.0, 0.0, 0.0, 0.0, 0.0)",-0.9423413878167864,0.6919209877745929,5.54880845909737,"(0.0, 0.0, 0.0, 0.0, 0.0, 0.0)",-0.12437805104754245,False,,,,,False,,,,
44,Close,,,"(0.010002634758225062, 0.1600421560954447, 0.041763552607370504)","(-0.000861115865719684, 5.381978106418352e-05, -2.3172535119669436e-08)",,"[-0.026750000193715096, 0.05299999937415123, 0.03999999910593033]","[0.0, -0.0, 0.8049877164750058]","[-0.07864919304847717, 0.10290464758872986, 0.03999999910593033]","[0.0, -0.0, 0.11087832859978779]","[0.026750000193715096, 0.05299999937415123, 0.03999999910593033]","[0.0, 0.0, -0.805440964305088]","[0.07867180556058884, 0.10288111865520477, 0.03999999910593033]","[0.0, 0.0, -0.11351997099607207]",0.784488950920478,-4.919705357879415,"(0.0, 0.0, 0.0, 0.0, 0.0, 0.0)",0.8461229797239068,-0.7146985741739192,-4.941402543774016,"(0.0, 0.0, 0.0, 0.0, 0.0, 0.0)",0.11147072977230046,-0.7848968695776682,4.93058318873782,"(0.0, 0.0, 0.0, 0.0, 0.0, 0.0)",-0.8484484528940599,0.7127290066915236,4.993924540063379,"(0.0, 0.0, 0.0, 0.0, 0.0, 0.0)",-0.1121739668696123,False,,,,,False,,,,
45,Close,,,"(0.010002799075796832, 0.16004478517433812, 0.04289323765696492)","(-0.0009148584090699577, 5.7178691569402595e-05, -2.615520523253533e-08)",,"[-0.026750000193715096, 0.05299999937415123, 0.03999999910593033]","[0.0, -0.0, 0.7844889896573499]","[-0.07761538028717041, 0.10395795851945877, 0.03999999910593033]","[0.0, -0.0, 0.06979037514545033]","[0.026750000193715096, 0.05299999937415123, 0.03999999910593033]","[0.0, 0.0, -0.7848969068252226]","[0.07763615995645523, 0.10393720120191574, 0.03999999910593033]","[0.0, 0.0, -0.07216786709232846]",0.7660400558284302,-4.427734822091471,"(0.0, 0.0, 0.0, 0.0, 0.0, 0.0)",0.7617842585328375,-0.7332288222135146,-4.44725952950288,"(0.0, 0.0, 0.0, 0.0, 0.0, 0.0)",0.10051055612556806,-0.7664071826199014,4.437524869864038,"(0.0, 0.0, 0.0, 0.0, 0.0, 0.0)",-0.7638799793048979,0.7314562121459494,4.494529309062177,"(0.0, 0.0, 0.0, 0.0, 0.0, 0.0)",-0.10114588070786824,False,,,,,False,,,,
46,Close,,,"(0.010002963358557236, 0.16004741369625017, 0.04384907226694074)","(-0.0009685918795946493, 6.053703485636736e-05, -2.9317842489583264e-08)",,"[-0.026750000193715096, 0.05299999937415123, 0.03999999910593033]","[0.0, -0.0, 0.7660400058439011]","[-0.07666666060686111, 0.10488764196634293, 0.03999999910593033]","[0.0, -0.0, 0.0328112365488731]","[0.026750000193715096, 0.05299999937415123, 0.03999999910593033]","[0.0, 0.0, -0.7664072421942376]","[0.07668570429086685, 0.1048693135380745, 0.03999999910593033]","[0.0, 0.0, -0.03495097036229706]",0.7494360502455871,-3.984961339882325,"(0.0, 0.0, 0.0, 0.0, 0.0, 0.0)",0.6858274268188955,-0.7499060350622873,-4.002531083705426,"(0.0, 0.0, 0.0, 0.0, 0.0, 0.0)",0.09061088591719418,-0.7497664643579113,3.9937723828776335,"(0.0, 0.0, 0.0, 0.0, 0.0, 0.0)",-0.6877158393779155,0.7483106866034595,4.045073869802414,"(0.0, 0.0, 0.0, 0.0, 0.0, 0.0)",-0.09118463108881669,False,,,,,False,,,,
47,Close,,,"(0.010003127607656072, 0.16005004167957756, 0.04463109991511072)","(-0.0010223162788461832, 6.389481101241881e-05, -3.266035557177819e-08)",,"[-0.026750000193715096, 0.05299999937415123, 0.03999999910593033]","[0.0, -0.0, 0.7494360616149593]","[-0.07579827308654785, 0.1057092696428299, 0.03999999910593033]","[0.0, 0.0, -0.00046998485639781964]","[0.026750000193715096, 0.05299999937415123, 0.03999999910593033]","[0.0, 0.0, -0.7497665229086657]","[0.07581568509340286, 0.10569305717945099, 0.03999999910593033]","[0.0, 0.0, -0.0014557777936095985]",0.7344924452210284,-3.5864652058940925,"(0.0, 0.0, 0.0, 0.0, 0.0, 0.0)",0.6173964503690262,-0.7649166300024903,-3.602542785648727,"(0.0, 0.0, 0.0, 0.0, 0.0, 0.0)",0.08164469448201127,-0.7347898179221202,3.594395144589871,"(0.0, 0.0, 0.0, 0.0, 0.0, 0.0)",-0.61909767957405,0.7634808239898891,3.6408329727431203,"(0.0, 0.0, 0.0, 0.0, 0.0, 0.0)",-0.08216247127692902,False,,,,,False,,,,
48,Close,,,"(0.010003291824242136, 0.16005266914270105, 0.04523936165140331)","(-0.0010760316083767074, 6.725202012489063e-05, -3.618265319583079e-08)",,"[-0.026750000193715096, 0.05299999937415123, 0.03999999910593033]","[0.0, -0.0, 0.7344924171356654]","[-0.07500515878200531, 0.10643631219863892, 0.03999999910593033]","[0.0, 0.0, -0.03042418292779103]","[0.026750000193715096, 0.05299999937415123, 0.03999999910593033]","[0.0, 0.0, -0.7347898072320369]","[0.07502105087041855, 0.10642196238040924, 0.03999999910593033]","[0.0, -0.0, 0.028691003185096618]",0.7210432006989256,-3.227818685304683,"(0.0, 0.0, 0.0, 0.0, 0.0, 0.0)",0.5558325671900768,-0.77842604750784,-3.2422602012839143,"(0.0, 0.0, 0.0, 0.0, 0.0, 0.0)",0.07360992294062317,-0.7213108361299082,3.234955630130884,"(0.0, 0.0, 0.0, 0.0, 0.0, 0.0)",-0.5573653507703412,0.7771338289584356,3.2767211924511668,"(0.0, 0.0, 0.0, 0.0, 0.0, 0.0)",-0.07407739542501454,False,,,,,False,,,,
49,Close,,,"(0.010003456009463264, 0.16005529610398603, 0.04567389610019914)","(-0.0011297378697381003, 7.060866228110946e-05, -3.988464411418517e-08)",,"[-0.026750000193715096, 0.05299999937415123, 0.03999999910593033]","[0.0, -0.0, 0.7210432248946826]","[-0.07428213953971863, 0.10708045959472656, 0.03999999910593033]","[0.0, 0.0, -0.05738284539856889]","[0.026750000193715096, 0.05299999937415123, 0.03999999910593033]","[0.0, 0.0, -0.7213108742429458]","[0.07429660856723785, 0.10706773400306702, 0.03999999910593033]","[0.0, -0.0, 0.0558229905847104]",0.708938880629033,-2.905036816774215,"(0.0, 0.0, 0.0, 0.0, 0.0, 0.0)",0.5003668258645501,-0.7905844163893876,-2.9180085315714246,"(0.0, 0.0, 0.0, 0.0, 0.0, 0.0)",0.06632913423961855,-0.7091797525169173,2.911460067117798,"(0.0, 0.0, 0.0, 0.0, 0.0, 0.0)",-0.5017475327577147,0.7894214258858812,2.9490232625869344,"(0.0, 0.0, 0.0, 0.0, 0.0, 0.0)",-0.06675089596581112,False,,,,,False,,,,
50,Close,,,"(0.010001644182078712, 0.16005595153396976, 0.045940321410535084)","(-0.0011271805217326655, 1.767785898679914e-05, -1.508889111938428e-08)",,"[-0.026750000193715096, 0.05299999937415123, 0.03999999910593033]","[0.0, -0.0, 0.7089389671526269]","[-0.07362406700849533, 0.10765182226896286, 0.03999999910593033]","[0.0, 0.0, -0.08164554069303018]","[0.026750000193715096, 0.05299999937415123, 0.03999999910593033]","[0.0, 0.0, -0.7091797033714331]","[0.0736372321844101, 0.10764053463935852, 0.03999999910593033]","[0.0, -0.0, 0.08024167743029369]",0.6980449925661297,-2.6145331350967917,"(0.0, 0.0, 0.0, 0.0, 0.0, 0.0)",0.4504252929298086,-0.8015268519725993,-2.6261845399708146,"(0.0, 0.0, 0.0, 0.0, 0.0, 0.0)",0.059761147909024356,-0.6982617772652256,2.6203140604060167,"(0.0, 0.0, 0.0, 0.0, 0.0, 0.0)",-0.4516689022418484,0.8004801661036254,2.6540976522586175,"(0.0, 0.0, 0.0, 0.0, 0.0, 0.0)",-0.06014157277442886,False,,,,,False,,,,
51,Close,,,"(0.009998458164918766, 0.16005543218265145, 0.046184544665354044)","(-0.001116587313714928, -4.731063982249702e-05, 3.3486629919706074e-09)",,"[-0.026750000193715096, 0.05299999937415123, 0.03999999910593033]","[0.0, -0.0, 0.6980450466292163]","[-0.07302592694759369, 0.10815921425819397, 0.03999999910593033]","[0.0, 0.0, -0.1034818592301779]","[0.026750000193715096, 0.05299999937415123, 0.03999999910593033]","[0.0, 0.0, -0.6982617371246688]","[0.07303788512945175, 0.10814917832612991, 0.03999999910593033]","[0.0, -0.0, 0.10221840210156648]",0.6882404933095168,-2.3530798215871136,"(0.0, 0.0, 0.0, 0.0, 0.0, 0.0)",0.40545980991383274,-0.8113749570468809,-2.3635452178275753,"(0.0, 0.0, 0.0, 0.0, 0.0, 0.0)",0.0538375991228723,-0.688435599538703,2.358282654365416,"(0.0, 0.0, 0.0, 0.0, 0.0, 0.0)",-0.4065798463491374,0.810432944800545,2.3886668872606847,"(0.0, 0.0, 0.0, 0.0, 0.0, 0.0)",-0.0541806611811555,False,,,,,False,,,,
52,Close,,,"(0.0099979269032565, 0.16005188637635104, 0.04640949954916324)","(-0.0010442772263960227, -5.814874739306873e-05, 7.787963860925158e-09)",,"[-0.026750000193715096, 0.05299999937415123, 0.03999999910593033]","[0.0, -0.0, 0.688240548987758]","[-0.07248289883136749, 0.10861026495695114, 0.03999999910593033]","[0.0, 0.0, -0.12313446206189271]","[0.026750000193715096, 0.05299999937415123, 0.03999999910593033]","[0.0, 0.0, -0.6884356086136862]","[0.07249374687671661, 0.10860133916139603, 0.03999999910593033]","[0.0, -0.0, 0.1219973374555316]",0.679416393078237,-2.117784055507141,"(0.0, 0.0, 0.0, 0.0, 0.0, 0.0)",0.3649762140031281,-0.8202374613421928,-2.12700103087486,"(0.0, 0.0, 0.0, 0.0, 0.0, 0.0)",0.04851286211734207,-0.6795919883598663,2.1224666829208143,"(0.0, 0.0, 0.0, 0.0, 0.0, 0.0)",-0.36598488497268467,0.8193896503204905,2.149609324786922,"(0.0, 0.0, 0.0, 0.0, 0.0, 0.0)",-0.04882227338805697,False,,,,,False,,,,
53,Close,,,"(0.009997966950406065, 0.16004795201914346, 0.046616050094935475)","(-0.0009640430328522325, -5.7324486097668704e-05, 4.2980615420070005e-09)",,"[-0.026750000193715096, 0.05299999937415123, 0.03999999910593033]","[0.0, -0.0, 0.6794163791618646]","[-0.07199041545391083, 0.10901165008544922, 0.03999999910593033]","[0.0, 0.0, -0.1408210743259801]","[0.026750000193715096, 0.05299999937415123, 0.03999999910593033]","[0.0, 0.0, -0.6795920181483843]","[0.07200025022029877, 0.1090037003159523, 0.03999999910593033]","[0.0, -0.0, 0.13979766167419433]",0.6714747537704133,-1.9059934338776885,"(0.0, 0.0, 0.0, 0.0, 0.0, 0.0)",0.3285291326313333,-0.8282143561304102,-1.914454749172182,"(0.0, 0.0, 0.0, 0.0, 0.0, 0.0)",0.043663125146434535,-0.6716327895238797,1.9102077206367922,"(0.0, 0.0, 0.0, 0.0, 0.0, 0.0)",-0.3294374536237565,0.8274513303019508,1.934803195550486,"(0.0, 0.0, 0.0, 0.0, 0.0, 0.0)",-0.043941831288343336,False,,,,,False,,,,
54,Close,,,"(0.009998107600018924, 0.16004411888380865, 0.0468059782297436)","(-0.0008858309445970004, -5.447527859797503e-05, 4.128601528647624e-08)",,"[-0.026750000193715096, 0.05299999937415123, 0.03999999910593033]","[0.0, -0.0, 0.6714747449539094]","[-0.07154417037963867, 0.10936915874481201, 0.03999999910593033]","[0.0, 0.0, -0.15673960659097733]","[0.026750000193715096, 0.05299999937415123, 0.03999999910593033]","[0.0, 0.0, -0.6716327690441329]","[0.07155308127403259, 0.10936208069324493, 0.03999999910593033]","[0.0, -0.0, 0.15581855230220754]",0.664327278393372,-1.7153940904899205,"(0.0, 0.0, 0.0, 0.0, 0.0, 0.0)",0.2957170811345372,-0.8353934979980445,-1.7229940482322428,"(0.0, 0.0, 0.0, 0.0, 0.0, 0.0)",0.03934112702889199,-0.6644695105714917,1.7191869485731137,"(0.0, 0.0, 0.0, 0.0, 0.0, 0.0)",-0.2965349881453131,0.8347067784412298,1.7413075534269409,"(0.0, 0.0, 0.0, 0.0, 0.0, 0.0)",-0.039592428071821256,False,,,,,False,,,,
55,Close,,,"(0.009998248644105466, 0.16004048002584464, 0.0469807018618576)","(-0.0008115684428503489, -5.1596750749095254e-05, 7.881188886077776e-08)",,"[-0.026750000193715096, 0.05299999937415123, 0.03999999910593033]","[0.0, -0.0, 0.6643273336690038]","[-0.07114013284444809, 0.10968788713216782, 0.03999999910593033]","[0.0, 0.0, -0.17106622141763456]","[0.026750000193715096, 0.05299999937415123, 0.03999999910593033]","[0.0, 0.0, -0.6644694779113771]","[0.07114819437265396, 0.10968156903982162, 0.03999999910593033]","[0.0, -0.0, 0.17023725548976373]",0.6578945505540348,-1.543854681440929,"(0.0, 0.0, 0.0, 0.0, 0.0, 0.0)",0.2661784897251144,-0.8418546682622772,-1.5506808634158242,"(0.0, 0.0, 0.0, 0.0, 0.0, 0.0)",0.03542959308904228,-0.6580225595143425,1.547268253715802,"(0.0, 0.0, 0.0, 0.0, 0.0, 0.0)",-0.26691494494593054,0.8412366239853526,1.567162930589489,"(0.0, 0.0, 0.0, 0.0, 0.0, 0.0)",-0.035656056287006674,False,,,,,False,,,,
56,Close,,,"(0.009998390752654573, 0.16003702894197389, 0.04714144752999396)","(-0.0007411380797103218, -4.869650481896534e-05, 1.1687517768299383e-07)",,"[-0.026750000193715096, 0.05299999937415123, 0.03999999910593033]","[0.0, -0.0, 0.6578945475257985]","[-0.07077455520629883, 0.1099722608923912, 0.03999999910593033]","[0.0, 0.0, -0.18396012465064338]","[0.026750000193715096, 0.05299999937415123, 0.03999999910593033]","[0.0, 0.0, -0.6580225896942233]","[0.07078184932470322, 0.10996662080287933, 0.03999999910593033]","[0.0, -0.0, 0.18321406389742323]",0.6521050954986313,-1.3894692132968354,"(0.0, 0.0, 0.0, 0.0, 0.0, 0.0)",0.23958744527110798,-0.8476696697618468,-1.395600359896693,"(0.0, 0.0, 0.0, 0.0, 0.0, 0.0)",0.031904902566438624,-0.6522203035629083,1.392541428344221,"(0.0, 0.0, 0.0, 0.0, 0.0, 0.0)",-0.24025052935853647,0.8471134329078756,1.410434141405507,"(0.0, 0.0, 0.0, 0.0, 0.0, 0.0)",-0.032108956045352514,False,,,,,False,,,,
57,Close,,,"(0.009998534235924597, 0.16003375955333046, 0.04728933347451534)","(-0.0006744157946989166, -4.576820860538318e-05, 1.554405829918684e-07)",,"[-0.026750000193715096, 0.05299999937415123, 0.03999999910593033]","[0.0, -0.0, 0.6521051450040646]","[-0.07044398784637451, 0.11022617667913437, 0.03999999910593033]","[0.0, 0.0, -0.19556454293122102]","[0.026750000193715096, 0.05299999937415123, 0.03999999910593033]","[0.0, 0.0, -0.6522203497730787]","[0.07045057415962219, 0.11022114753723145, 0.03999999910593033]","[0.0, -0.0, 0.19489313608724637]",0.6468945859487681,-1.250522291967151,"(0.0, 0.0, 0.0, 0.0, 0.0, 0.0)",0.2156503992603495,-0.8529031244958994,-1.2560291361726517,"(0.0, 0.0, 0.0, 0.0, 0.0, 0.0)",0.02872919688306315,-0.6469982732066174,1.253287285509799,"(0.0, 0.0, 0.0, 0.0, 0.0, 0.0)",-0.2162473971085442,0.8524025140258721,1.2693794683191757,"(0.0, 0.0, 0.0, 0.0, 0.0, 0.0)",-0.02891303657535659,False,,,,,False,,,,
58,Close,,,"(0.009998679410322496, 0.16003066597344334, 0.0474253884764576)","(-0.0006112814540129935, -4.2805404436077314e-05, 1.9447426774393396e-07)",,"[-0.026750000193715096, 0.05299999937415123, 0.03999999910593033]","[0.0, -0.0, 0.6468945636476681]","[-0.07014521211385727, 0.11045306921005249, 0.03999999910593033]","[0.0, 0.0, -0.20600854729134555]","[0.026750000193715096, 0.05299999937415123, 0.03999999910593033]","[0.0, 0.0, -0.6469982503054421]","[0.07015117257833481, 0.11044856905937195, 0.03999999910593033]","[0.0, -0.0, 0.20540423443750838]",0.6422051273538913,-1.125470062770436,"(0.0, 0.0, 0.0, 0.0, 0.0, 0.0)",0.1941029233168818,-0.8576131917611358,-1.1304161436567226,"(0.0, 0.0, 0.0, 0.0, 0.0, 0.0)",0.025868240883426936,-0.6422984458859556,1.1279585569588184,"(0.0, 0.0, 0.0, 0.0, 0.0, 0.0)",-0.19464040126091972,0.8571626447690798,1.1424313783698345,"(0.0, 0.0, 0.0, 0.0, 0.0, 0.0)",-0.026033851694478666,False,,,,,False,,,,
59,Move,,,"(0.009998826598722164, 0.16002774252192944, 0.04755055901421763)","(-0.0005516191299448554, -3.980150267197137e-05, 2.339437659612592e-07)","[0.0, 0.0, 0.0]","[-0.026750000193715096, 0.05299999937415123, 0.03999999910593033]","[0.0, -0.0, 0.6422051137296667]","[-0.0698753148317337, 0.11065594106912613, 0.03999999910593033]","[0.0, 0.0, -0.2154080556264429]","[0.026750000193715096, 0.05299999937415123, 0.03999999910593033]","[0.0, 0.0, -0.6422983956794274]","[0.06988069415092468, 0.1106519103050232, 0.03999999910593033]","[0.0, -0.0, 0.21486417441436167]",0.6379846146185022,-1.0129230564933929,"(0.0, 0.0, 0.0, 0.0, 0.0, 0.0)",0.17470684718642912,-0.8618522144704561,-1.0173654502368856,"(0.0, 0.0, 0.0, 0.0, 0.0, 0.0)",0.023291096758263134,-0.6380686012973601,1.0151627012629356,"(0.0, 0.0, 0.0, 0.0, 0.0, 0.0)",-0.1751907229705418,0.8614467243673204,1.02817910357775,"(0.0, 0.0, 0.0, 0.0, 0.0, 0.0)",-0.023440272040621463,False,,,,,True,"(0.04276013174954747, 0.17974174897294792, 0.02399995643463635)","(-0.9999999990838299, -1.9447426661030803e-07, -4.2805404423670755e-05)",0.0013234533115717422,0.0
60,Move,,,"(0.008529162475457952, 0.15974954236529276, 0.0477048393377401)","(0.0013879222534856654, 0.003092032969080396, 0.019607357714227783)","[-0.001469664123264212, -0.00027820015663668207, 0.00015428032352246546]","[-0.026750000193715096, 0.05299999937415123, 0.03999999910593033]","[0.0, -0.0, 0.6379846501970732]","[-0.06963159143924713, 0.1108374372124672, 0.03999999910593033]","[0.0, 0.0, -0.22386762157269943]","[0.026750000193715096, 0.05299999937415123, 0.03999999910593033]","[0.0, 0.0, -0.638068602671057]","[0.06963644921779633, 0.11083383113145828, 0.03999999910593033]","[0.0, -0.0, 0.22337816170537766]",0.6141590059460926,-5.718146081378292,"(0.0, 0.0, 0.0, 0.0, 0.0, 0.0)",-6.715100343954979,-0.8614283121995241,0.10173654502368734,"(0.0, 0.0, 0.0, 0.0, 0.0, 0.0)",-0.37236374372155323,-0.6186460352886096,4.661415842100123,"(0.0, 0.0, 0.0, 0.0, 0.0, 0.0)",6.428194854706253,0.8610182254653614,-0.10283973647015276,"(0.0, 0.0, 0.0, 0.0, 0.0, 0.0)",0.9829946930619015,False,,,,,True,"(0.041928616181162004, 0.17969877893574898, 0.023999959438538117)","(-0.9999999992078928, -2.3394376620903917e-07, -3.980150265941498e-05)",0.0004918567139684023,10.112171877912418
61,Move,,,"(0.006723996611826882, 0.15936533702962205, 0.047765255621499005)","(6.714398616458164e-05, 0.002674296973039989, 0.04262647064426384)","[-0.0032748299868952824, -0.0006624054923073941, 0.00021469660728137135]","[-0.026750000193715096, 0.05299999937415123, 0.03999999910593033]","[0.0, -0.0, 0.6141590305095613]","[-0.06824154406785965, 0.11184260249137878, 0.03999999910593033]","[0.0, 0.0, -0.24726930604170874]","[0.026750000193715096, 0.05299999937415123, 0.03999999910593033]","[0.0, 0.0, -0.618646044105948]","[0.06850515305995941, 0.1116558387875557, 0.03999999910593033]","[0.0, -0.0, 0.24237220045044397]",0.5923752537221402,-5.228100533748594,"(0.0, 0.0, 0.0, 0.0, 0.0, 0.0)",0.6968351830029317,-0.8614707024266173,-0.010173654502368734,"(0.0, 0.0, 0.0, 0.0, 0.0, 0.0)",0.0386094337653134,-0.6008326176855909,4.2752202247244835,"(0.0, 0.0, 0.0, 0.0, 0.0, 0.0)",-0.2843818339581164,0.8610616731657038,0.010427448082156607,"(0.0, 0.0, 0.0, 0.0, 0.0, 0.0)",0.12162564932151312,False,,,,,True,"(0.03949436769622908, 0.17998210851349686, 0.023999959438538117)","(-0.9999999992078928, -2.3394376620903917e-07, -3.980150265941498e-05)",-6.347605402235445e-06,0.5640853154323047
62,Move,,,"(0.004916021046565853, 0.1589665718711254, 0.047720958898252924)","(-0.002763020338407607, 0.0006108079306357897, 0.0667691707902313)","[-0.005082805552156311, -0.0010611706508040497, 0.00017039988403529105]","[-0.026750000193715096, 0.05299999937415123, 0.03999999910593033]","[0.0, -0.0, 0.5923752994005711]","[-0.0669499859213829, 0.1127324104309082, 0.03999999910593033]","[0.0, 0.0, -0.2690954538189607]","[0.026750000193715096, 0.05299999937415123, 0.03999999910593033]","[0.0, 0.0, -0.6008327423896315]","[0.06745371967554092, 0.11239029467105865, 0.03999999910593033]","[0.0, -0.0, 0.2602290700881579]",0.5712150347036751,-5.078452564431617,"(0.0, 0.0, 0.0, 0.0, 0.0, 0.0)",0.2157952503283588,-0.861466463403908,0.0010173654502363396,"(0.0, 0.0, 0.0, 0.0, 0.0, 0.0)",0.016130538686302622,-0.5829836595254625,4.283749958430823,"(0.0, 0.0, 0.0, 0.0, 0.0, 0.0)",0.03654686188668907,0.8610568520052067,-0.0011570785193177847,"(0.0, 0.0, 0.0, 0.0, 0.0, 0.0)",0.013369392840733865,False,,,,,True,"(0.03722753437306846, 0.1801876577450428, 0.023999959438538117)","(-0.9999999992078928, -2.3394376620903917e-07, -3.980150265941498e-05)",-3.03090440028451e-06,0.20086448022229916
63,Move,,,"(0.003038586218639499, 0.15852968790700625, 0.047692659289474)","(-0.0025911153149836925, -0.0037098076030427207, 0.0892309075356073)","[-0.006960240380082665, -0.0014980546149231944, 0.00014210027525636548]","[-0.026750000193715096, 0.05299999937415123, 0.03999999910593033]","[0.0, -0.0, 0.5712149816841382]","[-0.06567712873220444, 0.11356961727142334, 0.03999999910593033]","[0.0, 0.0, -0.2902514434627483]","[0.026750000193715096, 0.05299999937415123, 0.03999999910593033]","[0.0, 0.0, -0.5829835823925363]","[0.06638723611831665, 0.11310731619596481, 0.03999999910593033]","[0.0, -0.0, 0.27807322292986936]",0.5508803967687295,-4.88031310438695,"(0.0, 0.0, 0.0, 0.0, 0.0, 0.0)",0.28503070876654335,-0.8614668873061792,-0.0001017365450710142,"(0.0, 0.0, 0.0, 0.0, 0.0, 0.0)",0.019917833408555515,-0.5651641840502668,4.2766741140469655,"(0.0, 0.0, 0.0, 0.0, 0.0, 0.0)",0.11956537689041521,0.8610565492790112,-7.265428690530302e-05,"(0.0, 0.0, 0.0, 0.0, 0.0, 0.0)",0.07009334439305036,False,,,,,True,"(0.03495614298930945, 0.18035455290140667, 0.023999959438538117)","(-0.9999999992078928, -2.3394376620903917e-07, -3.980150265941498e-05)",-3.483078081115776e-06,1.0531113700940868
64,Move,,,"(0.0020261779141126004, 0.159147963083264, 0.04760521211159295)","(0.002583370481578668, -0.003056729446151124, 0.09297246090683914)","[-0.007972648684609564, -0.0008797794386654345, 5.465309737531787e-05]","[-0.026750000193715096, 0.05299999937415123, 0.03999999910593033]","[0.0, -0.0, 0.5508804375563766]","[-0.06443750858306885, 0.11434861272573471, 0.03999999910593033]","[0.0, 0.0, -0.31058647044401844]","[0.026750000193715096, 0.05299999937415123, 0.03999999910593033]","[0.0, 0.0, -0.5651641731913941]","[0.06530991941690445, 0.11380404978990555, 0.03999999910593033]","[0.0, -0.0, 0.2958923811960855]",0.5325313952836437,-4.403760356420582,"(0.0, 0.0, 0.0, 0.0, 0.0, 0.0)",-38.47384383842257,-0.8434648155280273,4.320497226756436,"(0.0, 0.0, 0.0, 0.0, 0.0, 0.0)",-19.707773442051234,-0.5485203526437034,3.9945195375752336,"(0.0, 0.0, 0.0, 0.0, 0.0, 0.0)",38.40865227596146,0.8426940994674212,-4.406987954781599,"(0.0, 0.0, 0.0, 0.0, 0.0, 0.0)",20.213574547080277,True,"(-0.030837162206202397, 0.1807147684040986, 0.056003710559052795)","(0.9960147094140643, 0.08911192973728252, 0.0037097990935676286)",0.000295955962769222,310.9113148279181,True,"(0.032686946379462796, 0.18046390406811386, 0.023996289440947206)","(-0.9960147094140644, -0.08911192973728094, -0.0037097990935709194)",-4.010570765232737e-05,237.4598751600436
65,Move,"(-0.0031000000000000003, 0.0, -0.0002)","(0.0, 0.02079385270826044, 0.0)","(0.0011700253639096666, 0.15976182515520135, 0.04751897038725052)","(0.007930122363363799, -0.00226657279137191, 0.09692309735704685)","[-0.008828801234812498, -0.00026591736672809674, -3.1588626967116173e-05]","[-0.026750000193715096, 0.05299999937415123, 0.03999999910593033]","[0.0, -0.0, 0.5325313658465014]","[-0.06330554187297821, 0.11502977460622787, 0.03999999910593033]","[0.0, 0.0, -0.3109334583254266]","[0.026750000193715096, 0.05299999937415123, 0.03999999910593033]","[0.0, 0.0, -0.548520392495979]","[0.06429261714220047, 0.11443737894296646, 0.03999999910593033]","[0.0, -0.0, 0.2941737789306636]",0.5150286261073844,-4.20066460230223,"(0.0, 0.0, 0.0, 0.0, 0.0, 0.0)",-43.15160519850692,-0.8255232606133882,4.305973179513399,"(0.0, 0.0, 0.0, 0.0, 0.0, 0.0)",-22.03627704391551,-0.5318939745440465,3.990330743917647,"(0.0, 0.0, 0.0, 0.0, 0.0, 0.0)",43.6676935048907,0.8241209847892994,-4.457547522749228,"(0.0, 0.0, 0.0, 0.0, 0.0, 0.0)",23.068483497500033,True,"(-0.02968254207398162, 0.18138834120873254, 0.056003057484645)","(0.9956765214355997, 0.09283814461792712, 0.0030567246857756626)",-0.0019557974209563206,339.7172576639441,True,"(0.03178474084630808, 0.1811477674564546, 0.02399694251535476)","(-0.9956765214355902, -0.0928381446180211, -0.0030567246860136047)",0.00016315936690381586,263.2480870713977
66,Move,"(0.0048, 0.0, 0.0011)","(0.0, 0.02079385270826044, 0.0)","(0.0013006409073219856, 0.16012350094530106, 0.047494239540317576)","(0.005652735908330103, 0.0009886762948146265, 0.09245290372739766)","[-0.008698185691400179, 9.575842337161689e-05, -5.6319473900057204e-05]","[-0.026750000193715096, 0.05299999937415123, 0.03999999910593033]","[0.0, -0.0, 0.5150286173626178]","[-0.06221430376172066, 0.11566006392240524, 0.03999999910593033]","[0.0, 0.0, -0.3104946497228739]","[0.026750000193715096, 0.05299999937415123, 0.03999999910593033]","[0.0, 0.0, -0.5318939608755999]","[0.06326599419116974, 0.11505305767059326, 0.03999999910593033]","[0.0, -0.0, 0.2922270319249003]",0.5159930183503814,0.23145413831927097,"(0.0, 0.0, 0.0, 0.0, 0.0, 0.0)",5.270629023518199,-0.8273169719166015,-0.430490712771177,"(0.0, 0.0, 0.0, 0.0, 0.0, 0.0)",-0.391557467405997,-0.5345697624615631,-0.6421891002039635,"(0.0, 0.0, 0.0, 0.0, 0.0, 0.0)",-6.214968239709111,0.8259782962570565,0.4457547522617009,"(0.0, 0.0, 0.0, 0.0, 0.0, 0.0)",0.02809671107491373,True,"(-0.02862075758073663, 0.18203687365922727, 0.05600226731562215)","(0.9953040758649819, 0.09677116937979674, 0.0022665708506747376)",-0.003960922893090458,5.310354783411627,True,"(0.03091578949574346, 0.18154523231783662, 0.023997716044379027)","(-0.9953040509812058, -0.09677103449881742, -0.0022831956617496516)",0.00022377337919692118,0.0
67,Move,"(0.004200000000000001, 0.0, 0.0009000000000000001)","(0.0, 0.02528982086139784, 0.0)","(0.0017050050624252378, 0.1604630528645741, 0.04749980564850323)","(0.0013965118920419301, 0.0008552258112673449, 0.08440262251445355)","[-0.008293821536296927, 0.00043531034264465696, -5.075336571440381e-05]","[-0.026750000193715096, 0.05299999937415123, 0.03999999910593033]","[0.0, -0.0, 0.5159930463155196]","[-0.062274716794490814, 0.11562582850456238, 0.03999999910593033]","[0.0, 0.0, -0.3113239255231001]","[0.026750000193715096, 0.05299999937415123, 0.03999999910593033]","[0.0, 0.0, -0.5345697717796395]","[0.06343190371990204, 0.1149551272392273, 0.03999999910593033]","[0.0, -0.0, 0.2914085209877933]",0.5132510916493491,-0.6580624082477492,"(0.0, 0.0, 0.0, 0.0, 0.0, 0.0)",-1.4796833914438698,-0.8271398755455635,0.04250312904911924,"(0.0, 0.0, 0.0, 0.0, 0.0, 0.0)",-0.16584455749074137,-0.5373204072710022,-0.6601547542653802,"(0.0, 0.0, 0.0, 0.0, 0.0, 0.0)",-0.07714236119825292,0.8257925651102809,-0.044575475226171335,"(0.0, 0.0, 0.0, 0.0, 0.0, 0.0)",-0.05276772135633816,True,"(-0.028626133958736, 0.18197476043718264, 0.05600226731562215)","(0.9953040758649819, 0.09677116937979674, 0.0022665708506747376)",-0.003644422718324257,0.6074190723654496,True,"(0.0311361325084447, 0.18147375684193492, 0.023997716044379027)","(-0.9953040509812058, -0.09677103449881742, -0.0022831956617496516)",0.0002648321865178206,0.0
68,Move,"(0.0029, 0.0, 0.0009000000000000001)","(0.0, 0.021265091606298914, 0.0)","(0.0020431073234231036, 0.1605194492468669, 0.047555327962923916)","(-0.0011446832136168396, 0.0012863123345276382, 0.08241690281157316)","[-0.007955719275299061, 0.0004917067249374518, 4.7689487062824165e-06]","[-0.026750000193715096, 0.05299999937415123, 0.03999999910593033]","[0.0, -0.0, 0.5132511795602422]","[-0.06210286542773247, 0.11572299897670746, 0.03999999910593033]","[0.0, 0.0, -0.313888790892684]","[0.026750000193715096, 0.05299999937415123, 0.03999999910593033]","[0.0, 0.0, -0.5373203427832172]","[0.06360217928886414, 0.11485399305820465, 0.03999999910593033]","[0.0, -0.0, 0.28847218559273297]",0.5108315954596508,-0.5806790855275819,"(0.0, 0.0, 0.0, 0.0, 0.0, 0.0)",-2.4666395473910567,-0.8258833068024476,0.30157649834781536,"(0.0, 0.0, 0.0, 0.0, 0.0, 0.0)",-1.3370471357011475,-0.5396742028935512,-0.5649109494117679,"(0.0, 0.0, 0.0, 0.0, 0.0, 0.0)",2.532508715060785,0.824813280782188,-0.2350282387423049,"(0.0, 0.0, 0.0, 0.0, 0.0, 0.0)",1.1521886468240263,True,"(-0.02828422231173386, 0.1819854100244843, 0.05600226731562215)","(0.9953040758649819, 0.09677116937979674, 0.0022665708506747376)",-0.003347468488106075,17.696143098419505,True,"(0.03150187272976103, 0.1814671693214684, 0.023997716044379027)","(-0.9953040509812058, -0.09677103449881742, -0.0022831956617496516)",4.244567144199711e-05,12.070035887300865
69,Move,"(0.0024, 0.0, 0.0009000000000000001)","(0.0, 0.021750293138353336, 0.0)","(0.0023050394624336105, 0.16056772035575623, 0.047660351177135726)","(-0.0014932937528122424, 0.0017877479494053468, 0.08032938931421818)","[-0.007693787136288554, 0.0005399778338267824, 0.00010979216291809313]","[-0.026750000193715096, 0.05299999937415123, 0.03999999910593033]","[0.0, -0.0, 0.5108316336238706]","[-0.06195100396871567, 0.11580835282802582, 0.03999999910593033]","[0.0, 0.0, -0.3150517076528612]","[0.026750000193715096, 0.05299999937415123, 0.03999999910593033]","[0.0, 0.0, -0.5396742804375294]","[0.06374766677618027, 0.11476708203554153, 0.03999999910593033]","[0.0, -0.0, 0.28513904889747554]",0.5088782304371233,-0.4688076054065915,"(0.0, 0.0, 0.0, 0.0, 0.0, 0.0)",-2.6414128186260584,-0.8247904759824447,0.26227939680069967,"(0.0, 0.0, 0.0, 0.0, 0.0, 0.0)",-1.34526462575482,-0.54174303619579,-0.49651999253732554,"(0.0, 0.0, 0.0, 0.0, 0.0, 0.0)",2.315323169523804,0.8239537481074598,-0.20628784193475422,"(0.0, 0.0, 0.0, 0.0, 0.0, 0.0)",1.0846603224342877,True,"(-0.02805532543238752, 0.18203138905053956, 0.05600226731562215)","(0.9953040758649819, 0.09677116937979674, 0.0022665708506747376)",-0.0031832054028101712,19.067010406688272,True,"(0.031869567102606355, 0.18148687823142676, 0.023997716044379027)","(-0.9953040509812058, -0.09677103449881742, -0.0022831956617496516)",4.335002413563942e-05,9.135781735374284
70,Move,"(0.0029, 0.0, 0.0011)","(0.0, 0.013110913340981403, 0.0)","(0.002565996862116299, 0.16061081148200723, 0.04775519979161016)","(-0.0018172167285642807, 0.0022379896863712664, 0.07840480889670279)","[-0.007432829736605865, 0.0005830689600777872, 0.00020464077739252434]","[-0.026750000193715096, 0.05299999937415123, 0.03999999910593033]","[0.0, -0.0, 0.5088782364025362]","[-0.06182825192809105, 0.11587699502706528, 0.03999999910593033]","[0.0, 0.0, -0.3159122245450926]","[0.026750000193715096, 0.05299999937415123, 0.03999999910593033]","[0.0, 0.0, -0.5417429720722893]","[0.06387537717819214, 0.11469040811061859, 0.03999999910593033]","[0.0, -0.0, 0.28221073617330106]",0.507054820490432,-0.43761838720590474,"(0.0, 0.0, 0.0, 0.0, 0.0, 0.0)",-2.463110714461739,-0.8238154721188317,0.23400092726712174,"(0.0, 0.0, 0.0, 0.0, 0.0, 0.0)",-1.2069395399274658,-0.5436619236084274,-0.46053297903295376,"(0.0, 0.0, 0.0, 0.0, 0.0, 0.0)",2.007450303935114,0.823207927278507,-0.17899699894866286,"(0.0, 0.0, 0.0, 0.0, 0.0, 0.0)",0.9497086903128265,True,"(-0.027875596082880413, 0.18207083668429647, 0.05600226731562215)","(0.9953040758649819, 0.09677116937979674, 0.0022665708506747376)",-0.003042581291585343,16.8970400271626,True,"(0.03219279001582945, 0.1815032686370447, 0.023997716044379027)","(-0.9953040509812058, -0.09677103449881742, -0.0022831956617496516)",7.538790900939475e-05,6.277332732901869
71,Move,"(0.0047, 0.0, 0.0012)","(0.0, 0.008604473212332044, 0.0)","(0.002838731044953772, 0.16065009826872237, 0.04783945303512964)","(-0.0021803893365597445, 0.0026726389301385827, 0.07673428864642295)","[-0.007160095553768392, 0.0006223557467929242, 0.0002888940209120061]","[-0.026750000193715096, 0.05299999937415123, 0.03999999910593033]","[0.0, -0.0, 0.5070548836624439]","[-0.06171354278922081, 0.11594085395336151, 0.03999999910593033]","[0.0, 0.0, -0.31676067701029015]","[0.026750000193715096, 0.05299999937415123, 0.03999999910593033]","[0.0, 0.0, -0.5436619559415888]","[0.06399368494749069, 0.11461905390024185, 0.03999999910593033]","[0.0, -0.0, 0.2795460111889431]",0.5051439825183206,-0.45860111330675973,"(0.0, 0.0, 0.0, 0.0, 0.0, 0.0)",-2.4613253485891744,-0.8228745298780274,0.2258261377930178,"(0.0, 0.0, 0.0, 0.0, 0.0, 0.0)",-1.1695366143759778,-0.5456781357422233,-0.4838909121110304,"(0.0, 0.0, 0.0, 0.0, 0.0, 0.0)",1.8466570959946043,0.822455298536366,-0.18063089811384345,"(0.0, 0.0, 0.0, 0.0, 0.0, 0.0)",0.9069131068966683,True,"(-0.027704740263208266, 0.18210586469414314, 0.05600226731562215)","(0.9953040758649819, 0.09677116937979674, 0.0022665708506747376)",-0.0028986692423547443,16.229252596110005,True,"(0.03248924759385356, 0.1815161032285273, 0.023997716044379027)","(-0.9953040509812058, -0.09677103449881742, -0.0022831956617496516)",8.381602901236536e-05,4.60557680307515
72,Move,"(0.007200000000000001, 0.0, 0.0011)","(0.0, 0.017205455766160106, 0.0)","(0.003161068697301514, 0.1606735140669368, 0.04790722740515396)","(-0.0028989596482348855, 0.002766844799341713, 0.07507659130139717)","[-0.006837757901420651, 0.000645771545007362, 0.0003566683909363294]","[-0.026750000193715096, 0.05299999937415123, 0.03999999910593033]","[0.0, -0.0, 0.5051439943624335]","[-0.06159320846199989, 0.11600754410028458, 0.03999999910593033]","[0.0, 0.0, -0.31773051880058867]","[0.026750000193715096, 0.05299999937415123, 0.03999999910593033]","[0.0, 0.0, -0.545678170767571]","[0.06411784887313843, 0.1145438402891159, 0.03999999910593033]","[0.0, -0.0, 0.27677717574059046]",0.5028634555179713,-0.5473264800838337,"(0.0, 0.0, 0.0, 0.0, 0.0, 0.0)",-2.1360872272507163,-0.8220725238713417,0.19248144160459615,"(0.0, 0.0, 0.0, 0.0, 0.0, 0.0)",-1.0346719059208185,-0.5480311125885997,-0.5647144431303223,"(0.0, 0.0, 0.0, 0.0, 0.0, 0.0)",1.3844678969762712,0.8218632327823373,-0.14209578096689784,"(0.0, 0.0, 0.0, 0.0, 0.0, 0.0)",0.7260426753560504,True,"(-0.02751917401398145, 0.1821266352899245, 0.023997326622904568)","(0.9970538077985448, 0.0766587331788012, -0.002672635748364273)",-0.0028786207005255648,15.913508691855474,True,"(0.03279875670515228, 0.18152786109592423, 0.023997716044379027)","(-0.9953040509812058, -0.09677103449881742, -0.0022831956617496516)",9.816200031500432e-05,4.408142317217029
73,Move,"(0.009800000000000001, 0.0, 0.0016)","(0.0, 0.01676912345316152, 0.0)","(0.0035471902551622147, 0.16065981190263243, 0.047934286639207645)","(-0.0029721886572840455, 0.002094684924884056, 0.07395506418189388)","[-0.00645163634355995, 0.000632069380702982, 0.0003837276249900115]","[-0.026750000193715096, 0.05299999937415123, 0.03999999910593033]","[0.0, -0.0, 0.5028634349028417]","[-0.06144942715764046, 0.11608684062957764, 0.03999999910593033]","[0.0, 0.0, -0.31920907835099754]","[0.026750000193715096, 0.05299999937415123, 0.03999999910593033]","[0.0, 0.0, -0.5480310975876451]","[0.06426255404949188, 0.11445574462413788, 0.03999999910593033]","[0.0, -0.0, 0.27383214644004433]",0.5001213447588115,-0.658106582198354,"(0.0, 0.0, 0.0, 0.0, 0.0, 0.0)",-2.020612137361188,-0.82126959187758,0.19270367850281758,"(0.0, 0.0, 0.0, 0.0, 0.0, 0.0)",-1.0188087177732505,-0.5508255915683031,-0.6706749551288085,"(0.0, 0.0, 0.0, 0.0, 0.0, 0.0)",1.2433010987036863,0.8213080990580451,-0.13323209383012868,"(0.0, 0.0, 0.0, 0.0, 0.0, 0.0)",0.6618764600727955,True,"(-0.027277658739920566, 0.18215530213869935, 0.023997232418479845)","(0.997179259293296, 0.0750057959404799, -0.0027668412691122563)",-0.0027615461895851984,14.118655930226138,True,"(0.03314087068937457, 0.18153171056567774, 0.023997716044379027)","(-0.9953040509812058, -0.09677103449881742, -0.0022831956617496516)",8.882045600540032e-05,5.470203242067304
74,Move,"(0.0128, 0.0, 0.0023)","(0.0, 0.029272662214448894, 0.0)","(0.003983012063077139, 0.1606264213854655, 0.04794437054595853)","(-0.0024218307061043723, 0.0015927829376987648, 0.0726203942697486)","[-0.006015814535645025, 0.0005986788635360674, 0.0003938115317408952]","[-0.026750000193715096, 0.05299999937415123, 0.03999999910593033]","[0.0, -0.0, 0.5001213568925611]","[-0.061276305466890335, 0.11618175357580185, 0.03999999910593033]","[0.0, 0.0, -0.3211482744267381]","[0.026750000193715096, 0.05299999937415123, 0.03999999910593033]","[0.0, 0.0, -0.5508256555742664]","[0.06443414092063904, 0.11435067653656006, 0.03999999910593033]","[0.0, -0.0, 0.2704825430619774]",0.496906190472647,-0.7716370286794938,"(0.0, 0.0, 0.0, 0.0, 0.0, 0.0)",-2.04049166794368,-0.8204394504239999,0.1992339488592043,"(0.0, 0.0, 0.0, 0.0, 0.0, 0.0)",-1.0424427812991455,-0.5540718732644345,-0.7791076070715397,"(0.0, 0.0, 0.0, 0.0, 0.0, 0.0)",1.2462133705494867,0.820759602860601,-0.13163908738658417,"(0.0, 0.0, 0.0, 0.0, 0.0, 0.0)",0.6450856938865475,True,"(-0.026976541619048708, 0.18218464072204635, 0.02399790457212934)","(0.9972643825673717, 0.07388750614279577, -0.0020946833930748344)",-0.0026373245382805507,14.087605520753328,True,"(0.033537313462208965, 0.18153051179933455, 0.023997716044379027)","(-0.9953040509812058, -0.09677103449881742, -0.0022831956617496516)",6.419158368088899e-05,7.122393260741466
75,Move,"(0.0143, 0.0, 0.0024)","(0.0, 0.04689525167183564, 0.0)","(0.00446463051856571, 0.1605879690829715, 0.04795346457182761)","(-0.0015847812092387341, 0.00135702895953921, 0.07055243330040649)","[-0.005534196080156454, 0.0005602265610420432, 0.0004029055576099741]","[-0.026750000193715096, 0.05299999937415123, 0.03999999910593033]","[0.0, -0.0, 0.4969061990025474]","[-0.06107299029827118, 0.11629243940114975, 0.03999999910593033]","[0.0, 0.0, -0.3235332880198444]","[0.026750000193715096, 0.05299999937415123, 0.03999999910593033]","[0.0, 0.0, -0.5540718892061669]","[0.06463310867547989, 0.1142280176281929, 0.03999999910593033]","[0.0, -0.0, 0.2666877386750356]",0.4931572604945334,-0.8997431947472628,"(0.0, 0.0, 0.0, 0.0, 0.0, 0.0)",-2.0686322252200444,-0.8195967407596482,0.2022503194444194,"(0.0, 0.0, 0.0, 0.0, 0.0, 0.0)",-1.0507023927103039,-0.5578031037633944,-0.8954953197503606,"(0.0, 0.0, 0.0, 0.0, 0.0, 0.0)",1.2557636137643717,0.8202054806032941,-0.13298934175364024,"(0.0, 0.0, 0.0, 0.0, 0.0, 0.0)",0.6415296050129564,True,"(-0.026615979134776188, 0.18221437602677953, 0.023998406465646435)","(0.9973630326683901, 0.07255648910449472, -0.0015927822642281871)",-0.002523184340767697,14.138472676063667,True,"(0.03399143053162104, 0.18152461802272038, 0.023997716044379027)","(-0.9953040509812058, -0.09677103449881742, -0.0022831956617496516)",4.892245381028476e-05,8.021313710012901
76,Move,"(0.0162, 0.0, 0.0033)","(0.0, 0.06007597818289681, 0.0)","(0.004956649536818728, 0.1605474425495643, 0.04796157480532666)","(-0.0006992602390017429, 0.0011904653809772512, 0.06827557020364101)","[-0.0050421770619034365, 0.0005197000276348507, 0.0004110157911090262]","[-0.026750000193715096, 0.05299999937415123, 0.03999999910593033]","[0.0, -0.0, 0.49315727653452873]","[-0.060835469514131546, 0.11642066389322281, 0.03999999910593033]","[0.0, 0.0, -0.3264395083891634]","[0.026750000193715096, 0.05299999937415123, 0.03999999910593033]","[0.0, 0.0, -0.5578031090403129]","[0.06486129760742188, 0.11408624053001404, 0.03999999910593033]","[0.0, -0.0, 0.2624023862866052]",0.4892352704329073,-0.9412776147902577,"(0.0, 0.0, 0.0, 0.0, 0.0, 0.0)",-1.9432060725685119,-0.8187480283419765,0.20369098024121193,"(0.0, 0.0, 0.0, 0.0, 0.0, 0.0)",-1.0438036428208708,-0.5616611051971927,-0.9259203441116011,"(0.0, 0.0, 0.0, 0.0, 0.0, 0.0)",1.4136777657256365,0.8196474028392848,-0.1339386633622207,"(0.0, 0.0, 0.0, 0.0, 0.0, 0.0)",0.6624237954196648,True,"(-0.0261870800814615, 0.18224302374589876, 0.02399864221745893)","(0.9975112908066847, 0.07049385211999121, -0.0013570285430386329)",-0.002420628288515209,14.12729247343788,True,"(0.03450829228688833, 0.1815135336020357, 0.023997716044379027)","(-0.9953040509812058, -0.09677103449881742, -0.0022831956617496516)",4.369434748231141e-05,8.195557110449942
77,Move,"(0.0181, 0.0, 0.0054)","(0.0, 0.06476916854150959, 0.0)","(0.005474918549565513, 0.16050126023433217, 0.0479704129526462)","(0.00013900156466089902, 0.0010332669331073337, 0.06570194867653917)","[-0.004523908049156651, 0.0004735177124027268, 0.0004198539384285688]","[-0.026750000193715096, 0.05299999937415123, 0.03999999910593033]","[0.0, -0.0, 0.48923523654699336]","[-0.06058647111058235, 0.11655385792255402, 0.03999999910593033]","[0.0, 0.0, -0.329512724040589]","[0.026750000193715096, 0.05299999937415123, 0.03999999910593033]","[0.0, 0.0, -0.5616611142335677]","[0.06509668380022049, 0.11393875628709793, 0.03999999910593033]","[0.0, -0.0, 0.25798629957272223]",0.48500959587493164,-1.0141618939141621,"(0.0, 0.0, 0.0, 0.0, 0.0, 0.0)",-1.9844102895834734,-0.8178997936056008,0.20357633673015857,"(0.0, 0.0, 0.0, 0.0, 0.0, 0.0)",-1.0484879873426005,-0.5657641498836105,-0.9847307247402622,"(0.0, 0.0, 0.0, 0.0, 0.0, 0.0)",1.3731645003466821,0.8190894057374317,-0.13391930444474692,"(0.0, 0.0, 0.0, 0.0, 0.0, 0.0)",0.6586357686915191,True,"(-0.025736010717494262, 0.18227021830179702, 0.023998808779644765)","(0.997669421583173, 0.06822248918606826, -0.001190465099787411)",-0.00232638016357121,14.063469241434335,True,"(0.03504173814422712, 0.18149942928320334, 0.023997716044379027)","(-0.9953040509812058, -0.09677103449881742, -0.0022831956617496516)",4.251371813192459e-05,8.174339101580642
78,Move,"(0.02, 0.0, 0.0074)","(0.0, 0.0695007561436662, 0.0)","(0.006010016764825134, 0.16048686076138902, 0.048018074477289265)","(-0.00012397310386302093, 0.0010932071877813774, 0.062455317912193345)","[-0.003988809833897031, 0.00045911823945957164, 0.00046751546307163133]","[-0.026750000193715096, 0.05299999937415123, 0.03999999910593033]","[0.0, -0.0, 0.48500958303761144]","[-0.06031761318445206, 0.11669627577066422, 0.03999999910593033]","[0.0, 0.0, -0.33289025380137777]","[0.026750000193715096, 0.05299999937415123, 0.03999999910593033]","[0.0, 0.0, -0.5657642205659175]","[0.06534639745950699, 0.1137809008359909, 0.03999999910593033]","[0.0, -0.0, 0.253325264945191]",0.4804781736717309,-1.08754132876818,"(0.0, 0.0, 0.0, 0.0, 0.0, 0.0)",-2.010608979295518,-0.817052345864084,0.20338745796403065,"(0.0, 0.0, 0.0, 0.0, 0.0, 0.0)",-1.0399285703227048,-0.5701230325823693,-1.046131847702127,"(0.0, 0.0, 0.0, 0.0, 0.0, 0.0)",1.3749097325643072,0.8185185205580432,-0.1370124430532351,"(0.0, 0.0, 0.0, 0.0, 0.0, 0.0)",0.6637000972649644,True,"(-0.025245449915554316, 0.1822953545648952, 0.02399896597687581)","(0.997841870618901, 0.06565465405892618, -0.0010332667492479657)",-0.0022385827833992845,14.52427282931828,True,"(0.03560667755749395, 0.1814809315809195, 0.023997716044379027)","(-0.9953040509812058, -0.09677103449881742, -0.0022831956617496516)",4.1777477291582894e-05,7.586439085305852
79,Move,"(0.0228, 0.0, 0.0083)","(0.0, 0.056189129938705444, 0.0)","(0.006575879655854145, 0.1604657024783705, 0.04805984157704672)","(-0.00037200918765424, 0.0010271540569320484, 0.05911697273241863)","[-0.0034229469428680194, 0.000437959956441053, 0.0005092825628290887]","[-0.026750000193715096, 0.05299999937415123, 0.03999999910593033]","[0.0, -0.0, 0.48047815482941125]","[-0.06002863496541977, 0.11684773117303848, 0.03999999910593033]","[0.0, 0.0, -0.3365742056738988]","[0.026750000193715096, 0.05299999937415123, 0.03999999910593033]","[0.0, 0.0, -0.5701230519839756]","[0.06561096757650375, 0.1136120930314064, 0.03999999910593033]","[0.0, -0.0, 0.24839551847003877]",0.4756435792648895,-1.1603026576419362,"(0.0, 0.0, 0.0, 0.0, 0.0, 0.0)",-2.012949171331799,-0.816194577185368,0.20586448289184112,"(0.0, 0.0, 0.0, 0.0, 0.0, 0.0)",-1.0575253133814269,-0.5747244552118123,-1.104341431066298,"(0.0, 0.0, 0.0, 0.0, 0.0, 0.0)",1.4006761995545642,0.8179451639898849,-0.13760557635797988,"(0.0, 0.0, 0.0, 0.0, 0.0, 0.0)",0.6752470801293055,True,"(-0.024715072025919348, 0.18231759579744694, 0.02399890603707762)","(0.9980497041306533, 0.06241468563756349, -0.0010932069700321251)",-0.002160650705719387,14.378321179372135,True,"(0.03620535233238675, 0.18145790421017322, 0.023997716044379027)","(-0.9953040509812058, -0.09677103449881742, -0.0022831956617496516)",4.8706998217943164e-05,7.090383361279554
80,Move,"(0.0254, 0.0, 0.0083)","(0.0, 0.04296127953784044, 0.0)","(0.007198099720705509, 0.1604224304541958, 0.04809614509232583)","(-0.0005895656529497477, 0.0007909413870110303, 0.055458795428007406)","[-0.002800726878016656, 0.0003946879322663521, 0.0005455860781081942]","[-0.026750000193715096, 0.05299999937415123, 0.03999999910593033]","[0.0, -0.0, 0.4756435805040497]","[-0.059719569981098175, 0.11700787395238876, 0.03999999910593033]","[0.0, 0.0, -0.3405510242967864]","[0.026750000193715096, 0.05299999937415123, 0.03999999910593033]","[0.0, 0.0, -0.5747244593448771]","[0.06588945537805557, 0.1134326308965683, 0.03999999910593033]","[0.0, -0.0, 0.2432207041281981]",0.47028265239239386,-1.2866224493989462,"(0.0, 0.0, 0.0, 0.0, 0.0, 0.0)",-2.0638404801386434,-0.8153440900697745,0.2041169077424433,"(0.0, 0.0, 0.0, 0.0, 0.0, 0.0)",-1.0601918982368463,-0.5797999579709575,-1.2181206621948688,"(0.0, 0.0, 0.0, 0.0, 0.0, 0.0)",1.305409778416783,0.8173762578586331,-0.1365374715004418,"(0.0, 0.0, 0.0, 0.0, 0.0, 0.0)",0.6633719552785715,True,"(-0.02414596156939775, 0.18233742186675056, 0.02399897209129451)","(0.9982525740129652, 0.05908251375325345, -0.0010271538763172688)",-0.0020857933912500097,14.043576958373166,True,"(0.036835321045344184, 0.1814297059224654, 0.023997716044379027)","(-0.9953040509812058, -0.09677103449881742, -0.0022831956617496516)",5.2094858118542444e-05,6.780441861767141
81,Move,"(0.027100000000000003, 0.0, 0.008)","(0.0, 0.04296127953784044, 0.0)","(0.007867240183301236, 0.16034859599717985, 0.04812200263603636)","(-0.0005976755968328023, 0.0004658769031873884, 0.05157175414210757)","[-0.002131586415420928, 0.0003208534752504044, 0.0005714436218187263]","[-0.026750000193715096, 0.05299999937415123, 0.03999999910593033]","[0.0, -0.0, 0.4702826892405036]","[-0.059375956654548645, 0.11718370020389557, 0.03999999910593033]","[0.0, 0.0, -0.3450614687965543]","[0.026750000193715096, 0.05299999937415123, 0.03999999910593033]","[0.0, 0.0, -0.5797999986652241]","[0.06619567424058914, 0.11323320120573044, 0.03999999910593033]","[0.0, -0.0, 0.23757630051003822]",0.46446511471350616,-1.3962090429330438,"(0.0, 0.0, 0.0, 0.0, 0.0, 0.0)",-2.0374095217518446,-0.8144846332798722,0.20626962957655529,"(0.0, 0.0, 0.0, 0.0, 0.0, 0.0)",-1.0665657368084238,-0.5852693980734327,-1.3126656245940318,"(0.0, 0.0, 0.0, 0.0, 0.0, 0.0)",1.3590824081585513,0.8168002076571242,-0.13825204836212981,"(0.0, 0.0, 0.0, 0.0, 0.0, 0.0)",0.6757296274198598,True,"(-0.023508092448718113, 0.1823529830737623, 0.023999208302059632)","(0.9984622428093402, 0.0554303535618821, -0.0007909413045444758)",-0.0020127041423575577,13.909120889308811,True,"(0.03752580566144287, 0.1813931853433585, 0.023997716044379027)","(-0.9953040509812058, -0.09677103449881742, -0.0022831956617496516)",5.1749998458837285e-05,7.011601818467784
82,Move,"(0.028399999999999998, 0.0, 0.0086)","(0.0, 0.04296127953784044, 0.0)","(0.008556515922091366, 0.16024879659912722, 0.04814334183567072)","(-0.0005839621137298614, 6.988234200318729e-05, 0.0476030049796498)","[-0.0014423106766307987, 0.00022105407719777426, 0.0005927828214530861]","[-0.026750000193715096, 0.05299999937415123, 0.03999999910593033]","[0.0, -0.0, 0.46446506234598345]","[-0.05900201573967934, 0.11737241595983505, 0.03999999910593033]","[0.0, 0.0, -0.3500194972184824]","[0.026750000193715096, 0.05299999937415123, 0.03999999910593033]","[0.0, 0.0, -0.5852693653539323]","[0.06652452796697617, 0.11301656067371368, 0.03999999910593033]","[0.0, -0.0, 0.23153083663360655]",0.45842162252892266,-1.4504381243000422,"(0.0, 0.0, 0.0, 0.0, 0.0, 0.0)",-1.9734011408919612,-0.8136122421963583,0.2093738600433411,"(0.0, 0.0, 0.0, 0.0, 0.0, 0.0)",-1.0726015890011678,-0.5908981471369843,-1.3508997752523848,"(0.0, 0.0, 0.0, 0.0, 0.0, 0.0)",1.4837499507327037,0.8162118573569068,-0.14120407205217406,"(0.0, 0.0, 0.0, 0.0, 0.0, 0.0)",0.7019381056135076,True,"(-0.022811533415605094, 0.18236413223423348, 0.023999533363154434)","(0.9986703634230188, 0.05154889115453503, -0.00046587688634960883)",-0.0019451326985167956,13.984482674343196,True,"(0.038267237825557576, 0.1813486165444444, 0.023997716044379027)","(-0.9953040509812058, -0.09677103449881742, -0.0022831956617496516)",5.1806692497994405e-05,7.141284282143609
83,Move,"(0.0287, 0.0, 0.009300000000000001)","(0.0, 0.05152386484812462, 0.0)","(0.009257547682354412, 0.16012316112835503, 0.048161653111903076)","(-0.0005960577775946354, -0.00039891482655658137, 0.04361120691549295)","[-0.0007412789163677522, 9.541860642559019e-05, 0.0006110940976854426]","[-0.026750000193715096, 0.05299999937415123, 0.03999999910593033]","[0.0, -0.0, 0.4584216481570629]","[-0.0586123950779438, 0.11756615340709686, 0.03999999910593033]","[0.0, 0.0, -0.3551906046386999]","[0.026750000193715096, 0.05299999937415123, 0.03999999910593033]","[0.0, 0.0, -0.5908981140367457]","[0.06686171144247055, 0.11279172450304031, 0.03999999910593033]","[0.0, -0.0, 0.22531371554072618]",0.4522271159579398,-1.48668157703588,"(0.0, 0.0, 0.0, 0.0, 0.0, 0.0)",-1.9738730853846462,-0.812726834764881,0.21249778355457186,"(0.0, 0.0, 0.0, 0.0, 0.0, 0.0)",-1.0870798589573725,-0.5966105137453129,-1.3709679859988613,"(0.0, 0.0, 0.0, 0.0, 0.0, 0.0)",1.549312168138499,0.8156105177558244,-0.14432150425978618,"(0.0, 0.0, 0.0, 0.0, 0.0, 0.0)",0.7234176747532042,True,"(-0.022086375631332124, 0.18237105856607555, 0.023999929357698787)","(0.9988671884601563, 0.04758502846653229, -6.988234199575126e-05)",-0.0018831968272341624,14.14906886300515,True,"(0.03902979466813436, 0.18129814280039203, 0.023997716044379027)","(-0.9953040509812058, -0.09677103449881742, -0.0022831956617496516)",5.218817419595043e-05,7.238639887806461
84,Move,"(0.030100000000000002, 0.0, 0.010199999999999999)","(0.0, 0.05152386484812462, 0.0)","(0.009933491604901389, 0.1600284914153158, 0.04810454392892808)","(0.003170157865202977, -0.0004022521702303814, 0.038868489865731846)","[-6.53349938207759e-05, 7.488933863597502e-07, 0.0005539849147104467]","[-0.026750000193715096, 0.05299999937415123, 0.03999999910593033]","[0.0, -0.0, 0.4522271098227903]","[-0.058211829513311386, 0.11776228249073029, 0.03999999910593033]","[0.0, 0.0, -0.3604997065790095]","[0.026750000193715096, 0.05299999937415123, 0.03999999910593033]","[0.0, 0.0, -0.5966105888280823]","[0.0672026053071022, 0.11256162077188492, 0.03999999910593033]","[0.0, -0.0, 0.21899998429639045]",0.44612870314277975,-1.4636190756384049,"(0.0, 0.0, 0.0, 0.0, 0.0, 0.0)",-2.2806641961777467,-0.8116902208970584,0.2487873282774022,"(0.0, 0.0, 0.0, 0.0, 0.0, 0.0)",-1.2749582232118026,-0.6021968838645998,-1.340728828628835,"(0.0, 0.0, 0.0, 0.0, 0.0, 0.0)",1.9903502224608665,0.8148898600821698,-0.17295784167710807,"(0.0, 0.0, 0.0, 0.0, 0.0, 0.0)",0.8516051643691367,True,"(-0.021342272140917787, 0.1823723577007625, 0.023999929357698787)","(0.9988671884601563, 0.04758502846653229, -6.988234199575126e-05)",-0.0018266611608846856,14.368985694179969,True,"(0.03982503012848475, 0.18040403594412907, 0.0239996003252248)","(-0.9990491025388397, -0.04359738046383601, -0.0003989148159751138)",-2.4029776524326313e-05,15.580326954796126
85,Move,"(0.0319, 0.0, 0.0108)","(0.0, 0.04296127953784044, 0.0)","(0.010611897337836384, 0.15993924670393847, 0.04814916998919345)","(0.002959238068464045, -0.0002633780971954283, 0.03379195648883963)","[0.0006130707391142198, -8.84958179909745e-05, 0.0005986109749758148]","[-0.026750000193715096, 0.05299999937415123, 0.03999999910593033]","[0.0, -0.0, 0.44612871151445277]","[-0.05781630054116249, 0.11795294284820557, 0.03999999910593033]","[0.0, 0.0, -0.3655615121911598]","[0.026750000193715096, 0.05299999937415123, 0.03999999910593033]","[0.0, 0.0, -0.6021969311340177]","[0.06753470748662949, 0.112334705889225, 0.03999999910593033]","[0.0, -0.0, 0.2126929931182038]",0.4398214259411853,-1.5137465283826697,"(0.0, 0.0, 0.0, 0.0, 0.0, 0.0)",-2.5010269341950364,-0.8106499090646466,0.24967483977883706,"(0.0, 0.0, 0.0, 0.0, 0.0, 0.0)",-1.2905060102329495,-0.6079031733207803,-1.369509469483319,"(0.0, 0.0, 0.0, 0.0, 0.0, 0.0)",1.9245564849284578,0.8141668883647979,-0.1735132121692691,"(0.0, 0.0, 0.0, 0.0, 0.0, 0.0)",0.8622344782640594,True,"(-0.02062017293135967, 0.18237556626267198, 0.023999929357698787)","(0.9988671884601563, 0.04758502846653229, -6.988234199575126e-05)",-0.0017639252071778625,16.087635895705784,True,"(0.040585615691887525, 0.18034688198560472, 0.02399959698788139)","(-0.9992446345004534, -0.03885870063776518, -0.00040225215938465296)",-2.817957622803139e-05,15.448148628106226
86,Move,"(0.0339, 0.0, 0.0108)","(0.0, 0.02580120233223217, 0.0)","(0.011326019768539426, 0.1598527735404366, 0.04817827762685154)","(0.0019300738509044901, -0.0002331609022952968, 0.02845249361542445)","[0.0013271931698172618, -0.00017496898149285678, 0.0006277186126339082]","[-0.026750000193715096, 0.05299999937415123, 0.03999999910593033]","[0.0, -0.0, 0.4398214439276804]","[-0.05740600824356079, 0.1181475967168808, 0.03999999910593033]","[0.0, 0.0, -0.37082851163459507]","[0.026750000193715096, 0.05299999937415123, 0.03999999910593033]","[0.0, 0.0, -0.6079031875590162]","[0.06787262111902237, 0.1121010109782219, 0.03999999910593033]","[0.0, -0.0, 0.20626372238819668]",0.43321148740889753,-1.5863852477490639,"(0.0, 0.0, 0.0, 0.0, 0.0, 0.0)",-2.4307351328913365,-0.8096075752573808,0.2501601137438003,"(0.0, 0.0, 0.0, 0.0, 0.0, 0.0)",-1.277997077701498,-0.6138288613206796,-1.422165119975839,"(0.0, 0.0, 0.0, 0.0, 0.0, 0.0)",1.9775379057165634,0.8134128874457538,-0.180960220570581,"(0.0, 0.0, 0.0, 0.0, 0.0, 0.0)",0.8906681853357851,True,"(-0.019871087264929532, 0.182373413385681, 0.023999929357698787)","(0.9988671884601563, 0.04758502846653229, -6.988234199575126e-05)",-0.0017202537011027116,14.56622089309604,True,"(0.0413613975970886, 0.18028369180262485, 0.02399973586194663)","(-0.9994290715023508, -0.033785524532388866, -0.00026337809414661643)",-2.4068285534334235e-05,16.800036436220662
87,Move,"(0.0365, 0.0, 0.0108)","(0.0, 0.008604473212332044, 0.0)","(0.012066379184321116, 0.1597806521099374, 0.04820443713132983)","(0.0010044010357146802, -0.00019587551189179607, 0.02282900546566971)","[0.0020675525855989516, -0.00024709041199205695, 0.0006538781171121985]","[-0.026750000193715096, 0.05299999937415123, 0.03999999910593033]","[0.0, -0.0, 0.43321153396109546]","[-0.05697472020983696, 0.11834880709648132, 0.03999999910593033]","[0.0, 0.0, -0.3763960993491237]","[0.026750000193715096, 0.05299999937415123, 0.03999999910593033]","[0.0, 0.0, -0.6138289003321056]","[0.06822211295366287, 0.11185629665851593, 0.03999999910593033]","[0.0, -0.0, 0.19958403864338295]",0.4262566359280489,-1.6691643554036735,"(0.0, 0.0, 0.0, 0.0, 0.0, 0.0)",-2.5497372759687122,-0.8085115130210023,0.26305493673084096,"(0.0, 0.0, 0.0, 0.0, 0.0, 0.0)",-1.334758898041066,-0.6200049102705384,-1.4822517479661192,"(0.0, 0.0, 0.0, 0.0, 0.0, 0.0)",2.0683216416204226,0.812623162561376,-0.18953397225067897,"(0.0, 0.0, 0.0, 0.0, 0.0, 0.0)",0.9348906305640521,True,"(-0.019082798738127862, 0.18236464909009645, 0.023999929357698787)","(0.9988671884601563, 0.04758502846653229, -6.988234199575126e-05)",-0.0016702525924346277,14.985219591052054,True,"(0.0421669520865518, 0.18021320039092323, 0.023999766079140596)","(-0.999595227938549, -0.028448654071409854, -0.0002331609001826535)",-3.4962068885172396e-05,17.586087045724806
88,Move,"(0.037899999999999996, 0.0, 0.0111)","(0.0, 0.004461061568097505, 0.0)","(0.012846605261697048, 0.15972779679781574, 0.04822861780625963)","(0.00024291166342418, -0.00014473630047309437, 0.016779911257028626)","[0.002847778662974884, -0.00029994572411370934, 0.0006780587920419967]","[-0.026750000193715096, 0.05299999937415123, 0.03999999910593033]","[0.0, -0.0, 0.42625667953621527]","[-0.05651950091123581, 0.11855743080377579, 0.03999999910593033]","[0.0, 0.0, -0.38225488147203474]","[0.026750000193715096, 0.05299999937415123, 0.03999999910593033]","[0.0, 0.0, -0.6200048850571036]","[0.06858482211828232, 0.11159904301166534, 0.03999999910593033]","[0.0, -0.0, 0.19261824742182648]",0.41881734217477984,-1.7854305007845754,"(0.0, 0.0, 0.0, 0.0, 0.0, 0.0)",-2.7567982444896963,-0.8073433696306123,0.2803544136936245,"(0.0, 0.0, 0.0, 0.0, 0.0, 0.0)",-1.4215135537345152,-0.626531476940874,-1.5663760008805403,"(0.0, 0.0, 0.0, 0.0, 0.0, 0.0)",2.163366657821009,0.8117894218004684,-0.20009778261781552,"(0.0, 0.0, 0.0, 0.0, 0.0, 0.0)",0.9896511143577948,True,"(-0.018253177320599417, 0.18235017718848673, 0.023999929357698787)","(0.9988671884601563, 0.04758502846653229, -6.988234199575126e-05)",-0.0016269498883785829,15.67488105200638,True,"(0.043006474933019956, 0.18013443826190662, 0.02399980336453014)","(-0.9997394103930594, -0.022827022138740244, -0.00019587551063572904)",-4.509178243600728e-05,18.807862403037944
89,Move,"(0.0394, 0.0, 0.0114)","(0.0, 0.004461061568097505, 0.0)","(0.013634476273742653, 0.1597070537494092, 0.04825094652757735)","(-0.0003721250766806764, -7.286837949129401e-05, 0.01060083963075399)","[0.0036356496750204886, -0.00032068877252025563, 0.0007003875133597195]","[-0.026750000193715096, 0.05299999937415123, 0.03999999910593033]","[0.0, -0.0, 0.4188173407047004]","[-0.05603098124265671, 0.1187770813703537, 0.03999999910593033]","[0.0, 0.0, -0.38852604117059786]","[0.026750000193715096, 0.05299999937415123, 0.03999999910593033]","[0.0, 0.0, -0.6265315094279368]","[0.06896637380123138, 0.11132475733757019, 0.03999999910593033]","[0.0, -0.0, 0.18525795837267203]",0.4112228923127489,-1.822667966887433,"(0.0, 0.0, 0.0, 0.0, 0.0, 0.0)",-2.745786573719856,-0.8061181768376143,0.29404627031949027,"(0.0, 0.0, 0.0, 0.0, 0.0, 0.0)",-1.4677029009816818,-0.6331232508063697,-1.5820257277189678,"(0.0, 0.0, 0.0, 0.0, 0.0, 0.0)",2.3723906400294226,0.8109284123166598,-0.20664227611406782,"(0.0, 0.0, 0.0, 0.0, 0.0, 0.0)",1.0457384383632549,True,"(-0.017365358240098668, 0.18232859845048388, 0.023999929357698787)","(0.9988671884601563, 0.04758502846653229, -6.988234199575126e-05)",-0.0015897559886930213,15.960409287021575,True,"(0.04389318277842991, 0.18004524974418967, 0.023999854503740807)","(-0.9998592101195436, -0.01677912365190015, -0.0001447362999675932)",-5.739134932289974e-05,19.709799281920073
90,Move,"(0.043000000000000003, 0.0, 0.0117)","(0.0, 0.0044209189953016365, 0.0)","(0.01443431926047621, 0.15966896234900546, 0.04828222118479888)","(-0.0004584753795670013, 8.408089674308087e-05, 0.004445288513160904)","[0.004435492661754045, -0.0003587801729239837, 0.0007316621705812446]","[-0.026750000193715096, 0.05299999937415123, 0.03999999910593033]","[0.0, -0.0, 0.411222912222589]","[-0.0555306002497673, 0.11899755150079727, 0.03999999910593033]","[0.0, 0.0, -0.39489526085110416]","[0.026750000193715096, 0.05299999937415123, 0.03999999910593033]","[0.0, 0.0, -0.6331232253796214]","[0.06934992223978043, 0.11104521155357361, 0.03999999910593033]","[0.0, -0.0, 0.17780515776422082]",0.4034346034609139,-1.8691893244403948,"(0.0, 0.0, 0.0, 0.0, 0.0, 0.0)",-2.9925819183462545,-0.8048130405510296,0.313232708780321,"(0.0, 0.0, 0.0, 0.0, 0.0, 0.0)",-1.5937895088616816,-0.6398101373377766,-1.6048527675376547,"(0.0, 0.0, 0.0, 0.0, 0.0, 0.0)",2.450535906993002,0.810019456592566,-0.21814937378251634,"(0.0, 0.0, 0.0, 0.0, 0.0, 0.0)",1.0940520797485513,True,"(-0.016460988969524568, 0.18230151371331826, 0.023999929357698787)","(0.9988671884601563, 0.04758502846653229, -6.988234199575126e-05)",-0.001555927131593838,17.332113119863287,True,"(0.04478958963741297, 0.17994938501422353, 0.02399992637166135)","(-0.9999438089710071, -0.010600641053887614, -7.286837942911718e-05)",-7.082281475832075e-05,20.286972378435067
91,Move,"(0.0445, 0.0, 0.0115)","(0.0, 0.01301142957361773, 0.0)","(0.01528829837234099, 0.15958147923454524, 0.04832482336083324)","(-0.0004907075509459872, 0.00024388858189589518, -0.0018687665997994829)","[0.005289471773618826, -0.00044626328738420207, 0.0007742643466156079]","[-0.026750000193715096, 0.05299999937415123, 0.03999999910593033]","[0.0, -0.0, 0.40343466391901983]","[-0.055015724152326584, 0.11921969801187515, 0.03999999910593033]","[0.0, 0.0, -0.4013784309999572]","[0.026750000193715096, 0.05299999937415123, 0.03999999910593033]","[0.0, 0.0, -0.6398101274592338]","[0.06973710656166077, 0.11075905710458755, 0.03999999910593033]","[0.0, -0.0, 0.17020930335399084]",0.3949431410859164,-2.037950969999415,"(0.0, 0.0, 0.0, 0.0, 0.0, 0.0)",-3.7214680734002417,-0.8032214332467851,0.38198575301870463,"(0.0, 0.0, 0.0, 0.0, 0.0, 0.0)",-1.948519937474893,-0.6470156631376051,-1.7293261919588305,"(0.0, 0.0, 0.0, 0.0, 0.0, 0.0)",2.626304564191598,0.8089690849127188,-0.2520892031633453,"(0.0, 0.0, 0.0, 0.0, 0.0, 0.0)",1.226129819782771,True,"(-0.015536536874654311, 0.18227206870739981, 0.023999915159144132)","(0.9999901161865237, 0.004445273857211612, -8.408089665342377e-05)",-0.0015689588629154087,22.165320816530087,True,"(0.04570086479625056, 0.17984779541556778, 0.02399992637166135)","(-0.9999438089710071, -0.010600641053887614, -7.286837942911718e-05)",-7.821864216515706e-05,21.815006393981857
92,Move,"(0.0469, 0.0, 0.0107)","(0.0, 0.03446676206838401, 0.0)","(0.01615309176451692, 0.15944472610268726, 0.04828246351970108)","(0.002571998931840069, 0.00027502159066153273, -0.008420725117361859)","[0.0061542651657947554, -0.0005830164192421883, 0.0007319045054834453]","[-0.026750000193715096, 0.05299999937415123, 0.03999999910593033]","[0.0, -0.0, 0.3949430998641609]","[-0.05445241183042526, 0.11945732682943344, 0.03999999910593033]","[0.0, 0.0, -0.4082783251910713]","[0.026750000193715096, 0.05299999937415123, 0.03999999910593033]","[0.0, 0.0, -0.6470156475439683]","[0.0701521709561348, 0.11044781655073166, 0.03999999910593033]","[0.0, -0.0, 0.1619534292985643]",0.386318923330174,-2.069812261378177,"(0.0, 0.0, 0.0, 0.0, 0.0, 0.0)",-3.5790367289421345,-0.8016037528640811,0.3882432918489572,"(0.0, 0.0, 0.0, 0.0, 0.0, 0.0)",-1.9805630418281752,-0.654254001546818,-1.7372012182111,"(0.0, 0.0, 0.0, 0.0, 0.0, 0.0)",2.9994035944862536,0.8078687545159808,-0.2640792952171077,"(0.0, 0.0, 0.0, 0.0, 0.0, 0.0)",1.3311609790856995,True,"(-0.014539112261629905, 0.18223638218570634, 0.02399975535146132)","(0.9999982241154377, -0.0018687654565077243, -0.0002438885794618351)",-0.001573238338138274,22.20044865161413,True,"(0.04668713184847043, 0.17973263795114783, 0.02399992637166135)","(-0.9999438089710071, -0.010600641053887614, -7.286837942911718e-05)",-6.619909940596335e-05,23.283681069369205
