OSUrobotics/InHand-Manipulation/AnalyseData/Data/Trial Data/Tries/new_hand_human_sub1_2v2_d_n_1_kpNone_kdNone_dp1_step1_save_data.csv
,Phase,human_cube_pos,human_cube_orn,Cube_Pos,Cube_Orn,Cube_pos_in_start_pos,b'l_prox_pin'_link_pos,b'l_prox_pin'_link_orn,b'l_distal_pin'_link_pos,b'l_distal_pin'_link_orn,b'r_prox_pin'_link_pos,b'r_prox_pin'_link_orn,b'r_distal_pin'_link_pos,b'r_distal_pin'_link_orn,b'l_prox_pin'_joint_angle,b'l_prox_pin'_joint_vel,b'l_prox_pin'_joint_react_forces,b'l_prox_pin'_joint_motor_torque,b'l_distal_pin'_joint_angle,b'l_distal_pin'_joint_vel,b'l_distal_pin'_joint_react_forces,b'l_distal_pin'_joint_motor_torque,b'r_prox_pin'_joint_angle,b'r_prox_pin'_joint_vel,b'r_prox_pin'_joint_react_forces,b'r_prox_pin'_joint_motor_torque,b'r_distal_pin'_joint_angle,b'r_distal_pin'_joint_vel,b'r_distal_pin'_joint_react_forces,b'r_distal_pin'_joint_motor_torque,in_contact_l,contact_point_l_dist,contact_normal_l_dist,contact_distance_l_dist,contact_norm_force_l_dist,in_contact_r,contact_point_r_dist,contact_normal_r_dist,contact_distance_r_dist,contact_norm_force_r_dist
0,Open,,,,,,"[-0.026750000193715096, 0.05299999937415123, 0.03999999910593033]","[0.0, -0.0, 0.0]","[-0.026750000193715096, 0.125, 0.03999999910593033]","[0.0, -0.0, 0.0]","[0.026750000193715096, 0.05299999937415123, 0.03999999910593033]","[0.0, -0.0, 0.0]","[0.026750000193715096, 0.125, 0.03999999910593033]","[0.0, -0.0, 0.0]",0.0,0.0,"(0.0, 0.0, 0.0, 0.0, 0.0, 0.0)",1.3400621000080305e-17,5.883223478113402e-32,1.4119736347472167e-29,"(0.0, 0.0, 0.0, 0.0, 0.0, 0.0)",1.0542555313129702e-18,-0.008068665190486622,-1.9364796457167894,"(0.0, 0.0, 0.0, 0.0, 0.0, 0.0)",193.26378306879909,-0.0700246186727924,-16.805908481470176,"(0.0, 0.0, 0.0, 0.0, 0.0, 0.0)",71.94009191575694,False,,,,,False,,,,
1,Open,,,,,,"[-0.026750000193715096, 0.05299999937415123, 0.03999999910593033]","[0.0, -0.0, 0.0]","[-0.026750000193715096, 0.125, 0.03999999910593033]","[0.0, -0.0, 5.883223447970011e-32]","[0.026750000193715096, 0.05299999937415123, 0.03999999910593033]","[0.0, 0.0, -0.008068665592501188]","[0.02733093686401844, 0.12499765306711197, 0.03999999910593033]","[0.0, 0.0, -0.0780932845685428]",0.157,37.68,"(0.0, 0.0, 0.0, 0.0, 0.0, 0.0)",54.702693795169004,5.294901130302062e-32,-1.4119736347472162e-30,"(0.0, 0.0, 0.0, 0.0, 0.0, 0.0)",3.9113724975844915,-0.1670280316324969,-38.150247946082466,"(0.0, 0.0, 0.0, 0.0, 0.0, 0.0)",-25.93345404555236,-0.0659493391739072,0.9780670797324476,"(0.0, 0.0, 0.0, 0.0, 0.0, 0.0)",-6.754749483880455,False,,,,,False,,,,
2,Open,,,,,,"[-0.026750000193715096, 0.05299999937415123, 0.03999999910593033]","[0.0, -0.0, 0.1569999988554567]","[-0.03800761699676514, 0.12411445379257202, 0.03999999910593033]","[0.0, -0.0, 0.1569999988554567]","[0.026750000193715096, 0.05299999937415123, 0.03999999910593033]","[0.0, 0.0, -0.16702801712980753]","[0.038720179349184036, 0.1239979937672615, 0.03999999910593033]","[0.0, 0.0, -0.23297739431320727]",0.29829999999999995,33.91199999999999,"(0.0, 0.0, 0.0, 0.0, 0.0, 0.0)",-5.390828189440958,5.294901130302062e-32,0.0,"(0.0, 0.0, 0.0, 0.0, 0.0, 0.0)",-0.3659219356209609,-0.3122944613104081,-34.863943122698686,"(0.0, 0.0, 0.0, 0.0, 0.0, 0.0)",95.8006544774165,-0.06705867534034729,-0.2662406799456205,"(0.0, 0.0, 0.0, 0.0, 0.0, 0.0)",9.049911776264722,False,,,,,False,,,,
3,Open,,,,,,"[-0.026750000193715096, 0.05299999937415123, 0.03999999910593033]","[0.0, -0.0, 0.29830000998707634]","[-0.04791048914194107, 0.12182030081748962, 0.03999999910593033]","[0.0, -0.0, 0.29830000998707634]","[0.026750000193715096, 0.05299999937415123, 0.03999999910593033]","[0.0, 0.0, -0.3122944642903269]","[0.048871491104364395, 0.12151744216680527, 0.03999999910593033]","[0.0, 0.0, -0.3793531994353912]",0.42546999999999996,30.5208,"(0.0, 0.0, 0.0, 0.0, 0.0, 0.0)",-4.858074537215091,5.294901130302062e-32,0.0,"(0.0, 0.0, 0.0, 0.0, 0.0, 0.0)",-0.33154044974508506,-0.44292449566296654,-31.35120824461403,"(0.0, 0.0, 0.0, 0.0, 0.0, 0.0)",100.88457241511576,-0.08373770380977785,-4.0029668326633345,"(0.0, 0.0, 0.0, 0.0, 0.0, 0.0)",24.077304806401806,False,,,,,False,,,,
4,Open,,,,,,"[-0.026750000193715096, 0.05299999937415123, 0.03999999910593033]","[0.0, -0.0, 0.4254700097131474]","[-0.056467924267053604, 0.11858082562685013, 0.03999999910593033]","[0.0, -0.0, 0.4254700097131474]","[0.026750000193715096, 0.05299999937415123, 0.03999999910593033]","[0.0, 0.0, -0.4429245237535421]","[0.057608019560575485, 0.1180521547794342, 0.03999999910593033]","[0.0, 0.0, -0.5266622746639338]",0.5399229999999999,27.46872,"(0.0, 0.0, 0.0, 0.0, 0.0, 0.0)",-4.377393708535371,5.294901130302062e-32,0.0,"(0.0, 0.0, 0.0, 0.0, 0.0, 0.0)",-0.30017707799641646,-0.5623038734984663,-28.651050680519948,"(0.0, 0.0, 0.0, 0.0, 0.0, 0.0)",144.45470973647488,-0.10456727132876567,-4.999096204557077,"(0.0, 0.0, 0.0, 0.0, 0.0, 0.0)",33.97911746732963,False,,,,,False,,,,
5,Open,,,,,,"[-0.026750000193715096, 0.05299999937415123, 0.03999999910593033]","[0.0, -0.0, 0.5399230359738098]","[-0.06376303732395172, 0.11475787311792374, 0.03999999910593033]","[0.0, -0.0, 0.5399230359738098]","[0.026750000193715096, 0.05299999937415123, 0.03999999910593033]","[0.0, 0.0, -0.5623038790270362]","[0.06513584405183792, 0.11391409486532211, 0.03999999910593033]","[0.0, 0.0, -0.6668711870723439]",0.6429307,24.721848,"(0.0, 0.0, 0.0, 0.0, 0.0, 0.0)",-3.943806903965684,5.294901130302062e-32,0.0,"(0.0, 0.0, 0.0, 0.0, 0.0, 0.0)",-0.2716098155097054,-0.6673401099248648,-25.208696742335626,"(0.0, 0.0, 0.0, 0.0, 0.0, 0.0)",94.97739775913854,-0.11755295807544866,-3.116564819203918,"(0.0, 0.0, 0.0, 0.0, 0.0, 0.0)",25.79194570087013,False,,,,,False,,,,
6,Open,,,,,,"[-0.026750000193715096, 0.05299999937415123, 0.03999999910593033]","[0.0, -0.0, 0.6429307111289271]","[-0.06991713494062424, 0.11062463372945786, 0.03999999910593033]","[0.0, -0.0, 0.6429307111289271]","[0.026750000193715096, 0.05299999937415123, 0.03999999910593033]","[0.0, 0.0, -0.6673401753977319]","[0.07131072133779526, 0.10955388844013214, 0.03999999910593033]","[0.0, 0.0, -0.7848931559948581]",0.73563763,22.249663200000004,"(0.0, 0.0, 0.0, 0.0, 0.0, 0.0)",-3.552789792259023,5.294901130302062e-32,0.0,"(0.0, 0.0, 0.0, 0.0, 0.0, 0.0)",-0.24562369466220793,-0.7579917869736262,-21.756402491702737,"(0.0, 0.0, 0.0, 0.0, 0.0, 0.0)",34.46450837185191,-0.10794166402774508,2.3067105714488583,"(0.0, 0.0, 0.0, 0.0, 0.0, 0.0)",8.765009015475858,False,,,,,False,,,,
7,Open,,,,,,"[-0.026750000193715096, 0.05299999937415123, 0.03999999910593033]","[0.0, -0.0, 0.7356376306875043]","[-0.07506632059812546, 0.10638101398944855, 0.03999999910593033]","[0.0, -0.0, 0.7356376306875043]","[0.026750000193715096, 0.05299999937415123, 0.03999999910593033]","[0.0, 0.0, -0.757991847340814]","[0.076247438788414, 0.10528770089149475, 0.03999999910593033]","[0.0, 0.0, -0.8659334873334429]",0.8190738670000001,20.024696880000004,"(0.0, 0.0, 0.0, 0.0, 0.0, 0.0)",-3.2002295086701533,2.3293280891773424e-07,5.5903874140256216e-05,"(0.0, 0.0, 0.0, 0.0, 0.0, 0.0)",-0.22200715926400075,-0.8391926082762636,-19.488197112632974,"(0.0, 0.0, 0.0, 0.0, 0.0, 0.0)",3.295349739497939,-0.09714776835574307,2.590534961280482,"(0.0, 0.0, 0.0, 0.0, 0.0, 0.0)",0.25803221970863044,False,,,,,False,,,,
8,Open,,,,,,"[-0.026750000193715096, 0.05299999937415123, 0.03999999910593033]","[0.0, -0.0, 0.8190738875671263]","[-0.07934698462486267, 0.10216865688562393, 0.03999999910593033]","[0.0, -0.0, 0.8190741465287105]","[0.026750000193715096, 0.05299999937415123, 0.03999999910593033]","[0.0, 0.0, -0.839192558822362]","[0.08032548427581787, 0.10110059380531311, 0.03999999910593033]","[0.0, 0.0, -0.9363403253067936]",0.8941664803,18.022227192,"(0.0, 0.0, 0.0, 0.0, 0.0, 0.0)",-2.8824197251771095,4.2009445145371055e-07,4.4918794208634316e-05,"(0.0, 0.0, 0.0, 0.0, 0.0, 0.0)",-0.2005835928406654,-0.9122733474486373,-17.539377401369673,"(0.0, 0.0, 0.0, 0.0, 0.0, 0.0)",2.7804978356880783,-0.0874331700712747,2.33150358827241,"(0.0, 0.0, 0.0, 0.0, 0.0, 0.0)",0.17017621517521792,False,,,,,False,,,,
9,Open,,,,,,"[-0.026750000193715096, 0.05299999937415123, 0.03999999910593033]","[0.0, -0.0, 0.894166469119967]","[-0.08288749307394028, 0.09808415919542313, 0.03999999910593033]","[0.0, -0.0, 0.894166894674561]","[0.026750000193715096, 0.05299999937415123, 0.03999999910593033]","[0.0, 0.0, -0.9122733503889549]","[0.08369457721710205, 0.09706035256385803, 0.03999999910593033]","[0.0, 0.0, -0.9997066729229968]",0.96174983227,16.220004472800003,"(0.0, 0.0, 0.0, 0.0, 0.0, 0.0)",-2.5959652512206968,5.681494863714967e-07,3.553320838026869e-05,"(0.0, 0.0, 0.0, 0.0, 0.0, 0.0)",-0.18114955764248034,-0.9780460127037736,-15.785439661232708,"(0.0, 0.0, 0.0, 0.0, 0.0, 0.0)",2.503992476159733,-0.0786900142246732,2.098357403184359,"(0.0, 0.0, 0.0, 0.0, 0.0, 0.0)",0.15360133560797545,False,,,,,False,,,,
10,Open,,,,,,"[-0.026750000193715096, 0.05299999937415123, 0.03999999910593033]","[0.0, -0.0, 0.9617498658906226]","[-0.08580395579338074, 0.09419016540050507, 0.03999999910593033]","[0.0, -0.0, 0.9617504517765805]","[0.026750000193715096, 0.05299999937415123, 0.03999999910593033]","[0.0, 0.0, -0.9780460255881384]","[0.08646733313798904, 0.09322238713502884, 0.03999999910593033]","[0.0, 0.0, -1.0567360258914282]",1.022574849043,14.598004025520002,"(0.0, 0.0, 0.0, 0.0, 0.0, 0.0)",-2.337816594086846,6.829231533297027e-07,2.7545680069969436e-05,"(0.0, 0.0, 0.0, 0.0, 0.0, 0.0)",-0.16354029854134106,-1.0372414114333963,-14.206895695109438,"(0.0, 0.0, 0.0, 0.0, 0.0, 0.0)",2.2548456713339484,-0.07082115822448021,1.8885254400463192,"(0.0, 0.0, 0.0, 0.0, 0.0, 0.0)",0.13860128234430863,False,,,,,False,,,,
11,Open,,,,,,"[-0.026750000193715096, 0.05299999937415123, 0.03999999910593033]","[0.0, -0.0, 1.0225748785172661]","[-0.08819860219955444, 0.09052424877882004, 0.03999999910593033]","[0.0, -0.0, 1.0225755149967983]","[0.026750000193715096, 0.05299999937415123, 0.03999999910593033]","[0.0, 0.0, -1.037241417801626]","[0.08874232321977615, 0.08961901068687439, 0.03999999910593033]","[0.0, 0.0, -1.1080626941470386]",1.0773173641387,13.138203622968001,"(0.0, 0.0, 0.0, 0.0, 0.0, 0.0)",-2.105207702642618,7.694903593429899e-07,2.0776129443188934e-05,"(0.0, 0.0, 0.0, 0.0, 0.0, 0.0)",-0.14759587787833617,-1.0905172702900567,-12.78620612559849,"(0.0, 0.0, 0.0, 0.0, 0.0, 0.0)",2.0303755786213302,-0.06373917358809339,1.6996763127328351,"(0.0, 0.0, 0.0, 0.0, 0.0, 0.0)",0.1250328149112744,False,,,,,False,,,,
12,Open,,,,,,"[-0.026750000193715096, 0.05299999937415123, 0.03999999910593033]","[0.0, -0.0, 1.0773173786594632]","[-0.09015969932079315, 0.08710587024688721, 0.03999999910593033]","[0.0, -0.0, 1.0773182784199262]","[0.026750000193715096, 0.05299999937415123, 0.03999999910593033]","[0.0, 0.0, -1.090517334189526]","[0.09060435742139816, 0.0862659215927124, 0.03999999910593033]","[0.0, 0.0, -1.1542564269670996]",1.1265856277248298,11.824383260671203,"(0.0, 0.0, 0.0, 0.0, 0.0, 0.0)",-1.895636869852492,8.322629993378343e-07,1.5065433598762668e-05,"(0.0, 0.0, 0.0, 0.0, 0.0, 0.0)",-0.13316806895824274,-1.138465543261051,-11.50758551303864,"(0.0, 0.0, 0.0, 0.0, 0.0, 0.0)",1.828159741200242,-0.05736537454460671,1.5297117704368035,"(0.0, 0.0, 0.0, 0.0, 0.0, 0.0)",0.11276577482950233,False,,,,,False,,,,
13,Open,,,,,,"[-0.026750000193715096, 0.05299999937415123, 0.03999999910593033]","[0.0, -0.0, 1.126585512342968]","[-0.09176240861415863, 0.08394166082143784, 0.03999999910593033]","[0.0, -0.0, 1.1265864725026016]","[0.026750000193715096, 0.05299999937415123, 0.03999999910593033]","[0.0, 0.0, -1.13846552283997]","[0.09212540090084076, 0.08316715806722641, 0.03999999910593033]","[0.0, 0.0, -1.1958309904194953]",1.1709270649523469,10.641944934604087,"(0.0, 0.0, 0.0, 0.0, 0.0, 0.0)",-1.7068426281171958,8.750681698751778e-07,1.0273240928962424e-05,"(0.0, 0.0, 0.0, 0.0, 0.0, 0.0)",-0.12011999884119333,-1.181618988934946,-10.356826961734775,"(0.0, 0.0, 0.0, 0.0, 0.0, 0.0)",1.6460093571929852,-0.051628943774705546,1.376743384776279,"(0.0, 0.0, 0.0, 0.0, 0.0, 0.0)",0.10168054944364863,False,,,,,False,,,,
14,Open,,,,,,"[-0.026750000193715096, 0.05299999937415123, 0.03999999910593033]","[0.0, -0.0, 1.170927100750299]","[-0.09307006001472473, 0.08102945238351822, 0.03999999910593033]","[0.0, -0.0, 1.1709279927689973]","[0.026750000193715096, 0.05299999937415123, 0.03999999910593033]","[0.0, 0.0, -1.181618964677462]","[0.09336595237255096, 0.08031877130270004, 0.03999999910593033]","[0.0, 0.0, -1.233247876832181]",1.2108343584571122,9.577750441143678,"(0.0, 0.0, 0.0, 0.0, 0.0, 0.0)",-1.5367816122769582,9.012180617793662e-07,6.275974057005224e-06,"(0.0, 0.0, 0.0, 0.0, 0.0, 0.0)",-0.1083256720668905,-1.2204570900414513,-9.3211442655613,"(0.0, 0.0, 0.0, 0.0, 0.0, 0.0)",1.4819475463743526,-0.046466145575958295,1.239071567699341,"(0.0, 0.0, 0.0, 0.0, 0.0, 0.0)",0.09166748660725833,False,,,,,False,,,,
15,Open,,,,,,"[-0.026750000193715096, 0.05299999937415123, 0.03999999910593033]","[0.0, -0.0, 1.2108343955497323]","[-0.09413553774356842, 0.07836118340492249, 0.03999999910593033]","[0.0, -0.0, 1.210835255049739]","[0.026750000193715096, 0.05299999937415123, 0.03999999910593033]","[0.0, 0.0, -1.2204571829136446]","[0.09437645971775055, 0.07771158218383789, 0.03999999910593033]","[0.0, 0.0, -1.2669233179031547]",1.2467509226114009,8.619975397029307,"(0.0, 0.0, 0.0, 0.0, 0.0, 0.0)",-1.3836082777937824,9.135722823677317e-07,2.9650129412077397e-06,"(0.0, 0.0, 0.0, 0.0, 0.0, 0.0)",-0.09766941677677543,-1.2554113810373062,-8.38902983900517,"(0.0, 0.0, 0.0, 0.0, 0.0, 0.0)",1.334189480132575,-0.04181961771093252,1.1151666876061868,"(0.0, 0.0, 0.0, 0.0, 0.0, 0.0)",0.08262627878010878,False,,,,,False,,,,
16,Open,,,,,,"[-0.026750000193715096, 0.05299999937415123, 0.03999999910593033]","[0.0, -0.0, 1.2467510110527222]","[-0.09500277042388916, 0.07592508941888809, 0.03999999910593033]","[0.0, -0.0, 1.246751870145374]","[0.026750000193715096, 0.05299999937415123, 0.03999999910593033]","[0.0, 0.0, -1.255411348379259]","[0.09519875049591064, 0.0753331333398819, 0.03999999910593033]","[0.0, 0.0, -1.2972309672073006]",1.2790758303502607,7.757977857326381,"(0.0, 0.0, 0.0, 0.0, 0.0, 0.0)",-1.2456264712746363,2.1141758111398655e-06,0.0002881448469053121,"(0.0, 0.0, 0.0, 0.0, 0.0, 0.0)",-0.088015399348708,-1.2868702429335757,-7.5501268551046525,"(0.0, 0.0, 0.0, 0.0, 0.0, 0.0)",1.2010989712673745,-0.037638748630864464,1.0034085792163332,"(0.0, 0.0, 0.0, 0.0, 0.0, 0.0)",0.07444006052486639,False,,,,,False,,,,
17,Open,,,,,,"[-0.026750000193715096, 0.05299999937415123, 0.03999999910593033]","[0.0, -0.0, 1.2790758758817962]","[-0.09570803493261337, 0.0737072303891182, 0.03999999910593033]","[0.0, -0.0, 1.2790780932516201]","[0.026750000193715096, 0.05299999937415123, 0.03999999910593033]","[0.0, 0.0, -1.2868702529032277]","[0.0958673357963562, 0.07316911965608597, 0.03999999910593033]","[0.0, 0.0, -1.3245087793274308]",1.3081682532711112,6.982181501004109,"(0.0, 0.0, 0.0, 0.0, 0.0, 0.0)",-1.12145472366965,1.9027582300258812e-06,-5.0740219467356254e-05,"(0.0, 0.0, 0.0, 0.0, 0.0, 0.0)",-0.07939114715284208,-1.315183223212741,-6.795115266999686,"(0.0, 0.0, 0.0, 0.0, 0.0, 0.0)",1.0813262344929835,-0.033874873767778015,0.9033299671407473,"(0.0, 0.0, 0.0, 0.0, 0.0, 0.0)",0.06713055017345074,False,,,,,False,,,,
18,Open,,,,,,"[-0.026750000193715096, 0.05299999937415123, 0.03999999910593033]","[0.0, -0.0, 1.3081682459906412]","[-0.09628119319677353, 0.07169260084629059, 0.03999999910593033]","[0.0, -0.0, 1.3081702011658356]","[0.026750000193715096, 0.05299999937415123, 0.03999999910593033]","[0.0, 0.0, -1.3151833180210462]","[0.0964106097817421, 0.07120437920093536, 0.03999999910593033]","[0.0, 0.0, -1.349058153261439]",1.334351427944,6.283961921493333,"(0.0, 0.0, 0.0, 0.0, 0.0, 0.0)",-1.0095234585863413,2.7618377923566443e-06,0.00020617909495938315,"(0.0, 0.0, 0.0, 0.0, 0.0, 0.0)",-0.07148780084672787,-1.3406649008914668,-6.11560264289422,"(0.0, 0.0, 0.0, 0.0, 0.0, 0.0)",0.9733796231570812,-0.030488273507324658,0.8127840625088054,"(0.0, 0.0, 0.0, 0.0, 0.0, 0.0)",0.060435192896783604,False,,,,,False,,,,
19,Open,,,,,,"[-0.026750000193715096, 0.05299999937415123, 0.03999999910593033]","[0.0, -0.0, 1.334351465706577]","[-0.09674673527479172, 0.06986585259437561, 0.03999999910593033]","[0.0, -0.0, 1.33435435145599]","[0.026750000193715096, 0.05299999937415123, 0.03999999910593033]","[0.0, 0.0, -1.3406650641721125]","[0.09685182571411133, 0.06942359358072281, 0.03999999910593033]","[0.0, 0.0, -1.3711530696282732]",1.3579162851496,5.655565729344001,"(0.0, 0.0, 0.0, 0.0, 0.0, 0.0)",-0.9088150211252332,3.4316066113876724e-06,0.0001607445165674468,"(0.0, 0.0, 0.0, 0.0, 0.0, 0.0)",-0.06444344013525093,-1.3635984108023202,-5.504042378604797,"(0.0, 0.0, 0.0, 0.0, 0.0, 0.0)",0.8762522980402716,-0.02744024570882781,0.7315266716392431,"(0.0, 0.0, 0.0, 0.0, 0.0, 0.0)",0.05446985052483407,False,,,,,False,,,,
20,Open,,,,,,"[-0.026750000193715096, 0.05299999937415123, 0.03999999910593033]","[0.0, -0.0, 1.3579163939939654]","[-0.09712471067905426, 0.0682118609547615, 0.03999999910593033]","[0.0, -0.0, 1.3579197824809437]","[0.026750000193715096, 0.05299999937415123, 0.03999999910593033]","[0.0, 0.0, -1.3635984874387626]","[0.09721000492572784, 0.06781173497438431, 0.03999999910593033]","[0.0, 0.0, -1.3910385869420074]",1.37912465663464,5.090009156409601,"(0.0, 0.0, 0.0, 0.0, 0.0, 0.0)",-0.8181093185961676,3.940702417530038e-06,0.0001221829934741677,"(0.0, 0.0, 0.0, 0.0, 0.0, 0.0)",-0.05806034967263589,-1.3842385697220883,-4.953638140744317,"(0.0, 0.0, 0.0, 0.0, 0.0, 0.0)",0.7887791417834831,-0.024696941374704916,0.6583930401894944,"(0.0, 0.0, 0.0, 0.0, 0.0, 0.0)",0.04906644857689494,False,,,,,False,,,,
21,Open,,,,,,"[-0.026750000193715096, 0.05299999937415123, 0.03999999910593033]","[0.0, -0.0, 1.3791247702213432]","[-0.0974314734339714, 0.0667160153388977, 0.03999999910593033]","[0.0, -0.0, 1.3791284782568445]","[0.026750000193715096, 0.05299999937415123, 0.03999999910593033]","[0.0, 0.0, -1.3842387704807777]","[0.09750068932771683, 0.06635437905788422, 0.03999999910593033]","[0.0, 0.0, -1.408935619520831]",1.398212190971176,4.581008240768642,"(0.0, 0.0, 0.0, 0.0, 0.0, 0.0)",-0.7364407507487188,4.314390796743166e-06,8.968521101115077e-05,"(0.0, 0.0, 0.0, 0.0, 0.0, 0.0)",-0.05230389643117988,-1.4028147127498793,-4.458274326669883,"(0.0, 0.0, 0.0, 0.0, 0.0, 0.0)",0.7100243788118592,-0.02222789596809768,0.5925708975857369,"(0.0, 0.0, 0.0, 0.0, 0.0, 0.0)",0.04419507766734469,False,,,,,False,,,,
22,Open,,,,,,"[-0.026750000193715096, 0.05299999937415123, 0.03999999910593033]","[0.0, -0.0, 1.3982120672717784]","[-0.09768038988113403, 0.06536446511745453, 0.03999999910593033]","[0.0, -0.0, 1.3982164487645397]","[0.026750000193715096, 0.05299999937415123, 0.03999999910593033]","[0.0, 0.0, -1.4028147367436141]","[0.09773654490709305, 0.06503787636756897, 0.03999999910593033]","[0.0, 0.0, -1.4250426427007885]",1.4153909718740585,4.122907416691778,"(0.0, 0.0, 0.0, 0.0, 0.0, 0.0)",-0.6629119687698639,4.574523674952359e-06,6.243189077020624e-05,"(0.0, 0.0, 0.0, 0.0, 0.0, 0.0)",-0.04711364623212332,-1.4195332414748913,-4.012446894002898,"(0.0, 0.0, 0.0, 0.0, 0.0, 0.0)",0.6391216750959775,-0.02000569064819732,0.5333292767760867,"(0.0, 0.0, 0.0, 0.0, 0.0, 0.0)",0.039804123486470444,False,,,,,False,,,,
23,Open,,,,,,"[-0.026750000193715096, 0.05299999937415123, 0.03999999910593033]","[0.0, -0.0, 1.415391158105469]","[-0.09788231551647186, 0.06414420157670975, 0.03999999910593033]","[0.0, -0.0, 1.415395709317307]","[0.026750000193715096, 0.05299999937415123, 0.03999999910593033]","[0.0, 0.0, -1.419533200978404]","[0.09792786836624146, 0.06384945660829544, 0.03999999910593033]","[0.0, 0.0, -1.4395389386881268]",1.4308518746866525,3.7106166750225977,"(0.0, 0.0, 0.0, 0.0, 0.0, 0.0)",-0.5967141397561109,4.7399630338636504e-06,3.9705446138709865e-05,"(0.0, 0.0, 0.0, 0.0, 0.0, 0.0)",-0.042434775014060074,-1.4345799173274023,-3.611202204602609,"(0.0, 0.0, 0.0, 0.0, 0.0, 0.0)",0.5752902758042565,-0.018005647771851804,0.4800102903229233,"(0.0, 0.0, 0.0, 0.0, 0.0, 0.0)",0.0358468230863414,False,,,,,False,,,,
24,Open,,,,,,"[-0.026750000193715096, 0.05299999937415123, 0.03999999910593033]","[0.0, -0.0, 1.4308518944899675]","[-0.09804610908031464, 0.06304314732551575, 0.03999999910593033]","[0.0, -0.0, 1.4308566269594332]","[0.026750000193715096, 0.05299999937415123, 0.03999999910593033]","[0.0, 0.0, -1.4345798203875788]","[0.09808305650949478, 0.06277728080749512, 0.03999999910593033]","[0.0, 0.0, -1.4525855975984745]",1.4447666872179874,3.339555007520341,"(0.0, 0.0, 0.0, 0.0, 0.0, 0.0)",-0.5371183361845069,4.8269553674989e-06,2.0878160072459843e-05,"(0.0, 0.0, 0.0, 0.0, 0.0, 0.0)",-0.03821759960562203,-1.448121925594662,-3.2500819841423465,"(0.0, 0.0, 0.0, 0.0, 0.0, 0.0)",0.5178266556878065,-0.016205556838873442,0.4320218239148067,"(0.0, 0.0, 0.0, 0.0, 0.0, 0.0)",0.0322808466635012,False,,,,,False,,,,
25,Open,,,,,,"[-0.026750000193715096, 0.05299999937415123, 0.03999999910593033]","[0.0, -0.0, 1.4447668540021588]","[-0.09817895293235779, 0.06205013021826744, 0.03999999910593033]","[0.0, -0.0, 1.4447715863131299]","[0.026750000193715096, 0.05299999937415123, 0.03999999910593033]","[0.0, 0.0, -1.448121993206969]","[0.09820891171693802, 0.06181041896343231, 0.03999999910593033]","[0.0, 0.0, -1.46432761016298]",1.4572900184961886,3.005599506768304,"(0.0, 0.0, 0.0, 0.0, 0.0, 0.0)",-0.483467731204937,4.849462099751187e-06,5.401615740548756e-06,"(0.0, 0.0, 0.0, 0.0, 0.0, 0.0)",-0.03441712855198442,-1.4603097330351957,-2.925073785728113,"(0.0, 0.0, 0.0, 0.0, 0.0, 0.0)",0.4660969568661882,-0.014585427836986846,0.38883096045278315,"(0.0, 0.0, 0.0, 0.0, 0.0, 0.0)",0.029067900465992856,False,,,,,False,,,,
26,Open,,,,,,"[-0.026750000193715096, 0.05299999937415123, 0.03999999910593033]","[0.0, -0.0, 1.4572900807517244]","[-0.0982866883277893, 0.061154916882514954, 0.03999999910593033]","[0.0, -0.0, 1.4572948921008348]","[0.026750000193715096, 0.05299999937415123, 0.03999999910593033]","[0.0, 0.0, -1.4603097470714805]","[0.09831098467111588, 0.06093886122107506, 0.03999999910593033]","[0.0, 0.0, -1.4748951413427742]",1.4685610166465697,2.705039556091476,"(0.0, 0.0, 0.0, 0.0, 0.0, 0.0)",-0.43517053908893033,4.819450845044722e-06,-7.202701129551542e-06,"(0.0, 0.0, 0.0, 0.0, 0.0, 0.0)",-0.030992645518402973,-1.471278759731676,-2.632566407155304,"(0.0, 0.0, 0.0, 0.0, 0.0, 0.0)",0.4195301522878829,-0.013127269246907155,0.3499580616191257,"(0.0, 0.0, 0.0, 0.0, 0.0, 0.0)",0.02617336062226555,False,,,,,False,,,,
27,Open,,,,,,"[-0.026750000193715096, 0.05299999937415123, 0.03999999910593033]","[0.0, -0.0, 1.4685611215819594]","[-0.09837405383586884, 0.06034812703728676, 0.03999999910593033]","[0.0, -0.0, 1.468565853091142]","[0.026750000193715096, 0.05299999937415123, 0.03999999910593033]","[0.0, 0.0, -1.4712788457263521]","[0.0983937606215477, 0.06015344336628914, 0.03999999910593033]","[0.0, 0.0, -1.4844061039497418]",1.4787049149819127,2.434535600482329,"(0.0, 0.0, 0.0, 0.0, 0.0, 0.0)",-0.39169363303347604,4.747151892642784e-06,-1.7351748576465223e-05,"(0.0, 0.0, 0.0, 0.0, 0.0, 0.0)",-0.02790732436186781,-1.4811508837585086,-2.3693097664397755,"(0.0, 0.0, 0.0, 0.0, 0.0, 0.0)",0.37761186810531283,-0.011814888241968555,0.3149714411852639,"(0.0, 0.0, 0.0, 0.0, 0.0, 0.0)",0.023565936472848985,False,,,,,False,,,,
28,Open,,,,,,"[-0.026750000193715096, 0.05299999937415123, 0.03999999910593033]","[0.0, -0.0, 1.4787049625213984]","[-0.09844490885734558, 0.059621214866638184, 0.03999999910593033]","[0.0, -0.0, 1.4787095898811649]","[0.026750000193715096, 0.05299999937415123, 0.03999999910593033]","[0.0, 0.0, -1.4811508165812142]","[0.09846089035272598, 0.059445831924676895, 0.03999999910593033]","[0.0, 0.0, -1.492965762433775]",1.4878344234837215,2.191082040434097,"(0.0, 0.0, 0.0, 0.0, 0.0, 0.0)",-0.35255677801820895,4.641283838470101e-06,-2.5408333001444004e-05,"(0.0, 0.0, 0.0, 0.0, 0.0, 0.0)",-0.02512787460267613,-1.4900357953826577,-2.132378789795796,"(0.0, 0.0, 0.0, 0.0, 0.0, 0.0)",0.33987880377374147,-0.010633710863257649,0.2834825708906175,"(0.0, 0.0, 0.0, 0.0, 0.0, 0.0)",0.021217361806457186,False,,,,,False,,,,
29,Close,,,"(0.010000165031897679, 0.16000264050809818, 0.003919197399597577)","(-5.388791991209616e-05, 3.3679978815229247e-06, -9.074720008653711e-11)",,"[-0.026750000193715096, 0.05299999937415123, 0.03999999910593033]","[0.0, -0.0, 1.487834617901085]","[-0.09850236773490906, 0.05896640568971634, 0.03999999910593033]","[0.0, -0.0, 1.4878390921106803]","[0.026750000193715096, 0.05299999937415123, 0.03999999910593033]","[0.0, 0.0, -1.4900358577435544]","[0.09851532429456711, 0.05880843847990036, 0.03999999910593033]","[0.0, 0.0, -1.5006695807985118]",1.4960509811353493,1.9719738363906854,"(0.0, 0.0, 0.0, 0.0, 0.0, 0.0)",-0.3173274216127963,4.509251873886308e-06,-3.168767150011037e-05,"(0.0, 0.0, 0.0, 0.0, 0.0, 0.0)",-0.022624215793833224,-1.498032215844392,-1.9191409108162163,"(0.0, 0.0, 0.0, 0.0, 0.0, 0.0)",0.30591369390909257,-0.00957062017308593,0.2551417656412126,"(0.0, 0.0, 0.0, 0.0, 0.0, 0.0)",0.019102112305110365,False,,,,,False,,,,
30,Close,,,"(0.010000330010418335, 0.1600052801621647, 0.0076635160840755065)","(-0.00010776674212266888, 6.7354271463595154e-06, -3.629275205618536e-10)",,"[-0.026750000193715096, 0.05299999937415123, 0.03999999910593033]","[0.0, -0.0, 1.4960509653323988]","[-0.09854896366596222, 0.058376654982566833, 0.03999999910593033]","[0.0, -0.0, 1.4960555203126162]","[0.026750000193715096, 0.05299999937415123, 0.03999999910593033]","[0.0, 0.0, -1.4980320325532246]","[0.09855947643518448, 0.05823439359664917, 0.03999999910593033]","[0.0, 0.0, -1.5076028800413472]",1.4064458830218143,-21.505223547248388,"(0.0, 0.0, 0.0, 0.0, 0.0, 0.0)",-36.32500847077206,-0.08999559064729075,-21.600023975799512,"(0.0, 0.0, 0.0, 0.0, 0.0, 0.0)",-4.679136399120495,-1.4082289942599528,21.552773180265405,"(0.0, 0.0, 0.0, 0.0, 0.0, 0.0)",36.31473208701179,0.08138609105625041,21.82961069504072,"(0.0, 0.0, 0.0, 0.0, 0.0, 0.0)",4.675963213372079,False,,,,,False,,,,
31,Close,,,"(0.010000494936733278, 0.16000791898094055, 0.011233038807318392)","(-0.00016163646818851668, 1.0102287881965475e-05, -8.164490687548302e-10)",,"[-0.026750000193715096, 0.05299999937415123, 0.03999999910593033]","[0.0, -0.0, 1.4064459844712927]","[-0.0977797880768776, 0.06478003412485123, 0.03999999910593033]","[0.0, -0.0, 1.316450240076391]","[0.026750000193715096, 0.05299999937415123, 0.03999999910593033]","[0.0, 0.0, -1.4082291009672807]","[0.09780067950487137, 0.06465335935354233, 0.03999999910593033]","[0.0, 0.0, -1.3268428349863826]",1.325801294719633,-19.354701192523546,"(0.0, 0.0, 0.0, 0.0, 0.0, 0.0)",3.2936342521930255,-0.17099646652613912,-19.44021021092361,"(0.0, 0.0, 0.0, 0.0, 0.0, 0.0)",0.4145426679866387,-1.3274060948339577,19.39749586223887,"(0.0, 0.0, 0.0, 0.0, 0.0, 0.0)",-3.3024243844052092,0.16324791947241268,19.646838819878944,"(0.0, 0.0, 0.0, 0.0, 0.0, 0.0)",-0.41699994760359754,False,,,,,False,,,,
32,Close,,,"(0.010000659812012168, 0.16001055698314023, 0.0146278458391823)","(-0.0002154970996661642, 1.346858017578936e-05, -1.4512199879406586e-09)",,"[-0.026750000193715096, 0.05299999937415123, 0.03999999910593033]","[0.0, -0.0, 1.3258013857525741]","[-0.09659997373819351, 0.07046370953321457, 0.03999999910593033]","[0.0, -0.0, 1.1548048042561467]","[0.026750000193715096, 0.05299999937415123, 0.03999999910593033]","[0.0, 0.0, -1.3274060658778382]","[0.09662791341543198, 0.07035159319639206, 0.03999999910593033]","[0.0, 0.0, -1.1641581075845935]",1.2532211652476697,-17.41923107327119,"(0.0, 0.0, 0.0, 0.0, 0.0, 0.0)",2.9685258329366073,-0.24389721437960032,-17.496179484830687,"(0.0, 0.0, 0.0, 0.0, 0.0, 0.0)",0.3760018756193849,-1.2546654853505619,17.457746276014984,"(0.0, 0.0, 0.0, 0.0, 0.0, 0.0)",-2.976480273609718,0.2369235243908578,17.682145180426822,"(0.0, 0.0, 0.0, 0.0, 0.0, 0.0)",-0.3782508099482112,False,,,,,False,,,,
33,Close,,,"(0.010000824637423049, 0.16001319418745247, 0.017848014970055004)","(-0.00026934863811186216, 1.6834304115272585e-05, -2.2671484573282825e-09)",,"[-0.026750000193715096, 0.05299999937415123, 0.03999999910593033]","[0.0, -0.0, 1.2532212515508983]","[-0.09514966607093811, 0.07548300176858902, 0.03999999910593033]","[0.0, -0.0, 1.0093239867956962]","[0.026750000193715096, 0.05299999937415123, 0.03999999910593033]","[0.0, 0.0, -1.254665405963893]","[0.09518206864595413, 0.07538418471813202, 0.03999999910593033]","[0.0, 0.0, -1.0177419933055243]",1.1878990487229026,-15.677307965944074,"(0.0, 0.0, 0.0, 0.0, 0.0, 0.0)",2.675103284419244,-0.30950785045582774,-15.746552658294572,"(0.0, 0.0, 0.0, 0.0, 0.0, 0.0)",0.34074508229325023,-1.1891989368155058,15.711971648413485,"(0.0, 0.0, 0.0, 0.0, 0.0, 0.0)",-2.6822973218910153,0.30323153162132754,15.913921735312746,"(0.0, 0.0, 0.0, 0.0, 0.0, 0.0)",-0.34279935345822066,False,,,,,False,,,,
34,Close,,,"(0.010000989414132393, 0.1600158306125408, 0.020893621515273818)","(-0.00032319108508158773, 2.0199459787849396e-05, -3.2641426920478403e-09)",,"[-0.026750000193715096, 0.05299999937415123, 0.03999999910593033]","[0.0, -0.0, 1.1878990574339587]","[-0.09353619813919067, 0.07989988476037979, 0.03999999910593033]","[0.0, -0.0, 0.8783912846834516]","[0.026750000193715096, 0.05299999937415123, 0.03999999910593033]","[0.0, 0.0, -1.1891990098250689]","[0.09357111155986786, 0.07981304824352264, 0.03999999910593033]","[0.0, 0.0, -0.8859674697633095]",1.1291091438506125,-14.109577169349663,"(0.0, 0.0, 0.0, 0.0, 0.0, 0.0)",2.4103712722760626,-0.36855738916456426,-14.17188929009676,"(0.0, 0.0, 0.0, 0.0, 0.0, 0.0)",0.3085687115248564,-1.1302790431339553,14.140774483572143,"(0.0, 0.0, 0.0, 0.0, 0.0, 0.0)",-2.4168742890236286,0.36290870417903687,14.322521413850238,"(0.0, 0.0, 0.0, 0.0, 0.0, 0.0)",-0.31044204201279674,False,,,,,False,,,,
35,Close,,,"(0.010001154143305145, 0.16001846627704427, 0.023764738319401603)","(-0.00037702444213104407, 2.3564047280946926e-05, -4.4421109431381166e-09)",,"[-0.026750000193715096, 0.05299999937415123, 0.03999999910593033]","[0.0, -0.0, 1.1291090274464952]","[-0.09184028208255768, 0.08377750217914581, 0.03999999910593033]","[0.0, -0.0, 0.7605517150898052]","[0.026750000193715096, 0.05299999937415123, 0.03999999910593033]","[0.0, 0.0, -1.130279133319625]","[0.09187624603509903, 0.08370133489370346, 0.03999999910593033]","[0.0, 0.0, -0.7673703325611945]",1.0761982294655512,-12.698619452414698,"(0.0, 0.0, 0.0, 0.0, 0.0, 0.0)",2.1715845710489208,-0.42170194324014043,-12.754692978138287,"(0.0, 0.0, 0.0, 0.0, 0.0, 0.0)",0.27924932151422227,-1.07725113882056,12.72669703521493,"(0.0, 0.0, 0.0, 0.0, 0.0, 0.0)",-2.177460276301377,0.41661812854294633,12.890261847338277,"(0.0, 0.0, 0.0, 0.0, 0.0, 0.0)",-0.2809551529003472,False,,,,,False,,,,
36,Close,,,"(0.010001318826104761, 0.16002110119957821, 0.02646143576036139)","(-0.0004308487108156613, 2.692806668198511e-05, -5.800961497533997e-09)",,"[-0.026750000193715096, 0.05299999937415123, 0.03999999910593033]","[0.0, -0.0, 1.076198055145404]","[-0.09012148529291153, 0.08717681467533112, 0.03999999910593033]","[0.0, -0.0, 0.6544962762796218]","[0.026750000193715096, 0.05299999937415123, 0.03999999910593033]","[0.0, 0.0, -1.0772510781061955]","[0.09015743434429169, 0.08711007237434387, 0.03999999910593033]","[0.0, 0.0, -0.6606329452337051]",1.028578406518996,-11.428757507173229,"(0.0, 0.0, 0.0, 0.0, 0.0, 0.0)",1.9562489498726314,-0.46953201391559385,-11.479216962108818,"(0.0, 0.0, 0.0, 0.0, 0.0, 0.0)",0.2525697399559188,-1.0295260249385039,11.454027331693439,"(0.0, 0.0, 0.0, 0.0, 0.0, 0.0)",-1.961555706583625,0.46495658231577774,11.601228905479532,"(0.0, 0.0, 0.0, 0.0, 0.0, 0.0)",-0.25412105363877113,False,,,,,False,,,,
37,Close,,,"(0.010001483463693249, 0.1600237353987347, 0.0289837817534302)","(-0.0004846638926905951, 3.0291518078376737e-05, -7.3406026780539124e-09)",,"[-0.026750000193715096, 0.05299999937415123, 0.03999999910593033]","[0.0, -0.0, 1.028578444789276]","[-0.08842276781797409, 0.09015467017889023, 0.03999999910593033]","[0.0, -0.0, 0.5590464126725148]","[0.026750000193715096, 0.05299999937415123, 0.03999999910593033]","[0.0, 0.0, -1.029526007298545]","[0.08845794945955276, 0.09009620547294617, 0.03999999910593033]","[0.0, 0.0, -0.564569399435659]",0.9857205658670964,-10.285881756455906,"(0.0, 0.0, 0.0, 0.0, 0.0, 0.0)",1.7621005438122825,-0.5125790520819234,-10.331289159919107,"(0.0, 0.0, 0.0, 0.0, 0.0, 0.0)",0.22832149176550065,-0.9865734224446535,10.308624598524094,"(0.0, 0.0, 0.0, 0.0, 0.0, 0.0)",-1.766891708603882,0.508461165120635,10.441099873165749,"(0.0, 0.0, 0.0, 0.0, 0.0, 0.0)",-0.22973068702752517,False,,,,,False,,,,
38,Close,,,"(0.010001648057231211, 0.16002636889308344, 0.03133184175509247)","(-0.0005384699893107284, 3.3654401557527444e-05, -9.06094284338731e-09)",,"[-0.026750000193715096, 0.05299999937415123, 0.03999999910593033]","[0.0, -0.0, 0.9857205423734198]","[-0.08677425980567932, 0.09276290237903595, 0.03999999910593033]","[0.0, -0.0, 0.47314147483112123]","[0.026750000193715096, 0.05299999937415123, 0.03999999910593033]","[0.0, 0.0, -0.9865734261287252]","[0.08680814504623413, 0.09271169453859329, 0.03999999910593033]","[0.0, 0.0, -0.4781122693565934]",0.9471485092803869,-9.257293580810316,"(0.0, 0.0, 0.0, 0.0, 0.0, 0.0)",1.587086438141582,-0.5513213633331018,-9.29815470028281,"(0.0, 0.0, 0.0, 0.0, 0.0, 0.0)",0.206306403170868,-0.9479160802001881,9.277762138671687,"(0.0, 0.0, 0.0, 0.0, 0.0, 0.0)",-1.5914107042435905,0.5476152664096928,9.396984309373877,"(0.0, 0.0, 0.0, 0.0, 0.0, 0.0)",-0.2075852193448244,False,,,,,False,,,,
39,Close,,,"(0.01000181260787789, 0.16002900170117218, 0.03350567876675359)","(-0.00059226700223067, 3.7016717206835695e-05, -1.0961890388082131e-08)",,"[-0.026750000193715096, 0.05299999937415123, 0.03999999910593033]","[0.0, -0.0, 0.9471486716739237]","[-0.08519625663757324, 0.09504801034927368, 0.03999999910593033]","[0.0, -0.0, 0.39582717163487297]","[0.026750000193715096, 0.05299999937415123, 0.03999999910593033]","[0.0, 0.0, -0.9479160840165974]","[0.08522851020097733, 0.09500313550233841, 0.03999999910593033]","[0.0, 0.0, -0.4003008647547732]",0.9124336583523481,-8.331564222729286,"(0.0, 0.0, 0.0, 0.0, 0.0, 0.0)",1.4293465062267445,-0.5861894225076075,-8.368334201881392,"(0.0, 0.0, 0.0, 0.0, 0.0, 0.0)",0.18633757536892917,-0.9131244721801693,8.349985924804516,"(0.0, 0.0, 0.0, 0.0, 0.0, 0.0)",-1.433248242084051,0.5828539364930729,8.45728082001123,"(0.0, 0.0, 0.0, 0.0, 0.0, 0.0)",-0.18749704763631705,False,,,,,False,,,,
40,Close,,,"(0.010001977116791199, 0.1600316338415276, 0.035505353338314005)","(-0.0006460549330047555, 4.037846511369274e-05, -1.3043353742532214e-08)",,"[-0.026750000193715096, 0.05299999937415123, 0.03999999910593033]","[0.0, -0.0, 0.9124336635104583]","[-0.08370164036750793, 0.0970512256026268, 0.03999999910593033]","[0.0, -0.0, 0.3262442150321584]","[0.026750000193715096, 0.05299999937415123, 0.03999999910593033]","[0.0, 0.0, -0.9131245532476111]","[0.08373206108808517, 0.09701187163591385, 0.03999999910593033]","[0.0, 0.0, -0.3302705841133475]",0.8811902925171133,-7.498407800456356,"(0.0, 0.0, 0.0, 0.0, 0.0, 0.0)",1.2871965063691413,-0.6175706567763247,-7.531496224492115,"(0.0, 0.0, 0.0, 0.0, 0.0, 0.0)",0.16823988009592084,-0.8818120249621524,7.514987332324067,"(0.0, 0.0, 0.0, 0.0, 0.0, 0.0)",-1.2907160846573733,0.6145687204653795,7.61154815335357,"(0.0, 0.0, 0.0, 0.0, 0.0, 0.0)",-0.16929032064296096,False,,,,,False,,,,
41,Close,,,"(0.010002141585127773, 0.16003426533265583, 0.03733092357160428)","(-0.0006998337831870475, 4.3739645365482716e-05, -1.5305241372964883e-08)",,"[-0.026750000193715096, 0.05299999937415123, 0.03999999910593033]","[0.0, -0.0, 0.8811903688816151]","[-0.08229776471853256, 0.09880879521369934, 0.03999999910593033]","[0.0, -0.0, 0.2636196251065186]","[0.026750000193715096, 0.05299999937415123, 0.03999999910593033]","[0.0, 0.0, -0.8818121535754343]","[0.08232623338699341, 0.098774254322052, 0.03999999910593033]","[0.0, 0.0, -0.26724331826119446]",0.853071263265402,-6.7485670204107215,"(0.0, 0.0, 0.0, 0.0, 0.0, 0.0)",1.1591124175888132,-0.6458137504217961,-6.77834247491313,"(0.0, 0.0, 0.0, 0.0, 0.0, 0.0)",0.1518500972569631,-0.8536308224659371,6.763488599091658,"(0.0, 0.0, 0.0, 0.0, 0.0, 0.0)",-1.1622865309865396,0.643112008739745,6.850389185847702,"(0.0, 0.0, 0.0, 0.0, 0.0, 0.0)",-0.15280109527428076,False,,,,,False,,,,
42,Close,,,"(0.010002306014043007, 0.16003689619304312, 0.038982445123681576)","(-0.0007536035543313348, 4.7100258049582536e-05, -1.7747461781428295e-08)",,"[-0.026750000193715096, 0.05299999937415123, 0.03999999910593033]","[0.0, -0.0, 0.8530713239495782]","[-0.08098787814378738, 0.10035242885351181, 0.03999999910593033]","[0.0, -0.0, 0.2072574956851119]","[0.026750000193715096, 0.05299999937415123, 0.03999999910593033]","[0.0, 0.0, -0.8536307856313979]","[0.08101436495780945, 0.10032207518815994, 0.03999999910593033]","[0.0, 0.0, -0.21051882644475053]",0.8277641369388617,-6.073710318369648,"(0.0, 0.0, 0.0, 0.0, 0.0, 0.0)",1.043715976216214,-0.6712325191394197,-6.100504492229669,"(0.0, 0.0, 0.0, 0.0, 0.0, 0.0)",0.1370167890019201,-0.8282677402193435,6.0871397391824935,"(0.0, 0.0, 0.0, 0.0, 0.0, 0.0)",-1.0465779375227178,0.6688009525283538,6.165346509266115,"(0.0, 0.0, 0.0, 0.0, 0.0, 0.0)",-0.1378772244212715,False,,,,,False,,,,
43,Close,,,"(0.010002470404691093, 0.16003952644115657, 0.04045997120998789)","(-0.0008073642479911328, 5.0460303253361964e-05, -2.0369923505779015e-08)",,"[-0.026750000193715096, 0.05299999937415123, 0.03999999910593033]","[0.0, -0.0, 0.8277641182932235]","[-0.07977228611707687, 0.10170972347259521, 0.03999999910593033]","[0.0, -0.0, 0.1565316389415725]","[0.026750000193715096, 0.05299999937415123, 0.03999999910593033]","[0.0, 0.0, -0.8282677342123946]","[0.07979680597782135, 0.10168302059173584, 0.03999999910593033]","[0.0, 0.0, -0.1594667900835625]",0.8049877232449756,-5.4663392865326825,"(0.0, 0.0, 0.0, 0.0, 0.0, 0.0)",0.9397613626777375,-0.6941093969081942,-5.49045066450586,"(0.0, 0.0, 0.0, 0.0, 0.0, 0.0)",0.12359998406321729,-0.8054409661974091,5.478425765264244,"(0.0, 0.0, 0.0, 0.0, 0.0, 0.0)",-0.9423413878167864,0.6919209877745929,5.54880845909737,"(0.0, 0.0, 0.0, 0.0, 0.0, 0.0)",-0.12437805104754245,False,,,,,False,,,,
44,Close,,,"(0.010002634758225062, 0.1600421560954447, 0.041763552607370504)","(-0.000861115865719684, 5.381978106418352e-05, -2.3172535119669436e-08)",,"[-0.026750000193715096, 0.05299999937415123, 0.03999999910593033]","[0.0, -0.0, 0.8049877164750058]","[-0.07864919304847717, 0.10290464758872986, 0.03999999910593033]","[0.0, -0.0, 0.11087832859978779]","[0.026750000193715096, 0.05299999937415123, 0.03999999910593033]","[0.0, 0.0, -0.805440964305088]","[0.07867180556058884, 0.10288111865520477, 0.03999999910593033]","[0.0, 0.0, -0.11351997099607207]",0.784488950920478,-4.919705357879415,"(0.0, 0.0, 0.0, 0.0, 0.0, 0.0)",0.8461229797239068,-0.7146985741739192,-4.941402543774016,"(0.0, 0.0, 0.0, 0.0, 0.0, 0.0)",0.11147072977230046,-0.7848968695776682,4.93058318873782,"(0.0, 0.0, 0.0, 0.0, 0.0, 0.0)",-0.8484484528940599,0.7127290066915236,4.993924540063379,"(0.0, 0.0, 0.0, 0.0, 0.0, 0.0)",-0.1121739668696123,False,,,,,False,,,,
45,Close,,,"(0.010002799075796832, 0.16004478517433812, 0.04289323765696492)","(-0.0009148584090699577, 5.7178691569402595e-05, -2.615520523253533e-08)",,"[-0.026750000193715096, 0.05299999937415123, 0.03999999910593033]","[0.0, -0.0, 0.7844889896573499]","[-0.07761538028717041, 0.10395795851945877, 0.03999999910593033]","[0.0, -0.0, 0.06979037514545033]","[0.026750000193715096, 0.05299999937415123, 0.03999999910593033]","[0.0, 0.0, -0.7848969068252226]","[0.07763615995645523, 0.10393720120191574, 0.03999999910593033]","[0.0, 0.0, -0.07216786709232846]",0.7660400558284302,-4.427734822091471,"(0.0, 0.0, 0.0, 0.0, 0.0, 0.0)",0.7617842585328375,-0.7332288222135146,-4.44725952950288,"(0.0, 0.0, 0.0, 0.0, 0.0, 0.0)",0.10051055612556806,-0.7664071826199014,4.437524869864038,"(0.0, 0.0, 0.0, 0.0, 0.0, 0.0)",-0.7638799793048979,0.7314562121459494,4.494529309062177,"(0.0, 0.0, 0.0, 0.0, 0.0, 0.0)",-0.10114588070786824,False,,,,,False,,,,
46,Close,,,"(0.010002963358557236, 0.16004741369625017, 0.04384907226694074)","(-0.0009685918795946493, 6.053703485636736e-05, -2.9317842489583264e-08)",,"[-0.026750000193715096, 0.05299999937415123, 0.03999999910593033]","[0.0, -0.0, 0.7660400058439011]","[-0.07666666060686111, 0.10488764196634293, 0.03999999910593033]","[0.0, -0.0, 0.0328112365488731]","[0.026750000193715096, 0.05299999937415123, 0.03999999910593033]","[0.0, 0.0, -0.7664072421942376]","[0.07668570429086685, 0.1048693135380745, 0.03999999910593033]","[0.0, 0.0, -0.03495097036229706]",0.7494360502455871,-3.984961339882325,"(0.0, 0.0, 0.0, 0.0, 0.0, 0.0)",0.6858274268188955,-0.7499060350622873,-4.002531083705426,"(0.0, 0.0, 0.0, 0.0, 0.0, 0.0)",0.09061088591719418,-0.7497664643579113,3.9937723828776335,"(0.0, 0.0, 0.0, 0.0, 0.0, 0.0)",-0.6877158393779155,0.7483106866034595,4.045073869802414,"(0.0, 0.0, 0.0, 0.0, 0.0, 0.0)",-0.09118463108881669,False,,,,,False,,,,
47,Close,,,"(0.010003127607656072, 0.16005004167957756, 0.04463109991511072)","(-0.0010223162788461832, 6.389481101241881e-05, -3.266035557177819e-08)",,"[-0.026750000193715096, 0.05299999937415123, 0.03999999910593033]","[0.0, -0.0, 0.7494360616149593]","[-0.07579827308654785, 0.1057092696428299, 0.03999999910593033]","[0.0, 0.0, -0.00046998485639781964]","[0.026750000193715096, 0.05299999937415123, 0.03999999910593033]","[0.0, 0.0, -0.7497665229086657]","[0.07581568509340286, 0.10569305717945099, 0.03999999910593033]","[0.0, 0.0, -0.0014557777936095985]",0.7344924452210284,-3.5864652058940925,"(0.0, 0.0, 0.0, 0.0, 0.0, 0.0)",0.6173964503690262,-0.7649166300024903,-3.602542785648727,"(0.0, 0.0, 0.0, 0.0, 0.0, 0.0)",0.08164469448201127,-0.7347898179221202,3.594395144589871,"(0.0, 0.0, 0.0, 0.0, 0.0, 0.0)",-0.61909767957405,0.7634808239898891,3.6408329727431203,"(0.0, 0.0, 0.0, 0.0, 0.0, 0.0)",-0.08216247127692902,False,,,,,False,,,,
48,Close,,,"(0.010003291824242136, 0.16005266914270105, 0.04523936165140331)","(-0.0010760316083767074, 6.725202012489063e-05, -3.618265319583079e-08)",,"[-0.026750000193715096, 0.05299999937415123, 0.03999999910593033]","[0.0, -0.0, 0.7344924171356654]","[-0.07500515878200531, 0.10643631219863892, 0.03999999910593033]","[0.0, 0.0, -0.03042418292779103]","[0.026750000193715096, 0.05299999937415123, 0.03999999910593033]","[0.0, 0.0, -0.7347898072320369]","[0.07502105087041855, 0.10642196238040924, 0.03999999910593033]","[0.0, -0.0, 0.028691003185096618]",0.7210432006989256,-3.227818685304683,"(0.0, 0.0, 0.0, 0.0, 0.0, 0.0)",0.5558325671900768,-0.77842604750784,-3.2422602012839143,"(0.0, 0.0, 0.0, 0.0, 0.0, 0.0)",0.07360992294062317,-0.7213108361299082,3.234955630130884,"(0.0, 0.0, 0.0, 0.0, 0.0, 0.0)",-0.5573653507703412,0.7771338289584356,3.2767211924511668,"(0.0, 0.0, 0.0, 0.0, 0.0, 0.0)",-0.07407739542501454,False,,,,,False,,,,
49,Close,,,"(0.010003456009463264, 0.16005529610398603, 0.04567389610019914)","(-0.0011297378697381003, 7.060866228110946e-05, -3.988464411418517e-08)",,"[-0.026750000193715096, 0.05299999937415123, 0.03999999910593033]","[0.0, -0.0, 0.7210432248946826]","[-0.07428213953971863, 0.10708045959472656, 0.03999999910593033]","[0.0, 0.0, -0.05738284539856889]","[0.026750000193715096, 0.05299999937415123, 0.03999999910593033]","[0.0, 0.0, -0.7213108742429458]","[0.07429660856723785, 0.10706773400306702, 0.03999999910593033]","[0.0, -0.0, 0.0558229905847104]",0.708938880629033,-2.905036816774215,"(0.0, 0.0, 0.0, 0.0, 0.0, 0.0)",0.5003668258645501,-0.7905844163893876,-2.9180085315714246,"(0.0, 0.0, 0.0, 0.0, 0.0, 0.0)",0.06632913423961855,-0.7091797525169173,2.911460067117798,"(0.0, 0.0, 0.0, 0.0, 0.0, 0.0)",-0.5017475327577147,0.7894214258858812,2.9490232625869344,"(0.0, 0.0, 0.0, 0.0, 0.0, 0.0)",-0.06675089596581112,False,,,,,False,,,,
50,Close,,,"(0.010001644182078712, 0.16005595153396976, 0.045940321410535084)","(-0.0011271805217326655, 1.767785898679914e-05, -1.508889111938428e-08)",,"[-0.026750000193715096, 0.05299999937415123, 0.03999999910593033]","[0.0, -0.0, 0.7089389671526269]","[-0.07362406700849533, 0.10765182226896286, 0.03999999910593033]","[0.0, 0.0, -0.08164554069303018]","[0.026750000193715096, 0.05299999937415123, 0.03999999910593033]","[0.0, 0.0, -0.7091797033714331]","[0.0736372321844101, 0.10764053463935852, 0.03999999910593033]","[0.0, -0.0, 0.08024167743029369]",0.6980449925661297,-2.6145331350967917,"(0.0, 0.0, 0.0, 0.0, 0.0, 0.0)",0.4504252929298086,-0.8015268519725993,-2.6261845399708146,"(0.0, 0.0, 0.0, 0.0, 0.0, 0.0)",0.059761147909024356,-0.6982617772652256,2.6203140604060167,"(0.0, 0.0, 0.0, 0.0, 0.0, 0.0)",-0.4516689022418484,0.8004801661036254,2.6540976522586175,"(0.0, 0.0, 0.0, 0.0, 0.0, 0.0)",-0.06014157277442886,False,,,,,False,,,,
51,Close,,,"(0.009998458164918766, 0.16005543218265145, 0.046184544665354044)","(-0.001116587313714928, -4.731063982249702e-05, 3.3486629919706074e-09)",,"[-0.026750000193715096, 0.05299999937415123, 0.03999999910593033]","[0.0, -0.0, 0.6980450466292163]","[-0.07302592694759369, 0.10815921425819397, 0.03999999910593033]","[0.0, 0.0, -0.1034818592301779]","[0.026750000193715096, 0.05299999937415123, 0.03999999910593033]","[0.0, 0.0, -0.6982617371246688]","[0.07303788512945175, 0.10814917832612991, 0.03999999910593033]","[0.0, -0.0, 0.10221840210156648]",0.6882404933095168,-2.3530798215871136,"(0.0, 0.0, 0.0, 0.0, 0.0, 0.0)",0.40545980991383274,-0.8113749570468809,-2.3635452178275753,"(0.0, 0.0, 0.0, 0.0, 0.0, 0.0)",0.0538375991228723,-0.688435599538703,2.358282654365416,"(0.0, 0.0, 0.0, 0.0, 0.0, 0.0)",-0.4065798463491374,0.810432944800545,2.3886668872606847,"(0.0, 0.0, 0.0, 0.0, 0.0, 0.0)",-0.0541806611811555,False,,,,,False,,,,
52,Close,,,"(0.0099979269032565, 0.16005188637635104, 0.04640949954916324)","(-0.0010442772263960227, -5.814874739306873e-05, 7.787963860925158e-09)",,"[-0.026750000193715096, 0.05299999937415123, 0.03999999910593033]","[0.0, -0.0, 0.688240548987758]","[-0.07248289883136749, 0.10861026495695114, 0.03999999910593033]","[0.0, 0.0, -0.12313446206189271]","[0.026750000193715096, 0.05299999937415123, 0.03999999910593033]","[0.0, 0.0, -0.6884356086136862]","[0.07249374687671661, 0.10860133916139603, 0.03999999910593033]","[0.0, -0.0, 0.1219973374555316]",0.679416393078237,-2.117784055507141,"(0.0, 0.0, 0.0, 0.0, 0.0, 0.0)",0.3649762140031281,-0.8202374613421928,-2.12700103087486,"(0.0, 0.0, 0.0, 0.0, 0.0, 0.0)",0.04851286211734207,-0.6795919883598663,2.1224666829208143,"(0.0, 0.0, 0.0, 0.0, 0.0, 0.0)",-0.36598488497268467,0.8193896503204905,2.149609324786922,"(0.0, 0.0, 0.0, 0.0, 0.0, 0.0)",-0.04882227338805697,False,,,,,False,,,,
53,Close,,,"(0.009997966950406065, 0.16004795201914346, 0.046616050094935475)","(-0.0009640430328522325, -5.7324486097668704e-05, 4.2980615420070005e-09)",,"[-0.026750000193715096, 0.05299999937415123, 0.03999999910593033]","[0.0, -0.0, 0.6794163791618646]","[-0.07199041545391083, 0.10901165008544922, 0.03999999910593033]","[0.0, 0.0, -0.1408210743259801]","[0.026750000193715096, 0.05299999937415123, 0.03999999910593033]","[0.0, 0.0, -0.6795920181483843]","[0.07200025022029877, 0.1090037003159523, 0.03999999910593033]","[0.0, -0.0, 0.13979766167419433]",0.6714747537704133,-1.9059934338776885,"(0.0, 0.0, 0.0, 0.0, 0.0, 0.0)",0.3285291326313333,-0.8282143561304102,-1.914454749172182,"(0.0, 0.0, 0.0, 0.0, 0.0, 0.0)",0.043663125146434535,-0.6716327895238797,1.9102077206367922,"(0.0, 0.0, 0.0, 0.0, 0.0, 0.0)",-0.3294374536237565,0.8274513303019508,1.934803195550486,"(0.0, 0.0, 0.0, 0.0, 0.0, 0.0)",-0.043941831288343336,False,,,,,False,,,,
54,Close,,,"(0.009998107600018924, 0.16004411888380865, 0.0468059782297436)","(-0.0008858309445970004, -5.447527859797503e-05, 4.128601528647624e-08)",,"[-0.026750000193715096, 0.05299999937415123, 0.03999999910593033]","[0.0, -0.0, 0.6714747449539094]","[-0.07154417037963867, 0.10936915874481201, 0.03999999910593033]","[0.0, 0.0, -0.15673960659097733]","[0.026750000193715096, 0.05299999937415123, 0.03999999910593033]","[0.0, 0.0, -0.6716327690441329]","[0.07155308127403259, 0.10936208069324493, 0.03999999910593033]","[0.0, -0.0, 0.15581855230220754]",0.664327278393372,-1.7153940904899205,"(0.0, 0.0, 0.0, 0.0, 0.0, 0.0)",0.2957170811345372,-0.8353934979980445,-1.7229940482322428,"(0.0, 0.0, 0.0, 0.0, 0.0, 0.0)",0.03934112702889199,-0.6644695105714917,1.7191869485731137,"(0.0, 0.0, 0.0, 0.0, 0.0, 0.0)",-0.2965349881453131,0.8347067784412298,1.7413075534269409,"(0.0, 0.0, 0.0, 0.0, 0.0, 0.0)",-0.039592428071821256,False,,,,,False,,,,
55,Close,,,"(0.009998248644105466, 0.16004048002584464, 0.0469807018618576)","(-0.0008115684428503489, -5.1596750749095254e-05, 7.881188886077776e-08)",,"[-0.026750000193715096, 0.05299999937415123, 0.03999999910593033]","[0.0, -0.0, 0.6643273336690038]","[-0.07114013284444809, 0.10968788713216782, 0.03999999910593033]","[0.0, 0.0, -0.17106622141763456]","[0.026750000193715096, 0.05299999937415123, 0.03999999910593033]","[0.0, 0.0, -0.6644694779113771]","[0.07114819437265396, 0.10968156903982162, 0.03999999910593033]","[0.0, -0.0, 0.17023725548976373]",0.6578945505540348,-1.543854681440929,"(0.0, 0.0, 0.0, 0.0, 0.0, 0.0)",0.2661784897251144,-0.8418546682622772,-1.5506808634158242,"(0.0, 0.0, 0.0, 0.0, 0.0, 0.0)",0.03542959308904228,-0.6580225595143425,1.547268253715802,"(0.0, 0.0, 0.0, 0.0, 0.0, 0.0)",-0.26691494494593054,0.8412366239853526,1.567162930589489,"(0.0, 0.0, 0.0, 0.0, 0.0, 0.0)",-0.035656056287006674,False,,,,,False,,,,
56,Close,,,"(0.009998390752654573, 0.16003702894197389, 0.04714144752999396)","(-0.0007411380797103218, -4.869650481896534e-05, 1.1687517768299383e-07)",,"[-0.026750000193715096, 0.05299999937415123, 0.03999999910593033]","[0.0, -0.0, 0.6578945475257985]","[-0.07077455520629883, 0.1099722608923912, 0.03999999910593033]","[0.0, 0.0, -0.18396012465064338]","[0.026750000193715096, 0.05299999937415123, 0.03999999910593033]","[0.0, 0.0, -0.6580225896942233]","[0.07078184932470322, 0.10996662080287933, 0.03999999910593033]","[0.0, -0.0, 0.18321406389742323]",0.6521050954986313,-1.3894692132968354,"(0.0, 0.0, 0.0, 0.0, 0.0, 0.0)",0.23958744527110798,-0.8476696697618468,-1.395600359896693,"(0.0, 0.0, 0.0, 0.0, 0.0, 0.0)",0.031904902566438624,-0.6522203035629083,1.392541428344221,"(0.0, 0.0, 0.0, 0.0, 0.0, 0.0)",-0.24025052935853647,0.8471134329078756,1.410434141405507,"(0.0, 0.0, 0.0, 0.0, 0.0, 0.0)",-0.032108956045352514,False,,,,,False,,,,
57,Close,,,"(0.009998534235924597, 0.16003375955333046, 0.04728933347451534)","(-0.0006744157946989166, -4.576820860538318e-05, 1.554405829918684e-07)",,"[-0.026750000193715096, 0.05299999937415123, 0.03999999910593033]","[0.0, -0.0, 0.6521051450040646]","[-0.07044398784637451, 0.11022617667913437, 0.03999999910593033]","[0.0, 0.0, -0.19556454293122102]","[0.026750000193715096, 0.05299999937415123, 0.03999999910593033]","[0.0, 0.0, -0.6522203497730787]","[0.07045057415962219, 0.11022114753723145, 0.03999999910593033]","[0.0, -0.0, 0.19489313608724637]",0.6468945859487681,-1.250522291967151,"(0.0, 0.0, 0.0, 0.0, 0.0, 0.0)",0.2156503992603495,-0.8529031244958994,-1.2560291361726517,"(0.0, 0.0, 0.0, 0.0, 0.0, 0.0)",0.02872919688306315,-0.6469982732066174,1.253287285509799,"(0.0, 0.0, 0.0, 0.0, 0.0, 0.0)",-0.2162473971085442,0.8524025140258721,1.2693794683191757,"(0.0, 0.0, 0.0, 0.0, 0.0, 0.0)",-0.02891303657535659,False,,,,,False,,,,
58,Close,,,"(0.009998679410322496, 0.16003066597344334, 0.0474253884764576)","(-0.0006112814540129935, -4.2805404436077314e-05, 1.9447426774393396e-07)",,"[-0.026750000193715096, 0.05299999937415123, 0.03999999910593033]","[0.0, -0.0, 0.6468945636476681]","[-0.07014521211385727, 0.11045306921005249, 0.03999999910593033]","[0.0, 0.0, -0.20600854729134555]","[0.026750000193715096, 0.05299999937415123, 0.03999999910593033]","[0.0, 0.0, -0.6469982503054421]","[0.07015117257833481, 0.11044856905937195, 0.03999999910593033]","[0.0, -0.0, 0.20540423443750838]",0.6422051273538913,-1.125470062770436,"(0.0, 0.0, 0.0, 0.0, 0.0, 0.0)",0.1941029233168818,-0.8576131917611358,-1.1304161436567226,"(0.0, 0.0, 0.0, 0.0, 0.0, 0.0)",0.025868240883426936,-0.6422984458859556,1.1279585569588184,"(0.0, 0.0, 0.0, 0.0, 0.0, 0.0)",-0.19464040126091972,0.8571626447690798,1.1424313783698345,"(0.0, 0.0, 0.0, 0.0, 0.0, 0.0)",-0.026033851694478666,False,,,,,False,,,,
59,Move,,,"(0.009998826598722164, 0.16002774252192944, 0.04755055901421763)","(-0.0005516191299448554, -3.980150267197137e-05, 2.339437659612592e-07)","[0.0, 0.0, 0.0]","[-0.026750000193715096, 0.05299999937415123, 0.03999999910593033]","[0.0, -0.0, 0.6422051137296667]","[-0.0698753148317337, 0.11065594106912613, 0.03999999910593033]","[0.0, 0.0, -0.2154080556264429]","[0.026750000193715096, 0.05299999937415123, 0.03999999910593033]","[0.0, 0.0, -0.6422983956794274]","[0.06988069415092468, 0.1106519103050232, 0.03999999910593033]","[0.0, -0.0, 0.21486417441436167]",0.6379846146185022,-1.0129230564933929,"(0.0, 0.0, 0.0, 0.0, 0.0, 0.0)",0.17470684718642912,-0.8618522144704561,-1.0173654502368856,"(0.0, 0.0, 0.0, 0.0, 0.0, 0.0)",0.023291096758263134,-0.6380686012973601,1.0151627012629356,"(0.0, 0.0, 0.0, 0.0, 0.0, 0.0)",-0.1751907229705418,0.8614467243673204,1.02817910357775,"(0.0, 0.0, 0.0, 0.0, 0.0, 0.0)",-0.023440272040621463,False,,,,,True,"(0.04276013174954747, 0.17974174897294792, 0.02399995643463635)","(-0.9999999990838299, -1.9447426661030803e-07, -4.2805404423670755e-05)",0.0013234533115717422,0.0
60,Move,,,"(0.008529162475457952, 0.15974954236529276, 0.0477048393377401)","(0.0013879222534856654, 0.003092032969080396, 0.019607357714227783)","[-0.001469664123264212, -0.00027820015663668207, 0.00015428032352246546]","[-0.026750000193715096, 0.05299999937415123, 0.03999999910593033]","[0.0, -0.0, 0.6379846501970732]","[-0.06963159143924713, 0.1108374372124672, 0.03999999910593033]","[0.0, 0.0, -0.22386762157269943]","[0.026750000193715096, 0.05299999937415123, 0.03999999910593033]","[0.0, 0.0, -0.638068602671057]","[0.06963644921779633, 0.11083383113145828, 0.03999999910593033]","[0.0, -0.0, 0.22337816170537766]",0.6141590059460926,-5.718146081378292,"(0.0, 0.0, 0.0, 0.0, 0.0, 0.0)",-6.715100343954979,-0.8614283121995241,0.10173654502368734,"(0.0, 0.0, 0.0, 0.0, 0.0, 0.0)",-0.37236374372155323,-0.6186460352886096,4.661415842100123,"(0.0, 0.0, 0.0, 0.0, 0.0, 0.0)",6.428194854706253,0.8610182254653614,-0.10283973647015276,"(0.0, 0.0, 0.0, 0.0, 0.0, 0.0)",0.9829946930619015,False,,,,,True,"(0.041928616181162004, 0.17969877893574898, 0.023999959438538117)","(-0.9999999992078928, -2.3394376620903917e-07, -3.980150265941498e-05)",0.0004918567139684023,10.112171877912418
61,Move,,,"(0.006723996611826882, 0.15936533702962205, 0.047765255621499005)","(6.714398616458164e-05, 0.002674296973039989, 0.04262647064426384)","[-0.0032748299868952824, -0.0006624054923073941, 0.00021469660728137135]","[-0.026750000193715096, 0.05299999937415123, 0.03999999910593033]","[0.0, -0.0, 0.6141590305095613]","[-0.06824154406785965, 0.11184260249137878, 0.03999999910593033]","[0.0, 0.0, -0.24726930604170874]","[0.026750000193715096, 0.05299999937415123, 0.03999999910593033]","[0.0, 0.0, -0.618646044105948]","[0.06850515305995941, 0.1116558387875557, 0.03999999910593033]","[0.0, -0.0, 0.24237220045044397]",0.5923752537221402,-5.228100533748594,"(0.0, 0.0, 0.0, 0.0, 0.0, 0.0)",0.6968351830029317,-0.8614707024266173,-0.010173654502368734,"(0.0, 0.0, 0.0, 0.0, 0.0, 0.0)",0.0386094337653134,-0.6008326176855909,4.2752202247244835,"(0.0, 0.0, 0.0, 0.0, 0.0, 0.0)",-0.2843818339581164,0.8610616731657038,0.010427448082156607,"(0.0, 0.0, 0.0, 0.0, 0.0, 0.0)",0.12162564932151312,False,,,,,True,"(0.03949436769622908, 0.17998210851349686, 0.023999959438538117)","(-0.9999999992078928, -2.3394376620903917e-07, -3.980150265941498e-05)",-6.347605402235445e-06,0.5640853154323047
62,Move,,,"(0.004916021046565853, 0.1589665718711254, 0.047720958898252924)","(-0.002763020338407607, 0.0006108079306357897, 0.0667691707902313)","[-0.005082805552156311, -0.0010611706508040497, 0.00017039988403529105]","[-0.026750000193715096, 0.05299999937415123, 0.03999999910593033]","[0.0, -0.0, 0.5923752994005711]","[-0.0669499859213829, 0.1127324104309082, 0.03999999910593033]","[0.0, 0.0, -0.2690954538189607]","[0.026750000193715096, 0.05299999937415123, 0.03999999910593033]","[0.0, 0.0, -0.6008327423896315]","[0.06745371967554092, 0.11239029467105865, 0.03999999910593033]","[0.0, -0.0, 0.2602290700881579]",0.5712150347036751,-5.078452564431617,"(0.0, 0.0, 0.0, 0.0, 0.0, 0.0)",0.2157952503283588,-0.861466463403908,0.0010173654502363396,"(0.0, 0.0, 0.0, 0.0, 0.0, 0.0)",0.016130538686302622,-0.5829836595254625,4.283749958430823,"(0.0, 0.0, 0.0, 0.0, 0.0, 0.0)",0.03654686188668907,0.8610568520052067,-0.0011570785193177847,"(0.0, 0.0, 0.0, 0.0, 0.0, 0.0)",0.013369392840733865,False,,,,,True,"(0.03722753437306846, 0.1801876577450428, 0.023999959438538117)","(-0.9999999992078928, -2.3394376620903917e-07, -3.980150265941498e-05)",-3.03090440028451e-06,0.20086448022229916
63,Move,,,"(0.003038586218639499, 0.15852968790700625, 0.047692659289474)","(-0.0025911153149836925, -0.0037098076030427207, 0.0892309075356073)","[-0.006960240380082665, -0.0014980546149231944, 0.00014210027525636548]","[-0.026750000193715096, 0.05299999937415123, 0.03999999910593033]","[0.0, -0.0, 0.5712149816841382]","[-0.06567712873220444, 0.11356961727142334, 0.03999999910593033]","[0.0, 0.0, -0.2902514434627483]","[0.026750000193715096, 0.05299999937415123, 0.03999999910593033]","[0.0, 0.0, -0.5829835823925363]","[0.06638723611831665, 0.11310731619596481, 0.03999999910593033]","[0.0, -0.0, 0.27807322292986936]",0.5508803967687295,-4.88031310438695,"(0.0, 0.0, 0.0, 0.0, 0.0, 0.0)",0.28503070876654335,-0.8614668873061792,-0.0001017365450710142,"(0.0, 0.0, 0.0, 0.0, 0.0, 0.0)",0.019917833408555515,-0.5651641840502668,4.2766741140469655,"(0.0, 0.0, 0.0, 0.0, 0.0, 0.0)",0.11956537689041521,0.8610565492790112,-7.265428690530302e-05,"(0.0, 0.0, 0.0, 0.0, 0.0, 0.0)",0.07009334439305036,False,,,,,True,"(0.03495614298930945, 0.18035455290140667, 0.023999959438538117)","(-0.9999999992078928, -2.3394376620903917e-07, -3.980150265941498e-05)",-3.483078081115776e-06,1.0531113700940868
64,Move,,,"(0.0020261779141126004, 0.159147963083264, 0.04760521211159295)","(0.002583370481578668, -0.003056729446151124, 0.09297246090683914)","[-0.007972648684609564, -0.0008797794386654345, 5.465309737531787e-05]","[-0.026750000193715096, 0.05299999937415123, 0.03999999910593033]","[0.0, -0.0, 0.5508804375563766]","[-0.06443750858306885, 0.11434861272573471, 0.03999999910593033]","[0.0, 0.0, -0.31058647044401844]","[0.026750000193715096, 0.05299999937415123, 0.03999999910593033]","[0.0, 0.0, -0.5651641731913941]","[0.06530991941690445, 0.11380404978990555, 0.03999999910593033]","[0.0, -0.0, 0.2958923811960855]",0.5325313952836437,-4.403760356420582,"(0.0, 0.0, 0.0, 0.0, 0.0, 0.0)",-38.47384383842257,-0.8434648155280273,4.320497226756436,"(0.0, 0.0, 0.0, 0.0, 0.0, 0.0)",-19.707773442051234,-0.5485203526437034,3.9945195375752336,"(0.0, 0.0, 0.0, 0.0, 0.0, 0.0)",38.40865227596146,0.8426940994674212,-4.406987954781599,"(0.0, 0.0, 0.0, 0.0, 0.0, 0.0)",20.213574547080277,True,"(-0.030837162206202397, 0.1807147684040986, 0.056003710559052795)","(0.9960147094140643, 0.08911192973728252, 0.0037097990935676286)",0.000295955962769222,310.9113148279181,True,"(0.032686946379462796, 0.18046390406811386, 0.023996289440947206)","(-0.9960147094140644, -0.08911192973728094, -0.0037097990935709194)",-4.010570765232737e-05,237.4598751600436
65,Move,"(0.0078, 0.0, -0.0036000000000000003)","(0.0, 0.08563981573685775, 0.0)","(0.0011700253639096666, 0.15976182515520135, 0.04751897038725052)","(0.007930122363363799, -0.00226657279137191, 0.09692309735704685)","[-0.008828801234812498, -0.00026591736672809674, -3.1588626967116173e-05]","[-0.026750000193715096, 0.05299999937415123, 0.03999999910593033]","[0.0, -0.0, 0.5325313658465014]","[-0.06330554187297821, 0.11502977460622787, 0.03999999910593033]","[0.0, 0.0, -0.3109334583254266]","[0.026750000193715096, 0.05299999937415123, 0.03999999910593033]","[0.0, 0.0, -0.548520392495979]","[0.06429261714220047, 0.11443737894296646, 0.03999999910593033]","[0.0, -0.0, 0.2941737789306636]",0.5150286261073844,-4.20066460230223,"(0.0, 0.0, 0.0, 0.0, 0.0, 0.0)",-43.15160519850692,-0.8255232606133882,4.305973179513399,"(0.0, 0.0, 0.0, 0.0, 0.0, 0.0)",-22.03627704391551,-0.5318939745440465,3.990330743917647,"(0.0, 0.0, 0.0, 0.0, 0.0, 0.0)",43.6676935048907,0.8241209847892994,-4.457547522749228,"(0.0, 0.0, 0.0, 0.0, 0.0, 0.0)",23.068483497500033,True,"(-0.02968254207398162, 0.18138834120873254, 0.056003057484645)","(0.9956765214355997, 0.09283814461792712, 0.0030567246857756626)",-0.0019557974209563206,339.7172576639441,True,"(0.03178474084630808, 0.1811477674564546, 0.02399694251535476)","(-0.9956765214355902, -0.0928381446180211, -0.0030567246860136047)",0.00016315936690381586,263.2480870713977
66,Move,"(0.0081, 0.0, -0.0033)","(0.0, 0.09893224332004658, 0.0)","(0.0015142550983013162, 0.1600860465418329, 0.04748028732149069)","(0.005833166120741446, 0.001632563790596074, 0.08877559958037594)","[-0.008484571500420849, 5.830401990344902e-05, -7.0271692726942e-05]","[-0.026750000193715096, 0.05299999937415123, 0.03999999910593033]","[0.0, -0.0, 0.5150286173626178]","[-0.06221430376172066, 0.11566006392240524, 0.03999999910593033]","[0.0, 0.0, -0.3104946497228739]","[0.026750000193715096, 0.05299999937415123, 0.03999999910593033]","[0.0, 0.0, -0.5318939608755999]","[0.06326599419116974, 0.11505305767059326, 0.03999999910593033]","[0.0, -0.0, 0.2922270319249003]",0.5136089599248568,-0.3407198838066394,"(0.0, 0.0, 0.0, 0.0, 0.0, 0.0)",4.275537078510508,-0.8273168082988589,-0.4304514445129568,"(0.0, 0.0, 0.0, 0.0, 0.0, 0.0)",-0.5377314647425718,-0.5368120748983302,-1.1803440850280627,"(0.0, 0.0, 0.0, 0.0, 0.0, 0.0)",-6.996245504811917,0.825978296257166,0.445754752287991,"(0.0, 0.0, 0.0, 0.0, 0.0, 0.0)",-0.027766468515748252,True,"(-0.02862075758073663, 0.18203687365922727, 0.05600226731562215)","(0.9953040758649819, 0.09677116937979674, 0.0022665708506747376)",-0.003960922893090458,6.637025352508148,True,"(0.03091578949574346, 0.18154523231783662, 0.023997716044379027)","(-0.9953040509812058, -0.09677103449881742, -0.0022831956617496516)",0.00022377337919692118,0.0
67,Move,"(0.0094, 0.0, -0.0033)","(0.0, 0.11229273874406319, 0.0)","(0.0019424320867572654, 0.16043653628420973, 0.04749763727579993)","(0.0019343598054708637, 0.0014797291290574637, 0.07917371098380267)","[-0.008056394511964899, 0.0004087937622802851, -5.2921738417706365e-05]","[-0.026750000193715096, 0.05299999937415123, 0.03999999910593033]","[0.0, -0.0, 0.5136090826965927]","[-0.0621253103017807, 0.11571034789085388, 0.03999999910593033]","[0.0, 0.0, -0.3137078470678842]","[0.026750000193715096, 0.05299999937415123, 0.03999999910593033]","[0.0, 0.0, -0.5368121227651508]","[0.06357073038816452, 0.11487272381782532, 0.03999999910593033]","[0.0, -0.0, 0.28916625395369233]",0.5104086651994468,-0.7680707340983911,"(0.0, 0.0, 0.0, 0.0, 0.0, 0.0)",-0.6864420217602338,-0.8271367483955098,0.0432143768038003,"(0.0, 0.0, 0.0, 0.0, 0.0, 0.0)",-0.05475771041051041,-0.5398820274099854,-0.7367886027972536,"(0.0, 0.0, 0.0, 0.0, 0.0, 0.0)",0.5927662375825712,0.8257925651103794,-0.04457547522879857,"(0.0, 0.0, 0.0, 0.0, 0.0, 0.0)",-0.0048209478140288095,True,"(-0.028318656396696437, 0.1819788722483076, 0.05600226731562215)","(0.9953040758649819, 0.09677116937979674, 0.0022665708506747376)",-0.003643429054053983,0.0,True,"(0.03142419954313849, 0.18146359879005494, 0.023997716044379027)","(-0.9953040509812058, -0.09677103449881742, -0.0022831956617496516)",0.00028863685136703334,0.0
68,Move,"(0.0099, 0.0, -0.0033)","(0.0, 0.11719536861291525, 0.0)","(0.00237946279069364, 0.16049738181987913, 0.04755639472766768)","(-0.0008398408337515988, 0.0018520812295729032, 0.07684189944748204)","[-0.007619363808028525, 0.0004696392979496866, 5.835713450044744e-06]","[-0.026750000193715096, 0.05299999937415123, 0.03999999910593033]","[0.0, -0.0, 0.5104086489530818]","[-0.061924438923597336, 0.11582323163747787, 0.03999999910593033]","[0.0, 0.0, -0.31672806607825815]","[0.026750000193715096, 0.05299999937415123, 0.03999999910593033]","[0.0, 0.0, -0.539882024480112]","[0.06376050412654877, 0.11475939303636551, 0.03999999910593033]","[0.0, -0.0, 0.2859106021516968]",0.5069929778397918,-0.8197649663172017,"(0.0, 0.0, 0.0, 0.0, 0.0, 0.0)",-2.95546311483839,-0.825677756156352,0.3501581373978724,"(0.0, 0.0, 0.0, 0.0, 0.0, 0.0)",-1.5199752155757857,-0.5430685107497268,-0.7647560015379657,"(0.0, 0.0, 0.0, 0.0, 0.0, 0.0)",2.604718017124348,0.8247362824950842,-0.2535078276708169,"(0.0, 0.0, 0.0, 0.0, 0.0, 0.0)",1.2232617983032248,True,"(-0.027917791977759593, 0.18198935621565654, 0.05600226731562215)","(0.9953040758649819, 0.09677116937979674, 0.0022665708506747376)",-0.003339784491748661,19.346654300334645,True,"(0.03183094086734099, 0.18145457534791193, 0.023997716044379027)","(-0.9953040509812058, -0.09677103449881742, -0.0022831956617496516)",5.460882296621781e-05,11.722964542919769
69,Move,"(0.011, 0.0, -0.0034)","(0.0, 0.11229273874406319, 0.0)","(0.0027880915475132907, 0.16054286122576378, 0.047657974905963706)","(-0.0012473129558357226, 0.0023982787441098625, 0.0743853162056286)","[-0.007210735051208873, 0.000515118703834333, 0.00010741589174607241]","[-0.026750000193715096, 0.05299999937415123, 0.03999999910593033]","[0.0, -0.0, 0.5069930366501101]","[-0.06170964986085892, 0.11594301462173462, 0.03999999910593033]","[0.0, 0.0, -0.3186847967664854]","[0.026750000193715096, 0.05299999937415123, 0.03999999910593033]","[0.0, 0.0, -0.5430685427636954]","[0.0639571100473404, 0.11464114487171173, 0.03999999910593033]","[0.0, -0.0, 0.28166775819864437]",0.5036685930205466,-0.7978523566188601,"(0.0, 0.0, 0.0, 0.0, 0.0, 0.0)",-3.137543358227415,-0.8244457453062246,0.2956826040305706,"(0.0, 0.0, 0.0, 0.0, 0.0, 0.0)",-1.5408016363049943,-0.5463205188919712,-0.7804819541386326,"(0.0, 0.0, 0.0, 0.0, 0.0, 0.0)",2.462688302155746,0.8237696189581745,-0.231999248858348,"(0.0, 0.0, 0.0, 0.0, 0.0, 0.0)",1.1892298144789544,True,"(-0.027573600932459343, 0.18204246712988875, 0.05600226731562215)","(0.9953040758649819, 0.09677116937979674, 0.0022665708506747376)",-0.0031832354578645752,21.287279784577905,True,"(0.032310806499038225, 0.18147119761855884, 0.023997716044379027)","(-0.9953040509812058, -0.09677103449881742, -0.0022831956617496516)",6.111497386147592e-05,8.858073671702158
70,Move,"(0.0123, 0.0, -0.0040999999999999995)","(0.0, 0.107426760789503, 0.0)","(0.003239542786915798, 0.1605668660718446, 0.047736673748480056)","(-0.001965591189747267, 0.002658015442413532, 0.07187187805285625)","[-0.0067592838118063665, 0.0005391235499151437, 0.0001861147342624228]","[-0.026750000193715096, 0.05299999937415123, 0.03999999910593033]","[0.0, -0.0, 0.5036686090814807]","[-0.06150021031498909, 0.11605888605117798, 0.03999999910593033]","[0.0, 0.0, -0.32077719451801295]","[0.026750000193715096, 0.05299999937415123, 0.03999999910593033]","[0.0, 0.0, -0.5463205410823145]","[0.06415737420320511, 0.11451981961727142, 0.03999999910593033]","[0.0, -0.0, 0.2774491391463144]",0.5001594064389397,-0.842204779585629,"(0.0, 0.0, 0.0, 0.0, 0.0, 0.0)",-2.4942223079247325,-0.8234590445102038,0.2368081910449924,"(0.0, 0.0, 0.0, 0.0, 0.0, 0.0)",-1.2611388770047804,-0.5497052634358316,-0.8123386905265,"(0.0, 0.0, 0.0, 0.0, 0.0, 0.0)",1.7987185701556758,0.8230709762206787,-0.16767425699896948,"(0.0, 0.0, 0.0, 0.0, 0.0, 0.0)",0.8669909471651174,True,"(-0.027224946064951343, 0.18207455295716263, 0.023997600979096805)","(0.9972318198826774, 0.0743165236241341, -0.002398276445064558)",-0.0031639485720532518,19.21950439417013,True,"(0.03279328172962717, 0.18148278434103016, 0.023997716044379027)","(-0.9953040509812058, -0.09677103449881742, -0.0022831956617496516)",0.00010037844651213578,7.417389742288837
71,Move,"(0.0121, 0.0, -0.004)","(0.0, 0.107426760789503, 0.0)","(0.003720406159453491, 0.16056420360290546, 0.04777559560236856)","(-0.002218255613111062, 0.002312606391545303, 0.0701424108857278)","[-0.006278420439268673, 0.0005364610809760195, 0.00022503658815092864]","[-0.026750000193715096, 0.05299999937415123, 0.03999999910593033]","[0.0, -0.0, 0.5001594062426764]","[-0.06127871200442314, 0.11618044227361679, 0.03999999910593033]","[0.0, 0.0, -0.32329965061673244]","[0.026750000193715096, 0.05299999937415123, 0.03999999910593033]","[0.0, 0.0, -0.5497053045178374]","[0.06436538696289062, 0.11439285427331924, 0.03999999910593033]","[0.0, -0.0, 0.2733657400544738]",0.4964574651473608,-0.8884659099789572,"(0.0, 0.0, 0.0, 0.0, 0.0, 0.0)",-2.462356709895892,-0.8223923868481604,0.25599783889042127,"(0.0, 0.0, 0.0, 0.0, 0.0, 0.0)",-1.3046081673341778,-0.5532878162957364,-0.8598126863771522,"(0.0, 0.0, 0.0, 0.0, 0.0, 0.0)",1.7558117683910683,0.8223569453376112,-0.17136741193621854,"(0.0, 0.0, 0.0, 0.0, 0.0, 0.0)",0.8578235837179469,True,"(-0.026837034105442886, 0.18210944958772265, 0.023997341246110478)","(0.9974148047750422, 0.07180976386335372, -0.0026580123125815977)",-0.0030482442998161635,18.19984556240161,True,"(0.03327499236751723, 0.18148333088511306, 0.023997716044379027)","(-0.9953040509812058, -0.09677103449881742, -0.0022831956617496516)",8.992623519396088e-05,7.901385115223855
72,Move,"(0.0125, 0.0, -0.004200000000000001)","(0.0, 0.09412735188930618, 0.0)","(0.0041838772364551574, 0.16054632244157646, 0.0477952402307206)","(-0.0019216607783047205, 0.0019780206516095814, 0.06872962055219614)","[-0.005814949362267007, 0.0005185799196470164, 0.0002446812165029649]","[-0.026750000193715096, 0.05299999937415123, 0.03999999910593033]","[0.0, -0.0, 0.496457417199985]","[-0.06104458495974541, 0.116307832300663, 0.03999999910593033]","[0.0, 0.0, -0.3259349207153924]","[0.026750000193715096, 0.05299999937415123, 0.03999999910593033]","[0.0, 0.0, -0.5532878205810767]","[0.06458508968353271, 0.11425770074129105, 0.03999999910593033]","[0.0, -0.0, 0.269069132740604]",0.4929223257402638,-0.8484334577032809,"(0.0, 0.0, 0.0, 0.0, 0.0, 0.0)",-2.2617979752810466,-0.8213600709659298,0.24775581173536287,"(0.0, 0.0, 0.0, 0.0, 0.0, 0.0)",-1.2636450441875333,-0.5567055912306298,-0.8202659843744067,"(0.0, 0.0, 0.0, 0.0, 0.0, 0.0)",1.8374612716333842,0.8216687012213884,-0.1651785878934798,"(0.0, 0.0, 0.0, 0.0, 0.0, 0.0)",0.8381652673020564,True,"(-0.02642934813544373, 0.18214675089604906, 0.023997686650334377)","(0.9975383620173747, 0.07008472133714452, -0.002312604330186277)",-0.002929059289277167,17.463983350349825,True,"(0.03378323958962267, 0.1814811408906349, 0.023997716044379027)","(-0.9953040509812058, -0.09677103449881742, -0.0022831956617496516)",7.836265787213293e-05,8.738537515524566
73,Move,"(0.012199999999999999, 0.0, -0.0037)","(0.0, 0.09041678189956627, 0.0)","(0.004645857523736871, 0.16052118740104984, 0.04781072775210369)","(-0.0014118481857839735, 0.001705429899020404, 0.06718204427000397)","[-0.005352969074985293, 0.0004934448791203971, 0.00026016873788605593]","[-0.026750000193715096, 0.05299999937415123, 0.03999999910593033]","[0.0, -0.0, 0.49292233289509757]","[-0.0608205683529377, 0.1164286732673645, 0.03999999910593033]","[0.0, 0.0, -0.32843771107257036]","[0.026750000193715096, 0.05299999937415123, 0.03999999910593033]","[0.0, 0.0, -0.5567056386527944]","[0.06479423493146896, 0.11412803083658218, 0.03999999910593033]","[0.0, -0.0, 0.2649630998423215]",0.48937772045895656,-0.8507052675137325,"(0.0, 0.0, 0.0, 0.0, 0.0, 0.0)",-2.2261497126620022,-0.8203735128100466,0.23677395741197527,"(0.0, 0.0, 0.0, 0.0, 0.0, 0.0)",-1.216027340708947,-0.5601496312391785,-0.8265696020516862,"(0.0, 0.0, 0.0, 0.0, 0.0, 0.0)",1.6875179742756021,0.8210116545581518,-0.15769119917676155,"(0.0, 0.0, 0.0, 0.0, 0.0, 0.0)",0.7907857694857625,True,"(-0.026040731241246284, 0.18218183679275374, 0.02399802123488408)","(0.9976370975659465, 0.06867538860173186, -0.001978019361754052)",-0.002816708134678061,16.71179696399257,True,"(0.0342686628363402, 0.18147737749512466, 0.023997716044379027)","(-0.9953040509812058, -0.09677103449881742, -0.0022831956617496516)",6.83140604981367e-05,8.860774174889585
74,Move,"(0.014199999999999999, 0.0, -0.0039)","(0.0, 0.06861063822514908, 0.0)","(0.005083755077712918, 0.16049507837970556, 0.04782359179302248)","(-0.0008122924322139376, 0.0014959148162110142, 0.0656731426925998)","[-0.004915071521009246, 0.0004673358577761133, 0.00027303277880484644]","[-0.026750000193715096, 0.05299999937415123, 0.03999999910593033]","[0.0, -0.0, 0.48937771737325164]","[-0.060595523566007614, 0.1165490373969078, 0.03999999910593033]","[0.0, 0.0, -0.3309957745117425]","[0.026750000193715096, 0.05299999937415123, 0.03999999910593033]","[0.0, 0.0, -0.5601495988996557]","[0.06500453501939774, 0.11399664729833603, 0.03999999910593033]","[0.0, -0.0, 0.26086205847539345]",0.48599444017089427,-0.811987269134953,"(0.0, 0.0, 0.0, 0.0, 0.0, 0.0)",-2.115469082962043,-0.8194077181076445,0.23179072857649474,"(0.0, 0.0, 0.0, 0.0, 0.0, 0.0)",-1.179704278134629,-0.5634319890180423,-0.7877658669273127,"(0.0, 0.0, 0.0, 0.0, 0.0, 0.0)",1.7259197284150116,0.8203678327871219,-0.15451722504718166,"(0.0, 0.0, 0.0, 0.0, 0.0, 0.0)",0.7803536603302196,True,"(-0.025647669177804158, 0.18221402955129812, 0.023998293822271987)","(0.9977426841641901, 0.06713142117158283, -0.0017054290723164639)",-0.0027087371917527137,16.35974319228938,True,"(0.03475542561058245, 0.1814706106486204, 0.023997716044379027)","(-0.9953040509812058, -0.09677103449881742, -0.0022831956617496516)",6.049202372196843e-05,8.898811039212232
75,Move,"(0.0158, 0.0, -0.0035)","(0.0, 0.08188561251581795, 0.0)","(0.005564017288097354, 0.16045747041121486, 0.04783656246073066)","(-0.00017967839309031644, 0.001237995380077905, 0.06376576861988638)","[-0.00443480931062481, 0.00042972788928541394, 0.0002860034465130279]","[-0.026750000193715096, 0.05299999937415123, 0.03999999910593033]","[0.0, -0.0, 0.4859944605998495]","[-0.06038032844662666, 0.11666318774223328, 0.03999999910593033]","[0.0, 0.0, -0.3334132829920577]","[0.026750000193715096, 0.05299999937415123, 0.03999999910593033]","[0.0, 0.0, -0.5634320167418615]","[0.06520453840494156, 0.11387075483798981, 0.03999999910593033]","[0.0, -0.0, 0.2569358412143966]",0.48221074973779404,-0.908085703944057,"(0.0, 0.0, 0.0, 0.0, 0.0, 0.0)",-2.232224803267998,-0.8184799654783222,0.22266063103733358,"(0.0, 0.0, 0.0, 0.0, 0.0, 0.0)",-1.1598361609500418,-0.5671110547751614,-0.8829757817086027,"(0.0, 0.0, 0.0, 0.0, 0.0, 0.0)",1.4493040201886145,0.819753683948035,-0.14739572138083126,"(0.0, 0.0, 0.0, 0.0, 0.0, 0.0)",0.7246793870640368,True,"(-0.025273888657136152, 0.1822444034580103, 0.02399850333284066)","(0.9978431776529018, 0.06562587181966831, -0.001495914258294465)",-0.002607791114693515,15.70165316846296,True,"(0.03522057935542625, 0.18146296029645664, 0.023997716044379027)","(-0.9953040509812058, -0.09677103449881742, -0.0022831956617496516)",5.730713275100556e-05,8.499950672158143
76,Move,"(0.0157, 0.0, -0.0037)","(0.0, 0.08188561251581795, 0.0)","(0.006061590299675731, 0.16041666321549866, 0.0478500602013638)","(0.00045006257413697244, 0.0010406734445350878, 0.06161501573725571)","[-0.003937236299046434, 0.0003889206935692169, 0.00029950118714616725]","[-0.026750000193715096, 0.05299999937415123, 0.03999999910593033]","[0.0, -0.0, 0.4822107520471277]","[-0.06013920530676842, 0.11678997427225113, 0.03999999910593033]","[0.0, 0.0, -0.33626924127475905]","[0.026750000193715096, 0.05299999937415123, 0.03999999910593033]","[0.0, 0.0, -0.5671110522163064]","[0.065428227186203, 0.11372886598110199, 0.03999999910593033]","[0.0, -0.0, 0.25264263371191625]",0.4781906044780276,-0.9648348623439488,"(0.0, 0.0, 0.0, 0.0, 0.0, 0.0)",-2.1756563598686216,-0.8175388522602572,0.2258671723356089,"(0.0, 0.0, 0.0, 0.0, 0.0, 0.0)",-1.1578644960947655,-0.570962418114523,-0.9243272014467804,"(0.0, 0.0, 0.0, 0.0, 0.0, 0.0)",1.553900968333398,0.8191307666591031,-0.1495001493436629,"(0.0, 0.0, 0.0, 0.0, 0.0, 0.0)",0.7390413248543296,True,"(-0.02484567390574314, 0.18227161175625292, 0.023998761251855426)","(0.9979668873970211, 0.06372251585839182, -0.0012379950638458008)",-0.0025086982764485222,15.68657560954093,True,"(0.03573472939006004, 0.1814491761396439, 0.023997716044379027)","(-0.9953040509812058, -0.09677103449881742, -0.0022831956617496516)",5.3096764227217616e-05,8.772612519631947
77,Move,"(0.016, 0.0, -0.0039)","(0.0, 0.08188561251581795, 0.0)","(0.006527148627330515, 0.16041106658537607, 0.04789944297268445)","(0.0001280709334509077, 0.0011202741930714719, 0.059101225854182954)","[-0.0034716779713916497, 0.0003833240634466273, 0.0003488839584668141]","[-0.026750000193715096, 0.05299999937415123, 0.03999999910593033]","[0.0, -0.0, 0.47819059365797306]","[-0.05988249182701111, 0.11692368984222412, 0.03999999910593033]","[0.0, 0.0, -0.339348248026097]","[0.026750000193715096, 0.05299999937415123, 0.03999999910593033]","[0.0, 0.0, -0.5709624294340617]","[0.06566182523965836, 0.11357945203781128, 0.03999999910593033]","[0.0, -0.0, 0.24816833014912193]",0.4743224642011251,-0.9283536664565961,"(0.0, 0.0, 0.0, 0.0, 0.0, 0.0)",-2.0305147923281313,-0.8166205772730939,0.22038599691920566,"(0.0, 0.0, 0.0, 0.0, 0.0, 0.0)",-1.1117002934286682,-0.5746560262039596,-0.8864659414648066,"(0.0, 0.0, 0.0, 0.0, 0.0, 0.0)",1.6636275487833516,0.8185028516385217,-0.15069960493955403,"(0.0, 0.0, 0.0, 0.0, 0.0, 0.0)",0.7532869617700152,True,"(-0.02438756388517159, 0.18229727179599842, 0.02399895857040047)","(0.9981018548992745, 0.061576003814799746, -0.0010406732566931557)",-0.002417784464867122,15.955351407341794,True,"(0.03627162676549364, 0.18143194095342047, 0.023997716044379027)","(-0.9953040509812058, -0.09677103449881742, -0.0022831956617496516)",5.152494509943737e-05,7.921433609011027
78,Move,"(0.014400000000000001, 0.0, -0.0043)","(0.0, 0.0771348262918894, 0.0)","(0.006992699219343073, 0.16039923162113487, 0.04794144321620959)","(-0.00017499917301222863, 0.0010226694569513705, 0.05679649850852898)","[-0.0030061273793790914, 0.0003714890992054243, 0.00039088420199195895]","[-0.026750000193715096, 0.05299999937415123, 0.03999999910593033]","[0.0, -0.0, 0.474322531279479]","[-0.059634979814291, 0.1170513704419136, 0.03999999910593033]","[0.0, 0.0, -0.34229811431787]","[0.026750000193715096, 0.05299999937415123, 0.03999999910593033]","[0.0, 0.0, -0.5746560183483067]","[0.06588532030582428, 0.11343531310558319, 0.03999999910593033]","[0.0, -0.0, 0.24384682334979876]",0.47047095885221196,-0.9243612837391582,"(0.0, 0.0, 0.0, 0.0, 0.0, 0.0)",-2.0262060479680954,-0.8157206920374498,0.21597245655458672,"(0.0, 0.0, 0.0, 0.0, 0.0, 0.0)",-1.1021578965339436,-0.5783094694187104,-0.876826371540198,"(0.0, 0.0, 0.0, 0.0, 0.0, 0.0)",1.5801605287695726,0.8178945312585895,-0.1459968911837317,"(0.0, 0.0, 0.0, 0.0, 0.0, 0.0)",0.7353341597598403,True,"(-0.023947388032102584, 0.18232040015324286, 0.023998878970266847)","(0.9982534044445331, 0.059066788478438235, -0.001120273958744866)",-0.0023365792777033535,15.395066381533937,True,"(0.03678861720621198, 0.18141417945112026, 0.023997716044379027)","(-0.9953040509812058, -0.09677103449881742, -0.0022831956617496516)",5.972836434499828e-05,7.102451281078652
79,Move,"(0.0147, 0.0, -0.0047)","(0.0, 0.06392268385429233, 0.0)","(0.007407885063139039, 0.16038733873651492, 0.047983091135911815)","(-0.0006378963039319397, 0.000800213529912121, 0.05485567516319655)","[-0.002590941535583126, 0.0003595962145854781, 0.00043253212169418187]","[-0.026750000193715096, 0.05299999937415123, 0.03999999910593033]","[0.0, -0.0, 0.47047097533088383]","[-0.059388041496276855, 0.1171775534749031, 0.03999999910593033]","[0.0, 0.0, -0.3452497008544896]","[0.026750000193715096, 0.05299999937415123, 0.03999999910593033]","[0.0, 0.0, -0.5783094668183211]","[0.06610585749149323, 0.11329192668199539, 0.03999999910593033]","[0.0, -0.0, 0.23958505978251787]",0.4670811101792904,-0.8135636815011791,"(0.0, 0.0, 0.0, 0.0, 0.0, 0.0)",-1.7427911916464724,-0.8148819411386122,0.20130021572101472,"(0.0, 0.0, 0.0, 0.0, 0.0, 0.0)",-1.0178720770750984,-0.5815338286271501,-0.7738462100255328,"(0.0, 0.0, 0.0, 0.0, 0.0, 0.0)",1.6405345551724813,0.8173185061877513,-0.1382460170011593,"(0.0, 0.0, 0.0, 0.0, 0.0, 0.0)",0.7200390901414383,True,"(-0.023507993299302837, 0.18234160693584944, 0.023998976574262205)","(0.9983869903345717, 0.05676593765826792, -0.0010226692786909585)",-0.0022555702233135063,14.431538719132629,True,"(0.037299125735770045, 0.18139418332193558, 0.023997716044379027)","(-0.9953040509812058, -0.09677103449881742, -0.0022831956617496516)",6.151539329465156e-05,6.406475646055151
80,Move,"(0.0147, 0.0, -0.0054)","(0.0, 0.05541594908007196, 0.0)","(0.007827258688906151, 0.16036765243666615, 0.04802136754202312)","(-0.0010451990156056788, 0.0005117995187634496, 0.05291482184731571)","[-0.0021715679098160134, 0.0003399099147367024, 0.00047080852780548993]","[-0.026750000193715096, 0.05299999937415123, 0.03999999910593033]","[0.0, -0.0, 0.4670811131734078]","[-0.059170302003622055, 0.11728782206773758, 0.03999999910593033]","[0.0, 0.0, -0.3478008424092366]","[0.026750000193715096, 0.05299999937415123, 0.03999999910593033]","[0.0, 0.0, -0.5815339073175304]","[0.06630004942417145, 0.11316471546888351, 0.03999999910593033]","[0.0, -0.0, 0.2357846798387986]",0.46366029984339024,-0.8209944806160334,"(0.0, 0.0, 0.0, 0.0, 0.0, 0.0)",-1.8286739905742238,-0.8140794641680587,0.19259447293286794,"(0.0, 0.0, 0.0, 0.0, 0.0, 0.0)",-0.9881579263630207,-0.5847922653865776,-0.7820248222625895,"(0.0, 0.0, 0.0, 0.0, 0.0, 0.0)",1.3835652952518762,0.8167705959667219,-0.13149845304706953,"(0.0, 0.0, 0.0, 0.0, 0.0, 0.0)",0.6623186026600774,True,"(-0.023124164135041106, 0.182360739929795, 0.023999199029984236)","(0.9984954850138821, 0.054828150300147024, -0.0008002134445100774)",-0.0021748399993852282,13.729847630325702,True,"(0.03775234579413306, 0.18137595729634107, 0.023997716044379027)","(-0.9953040509812058, -0.09677103449881742, -0.0022831956617496516)",6.026729723897834e-05,6.102925431297852
81,Move,"(0.016800000000000002, 0.0, -0.004900000000000001)","(0.0, 0.04689525167183564, 0.0)","(0.008236477552552286, 0.160346714751837, 0.04805808778902872)","(-0.00141129903457169, 0.0002536481049208349, 0.05100367726209322)","[-0.0017623490461698785, 0.0003189722299075659, 0.0005075287748110835]","[-0.026750000193715096, 0.05299999937415123, 0.03999999910593033]","[0.0, -0.0, 0.4636602757752605]","[-0.05895019695162773, 0.11739835143089294, 0.03999999910593033]","[0.0, 0.0, -0.3504191680384548]","[0.026750000193715096, 0.05299999937415123, 0.03999999910593033]","[0.0, 0.0, -0.5847923250950582]","[0.06649588793516159, 0.11303552985191345, 0.03999999910593033]","[0.0, -0.0, 0.23197836865788649]",0.46031249411847885,-0.8034733739787319,"(0.0, 0.0, 0.0, 0.0, 0.0, 0.0)",-1.735823691854911,-0.8132991367895472,0.18727857084273536,"(0.0, 0.0, 0.0, 0.0, 0.0, 0.0)",-0.9538025034536883,-0.5879801937916072,-0.7651028172070965,"(0.0, 0.0, 0.0, 0.0, 0.0, 0.0)",1.3822238749539515,0.8162372814150097,-0.12799549241090144,"(0.0, 0.0, 0.0, 0.0, 0.0, 0.0)",0.6464292257095489,True,"(-0.02273383500458867, 0.18237734006863324, 0.023999487440879895)","(0.9986002066595091, 0.05289012498436026, -0.000511799496420211)",-0.002095075133640152,13.296858138304712,True,"(0.03820802023735331, 0.1813549348666686, 0.023997716044379027)","(-0.9953040509812058, -0.09677103449881742, -0.0022831956617496516)",5.6314625297130294e-05,5.994142388176776
82,Move,"(0.017, 0.0, -0.0054)","(0.0, 0.02981895027032312, 0.0)","(0.008696315621741592, 0.16029208976926926, 0.048074080474205035)","(-0.001221746732074246, -0.00015647445885966514, 0.04910441100785582)","[-0.0013025109769805726, 0.0002643472473398134, 0.0005235214599874013]","[-0.026750000193715096, 0.05299999937415123, 0.03999999910593033]","[0.0, -0.0, 0.4603125141501215]","[-0.05873442441225052, 0.11750578880310059, 0.03999999910593033]","[0.0, 0.0, -0.3529866287785335]","[0.026750000193715096, 0.05299999937415123, 0.03999999910593033]","[0.0, 0.0, -0.58798016021772]","[0.06668706983327866, 0.11290851980447769, 0.03999999910593033]","[0.0, -0.0, 0.22825710864952956]",0.45654179648899,-0.9049674310773184,"(0.0, 0.0, 0.0, 0.0, 0.0, 0.0)",-1.894384487032542,-0.8125187663772324,0.1872888989555527,"(0.0, 0.0, 0.0, 0.0, 0.0, 0.0)",-0.9798843817178109,-0.5915425526213886,-0.8549661191475392,"(0.0, 0.0, 0.0, 0.0, 0.0, 0.0)",1.2073552869938449,0.8157153252815463,-0.12526947203120833,"(0.0, 0.0, 0.0, 0.0, 0.0, 0.0)",0.6156291875454483,True,"(-0.02235138234515502, 0.18239223569299676, 0.02399974559095135)","(0.9986995622662582, 0.05098156521552321, -0.00025364810220122267)",-0.0020189353217550275,12.969042196707548,True,"(0.038653635296693474, 0.18133271572209292, 0.023997716044379027)","(-0.9953040509812058, -0.09677103449881742, -0.0022831956617496516)",5.3806714499051815e-05,6.411515076914442
83,Move,"(0.0171, 0.0, -0.006200000000000001)","(0.0, 0.017205455766160106, 0.0)","(0.009137258787929545, 0.16024395899183955, 0.048057188385210566)","(0.0009957577086775376, 2.8732199357910956e-05, 0.04664994072174089)","[-0.0008615678107926194, 0.00021621646991010213, 0.0005066293709929323]","[-0.026750000193715096, 0.05299999937415123, 0.03999999910593033]","[0.0, -0.0, 0.45654174122169006]","[-0.05849096551537514, 0.11762592941522598, 0.03999999910593033]","[0.0, 0.0, -0.3559769955174441]","[0.026750000193715096, 0.05299999937415123, 0.03999999910593033]","[0.0, 0.0, -0.5915425393770783]","[0.06690023094415665, 0.11276586353778839, 0.03999999910593033]","[0.0, -0.0, 0.2241727559904464]",0.45283924393345476,-0.8886126133284549,"(0.0, 0.0, 0.0, 0.0, 0.0, 0.0)",-2.0382657094216916,-0.8116233975709739,0.21488851350204674,"(0.0, 0.0, 0.0, 0.0, 0.0, 0.0)",-1.1030369255842212,-0.5950632079524224,-0.844957279448134,"(0.0, 0.0, 0.0, 0.0, 0.0, 0.0)",1.609492970519541,0.8151167400924711,-0.1436604453780542,"(0.0, 0.0, 0.0, 0.0, 0.0, 0.0)",0.712938889999289,True,"(-0.021914054968155516, 0.18240329327535612, 0.02399974559095135)","(0.9986995622662582, 0.05098156521552321, -0.00025364810220122267)",-0.0019450928779950962,13.54524552922455,True,"(0.03917210628013092, 0.18046543746989718, 0.023999842765582556)","(-0.9987946084168469, -0.049084679006604584, -0.00015647445821957397)",-1.1509405933120125e-05,12.817662494663441
84,Move,"(0.0171, 0.0, -0.006500000000000001)","(0.0, 0.008604473212332044, 0.0)","(0.009563067653613632, 0.16023940547754356, 0.048113209262234564)","(0.0007580949947979406, 0.0002889468465115543, 0.04407375215094241)","[-0.00043575894510853273, 0.00021166295561411697, 0.0005626502480169313]","[-0.026750000193715096, 0.05299999937415123, 0.03999999910593033]","[0.0, -0.0, 0.45283920765951563]","[-0.05825146660208702, 0.11774301528930664, 0.03999999910593033]","[0.0, 0.0, -0.35878414990958063]","[0.026750000193715096, 0.05299999937415123, 0.03999999910593033]","[0.0, 0.0, -0.5950632000872916]","[0.06711039692163467, 0.1126241385936737, 0.03999999910593033]","[0.0, -0.0, 0.22005354492480328]",0.44918606257843297,-0.8767635252052328,"(0.0, 0.0, 0.0, 0.0, 0.0, 0.0)",-1.9832985708734192,-0.8107890680518411,0.20023908459185844,"(0.0, 0.0, 0.0, 0.0, 0.0, 0.0)",-1.0413928496397529,-0.5985140622616172,-0.8282050342067521,"(0.0, 0.0, 0.0, 0.0, 0.0, 0.0)",1.531680307631457,0.8145397333106961,-0.138481627626007,"(0.0, 0.0, 0.0, 0.0, 0.0, 0.0)",0.6920430607486115,True,"(-0.021492859438975657, 0.1824174394184263, 0.02399974559095135)","(0.9986995622662582, 0.05098156521552321, -0.00025364810220122267)",-0.0018746601014258445,13.704459016500353,True,"(0.0396613773054072, 0.18043735636423885, 0.023999842765582556)","(-0.9987946084168469, -0.049084679006604584, -0.00015647445821957397)",-3.620314420344224e-06,11.737205128243064
85,Move,"(0.0172, 0.0, -0.006900000000000001)","(0.0, -0.0, 0.0)","(0.009979217548208354, 0.1602253316092189, 0.048164850235544066)","(0.00038392820810905875, 0.0005010142966821597, 0.04145857144007772)","[-1.960905051381044e-05, 0.00019758908728945146, 0.0006142912213264323]","[-0.026750000193715096, 0.05299999937415123, 0.03999999910593033]","[0.0, -0.0, 0.44918605586028143]","[-0.05801473930478096, 0.11785765737295151, 0.03999999910593033]","[0.0, 0.0, -0.36160300441402615]","[0.026750000193715096, 0.05299999937415123, 0.03999999910593033]","[0.0, 0.0, -0.5985140502015267]","[0.06731591373682022, 0.11248450726270676, 0.03999999910593033]","[0.0, -0.0, 0.21602566548007665]",0.4455992465095402,-0.8608358565342642,"(0.0, 0.0, 0.0, 0.0, 0.0, 0.0)",-1.8824047496469043,-0.8099911901168626,0.19149070439484966,"(0.0, 0.0, 0.0, 0.0, 0.0, 0.0)",-0.9893489225512316,-0.601888784539848,-0.8099333467753874,"(0.0, 0.0, 0.0, 0.0, 0.0, 0.0)",1.503571617981126,0.8139835591743095,-0.13348179273277036,"(0.0, 0.0, 0.0, 0.0, 0.0, 0.0)",0.6723004343326571,True,"(-0.021074043341971438, 0.18242989870020285, 0.023999710293198313)","(0.9990288676912744, 0.044059482852304044, -0.00028894684246941763)",-0.0018143109636098197,13.207247314353715,True,"(0.040140254942044214, 0.18040773422917608, 0.023999842765582556)","(-0.9987946084168469, -0.049084679006604584, -0.00015647445821957397)",6.545437659385438e-06,10.546873918842726
86,Move,"(0.0152, 0.0, -0.0064)","(0.0, -0.0, 0.0)","(0.010403538759918899, 0.1602116037394422, 0.04819330443502068)","(-0.0009380533883088279, 0.0005146979552503002, 0.03888026490694574)","[0.00040471216119673456, 0.00018386121751276518, 0.0006427454208030453]","[-0.026750000193715096, 0.05299999937415123, 0.03999999910593033]","[0.0, -0.0, 0.44559928468826965]","[-0.05778190493583679, 0.11796938627958298, 0.03999999910593033]","[0.0, 0.0, -0.3643919412700954]","[0.026750000193715096, 0.05299999937415123, 0.03999999910593033]","[0.0, 0.0, -0.6018887637815785]","[0.06751642376184464, 0.11234726756811142, 0.03999999910593033]","[0.0, -0.0, 0.21209478243437055]",0.44204483172883796,-0.8530595473685302,"(0.0, 0.0, 0.0, 0.0, 0.0, 0.0)",-1.6944464128372208,-0.8092242123714767,0.18407465889262126,"(0.0, 0.0, 0.0, 0.0, 0.0, 0.0)",-0.9391455738824442,-0.6052188903595266,-0.799225396722883,"(0.0, 0.0, 0.0, 0.0, 0.0, 0.0)",1.542591757396315,0.813420688753922,-0.13508890089301184,"(0.0, 0.0, 0.0, 0.0, 0.0, 0.0)",0.6711421075924434,True,"(-0.02066127341963077, 0.18243851942028821, 0.023999498225765054)","(0.9991405911168173, 0.04144669066924797, -0.0005010142757297573)",-0.0017556121484458387,10.939184965240413,True,"(0.0406079756948457, 0.18037679672105383, 0.023999842765582556)","(-0.9987946084168469, -0.049084679006604584, -0.00015647445821957397)",1.4009851182722476e-05,10.418135047787082
87,Move,"(0.0152, 0.0, -0.0067)","(0.0, -0.0, 0.0)","(0.010749300145649412, 0.1602115438362587, 0.04823786815970287)","(-0.0011713354404339425, 0.0007627026136787573, 0.036814247390275084)","[0.000750473546927248, 0.00018380131432926827, 0.000687309145485239]","[-0.026750000193715096, 0.05299999937415123, 0.03999999910593033]","[0.0, -0.0, 0.44204490748001607]","[-0.05755078047513962, 0.118079274892807, 0.03999999910593033]","[0.0, 0.0, -0.367179372378609]","[0.026750000193715096, 0.05299999937415123, 0.03999999910593033]","[0.0, 0.0, -0.605219006298674]","[0.06771383434534073, 0.1122111827135086, 0.03999999910593033]","[0.0, -0.0, 0.20820181372221075]",0.4390518584782705,-0.7183135801361928,"(0.0, 0.0, 0.0, 0.0, 0.0, 0.0)",-1.5925649973662546,-0.8084624740059925,0.18281720771620788,"(0.0, 0.0, 0.0, 0.0, 0.0, 0.0)",-0.9175226441942745,-0.6080381166317966,-0.676614305344813,"(0.0, 0.0, 0.0, 0.0, 0.0, 0.0)",1.57631148281443,0.8128877903625326,-0.12789561393347723,"(0.0, 0.0, 0.0, 0.0, 0.0, 0.0)",0.6603680931320018,True,"(-0.02025059864205042, 0.1824448962711652, 0.023999484542108238)","(0.9992441253537541, 0.03887046477789194, -0.0005146979325456726)",-0.0016827043024698282,12.601492283824225,True,"(0.041070422540817955, 0.18034494958135722, 0.023999842765582556)","(-0.9987946084168469, -0.049084679006604584, -0.00015647445821957397)",4.399571393232988e-06,9.466383912855166
88,Move,"(0.0151, 0.0, -0.0068)","(0.0, 0.013110913340981403, 0.0)","(0.01109321261594782, 0.16021010159267643, 0.048278230510106504)","(-0.0014050902318344222, 0.0009886205808995001, 0.03476175533079299)","[0.001094386017225656, 0.00018235907074698465, 0.0007276714958888708]","[-0.026750000193715096, 0.05299999937415123, 0.03999999910593033]","[0.0, -0.0, 0.43905183646460927]","[-0.057355862110853195, 0.11817117035388947, 0.03999999910593033]","[0.0, 0.0, -0.3694106237799834]","[0.026750000193715096, 0.05299999937415123, 0.03999999910593033]","[0.0, 0.0, -0.6080380913684134]","[0.06788060069084167, 0.11209546774625778, 0.03999999910593033]","[0.0, -0.0, 0.20484966791501685]",0.4360872700211802,-0.7115012297016727,"(0.0, 0.0, 0.0, 0.0, 0.0, 0.0)",-1.7321517296166662,-0.8077249666059939,0.1770017759996527,"(0.0, 0.0, 0.0, 0.0, 0.0, 0.0)",-0.9146654191831943,-0.6108138451082067,-0.6661748343384056,"(0.0, 0.0, 0.0, 0.0, 0.0, 0.0)",1.3414666154966846,0.8123779057907444,-0.12237229722914948,"(0.0, 0.0, 0.0, 0.0, 0.0, 0.0)",0.6125993509185963,True,"(-0.019912164822876208, 0.18245357004354895, 0.023999236537501058)","(0.999322141464194, 0.03680592159223012, -0.0007627025397281106)",-0.001633444401603281,12.248156099418033,True,"(0.04146573139402004, 0.18031815717873748, 0.023999842765582556)","(-0.9987946084168469, -0.049084679006604584, -0.00015647445821957397)",2.079886108638252e-05,7.7858859139758305
89,Move,"(0.0148, 0.0, -0.007)","(0.0, 0.021750293138353336, 0.0)","(0.011427430284374655, 0.1602075135981959, 0.04831528873188943)","(-0.0016379461593799146, 0.0011972552832981204, 0.03279995357717074)","[0.0014286036856524902, 0.0001797710762664606, 0.0007647297176717957]","[-0.026750000193715096, 0.05299999937415123, 0.03999999910593033]","[0.0, -0.0, 0.43608726044287044]","[-0.05716252326965332, 0.11826161295175552, 0.03999999910593033]","[0.0, 0.0, -0.37163769968646926]","[0.026750000193715096, 0.05299999937415123, 0.03999999910593033]","[0.0, 0.0, -0.6108139006644421]","[0.06804446876049042, 0.11198107153177261, 0.03999999910593033]","[0.0, -0.0, 0.2015640585876377]",0.4332280839578229,-0.6862046552057524,"(0.0, 0.0, 0.0, 0.0, 0.0, 0.0)",-1.6215582418399002,-0.8070173685872096,0.16982352450822216,"(0.0, 0.0, 0.0, 0.0, 0.0, 0.0)",-0.8755892281818258,-0.6134833255825338,-0.6406753138385248,"(0.0, 0.0, 0.0, 0.0, 0.0, 0.0)",1.3008036447210458,0.8118932664985448,-0.11631343012792057,"(0.0, 0.0, 0.0, 0.0, 0.0, 0.0)",0.5855820110669501,True,"(-0.01957576202661631, 0.18246064229028575, 0.023999010619620925)","(0.999395382631542, 0.03475473787010079, -0.0009886204198599738)",-0.0015838830899972366,11.643229130741071,True,"(0.0418539012417707, 0.18029018293180568, 0.023999842765582556)","(-0.9987946084168469, -0.049084679006604584, -0.00015647445821957397)",3.1800650316905504e-05,6.544274676136285
90,Move,"(0.0174, 0.0, -0.008199999999999999)","(0.0, 0.038988910160301336, 0.0)","(0.011745737412417141, 0.1602043345275749, 0.0483486973050692)","(-0.0018776443386588992, 0.0013936122936891863, 0.031014192449962716)","[0.0017469108136949768, 0.00017659200564545952, 0.0007981382908515688]","[-0.026750000193715096, 0.05299999937415123, 0.03999999910593033]","[0.0, -0.0, 0.4332281361801428]","[-0.05697580426931381, 0.11834830045700073, 0.03999999910593033]","[0.0, 0.0, -0.3737892476197944]","[0.026750000193715096, 0.05299999937415123, 0.03999999910593033]","[0.0, 0.0, -0.6134833464022968]","[0.06820177286863327, 0.11187062412500381, 0.03999999910593033]","[0.0, -0.0, 0.1984099282775782]",0.4305153823525649,-0.6510483852619205,"(0.0, 0.0, 0.0, 0.0, 0.0, 0.0)",-1.563442758978583,-0.8063215718949928,0.1669912061320386,"(0.0, 0.0, 0.0, 0.0, 0.0, 0.0)",-0.8566239790333893,-0.6160105895298292,-0.6065433473508933,"(0.0, 0.0, 0.0, 0.0, 0.0, 0.0)",1.2801412256526943,0.811420207615275,-0.11353413198474206,"(0.0, 0.0, 0.0, 0.0, 0.0, 0.0)",0.572930762259506,True,"(-0.019251006551997733, 0.18246650039431916, 0.02399880198504351)","(0.9994614134224629, 0.032794049155972886, -0.0011972549972725293)",-0.001534161596200094,11.287693706841553,True,"(0.0422267877790632, 0.18026200639761103, 0.023999842765582556)","(-0.9987946084168469, -0.049084679006604584, -0.00015647445821957397)",3.865390527064278e-05,5.590213477327976
91,Move,"(0.0175, 0.0, -0.008199999999999999)","(0.0, 0.06476916854150959, 0.0)","(0.012122496634379391, 0.16018279893051712, 0.04836780664516537)","(-0.001854150452909164, 0.0014807253758961985, 0.029090383032831048)","[0.0021236700356572265, 0.00015505640858767822, 0.0008172476309477386]","[-0.026750000193715096, 0.05299999937415123, 0.03999999910593033]","[0.0, -0.0, 0.4305153760571754]","[-0.05679842457175255, 0.11843005567789078, 0.03999999910593033]","[0.0, 0.0, -0.3758061731949008]","[0.026750000193715096, 0.05299999937415123, 0.03999999910593033]","[0.0, 0.0, -0.6160106306056424]","[0.0683504194021225, 0.11176567524671555, 0.03999999910593033]","[0.0, -0.0, 0.19540962230213305]",0.4272663649073451,-0.7797641868527644,"(0.0, 0.0, 0.0, 0.0, 0.0, 0.0)",-1.9269455518065122,-0.8055548296520462,0.1840181383071736,"(0.0, 0.0, 0.0, 0.0, 0.0, 0.0)",-0.9718700120752395,-0.6189902681505315,-0.7151228689685442,"(0.0, 0.0, 0.0, 0.0, 0.0, 0.0)",1.1568735172326912,0.8109194454909231,-0.12018290984445133,"(0.0, 0.0, 0.0, 0.0, 0.0, 0.0)",0.5856456645614174,True,"(-0.01894438901672217, 0.1824722667748454, 0.023998605628198194)","(0.9995181278721973, 0.031009190587467733, -0.0013936118425870556)",-0.0014861075144031954,11.246527344030033,True,"(0.042580749679131016, 0.1802346843299603, 0.023999842765582556)","(-0.9987946084168469, -0.049084679006604584, -0.00015647445821957397)",4.560189944206108e-05,5.910846969496481
92,Move,"(0.0146, 0.0, -0.0091)","(0.0, 0.08188561251581795, 0.0)","(0.012484511640693894, 0.1601561726379142, 0.048381106943161965)","(-0.0017307973160182427, 0.0015289281921561102, 0.02740068502156681)","[0.0024856850419717295, 0.00012843011598476228, 0.0008305479289443321]","[-0.026750000193715096, 0.05299999937415123, 0.03999999910593033]","[0.0, -0.0, 0.4272663477861823]","[-0.056585680693387985, 0.11852733790874481, 0.03999999910593033]","[0.0, 0.0, -0.3782884747285063]","[0.026750000193715096, 0.05299999937415123, 0.03999999910593033]","[0.0, 0.0, -0.6189902657799122]","[0.06852534413337708, 0.11164145916700363, 0.03999999910593033]","[0.0, -0.0, 0.1919291931097626]",0.42414254622916675,-0.749716482762804,"(0.0, 0.0, 0.0, 0.0, 0.0, 0.0)",-1.6852291468173102,-0.8047809538312709,0.1857301969860691,"(0.0, 0.0, 0.0, 0.0, 0.0, 0.0)",-0.9542255864599529,-0.6218200636339655,-0.6791509160241438,"(0.0, 0.0, 0.0, 0.0, 0.0, 0.0)",1.405415056712382,0.8104123320194137,-0.12170723316226158,"(0.0, 0.0, 0.0, 0.0, 0.0, 0.0)",0.6186680678888511,True,"(-0.01857281000685264, 0.18247594600296652, 0.02399851851520598)","(0.9995758088360243, 0.029086248361925113, -0.001480724834807498)",-0.0014392223551239678,11.030869093008016,True,"(0.04299412549873759, 0.18019974268917643, 0.023999842765582556)","(-0.9987946084168469, -0.049084679006604584, -0.00015647445821957397)",4.8906682020729445e-05,5.798416170403095
