OSUrobotics/InHand-Manipulation/AnalyseData/Data/Trial Data/Tries/new_hand_human_sub1_2v2_c_n_1_kpNone_kdNone_dp2_step2_save_data.csv
,Phase,human_cube_pos,human_cube_orn,Cube_Pos,Cube_Orn,Cube_pos_in_start_pos,b'l_prox_pin'_link_pos,b'l_prox_pin'_link_orn,b'l_distal_pin'_link_pos,b'l_distal_pin'_link_orn,b'r_prox_pin'_link_pos,b'r_prox_pin'_link_orn,b'r_distal_pin'_link_pos,b'r_distal_pin'_link_orn,b'l_prox_pin'_joint_angle,b'l_prox_pin'_joint_vel,b'l_prox_pin'_joint_react_forces,b'l_prox_pin'_joint_motor_torque,b'l_distal_pin'_joint_angle,b'l_distal_pin'_joint_vel,b'l_distal_pin'_joint_react_forces,b'l_distal_pin'_joint_motor_torque,b'r_prox_pin'_joint_angle,b'r_prox_pin'_joint_vel,b'r_prox_pin'_joint_react_forces,b'r_prox_pin'_joint_motor_torque,b'r_distal_pin'_joint_angle,b'r_distal_pin'_joint_vel,b'r_distal_pin'_joint_react_forces,b'r_distal_pin'_joint_motor_torque,in_contact_l,contact_point_l_dist,contact_normal_l_dist,contact_distance_l_dist,contact_norm_force_l_dist,in_contact_r,contact_point_r_dist,contact_normal_r_dist,contact_distance_r_dist,contact_norm_force_r_dist
0,Open,,,,,,"[-0.026750000193715096, 0.05299999937415123, 0.03999999910593033]","[0.0, -0.0, 0.0]","[-0.026750000193715096, 0.125, 0.03999999910593033]","[0.0, -0.0, 5.883223447970011e-32]","[0.026750000193715096, 0.05299999937415123, 0.03999999910593033]","[0.0, 0.0, -0.008068665592501188]","[0.02733093686401844, 0.12499765306711197, 0.03999999910593033]","[0.0, 0.0, -0.0780932845685428]",0.157,37.68,"(0.0, 0.0, 0.0, 0.0, 0.0, 0.0)",54.702693795169004,5.294901130302062e-32,-1.4119736347472162e-30,"(0.0, 0.0, 0.0, 0.0, 0.0, 0.0)",3.9113724975844915,-0.1670280316324969,-38.150247946082466,"(0.0, 0.0, 0.0, 0.0, 0.0, 0.0)",-25.93345404555236,-0.0659493391739072,0.9780670797324476,"(0.0, 0.0, 0.0, 0.0, 0.0, 0.0)",-6.754749483880455,False,,,,,False,,,,
1,Open,,,,,,"[-0.026750000193715096, 0.05299999937415123, 0.03999999910593033]","[0.0, -0.0, 0.29830000998707634]","[-0.04791048914194107, 0.12182030081748962, 0.03999999910593033]","[0.0, -0.0, 0.29830000998707634]","[0.026750000193715096, 0.05299999937415123, 0.03999999910593033]","[0.0, 0.0, -0.3122944642903269]","[0.048871491104364395, 0.12151744216680527, 0.03999999910593033]","[0.0, 0.0, -0.3793531994353912]",0.42546999999999996,30.5208,"(0.0, 0.0, 0.0, 0.0, 0.0, 0.0)",-4.858074537215091,5.294901130302062e-32,0.0,"(0.0, 0.0, 0.0, 0.0, 0.0, 0.0)",-0.33154044974508506,-0.44292449566296654,-31.35120824461403,"(0.0, 0.0, 0.0, 0.0, 0.0, 0.0)",100.88457241511576,-0.08373770380977785,-4.0029668326633345,"(0.0, 0.0, 0.0, 0.0, 0.0, 0.0)",24.077304806401806,False,,,,,False,,,,
2,Open,,,,,,"[-0.026750000193715096, 0.05299999937415123, 0.03999999910593033]","[0.0, -0.0, 0.5399230359738098]","[-0.06376303732395172, 0.11475787311792374, 0.03999999910593033]","[0.0, -0.0, 0.5399230359738098]","[0.026750000193715096, 0.05299999937415123, 0.03999999910593033]","[0.0, 0.0, -0.5623038790270362]","[0.06513584405183792, 0.11391409486532211, 0.03999999910593033]","[0.0, 0.0, -0.6668711870723439]",0.6429307,24.721848,"(0.0, 0.0, 0.0, 0.0, 0.0, 0.0)",-3.943806903965684,5.294901130302062e-32,0.0,"(0.0, 0.0, 0.0, 0.0, 0.0, 0.0)",-0.2716098155097054,-0.6673401099248648,-25.208696742335626,"(0.0, 0.0, 0.0, 0.0, 0.0, 0.0)",94.97739775913854,-0.11755295807544866,-3.116564819203918,"(0.0, 0.0, 0.0, 0.0, 0.0, 0.0)",25.79194570087013,False,,,,,False,,,,
3,Open,,,,,,"[-0.026750000193715096, 0.05299999937415123, 0.03999999910593033]","[0.0, -0.0, 0.7356376306875043]","[-0.07506632059812546, 0.10638101398944855, 0.03999999910593033]","[0.0, -0.0, 0.7356376306875043]","[0.026750000193715096, 0.05299999937415123, 0.03999999910593033]","[0.0, 0.0, -0.757991847340814]","[0.076247438788414, 0.10528770089149475, 0.03999999910593033]","[0.0, 0.0, -0.8659334873334429]",0.8190738670000001,20.024696880000004,"(0.0, 0.0, 0.0, 0.0, 0.0, 0.0)",-3.2002295086701533,2.3293280891773424e-07,5.5903874140256216e-05,"(0.0, 0.0, 0.0, 0.0, 0.0, 0.0)",-0.22200715926400075,-0.8391926082762636,-19.488197112632974,"(0.0, 0.0, 0.0, 0.0, 0.0, 0.0)",3.295349739497939,-0.09714776835574307,2.590534961280482,"(0.0, 0.0, 0.0, 0.0, 0.0, 0.0)",0.25803221970863044,False,,,,,False,,,,
4,Open,,,,,,"[-0.026750000193715096, 0.05299999937415123, 0.03999999910593033]","[0.0, -0.0, 0.894166469119967]","[-0.08288749307394028, 0.09808415919542313, 0.03999999910593033]","[0.0, -0.0, 0.894166894674561]","[0.026750000193715096, 0.05299999937415123, 0.03999999910593033]","[0.0, 0.0, -0.9122733503889549]","[0.08369457721710205, 0.09706035256385803, 0.03999999910593033]","[0.0, 0.0, -0.9997066729229968]",0.96174983227,16.220004472800003,"(0.0, 0.0, 0.0, 0.0, 0.0, 0.0)",-2.5959652512206968,5.681494863714967e-07,3.553320838026869e-05,"(0.0, 0.0, 0.0, 0.0, 0.0, 0.0)",-0.18114955764248034,-0.9780460127037736,-15.785439661232708,"(0.0, 0.0, 0.0, 0.0, 0.0, 0.0)",2.503992476159733,-0.0786900142246732,2.098357403184359,"(0.0, 0.0, 0.0, 0.0, 0.0, 0.0)",0.15360133560797545,False,,,,,False,,,,
5,Open,,,,,,"[-0.026750000193715096, 0.05299999937415123, 0.03999999910593033]","[0.0, -0.0, 1.0225748785172661]","[-0.08819860219955444, 0.09052424877882004, 0.03999999910593033]","[0.0, -0.0, 1.0225755149967983]","[0.026750000193715096, 0.05299999937415123, 0.03999999910593033]","[0.0, 0.0, -1.037241417801626]","[0.08874232321977615, 0.08961901068687439, 0.03999999910593033]","[0.0, 0.0, -1.1080626941470386]",1.0773173641387,13.138203622968001,"(0.0, 0.0, 0.0, 0.0, 0.0, 0.0)",-2.105207702642618,7.694903593429899e-07,2.0776129443188934e-05,"(0.0, 0.0, 0.0, 0.0, 0.0, 0.0)",-0.14759587787833617,-1.0905172702900567,-12.78620612559849,"(0.0, 0.0, 0.0, 0.0, 0.0, 0.0)",2.0303755786213302,-0.06373917358809339,1.6996763127328351,"(0.0, 0.0, 0.0, 0.0, 0.0, 0.0)",0.1250328149112744,False,,,,,False,,,,
6,Open,,,,,,"[-0.026750000193715096, 0.05299999937415123, 0.03999999910593033]","[0.0, -0.0, 1.126585512342968]","[-0.09176240861415863, 0.08394166082143784, 0.03999999910593033]","[0.0, -0.0, 1.1265864725026016]","[0.026750000193715096, 0.05299999937415123, 0.03999999910593033]","[0.0, 0.0, -1.13846552283997]","[0.09212540090084076, 0.08316715806722641, 0.03999999910593033]","[0.0, 0.0, -1.1958309904194953]",1.1709270649523469,10.641944934604087,"(0.0, 0.0, 0.0, 0.0, 0.0, 0.0)",-1.7068426281171958,8.750681698751778e-07,1.0273240928962424e-05,"(0.0, 0.0, 0.0, 0.0, 0.0, 0.0)",-0.12011999884119333,-1.181618988934946,-10.356826961734775,"(0.0, 0.0, 0.0, 0.0, 0.0, 0.0)",1.6460093571929852,-0.051628943774705546,1.376743384776279,"(0.0, 0.0, 0.0, 0.0, 0.0, 0.0)",0.10168054944364863,False,,,,,False,,,,
7,Open,,,,,,"[-0.026750000193715096, 0.05299999937415123, 0.03999999910593033]","[0.0, -0.0, 1.2108343955497323]","[-0.09413553774356842, 0.07836118340492249, 0.03999999910593033]","[0.0, -0.0, 1.210835255049739]","[0.026750000193715096, 0.05299999937415123, 0.03999999910593033]","[0.0, 0.0, -1.2204571829136446]","[0.09437645971775055, 0.07771158218383789, 0.03999999910593033]","[0.0, 0.0, -1.2669233179031547]",1.2467509226114009,8.619975397029307,"(0.0, 0.0, 0.0, 0.0, 0.0, 0.0)",-1.3836082777937824,9.135722823677317e-07,2.9650129412077397e-06,"(0.0, 0.0, 0.0, 0.0, 0.0, 0.0)",-0.09766941677677543,-1.2554113810373062,-8.38902983900517,"(0.0, 0.0, 0.0, 0.0, 0.0, 0.0)",1.334189480132575,-0.04181961771093252,1.1151666876061868,"(0.0, 0.0, 0.0, 0.0, 0.0, 0.0)",0.08262627878010878,False,,,,,False,,,,
8,Open,,,,,,"[-0.026750000193715096, 0.05299999937415123, 0.03999999910593033]","[0.0, -0.0, 1.2790758758817962]","[-0.09570803493261337, 0.0737072303891182, 0.03999999910593033]","[0.0, -0.0, 1.2790780932516201]","[0.026750000193715096, 0.05299999937415123, 0.03999999910593033]","[0.0, 0.0, -1.2868702529032277]","[0.0958673357963562, 0.07316911965608597, 0.03999999910593033]","[0.0, 0.0, -1.3245087793274308]",1.3081682532711112,6.982181501004109,"(0.0, 0.0, 0.0, 0.0, 0.0, 0.0)",-1.12145472366965,1.9027582300258812e-06,-5.0740219467356254e-05,"(0.0, 0.0, 0.0, 0.0, 0.0, 0.0)",-0.07939114715284208,-1.315183223212741,-6.795115266999686,"(0.0, 0.0, 0.0, 0.0, 0.0, 0.0)",1.0813262344929835,-0.033874873767778015,0.9033299671407473,"(0.0, 0.0, 0.0, 0.0, 0.0, 0.0)",0.06713055017345074,False,,,,,False,,,,
9,Open,,,,,,"[-0.026750000193715096, 0.05299999937415123, 0.03999999910593033]","[0.0, -0.0, 1.334351465706577]","[-0.09674673527479172, 0.06986585259437561, 0.03999999910593033]","[0.0, -0.0, 1.33435435145599]","[0.026750000193715096, 0.05299999937415123, 0.03999999910593033]","[0.0, 0.0, -1.3406650641721125]","[0.09685182571411133, 0.06942359358072281, 0.03999999910593033]","[0.0, 0.0, -1.3711530696282732]",1.3579162851496,5.655565729344001,"(0.0, 0.0, 0.0, 0.0, 0.0, 0.0)",-0.9088150211252332,3.4316066113876724e-06,0.0001607445165674468,"(0.0, 0.0, 0.0, 0.0, 0.0, 0.0)",-0.06444344013525093,-1.3635984108023202,-5.504042378604797,"(0.0, 0.0, 0.0, 0.0, 0.0, 0.0)",0.8762522980402716,-0.02744024570882781,0.7315266716392431,"(0.0, 0.0, 0.0, 0.0, 0.0, 0.0)",0.05446985052483407,False,,,,,False,,,,
10,Open,,,,,,"[-0.026750000193715096, 0.05299999937415123, 0.03999999910593033]","[0.0, -0.0, 1.3791247702213432]","[-0.0974314734339714, 0.0667160153388977, 0.03999999910593033]","[0.0, -0.0, 1.3791284782568445]","[0.026750000193715096, 0.05299999937415123, 0.03999999910593033]","[0.0, 0.0, -1.3842387704807777]","[0.09750068932771683, 0.06635437905788422, 0.03999999910593033]","[0.0, 0.0, -1.408935619520831]",1.398212190971176,4.581008240768642,"(0.0, 0.0, 0.0, 0.0, 0.0, 0.0)",-0.7364407507487188,4.314390796743166e-06,8.968521101115077e-05,"(0.0, 0.0, 0.0, 0.0, 0.0, 0.0)",-0.05230389643117988,-1.4028147127498793,-4.458274326669883,"(0.0, 0.0, 0.0, 0.0, 0.0, 0.0)",0.7100243788118592,-0.02222789596809768,0.5925708975857369,"(0.0, 0.0, 0.0, 0.0, 0.0, 0.0)",0.04419507766734469,False,,,,,False,,,,
11,Open,,,,,,"[-0.026750000193715096, 0.05299999937415123, 0.03999999910593033]","[0.0, -0.0, 1.415391158105469]","[-0.09788231551647186, 0.06414420157670975, 0.03999999910593033]","[0.0, -0.0, 1.415395709317307]","[0.026750000193715096, 0.05299999937415123, 0.03999999910593033]","[0.0, 0.0, -1.419533200978404]","[0.09792786836624146, 0.06384945660829544, 0.03999999910593033]","[0.0, 0.0, -1.4395389386881268]",1.4308518746866525,3.7106166750225977,"(0.0, 0.0, 0.0, 0.0, 0.0, 0.0)",-0.5967141397561109,4.7399630338636504e-06,3.9705446138709865e-05,"(0.0, 0.0, 0.0, 0.0, 0.0, 0.0)",-0.042434775014060074,-1.4345799173274023,-3.611202204602609,"(0.0, 0.0, 0.0, 0.0, 0.0, 0.0)",0.5752902758042565,-0.018005647771851804,0.4800102903229233,"(0.0, 0.0, 0.0, 0.0, 0.0, 0.0)",0.0358468230863414,False,,,,,False,,,,
12,Open,,,,,,"[-0.026750000193715096, 0.05299999937415123, 0.03999999910593033]","[0.0, -0.0, 1.4447668540021588]","[-0.09817895293235779, 0.06205013021826744, 0.03999999910593033]","[0.0, -0.0, 1.4447715863131299]","[0.026750000193715096, 0.05299999937415123, 0.03999999910593033]","[0.0, 0.0, -1.448121993206969]","[0.09820891171693802, 0.06181041896343231, 0.03999999910593033]","[0.0, 0.0, -1.46432761016298]",1.4572900184961886,3.005599506768304,"(0.0, 0.0, 0.0, 0.0, 0.0, 0.0)",-0.483467731204937,4.849462099751187e-06,5.401615740548756e-06,"(0.0, 0.0, 0.0, 0.0, 0.0, 0.0)",-0.03441712855198442,-1.4603097330351957,-2.925073785728113,"(0.0, 0.0, 0.0, 0.0, 0.0, 0.0)",0.4660969568661882,-0.014585427836986846,0.38883096045278315,"(0.0, 0.0, 0.0, 0.0, 0.0, 0.0)",0.029067900465992856,False,,,,,False,,,,
13,Open,,,,,,"[-0.026750000193715096, 0.05299999937415123, 0.03999999910593033]","[0.0, -0.0, 1.4685611215819594]","[-0.09837405383586884, 0.06034812703728676, 0.03999999910593033]","[0.0, -0.0, 1.468565853091142]","[0.026750000193715096, 0.05299999937415123, 0.03999999910593033]","[0.0, 0.0, -1.4712788457263521]","[0.0983937606215477, 0.06015344336628914, 0.03999999910593033]","[0.0, 0.0, -1.4844061039497418]",1.4787049149819127,2.434535600482329,"(0.0, 0.0, 0.0, 0.0, 0.0, 0.0)",-0.39169363303347604,4.747151892642784e-06,-1.7351748576465223e-05,"(0.0, 0.0, 0.0, 0.0, 0.0, 0.0)",-0.02790732436186781,-1.4811508837585086,-2.3693097664397755,"(0.0, 0.0, 0.0, 0.0, 0.0, 0.0)",0.37761186810531283,-0.011814888241968555,0.3149714411852639,"(0.0, 0.0, 0.0, 0.0, 0.0, 0.0)",0.023565936472848985,False,,,,,False,,,,
14,Open,,,,,,"[-0.026750000193715096, 0.05299999937415123, 0.03999999910593033]","[0.0, -0.0, 1.487834617901085]","[-0.09850236773490906, 0.05896640568971634, 0.03999999910593033]","[0.0, -0.0, 1.4878390921106803]","[0.026750000193715096, 0.05299999937415123, 0.03999999910593033]","[0.0, 0.0, -1.4900358577435544]","[0.09851532429456711, 0.05880843847990036, 0.03999999910593033]","[0.0, 0.0, -1.5006695807985118]",1.4960509811353493,1.9719738363906854,"(0.0, 0.0, 0.0, 0.0, 0.0, 0.0)",-0.3173274216127963,4.509251873886308e-06,-3.168767150011037e-05,"(0.0, 0.0, 0.0, 0.0, 0.0, 0.0)",-0.022624215793833224,-1.498032215844392,-1.9191409108162163,"(0.0, 0.0, 0.0, 0.0, 0.0, 0.0)",0.30591369390909257,-0.00957062017308593,0.2551417656412126,"(0.0, 0.0, 0.0, 0.0, 0.0, 0.0)",0.019102112305110365,False,,,,,False,,,,
15,Close,,,"(0.010000330010418335, 0.1600052801621647, 0.0076635160840755065)","(-0.00010776674212266888, 6.7354271463595154e-06, -3.629275205618536e-10)",,"[-0.026750000193715096, 0.05299999937415123, 0.03999999910593033]","[0.0, -0.0, 1.5034457455162191]","[-0.09858676046133041, 0.05784556642174721, 0.03999999910593033]","[0.0, -0.0, 1.5034503818793725]","[0.026750000193715096, 0.05299999937415123, 0.03999999910593033]","[0.0, 0.0, -1.5052288706440118]","[0.09859529137611389, 0.057717464864254, 0.03999999910593033]","[0.0, 0.0, -1.5138427586332608]",1.413101294719633,-21.682701192523552,"(0.0, 0.0, 0.0, 0.0, 0.0, 0.0)",-36.2964633864193,-0.08999572753671375,-21.600020366059084,"(0.0, 0.0, 0.0, 0.0, 0.0, 0.0)",-4.677104715743802,-1.4147060948339576,21.72549586223887,"(0.0, 0.0, 0.0, 0.0, 0.0, 0.0)",36.28721231316116,0.08224721981037424,21.806647295928226,"(0.0, 0.0, 0.0, 0.0, 0.0, 0.0)",4.674247117033191,False,,,,,False,,,,
16,Close,,,"(0.010000659812012168, 0.16001055698314023, 0.0146278458391823)","(-0.0002154970996661642, 1.346858017578936e-05, -1.4512199879406586e-09)",,"[-0.026750000193715096, 0.05299999937415123, 0.03999999910593033]","[0.0, -0.0, 1.331791174621689]","[-0.09670332819223404, 0.07004500180482864, 0.03999999910593033]","[0.0, -0.0, 1.1607947601674466]","[0.026750000193715096, 0.05299999937415123, 0.03999999910593033]","[0.0, 0.0, -1.333235579802916]","[0.0967278704047203, 0.06994394958019257, 0.03999999910593033]","[0.0, 0.0, -1.1692126917852095]",1.2586120487229027,-17.562987965944075,"(0.0, 0.0, 0.0, 0.0, 0.0, 0.0)",2.9912613024458263,-0.2438973282575851,-17.496176851103186,"(0.0, 0.0, 0.0, 0.0, 0.0, 0.0)",0.3774423078885404,-1.2599119368155056,17.59765164841349,"(0.0, 0.0, 0.0, 0.0, 0.0, 0.0)",-2.998418754928424,0.23762104120869787,17.663545071724318,"(0.0, 0.0, 0.0, 0.0, 0.0, 0.0)",-0.3794651959179023,False,,,,,False,,,,
17,Close,,,"(0.010000989414132393, 0.1600158306125408, 0.020893621515273818)","(-0.00032319108508158773, 2.0199459787849396e-05, -3.2641426920478403e-09)",,"[-0.026750000193715096, 0.05299999937415123, 0.03999999910593033]","[0.0, -0.0, 1.1927509376626115]","[-0.09366592019796371, 0.0795755386352539, 0.03999999910593033]","[0.0, -0.0, 0.8832429263887086]","[0.026750000193715096, 0.05299999937415123, 0.03999999910593033]","[0.0, 0.0, -1.1939208377844814]","[0.0936969667673111, 0.07949723303318024, 0.03999999910593033]","[0.0, 0.0, -0.8900614482005528]",1.1334757594655511,-14.226020252414699,"(0.0, 0.0, 0.0, 0.0, 0.0, 0.0)",2.4288508647123748,-0.36855748390702325,-14.171887099327844,"(0.0, 0.0, 0.0, 0.0, 0.0, 0.0)",0.30976852738726823,-1.1345286688205596,14.254097835214925,"(0.0, 0.0, 0.0, 0.0, 0.0, 0.0)",-2.4347025650831196,0.36347369491056536,14.307455277413446,"(0.0, 0.0, 0.0, 0.0, 0.0, 0.0)",-0.3114537668278207,False,,,,,False,,,,
18,Close,,,"(0.010001318826104761, 0.16002110119957821, 0.02646143576036139)","(-0.0004308487108156613, 2.692806668198511e-05, -5.800961497533997e-09)",,"[-0.026750000193715096, 0.05299999937415123, 0.03999999910593033]","[0.0, -0.0, 1.0801281957344744]","[-0.09025531262159348, 0.08692750334739685, 0.03999999910593033]","[0.0, -0.0, 0.658426092619021]","[0.026750000193715096, 0.05299999937415123, 0.03999999910593033]","[0.0, 0.0, -1.0810758877799864]","[0.09028743207454681, 0.0868673101067543, 0.03999999910593033]","[0.0, 0.0, -0.6639491897248752]",1.0321153651670965,-11.523076404455903,"(0.0, 0.0, 0.0, 0.0, 0.0, 0.0)",1.9712593195403922,-0.46953209273108476,-11.479215138346529,"(0.0, 0.0, 0.0, 0.0, 0.0, 0.0)",0.25356328507457,-1.0329682217446532,11.54581924652409,"(0.0, 0.0, 0.0, 0.0, 0.0, 0.0)",-1.976034733535922,0.46541422655746517,11.589025293474933,"(0.0, 0.0, 0.0, 0.0, 0.0, 0.0)",-0.2549589687679249,False,,,,,False,,,,
19,Close,,,"(0.010001648057231211, 0.16002636889308344, 0.03133184175509247)","(-0.0005384699893107284, 3.3654401557527444e-05, -9.06094284338731e-09)",,"[-0.026750000193715096, 0.05299999937415123, 0.03999999910593033]","[0.0, -0.0, 0.9889039009917453]","[-0.08690053224563599, 0.09257163107395172, 0.03999999910593033]","[0.0, -0.0, 0.4763247177857985]","[0.026750000193715096, 0.05299999937415123, 0.03999999910593033]","[0.0, 0.0, -0.9896714317513632]","[0.08693088591098785, 0.09252544492483139, 0.03999999910593033]","[0.0, 0.0, -0.4807983343348629]",0.9500134457853482,-9.333691887609287,"(0.0, 0.0, 0.0, 0.0, 0.0, 0.0)",1.59927232790674,-0.551321428885197,-9.298153181376478,"(0.0, 0.0, 0.0, 0.0, 0.0, 0.0)",0.20712540820679678,-0.9507042596131691,9.352113589684514,"(0.0, 0.0, 0.0, 0.0, 0.0, 0.0)",-1.6031637286990463,0.5479859596890367,9.387099348535743,"(0.0, 0.0, 0.0, 0.0, 0.0, 0.0)",-0.20827601456628825,False,,,,,False,,,,
20,Close,,,"(0.010001977116791199, 0.1600316338415276, 0.035505353338314005)","(-0.0006460549330047555, 4.037846511369274e-05, -1.3043353742532214e-08)",,"[-0.026750000193715096, 0.05299999937415123, 0.03999999910593033]","[0.0, -0.0, 0.9150121593347216]","[-0.08381503820419312, 0.09690423309803009, 0.03999999910593033]","[0.0, -0.0, 0.3288226039195219]","[0.026750000193715096, 0.05299999937415123, 0.03999999910593033]","[0.0, 0.0, -0.9156338940018686]","[0.08384232223033905, 0.09686874598264694, 0.03999999910593033]","[0.0, 0.0, -0.33244627340343963]",0.883510891086132,-7.560290428963521,"(0.0, 0.0, 0.0, 0.0, 0.0, 0.0)",1.2970851133907606,-0.6175707112805602,-7.53149495926978,"(0.0, 0.0, 0.0, 0.0, 0.0, 0.0)",0.1689126126712179,-0.884070450286667,7.575212007644451,"(0.0, 0.0, 0.0, 0.0, 0.0, 0.0)",-1.3002524451675361,0.6148689832085066,7.603541305643349,"(0.0, 0.0, 0.0, 0.0, 0.0, 0.0)",-0.16985779298155493,False,,,,,False,,,,
21,Close,,,"(0.010002306014043007, 0.16003689619304312, 0.038982445123681576)","(-0.0007536035543313348, 4.7100258049582536e-05, -1.7747461781428295e-08)",,"[-0.026750000193715096, 0.05299999937415123, 0.03999999910593033]","[0.0, -0.0, 0.855159831855573]","[-0.0810866579413414, 0.10023905336856842, 0.03999999910593033]","[0.0, -0.0, 0.20934598049273878]","[0.026750000193715096, 0.05299999937415123, 0.03999999910593033]","[0.0, 0.0, -0.855663319897266]","[0.08111044019460678, 0.10021167993545532, 0.03999999910593033]","[0.0, 0.0, -0.21228117869263835]",0.8296438217797669,-6.123835247460454,"(0.0, 0.0, 0.0, 0.0, 0.0, 0.0)",1.05173758145085,-0.6712325644411228,-6.100503438359898,"(0.0, 0.0, 0.0, 0.0, 0.0, 0.0)",0.13756782929819192,-0.8300970647322002,6.135921726192006,"(0.0, 0.0, 0.0, 0.0, 0.0, 0.0)",-1.0543131565319612,0.6690441663231638,6.158860938132814,"(0.0, 0.0, 0.0, 0.0, 0.0, 0.0)",-0.13834207864853043,False,,,,,False,,,,
22,Close,,,"(0.010002634758225062, 0.1600421560954447, 0.041763552607370504)","(-0.000861115865719684, 5.381978106418352e-05, -2.3172535119669436e-08)",,"[-0.026750000193715096, 0.05299999937415123, 0.03999999910593033]","[0.0, -0.0, 0.8066794434121096]","[-0.07873354107141495, 0.10281677544116974, 0.03999999910593033]","[0.0, -0.0, 0.11257000369976355]","[0.026750000193715096, 0.05299999937415123, 0.03999999910593033]","[0.0, 0.0, -0.807087375168555]","[0.07875385880470276, 0.1027955636382103, 0.03999999910593033]","[0.0, 0.0, -0.11494747853587685]",0.7860114956416112,-4.960306550442966,"(0.0, 0.0, 0.0, 0.0, 0.0, 0.0)",0.8526282438926112,-0.7146986118113532,-4.941401666116088,"(0.0, 0.0, 0.0, 0.0, 0.0, 0.0)",0.11192109221648956,-0.7863786224330822,4.970096598215528,"(0.0, 0.0, 0.0, 0.0, 0.0, 0.0)",-0.8547210444656044,0.7129260106609093,4.988671207184531,"(0.0, 0.0, 0.0, 0.0, 0.0, 0.0)",-0.11255391153308099,False,,,,,False,,,,
23,Close,,,"(0.010002963358557236, 0.16004741369625017, 0.04384907226694074)","(-0.0009685918795946493, 6.053703485636736e-05, -2.9317842489583264e-08)",,"[-0.026750000193715096, 0.05299999937415123, 0.03999999910593033]","[0.0, -0.0, 0.7674103444184671]","[-0.07673770934343338, 0.10481919348239899, 0.03999999910593033]","[0.0, -0.0, 0.03418149097606777]","[0.026750000193715096, 0.05299999937415123, 0.03999999910593033]","[0.0, 0.0, -0.7677407466611278]","[0.07675483077764511, 0.1048026755452156, 0.03999999910593033]","[0.0, 0.0, -0.0361072460378734]",0.7506693114697051,-4.017848305858803,"(0.0, 0.0, 0.0, 0.0, 0.0, 0.0)",0.6911017846597902,-0.7499060663183246,-4.0025303530146505,"(0.0, 0.0, 0.0, 0.0, 0.0, 0.0)",0.09097831684118958,-0.7509666841707966,4.025778244554576,"(0.0, 0.0, 0.0, 0.0, 0.0, 0.0)",-0.6928012733138227,0.7484702604680491,4.040818653480022,"(0.0, 0.0, 0.0, 0.0, 0.0, 0.0)",-0.09149462532289206,False,,,,,False,,,,
24,Close,,,"(0.010003291824242136, 0.16005266914270105, 0.04523936165140331)","(-0.0010760316083767074, 6.725202012489063e-05, -3.618265319583079e-08)",,"[-0.026750000193715096, 0.05299999937415123, 0.03999999910593033]","[0.0, -0.0, 0.7356023986171477]","[-0.07506444305181503, 0.10638272017240524, 0.03999999910593033]","[0.0, 0.0, -0.029314282157410606]","[0.026750000193715096, 0.05299999937415123, 0.03999999910593033]","[0.0, 0.0, -0.7358699744488303]","[0.07507872581481934, 0.10636978596448898, 0.03999999910593033]","[0.0, -0.0, 0.027754427824074522]",0.722042142290461,-3.2544571277456287,"(0.0, 0.0, 0.0, 0.0, 0.0, 0.0)",0.560108160717456,-0.7784260816002104,-3.242260463996204,"(0.0, 0.0, 0.0, 0.0, 0.0, 0.0)",0.0739092939425144,-0.7222830141783452,3.260880378089207,"(0.0, 0.0, 0.0, 0.0, 0.0, 0.0)",-0.5614876113391304,0.7772630911922368,3.2732751882458535,"(0.0, 0.0, 0.0, 0.0, 0.0, 0.0)",-0.07432997801242036,False,,,,,False,,,,
25,Close,,,"(0.010001644182078712, 0.16005595153396976, 0.045940321410535084)","(-0.0011271805217326655, 1.767785898679914e-05, -1.508889111938428e-08)",,"[-0.026750000193715096, 0.05299999937415123, 0.03999999910593033]","[0.0, -0.0, 0.7098379546684608]","[-0.07367318123579025, 0.10760965943336487, 0.03999999910593033]","[0.0, 0.0, -0.08074653118681538]","[0.026750000193715096, 0.05299999937415123, 0.03999999910593033]","[0.0, 0.0, -0.7100547061469626]","[0.07368502020835876, 0.10759948939085007, 0.03999999910593033]","[0.0, -0.0, 0.07948305351710017]",0.6988541352552734,-2.6361102734739577,"(0.0, 0.0, 0.0, 0.0, 0.0, 0.0)",0.4538907146887525,-0.8015268867317584,-2.626184566689172,"(0.0, 0.0, 0.0, 0.0, 0.0, 0.0)",0.06000477197099662,-0.6990492414844596,2.6413131062522566,"(0.0, 0.0, 0.0, 0.0, 0.0, 0.0)",-0.45500992694973624,0.8005848745408953,2.6513062318756173,"(0.0, 0.0, 0.0, 0.0, 0.0, 0.0)",-0.06034712704439637,False,,,,,False,,,,
26,Close,,,"(0.0099979269032565, 0.16005188637635104, 0.04640949954916324)","(-0.0010442772263960227, -5.814874739306873e-05, 7.787963860925158e-09)",,"[-0.026750000193715096, 0.05299999937415123, 0.03999999910593033]","[0.0, -0.0, 0.6889687286552088]","[-0.07252338528633118, 0.1085769459605217, 0.03999999910593033]","[0.0, 0.0, -0.12240626184562299]","[0.026750000193715096, 0.05299999937415123, 0.03999999910593033]","[0.0, 0.0, -0.6891442541658422]","[0.07253314554691315, 0.10856890678405762, 0.03999999910593033]","[0.0, -0.0, 0.12138287899953458]",0.6800717984485459,-2.1352615874880345,"(0.0, 0.0, 0.0, 0.0, 0.0, 0.0)",0.36778464275725675,-0.820237492399504,-2.127000202679893,"(0.0, 0.0, 0.0, 0.0, 0.0, 0.0)",0.04871100820034693,-0.6802298342020312,2.1394759521557623,"(0.0, 0.0, 0.0, 0.0, 0.0, 0.0)",-0.3686924226914724,0.8194744666035607,2.147347557238381,"(0.0, 0.0, 0.0, 0.0, 0.0, 0.0)",-0.04898946018255637,False,,,,,False,,,,
27,Close,,,"(0.009998107600018924, 0.16004411888380865, 0.0468059782297436)","(-0.0008858309445970004, -5.447527859797503e-05, 4.128601528647624e-08)",,"[-0.026750000193715096, 0.05299999937415123, 0.03999999910593033]","[0.0, -0.0, 0.672064613904271]","[-0.07157741487026215, 0.10934273153543472, 0.03999999910593033]","[0.0, 0.0, -0.15614974961002634]","[0.026750000193715096, 0.05299999937415123, 0.03999999910593033]","[0.0, 0.0, -0.6722069192953587]","[0.07158542424440384, 0.10933635383844376, 0.03999999910593033]","[0.0, -0.0, 0.15532080931604164]",0.6648581567433223,-1.7295508464885936,"(0.0, 0.0, 0.0, 0.0, 0.0, 0.0)",0.29799285099320455,-0.8353935278746698,-1.722993881465588,"(0.0, 0.0, 0.0, 0.0, 0.0, 0.0)",0.03950205891705609,-0.6649861657036452,1.732964418763874,"(0.0, 0.0, 0.0, 0.0, 0.0, 0.0)",-0.2987289514022836,0.83477548361327,1.7394759470338683,"(0.0, 0.0, 0.0, 0.0, 0.0, 0.0)",-0.03972821774930672,False,,,,,False,,,,
28,Close,,,"(0.009998390752654573, 0.16003702894197389, 0.04714144752999396)","(-0.0007411380797103218, -4.869650481896534e-05, 1.1687517768299383e-07)",,"[-0.026750000193715096, 0.05299999937415123, 0.03999999910593033]","[0.0, -0.0, 0.6583722791296546]","[-0.07080177217721939, 0.10995122045278549, 0.03999999910593033]","[0.0, 0.0, -0.18348236399010098]","[0.026750000193715096, 0.05299999937415123, 0.03999999910593033]","[0.0, 0.0, -0.6584875609778488]","[0.07080833613872528, 0.10994613915681839, 0.03999999910593033]","[0.0, -0.0, 0.18281091441867092]",0.652535106962091,-1.400936185655761,"(0.0, 0.0, 0.0, 0.0, 0.0, 0.0)",0.24143143710013154,-0.8476696977959799,-1.3956001238249038,"(0.0, 0.0, 0.0, 0.0, 0.0, 0.0)",0.032035576984152714,-0.6526387942199526,1.4037011791987364,"(0.0, 0.0, 0.0, 0.0, 0.0, 0.0)",-0.24202820218879367,0.8471690873323404,1.4089504550195393,"(0.0, 0.0, 0.0, 0.0, 0.0, 0.0)",-0.0322192170145395,False,,,,,False,,,,
29,Close,,,"(0.009998679410322496, 0.16003066597344334, 0.0474253884764576)","(-0.0006112814540129935, -4.2805404436077314e-05, 1.9447426774393396e-07)",,"[-0.026750000193715096, 0.05299999937415123, 0.03999999910593033]","[0.0, -0.0, 0.6472815645892557]","[-0.07016744464635849, 0.11043626815080643, 0.03999999910593033]","[0.0, 0.0, -0.2056215493544759]","[0.026750000193715096, 0.05299999937415123, 0.03999999910593033]","[0.0, 0.0, -0.6473749785824873]","[0.07017280906438828, 0.1104322224855423, 0.03999999910593033]","[0.0, -0.0, 0.20507767878351457]",0.6425534366392937,-1.1347583103811658,"(0.0, 0.0, 0.0, 0.0, 0.0, 0.0)",0.19559696212506814,-0.8576132175808707,-1.130415870269558,"(0.0, 0.0, 0.0, 0.0, 0.0, 0.0)",0.025974296640771184,-0.6426374233181616,1.1369979551509777,"(0.0, 0.0, 0.0, 0.0, 0.0, 0.0)",-0.19608068519888996,0.8572077274788498,1.141229523067934,"(0.0, 0.0, 0.0, 0.0, 0.0, 0.0)",-0.02612334092818916,False,,,,,False,,,,
30,Close,,,"(0.009865465308992205, 0.15999852606453366, 0.04766600164849151)","(-0.0003424815135586742, 0.00015086673503461647, 0.0034152828324375316)",,"[-0.026750000193715096, 0.05299999937415123, 0.03999999910593033]","[0.0, -0.0, 0.6382981045455605]","[-0.06964972615242004, 0.11082398891448975, 0.03999999910593033]","[0.0, 0.0, -0.22355414441709243]","[0.026750000193715096, 0.05299999937415123, 0.03999999910593033]","[0.0, 0.0, -0.6383737252477673]","[0.06965409219264984, 0.11082074791193008, 0.03999999910593033]","[0.0, -0.0, 0.22311363310560886]",0.6344682836778279,-0.9191542314087444,"(0.0, 0.0, 0.0, 0.0, 0.0, 0.0)",0.1584658053641607,-0.8656670151994418,-0.9155462613482186,"(0.0, 0.0, 0.0, 0.0, 0.0, 0.0)",0.021063560793533557,-0.6345419852789147,0.9196069697833984,"(0.0, 0.0, 0.0, 0.0, 0.0, 0.0)",1.5650710318467773,0.8652269258386903,0.8975102038417887,"(0.0, 0.0, 0.0, 0.0, 0.0, 0.0)",0.970263568851588,False,,,,,True,"(0.041964474105275554, 0.17969275438125942, 0.023999959438538113)","(-0.9999999992078928, -2.3394376763778626e-07, -3.980150266267419e-05)",0.0005277146366441324,13.827283024398023
31,Move,,,"(0.007531441160261598, 0.15943355925897776, 0.04793749047777572)","(0.0004675471125978071, 0.0030980487514889743, 0.042187087651658045)","[0.0, 0.0, 0.0]","[-0.026750000193715096, 0.05299999937415123, 0.03999999910593033]","[0.0, -0.0, 0.6310214732486521]","[-0.06922782957553864, 0.1111346185207367, 0.03999999910593033]","[0.0, 0.0, -0.23807887186492363]","[0.026750000193715096, 0.05299999937415123, 0.03999999910593033]","[0.0, 0.0, -0.6310921751356334]","[0.06923194229602814, 0.11113161593675613, 0.03999999910593033]","[0.0, -0.0, 0.2374845653717714]",0.6073010028525442,-5.692908589800243,"(0.0, 0.0, 0.0, 0.0, 0.0, 0.0)",-6.970029188620435,-0.868756983831492,0.08239916352133925,"(0.0, 0.0, 0.0, 0.0, 0.0, 0.0)",-0.4110687045203754,-0.611740225246224,4.644483936519708,"(0.0, 0.0, 0.0, 0.0, 0.0, 0.0)",16.89184890970004,0.867806474071962,-0.18487981123553754,"(0.0, 0.0, 0.0, 0.0, 0.0, 0.0)",7.048127015297625,False,,,,,True,"(0.04055545960179211, 0.17959859830229866, 0.023999959438538113)","(-0.9999999992078928, -2.3394376763778626e-07, -3.980150266267419e-05)",1.7680143456731747e-05,63.045922291441585
32,Move,,,"(0.003957544000973901, 0.15851764682849465, 0.04795390284420232)","(-0.0011008320770363102, -0.0006977175186555282, 0.10042858806964135)","[-0.003573897159287697, -0.0009159124304831123, 1.641236642659777e-05]","[-0.026750000193715096, 0.05299999937415123, 0.03999999910593033]","[0.0, -0.0, 0.5859526299274878]","[-0.06656552106142044, 0.11298936605453491, 0.03999999910593033]","[0.0, 0.0, -0.2824962348735626]","[0.026750000193715096, 0.05299999937415123, 0.03999999910593033]","[0.0, 0.0, -0.594314120306663]","[0.06706573069095612, 0.11265435814857483, 0.03999999910593033]","[0.0, -0.0, 0.2732348327231097]",0.565147400783918,-4.993246765650069,"(0.0, 0.0, 0.0, 0.0, 0.0, 0.0)",0.17829654108403456,-0.8684797142115713,-0.007411699001202532,"(0.0, 0.0, 0.0, 0.0, 0.0, 0.0)",0.00455822316724466,-0.5763918365092247,4.3013615307066,"(0.0, 0.0, 0.0, 0.0, 0.0, 0.0)",0.18183625603215695,0.8675744839432311,0.006108988916902286,"(0.0, 0.0, 0.0, 0.0, 0.0, 0.0)",0.019777118317349834,False,,,,,True,"(0.03596037581645286, 0.18005261626012228, 0.023999959438538113)","(-0.9999999992078928, -2.3394376763778626e-07, -3.980150266267419e-05)",0.00038226713401520615,0.0
33,Move,,,"(0.0017358019799075751, 0.15820347561446194, 0.04739704446680821)","(0.002208267246179006, 0.027849022087161775, 0.09243873703552388)","[-0.005795639180354023, -0.0012300836445158225, -0.0005404460109675116]","[-0.026750000193715096, 0.05299999937415123, 0.03999999910593033]","[0.0, -0.0, 0.5464227538600003]","[-0.06416366249322891, 0.1145159974694252, 0.03999999910593033]","[0.0, 0.0, -0.3220854742477549]","[0.026750000193715096, 0.05299999937415123, 0.03999999910593033]","[0.0, 0.0, -0.5602617986277152]","[0.06501137465238571, 0.1139923557639122, 0.03999999910593033]","[0.0, -0.0, 0.3073365932911184]",0.5289315414219142,-4.197884157795859,"(0.0, 0.0, 0.0, 0.0, 0.0, 0.0)",-64.154621435966,-0.8425565479674821,6.228395352294645,"(0.0, 0.0, 0.0, 0.0, 0.0, 0.0)",-32.130962778273805,-0.5441443267234657,3.868176970946213,"(0.0, 0.0, 0.0, 0.0, 0.0, 0.0)",55.902853283837345,0.8406694536036414,-6.462931091101013,"(0.0, 0.0, 0.0, 0.0, 0.0, 0.0)",28.486395057627597,True,"(-0.02980702394315294, 0.18053706616553367, 0.056003617273932486)","(0.992361453783653, 0.12331125608308205, 0.0036165131835969)",-0.0023810333573471374,509.7679218178472,True,"(0.03175431161395375, 0.1791632010450061, 0.023996382726857182)","(-0.9923614537836529, -0.12331125608308285, -0.0036165131835939734)",0.0003129619965613045,279.50711321282796
34,Move,"(-0.0031000000000000003, 0.0, -0.0002)","(0.0, 0.02079385270826044, 0.0)","(0.0017992883952863523, 0.15988901095008584, 0.047633257752315854)","(-0.0034164426216197292, 0.025205265208205027, 0.08482203290110019)","[-0.005732152764975245, 0.00045545169110808303, -0.0003042327254598673]","[-0.026750000193715096, 0.05299999937415123, 0.03999999910593033]","[0.0, -0.0, 0.5134920963637825]","[-0.06211797520518303, 0.11571448296308517, 0.03999999910593033]","[0.0, 0.0, -0.29994856636699835]","[0.026750000193715096, 0.05299999937415123, 0.03999999910593033]","[0.0, 0.0, -0.529932642021003]","[0.06314421445131302, 0.11512456089258194, 0.03999999910593033]","[0.0, -0.0, 0.2843188501033306]",0.5140407856365695,0.13170997040375054,"(0.0, 0.0, 0.0, 0.0, 0.0, 0.0)",2.601983357618347,-0.8154412044353861,-0.480164216319678,"(0.0, 0.0, 0.0, 0.0, 0.0, 0.0)",-1.5823901907474134,-0.5324117598518819,-0.5950068679893308,"(0.0, 0.0, 0.0, 0.0, 0.0, 0.0)",-3.55615955819883,0.8159485565414745,0.407319694235734,"(0.0, 0.0, 0.0, 0.0, 0.0, 0.0)",1.214581386092454,True,"(-0.029231141893287065, 0.1824798635860816, 0.056003617273932486)","(0.992361453783653, 0.12331125608308205, 0.0036165131835969)",-0.002430008289795608,12.648453330495824,True,"(0.03137726584588483, 0.18125295521235282, 0.05602827338581352)","(-0.9954977838430683, -0.09047000050205631, 0.028272625854305598)",-0.00020042701291845885,12.522787019415125
35,Move,"(0.004200000000000001, 0.0, 0.0009000000000000001)","(0.0, 0.02528982086139784, 0.0)","(0.0019161734281725388, 0.1610565104246186, 0.04768592688719148)","(-0.0034886626179182994, 0.01536133439046034, 0.06762942049489666)","[-0.00561526773208906, 0.0016229511656408457, -0.0002515635905842445]","[-0.026750000193715096, 0.05299999937415123, 0.03999999910593033]","[0.0, -0.0, 0.5145274099201748]","[-0.06218288838863373, 0.1156778335571289, 0.03999999910593033]","[0.0, 0.0, -0.30285331967848705]","[0.026750000193715096, 0.05299999937415123, 0.03999999910593033]","[0.0, 0.0, -0.5346378779521916]","[0.0634361132979393, 0.11495263129472733, 0.03999999910593033]","[0.0, -0.0, 0.2829737756059144]",0.5117479378271711,-0.6670568796221055,"(0.0, 0.0, 0.0, 0.0, 0.0, 0.0)",-2.4470079024186884,-0.8170578818716906,0.07747409385876552,"(0.0, 0.0, 0.0, 0.0, 0.0, 0.0)",-0.7727689506162548,-0.536891451225666,-0.5408827696931876,"(0.0, 0.0, 0.0, 0.0, 0.0, 0.0)",0.2122997531732319,0.8172702714453974,-0.08190245004982144,"(0.0, 0.0, 0.0, 0.0, 0.0, 0.0)",0.10720502165244945,True,"(-0.029095308865435175, 0.18228258804701553, 0.02397820023845662)","(0.996749213345501, 0.07756139509264638, -0.021799901064160847)",-0.0028555779609257706,10.422164172021397,True,"(0.031677324618533474, 0.1820270346521685, 0.05602180066102341)","(-0.9967492133455015, -0.07756139509263338, 0.02179990106419172)",-0.00016171600945881823,2.1481014856973237
36,Move,"(0.0024, 0.0, 0.0009000000000000001)","(0.0, 0.021750293138353336, 0.0)","(0.002065200591230306, 0.1621094628605224, 0.04738680273606554)","(0.00125471398217529, 0.0005041278253150744, 0.049470522236915206)","[-0.0054662405690312915, 0.0026759036015446547, -0.0005506877417101805]","[-0.026750000193715096, 0.05299999937415123, 0.03999999910593033]","[0.0, -0.0, 0.5092390806430463]","[-0.061850935220718384, 0.1158643364906311, 0.03999999910593033]","[0.0, 0.0, -0.3076558147425523]","[0.026750000193715096, 0.05299999937415123, 0.03999999910593033]","[0.0, 0.0, -0.5389111926720098]","[0.06370053440332413, 0.11479528993368149, 0.03999999910593033]","[0.0, -0.0, 0.27822683637672363]",0.5074118014834156,-0.43853760764461225,"(0.0, 0.0, 0.0, 0.0, 0.0, 0.0)",0.23287125011405282,-0.8169113320628847,-0.003956902709362574,"(0.0, 0.0, 0.0, 0.0, 0.0, 0.0)",0.012494497852794391,-0.5409382916217975,-0.4864906655904431,"(0.0, 0.0, 0.0, 0.0, 0.0, 0.0)",0.0009652631351804571,0.8171512668040416,0.00316004376873414,"(0.0, 0.0, 0.0, 0.0, 0.0, 0.0)",0.0034267099929068527,True,"(-0.028442710094843032, 0.18229482242766987, 0.023991757644071358)","(0.9982724118062112, 0.05817441318352226, -0.008241934079030223)",-0.0024345962043230097,0.0,True,"(0.03225932803070121, 0.18203434663577361, 0.05600824269403826)","(-0.9982724118062112, -0.058174413183522185, 0.008241934079037339)",-0.0001212647717920329,0.0
37,Move,"(0.0047, 0.0, 0.0012)","(0.0, 0.008604473212332044, 0.0)","(0.0022522274024098904, 0.162867280606417, 0.047211487460234146)","(-0.0047816631536744415, -0.008770349134889001, 0.02943382928868382)","[-0.005279213757851708, 0.0034337213474392447, -0.0007260030175415752]","[-0.026750000193715096, 0.05299999937415123, 0.03999999910593033]","[0.0, -0.0, 0.5057673083510921]","[-0.06163246929645538, 0.11598581820726395, 0.03999999910593033]","[0.0, 0.0, -0.3111588050452985]","[0.026750000193715096, 0.05299999937415123, 0.03999999910593033]","[0.0, 0.0, -0.5427628038320101]","[0.06393826007843018, 0.11465252190828323, 0.03999999910593033]","[0.0, -0.0, 0.27440045239071664]",0.5035130151294687,-0.5410087249348261,"(0.0, 0.0, 0.0, 0.0, 0.0, 0.0)",-3.371416356813099,-0.8160334082776699,0.21421890386290487,"(0.0, 0.0, 0.0, 0.0, 0.0, 0.0)",-1.7637627496897919,-0.5455189064778305,-0.6614883369393818,"(0.0, 0.0, 0.0, 0.0, 0.0, 0.0)",1.1967305592858697,0.8164909222446817,-0.1613388056389167,"(0.0, 0.0, 0.0, 0.0, 0.0, 0.0)",0.7427327675007118,True,"(-0.027991359832468463, 0.1822919887214022, 0.023999495165517273)","(0.9987764563373419, 0.049450339952105654, -0.0005041278039622655)",-0.0019696451083030626,3.3035965690788656,True,"(0.03275419103343917, 0.182018103296125, 0.05600050488776318)","(-0.9987764563373419, -0.049450339952109755, 0.0005041278039659788)",7.94852059370661e-05,0.0
38,Move,"(0.009800000000000001, 0.0, 0.0016)","(0.0, 0.01676912345316152, 0.0)","(0.0029584420416817483, 0.16318726990093696, 0.04748511493874858)","(-0.009723710437314683, -0.0018590369218651843, 0.01839368188634825)","[-0.00457299911857985, 0.0037537106419592015, -0.0004523755390271403]","[-0.026750000193715096, 0.05299999937415123, 0.03999999910593033]","[0.0, -0.0, 0.5014819130588781]","[-0.06136223301291466, 0.11613472551107407, 0.03999999910593033]","[0.0, 0.0, -0.31396284508112343]","[0.026750000193715096, 0.05299999937415123, 0.03999999910593033]","[0.0, 0.0, -0.5479937800924942]","[0.06426025927066803, 0.1144571378827095, 0.03999999910593033]","[0.0, -0.0, 0.26798617585714574]",0.49820229190997045,-0.7870981304092817,"(0.0, 0.0, 0.0, 0.0, 0.0, 0.0)",-2.193493428087427,-0.8149566763477198,0.11713531512574749,"(0.0, 0.0, 0.0, 0.0, 0.0, 0.0)",-0.9862969919288666,-0.5518403144032213,-0.9231580568796525,"(0.0, 0.0, 0.0, 0.0, 0.0, 0.0)",0.28337859462085774,0.8155151569940887,-0.11156086277105898,"(0.0, 0.0, 0.0, 0.0, 0.0, 0.0)",0.39751213121668877,True,"(-0.027534613605784887, 0.1823251992005389, 0.05600525020891974)","(0.9997007790890868, 0.02389132843279895, 0.005249448960514062)",-0.0018512065212771048,13.530738838326847,True,"(0.03350893329344877, 0.18202136098700283, 0.05600050488776318)","(-0.9987764563373419, -0.049450339952109755, 0.0005041278039659788)",-1.035382291705979e-05,5.982410368630485
39,Move,"(0.0143, 0.0, 0.0024)","(0.0, 0.04689525167183564, 0.0)","(0.0038352846679329715, 0.16342664687958072, 0.04771562713372605)","(-0.01101535838359547, 0.0011789502561259846, 0.008328681502436997)","[-0.0036961564923286266, 0.003993087620602964, -0.0002218633440496734]","[-0.026750000193715096, 0.05299999937415123, 0.03999999910593033]","[0.0, -0.0, 0.49525254073638697]","[-0.06096827983856201, 0.11634910851716995, 0.03999999910593033]","[0.0, 0.0, -0.31923455597266237]","[0.026750000193715096, 0.05299999937415123, 0.03999999910593033]","[0.0, 0.0, -0.5553027317335765]","[0.06470844149589539, 0.11418134719133377, 0.03999999910593033]","[0.0, -0.0, 0.25973798654968067]",0.4912192770680067,-0.9679872318615141,"(0.0, 0.0, 0.0, 0.0, 0.0, 0.0)",-2.874766233190011,-0.8140938484052676,0.094382476380337,"(0.0, 0.0, 0.0, 0.0, 0.0, 0.0)",-1.3915155215563626,-0.5598376033870619,-1.0883793468082548,"(0.0, 0.0, 0.0, 0.0, 0.0, 0.0)",0.10753778546918892,0.8147611877755633,-0.06707084116543413,"(0.0, 0.0, 0.0, 0.0, 0.0, 0.0)",0.22473217969746895,True,"(-0.026792136731013855, 0.1823576278427283, 0.05600185979581032)","(0.9998291132863419, 0.01839261293975514, 0.0018590358510993917)",-0.0015764221769462962,13.106038858253402,True,"(0.034514985704141965, 0.1820160259229977, 0.05600124574800373)","(-0.9999030276446572, -0.013870303234506765, 0.0012449880445119315)",6.561744176255332e-07,3.6841928901427825
40,Move,"(0.0181, 0.0, 0.0054)","(0.0, 0.06476916854150959, 0.0)","(0.004838154445309578, 0.16357578683465243, 0.047899032468419235)","(-0.009367310563663146, 0.0006551878449352811, -0.003565935816975645)","[-0.00269328671495202, 0.004142227575674673, -3.845800935648597e-05]","[-0.026750000193715096, 0.05299999937415123, 0.03999999910593033]","[0.0, -0.0, 0.48759664891077925]","[-0.06048228591680527, 0.11660922318696976, 0.03999999910593033]","[0.0, 0.0, -0.3260344092104944]","[0.026750000193715096, 0.05299999937415123, 0.03999999910593033]","[0.0, 0.0, -0.5639230458992176]","[0.06523442268371582, 0.11385186016559601, 0.03999999910593033]","[0.0, -0.0, 0.25053249344557765]",0.48294875944238336,-1.1154955676957758,"(0.0, 0.0, 0.0, 0.0, 0.0, 0.0)",-2.0159239366282105,-0.8132983878748816,0.0798417504156624,"(0.0, 0.0, 0.0, 0.0, 0.0, 0.0)",-0.9475005921786531,-0.5689975585881331,-1.217887170714332,"(0.0, 0.0, 0.0, 0.0, 0.0, 0.0)",-0.030221999357722476,0.8142353325893356,-0.052843672877677494,"(0.0, 0.0, 0.0, 0.0, 0.0, 0.0)",0.1338344799490739,True,"(-0.02585808961606372, 0.1823838234793972, 0.05600185979581032)","(0.9998291132863419, 0.01839261293975514, 0.0018590358510993917)",-0.0013293393245199176,12.730030451118546,True,"(0.035666688776191724, 0.1819627708197485, 0.0560011158262126)","(-0.9999932407429263, -0.003503583267246947, 0.0011150662533790095)",-9.580893253718209e-06,2.4046413449189847
41,Move,"(0.0228, 0.0, 0.0083)","(0.0, 0.056189129938705444, 0.0)","(0.005981592381441707, 0.16366538953017545, 0.04795368746636839)","(-0.004947484578029685, -0.00012720610909284957, -0.0165491407200808)","[-0.001549848778819891, 0.004231830271197695, 1.6196988592669104e-05]","[-0.026750000193715096, 0.05299999937415123, 0.03999999910593033]","[0.0, -0.0, 0.4787651517088391]","[-0.05991921201348305, 0.11690464615821838, 0.03999999910593033]","[0.0, 0.0, -0.33422422543288716]","[0.026750000193715096, 0.05299999937415123, 0.03999999910593033]","[0.0, 0.0, -0.5735647610914693]","[0.06581933796405792, 0.11347798258066177, 0.03999999910593033]","[0.0, -0.0, 0.24047389066229835]",0.47325708644379144,-1.321932960998914,"(0.0, 0.0, 0.0, 0.0, 0.0, 0.0)",-2.6341347109053332,-0.8125272634738839,0.11091494490271198,"(0.0, 0.0, 0.0, 0.0, 0.0, 0.0)",-1.2469187492145428,-0.5794042144536725,-1.4014815497308615,"(0.0, 0.0, 0.0, 0.0, 0.0, 0.0)",-0.06415425674399351,0.8137561792309018,-0.06779088804028872,"(0.0, 0.0, 0.0, 0.0, 0.0, 0.0)",0.14950820300959702,True,"(-0.02475754632357162, 0.1823824701491934, 0.05600015708497294)","(0.999949161632836, -0.010082148197598055, 0.0001563250137166332)",-0.0011651669091039699,16.800473228876285,True,"(0.03693819918795431, 0.18188462652280396, 0.056000655947757286)","(-0.9999934274234281, 0.0035659274942604767, 0.00065518779806246)",-1.046642332171488e-05,2.7309657299530836
42,Move,"(0.027100000000000003, 0.0, 0.008)","(0.0, 0.04296127953784044, 0.0)","(0.007439859651959772, 0.16361276397965457, 0.047752493377250856)","(0.00684287770241983, 0.0006762170772783491, -0.02175322366947755)","[-9.158150830182628e-05, 0.004179204720676816, -0.00018499710052486545]","[-0.026750000193715096, 0.05299999937415123, 0.03999999910593033]","[0.0, -0.0, 0.46831332355378025]","[-0.05924949422478676, 0.11724782735109329, 0.03999999910593033]","[0.0, 0.0, -0.3436478086431625]","[0.026750000193715096, 0.05299999937415123, 0.03999999910593033]","[0.0, 0.0, -0.5846682321608371]","[0.06648843735456467, 0.11304045468568802, 0.03999999910593033]","[0.0, -0.0, 0.22874791536465383]",0.4620562959271695,-1.5016878223582149,"(0.0, 0.0, 0.0, 0.0, 0.0, 0.0)",-2.616543563034936,-0.8115508563792097,0.09846473894167733,"(0.0, 0.0, 0.0, 0.0, 0.0, 0.0)",-1.1903691445668954,-0.591120377328306,-1.5485076936732642,"(0.0, 0.0, 0.0, 0.0, 0.0, 0.0)",0.09580044454170317,0.8130758752101828,-0.08167392303494932,"(0.0, 0.0, 0.0, 0.0, 0.0, 0.0)",0.20708813893043324,True,"(-0.023472394350555884, 0.18238998176903687, 0.056000127966067986)","(0.9998630580063875, -0.01654838519981437, 0.00012720610876172065)",-0.0009730387947354969,15.452847986840338,True,"(0.03841137591190516, 0.18177970946682626, 0.05600071593421743)","(-0.9998246009197225, 0.018715125473748963, 0.0007151742582199272)",-1.6558073124736565e-05,3.886191444030038
43,Move,"(0.0287, 0.0, 0.009300000000000001)","(0.0, 0.05152386484812462, 0.0)","(0.008803268416663321, 0.16365705033192865, 0.04787937394542739)","(0.0042201583384856925, 6.728830176123835e-05, -0.03540852646633184)","[0.0012718272564017233, 0.004223491072950891, -5.811653234832903e-05]","[-0.026750000193715096, 0.05299999937415123, 0.03999999910593033]","[0.0, -0.0, 0.45642321028134897]","[-0.0584832988679409, 0.11762969940900803, 0.03999999910593033]","[0.0, 0.0, -0.35461193309662686]","[0.026750000193715096, 0.05299999937415123, 0.03999999910593033]","[0.0, 0.0, -0.5969275197692768]","[0.06722148507833481, 0.11254879087209702, 0.03999999910593033]","[0.0, -0.0, 0.2158229924925312]",0.4501449490443573,-1.5067759856520888,"(0.0, 0.0, 0.0, 0.0, 0.0, 0.0)",-1.8447748613227055,-0.810469691468733,0.13569645147186,"(0.0, 0.0, 0.0, 0.0, 0.0, 0.0)",-0.9393575597423921,-0.6033018956353241,-1.5298534603910154,"(0.0, 0.0, 0.0, 0.0, 0.0, 0.0)",0.5309597434328731,0.8124017055159761,-0.08371048720068508,"(0.0, 0.0, 0.0, 0.0, 0.0, 0.0)",0.32488896514031784,True,"(-0.021994137735249143, 0.18237568320807074, 0.056000127966067986)","(0.9998630580063875, -0.01654838519981437, 0.00012720610876172065)",-0.0008304350778044903,12.280748130992338,True,"(0.0400350912657408, 0.18164182423822073, 0.05600016864560184)","(-0.999600284376246, 0.028270891201711588, 0.0001678856426196839)",-1.5448951095465946e-05,4.145697185818941
44,Move,"(0.0319, 0.0, 0.0108)","(0.0, 0.04296127953784044, 0.0)","(0.010244316302339861, 0.16370933765657944, 0.047893087493116646)","(-0.0015752990554784812, -4.273774656201265e-05, -0.04750053297322182)","[0.0027128751420782632, 0.004275778397601682, -4.440298465907544e-05]","[-0.026750000193715096, 0.05299999937415123, 0.03999999910593033]","[0.0, -0.0, 0.44449420211281276]","[-0.05771009251475334, 0.11800363659858704, 0.03999999910593033]","[0.0, 0.0, -0.3654872133334595]","[0.026750000193715096, 0.05299999937415123, 0.03999999910593033]","[0.0, 0.0, -0.6090404270375138]","[0.06793980300426483, 0.11205421388149261, 0.03999999910593033]","[0.0, -0.0, 0.20302642086400405]",0.43766102451816413,-1.639963667047616,"(0.0, 0.0, 0.0, 0.0, 0.0, 0.0)",-2.5304873144791786,-0.8092759732597726,0.16930834190431765,"(0.0, 0.0, 0.0, 0.0, 0.0, 0.0)",-1.2271454361485674,-0.6157881820062834,-1.6194791780527495,"(0.0, 0.0, 0.0, 0.0, 0.0, 0.0)",0.5200072149591458,0.8115743320008917,-0.11818721221917843,"(0.0, 0.0, 0.0, 0.0, 0.0, 0.0)",0.40490074435611045,True,"(-0.020518893539475662, 0.1823508278758076, 0.05600013805386554)","(0.9991634365312483, -0.040895088329159134, 0.00013729390631919548)",-0.0007179126332756909,15.946239326207124,True,"(0.041639782255730284, 0.1814898792341999, 0.05600006804826093)","(-0.9993731813583794, 0.035401127862206436, 6.728830171779837e-05)",-1.3984784213039706e-05,6.721701748602567
45,Move,"(0.0365, 0.0, 0.0108)","(0.0, 0.008604473212332044, 0.0)","(0.011918860030608564, 0.16370372390206694, 0.04805520837325965)","(-0.0025795622631842557, 0.001980677406990451, -0.054644206544650985)","[0.004387418870346966, 0.004270164643089186, 0.00011771789548392642]","[-0.026750000193715096, 0.05299999937415123, 0.03999999910593033]","[0.0, -0.0, 0.43154398070065836]","[-0.05686570703983307, 0.11839911341667175, 0.03999999910593033]","[0.0, 0.0, -0.37678166250361367]","[0.026750000193715096, 0.05299999937415123, 0.03999999910593033]","[0.0, 0.0, -0.6218726983300155]","[0.06869419664144516, 0.11152080446481705, 0.03999999910593033]","[0.0, -0.0, 0.18902413419403905]",0.42385290536420245,-1.8458508199451222,"(0.0, 0.0, 0.0, 0.0, 0.0, 0.0)",-4.150995295213846,-0.8074063197437894,0.22062429531569985,"(0.0, 0.0, 0.0, 0.0, 0.0, 0.0)",-1.958456983675306,-0.6292368976134214,-1.7674121192518046,"(0.0, 0.0, 0.0, 0.0, 0.0, 0.0)",0.7314608689881792,0.8102361967858696,-0.1585391041178525,"(0.0, 0.0, 0.0, 0.0, 0.0, 0.0)",0.5734059202061041,True,"(-0.01895013064134026, 0.18232215882002145, 0.05600013805386554)","(0.9991634365312483, -0.040895088329159134, 0.00013729390631919548)",-0.0005633920329311353,20.01652615488927,True,"(0.0433687370056718, 0.18131330500257112, 0.05600170908066814)","(-0.998704966515815, 0.050847531867344725, 0.0017083207089181312)",-1.6989823440411167e-05,9.079289707581038
46,Move,"(0.0394, 0.0, 0.0114)","(0.0, 0.004461061568097505, 0.0)","(0.013734638839671921, 0.1635807615335852, 0.04807990779064114)","(0.0003153092325099809, 0.0005042188382091301, -0.059361873109301945)","[0.006203197679410323, 0.004147202274607437, 0.00014241731286541992]","[-0.026750000193715096, 0.05299999937415123, 0.03999999910593033]","[0.0, -0.0, 0.41692402219929053]","[-0.05590639263391495, 0.11883240193128586, 0.03999999910593033]","[0.0, 0.0, -0.38986375585214994]","[0.026750000193715096, 0.05299999937415123, 0.03999999910593033]","[0.0, 0.0, -0.635858963803339]","[0.06950856000185013, 0.11092845350503922, 0.03999999910593033]","[0.0, -0.0, 0.17384881856429238]",0.4089057110289436,-1.9243954068985483,"(0.0, 0.0, 0.0, 0.0, 0.0, 0.0)",-3.338782195770054,-0.8057423176812917,0.2509074031146835,"(0.0, 0.0, 0.0, 0.0, 0.0, 0.0)",-1.6697251253260372,-0.6433434188241837,-1.7962608616663938,"(0.0, 0.0, 0.0, 0.0, 0.0, 0.0)",0.8897139345574839,0.8090535514736431,-0.15702433657104517,"(0.0, 0.0, 0.0, 0.0, 0.0, 0.0)",0.578775258876489,True,"(-0.01715783652958082, 0.18225397218719241, 0.05600013805386554)","(0.9991634365312483, -0.040895088329159134, 0.00013729390631919548)",-0.0004794828832966207,22.761340107256636,True,"(0.04524446396085635, 0.18108688948675064, 0.056001470880347515)","(-0.9984486592558649, 0.05566070046459597, 0.0014701203882938059)",-1.5969454350061388e-05,9.173140642698838
47,Move,"(0.0445, 0.0, 0.0115)","(0.0, 0.01301142957361773, 0.0)","(0.015657590947198388, 0.16340070262644496, 0.04816003280741235)","(-0.001190824443269055, -3.897495377431132e-05, -0.06357554389361056)","[0.00812614978693679, 0.003967143367467202, 0.00022254232963662968]","[-0.026750000193715096, 0.05299999937415123, 0.03999999910593033]","[0.0, -0.0, 0.40167837738723083]","[-0.05489938333630562, 0.1192692443728447, 0.03999999910593033]","[0.0, 0.0, -0.4032528679257281]","[0.026750000193715096, 0.05299999937415123, 0.03999999910593033]","[0.0, 0.0, -0.650080974425406]","[0.07032806426286697, 0.1103145033121109, 0.03999999910593033]","[0.0, -0.0, 0.15836742505369877]",0.3928199803157703,-2.1260060960942413,"(0.0, 0.0, 0.0, 0.0, 0.0, 0.0)",-4.761717059858431,-0.8036541132414551,0.3065041722118901,"(0.0, 0.0, 0.0, 0.0, 0.0, 0.0)",-2.220092648688567,-0.6581011591140035,-1.9248283506554054,"(0.0, 0.0, 0.0, 0.0, 0.0, 0.0)",1.2301208786396551,0.8074894276392064,-0.23017115641401126,"(0.0, 0.0, 0.0, 0.0, 0.0, 0.0)",0.8301915942543276,True,"(-0.015305165479095148, 0.1821663347641258, 0.05600013805386554)","(0.9991634365312483, -0.040895088329159134, 0.00013729390631919548)",-0.0004130707755464069,32.321635464966946,True,"(0.04715230058565867, 0.18082978085420398, 0.05600040436018315)","(-0.9981538678530484, 0.060734612840279784, 0.0004036002239332831)",-2.5164857737369556e-05,10.155209018246453
48,Move,"(0.048600000000000004, 0.0, 0.009800000000000001)","(0.0, 0.05170537909033201, 0.0)","(0.017717101723407295, 0.16325914828845242, 0.048198658897174874)","(0.00032992944706244427, 0.0012426536824115557, -0.06741312645857635)","[0.010185660563145696, 0.003825589029474663, 0.0002611684193991534]","[-0.026750000193715096, 0.05299999937415123, 0.03999999910593033]","[0.0, -0.0, 0.3848423017260257]","[-0.053779736161231995, 0.11973375082015991, 0.03999999910593033]","[0.0, 0.0, -0.41785967331477425]","[0.026750000193715096, 0.05299999937415123, 0.03999999910593033]","[0.0, 0.0, -0.6653185253588905]","[0.0711962953209877, 0.10964385420084, 0.03999999910593033]","[0.0, -0.0, 0.14126501547972797]",0.3755002156334265,-2.242101843807201,"(0.0, 0.0, 0.0, 0.0, 0.0, 0.0)",-5.499511217441998,-0.8009159193830167,0.4286378767192591,"(0.0, 0.0, 0.0, 0.0, 0.0, 0.0)",-2.6356911002417163,-0.6735318972908608,-1.9712246357079306,"(0.0, 0.0, 0.0, 0.0, 0.0, 0.0)",2.2397283811920463,0.8051728392427272,-0.3385544192598367,"(0.0, 0.0, 0.0, 0.0, 0.0, 0.0)",1.2434621930732994,True,"(-0.013271053327892024, 0.1820458133735873, 0.05600013805386554)","(0.9991634365312483, -0.040895088329159134, 0.00013729390631919548)",-0.00037703576635848347,29.112155050957174,True,"(0.049228873599375646, 0.1805315152468699, 0.05600001182581497)","(-0.9979405626677481, 0.06414540716158217, 1.1065855746658332e-05)",-1.3594368802033911e-05,19.81229705998315
49,Move,"(0.0514, 0.0, 0.009800000000000001)","(0.0, 0.05170537909033201, 0.0)","(0.019836495164871, 0.16300139969120775, 0.0482544508266644)","(-0.0010601494500459023, 0.0002798193872767336, -0.07035217502868266)","[0.012305054004609402, 0.0035678404322299906, 0.0003169603488886799]","[-0.026750000193715096, 0.05299999937415123, 0.03999999910593033]","[0.0, -0.0, 0.36706547066486833]","[-0.052589207887649536, 0.12020368129014969, 0.03999999910593033]","[0.0, 0.0, -0.43270151287612935]","[0.026750000193715096, 0.05299999937415123, 0.03999999910593033]","[0.0, 0.0, -0.6809202798230077]","[0.07207460701465607, 0.10894354432821274, 0.03999999910593033]","[0.0, -0.0, 0.123065975785428]",0.35746658454992924,-2.3037261649003162,"(0.0, 0.0, 0.0, 0.0, 0.0, 0.0)",-5.355948242783272,-0.7980994927161292,0.4001930335081337,"(0.0, 0.0, 0.0, 0.0, 0.0, 0.0)",-2.55864053188801,-0.6891375325444636,-1.972113503729992,"(0.0, 0.0, 0.0, 0.0, 0.0, 0.0)",2.3673868375032834,0.8025996352151924,-0.3328156145036014,"(0.0, 0.0, 0.0, 0.0, 0.0, 0.0)",1.3772347956974886,True,"(-0.011160193381683572, 0.1819076803571038, 0.05600013805386554)","(0.9991634365312483, -0.040895088329159134, 0.00013729390631919548)",-0.0003041173166004026,38.070949634227546,True,"(0.05132231644867055, 0.17911265669619025, 0.05600120475618358)","(-0.9976482691884224, 0.0685308790140367, 0.0012039962243620007)",-2.1320570873712935e-05,20.764844013270427
50,Move,"(0.0535, 0.0, 0.0103)","(0.0, 0.047453757032473835, 0.0)","(0.021934692935396346, 0.16275737957648498, 0.04823903849745218)","(0.0018166874715208376, -0.0006966026390412147, -0.07367493329483325)","[0.014403251775134747, 0.00332382031750722, 0.00030154801967646055]","[-0.026750000193715096, 0.05299999937415123, 0.03999999910593033]","[0.0, -0.0, 0.34882712651405595]","[-0.05135929584503174, 0.12066374719142914, 0.03999999910593033]","[0.0, 0.0, -0.4478862524263031]","[0.026750000193715096, 0.05299999937415123, 0.03999999910593033]","[0.0, 0.0, -0.6965353476557234]","[0.07294259965419769, 0.10822901129722595, 0.03999999910593033]","[0.0, -0.0, 0.10473605023169948]",0.33914323289833215,-2.324131105884148,"(0.0, 0.0, 0.0, 0.0, 0.0, 0.0)",-5.907053432468217,-0.7945773161665155,0.5126418678585861,"(0.0, 0.0, 0.0, 0.0, 0.0, 0.0)",-2.9664060572764983,-0.7046167453842287,-1.939553992439331,"(0.0, 0.0, 0.0, 0.0, 0.0, 0.0)",2.8805874069810455,0.7997476489324603,-0.3656815221908453,"(0.0, 0.0, 0.0, 0.0, 0.0, 0.0)",1.607424968033262,True,"(-0.008998136896750823, 0.18173156518708744, 0.05600013805386554)","(0.9991634365312483, -0.040895088329159134, 0.00013729390631919548)",-0.00029932506402057045,42.24644552924759,True,"(0.053478690060632494, 0.1787512688508956, 0.05600008534642613)","(-0.9974500628580713, 0.07136781452138996, 8.458646691162078e-05)",-2.103022970122701e-05,23.832554453765667
51,Move,"(0.056100000000000004, 0.0, 0.008400000000000001)","(0.0, 0.07341029366813348, 0.0)","(0.02408347372639449, 0.16244640412108233, 0.04828540668059263)","(-0.0008511222626102688, -0.0007412393734099397, -0.07604578822172743)","[0.016552032566132892, 0.003012844862104569, 0.00034791620281690583]","[-0.026750000193715096, 0.05299999937415123, 0.03999999910593033]","[0.0, -0.0, 0.3304147559681867]","[-0.050109345465898514, 0.1211053654551506, 0.03999999910593033]","[0.0, 0.0, -0.4627362940241036]","[0.026750000193715096, 0.05299999937415123, 0.03999999910593033]","[0.0, 0.0, -0.7119098408086358]","[0.07378622144460678, 0.10751232504844666, 0.03999999910593033]","[0.0, -0.0, 0.08618450296439793]",0.32051962851789784,-2.3748265462100364,"(0.0, 0.0, 0.0, 0.0, 0.0, 0.0)",-6.220252652208154,-0.7912525679248762,0.4556222543750467,"(0.0, 0.0, 0.0, 0.0, 0.0, 0.0)",-2.9739332328278225,-0.7199360597483664,-1.926319789945633,"(0.0, 0.0, 0.0, 0.0, 0.0, 0.0)",4.303115594707781,0.7960649064246387,-0.48703466459002576,"(0.0, 0.0, 0.0, 0.0, 0.0, 0.0)",2.379235252460514,True,"(-0.006839296040124093, 0.18160042627522582, 0.05600071722651902)","(0.9972057308305987, -0.07470085055928136, 0.0007164665597952264)",-0.000316214742199373,38.88176837979122,True,"(0.05563388559742826, 0.1783835135334876, 0.05600008534642613)","(-0.9974500628580713, 0.07136781452138996, 8.458646691162078e-05)",-1.8740558678934153e-05,35.3260067728815
52,Move,"(0.0588, 0.0, 0.006900000000000001)","(0.0, 0.08614596121993615, 0.0)","(0.026232942942195393, 0.16216064204836367, 0.04824246311890042)","(0.0030693151245077387, 0.0003384074010548736, -0.07835844671033741)","[0.018701501781933794, 0.0027270827893859095, 0.0003049726411246956]","[-0.026750000193715096, 0.05299999937415123, 0.03999999910593033]","[0.0, -0.0, 0.31163560511794264]","[-0.04882634058594704, 0.12153200060129166, 0.03999999910593033]","[0.0, 0.0, -0.4776521760541489]","[0.026750000193715096, 0.05299999937415123, 0.03999999910593033]","[0.0, 0.0, -0.727162291599312]","[0.07461217045783997, 0.10678859055042267, 0.03999999910593033]","[0.0, -0.0, 0.06700197323826854]",0.3015528827333637,-2.419852258365886,"(0.0, 0.0, 0.0, 0.0, 0.0, 0.0)",-7.3456732427699025,-0.7870016741222042,0.5486568367378462,"(0.0, 0.0, 0.0, 0.0, 0.0, 0.0)",-3.293102881823307,-0.7351091322754606,-1.9072393500317777,"(0.0, 0.0, 0.0, 0.0, 0.0, 0.0)",4.20645788170352,0.791994671698901,-0.5207045015173376,"(0.0, 0.0, 0.0, 0.0, 0.0, 0.0)",2.4387930487999983,True,"(-0.004658222030698003, 0.18138163994543066, 0.05600074199926476)","(0.9971096382980391, -0.07597249355816635, 0.0007412393055341149)",-0.00029320381115183935,50.72750831901187,True,"(0.05781959180127509, 0.17796292163886024, 0.056000186839860897)","(-0.9970354667001572, 0.07694311870642065, 0.00018607990167730145)",-2.5116290497167755e-05,35.22800560987997
53,Move,"(0.0599, 0.0, 0.0064)","(0.0, 0.08164301174979079, 0.0)","(0.028345247918154907, 0.16182023640712717, 0.04829574573562776)","(0.0013786937205717655, -0.00035727575823266946, -0.08084254367680326)","[0.020813806757893308, 0.002386677148149413, 0.0003582552578520401]","[-0.026750000193715096, 0.05299999937415123, 0.03999999910593033]","[0.0, -0.0, 0.29248841993207403]","[-0.04751018062233925, 0.12194211035966873, 0.03999999910593033]","[0.0, 0.0, -0.49222322834813764]","[0.026750000193715096, 0.05299999937415123, 0.03999999910593033]","[0.0, 0.0, -0.742258255411074]","[0.07541867345571518, 0.1060599684715271, 0.03999999910593033]","[0.0, -0.0, 0.04777528355123028]",0.2825587403218684,-2.3831255247854295,"(0.0, 0.0, 0.0, 0.0, 0.0, 0.0)",-6.90078816045127,-0.7825550799388907,0.5175804468566951,"(0.0, 0.0, 0.0, 0.0, 0.0, 0.0)",-3.3555724747919915,-0.7499173034552145,-1.8381789693002084,"(0.0, 0.0, 0.0, 0.0, 0.0, 0.0)",4.949384023200492,0.7875674002943965,-0.5918644094198053,"(0.0, 0.0, 0.0, 0.0, 0.0, 0.0)",2.7398669600573755,True,"(-0.0024731248283137303, 0.1811596486266548, 0.0560003408862619)","(0.9968287374928847, -0.0795760794613537, 0.0003401263026740492)",-0.00030775211930791885,49.55079409580732,True,"(0.0599967573505565, 0.1775352474492126, 0.056000339167353815)","(-0.9969314903493113, 0.07827827942881918, 0.0003384073945955591)",-6.0419929585578805e-06,39.26686974817769
54,Move,"(0.0606, 0.0, 0.0060999999999999995)","(0.0, 0.0730751904517506, 0.0)","(0.03042787228238119, 0.1614452913083896, 0.048338067251380554)","(-0.0010775212285061286, -0.000402346446572973, -0.08300605839621927)","[0.02289643112211959, 0.002011732049411852, 0.0004005767736048327]","[-0.026750000193715096, 0.05299999937415123, 0.03999999910593033]","[0.0, -0.0, 0.27362200411079063]","[-0.04620587080717087, 0.12232149392366409, 0.03999999910593033]","[0.0, 0.0, -0.5070235691107753]","[0.026750000193715096, 0.05299999937415123, 0.03999999910593033]","[0.0, 0.0, -0.756811266918012]","[0.0761856734752655, 0.10534609854221344, 0.03999999910593033]","[0.0, -0.0, 0.028508746843420304]",0.2639318619069569,-2.3256289807728505,"(0.0, 0.0, 0.0, 0.0, 0.0, 0.0)",-7.032931554531246,-0.7783622923956633,0.5479833051939447,"(0.0, 0.0, 0.0, 0.0, 0.0, 0.0)",-3.333662602258424,-0.7641137684281731,-1.7526144668010069,"(0.0, 0.0, 0.0, 0.0, 0.0, 0.0)",5.648109747354243,0.7827421499063681,-0.618673372323851,"(0.0, 0.0, 0.0, 0.0, 0.0, 0.0)",3.1524502149412075,True,"(-0.0002962308403813771, 0.18087854626982272, 0.0560003823515953)","(0.9966506746103029, -0.08177583497984799, 0.0003815916360800803)",-0.00031883385470433186,47.200145217175326,True,"(0.062143614931791574, 0.17710522243186652, 0.056000339167353815)","(-0.9969314903493113, 0.07827827942881918, 0.0003384073945955591)",-1.592255606868381e-05,45.30306084442248
55,Move,"(0.060200000000000004, 0.0, 0.004)","(0.0, 0.08614596121993615, 0.0)","(0.032395356778793176, 0.1611168663651748, 0.04829342796267543)","(0.0027707842984870212, 0.0005408588923097722, -0.08509370467703509)","[0.024863915618531577, 0.0016833071061970462, 0.0003559374848997113]","[-0.026750000193715096, 0.05299999937415123, 0.03999999910593033]","[0.0, -0.0, 0.255234275037963]","[-0.044927991926670074, 0.12266749888658524, 0.03999999910593033]","[0.0, 0.0, -0.5207855169095479]","[0.026750000193715096, 0.05299999937415123, 0.03999999910593033]","[0.0, 0.0, -0.7706865238906278]","[0.0769072100520134, 0.10465514659881592, 0.03999999910593033]","[0.0, -0.0, 0.009701775024395494]",0.24608523378447764,-2.195768506773082,"(0.0, 0.0, 0.0, 0.0, 0.0, 0.0)",-7.4449355767938545,-0.7735702432175866,0.5878800881417329,"(0.0, 0.0, 0.0, 0.0, 0.0, 0.0)",-3.346720471388397,-0.7774005459923407,-1.6113808008444812,"(0.0, 0.0, 0.0, 0.0, 0.0, 0.0)",5.344244553275525,0.7778313182206742,-0.6136597994749177,"(0.0, 0.0, 0.0, 0.0, 0.0, 0.0)",3.056939609512562,True,"(0.0017837125797942402, 0.18059346866011866, 0.056000403106394946)","(0.9965568940253444, -0.08291076581424317, 0.0004023464357224472)",-0.0003074273862564498,53.57163522921318,True,"(0.06421277743075778, 0.17662431731959172, 0.05600043595188847)","(-0.9964762703909672, 0.08387403147394921, 0.0004351919292509563)",-2.4551419990688612e-05,43.02571092768188
56,Move,"(0.06470000000000001, 0.0, 0.001)","(0.0, 0.11190003966236446, 0.0)","(0.034352408251395274, 0.16073635798826238, 0.04834239451347887)","(0.0011853597326385264, -7.944935897238394e-05, -0.08728652986141511)","[0.026820967091133675, 0.0013027987292846266, 0.00040490403570314637]","[-0.026750000193715096, 0.05299999937415123, 0.03999999910593033]","[0.0, -0.0, 0.2378704444011862]","[-0.043715618550777435, 0.12297262251377106, 0.03999999910593033]","[0.0, 0.0, -0.5332170379458622]","[0.026750000193715096, 0.05299999937415123, 0.03999999910593033]","[0.0, 0.0, -0.7834322959077921]","[0.07756150513887405, 0.10401167720556259, 0.03999999910593033]","[0.0, 0.0, -0.007827384127347736]",0.22792994802551292,-2.3857196997572476,"(0.0, 0.0, 0.0, 0.0, 0.0, 0.0)",-9.015749444811243,-0.7684475663612038,0.6335711783700103,"(0.0, 0.0, 0.0, 0.0, 0.0, 0.0)",-4.213524425329025,-0.7904868315489482,-1.6930862674937763,"(0.0, 0.0, 0.0, 0.0, 0.0, 0.0)",5.845705587704012,0.7724812982847645,-0.7496694861714173,"(0.0, 0.0, 0.0, 0.0, 0.0, 0.0)",3.3520808988270834,True,"(0.003714028523478123, 0.18032893907708716, 0.056000067533338964)","(0.9962857085024769, -0.08610913177493645, 6.677337973490944e-05)",-0.0003236420121073897,62.82595868148067,True,"(0.06612972599188964, 0.17618418599531, 0.05600054161882515)","(-0.9963815690829794, 0.08499103637106277, 0.0005408588659369102)",-9.576864598816006e-06,48.51526712357583
57,Move,"(0.0683, 0.0, 0.0011)","(0.0, 0.11190003966236446, 0.0)","(0.036441878826303065, 0.16029505317636705, 0.04838117383545516)","(-0.0010863608219043054, -0.00011438786456993752, -0.08928883094843919)","[0.028910437666041466, 0.0008614939173892944, 0.0004436833576794419]","[-0.026750000193715096, 0.05299999937415123, 0.03999999910593033]","[0.0, -0.0, 0.2189831865134473]","[-0.042391080409288406, 0.12328055500984192, 0.03999999910593033]","[0.0, 0.0, -0.5471251846702401]","[0.026750000193715096, 0.05299999937415123, 0.03999999910593033]","[0.0, 0.0, -0.7968373602986402]","[0.07824072986841202, 0.1033259853720665, 0.03999999910593033]","[0.0, 0.0, -0.027192585762384043]",0.2086384118567434,-2.482749201440273,"(0.0, 0.0, 0.0, 0.0, 0.0, 0.0)",-9.432103423278122,-0.7631708976769956,0.7049976784496464,"(0.0, 0.0, 0.0, 0.0, 0.0, 0.0)",-4.340574838272037,-0.8039863353736061,-1.715762685367366,"(0.0, 0.0, 0.0, 0.0, 0.0, 0.0)",7.099883187952964,0.7662113759633438,-0.8240072020548431,"(0.0, 0.0, 0.0, 0.0, 0.0, 0.0)",4.0736519283367665,True,"(0.005832796486987313, 0.17998355603087696, 0.056000099619575826)","(0.9961126984275573, -0.08808792345234669, 9.885961659763272e-05)",-0.0003431383830323732,63.47264516073331,True,"(0.06820864402001395, 0.17570632656263158, 0.05600054161882515)","(-0.9963815690829794, 0.08499103637106277, 0.0005408588659369102)",-2.0748833364736657e-05,58.07971092127023
58,Move,"(0.0678, 0.0, 0.0021000000000000003)","(0.0, 0.1033252370473163, 0.0)","(0.03847333885150067, 0.15988876333175742, 0.04833590905835379)","(0.0026152235905204262, 0.000704192492040139, -0.09132018918059014)","[0.030941897691239072, 0.000455204072779658, 0.00039841858057806934]","[-0.026750000193715096, 0.05299999937415123, 0.03999999910593033]","[0.0, -0.0, 0.19935422282818102]","[-0.04100862145423889, 0.12357401847839355, 0.03999999910593033]","[0.0, 0.0, -0.5608581973041803]","[0.026750000193715096, 0.05299999937415123, 0.03999999910593033]","[0.0, 0.0, -0.8104184560937304]","[0.07891944795846939, 0.10262206196784973, 0.03999999910593033]","[0.0, 0.0, -0.04729574308553084]",0.18964770491875865,-2.329564763935316,"(0.0, 0.0, 0.0, 0.0, 0.0, 0.0)",-9.087193718098352,-0.7572584264425658,0.7089484587034371,"(0.0, 0.0, 0.0, 0.0, 0.0, 0.0)",-4.071232612558348,-0.8169625758516219,-1.5705941437544138,"(0.0, 0.0, 0.0, 0.0, 0.0, 0.0)",7.059179365386909,0.7597066830507667,-0.8198433123432394,"(0.0, 0.0, 0.0, 0.0, 0.0, 0.0)",4.08382222903637,True,"(0.007990008230161466, 0.1796157227041444, 0.05600011514782355)","(0.9960163934757414, -0.08917023518525498, 0.00011438786431895799)",-0.0003455593631586969,66.29201289568489,True,"(0.07033962681644487, 0.17514720035484987, 0.05600063690180661)","(-0.9959246442552844, 0.090187018403623, 0.0006361418473912246)",-2.9890756056190944e-05,56.979766194093436
59,Move,"(0.0684, 0.0, 0.0012)","(0.0, 0.11190003966236446, 0.0)","(0.04037777566130212, 0.15945483695667606, 0.04838027024470972)","(0.0011116108250379141, 0.0001777242539626059, -0.09328701849262667)","[0.032846334501040526, 2.127769769830201e-05, 0.00044277976693399973]","[-0.026750000193715096, 0.05299999937415123, 0.03999999910593033]","[0.0, -0.0, 0.18094248987671688]","[-0.039706889539957047, 0.12382456660270691, 0.03999999910593033]","[0.0, 0.0, -0.573269025987112]","[0.026750000193715096, 0.05299999937415123, 0.03999999910593033]","[0.0, 0.0, -0.8228314049798835]","[0.07953136414289474, 0.10197068005800247, 0.03999999910593033]","[0.0, 0.0, -0.0659935175452772]",0.1714502659396411,-2.278139299460139,"(0.0, 0.0, 0.0, 0.0, 0.0, 0.0)",-9.266984448461615,-0.7512973712786416,0.6994060871472029,"(0.0, 0.0, 0.0, 0.0, 0.0, 0.0)",-4.320162901504189,-0.8290508959346411,-1.492702670660622,"(0.0, 0.0, 0.0, 0.0, 0.0, 0.0)",7.298299319669695,0.7532378552701559,-0.8639844500364097,"(0.0, 0.0, 0.0, 0.0, 0.0, 0.0)",4.179873597779606,True,"(0.009983476351021418, 0.17925385451882309, 0.05600011514782355)","(0.9960163934757414, -0.08917023518525498, 0.00011438786431895799)",-0.000370855658301374,67.7986421724406,True,"(0.07230735315684546, 0.17462703016310116, 0.05600019684157191)","(-0.9957346273539528, 0.0922632832728469, 0.00019608161269725388)",-1.8208670276494612e-05,58.695702197652345
60,Move,"(0.0689, 0.0, 0.0008)","(0.0, 0.12046437030190062, 0.0)","(0.042254058309919656, 0.15899487995749453, 0.04841537107194229)","(-0.0009934352677390525, 0.00014520373740321314, -0.09492017975491243)","[0.03472261714965806, -0.00043867930148322465, 0.0004778805941665701]","[-0.026750000193715096, 0.05299999937415123, 0.03999999910593033]","[0.0, -0.0, 0.16290704865807557]","[-0.03842749446630478, 0.12404672056436539, 0.03999999910593033]","[0.0, 0.0, -0.5857978789671978]","[0.026750000193715096, 0.05299999937415123, 0.03999999910593033]","[0.0, 0.0, -0.8346492008251954]","[0.08010639250278473, 0.10134351253509521, 0.03999999910593033]","[0.0, 0.0, -0.08467479208978941]",0.153696269172188,-2.2105830900039907,"(0.0, 0.0, 0.0, 0.0, 0.0, 0.0)",-9.030066009626449,-0.7456903874724272,0.7234788051148532,"(0.0, 0.0, 0.0, 0.0, 0.0, 0.0)",-4.107999444018626,-0.8404981505358331,-1.4037602251144188,"(0.0, 0.0, 0.0, 0.0, 0.0, 0.0)",7.7269877682284225,0.7462846079390394,-0.8855408713660751,"(0.0, 0.0, 0.0, 0.0, 0.0, 0.0)",4.463715601181898,True,"(0.011953413846019993, 0.17884911232178535, 0.05600011514782355)","(0.9960163934757414, -0.08917023518525498, 0.00011438786431895799)",-0.0003896094694016739,66.88370923312225,True,"(0.074239135225766, 0.17410520963523324, 0.05600016063415938)","(-0.9955791370425163, 0.09392633457086763, 0.00015987420016145765)",-2.84072066737554e-05,62.4061373928802
61,Move,"(0.0695, 0.0, 0.0002)","(0.0, 0.1251278900632295, 0.0)","(0.04384150216832841, 0.15866504580737845, 0.048427844455419776)","(0.0012080129090348123, 0.0005100491543686931, -0.10359262429574287)","[0.036310061008066816, -0.000768513451599312, 0.0004903539776440549]","[-0.026750000193715096, 0.05299999937415123, 0.03999999910593033]","[0.0, -0.0, 0.14544919065768616]","[-0.03718545660376549, 0.12423974275588989, 0.03999999910593033]","[0.0, 0.0, -0.5970391130155185]","[0.026750000193715096, 0.05299999937415123, 0.03999999910593033]","[0.0, 0.0, -0.8457313009072144]","[0.08063885569572449, 0.10074925422668457, 0.03999999910593033]","[0.0, 0.0, -0.10252449669386844]",0.1365509603862721,-2.13557061623775,"(0.0, 0.0, 0.0, 0.0, 0.0, 0.0)",-12.510513418377338,-0.7376038680615061,1.1722614090021326,"(0.0, 0.0, 0.0, 0.0, 0.0, 0.0)",-6.144411188735459,-0.8513541821898151,-1.3494799947621599,"(0.0, 0.0, 0.0, 0.0, 0.0, 0.0)",9.726899406848652,0.7396264222509407,-0.8593038283399614,"(0.0, 0.0, 0.0, 0.0, 0.0, 0.0)",4.365042677217898,True,"(0.013812392684333041, 0.17850809670493323, 0.0560002885062519)","(0.9954139095101043, -0.0956612040269262, 0.00028774629266980844)",-0.0004147593332993545,83.74741733862344,True,"(0.07607030850371162, 0.1735954457690247, 0.05600014596369611)","(-0.9954984506118073, 0.09477770700626793, 0.00014520373689189348)",-1.6899642830643756e-05,51.95267292928818
62,Move,"(0.0695, 0.0, 0.0009000000000000001)","(0.0, 0.11257024609513026, 0.0)","(0.045275287116965976, 0.15857733095031984, 0.04848716993266285)","(-0.0008865385318372717, 0.0015472158906912564, -0.12090493616715145)","[0.03774384595670438, -0.0008562283086579192, 0.0005496794548871323]","[-0.026750000193715096, 0.05299999937415123, 0.03999999910593033]","[0.0, -0.0, 0.12852513996059498]","[-0.03597835451364517, 0.12440614402294159, 0.03999999910593033]","[0.0, 0.0, -0.6047154813995342]","[0.026750000193715096, 0.05299999937415123, 0.03999999910593033]","[0.0, 0.0, -0.856389993447176]","[0.08114472776651382, 0.10017216950654984, 0.03999999910593033]","[0.0, 0.0, -0.11983410602074757]",0.11985161493371083,-2.081648003277387,"(0.0, 0.0, 0.0, 0.0, 0.0, 0.0)",-11.082154215767199,-0.7287225503810506,1.0843363957032357,"(0.0, 0.0, 0.0, 0.0, 0.0, 0.0)",-5.598796491516739,-0.8616610727991841,-1.2650659151154593,"(0.0, 0.0, 0.0, 0.0, 0.0, 0.0)",8.532307226898386,0.7331629172130747,-0.8143095393503266,"(0.0, 0.0, 0.0, 0.0, 0.0, 0.0)",3.9731529056016193,True,"(0.015434568932472845, 0.17828142361164948, 0.0560002885062519)","(0.9954139095101043, -0.0956612040269262, 0.00028774629266980844)",-0.00031202483961972487,71.7649406886501,True,"(0.07783773847908139, 0.1730865266203251, 0.05600014596369611)","(-0.9954984506118073, 0.09477770700626793, 0.00014520373689189348)",4.290167088983833e-05,50.47846016612096
63,Move,"(0.0704, 0.0, 0.0009000000000000001)","(0.0, 0.10792941561407735, 0.0)","(0.046677140288218726, 0.15850477231426327, 0.04856606042733993)","(-0.000856914978428061, 0.0017794434759736055, -0.1379865979706463)","[0.03914569912795713, -0.0009287869447144881, 0.0006285699495642075]","[-0.026750000193715096, 0.05299999937415123, 0.03999999910593033]","[0.0, -0.0, 0.11205948558052942]","[-0.03480140492320061, 0.12454841285943985, 0.03999999910593033]","[0.0, 0.0, -0.6125405211804227]","[0.026750000193715096, 0.05299999937415123, 0.03999999910593033]","[0.0, 0.0, -0.8663863185156652]","[0.08161355555057526, 0.0996260717511177, 0.03999999910593033]","[0.0, 0.0, -0.1362073379016631]",0.10331633796382123,-2.0983510576619904,"(0.0, 0.0, 0.0, 0.0, 0.0, 0.0)",-12.018373866139259,-0.7198430773300556,1.1416738466731045,"(0.0, 0.0, 0.0, 0.0, 0.0, 0.0)",-5.963024207894335,-0.8715350869182911,-1.2356960036749207,"(0.0, 0.0, 0.0, 0.0, 0.0, 0.0)",8.153528011305836,0.7266844482136995,-0.8386977123711112,"(0.0, 0.0, 0.0, 0.0, 0.0, 0.0)",3.942989411242328,True,"(0.017031519389261, 0.1780197310149471, 0.0560002885062519)","(0.9954139095101043, -0.0956612040269262, 0.00028774629266980844)",-0.00021002951131799308,75.6768786364754,True,"(0.07950079842522166, 0.17258479831549645, 0.05600014596369611)","(-0.9954984506118073, 0.09477770700626793, 0.00014520373689189348)",3.781652677211327e-05,50.4149513409479
64,Move,"(0.0698, 0.0, 0.0009000000000000001)","(0.0, 0.1033252370473163, 0.0)","(0.04794418969412769, 0.15835718666210055, 0.04846917422296652)","(0.00098582022468698, -0.0030610171904814016, -0.1553344682560983)","[0.040412748533866096, -0.0010763725968772064, 0.000531683745190796]","[-0.026750000193715096, 0.05299999937415123, 0.03999999910593033]","[0.0, -0.0, 0.09538272519341015]","[-0.03360714763402939, 0.12467272579669952, 0.03999999910593033]","[0.0, 0.0, -0.6217188455306895]","[0.026750000193715096, 0.05299999937415123, 0.03999999910593033]","[0.0, 0.0, -0.876120977418195]","[0.08206483721733093, 0.09908979386091232, 0.03999999910593033]","[0.0, 0.0, -0.1524992147087522]",0.08699733332840581,-2.012495813399569,"(0.0, 0.0, 0.0, 0.0, 0.0, 0.0)",-13.348788090153889,-0.7115372385835267,1.3354324666422637,"(0.0, 0.0, 0.0, 0.0, 0.0, 0.0)",-6.778126454008034,-0.8809554557966817,-1.160265041404257,"(0.0, 0.0, 0.0, 0.0, 0.0, 0.0)",8.98086524694415,0.7201257486158334,-0.8390549468004327,"(0.0, 0.0, 0.0, 0.0, 0.0, 0.0)",3.9855127042583187,True,"(0.018711374921926177, 0.1776435735435581, 0.023998219797503887)","(0.9904933771903344, -0.13754891248695394, -0.0017794425369018357)",-0.0002927769764712306,87.129503120336,True,"(0.08114094320514398, 0.17207325613050378, 0.05600014596369611)","(-0.9954984506118073, 0.09477770700626793, 0.00014520373689189348)",0.00010707059893929535,24.92444140638983
65,Move,"(0.0699, 0.0, 0.0007)","(0.0, 0.10792941561407735, 0.0)","(0.04922721163380664, 0.157914845720899, 0.04853673331920866)","(-0.0007016038488065832, -0.0037003383304853254, -0.17237379790690768)","[0.041695770473545044, -0.001518713538078753, 0.000599242841432937]","[-0.026750000193715096, 0.05299999937415123, 0.03999999910593033]","[0.0, -0.0, 0.07941615548993233]","[-0.03246195241808891, 0.1247730702161789, 0.03999999910593033]","[0.0, 0.0, -0.6279737047893296]","[0.026750000193715096, 0.05299999937415123, 0.03999999910593033]","[0.0, 0.0, -0.8852600262477186]","[0.08248373121023178, 0.09858235716819763, 0.03999999910593033]","[0.0, 0.0, -0.16798476792735442]",0.07103577078942762,-2.0112909752889494,"(0.0, 0.0, 0.0, 0.0, 0.0, 0.0)",-11.83031007518671,-0.7024089228259275,1.1954219512836803,"(0.0, 0.0, 0.0, 0.0, 0.0, 0.0)",-5.898429213685606,-0.8898526142931636,-1.1022264702373117,"(0.0, 0.0, 0.0, 0.0, 0.0, 0.0)",9.333939518589936,0.7134082463888392,-0.9280781570319605,"(0.0, 0.0, 0.0, 0.0, 0.0, 0.0)",4.371642004226468,True,"(0.02018687004243535, 0.17741563781644737, 0.023998219797503887)","(0.9904933771903344, -0.13754891248695394, -0.0017794425369018357)",-0.00021844235930061385,71.57773766731783,True,"(0.08269009660243712, 0.1715713727213497, 0.05600014596369611)","(-0.9954984506118073, 0.09477770700626793, 0.00014520373689189348)",0.00014028611743472808,32.84289870453476
66,Move,"(0.0693, 0.0, 0.0003)","(0.0, 0.11257024609513026, 0.0)","(0.0506386018862079, 0.1573270845384506, 0.048573133145636715)","(-0.0007740449994352995, -0.0021871363544565124, -0.19906209361171331)","[0.0431071607259463, -0.0021064747205271628, 0.0006356426678609944]","[-0.026750000193715096, 0.05299999937415123, 0.03999999910593033]","[0.0, -0.0, 0.06350302988953013]","[-0.03131914511322975, 0.12485487759113312, 0.03999999910593033]","[0.0, 0.0, -0.6346431031152896]","[0.026750000193715096, 0.05299999937415123, 0.03999999910593033]","[0.0, 0.0, -0.8939390649781724]","[0.08287724107503891, 0.09809692949056625, 0.03999999910593033]","[0.0, 0.0, -0.18353839676372788]",0.05505822234329621,-2.026753888518807,"(0.0, 0.0, 0.0, 0.0, 0.0, 0.0)",-5.0802570983304065,-0.69835374325819,-0.04984750379872027,"(0.0, 0.0, 0.0, 0.0, 0.0, 0.0)",-2.515163340519229,-0.8977750315280838,-0.920630627344342,"(0.0, 0.0, 0.0, 0.0, 0.0, 0.0)",1.499760587892263,0.7106675489184079,0.0640555467323155,"(0.0, 0.0, 0.0, 0.0, 0.0, 0.0)",0.39047116133344933,True,"(0.02167959497390106, 0.1771451418551982, 0.023998219797503887)","(0.9904933771903344, -0.13754891248695394, -0.0017794425369018357)",-0.00012787616759871883,29.220092139292216,True,"(0.07512923824141948, 0.12210730325451138, 0.023996544899039747)","(-0.9831981872235414, 0.1825086084780403, -0.003454341001030203)",-0.000242049681681035,13.308628492816833
67,Move,"(0.07100000000000001, 0.0, -0.0002)","(0.0, 0.11257024609513026, 0.0)","(0.05199339981785772, 0.15705694916706958, 0.04857611695135938)","(0.00018906984505914908, 0.014613009251530508, -0.2130090502555212)","[0.044461958657596126, -0.0023766100919081767, 0.0006386264735836616]","[-0.026750000193715096, 0.05299999937415123, 0.03999999910593033]","[0.0, -0.0, 0.047598145281347884]","[-0.030175771564245224, 0.12491845339536667, 0.03999999910593033]","[0.0, 0.0, -0.6492162326909402]","[0.026750000193715096, 0.05299999937415123, 0.03999999910593033]","[0.0, 0.0, -0.9013280729127263]","[0.08320892602205276, 0.09768097847700119, 0.03999999910593033]","[0.0, 0.0, -0.1923394316554842]",0.0392211907103483,-2.010468671742376,"(0.0, 0.0, 0.0, 0.0, 0.0, 0.0)",-17.38209502783412,-0.6899540596581224,1.6464754783271809,"(0.0, 0.0, 0.0, 0.0, 0.0, 0.0)",-8.292263090085935,-0.9055688026446089,-1.0177826616302106,"(0.0, 0.0, 0.0, 0.0, 0.0, 0.0)",13.259837594415023,0.7033125337859499,-1.3622579425392225,"(0.0, 0.0, 0.0, 0.0, 0.0, 0.0)",6.47785482948372,True,"(0.023572944441620555, 0.17639713357579684, 0.05600218789456996)","(0.9802501354316636, -0.1977495598690419, 0.002187134610740202)",-0.00026111777860160414,82.13833301895691,True,"(0.0756725358951393, 0.12175861290759321, 0.023996544899039747)","(-0.9831981872235414, 0.1825086084780403, -0.003454341001030203)",-0.00012065553857388859,28.158318003035234
68,Move,"(0.0727, 0.0, 0.0004)","(0.0, 0.10792941561407735, 0.0)","(0.053344166563905955, 0.15704370632658957, 0.04886973098968947)","(-0.0015328452659574812, 0.022539497810035652, -0.22564830884990333)","[0.04581272540364436, -0.0023898529323881923, 0.0009322405119137483]","[-0.026750000193715096, 0.05299999937415123, 0.03999999910593033]","[0.0, -0.0, 0.03167449663888335]","[-0.02903018333017826, 0.12496388703584671, 0.03999999910593033]","[0.0, 0.0, -0.65225303317487]","[0.026750000193715096, 0.05299999937415123, 0.03999999910593033]","[0.0, 0.0, -0.9093618298127507]","[0.08356605470180511, 0.09722596406936646, 0.03999999910593033]","[0.0, 0.0, -0.2113204049467671]",0.023087888419142465,-2.06078593429786,"(0.0, 0.0, 0.0, 0.0, 0.0, 0.0)",-19.391662169919044,-0.676785438091475,1.7141090252648443,"(0.0, 0.0, 0.0, 0.0, 0.0, 0.0)",-9.072461983471689,-0.9135329146576378,-1.001063358075531,"(0.0, 0.0, 0.0, 0.0, 0.0, 0.0)",12.068299409686183,0.6923949717477043,-1.355146712991786,"(0.0, 0.0, 0.0, 0.0, 0.0, 0.0)",6.7762298114875685,True,"(0.02487461845365732, 0.17627910139674766, 0.05600218789456996)","(0.9802501354316636, -0.1977495598690419, 0.002187134610740202)",-7.447826535027464e-06,94.03563584693521,True,"(0.07648801396461813, 0.12144229975548979, 0.023996544899039747)","(-0.9831981872235414, 0.1825086084780403, -0.003454341001030203)",0.000122937431389303,11.145803496205527
69,Move,"(0.0725, 0.0, 0.0007)","(0.0, 0.09931272509698134, 0.0)","(0.054472800741965734, 0.15664621923320884, 0.04893015573435088)","(-0.0012937666354109194, 0.020654786960179212, -0.2378629970015165)","[0.04694135958170414, -0.002787340025768914, 0.0009926652565751606]","[-0.026750000193715096, 0.05299999937415123, 0.03999999910593033]","[0.0, -0.0, 0.015234679425437573]","[-0.02784685418009758, 0.12499164789915085, 0.03999999910593033]","[0.0, 0.0, -0.654813729252691]","[0.026750000193715096, 0.05299999937415123, 0.03999999910593033]","[0.0, 0.0, -0.9173360120144799]","[0.08391690999269485, 0.09677150100469589, 0.03999999910593033]","[0.0, 0.0, -0.22850091561150704]",0.00672258767906192,-2.042901519114135,"(0.0, 0.0, 0.0, 0.0, 0.0, 0.0)",-16.48175216482081,-0.6631275337090016,1.6610097849594294,"(0.0, 0.0, 0.0, 0.0, 0.0, 0.0)",-8.521455462508067,-0.9212887653355117,-0.9486565169486736,"(0.0, 0.0, 0.0, 0.0, 0.0, 0.0)",12.180083354949158,0.6844490201257868,-1.0526632089124253,"(0.0, 0.0, 0.0, 0.0, 0.0, 0.0)",5.122064479942447,True,"(0.02618459310053554, 0.17614929883815741, 0.02397836527549336)","(0.9733296420148752, -0.22838865898541427, -0.021633964547421843)",-0.0005992659722812905,117.96758250576298,True,"(0.07725594424799156, 0.12110585966751507, 0.023996544899039747)","(-0.9831981872235414, 0.1825086084780403, -0.003454341001030203)",6.238793837493724e-05,49.91312977493545
70,Move,"(0.0719, 0.0, 0.0007)","(0.0, 0.09117600012418381, 0.0)","(0.05546473935611188, 0.15620171632524021, 0.04877953451722866)","(0.00042204787933058815, 0.010636134295949081, -0.24774103214967616)","[0.04793329819585029, -0.0032318429337375443, 0.000842044039452941]","[-0.026750000193715096, 0.05299999937415123, 0.03999999910593033]","[0.0, 0.0, -0.0009369211470097242]","[-0.026682540774345398, 0.12499997019767761, 0.03999999910593033]","[0.0, 0.0, -0.6578467269074103]","[0.026750000193715096, 0.05299999937415123, 0.03999999910593033]","[0.0, 0.0, -0.9248516611896075]","[0.0842442587018013, 0.09634062647819519, 0.03999999910593033]","[0.0, 0.0, -0.2444761363829679]",-0.00927674966016693,-2.0015588447707873,"(0.0, 0.0, 0.0, 0.0, 0.0, 0.0)",-13.123673649218583,-0.6523092167473246,1.104141735610205,"(0.0, 0.0, 0.0, 0.0, 0.0, 0.0)",-6.16848899157778,-0.9284248947359475,-0.8576083015040189,"(0.0, 0.0, 0.0, 0.0, 0.0, 0.0)",12.007881056225179,0.6755019912220093,-1.1696229707726722,"(0.0, 0.0, 0.0, 0.0, 0.0, 0.0)",6.0709400302923004,True,"(0.027501303866632174, 0.1759830492395871, 0.023979925041899556)","(0.9701182751481457, -0.24180065920624141, -0.020074198141231802)",-0.0005353786489762719,96.27116514973966,True,"(0.0900278902641654, 0.1691007086168316, 0.05602065407832574)","(-0.971636431022676, 0.23557607338175807, 0.02065331836652597)",-0.000657577383443213,46.66164602924835
71,Move,"(0.0729, 0.0, 0.0009000000000000001)","(0.0, 0.0952635612323545, 0.0)","(0.05640168778525835, 0.15601489839506702, 0.048275691824491415)","(-2.9781284934212995e-05, -0.007588746483968233, -0.25382601708862645)","[0.048870246624996755, -0.0034186608639107385, 0.00033820134671569413]","[-0.026750000193715096, 0.05299999937415123, 0.03999999910593033]","[0.0, 0.0, -0.01677642668622957]","[-0.025542153045535088, 0.12498986721038818, 0.03999999910593033]","[0.0, 0.0, -0.6647992339164588]","[0.026750000193715096, 0.05299999937415123, 0.03999999910593033]","[0.0, 0.0, -0.9316434557957182]","[0.08453729748725891, 0.09594913572072983, 0.03999999910593033]","[0.0, 0.0, -0.2604740046632188]",-0.02526367908848147,-2.036940320451917,"(0.0, 0.0, 0.0, 0.0, 0.0, 0.0)",-14.070349755842512,-0.6427692566463679,1.2608485253038484,"(0.0, 0.0, 0.0, 0.0, 0.0, 0.0)",-6.541161314474979,-0.9351304023869553,-0.8368846619705822,"(0.0, 0.0, 0.0, 0.0, 0.0, 0.0)",11.516586152575908,0.6661533696482131,-1.2038522651888894,"(0.0, 0.0, 0.0, 0.0, 0.0, 0.0)",6.039792414004256,True,"(0.02899527404103741, 0.17559589841687856, 0.02399860473434266)","(0.9688490351053766, -0.24764814259194182, -0.0013945056981186765)",-0.0005820185347739709,103.33435703477096,True,"(0.09148414076343585, 0.1686073869178858, 0.05602065407832574)","(-0.971636431022676, 0.23557607338175807, 0.02065331836652597)",-5.429421569213563e-05,23.286040560773383
72,Move,"(0.0733, 0.0, 0.0003)","(0.0, 0.1033252370473163, 0.0)","(0.05741844482525647, 0.15565570198268733, 0.048379853110659295)","(0.0009566880227746203, -0.008206057591889977, -0.2704267128941058)","[0.04988700366499488, -0.0037778572762904306, 0.00044236263288357364]","[-0.026750000193715096, 0.05299999937415123, 0.03999999910593033]","[0.0, 0.0, -0.032759636303084795]","[-0.02439172752201557, 0.12496136873960495, 0.03999999910593033]","[0.0, 0.0, -0.6678736695900913]","[0.026750000193715096, 0.05299999937415123, 0.03999999910593033]","[0.0, 0.0, -0.938369832728079]","[0.08482488244771957, 0.09555946290493011, 0.03999999910593033]","[0.0, 0.0, -0.27627698992634864]",-0.04112180100176437,-2.006920018353167,"(0.0, 0.0, 0.0, 0.0, 0.0, 0.0)",-18.78063104829993,-0.6279406827388495,1.721599822583049,"(0.0, 0.0, 0.0, 0.0, 0.0, 0.0)",-9.31469910818717,-0.9417228505660113,-0.8047260386384614,"(0.0, 0.0, 0.0, 0.0, 0.0, 0.0)",12.020454498355372,0.6577359768693435,-1.045649060043996,"(0.0, 0.0, 0.0, 0.0, 0.0, 0.0)",4.956757198406772,True,"(0.030301026391616172, 0.1753994884212318, 0.02399860473434266)","(0.9688490351053766, -0.24764814259194182, -0.0013945056981186765)",-0.0005263285394678875,125.54377334653694,True,"(0.09291903040555101, 0.1680988663113363, 0.05602065407832574)","(-0.971636431022676, 0.23557607338175807, 0.02065331836652597)",0.0003268032780391677,15.105967171189365
73,Move,"(0.0735, 0.0, -0.0007)","(0.0, 0.1033252370473163, 0.0)","(0.05849610839088559, 0.15509776687445198, 0.04850572233788191)","(-0.0011235536276383348, -0.009719446578399788, -0.2925621423962558)","[0.050964667230624, -0.004335792384525777, 0.00056823186010619]","[-0.026750000193715096, 0.05299999937415123, 0.03999999910593033]","[0.0, 0.0, -0.04867913096091981]","[-0.023246485739946365, 0.12491470575332642, 0.03999999910593033]","[0.0, 0.0, -0.6698412093204937]","[0.026750000193715096, 0.05299999937415123, 0.03999999910593033]","[0.0, 0.0, -0.9447987897136793]","[0.0850972905755043, 0.09518522769212723, 0.03999999910593033]","[0.0, 0.0, -0.29158466213513434]",-0.05717809923326331,-2.039751751837443,"(0.0, 0.0, 0.0, 0.0, 0.0, 0.0)",-16.36263482516686,-0.6149684882421456,1.4864599300713128,"(0.0, 0.0, 0.0, 0.0, 0.0, 0.0)",-8.173082413029551,-0.9478491367998398,-0.7320803894156362,"(0.0, 0.0, 0.0, 0.0, 0.0, 0.0)",10.179228350959571,0.6497770235913473,-0.8249162497783767,"(0.0, 0.0, 0.0, 0.0, 0.0, 0.0)",4.024281289328834,True,"(0.03154540200051068, 0.17524512051260369, 0.02399860473434266)","(0.9688490351053766, -0.24764814259194182, -0.0013945056981186765)",-0.0003847060377457372,104.26784445158543,True,"(0.0943008582162371, 0.16759223105118812, 0.05602065407832574)","(-0.971636431022676, 0.23557607338175807, 0.02065331836652597)",0.00030099603460910653,44.88504573158989
74,Move,"(0.0718, 0.0, -0.0004)","(0.0, 0.08614596121993615, 0.0)","(0.0599455313983034, 0.1542508734561713, 0.04839886418654186)","(0.0025167796816934814, 0.010475855605604042, -0.32185689960952935)","[0.052414090238041805, -0.005182685802806453, 0.0004613737087661371]","[-0.026750000193715096, 0.05299999937415123, 0.03999999910593033]","[0.0, 0.0, -0.06525282846396246]","[-0.02205513045191765, 0.12484677135944366, 0.03999999910593033]","[0.0, 0.0, -0.6811130785091714]","[0.026750000193715096, 0.05299999937415123, 0.03999999910593033]","[0.0, 0.0, -0.9502110351013039]","[0.08532475680112839, 0.09486881643533707, 0.03999999910593033]","[0.0, 0.0, -0.29968139093069945]",-0.07353645112327983,-1.988068784841861,"(0.0, 0.0, 0.0, 0.0, 0.0, 0.0)",-8.989634000790634,-0.6127713743469247,0.7413272538010638,"(0.0, 0.0, 0.0, 0.0, 0.0, 0.0)",-4.2396087238454765,-0.9525795264643698,-0.5684265986318237,"(0.0, 0.0, 0.0, 0.0, 0.0, 0.0)",9.668262178919223,0.6478652432593692,-0.6394703571829747,"(0.0, 0.0, 0.0, 0.0, 0.0, 0.0)",5.1230609652547265,True,"(0.03328593693557095, 0.174507769787109, 0.05600823364698442)","(0.9500334346872554, -0.3120395688812023, 0.008232887025195148)",-0.0005935600778960283,67.04035507868839,True,"(0.0797623372650892, 0.11751473790015564, 0.02399027994649052)","(-0.9574628543563564, 0.28839281867040756, -0.009719293550257664)",-0.0005833425913876315,4.051072820739431
75,Move,"(0.0692, 0.0, 0.0004)","(0.0, 0.07341029366813348, 0.0)","(0.06099759002721274, 0.15440288358341483, 0.04877466382191203)","(0.00033163450459180066, 0.02125015854378002, -0.33508400390088816)","[0.05346614886695115, -0.005030675675562923, 0.0008371733441363063]","[-0.026750000193715096, 0.05299999937415123, 0.03999999910593033]","[0.0, 0.0, -0.0805897304066478]","[-0.020953819155693054, 0.12476631999015808, 0.03999999910593033]","[0.0, 0.0, -0.6849006269269909]","[0.026750000193715096, 0.05299999937415123, 0.03999999910593033]","[0.0, 0.0, -0.9550803094213616]","[0.0855279192328453, 0.09458312392234802, 0.03999999910593033]","[0.0, 0.0, -0.3139330836813215]",-0.0879146551478627,-1.7579826710550923,"(0.0, 0.0, 0.0, 0.0, 0.0, 0.0)",-22.806186738667154,-0.595389551174539,2.1411278882614977,"(0.0, 0.0, 0.0, 0.0, 0.0, 0.0)",-11.19446869952694,-0.9571771350315142,-0.5032828056033337,"(0.0, 0.0, 0.0, 0.0, 0.0, 0.0)",18.066470631274036,0.6338366591813682,-1.7544907979643551,"(0.0, 0.0, 0.0, 0.0, 0.0, 0.0)",9.08482379728609,True,"(0.03457494541127013, 0.17421735393749446, 0.05600823364698442)","(0.9500334346872554, -0.3120395688812023, 0.008232887025195148)",-0.00036973410316448795,113.72965067626616,True,"(0.08028880007576555, 0.11730601132408613, 0.02399027994649052)","(-0.9574628543563564, 0.28839281867040756, -0.009719293550257664)",-0.0003003301030968155,37.993491890480776
76,Move,"(0.0738, 0.0, 0.0001)","(0.0, 0.0952635612323545, 0.0)","(0.061919789531209406, 0.15435293408566808, 0.048972667921098695)","(-0.0005521573315355524, 0.024976897714730755, -0.34771931628593394)","[0.05438834837094781, -0.0050806251733096774, 0.0010351774433229738]","[-0.026750000193715096, 0.05299999937415123, 0.03999999910593033]","[0.0, 0.0, -0.09450839472252758]","[-0.019955521449446678, 0.12467869371175766, 0.03999999910593033]","[0.0, 0.0, -0.6818741928103041]","[0.026750000193715096, 0.05299999937415123, 0.03999999910593033]","[0.0, 0.0, -0.9590688622412847]","[0.08569331467151642, 0.09434834867715836, 0.03999999910593033]","[0.0, 0.0, -0.331882373342288]",-0.10315724478194048,-2.0757257310243347,"(0.0, 0.0, 0.0, 0.0, 0.0, 0.0)",-24.386782402368734,-0.5770131844665835,2.484633510123221,"(0.0, 0.0, 0.0, 0.0, 0.0, 0.0)",-12.599479832283006,-0.9617824397037793,-0.6512886794557752,"(0.0, 0.0, 0.0, 0.0, 0.0, 0.0)",16.2882253822407,0.6221080537855151,-1.2187963685221064,"(0.0, 0.0, 0.0, 0.0, 0.0, 0.0)",6.438431933166343,True,"(0.03541549006345717, 0.17427558775570795, 0.023974100177844668)","(0.9419573353143977, -0.33473215714173843, -0.025899062196113536)",-0.000910986739857609,170.13263168202636,True,"(0.08086287262024316, 0.11716161186564027, 0.02399027994649052)","(-0.9574628543563564, 0.28839281867040756, -0.009719293550257664)",4.135899437445028e-05,81.43358258483974
77,Move,"(0.076, 0.0, -0.0008)","(0.0, 0.10792941561407735, 0.0)","(0.06291965926561416, 0.15385586393392156, 0.048909742661149544)","(-0.00220264017800984, 0.013266895525187589, -0.3452050753872478)","[0.05538821810535256, -0.005577695325056198, 0.0009722521833738229]","[-0.026750000193715096, 0.05299999937415123, 0.03999999910593033]","[0.0, 0.0, -0.1109284781104006]","[-0.018779518082737923, 0.12455747276544571, 0.03999999910593033]","[0.0, 0.0, -0.6794177908898912]","[0.026750000193715096, 0.05299999937415123, 0.03999999910593033]","[0.0, 0.0, -0.96420778022755]","[0.08590502291917801, 0.09404488652944565, 0.03999999910593033]","[0.0, 0.0, -0.34690682287934416]",-0.12018473782309132,-2.2215005927334173,"(0.0, 0.0, 0.0, 0.0, 0.0, 0.0)",-17.437604826374642,-0.5632657878307799,1.2536280592848552,"(0.0, 0.0, 0.0, 0.0, 0.0, 0.0)",-8.042208968281576,-0.9667250149856982,-0.604126280375834,"(0.0, 0.0, 0.0, 0.0, 0.0, 0.0)",14.059268337430117,0.6107504172079355,-1.5721401250058946,"(0.0, 0.0, 0.0, 0.0, 0.0, 0.0)",8.104573077206402,True,"(0.03646461145319353, 0.1742765773810992, 0.02397584850210278)","(0.9378969554747079, -0.3460723085835153, -0.024150737937999208)",-0.0008413848470482674,124.59916600809369,True,"(0.09910016503326236, 0.1658374092586222, 0.05602415149789722)","(-0.9378969554747083, 0.3460723085835141, 0.024150737938003815)",-0.0011403481097600437,62.78524336760911
78,Move,"(0.0746, 0.0, -0.0014)","(0.0, 0.1033252370473163, 0.0)","(0.0636033611066328, 0.15368265818582516, 0.048284035217365635)","(-0.001780562540405203, -0.00898183589338545, -0.34834281316830473)","[0.0560719199463712, -0.005750901073152598, 0.00034654473958991433]","[-0.026750000193715096, 0.05299999937415123, 0.03999999910593033]","[0.0, 0.0, -0.1284114425080465]","[-0.017529765143990517, 0.12440719455480576, 0.03999999910593033]","[0.0, 0.0, -0.6849581625097567]","[0.026750000193715096, 0.05299999937415123, 0.03999999910593033]","[0.0, 0.0, -0.969201528732614]","[0.08610925078392029, 0.09374897927045822, 0.03999999910593033]","[0.0, 0.0, -0.3644020328816372]",-0.1368389532961936,-2.0226026313062,"(0.0, 0.0, 0.0, 0.0, 0.0, 0.0)",-19.04823993666649,-0.5491340089126544,1.7790422372132697,"(0.0, 0.0, 0.0, 0.0, 0.0, 0.0)",-9.15250757717591,-0.9714864019590516,-0.5483925372932408,"(0.0, 0.0, 0.0, 0.0, 0.0, 0.0)",15.885943821133957,0.598499336934582,-1.5120154155649483,"(0.0, 0.0, 0.0, 0.0, 0.0, 0.0)",7.778957663156526,True,"(0.03799360988543349, 0.17383120060882007, 0.023998349175973082)","(0.9405946267071136, -0.3395276505651317, -0.001650064067698901)",-0.0009072001123158712,139.90553869795286,True,"(0.10055833068921856, 0.16529967465431541, 0.05602415149789722)","(-0.9378969554747083, 0.3460723085835141, 0.024150737938003815)",-0.00026853584395194585,20.79456820467526
79,Move,"(0.0741, 0.0, -0.0015)","(0.0, 0.1033252370473163, 0.0)","(0.06427552660691091, 0.15341399603600123, 0.048359734254467615)","(0.00026741044630934526, -0.00997736780958282, -0.3614243950434536)","[0.056744085446649314, -0.006019563222976532, 0.00042224377669189406]","[-0.026750000193715096, 0.05299999937415123, 0.03999999910593033]","[0.0, 0.0, -0.14419360681434035]","[-0.01640400104224682, 0.1242527887225151, 0.03999999910593033]","[0.0, 0.0, -0.6826687210863772]","[0.026750000193715096, 0.05299999937415123, 0.03999999910593033]","[0.0, 0.0, -0.9737073309197981]","[0.08629225939512253, 0.09348109364509583, 0.03999999910593033]","[0.0, 0.0, -0.38005049969108623]",-0.15234534777047481,-1.9564209065507767,"(0.0, 0.0, 0.0, 0.0, 0.0, 0.0)",-25.718046648904977,-0.5284809834696361,2.3985988880773514,"(0.0, 0.0, 0.0, 0.0, 0.0, 0.0)",-12.750591731625843,-0.9758721472309887,-0.5195308219136309,"(0.0, 0.0, 0.0, 0.0, 0.0, 0.0)",16.18812660369846,0.5883385089422796,-1.2764287924015196,"(0.0, 0.0, 0.0, 0.0, 0.0, 0.0)",6.156341275362997,True,"(0.03900607788563627, 0.17380378365732052, 0.023998349175973082)","(0.9405946267071136, -0.3395276505651317, -0.001650064067698901)",-0.0008387009044007073,172.99287719974856,True,"(0.10185918452612534, 0.16479693231850656, 0.05602415149789722)","(-0.9378969554747083, 0.3460723085835141, 0.024150737938003815)",0.0003885581081052662,6.0349535856478465
80,Move,"(0.0755, 0.0, -0.0017)","(0.0, 0.11653563415566137, 0.0)","(0.0650769314896681, 0.1530037581905153, 0.04846182990844589)","(-0.0018334416710137221, -0.01075202225637592, -0.379831492797874)","[0.05754549032940651, -0.006429801068462471, 0.0005243394306701718]","[-0.026750000193715096, 0.05299999937415123, 0.03999999910593033]","[0.0, 0.0, -0.15972306224012064]","[-0.01529877632856369, 0.12408354133367538, 0.03999999910593033]","[0.0, 0.0, -0.6795591967800645]","[0.026750000193715096, 0.05299999937415123, 0.03999999910593033]","[0.0, 0.0, -0.977793403536154]","[0.08645716309547424, 0.09323747456073761, 0.03999999910593033]","[0.0, 0.0, -0.39402245760989796]",-0.16837996956759627,-2.0776630790984676,"(0.0, 0.0, 0.0, 0.0, 0.0, 0.0)",-24.275540242718662,-0.5093979089283911,2.5051630076566105,"(0.0, 0.0, 0.0, 0.0, 0.0, 0.0)",-12.463371519032709,-0.9800376319252779,-0.5386279784199987,"(0.0, 0.0, 0.0, 0.0, 0.0, 0.0)",17.85912396046366,0.5777774495767081,-1.4384340589794948,"(0.0, 0.0, 0.0, 0.0, 0.0, 0.0)",6.958481307562936,True,"(0.03995695030367001, 0.17380659480784333, 0.023998349175973082)","(0.9405946267071136, -0.3395276505651317, -0.001650064067698901)",-0.000735488256654645,150.4046748564926,True,"(0.10301895879124429, 0.16432885650613144, 0.05602415149789722)","(-0.9378969554747083, 0.3460723085835141, 0.024150737938003815)",0.0004339292911567031,16.72269595860284
