OSUrobotics/InHand-Manipulation/AnalyseData/Data/Trial Data/Tries/new_hand_human_sub1_2v2_b_n_1_kpNone_kdNone_dp1_step1_save_data.csv
,Phase,human_cube_pos,human_cube_orn,Cube_Pos,Cube_Orn,Cube_pos_in_start_pos,b'l_prox_pin'_link_pos,b'l_prox_pin'_link_orn,b'l_distal_pin'_link_pos,b'l_distal_pin'_link_orn,b'r_prox_pin'_link_pos,b'r_prox_pin'_link_orn,b'r_distal_pin'_link_pos,b'r_distal_pin'_link_orn,b'l_prox_pin'_joint_angle,b'l_prox_pin'_joint_vel,b'l_prox_pin'_joint_react_forces,b'l_prox_pin'_joint_motor_torque,b'l_distal_pin'_joint_angle,b'l_distal_pin'_joint_vel,b'l_distal_pin'_joint_react_forces,b'l_distal_pin'_joint_motor_torque,b'r_prox_pin'_joint_angle,b'r_prox_pin'_joint_vel,b'r_prox_pin'_joint_react_forces,b'r_prox_pin'_joint_motor_torque,b'r_distal_pin'_joint_angle,b'r_distal_pin'_joint_vel,b'r_distal_pin'_joint_react_forces,b'r_distal_pin'_joint_motor_torque,in_contact_l,contact_point_l_dist,contact_normal_l_dist,contact_distance_l_dist,contact_norm_force_l_dist,in_contact_r,contact_point_r_dist,contact_normal_r_dist,contact_distance_r_dist,contact_norm_force_r_dist
0,Open,,,,,,"[-0.026750000193715096, 0.05299999937415123, 0.03999999910593033]","[0.0, -0.0, 0.0]","[-0.026750000193715096, 0.125, 0.03999999910593033]","[0.0, -0.0, 0.0]","[0.026750000193715096, 0.05299999937415123, 0.03999999910593033]","[0.0, -0.0, 0.0]","[0.026750000193715096, 0.125, 0.03999999910593033]","[0.0, -0.0, 0.0]",0.0,0.0,"(0.0, 0.0, 0.0, 0.0, 0.0, 0.0)",1.3400621000080305e-17,5.883223478113402e-32,1.4119736347472167e-29,"(0.0, 0.0, 0.0, 0.0, 0.0, 0.0)",1.0542555313129702e-18,-0.008068665190486622,-1.9364796457167894,"(0.0, 0.0, 0.0, 0.0, 0.0, 0.0)",193.26378306879909,-0.0700246186727924,-16.805908481470176,"(0.0, 0.0, 0.0, 0.0, 0.0, 0.0)",71.94009191575694,False,,,,,False,,,,
1,Open,,,,,,"[-0.026750000193715096, 0.05299999937415123, 0.03999999910593033]","[0.0, -0.0, 0.0]","[-0.026750000193715096, 0.125, 0.03999999910593033]","[0.0, -0.0, 5.883223447970011e-32]","[0.026750000193715096, 0.05299999937415123, 0.03999999910593033]","[0.0, 0.0, -0.008068665592501188]","[0.02733093686401844, 0.12499765306711197, 0.03999999910593033]","[0.0, 0.0, -0.0780932845685428]",0.157,37.68,"(0.0, 0.0, 0.0, 0.0, 0.0, 0.0)",54.702693795169004,5.294901130302062e-32,-1.4119736347472162e-30,"(0.0, 0.0, 0.0, 0.0, 0.0, 0.0)",3.9113724975844915,-0.1670280316324969,-38.150247946082466,"(0.0, 0.0, 0.0, 0.0, 0.0, 0.0)",-25.93345404555236,-0.0659493391739072,0.9780670797324476,"(0.0, 0.0, 0.0, 0.0, 0.0, 0.0)",-6.754749483880455,False,,,,,False,,,,
2,Open,,,,,,"[-0.026750000193715096, 0.05299999937415123, 0.03999999910593033]","[0.0, -0.0, 0.1569999988554567]","[-0.03800761699676514, 0.12411445379257202, 0.03999999910593033]","[0.0, -0.0, 0.1569999988554567]","[0.026750000193715096, 0.05299999937415123, 0.03999999910593033]","[0.0, 0.0, -0.16702801712980753]","[0.038720179349184036, 0.1239979937672615, 0.03999999910593033]","[0.0, 0.0, -0.23297739431320727]",0.29829999999999995,33.91199999999999,"(0.0, 0.0, 0.0, 0.0, 0.0, 0.0)",-5.390828189440958,5.294901130302062e-32,0.0,"(0.0, 0.0, 0.0, 0.0, 0.0, 0.0)",-0.3659219356209609,-0.3122944613104081,-34.863943122698686,"(0.0, 0.0, 0.0, 0.0, 0.0, 0.0)",95.8006544774165,-0.06705867534034729,-0.2662406799456205,"(0.0, 0.0, 0.0, 0.0, 0.0, 0.0)",9.049911776264722,False,,,,,False,,,,
3,Open,,,,,,"[-0.026750000193715096, 0.05299999937415123, 0.03999999910593033]","[0.0, -0.0, 0.29830000998707634]","[-0.04791048914194107, 0.12182030081748962, 0.03999999910593033]","[0.0, -0.0, 0.29830000998707634]","[0.026750000193715096, 0.05299999937415123, 0.03999999910593033]","[0.0, 0.0, -0.3122944642903269]","[0.048871491104364395, 0.12151744216680527, 0.03999999910593033]","[0.0, 0.0, -0.3793531994353912]",0.42546999999999996,30.5208,"(0.0, 0.0, 0.0, 0.0, 0.0, 0.0)",-4.858074537215091,5.294901130302062e-32,0.0,"(0.0, 0.0, 0.0, 0.0, 0.0, 0.0)",-0.33154044974508506,-0.44292449566296654,-31.35120824461403,"(0.0, 0.0, 0.0, 0.0, 0.0, 0.0)",100.88457241511576,-0.08373770380977785,-4.0029668326633345,"(0.0, 0.0, 0.0, 0.0, 0.0, 0.0)",24.077304806401806,False,,,,,False,,,,
4,Open,,,,,,"[-0.026750000193715096, 0.05299999937415123, 0.03999999910593033]","[0.0, -0.0, 0.4254700097131474]","[-0.056467924267053604, 0.11858082562685013, 0.03999999910593033]","[0.0, -0.0, 0.4254700097131474]","[0.026750000193715096, 0.05299999937415123, 0.03999999910593033]","[0.0, 0.0, -0.4429245237535421]","[0.057608019560575485, 0.1180521547794342, 0.03999999910593033]","[0.0, 0.0, -0.5266622746639338]",0.5399229999999999,27.46872,"(0.0, 0.0, 0.0, 0.0, 0.0, 0.0)",-4.377393708535371,5.294901130302062e-32,0.0,"(0.0, 0.0, 0.0, 0.0, 0.0, 0.0)",-0.30017707799641646,-0.5623038734984663,-28.651050680519948,"(0.0, 0.0, 0.0, 0.0, 0.0, 0.0)",144.45470973647488,-0.10456727132876567,-4.999096204557077,"(0.0, 0.0, 0.0, 0.0, 0.0, 0.0)",33.97911746732963,False,,,,,False,,,,
5,Open,,,,,,"[-0.026750000193715096, 0.05299999937415123, 0.03999999910593033]","[0.0, -0.0, 0.5399230359738098]","[-0.06376303732395172, 0.11475787311792374, 0.03999999910593033]","[0.0, -0.0, 0.5399230359738098]","[0.026750000193715096, 0.05299999937415123, 0.03999999910593033]","[0.0, 0.0, -0.5623038790270362]","[0.06513584405183792, 0.11391409486532211, 0.03999999910593033]","[0.0, 0.0, -0.6668711870723439]",0.6429307,24.721848,"(0.0, 0.0, 0.0, 0.0, 0.0, 0.0)",-3.943806903965684,5.294901130302062e-32,0.0,"(0.0, 0.0, 0.0, 0.0, 0.0, 0.0)",-0.2716098155097054,-0.6673401099248648,-25.208696742335626,"(0.0, 0.0, 0.0, 0.0, 0.0, 0.0)",94.97739775913854,-0.11755295807544866,-3.116564819203918,"(0.0, 0.0, 0.0, 0.0, 0.0, 0.0)",25.79194570087013,False,,,,,False,,,,
6,Open,,,,,,"[-0.026750000193715096, 0.05299999937415123, 0.03999999910593033]","[0.0, -0.0, 0.6429307111289271]","[-0.06991713494062424, 0.11062463372945786, 0.03999999910593033]","[0.0, -0.0, 0.6429307111289271]","[0.026750000193715096, 0.05299999937415123, 0.03999999910593033]","[0.0, 0.0, -0.6673401753977319]","[0.07131072133779526, 0.10955388844013214, 0.03999999910593033]","[0.0, 0.0, -0.7848931559948581]",0.73563763,22.249663200000004,"(0.0, 0.0, 0.0, 0.0, 0.0, 0.0)",-3.552789792259023,5.294901130302062e-32,0.0,"(0.0, 0.0, 0.0, 0.0, 0.0, 0.0)",-0.24562369466220793,-0.7579917869736262,-21.756402491702737,"(0.0, 0.0, 0.0, 0.0, 0.0, 0.0)",34.46450837185191,-0.10794166402774508,2.3067105714488583,"(0.0, 0.0, 0.0, 0.0, 0.0, 0.0)",8.765009015475858,False,,,,,False,,,,
7,Open,,,,,,"[-0.026750000193715096, 0.05299999937415123, 0.03999999910593033]","[0.0, -0.0, 0.7356376306875043]","[-0.07506632059812546, 0.10638101398944855, 0.03999999910593033]","[0.0, -0.0, 0.7356376306875043]","[0.026750000193715096, 0.05299999937415123, 0.03999999910593033]","[0.0, 0.0, -0.757991847340814]","[0.076247438788414, 0.10528770089149475, 0.03999999910593033]","[0.0, 0.0, -0.8659334873334429]",0.8190738670000001,20.024696880000004,"(0.0, 0.0, 0.0, 0.0, 0.0, 0.0)",-3.2002295086701533,2.3293280891773424e-07,5.5903874140256216e-05,"(0.0, 0.0, 0.0, 0.0, 0.0, 0.0)",-0.22200715926400075,-0.8391926082762636,-19.488197112632974,"(0.0, 0.0, 0.0, 0.0, 0.0, 0.0)",3.295349739497939,-0.09714776835574307,2.590534961280482,"(0.0, 0.0, 0.0, 0.0, 0.0, 0.0)",0.25803221970863044,False,,,,,False,,,,
8,Open,,,,,,"[-0.026750000193715096, 0.05299999937415123, 0.03999999910593033]","[0.0, -0.0, 0.8190738875671263]","[-0.07934698462486267, 0.10216865688562393, 0.03999999910593033]","[0.0, -0.0, 0.8190741465287105]","[0.026750000193715096, 0.05299999937415123, 0.03999999910593033]","[0.0, 0.0, -0.839192558822362]","[0.08032548427581787, 0.10110059380531311, 0.03999999910593033]","[0.0, 0.0, -0.9363403253067936]",0.8941664803,18.022227192,"(0.0, 0.0, 0.0, 0.0, 0.0, 0.0)",-2.8824197251771095,4.2009445145371055e-07,4.4918794208634316e-05,"(0.0, 0.0, 0.0, 0.0, 0.0, 0.0)",-0.2005835928406654,-0.9122733474486373,-17.539377401369673,"(0.0, 0.0, 0.0, 0.0, 0.0, 0.0)",2.7804978356880783,-0.0874331700712747,2.33150358827241,"(0.0, 0.0, 0.0, 0.0, 0.0, 0.0)",0.17017621517521792,False,,,,,False,,,,
9,Open,,,,,,"[-0.026750000193715096, 0.05299999937415123, 0.03999999910593033]","[0.0, -0.0, 0.894166469119967]","[-0.08288749307394028, 0.09808415919542313, 0.03999999910593033]","[0.0, -0.0, 0.894166894674561]","[0.026750000193715096, 0.05299999937415123, 0.03999999910593033]","[0.0, 0.0, -0.9122733503889549]","[0.08369457721710205, 0.09706035256385803, 0.03999999910593033]","[0.0, 0.0, -0.9997066729229968]",0.96174983227,16.220004472800003,"(0.0, 0.0, 0.0, 0.0, 0.0, 0.0)",-2.5959652512206968,5.681494863714967e-07,3.553320838026869e-05,"(0.0, 0.0, 0.0, 0.0, 0.0, 0.0)",-0.18114955764248034,-0.9780460127037736,-15.785439661232708,"(0.0, 0.0, 0.0, 0.0, 0.0, 0.0)",2.503992476159733,-0.0786900142246732,2.098357403184359,"(0.0, 0.0, 0.0, 0.0, 0.0, 0.0)",0.15360133560797545,False,,,,,False,,,,
10,Open,,,,,,"[-0.026750000193715096, 0.05299999937415123, 0.03999999910593033]","[0.0, -0.0, 0.9617498658906226]","[-0.08580395579338074, 0.09419016540050507, 0.03999999910593033]","[0.0, -0.0, 0.9617504517765805]","[0.026750000193715096, 0.05299999937415123, 0.03999999910593033]","[0.0, 0.0, -0.9780460255881384]","[0.08646733313798904, 0.09322238713502884, 0.03999999910593033]","[0.0, 0.0, -1.0567360258914282]",1.022574849043,14.598004025520002,"(0.0, 0.0, 0.0, 0.0, 0.0, 0.0)",-2.337816594086846,6.829231533297027e-07,2.7545680069969436e-05,"(0.0, 0.0, 0.0, 0.0, 0.0, 0.0)",-0.16354029854134106,-1.0372414114333963,-14.206895695109438,"(0.0, 0.0, 0.0, 0.0, 0.0, 0.0)",2.2548456713339484,-0.07082115822448021,1.8885254400463192,"(0.0, 0.0, 0.0, 0.0, 0.0, 0.0)",0.13860128234430863,False,,,,,False,,,,
11,Open,,,,,,"[-0.026750000193715096, 0.05299999937415123, 0.03999999910593033]","[0.0, -0.0, 1.0225748785172661]","[-0.08819860219955444, 0.09052424877882004, 0.03999999910593033]","[0.0, -0.0, 1.0225755149967983]","[0.026750000193715096, 0.05299999937415123, 0.03999999910593033]","[0.0, 0.0, -1.037241417801626]","[0.08874232321977615, 0.08961901068687439, 0.03999999910593033]","[0.0, 0.0, -1.1080626941470386]",1.0773173641387,13.138203622968001,"(0.0, 0.0, 0.0, 0.0, 0.0, 0.0)",-2.105207702642618,7.694903593429899e-07,2.0776129443188934e-05,"(0.0, 0.0, 0.0, 0.0, 0.0, 0.0)",-0.14759587787833617,-1.0905172702900567,-12.78620612559849,"(0.0, 0.0, 0.0, 0.0, 0.0, 0.0)",2.0303755786213302,-0.06373917358809339,1.6996763127328351,"(0.0, 0.0, 0.0, 0.0, 0.0, 0.0)",0.1250328149112744,False,,,,,False,,,,
12,Open,,,,,,"[-0.026750000193715096, 0.05299999937415123, 0.03999999910593033]","[0.0, -0.0, 1.0773173786594632]","[-0.09015969932079315, 0.08710587024688721, 0.03999999910593033]","[0.0, -0.0, 1.0773182784199262]","[0.026750000193715096, 0.05299999937415123, 0.03999999910593033]","[0.0, 0.0, -1.090517334189526]","[0.09060435742139816, 0.0862659215927124, 0.03999999910593033]","[0.0, 0.0, -1.1542564269670996]",1.1265856277248298,11.824383260671203,"(0.0, 0.0, 0.0, 0.0, 0.0, 0.0)",-1.895636869852492,8.322629993378343e-07,1.5065433598762668e-05,"(0.0, 0.0, 0.0, 0.0, 0.0, 0.0)",-0.13316806895824274,-1.138465543261051,-11.50758551303864,"(0.0, 0.0, 0.0, 0.0, 0.0, 0.0)",1.828159741200242,-0.05736537454460671,1.5297117704368035,"(0.0, 0.0, 0.0, 0.0, 0.0, 0.0)",0.11276577482950233,False,,,,,False,,,,
13,Open,,,,,,"[-0.026750000193715096, 0.05299999937415123, 0.03999999910593033]","[0.0, -0.0, 1.126585512342968]","[-0.09176240861415863, 0.08394166082143784, 0.03999999910593033]","[0.0, -0.0, 1.1265864725026016]","[0.026750000193715096, 0.05299999937415123, 0.03999999910593033]","[0.0, 0.0, -1.13846552283997]","[0.09212540090084076, 0.08316715806722641, 0.03999999910593033]","[0.0, 0.0, -1.1958309904194953]",1.1709270649523469,10.641944934604087,"(0.0, 0.0, 0.0, 0.0, 0.0, 0.0)",-1.7068426281171958,8.750681698751778e-07,1.0273240928962424e-05,"(0.0, 0.0, 0.0, 0.0, 0.0, 0.0)",-0.12011999884119333,-1.181618988934946,-10.356826961734775,"(0.0, 0.0, 0.0, 0.0, 0.0, 0.0)",1.6460093571929852,-0.051628943774705546,1.376743384776279,"(0.0, 0.0, 0.0, 0.0, 0.0, 0.0)",0.10168054944364863,False,,,,,False,,,,
14,Open,,,,,,"[-0.026750000193715096, 0.05299999937415123, 0.03999999910593033]","[0.0, -0.0, 1.170927100750299]","[-0.09307006001472473, 0.08102945238351822, 0.03999999910593033]","[0.0, -0.0, 1.1709279927689973]","[0.026750000193715096, 0.05299999937415123, 0.03999999910593033]","[0.0, 0.0, -1.181618964677462]","[0.09336595237255096, 0.08031877130270004, 0.03999999910593033]","[0.0, 0.0, -1.233247876832181]",1.2108343584571122,9.577750441143678,"(0.0, 0.0, 0.0, 0.0, 0.0, 0.0)",-1.5367816122769582,9.012180617793662e-07,6.275974057005224e-06,"(0.0, 0.0, 0.0, 0.0, 0.0, 0.0)",-0.1083256720668905,-1.2204570900414513,-9.3211442655613,"(0.0, 0.0, 0.0, 0.0, 0.0, 0.0)",1.4819475463743526,-0.046466145575958295,1.239071567699341,"(0.0, 0.0, 0.0, 0.0, 0.0, 0.0)",0.09166748660725833,False,,,,,False,,,,
15,Open,,,,,,"[-0.026750000193715096, 0.05299999937415123, 0.03999999910593033]","[0.0, -0.0, 1.2108343955497323]","[-0.09413553774356842, 0.07836118340492249, 0.03999999910593033]","[0.0, -0.0, 1.210835255049739]","[0.026750000193715096, 0.05299999937415123, 0.03999999910593033]","[0.0, 0.0, -1.2204571829136446]","[0.09437645971775055, 0.07771158218383789, 0.03999999910593033]","[0.0, 0.0, -1.2669233179031547]",1.2467509226114009,8.619975397029307,"(0.0, 0.0, 0.0, 0.0, 0.0, 0.0)",-1.3836082777937824,9.135722823677317e-07,2.9650129412077397e-06,"(0.0, 0.0, 0.0, 0.0, 0.0, 0.0)",-0.09766941677677543,-1.2554113810373062,-8.38902983900517,"(0.0, 0.0, 0.0, 0.0, 0.0, 0.0)",1.334189480132575,-0.04181961771093252,1.1151666876061868,"(0.0, 0.0, 0.0, 0.0, 0.0, 0.0)",0.08262627878010878,False,,,,,False,,,,
16,Open,,,,,,"[-0.026750000193715096, 0.05299999937415123, 0.03999999910593033]","[0.0, -0.0, 1.2467510110527222]","[-0.09500277042388916, 0.07592508941888809, 0.03999999910593033]","[0.0, -0.0, 1.246751870145374]","[0.026750000193715096, 0.05299999937415123, 0.03999999910593033]","[0.0, 0.0, -1.255411348379259]","[0.09519875049591064, 0.0753331333398819, 0.03999999910593033]","[0.0, 0.0, -1.2972309672073006]",1.2790758303502607,7.757977857326381,"(0.0, 0.0, 0.0, 0.0, 0.0, 0.0)",-1.2456264712746363,2.1141758111398655e-06,0.0002881448469053121,"(0.0, 0.0, 0.0, 0.0, 0.0, 0.0)",-0.088015399348708,-1.2868702429335757,-7.5501268551046525,"(0.0, 0.0, 0.0, 0.0, 0.0, 0.0)",1.2010989712673745,-0.037638748630864464,1.0034085792163332,"(0.0, 0.0, 0.0, 0.0, 0.0, 0.0)",0.07444006052486639,False,,,,,False,,,,
17,Open,,,,,,"[-0.026750000193715096, 0.05299999937415123, 0.03999999910593033]","[0.0, -0.0, 1.2790758758817962]","[-0.09570803493261337, 0.0737072303891182, 0.03999999910593033]","[0.0, -0.0, 1.2790780932516201]","[0.026750000193715096, 0.05299999937415123, 0.03999999910593033]","[0.0, 0.0, -1.2868702529032277]","[0.0958673357963562, 0.07316911965608597, 0.03999999910593033]","[0.0, 0.0, -1.3245087793274308]",1.3081682532711112,6.982181501004109,"(0.0, 0.0, 0.0, 0.0, 0.0, 0.0)",-1.12145472366965,1.9027582300258812e-06,-5.0740219467356254e-05,"(0.0, 0.0, 0.0, 0.0, 0.0, 0.0)",-0.07939114715284208,-1.315183223212741,-6.795115266999686,"(0.0, 0.0, 0.0, 0.0, 0.0, 0.0)",1.0813262344929835,-0.033874873767778015,0.9033299671407473,"(0.0, 0.0, 0.0, 0.0, 0.0, 0.0)",0.06713055017345074,False,,,,,False,,,,
18,Open,,,,,,"[-0.026750000193715096, 0.05299999937415123, 0.03999999910593033]","[0.0, -0.0, 1.3081682459906412]","[-0.09628119319677353, 0.07169260084629059, 0.03999999910593033]","[0.0, -0.0, 1.3081702011658356]","[0.026750000193715096, 0.05299999937415123, 0.03999999910593033]","[0.0, 0.0, -1.3151833180210462]","[0.0964106097817421, 0.07120437920093536, 0.03999999910593033]","[0.0, 0.0, -1.349058153261439]",1.334351427944,6.283961921493333,"(0.0, 0.0, 0.0, 0.0, 0.0, 0.0)",-1.0095234585863413,2.7618377923566443e-06,0.00020617909495938315,"(0.0, 0.0, 0.0, 0.0, 0.0, 0.0)",-0.07148780084672787,-1.3406649008914668,-6.11560264289422,"(0.0, 0.0, 0.0, 0.0, 0.0, 0.0)",0.9733796231570812,-0.030488273507324658,0.8127840625088054,"(0.0, 0.0, 0.0, 0.0, 0.0, 0.0)",0.060435192896783604,False,,,,,False,,,,
19,Open,,,,,,"[-0.026750000193715096, 0.05299999937415123, 0.03999999910593033]","[0.0, -0.0, 1.334351465706577]","[-0.09674673527479172, 0.06986585259437561, 0.03999999910593033]","[0.0, -0.0, 1.33435435145599]","[0.026750000193715096, 0.05299999937415123, 0.03999999910593033]","[0.0, 0.0, -1.3406650641721125]","[0.09685182571411133, 0.06942359358072281, 0.03999999910593033]","[0.0, 0.0, -1.3711530696282732]",1.3579162851496,5.655565729344001,"(0.0, 0.0, 0.0, 0.0, 0.0, 0.0)",-0.9088150211252332,3.4316066113876724e-06,0.0001607445165674468,"(0.0, 0.0, 0.0, 0.0, 0.0, 0.0)",-0.06444344013525093,-1.3635984108023202,-5.504042378604797,"(0.0, 0.0, 0.0, 0.0, 0.0, 0.0)",0.8762522980402716,-0.02744024570882781,0.7315266716392431,"(0.0, 0.0, 0.0, 0.0, 0.0, 0.0)",0.05446985052483407,False,,,,,False,,,,
20,Open,,,,,,"[-0.026750000193715096, 0.05299999937415123, 0.03999999910593033]","[0.0, -0.0, 1.3579163939939654]","[-0.09712471067905426, 0.0682118609547615, 0.03999999910593033]","[0.0, -0.0, 1.3579197824809437]","[0.026750000193715096, 0.05299999937415123, 0.03999999910593033]","[0.0, 0.0, -1.3635984874387626]","[0.09721000492572784, 0.06781173497438431, 0.03999999910593033]","[0.0, 0.0, -1.3910385869420074]",1.37912465663464,5.090009156409601,"(0.0, 0.0, 0.0, 0.0, 0.0, 0.0)",-0.8181093185961676,3.940702417530038e-06,0.0001221829934741677,"(0.0, 0.0, 0.0, 0.0, 0.0, 0.0)",-0.05806034967263589,-1.3842385697220883,-4.953638140744317,"(0.0, 0.0, 0.0, 0.0, 0.0, 0.0)",0.7887791417834831,-0.024696941374704916,0.6583930401894944,"(0.0, 0.0, 0.0, 0.0, 0.0, 0.0)",0.04906644857689494,False,,,,,False,,,,
21,Open,,,,,,"[-0.026750000193715096, 0.05299999937415123, 0.03999999910593033]","[0.0, -0.0, 1.3791247702213432]","[-0.0974314734339714, 0.0667160153388977, 0.03999999910593033]","[0.0, -0.0, 1.3791284782568445]","[0.026750000193715096, 0.05299999937415123, 0.03999999910593033]","[0.0, 0.0, -1.3842387704807777]","[0.09750068932771683, 0.06635437905788422, 0.03999999910593033]","[0.0, 0.0, -1.408935619520831]",1.398212190971176,4.581008240768642,"(0.0, 0.0, 0.0, 0.0, 0.0, 0.0)",-0.7364407507487188,4.314390796743166e-06,8.968521101115077e-05,"(0.0, 0.0, 0.0, 0.0, 0.0, 0.0)",-0.05230389643117988,-1.4028147127498793,-4.458274326669883,"(0.0, 0.0, 0.0, 0.0, 0.0, 0.0)",0.7100243788118592,-0.02222789596809768,0.5925708975857369,"(0.0, 0.0, 0.0, 0.0, 0.0, 0.0)",0.04419507766734469,False,,,,,False,,,,
22,Open,,,,,,"[-0.026750000193715096, 0.05299999937415123, 0.03999999910593033]","[0.0, -0.0, 1.3982120672717784]","[-0.09768038988113403, 0.06536446511745453, 0.03999999910593033]","[0.0, -0.0, 1.3982164487645397]","[0.026750000193715096, 0.05299999937415123, 0.03999999910593033]","[0.0, 0.0, -1.4028147367436141]","[0.09773654490709305, 0.06503787636756897, 0.03999999910593033]","[0.0, 0.0, -1.4250426427007885]",1.4153909718740585,4.122907416691778,"(0.0, 0.0, 0.0, 0.0, 0.0, 0.0)",-0.6629119687698639,4.574523674952359e-06,6.243189077020624e-05,"(0.0, 0.0, 0.0, 0.0, 0.0, 0.0)",-0.04711364623212332,-1.4195332414748913,-4.012446894002898,"(0.0, 0.0, 0.0, 0.0, 0.0, 0.0)",0.6391216750959775,-0.02000569064819732,0.5333292767760867,"(0.0, 0.0, 0.0, 0.0, 0.0, 0.0)",0.039804123486470444,False,,,,,False,,,,
23,Open,,,,,,"[-0.026750000193715096, 0.05299999937415123, 0.03999999910593033]","[0.0, -0.0, 1.415391158105469]","[-0.09788231551647186, 0.06414420157670975, 0.03999999910593033]","[0.0, -0.0, 1.415395709317307]","[0.026750000193715096, 0.05299999937415123, 0.03999999910593033]","[0.0, 0.0, -1.419533200978404]","[0.09792786836624146, 0.06384945660829544, 0.03999999910593033]","[0.0, 0.0, -1.4395389386881268]",1.4308518746866525,3.7106166750225977,"(0.0, 0.0, 0.0, 0.0, 0.0, 0.0)",-0.5967141397561109,4.7399630338636504e-06,3.9705446138709865e-05,"(0.0, 0.0, 0.0, 0.0, 0.0, 0.0)",-0.042434775014060074,-1.4345799173274023,-3.611202204602609,"(0.0, 0.0, 0.0, 0.0, 0.0, 0.0)",0.5752902758042565,-0.018005647771851804,0.4800102903229233,"(0.0, 0.0, 0.0, 0.0, 0.0, 0.0)",0.0358468230863414,False,,,,,False,,,,
24,Open,,,,,,"[-0.026750000193715096, 0.05299999937415123, 0.03999999910593033]","[0.0, -0.0, 1.4308518944899675]","[-0.09804610908031464, 0.06304314732551575, 0.03999999910593033]","[0.0, -0.0, 1.4308566269594332]","[0.026750000193715096, 0.05299999937415123, 0.03999999910593033]","[0.0, 0.0, -1.4345798203875788]","[0.09808305650949478, 0.06277728080749512, 0.03999999910593033]","[0.0, 0.0, -1.4525855975984745]",1.4447666872179874,3.339555007520341,"(0.0, 0.0, 0.0, 0.0, 0.0, 0.0)",-0.5371183361845069,4.8269553674989e-06,2.0878160072459843e-05,"(0.0, 0.0, 0.0, 0.0, 0.0, 0.0)",-0.03821759960562203,-1.448121925594662,-3.2500819841423465,"(0.0, 0.0, 0.0, 0.0, 0.0, 0.0)",0.5178266556878065,-0.016205556838873442,0.4320218239148067,"(0.0, 0.0, 0.0, 0.0, 0.0, 0.0)",0.0322808466635012,False,,,,,False,,,,
25,Open,,,,,,"[-0.026750000193715096, 0.05299999937415123, 0.03999999910593033]","[0.0, -0.0, 1.4447668540021588]","[-0.09817895293235779, 0.06205013021826744, 0.03999999910593033]","[0.0, -0.0, 1.4447715863131299]","[0.026750000193715096, 0.05299999937415123, 0.03999999910593033]","[0.0, 0.0, -1.448121993206969]","[0.09820891171693802, 0.06181041896343231, 0.03999999910593033]","[0.0, 0.0, -1.46432761016298]",1.4572900184961886,3.005599506768304,"(0.0, 0.0, 0.0, 0.0, 0.0, 0.0)",-0.483467731204937,4.849462099751187e-06,5.401615740548756e-06,"(0.0, 0.0, 0.0, 0.0, 0.0, 0.0)",-0.03441712855198442,-1.4603097330351957,-2.925073785728113,"(0.0, 0.0, 0.0, 0.0, 0.0, 0.0)",0.4660969568661882,-0.014585427836986846,0.38883096045278315,"(0.0, 0.0, 0.0, 0.0, 0.0, 0.0)",0.029067900465992856,False,,,,,False,,,,
26,Open,,,,,,"[-0.026750000193715096, 0.05299999937415123, 0.03999999910593033]","[0.0, -0.0, 1.4572900807517244]","[-0.0982866883277893, 0.061154916882514954, 0.03999999910593033]","[0.0, -0.0, 1.4572948921008348]","[0.026750000193715096, 0.05299999937415123, 0.03999999910593033]","[0.0, 0.0, -1.4603097470714805]","[0.09831098467111588, 0.06093886122107506, 0.03999999910593033]","[0.0, 0.0, -1.4748951413427742]",1.4685610166465697,2.705039556091476,"(0.0, 0.0, 0.0, 0.0, 0.0, 0.0)",-0.43517053908893033,4.819450845044722e-06,-7.202701129551542e-06,"(0.0, 0.0, 0.0, 0.0, 0.0, 0.0)",-0.030992645518402973,-1.471278759731676,-2.632566407155304,"(0.0, 0.0, 0.0, 0.0, 0.0, 0.0)",0.4195301522878829,-0.013127269246907155,0.3499580616191257,"(0.0, 0.0, 0.0, 0.0, 0.0, 0.0)",0.02617336062226555,False,,,,,False,,,,
27,Open,,,,,,"[-0.026750000193715096, 0.05299999937415123, 0.03999999910593033]","[0.0, -0.0, 1.4685611215819594]","[-0.09837405383586884, 0.06034812703728676, 0.03999999910593033]","[0.0, -0.0, 1.468565853091142]","[0.026750000193715096, 0.05299999937415123, 0.03999999910593033]","[0.0, 0.0, -1.4712788457263521]","[0.0983937606215477, 0.06015344336628914, 0.03999999910593033]","[0.0, 0.0, -1.4844061039497418]",1.4787049149819127,2.434535600482329,"(0.0, 0.0, 0.0, 0.0, 0.0, 0.0)",-0.39169363303347604,4.747151892642784e-06,-1.7351748576465223e-05,"(0.0, 0.0, 0.0, 0.0, 0.0, 0.0)",-0.02790732436186781,-1.4811508837585086,-2.3693097664397755,"(0.0, 0.0, 0.0, 0.0, 0.0, 0.0)",0.37761186810531283,-0.011814888241968555,0.3149714411852639,"(0.0, 0.0, 0.0, 0.0, 0.0, 0.0)",0.023565936472848985,False,,,,,False,,,,
28,Open,,,,,,"[-0.026750000193715096, 0.05299999937415123, 0.03999999910593033]","[0.0, -0.0, 1.4787049625213984]","[-0.09844490885734558, 0.059621214866638184, 0.03999999910593033]","[0.0, -0.0, 1.4787095898811649]","[0.026750000193715096, 0.05299999937415123, 0.03999999910593033]","[0.0, 0.0, -1.4811508165812142]","[0.09846089035272598, 0.059445831924676895, 0.03999999910593033]","[0.0, 0.0, -1.492965762433775]",1.4878344234837215,2.191082040434097,"(0.0, 0.0, 0.0, 0.0, 0.0, 0.0)",-0.35255677801820895,4.641283838470101e-06,-2.5408333001444004e-05,"(0.0, 0.0, 0.0, 0.0, 0.0, 0.0)",-0.02512787460267613,-1.4900357953826577,-2.132378789795796,"(0.0, 0.0, 0.0, 0.0, 0.0, 0.0)",0.33987880377374147,-0.010633710863257649,0.2834825708906175,"(0.0, 0.0, 0.0, 0.0, 0.0, 0.0)",0.021217361806457186,False,,,,,False,,,,
29,Close,,,"(0.010000165031897679, 0.16000264050809818, 0.003919197399597577)","(-5.388791991209616e-05, 3.3679978815229247e-06, -9.074720008653711e-11)",,"[-0.026750000193715096, 0.05299999937415123, 0.03999999910593033]","[0.0, -0.0, 1.487834617901085]","[-0.09850236773490906, 0.05896640568971634, 0.03999999910593033]","[0.0, -0.0, 1.4878390921106803]","[0.026750000193715096, 0.05299999937415123, 0.03999999910593033]","[0.0, 0.0, -1.4900358577435544]","[0.09851532429456711, 0.05880843847990036, 0.03999999910593033]","[0.0, 0.0, -1.5006695807985118]",1.4960509811353493,1.9719738363906854,"(0.0, 0.0, 0.0, 0.0, 0.0, 0.0)",-0.3173274216127963,4.509251873886308e-06,-3.168767150011037e-05,"(0.0, 0.0, 0.0, 0.0, 0.0, 0.0)",-0.022624215793833224,-1.498032215844392,-1.9191409108162163,"(0.0, 0.0, 0.0, 0.0, 0.0, 0.0)",0.30591369390909257,-0.00957062017308593,0.2551417656412126,"(0.0, 0.0, 0.0, 0.0, 0.0, 0.0)",0.019102112305110365,False,,,,,False,,,,
30,Close,,,"(0.010000330010418335, 0.1600052801621647, 0.0076635160840755065)","(-0.00010776674212266888, 6.7354271463595154e-06, -3.629275205618536e-10)",,"[-0.026750000193715096, 0.05299999937415123, 0.03999999910593033]","[0.0, -0.0, 1.4960509653323988]","[-0.09854896366596222, 0.058376654982566833, 0.03999999910593033]","[0.0, -0.0, 1.4960555203126162]","[0.026750000193715096, 0.05299999937415123, 0.03999999910593033]","[0.0, 0.0, -1.4980320325532246]","[0.09855947643518448, 0.05823439359664917, 0.03999999910593033]","[0.0, 0.0, -1.5076028800413472]",1.4064458830218143,-21.505223547248388,"(0.0, 0.0, 0.0, 0.0, 0.0, 0.0)",-36.32500847077206,-0.08999559064729075,-21.600023975799512,"(0.0, 0.0, 0.0, 0.0, 0.0, 0.0)",-4.679136399120495,-1.4082289942599528,21.552773180265405,"(0.0, 0.0, 0.0, 0.0, 0.0, 0.0)",36.31473208701179,0.08138609105625041,21.82961069504072,"(0.0, 0.0, 0.0, 0.0, 0.0, 0.0)",4.675963213372079,False,,,,,False,,,,
31,Close,,,"(0.010000494936733278, 0.16000791898094055, 0.011233038807318392)","(-0.00016163646818851668, 1.0102287881965475e-05, -8.164490687548302e-10)",,"[-0.026750000193715096, 0.05299999937415123, 0.03999999910593033]","[0.0, -0.0, 1.4064459844712927]","[-0.0977797880768776, 0.06478003412485123, 0.03999999910593033]","[0.0, -0.0, 1.316450240076391]","[0.026750000193715096, 0.05299999937415123, 0.03999999910593033]","[0.0, 0.0, -1.4082291009672807]","[0.09780067950487137, 0.06465335935354233, 0.03999999910593033]","[0.0, 0.0, -1.3268428349863826]",1.325801294719633,-19.354701192523546,"(0.0, 0.0, 0.0, 0.0, 0.0, 0.0)",3.2936342521930255,-0.17099646652613912,-19.44021021092361,"(0.0, 0.0, 0.0, 0.0, 0.0, 0.0)",0.4145426679866387,-1.3274060948339577,19.39749586223887,"(0.0, 0.0, 0.0, 0.0, 0.0, 0.0)",-3.3024243844052092,0.16324791947241268,19.646838819878944,"(0.0, 0.0, 0.0, 0.0, 0.0, 0.0)",-0.41699994760359754,False,,,,,False,,,,
32,Close,,,"(0.010000659812012168, 0.16001055698314023, 0.0146278458391823)","(-0.0002154970996661642, 1.346858017578936e-05, -1.4512199879406586e-09)",,"[-0.026750000193715096, 0.05299999937415123, 0.03999999910593033]","[0.0, -0.0, 1.3258013857525741]","[-0.09659997373819351, 0.07046370953321457, 0.03999999910593033]","[0.0, -0.0, 1.1548048042561467]","[0.026750000193715096, 0.05299999937415123, 0.03999999910593033]","[0.0, 0.0, -1.3274060658778382]","[0.09662791341543198, 0.07035159319639206, 0.03999999910593033]","[0.0, 0.0, -1.1641581075845935]",1.2532211652476697,-17.41923107327119,"(0.0, 0.0, 0.0, 0.0, 0.0, 0.0)",2.9685258329366073,-0.24389721437960032,-17.496179484830687,"(0.0, 0.0, 0.0, 0.0, 0.0, 0.0)",0.3760018756193849,-1.2546654853505619,17.457746276014984,"(0.0, 0.0, 0.0, 0.0, 0.0, 0.0)",-2.976480273609718,0.2369235243908578,17.682145180426822,"(0.0, 0.0, 0.0, 0.0, 0.0, 0.0)",-0.3782508099482112,False,,,,,False,,,,
33,Close,,,"(0.010000824637423049, 0.16001319418745247, 0.017848014970055004)","(-0.00026934863811186216, 1.6834304115272585e-05, -2.2671484573282825e-09)",,"[-0.026750000193715096, 0.05299999937415123, 0.03999999910593033]","[0.0, -0.0, 1.2532212515508983]","[-0.09514966607093811, 0.07548300176858902, 0.03999999910593033]","[0.0, -0.0, 1.0093239867956962]","[0.026750000193715096, 0.05299999937415123, 0.03999999910593033]","[0.0, 0.0, -1.254665405963893]","[0.09518206864595413, 0.07538418471813202, 0.03999999910593033]","[0.0, 0.0, -1.0177419933055243]",1.1878990487229026,-15.677307965944074,"(0.0, 0.0, 0.0, 0.0, 0.0, 0.0)",2.675103284419244,-0.30950785045582774,-15.746552658294572,"(0.0, 0.0, 0.0, 0.0, 0.0, 0.0)",0.34074508229325023,-1.1891989368155058,15.711971648413485,"(0.0, 0.0, 0.0, 0.0, 0.0, 0.0)",-2.6822973218910153,0.30323153162132754,15.913921735312746,"(0.0, 0.0, 0.0, 0.0, 0.0, 0.0)",-0.34279935345822066,False,,,,,False,,,,
34,Close,,,"(0.010000989414132393, 0.1600158306125408, 0.020893621515273818)","(-0.00032319108508158773, 2.0199459787849396e-05, -3.2641426920478403e-09)",,"[-0.026750000193715096, 0.05299999937415123, 0.03999999910593033]","[0.0, -0.0, 1.1878990574339587]","[-0.09353619813919067, 0.07989988476037979, 0.03999999910593033]","[0.0, -0.0, 0.8783912846834516]","[0.026750000193715096, 0.05299999937415123, 0.03999999910593033]","[0.0, 0.0, -1.1891990098250689]","[0.09357111155986786, 0.07981304824352264, 0.03999999910593033]","[0.0, 0.0, -0.8859674697633095]",1.1291091438506125,-14.109577169349663,"(0.0, 0.0, 0.0, 0.0, 0.0, 0.0)",2.4103712722760626,-0.36855738916456426,-14.17188929009676,"(0.0, 0.0, 0.0, 0.0, 0.0, 0.0)",0.3085687115248564,-1.1302790431339553,14.140774483572143,"(0.0, 0.0, 0.0, 0.0, 0.0, 0.0)",-2.4168742890236286,0.36290870417903687,14.322521413850238,"(0.0, 0.0, 0.0, 0.0, 0.0, 0.0)",-0.31044204201279674,False,,,,,False,,,,
35,Close,,,"(0.010001154143305145, 0.16001846627704427, 0.023764738319401603)","(-0.00037702444213104407, 2.3564047280946926e-05, -4.4421109431381166e-09)",,"[-0.026750000193715096, 0.05299999937415123, 0.03999999910593033]","[0.0, -0.0, 1.1291090274464952]","[-0.09184028208255768, 0.08377750217914581, 0.03999999910593033]","[0.0, -0.0, 0.7605517150898052]","[0.026750000193715096, 0.05299999937415123, 0.03999999910593033]","[0.0, 0.0, -1.130279133319625]","[0.09187624603509903, 0.08370133489370346, 0.03999999910593033]","[0.0, 0.0, -0.7673703325611945]",1.0761982294655512,-12.698619452414698,"(0.0, 0.0, 0.0, 0.0, 0.0, 0.0)",2.1715845710489208,-0.42170194324014043,-12.754692978138287,"(0.0, 0.0, 0.0, 0.0, 0.0, 0.0)",0.27924932151422227,-1.07725113882056,12.72669703521493,"(0.0, 0.0, 0.0, 0.0, 0.0, 0.0)",-2.177460276301377,0.41661812854294633,12.890261847338277,"(0.0, 0.0, 0.0, 0.0, 0.0, 0.0)",-0.2809551529003472,False,,,,,False,,,,
36,Close,,,"(0.010001318826104761, 0.16002110119957821, 0.02646143576036139)","(-0.0004308487108156613, 2.692806668198511e-05, -5.800961497533997e-09)",,"[-0.026750000193715096, 0.05299999937415123, 0.03999999910593033]","[0.0, -0.0, 1.076198055145404]","[-0.09012148529291153, 0.08717681467533112, 0.03999999910593033]","[0.0, -0.0, 0.6544962762796218]","[0.026750000193715096, 0.05299999937415123, 0.03999999910593033]","[0.0, 0.0, -1.0772510781061955]","[0.09015743434429169, 0.08711007237434387, 0.03999999910593033]","[0.0, 0.0, -0.6606329452337051]",1.028578406518996,-11.428757507173229,"(0.0, 0.0, 0.0, 0.0, 0.0, 0.0)",1.9562489498726314,-0.46953201391559385,-11.479216962108818,"(0.0, 0.0, 0.0, 0.0, 0.0, 0.0)",0.2525697399559188,-1.0295260249385039,11.454027331693439,"(0.0, 0.0, 0.0, 0.0, 0.0, 0.0)",-1.961555706583625,0.46495658231577774,11.601228905479532,"(0.0, 0.0, 0.0, 0.0, 0.0, 0.0)",-0.25412105363877113,False,,,,,False,,,,
37,Close,,,"(0.010001483463693249, 0.1600237353987347, 0.0289837817534302)","(-0.0004846638926905951, 3.0291518078376737e-05, -7.3406026780539124e-09)",,"[-0.026750000193715096, 0.05299999937415123, 0.03999999910593033]","[0.0, -0.0, 1.028578444789276]","[-0.08842276781797409, 0.09015467017889023, 0.03999999910593033]","[0.0, -0.0, 0.5590464126725148]","[0.026750000193715096, 0.05299999937415123, 0.03999999910593033]","[0.0, 0.0, -1.029526007298545]","[0.08845794945955276, 0.09009620547294617, 0.03999999910593033]","[0.0, 0.0, -0.564569399435659]",0.9857205658670964,-10.285881756455906,"(0.0, 0.0, 0.0, 0.0, 0.0, 0.0)",1.7621005438122825,-0.5125790520819234,-10.331289159919107,"(0.0, 0.0, 0.0, 0.0, 0.0, 0.0)",0.22832149176550065,-0.9865734224446535,10.308624598524094,"(0.0, 0.0, 0.0, 0.0, 0.0, 0.0)",-1.766891708603882,0.508461165120635,10.441099873165749,"(0.0, 0.0, 0.0, 0.0, 0.0, 0.0)",-0.22973068702752517,False,,,,,False,,,,
38,Close,,,"(0.010001648057231211, 0.16002636889308344, 0.03133184175509247)","(-0.0005384699893107284, 3.3654401557527444e-05, -9.06094284338731e-09)",,"[-0.026750000193715096, 0.05299999937415123, 0.03999999910593033]","[0.0, -0.0, 0.9857205423734198]","[-0.08677425980567932, 0.09276290237903595, 0.03999999910593033]","[0.0, -0.0, 0.47314147483112123]","[0.026750000193715096, 0.05299999937415123, 0.03999999910593033]","[0.0, 0.0, -0.9865734261287252]","[0.08680814504623413, 0.09271169453859329, 0.03999999910593033]","[0.0, 0.0, -0.4781122693565934]",0.9471485092803869,-9.257293580810316,"(0.0, 0.0, 0.0, 0.0, 0.0, 0.0)",1.587086438141582,-0.5513213633331018,-9.29815470028281,"(0.0, 0.0, 0.0, 0.0, 0.0, 0.0)",0.206306403170868,-0.9479160802001881,9.277762138671687,"(0.0, 0.0, 0.0, 0.0, 0.0, 0.0)",-1.5914107042435905,0.5476152664096928,9.396984309373877,"(0.0, 0.0, 0.0, 0.0, 0.0, 0.0)",-0.2075852193448244,False,,,,,False,,,,
39,Close,,,"(0.01000181260787789, 0.16002900170117218, 0.03350567876675359)","(-0.00059226700223067, 3.7016717206835695e-05, -1.0961890388082131e-08)",,"[-0.026750000193715096, 0.05299999937415123, 0.03999999910593033]","[0.0, -0.0, 0.9471486716739237]","[-0.08519625663757324, 0.09504801034927368, 0.03999999910593033]","[0.0, -0.0, 0.39582717163487297]","[0.026750000193715096, 0.05299999937415123, 0.03999999910593033]","[0.0, 0.0, -0.9479160840165974]","[0.08522851020097733, 0.09500313550233841, 0.03999999910593033]","[0.0, 0.0, -0.4003008647547732]",0.9124336583523481,-8.331564222729286,"(0.0, 0.0, 0.0, 0.0, 0.0, 0.0)",1.4293465062267445,-0.5861894225076075,-8.368334201881392,"(0.0, 0.0, 0.0, 0.0, 0.0, 0.0)",0.18633757536892917,-0.9131244721801693,8.349985924804516,"(0.0, 0.0, 0.0, 0.0, 0.0, 0.0)",-1.433248242084051,0.5828539364930729,8.45728082001123,"(0.0, 0.0, 0.0, 0.0, 0.0, 0.0)",-0.18749704763631705,False,,,,,False,,,,
40,Close,,,"(0.010001977116791199, 0.1600316338415276, 0.035505353338314005)","(-0.0006460549330047555, 4.037846511369274e-05, -1.3043353742532214e-08)",,"[-0.026750000193715096, 0.05299999937415123, 0.03999999910593033]","[0.0, -0.0, 0.9124336635104583]","[-0.08370164036750793, 0.0970512256026268, 0.03999999910593033]","[0.0, -0.0, 0.3262442150321584]","[0.026750000193715096, 0.05299999937415123, 0.03999999910593033]","[0.0, 0.0, -0.9131245532476111]","[0.08373206108808517, 0.09701187163591385, 0.03999999910593033]","[0.0, 0.0, -0.3302705841133475]",0.8811902925171133,-7.498407800456356,"(0.0, 0.0, 0.0, 0.0, 0.0, 0.0)",1.2871965063691413,-0.6175706567763247,-7.531496224492115,"(0.0, 0.0, 0.0, 0.0, 0.0, 0.0)",0.16823988009592084,-0.8818120249621524,7.514987332324067,"(0.0, 0.0, 0.0, 0.0, 0.0, 0.0)",-1.2907160846573733,0.6145687204653795,7.61154815335357,"(0.0, 0.0, 0.0, 0.0, 0.0, 0.0)",-0.16929032064296096,False,,,,,False,,,,
41,Close,,,"(0.010002141585127773, 0.16003426533265583, 0.03733092357160428)","(-0.0006998337831870475, 4.3739645365482716e-05, -1.5305241372964883e-08)",,"[-0.026750000193715096, 0.05299999937415123, 0.03999999910593033]","[0.0, -0.0, 0.8811903688816151]","[-0.08229776471853256, 0.09880879521369934, 0.03999999910593033]","[0.0, -0.0, 0.2636196251065186]","[0.026750000193715096, 0.05299999937415123, 0.03999999910593033]","[0.0, 0.0, -0.8818121535754343]","[0.08232623338699341, 0.098774254322052, 0.03999999910593033]","[0.0, 0.0, -0.26724331826119446]",0.853071263265402,-6.7485670204107215,"(0.0, 0.0, 0.0, 0.0, 0.0, 0.0)",1.1591124175888132,-0.6458137504217961,-6.77834247491313,"(0.0, 0.0, 0.0, 0.0, 0.0, 0.0)",0.1518500972569631,-0.8536308224659371,6.763488599091658,"(0.0, 0.0, 0.0, 0.0, 0.0, 0.0)",-1.1622865309865396,0.643112008739745,6.850389185847702,"(0.0, 0.0, 0.0, 0.0, 0.0, 0.0)",-0.15280109527428076,False,,,,,False,,,,
42,Close,,,"(0.010002306014043007, 0.16003689619304312, 0.038982445123681576)","(-0.0007536035543313348, 4.7100258049582536e-05, -1.7747461781428295e-08)",,"[-0.026750000193715096, 0.05299999937415123, 0.03999999910593033]","[0.0, -0.0, 0.8530713239495782]","[-0.08098787814378738, 0.10035242885351181, 0.03999999910593033]","[0.0, -0.0, 0.2072574956851119]","[0.026750000193715096, 0.05299999937415123, 0.03999999910593033]","[0.0, 0.0, -0.8536307856313979]","[0.08101436495780945, 0.10032207518815994, 0.03999999910593033]","[0.0, 0.0, -0.21051882644475053]",0.8277641369388617,-6.073710318369648,"(0.0, 0.0, 0.0, 0.0, 0.0, 0.0)",1.043715976216214,-0.6712325191394197,-6.100504492229669,"(0.0, 0.0, 0.0, 0.0, 0.0, 0.0)",0.1370167890019201,-0.8282677402193435,6.0871397391824935,"(0.0, 0.0, 0.0, 0.0, 0.0, 0.0)",-1.0465779375227178,0.6688009525283538,6.165346509266115,"(0.0, 0.0, 0.0, 0.0, 0.0, 0.0)",-0.1378772244212715,False,,,,,False,,,,
43,Close,,,"(0.010002470404691093, 0.16003952644115657, 0.04045997120998789)","(-0.0008073642479911328, 5.0460303253361964e-05, -2.0369923505779015e-08)",,"[-0.026750000193715096, 0.05299999937415123, 0.03999999910593033]","[0.0, -0.0, 0.8277641182932235]","[-0.07977228611707687, 0.10170972347259521, 0.03999999910593033]","[0.0, -0.0, 0.1565316389415725]","[0.026750000193715096, 0.05299999937415123, 0.03999999910593033]","[0.0, 0.0, -0.8282677342123946]","[0.07979680597782135, 0.10168302059173584, 0.03999999910593033]","[0.0, 0.0, -0.1594667900835625]",0.8049877232449756,-5.4663392865326825,"(0.0, 0.0, 0.0, 0.0, 0.0, 0.0)",0.9397613626777375,-0.6941093969081942,-5.49045066450586,"(0.0, 0.0, 0.0, 0.0, 0.0, 0.0)",0.12359998406321729,-0.8054409661974091,5.478425765264244,"(0.0, 0.0, 0.0, 0.0, 0.0, 0.0)",-0.9423413878167864,0.6919209877745929,5.54880845909737,"(0.0, 0.0, 0.0, 0.0, 0.0, 0.0)",-0.12437805104754245,False,,,,,False,,,,
44,Close,,,"(0.010002634758225062, 0.1600421560954447, 0.041763552607370504)","(-0.000861115865719684, 5.381978106418352e-05, -2.3172535119669436e-08)",,"[-0.026750000193715096, 0.05299999937415123, 0.03999999910593033]","[0.0, -0.0, 0.8049877164750058]","[-0.07864919304847717, 0.10290464758872986, 0.03999999910593033]","[0.0, -0.0, 0.11087832859978779]","[0.026750000193715096, 0.05299999937415123, 0.03999999910593033]","[0.0, 0.0, -0.805440964305088]","[0.07867180556058884, 0.10288111865520477, 0.03999999910593033]","[0.0, 0.0, -0.11351997099607207]",0.784488950920478,-4.919705357879415,"(0.0, 0.0, 0.0, 0.0, 0.0, 0.0)",0.8461229797239068,-0.7146985741739192,-4.941402543774016,"(0.0, 0.0, 0.0, 0.0, 0.0, 0.0)",0.11147072977230046,-0.7848968695776682,4.93058318873782,"(0.0, 0.0, 0.0, 0.0, 0.0, 0.0)",-0.8484484528940599,0.7127290066915236,4.993924540063379,"(0.0, 0.0, 0.0, 0.0, 0.0, 0.0)",-0.1121739668696123,False,,,,,False,,,,
45,Close,,,"(0.010002799075796832, 0.16004478517433812, 0.04289323765696492)","(-0.0009148584090699577, 5.7178691569402595e-05, -2.615520523253533e-08)",,"[-0.026750000193715096, 0.05299999937415123, 0.03999999910593033]","[0.0, -0.0, 0.7844889896573499]","[-0.07761538028717041, 0.10395795851945877, 0.03999999910593033]","[0.0, -0.0, 0.06979037514545033]","[0.026750000193715096, 0.05299999937415123, 0.03999999910593033]","[0.0, 0.0, -0.7848969068252226]","[0.07763615995645523, 0.10393720120191574, 0.03999999910593033]","[0.0, 0.0, -0.07216786709232846]",0.7660400558284302,-4.427734822091471,"(0.0, 0.0, 0.0, 0.0, 0.0, 0.0)",0.7617842585328375,-0.7332288222135146,-4.44725952950288,"(0.0, 0.0, 0.0, 0.0, 0.0, 0.0)",0.10051055612556806,-0.7664071826199014,4.437524869864038,"(0.0, 0.0, 0.0, 0.0, 0.0, 0.0)",-0.7638799793048979,0.7314562121459494,4.494529309062177,"(0.0, 0.0, 0.0, 0.0, 0.0, 0.0)",-0.10114588070786824,False,,,,,False,,,,
46,Close,,,"(0.010002963358557236, 0.16004741369625017, 0.04384907226694074)","(-0.0009685918795946493, 6.053703485636736e-05, -2.9317842489583264e-08)",,"[-0.026750000193715096, 0.05299999937415123, 0.03999999910593033]","[0.0, -0.0, 0.7660400058439011]","[-0.07666666060686111, 0.10488764196634293, 0.03999999910593033]","[0.0, -0.0, 0.0328112365488731]","[0.026750000193715096, 0.05299999937415123, 0.03999999910593033]","[0.0, 0.0, -0.7664072421942376]","[0.07668570429086685, 0.1048693135380745, 0.03999999910593033]","[0.0, 0.0, -0.03495097036229706]",0.7494360502455871,-3.984961339882325,"(0.0, 0.0, 0.0, 0.0, 0.0, 0.0)",0.6858274268188955,-0.7499060350622873,-4.002531083705426,"(0.0, 0.0, 0.0, 0.0, 0.0, 0.0)",0.09061088591719418,-0.7497664643579113,3.9937723828776335,"(0.0, 0.0, 0.0, 0.0, 0.0, 0.0)",-0.6877158393779155,0.7483106866034595,4.045073869802414,"(0.0, 0.0, 0.0, 0.0, 0.0, 0.0)",-0.09118463108881669,False,,,,,False,,,,
47,Close,,,"(0.010003127607656072, 0.16005004167957756, 0.04463109991511072)","(-0.0010223162788461832, 6.389481101241881e-05, -3.266035557177819e-08)",,"[-0.026750000193715096, 0.05299999937415123, 0.03999999910593033]","[0.0, -0.0, 0.7494360616149593]","[-0.07579827308654785, 0.1057092696428299, 0.03999999910593033]","[0.0, 0.0, -0.00046998485639781964]","[0.026750000193715096, 0.05299999937415123, 0.03999999910593033]","[0.0, 0.0, -0.7497665229086657]","[0.07581568509340286, 0.10569305717945099, 0.03999999910593033]","[0.0, 0.0, -0.0014557777936095985]",0.7344924452210284,-3.5864652058940925,"(0.0, 0.0, 0.0, 0.0, 0.0, 0.0)",0.6173964503690262,-0.7649166300024903,-3.602542785648727,"(0.0, 0.0, 0.0, 0.0, 0.0, 0.0)",0.08164469448201127,-0.7347898179221202,3.594395144589871,"(0.0, 0.0, 0.0, 0.0, 0.0, 0.0)",-0.61909767957405,0.7634808239898891,3.6408329727431203,"(0.0, 0.0, 0.0, 0.0, 0.0, 0.0)",-0.08216247127692902,False,,,,,False,,,,
48,Close,,,"(0.010003291824242136, 0.16005266914270105, 0.04523936165140331)","(-0.0010760316083767074, 6.725202012489063e-05, -3.618265319583079e-08)",,"[-0.026750000193715096, 0.05299999937415123, 0.03999999910593033]","[0.0, -0.0, 0.7344924171356654]","[-0.07500515878200531, 0.10643631219863892, 0.03999999910593033]","[0.0, 0.0, -0.03042418292779103]","[0.026750000193715096, 0.05299999937415123, 0.03999999910593033]","[0.0, 0.0, -0.7347898072320369]","[0.07502105087041855, 0.10642196238040924, 0.03999999910593033]","[0.0, -0.0, 0.028691003185096618]",0.7210432006989256,-3.227818685304683,"(0.0, 0.0, 0.0, 0.0, 0.0, 0.0)",0.5558325671900768,-0.77842604750784,-3.2422602012839143,"(0.0, 0.0, 0.0, 0.0, 0.0, 0.0)",0.07360992294062317,-0.7213108361299082,3.234955630130884,"(0.0, 0.0, 0.0, 0.0, 0.0, 0.0)",-0.5573653507703412,0.7771338289584356,3.2767211924511668,"(0.0, 0.0, 0.0, 0.0, 0.0, 0.0)",-0.07407739542501454,False,,,,,False,,,,
49,Close,,,"(0.010003456009463264, 0.16005529610398603, 0.04567389610019914)","(-0.0011297378697381003, 7.060866228110946e-05, -3.988464411418517e-08)",,"[-0.026750000193715096, 0.05299999937415123, 0.03999999910593033]","[0.0, -0.0, 0.7210432248946826]","[-0.07428213953971863, 0.10708045959472656, 0.03999999910593033]","[0.0, 0.0, -0.05738284539856889]","[0.026750000193715096, 0.05299999937415123, 0.03999999910593033]","[0.0, 0.0, -0.7213108742429458]","[0.07429660856723785, 0.10706773400306702, 0.03999999910593033]","[0.0, -0.0, 0.0558229905847104]",0.708938880629033,-2.905036816774215,"(0.0, 0.0, 0.0, 0.0, 0.0, 0.0)",0.5003668258645501,-0.7905844163893876,-2.9180085315714246,"(0.0, 0.0, 0.0, 0.0, 0.0, 0.0)",0.06632913423961855,-0.7091797525169173,2.911460067117798,"(0.0, 0.0, 0.0, 0.0, 0.0, 0.0)",-0.5017475327577147,0.7894214258858812,2.9490232625869344,"(0.0, 0.0, 0.0, 0.0, 0.0, 0.0)",-0.06675089596581112,False,,,,,False,,,,
50,Close,,,"(0.010001644182078712, 0.16005595153396976, 0.045940321410535084)","(-0.0011271805217326655, 1.767785898679914e-05, -1.508889111938428e-08)",,"[-0.026750000193715096, 0.05299999937415123, 0.03999999910593033]","[0.0, -0.0, 0.7089389671526269]","[-0.07362406700849533, 0.10765182226896286, 0.03999999910593033]","[0.0, 0.0, -0.08164554069303018]","[0.026750000193715096, 0.05299999937415123, 0.03999999910593033]","[0.0, 0.0, -0.7091797033714331]","[0.0736372321844101, 0.10764053463935852, 0.03999999910593033]","[0.0, -0.0, 0.08024167743029369]",0.6980449925661297,-2.6145331350967917,"(0.0, 0.0, 0.0, 0.0, 0.0, 0.0)",0.4504252929298086,-0.8015268519725993,-2.6261845399708146,"(0.0, 0.0, 0.0, 0.0, 0.0, 0.0)",0.059761147909024356,-0.6982617772652256,2.6203140604060167,"(0.0, 0.0, 0.0, 0.0, 0.0, 0.0)",-0.4516689022418484,0.8004801661036254,2.6540976522586175,"(0.0, 0.0, 0.0, 0.0, 0.0, 0.0)",-0.06014157277442886,False,,,,,False,,,,
51,Close,,,"(0.009998458164918766, 0.16005543218265145, 0.046184544665354044)","(-0.001116587313714928, -4.731063982249702e-05, 3.3486629919706074e-09)",,"[-0.026750000193715096, 0.05299999937415123, 0.03999999910593033]","[0.0, -0.0, 0.6980450466292163]","[-0.07302592694759369, 0.10815921425819397, 0.03999999910593033]","[0.0, 0.0, -0.1034818592301779]","[0.026750000193715096, 0.05299999937415123, 0.03999999910593033]","[0.0, 0.0, -0.6982617371246688]","[0.07303788512945175, 0.10814917832612991, 0.03999999910593033]","[0.0, -0.0, 0.10221840210156648]",0.6882404933095168,-2.3530798215871136,"(0.0, 0.0, 0.0, 0.0, 0.0, 0.0)",0.40545980991383274,-0.8113749570468809,-2.3635452178275753,"(0.0, 0.0, 0.0, 0.0, 0.0, 0.0)",0.0538375991228723,-0.688435599538703,2.358282654365416,"(0.0, 0.0, 0.0, 0.0, 0.0, 0.0)",-0.4065798463491374,0.810432944800545,2.3886668872606847,"(0.0, 0.0, 0.0, 0.0, 0.0, 0.0)",-0.0541806611811555,False,,,,,False,,,,
52,Close,,,"(0.0099979269032565, 0.16005188637635104, 0.04640949954916324)","(-0.0010442772263960227, -5.814874739306873e-05, 7.787963860925158e-09)",,"[-0.026750000193715096, 0.05299999937415123, 0.03999999910593033]","[0.0, -0.0, 0.688240548987758]","[-0.07248289883136749, 0.10861026495695114, 0.03999999910593033]","[0.0, 0.0, -0.12313446206189271]","[0.026750000193715096, 0.05299999937415123, 0.03999999910593033]","[0.0, 0.0, -0.6884356086136862]","[0.07249374687671661, 0.10860133916139603, 0.03999999910593033]","[0.0, -0.0, 0.1219973374555316]",0.679416393078237,-2.117784055507141,"(0.0, 0.0, 0.0, 0.0, 0.0, 0.0)",0.3649762140031281,-0.8202374613421928,-2.12700103087486,"(0.0, 0.0, 0.0, 0.0, 0.0, 0.0)",0.04851286211734207,-0.6795919883598663,2.1224666829208143,"(0.0, 0.0, 0.0, 0.0, 0.0, 0.0)",-0.36598488497268467,0.8193896503204905,2.149609324786922,"(0.0, 0.0, 0.0, 0.0, 0.0, 0.0)",-0.04882227338805697,False,,,,,False,,,,
53,Close,,,"(0.009997966950406065, 0.16004795201914346, 0.046616050094935475)","(-0.0009640430328522325, -5.7324486097668704e-05, 4.2980615420070005e-09)",,"[-0.026750000193715096, 0.05299999937415123, 0.03999999910593033]","[0.0, -0.0, 0.6794163791618646]","[-0.07199041545391083, 0.10901165008544922, 0.03999999910593033]","[0.0, 0.0, -0.1408210743259801]","[0.026750000193715096, 0.05299999937415123, 0.03999999910593033]","[0.0, 0.0, -0.6795920181483843]","[0.07200025022029877, 0.1090037003159523, 0.03999999910593033]","[0.0, -0.0, 0.13979766167419433]",0.6714747537704133,-1.9059934338776885,"(0.0, 0.0, 0.0, 0.0, 0.0, 0.0)",0.3285291326313333,-0.8282143561304102,-1.914454749172182,"(0.0, 0.0, 0.0, 0.0, 0.0, 0.0)",0.043663125146434535,-0.6716327895238797,1.9102077206367922,"(0.0, 0.0, 0.0, 0.0, 0.0, 0.0)",-0.3294374536237565,0.8274513303019508,1.934803195550486,"(0.0, 0.0, 0.0, 0.0, 0.0, 0.0)",-0.043941831288343336,False,,,,,False,,,,
54,Close,,,"(0.009998107600018924, 0.16004411888380865, 0.0468059782297436)","(-0.0008858309445970004, -5.447527859797503e-05, 4.128601528647624e-08)",,"[-0.026750000193715096, 0.05299999937415123, 0.03999999910593033]","[0.0, -0.0, 0.6714747449539094]","[-0.07154417037963867, 0.10936915874481201, 0.03999999910593033]","[0.0, 0.0, -0.15673960659097733]","[0.026750000193715096, 0.05299999937415123, 0.03999999910593033]","[0.0, 0.0, -0.6716327690441329]","[0.07155308127403259, 0.10936208069324493, 0.03999999910593033]","[0.0, -0.0, 0.15581855230220754]",0.664327278393372,-1.7153940904899205,"(0.0, 0.0, 0.0, 0.0, 0.0, 0.0)",0.2957170811345372,-0.8353934979980445,-1.7229940482322428,"(0.0, 0.0, 0.0, 0.0, 0.0, 0.0)",0.03934112702889199,-0.6644695105714917,1.7191869485731137,"(0.0, 0.0, 0.0, 0.0, 0.0, 0.0)",-0.2965349881453131,0.8347067784412298,1.7413075534269409,"(0.0, 0.0, 0.0, 0.0, 0.0, 0.0)",-0.039592428071821256,False,,,,,False,,,,
55,Close,,,"(0.009998248644105466, 0.16004048002584464, 0.0469807018618576)","(-0.0008115684428503489, -5.1596750749095254e-05, 7.881188886077776e-08)",,"[-0.026750000193715096, 0.05299999937415123, 0.03999999910593033]","[0.0, -0.0, 0.6643273336690038]","[-0.07114013284444809, 0.10968788713216782, 0.03999999910593033]","[0.0, 0.0, -0.17106622141763456]","[0.026750000193715096, 0.05299999937415123, 0.03999999910593033]","[0.0, 0.0, -0.6644694779113771]","[0.07114819437265396, 0.10968156903982162, 0.03999999910593033]","[0.0, -0.0, 0.17023725548976373]",0.6578945505540348,-1.543854681440929,"(0.0, 0.0, 0.0, 0.0, 0.0, 0.0)",0.2661784897251144,-0.8418546682622772,-1.5506808634158242,"(0.0, 0.0, 0.0, 0.0, 0.0, 0.0)",0.03542959308904228,-0.6580225595143425,1.547268253715802,"(0.0, 0.0, 0.0, 0.0, 0.0, 0.0)",-0.26691494494593054,0.8412366239853526,1.567162930589489,"(0.0, 0.0, 0.0, 0.0, 0.0, 0.0)",-0.035656056287006674,False,,,,,False,,,,
56,Close,,,"(0.009998390752654573, 0.16003702894197389, 0.04714144752999396)","(-0.0007411380797103218, -4.869650481896534e-05, 1.1687517768299383e-07)",,"[-0.026750000193715096, 0.05299999937415123, 0.03999999910593033]","[0.0, -0.0, 0.6578945475257985]","[-0.07077455520629883, 0.1099722608923912, 0.03999999910593033]","[0.0, 0.0, -0.18396012465064338]","[0.026750000193715096, 0.05299999937415123, 0.03999999910593033]","[0.0, 0.0, -0.6580225896942233]","[0.07078184932470322, 0.10996662080287933, 0.03999999910593033]","[0.0, -0.0, 0.18321406389742323]",0.6521050954986313,-1.3894692132968354,"(0.0, 0.0, 0.0, 0.0, 0.0, 0.0)",0.23958744527110798,-0.8476696697618468,-1.395600359896693,"(0.0, 0.0, 0.0, 0.0, 0.0, 0.0)",0.031904902566438624,-0.6522203035629083,1.392541428344221,"(0.0, 0.0, 0.0, 0.0, 0.0, 0.0)",-0.24025052935853647,0.8471134329078756,1.410434141405507,"(0.0, 0.0, 0.0, 0.0, 0.0, 0.0)",-0.032108956045352514,False,,,,,False,,,,
57,Close,,,"(0.009998534235924597, 0.16003375955333046, 0.04728933347451534)","(-0.0006744157946989166, -4.576820860538318e-05, 1.554405829918684e-07)",,"[-0.026750000193715096, 0.05299999937415123, 0.03999999910593033]","[0.0, -0.0, 0.6521051450040646]","[-0.07044398784637451, 0.11022617667913437, 0.03999999910593033]","[0.0, 0.0, -0.19556454293122102]","[0.026750000193715096, 0.05299999937415123, 0.03999999910593033]","[0.0, 0.0, -0.6522203497730787]","[0.07045057415962219, 0.11022114753723145, 0.03999999910593033]","[0.0, -0.0, 0.19489313608724637]",0.6468945859487681,-1.250522291967151,"(0.0, 0.0, 0.0, 0.0, 0.0, 0.0)",0.2156503992603495,-0.8529031244958994,-1.2560291361726517,"(0.0, 0.0, 0.0, 0.0, 0.0, 0.0)",0.02872919688306315,-0.6469982732066174,1.253287285509799,"(0.0, 0.0, 0.0, 0.0, 0.0, 0.0)",-0.2162473971085442,0.8524025140258721,1.2693794683191757,"(0.0, 0.0, 0.0, 0.0, 0.0, 0.0)",-0.02891303657535659,False,,,,,False,,,,
58,Close,,,"(0.009998679410322496, 0.16003066597344334, 0.0474253884764576)","(-0.0006112814540129935, -4.2805404436077314e-05, 1.9447426774393396e-07)",,"[-0.026750000193715096, 0.05299999937415123, 0.03999999910593033]","[0.0, -0.0, 0.6468945636476681]","[-0.07014521211385727, 0.11045306921005249, 0.03999999910593033]","[0.0, 0.0, -0.20600854729134555]","[0.026750000193715096, 0.05299999937415123, 0.03999999910593033]","[0.0, 0.0, -0.6469982503054421]","[0.07015117257833481, 0.11044856905937195, 0.03999999910593033]","[0.0, -0.0, 0.20540423443750838]",0.6422051273538913,-1.125470062770436,"(0.0, 0.0, 0.0, 0.0, 0.0, 0.0)",0.1941029233168818,-0.8576131917611358,-1.1304161436567226,"(0.0, 0.0, 0.0, 0.0, 0.0, 0.0)",0.025868240883426936,-0.6422984458859556,1.1279585569588184,"(0.0, 0.0, 0.0, 0.0, 0.0, 0.0)",-0.19464040126091972,0.8571626447690798,1.1424313783698345,"(0.0, 0.0, 0.0, 0.0, 0.0, 0.0)",-0.026033851694478666,False,,,,,False,,,,
59,Move,,,"(0.009998826598722164, 0.16002774252192944, 0.04755055901421763)","(-0.0005516191299448554, -3.980150267197137e-05, 2.339437659612592e-07)","[0.0, 0.0, 0.0]","[-0.026750000193715096, 0.05299999937415123, 0.03999999910593033]","[0.0, -0.0, 0.6422051137296667]","[-0.0698753148317337, 0.11065594106912613, 0.03999999910593033]","[0.0, 0.0, -0.2154080556264429]","[0.026750000193715096, 0.05299999937415123, 0.03999999910593033]","[0.0, 0.0, -0.6422983956794274]","[0.06988069415092468, 0.1106519103050232, 0.03999999910593033]","[0.0, -0.0, 0.21486417441436167]",0.6379846146185022,-1.0129230564933929,"(0.0, 0.0, 0.0, 0.0, 0.0, 0.0)",0.17470684718642912,-0.8618522144704561,-1.0173654502368856,"(0.0, 0.0, 0.0, 0.0, 0.0, 0.0)",0.023291096758263134,-0.6380686012973601,1.0151627012629356,"(0.0, 0.0, 0.0, 0.0, 0.0, 0.0)",-0.1751907229705418,0.8614467243673204,1.02817910357775,"(0.0, 0.0, 0.0, 0.0, 0.0, 0.0)",-0.023440272040621463,False,,,,,True,"(0.04276013174954747, 0.17974174897294792, 0.02399995643463635)","(-0.9999999990838299, -1.9447426661030803e-07, -4.2805404423670755e-05)",0.0013234533115717422,0.0
60,Move,,,"(0.008529162475457952, 0.15974954236529276, 0.0477048393377401)","(0.0013879222534856654, 0.003092032969080396, 0.019607357714227783)","[-0.001469664123264212, -0.00027820015663668207, 0.00015428032352246546]","[-0.026750000193715096, 0.05299999937415123, 0.03999999910593033]","[0.0, -0.0, 0.6379846501970732]","[-0.06963159143924713, 0.1108374372124672, 0.03999999910593033]","[0.0, 0.0, -0.22386762157269943]","[0.026750000193715096, 0.05299999937415123, 0.03999999910593033]","[0.0, 0.0, -0.638068602671057]","[0.06963644921779633, 0.11083383113145828, 0.03999999910593033]","[0.0, -0.0, 0.22337816170537766]",0.6141590059460926,-5.718146081378292,"(0.0, 0.0, 0.0, 0.0, 0.0, 0.0)",-6.715100343954979,-0.8614283121995241,0.10173654502368734,"(0.0, 0.0, 0.0, 0.0, 0.0, 0.0)",-0.37236374372155323,-0.6186460352886096,4.661415842100123,"(0.0, 0.0, 0.0, 0.0, 0.0, 0.0)",6.428194854706253,0.8610182254653614,-0.10283973647015276,"(0.0, 0.0, 0.0, 0.0, 0.0, 0.0)",0.9829946930619015,False,,,,,True,"(0.041928616181162004, 0.17969877893574898, 0.023999959438538117)","(-0.9999999992078928, -2.3394376620903917e-07, -3.980150265941498e-05)",0.0004918567139684023,10.112171877912418
61,Move,,,"(0.006723996611826882, 0.15936533702962205, 0.047765255621499005)","(6.714398616458164e-05, 0.002674296973039989, 0.04262647064426384)","[-0.0032748299868952824, -0.0006624054923073941, 0.00021469660728137135]","[-0.026750000193715096, 0.05299999937415123, 0.03999999910593033]","[0.0, -0.0, 0.6141590305095613]","[-0.06824154406785965, 0.11184260249137878, 0.03999999910593033]","[0.0, 0.0, -0.24726930604170874]","[0.026750000193715096, 0.05299999937415123, 0.03999999910593033]","[0.0, 0.0, -0.618646044105948]","[0.06850515305995941, 0.1116558387875557, 0.03999999910593033]","[0.0, -0.0, 0.24237220045044397]",0.5923752537221402,-5.228100533748594,"(0.0, 0.0, 0.0, 0.0, 0.0, 0.0)",0.6968351830029317,-0.8614707024266173,-0.010173654502368734,"(0.0, 0.0, 0.0, 0.0, 0.0, 0.0)",0.0386094337653134,-0.6008326176855909,4.2752202247244835,"(0.0, 0.0, 0.0, 0.0, 0.0, 0.0)",-0.2843818339581164,0.8610616731657038,0.010427448082156607,"(0.0, 0.0, 0.0, 0.0, 0.0, 0.0)",0.12162564932151312,False,,,,,True,"(0.03949436769622908, 0.17998210851349686, 0.023999959438538117)","(-0.9999999992078928, -2.3394376620903917e-07, -3.980150265941498e-05)",-6.347605402235445e-06,0.5640853154323047
62,Move,,,"(0.004916021046565853, 0.1589665718711254, 0.047720958898252924)","(-0.002763020338407607, 0.0006108079306357897, 0.0667691707902313)","[-0.005082805552156311, -0.0010611706508040497, 0.00017039988403529105]","[-0.026750000193715096, 0.05299999937415123, 0.03999999910593033]","[0.0, -0.0, 0.5923752994005711]","[-0.0669499859213829, 0.1127324104309082, 0.03999999910593033]","[0.0, 0.0, -0.2690954538189607]","[0.026750000193715096, 0.05299999937415123, 0.03999999910593033]","[0.0, 0.0, -0.6008327423896315]","[0.06745371967554092, 0.11239029467105865, 0.03999999910593033]","[0.0, -0.0, 0.2602290700881579]",0.5712150347036751,-5.078452564431617,"(0.0, 0.0, 0.0, 0.0, 0.0, 0.0)",0.2157952503283588,-0.861466463403908,0.0010173654502363396,"(0.0, 0.0, 0.0, 0.0, 0.0, 0.0)",0.016130538686302622,-0.5829836595254625,4.283749958430823,"(0.0, 0.0, 0.0, 0.0, 0.0, 0.0)",0.03654686188668907,0.8610568520052067,-0.0011570785193177847,"(0.0, 0.0, 0.0, 0.0, 0.0, 0.0)",0.013369392840733865,False,,,,,True,"(0.03722753437306846, 0.1801876577450428, 0.023999959438538117)","(-0.9999999992078928, -2.3394376620903917e-07, -3.980150265941498e-05)",-3.03090440028451e-06,0.20086448022229916
63,Move,,,"(0.003038586218639499, 0.15852968790700625, 0.047692659289474)","(-0.0025911153149836925, -0.0037098076030427207, 0.0892309075356073)","[-0.006960240380082665, -0.0014980546149231944, 0.00014210027525636548]","[-0.026750000193715096, 0.05299999937415123, 0.03999999910593033]","[0.0, -0.0, 0.5712149816841382]","[-0.06567712873220444, 0.11356961727142334, 0.03999999910593033]","[0.0, 0.0, -0.2902514434627483]","[0.026750000193715096, 0.05299999937415123, 0.03999999910593033]","[0.0, 0.0, -0.5829835823925363]","[0.06638723611831665, 0.11310731619596481, 0.03999999910593033]","[0.0, -0.0, 0.27807322292986936]",0.5508803967687295,-4.88031310438695,"(0.0, 0.0, 0.0, 0.0, 0.0, 0.0)",0.28503070876654335,-0.8614668873061792,-0.0001017365450710142,"(0.0, 0.0, 0.0, 0.0, 0.0, 0.0)",0.019917833408555515,-0.5651641840502668,4.2766741140469655,"(0.0, 0.0, 0.0, 0.0, 0.0, 0.0)",0.11956537689041521,0.8610565492790112,-7.265428690530302e-05,"(0.0, 0.0, 0.0, 0.0, 0.0, 0.0)",0.07009334439305036,False,,,,,True,"(0.03495614298930945, 0.18035455290140667, 0.023999959438538117)","(-0.9999999992078928, -2.3394376620903917e-07, -3.980150265941498e-05)",-3.483078081115776e-06,1.0531113700940868
64,Move,,,"(0.0020261779141126004, 0.159147963083264, 0.04760521211159295)","(0.002583370481578668, -0.003056729446151124, 0.09297246090683914)","[-0.007972648684609564, -0.0008797794386654345, 5.465309737531787e-05]","[-0.026750000193715096, 0.05299999937415123, 0.03999999910593033]","[0.0, -0.0, 0.5508804375563766]","[-0.06443750858306885, 0.11434861272573471, 0.03999999910593033]","[0.0, 0.0, -0.31058647044401844]","[0.026750000193715096, 0.05299999937415123, 0.03999999910593033]","[0.0, 0.0, -0.5651641731913941]","[0.06530991941690445, 0.11380404978990555, 0.03999999910593033]","[0.0, -0.0, 0.2958923811960855]",0.5325313952836437,-4.403760356420582,"(0.0, 0.0, 0.0, 0.0, 0.0, 0.0)",-38.47384383842257,-0.8434648155280273,4.320497226756436,"(0.0, 0.0, 0.0, 0.0, 0.0, 0.0)",-19.707773442051234,-0.5485203526437034,3.9945195375752336,"(0.0, 0.0, 0.0, 0.0, 0.0, 0.0)",38.40865227596146,0.8426940994674212,-4.406987954781599,"(0.0, 0.0, 0.0, 0.0, 0.0, 0.0)",20.213574547080277,True,"(-0.030837162206202397, 0.1807147684040986, 0.056003710559052795)","(0.9960147094140643, 0.08911192973728252, 0.0037097990935676286)",0.000295955962769222,310.9113148279181,True,"(0.032686946379462796, 0.18046390406811386, 0.023996289440947206)","(-0.9960147094140644, -0.08911192973728094, -0.0037097990935709194)",-4.010570765232737e-05,237.4598751600436
65,Move,"(0.0005, 0.0, 0.0007)","(0.0, 0.025778513051956248, 0.0)","(0.0011700253639096666, 0.15976182515520135, 0.04751897038725052)","(0.007930122363363799, -0.00226657279137191, 0.09692309735704685)","[-0.008828801234812498, -0.00026591736672809674, -3.1588626967116173e-05]","[-0.026750000193715096, 0.05299999937415123, 0.03999999910593033]","[0.0, -0.0, 0.5325313658465014]","[-0.06330554187297821, 0.11502977460622787, 0.03999999910593033]","[0.0, 0.0, -0.3109334583254266]","[0.026750000193715096, 0.05299999937415123, 0.03999999910593033]","[0.0, 0.0, -0.548520392495979]","[0.06429261714220047, 0.11443737894296646, 0.03999999910593033]","[0.0, -0.0, 0.2941737789306636]",0.5150286261073844,-4.20066460230223,"(0.0, 0.0, 0.0, 0.0, 0.0, 0.0)",-43.15160519850692,-0.8255232606133882,4.305973179513399,"(0.0, 0.0, 0.0, 0.0, 0.0, 0.0)",-22.03627704391551,-0.5318939745440465,3.990330743917647,"(0.0, 0.0, 0.0, 0.0, 0.0, 0.0)",43.6676935048907,0.8241209847892994,-4.457547522749228,"(0.0, 0.0, 0.0, 0.0, 0.0, 0.0)",23.068483497500033,True,"(-0.02968254207398162, 0.18138834120873254, 0.056003057484645)","(0.9956765214355997, 0.09283814461792712, 0.0030567246857756626)",-0.0019557974209563206,339.7172576639441,True,"(0.03178474084630808, 0.1811477674564546, 0.02399694251535476)","(-0.9956765214355902, -0.0928381446180211, -0.0030567246860136047)",0.00016315936690381586,263.2480870713977
66,Move,"(0.001, 0.0, 0.0011)","(0.0, 0.0516163672984803, 0.0)","(0.001371632122108864, 0.16011062259289857, 0.047489315494889314)","(0.005709479379069741, 0.001208621295138418, 0.09122056407074575)","[-0.0086271944766133, 8.288007096912686e-05, -6.124351932831895e-05]","[-0.026750000193715096, 0.05299999937415123, 0.03999999910593033]","[0.0, -0.0, 0.5150286173626178]","[-0.06221430376172066, 0.11566006392240524, 0.03999999910593033]","[0.0, 0.0, -0.3104946497228739]","[0.026750000193715096, 0.05299999937415123, 0.03999999910593033]","[0.0, 0.0, -0.5318939608755999]","[0.06326599419116974, 0.11505305767059326, 0.03999999910593033]","[0.0, -0.0, 0.2922270319249003]",0.5151986520321145,0.04080622193521233,"(0.0, 0.0, 0.0, 0.0, 0.0, 0.0)",4.938899510567163,-0.8273169186883481,-0.43047793799038914,"(0.0, 0.0, 0.0, 0.0, 0.0, 0.0)",-0.4403504141921288,-0.5353548413697682,-0.8306080381731942,"(0.0, 0.0, 0.0, 0.0, 0.0, 0.0)",-6.48850920225969,0.8259782962570948,0.445754752270906,"(0.0, 0.0, 0.0, 0.0, 0.0, 0.0)",0.008537882732001754,True,"(-0.02862075758073663, 0.18203687365922727, 0.05600226731562215)","(0.9953040758649819, 0.09677116937979674, 0.0022665708506747376)",-0.003960922893090458,5.753776113130583,True,"(0.03091578949574346, 0.18154523231783662, 0.023997716044379027)","(-0.9953040509812058, -0.09677103449881742, -0.0022831956617496516)",0.00022377337919692118,0.0
67,Move,"(0.0016, 0.0, 0.0018000000000000002)","(0.0, 0.06885498432042829, 0.0)","(0.0016673237807892656, 0.16047212898892319, 0.04749716992164313)","(0.0015301751955074236, 0.0010924959305908823, 0.08384369873596025)","[-0.0083315028179329, 0.0004443864669937403, -5.3389092574504526e-05]","[-0.026750000193715096, 0.05299999937415123, 0.03999999910593033]","[0.0, -0.0, 0.5151986070404266]","[-0.06222495436668396, 0.11565402895212173, 0.03999999910593033]","[0.0, 0.0, -0.31211826141107524]","[0.026750000193715096, 0.05299999937415123, 0.03999999910593033]","[0.0, 0.0, -0.5353548591233216]","[0.06348053365945816, 0.1149263083934784, 0.03999999910593033]","[0.0, -0.0, 0.2906234375915852]",0.5134272349186608,-0.4251401072288778,"(0.0, 0.0, 0.0, 0.0, 0.0, 0.0)",-0.7440106124770843,-0.8271364567979654,0.043310853691852724,"(0.0, 0.0, 0.0, 0.0, 0.0, 0.0)",-0.059467579947853316,-0.5371202291172008,-0.42369305938384016,"(0.0, 0.0, 0.0, 0.0, 0.0, 0.0)",0.5396611024038871,0.8257925651103153,-0.0445754752270906,"(0.0, 0.0, 0.0, 0.0, 0.0, 0.0)",-0.00863720663393951,True,"(-0.02852368370219001, 0.18197621187582552, 0.05600226731562215)","(0.9953040758649819, 0.09677116937979674, 0.0022665708506747376)",-0.0036441447532252597,0.0,True,"(0.031236993183141715, 0.18147027378983963, 0.023997716044379027)","(-0.9953040509812058, -0.09677103449881742, -0.0022831956617496516)",0.00027778461409146615,0.0
68,Move,"(0.0055, 0.0, 0.0027)","(0.0, 0.09471203718872429, 0.0)","(0.0019307181608801357, 0.16053029593854537, 0.04755000192132817)","(-0.0008345960590090112, 0.001553890994335604, 0.08202813894670252)","[-0.00806810843784203, 0.0005025534166159251, -5.57092889465205e-07]","[-0.026750000193715096, 0.05299999937415123, 0.03999999910593033]","[0.0, -0.0, 0.5134272399095271]","[-0.062113914638757706, 0.11571677029132843, 0.03999999910593033]","[0.0, 0.0, -0.313709208952286]","[0.026750000193715096, 0.05299999937415123, 0.03999999910593033]","[0.0, 0.0, -0.5371202110762806]","[0.06358979642391205, 0.1148613691329956, 0.03999999910593033]","[0.0, -0.0, 0.28867231220500406]",0.5115726496406411,-0.44510046672472975,"(0.0, 0.0, 0.0, 0.0, 0.0, 0.0)",-2.679460440110981,-0.8259018072001201,0.2963159034828796,"(0.0, 0.0, 0.0, 0.0, 0.0, 0.0)",-1.3637676479447145,-0.5388730180945772,-0.4206693545703383,"(0.0, 0.0, 0.0, 0.0, 0.0, 0.0)",2.4470442718410905,0.8247533036720859,-0.24942274517505747,"(0.0, 0.0, 0.0, 0.0, 0.0, 0.0)",1.1854217099516595,True,"(-0.02830716875464246, 0.18198525335768906, 0.05600226731562215)","(0.9953040758649819, 0.09677116937979674, 0.0022665708506747376)",-0.0033449797890236243,18.38875919564294,True,"(0.03147615631394477, 0.18146811796864828, 0.023997716044379027)","(-0.9953040509812058, -0.09677103449881742, -0.0022831956617496516)",4.8977514788149055e-05,11.725488030344966
69,Move,"(0.0063, 0.0, 0.0035)","(0.0, 0.12912818470880047, 0.0)","(0.0022555159569356505, 0.16057817833601187, 0.04765414624637762)","(-0.0012047049679162897, 0.0020647081234385746, 0.07962900637349488)","[-0.007743310641786514, 0.0005504358140824284, 0.00010358723215998789]","[-0.026750000193715096, 0.05299999937415123, 0.03999999910593033]","[0.0, -0.0, 0.5115726153611359]","[-0.061997540295124054, 0.1157822534441948, 0.03999999910593033]","[0.0, 0.0, -0.3143291500263529]","[0.026750000193715096, 0.05299999937415123, 0.03999999910593033]","[0.0, 0.0, -0.5388729887630873]","[0.0636981725692749, 0.1147967055439949, 0.03999999910593033]","[0.0, -0.0, 0.28588028146978617]",0.5090103945863804,-0.6149412130225617,"(0.0, 0.0, 0.0, 0.0, 0.0, 0.0)",-3.2262503923359556,-0.8247488883814997,0.2767005164688784,"(0.0, 0.0, 0.0, 0.0, 0.0, 0.0)",-1.4673392870707873,-0.5414371177248479,-0.6153839112649623,"(0.0, 0.0, 0.0, 0.0, 0.0, 0.0)",2.0020724972175388,0.8238566518476821,-0.21519643785690912,"(0.0, 0.0, 0.0, 0.0, 0.0, 0.0)",1.0785014812672153,True,"(-0.02814971870448258, 0.18202976011742428, 0.05600226731562215)","(0.9953040758649819, 0.09677116937979674, 0.0022665708506747376)",-0.0031877256862450397,20.262765264914716,True,"(0.03177062392167149, 0.18149285375462737, 0.023997716044379027)","(-0.9953040509812058, -0.09677103449881742, -0.0022831956617496516)",5.5484616755081894e-05,8.750060904501193
70,Move,"(0.0073, 0.0, 0.0034)","(0.0, 0.14231763786612162, 0.0)","(0.002592211163535315, 0.16062156154208354, 0.04774724137700606)","(-0.001597908325995311, 0.002560981752979071, 0.07754543966477946)","[-0.007406615435186849, 0.000593819020154096, 0.00019668236278842788]","[-0.026750000193715096, 0.05299999937415123, 0.03999999910593033]","[0.0, -0.0, 0.5090104312911515]","[-0.06183655932545662, 0.11587236076593399, 0.03999999910593033]","[0.0, 0.0, -0.31573855322828487]","[0.026750000193715096, 0.05299999937415123, 0.03999999910593033]","[0.0, 0.0, -0.5414371246074257]","[0.06385650485754013, 0.1147017627954483, 0.03999999910593033]","[0.0, -0.0, 0.2824195739121046]",0.5064010310959938,-0.6262472376928074,"(0.0, 0.0, 0.0, 0.0, 0.0, 0.0)",-2.8344701427107273,-0.8236441760124915,0.2651309685619636,"(0.0, 0.0, 0.0, 0.0, 0.0, 0.0)",-1.3638614197437906,-0.5439355700958521,-0.5996285690410216,"(0.0, 0.0, 0.0, 0.0, 0.0, 0.0)",2.2226438427605015,0.8229860646904099,-0.20894091774531573,"(0.0, 0.0, 0.0, 0.0, 0.0, 0.0)",1.0571823514524559,True,"(-0.02789540766939226, 0.182072098381936, 0.05600226731562215)","(0.9953040758649819, 0.09677116937979674, 0.0022665708506747376)",-0.003050977555420103,18.989990602830503,True,"(0.03215996472522948, 0.18150800560412123, 0.023997716044379027)","(-0.9953040509812058, -0.09677103449881742, -0.0022831956617496516)",8.53067564163778e-05,6.914717695345737
71,Move,"(0.0075, 0.0, 0.0038)","(0.0, 0.15092211107845369, 0.0)","(0.0029498688718169004, 0.160649187735176, 0.047817525518256895)","(-0.0022604551492113323, 0.002859815601500023, 0.07565019501123618)","[-0.007048957726905264, 0.0006214452132465575, 0.00026696650403926214]","[-0.026750000193715096, 0.05299999937415123, 0.03999999910593033]","[0.0, -0.0, 0.5064010919604126]","[-0.0616723857820034, 0.11596369743347168, 0.03999999910593033]","[0.0, 0.0, -0.3172431589170896]","[0.026750000193715096, 0.05299999937415123, 0.03999999910593033]","[0.0, 0.0, -0.5439356234037405]","[0.06401054561138153, 0.11460886150598526, 0.03999999910593033]","[0.0, -0.0, 0.27905051482913723]",0.5036368956949551,-0.6633924962492941,"(0.0, 0.0, 0.0, 0.0, 0.0, 0.0)",-2.466339099525785,-0.8226633484207905,0.23539862200825157,"(0.0, 0.0, 0.0, 0.0, 0.0, 0.0)",-1.2329426774936076,-0.546525985238682,-0.6216996342791794,"(0.0, 0.0, 0.0, 0.0, 0.0, 0.0)",1.806861434911454,0.8222719576519845,-0.17138568922210515,"(0.0, 0.0, 0.0, 0.0, 0.0, 0.0)",0.8735515378758067,True,"(-0.02763060539823811, 0.1820997086292768, 0.023997438278415672)","(0.9969915892894217, 0.07746749171718866, -0.0025609789535588575)",-0.0030297871065834664,19.246049507378935,True,"(0.032539259997955226, 0.18152151183938192, 0.023997716044379027)","(-0.9953040509812058, -0.09677103449881742, -0.0022831956617496516)",9.916202002130517e-05,7.227163169532988
72,Move,"(0.008400000000000001, 0.0, 0.0039)","(0.0, 0.13830861657429064, 0.0)","(0.003290133830569786, 0.1606757313410402, 0.047881649939573535)","(-0.0029754912875083277, 0.003129255425057793, 0.07390075859944842)","[-0.006708692768152379, 0.0006479888191107674, 0.0003310909253559022]","[-0.026750000193715096, 0.05299999937415123, 0.03999999910593033]","[0.0, -0.0, 0.503636890733197]","[-0.061498209834098816, 0.11605998873710632, 0.03999999910593033]","[0.0, 0.0, -0.31902646212391156]","[0.026750000193715096, 0.05299999937415123, 0.03999999910593033]","[0.0, 0.0, -0.5465260135953748]","[0.06417001038789749, 0.1145121306180954, 0.03999999910593033]","[0.0, -0.0, 0.2757459698824717]",0.500921414803021,-0.6517154140641794,"(0.0, 0.0, 0.0, 0.0, 0.0, 0.0)",-2.457153620855152,-0.8216296352094958,0.24809117071071202,"(0.0, 0.0, 0.0, 0.0, 0.0, 0.0)",-1.2633587866804583,-0.5490557442849417,-0.6071421711023424,"(0.0, 0.0, 0.0, 0.0, 0.0, 0.0)",1.923737174427103,0.8215146051123823,-0.18176460950451956,"(0.0, 0.0, 0.0, 0.0, 0.0, 0.0)",0.9075095307318801,True,"(-0.027338537692717775, 0.18213507439225785, 0.023997139449143966)","(0.9971358108371452, 0.07557774952438528, -0.0028598117033129403)",-0.0029273220360879143,19.66796444743199,True,"(0.03292001309960847, 0.18152841699402983, 0.023997716044379027)","(-0.9953040509812058, -0.09677103449881742, -0.0022831956617496516)",9.353848107419224e-05,6.837632591704456
73,Move,"(0.0096, 0.0, 0.0057)","(0.0, 0.09068730793362537, 0.0)","(0.003672676429690241, 0.1606685913489673, 0.0479066699107663)","(-0.0031016973705830357, 0.0025721050566682568, 0.07290854127566336)","[-0.006326150169031923, 0.0006408488270378543, 0.0003561108965486684]","[-0.026750000193715096, 0.05299999937415123, 0.03999999910593033]","[0.0, -0.0, 0.5009213769006686]","[-0.06132684275507927, 0.11615411192178726, 0.03999999910593033]","[0.0, 0.0, -0.3207082585448025]","[0.026750000193715096, 0.05299999937415123, 0.03999999910593033]","[0.0, 0.0, -0.5490557336208179]","[0.06432550400495529, 0.11441727727651596, 0.03999999910593033]","[0.0, -0.0, 0.2724588468064422]",0.49807456364125147,-0.6832442788246872,"(0.0, 0.0, 0.0, 0.0, 0.0, 0.0)",-2.2610618312575044,-0.820676466628809,0.22876045936482933,"(0.0, 0.0, 0.0, 0.0, 0.0, 0.0)",-1.2012108190774125,-0.5517484082818301,-0.6462393592532052,"(0.0, 0.0, 0.0, 0.0, 0.0, 0.0)",1.640487859171988,0.8208507339870836,-0.15932907007167865,"(0.0, 0.0, 0.0, 0.0, 0.0, 0.0)",0.8130481280429009,True,"(-0.027056092820227154, 0.1821715902900265, 0.023996870013884154)","(0.9972656987124248, 0.07383314949307355, -0.003129250317990208)",-0.0028355975940918747,16.804481778366668,True,"(0.03329596250605882, 0.18153591664259822, 0.023997716044379027)","(-0.9953040509812058, -0.09677103449881742, -0.0022831956617496516)",0.00010273220837416323,6.434161383103203
74,Move,"(0.010400000000000001, 0.0, 0.0077)","(0.0, 0.047026151365735215, 0.0)","(0.004086705385347413, 0.16064333716307627, 0.047918473628503204)","(-0.002689913369625714, 0.0020417803041113763, 0.07182254489655139)","[-0.005912121213374751, 0.0006155946411468272, 0.00036791461428557076]","[-0.026750000193715096, 0.05299999937415123, 0.03999999910593033]","[0.0, -0.0, 0.4980746191951198]","[-0.06114691495895386, 0.11625228822231293, 0.03999999910593033]","[0.0, 0.0, -0.3226019023373598]","[0.026750000193715096, 0.05299999937415123, 0.03999999910593033]","[0.0, 0.0, -0.5517483954500259]","[0.06449074298143387, 0.11431587487459183, 0.03999999910593033]","[0.0, -0.0, 0.2691023447972465]",0.4950320173047267,-0.730211120765948,"(0.0, 0.0, 0.0, 0.0, 0.0, 0.0)",-2.084521605826357,-0.8197952607977675,0.21148939944994907,"(0.0, 0.0, 0.0, 0.0, 0.0, 0.0)",-1.1052385156379836,-0.5547598477829349,-0.7227454802651239,"(0.0, 0.0, 0.0, 0.0, 0.0, 0.0)",1.4308233922470157,0.8202529379031726,-0.1434710601386482,"(0.0, 0.0, 0.0, 0.0, 0.0, 0.0)",0.7209560486143529,True,"(-0.02675127164206756, 0.18220565232301905, 0.023997427159223417)","(0.9973400503647208, 0.07284372470338456, -0.002572102220613013)",-0.0027243149505520848,15.174281709212595,True,"(0.03368666262212122, 0.18153828936716923, 0.023997716044379027)","(-0.9953040509812058, -0.09677103449881742, -0.0022831956617496516)",8.079108529170121e-05,6.778603533213268
75,Move,"(0.0112, 0.0, 0.010199999999999999)","(0.0, 0.007517133088339578, 0.0)","(0.0045132989522420055, 0.16060564254231863, 0.04792347445949276)","(-0.00201282432908056, 0.0015549851030606191, 0.07060311981989818)","[-0.005485527646480159, 0.0005779000203891826, 0.00037291544527512377]","[-0.026750000193715096, 0.05299999937415123, 0.03999999910593033]","[0.0, -0.0, 0.49503205336303635]","[-0.06095430627465248, 0.11635664850473404, 0.03999999910593033]","[0.0, 0.0, -0.3247632673535727]","[0.026750000193715096, 0.05299999937415123, 0.03999999910593033]","[0.0, 0.0, -0.5547598381886131]","[0.0646752193570137, 0.11420194059610367, 0.03999999910593033]","[0.0, -0.0, 0.26549309697111356]",0.4918707243180131,-0.7587103168112606,"(0.0, 0.0, 0.0, 0.0, 0.0, 0.0)",-1.9532837430690615,-0.818948547986625,0.20321107467421282,"(0.0, 0.0, 0.0, 0.0, 0.0, 0.0)",-1.0517441305404231,-0.55793170323152,-0.7612453076604305,"(0.0, 0.0, 0.0, 0.0, 0.0, 0.0)",1.4014612146826506,0.8196938896590612,-0.13417157858672224,"(0.0, 0.0, 0.0, 0.0, 0.0, 0.0)",0.6762223486865009,True,"(-0.026416272853225342, 0.18223659161380829, 0.023997957476076956)","(0.9974197905185369, 0.07176066207150558, -0.002041778885460796)",-0.0026111125714079813,14.347876844242894,True,"(0.034113961900294726, 0.1815350986483734, 0.023997716044379027)","(-0.9953040509812058, -0.09677103449881742, -0.0022831956617496516)",6.384177223020761e-05,7.223270349507774
76,Move,"(0.0121, 0.0, 0.012400000000000001)","(0.0, 0.005235987755982988, 0.0)","(0.004948146990851923, 0.16056435031512034, 0.04792691329276214)","(-0.0011118904416964918, 0.0012283916967146275, 0.06902793452125053)","[-0.005050679607870242, 0.0005366077931908964, 0.00037635427854450926]","[-0.026750000193715096, 0.05299999937415123, 0.03999999910593033]","[0.0, -0.0, 0.4918707557524901]","[-0.060753848403692245, 0.11646446585655212, 0.03999999910593033]","[0.0, 0.0, -0.3270778517609337]","[0.026750000193715096, 0.05299999937415123, 0.03999999910593033]","[0.0, 0.0, -0.5579317565333242]","[0.06486915051937103, 0.11408133804798126, 0.03999999910593033]","[0.0, -0.0, 0.26176219471329837]",0.48856747313380156,-0.7927802842107697,"(0.0, 0.0, 0.0, 0.0, 0.0, 0.0)",-1.9005367304115657,-0.8181279836409271,0.19693544296748314,"(0.0, 0.0, 0.0, 0.0, 0.0, 0.0)",-1.019403044602814,-0.5612395971037527,-0.7938945293358587,"(0.0, 0.0, 0.0, 0.0, 0.0, 0.0)",1.3640537862727684,0.8191492327039757,-0.1307176692205183,"(0.0, 0.0, 0.0, 0.0, 0.0, 0.0)",0.6498842868721753,True,"(-0.026063497366707912, 0.18226537976591678, 0.023998444263132176)","(0.9975074289299524, 0.07054439207218484, -0.001554984476407261)",-0.0025015946602487075,13.887467729453318,True,"(0.034559320152668556, 0.18152804988896806, 0.023997716044379027)","(-0.9953040509812058, -0.09677103449881742, -0.0022831956617496516)",5.173053573345615e-05,7.664158376681926
77,Move,"(0.013800000000000002, 0.0, 0.013800000000000002)","(0.0, 0.008066911802717793, 0.0)","(0.005388590421739723, 0.1605209106516218, 0.04792909448335405)","(-8.771837015136881e-05, 0.0010011766305836123, 0.06723141550424241)","[-0.004610236176982441, 0.0004931681296923562, 0.0003785354691364165]","[-0.026750000193715096, 0.05299999937415123, 0.03999999910593033]","[0.0, -0.0, 0.4885674732861414]","[-0.06054402515292168, 0.11657644063234329, 0.03999999910593033]","[0.0, 0.0, -0.32956052327804075]","[0.026750000193715096, 0.05299999937415123, 0.03999999910593033]","[0.0, 0.0, -0.5612395553111731]","[0.0650709941983223, 0.11395490914583206, 0.03999999910593033]","[0.0, -0.0, 0.25790963270633904]",0.4851551106329055,-0.8189670002150506,"(0.0, 0.0, 0.0, 0.0, 0.0, 0.0)",-1.8519199441222651,-0.8173188318819143,0.1941964221630533,"(0.0, 0.0, 0.0, 0.0, 0.0, 0.0)",-0.9984131512386705,-0.56462883661803,-0.8134174834265563,"(0.0, 0.0, 0.0, 0.0, 0.0, 0.0)",1.3638630023914724,0.8186130681437803,-0.12867949444689028,"(0.0, 0.0, 0.0, 0.0, 0.0, 0.0)",0.6394268328119895,True,"(-0.02569047890559264, 0.18229193398858357, 0.023998770853640192)","(0.9976177652951665, 0.06897307751634957, -0.0012283913877850787)",-0.002399374034369348,13.613108511387065,True,"(0.03502122798798372, 0.18151789118230063, 0.023997716044379027)","(-0.9953040509812058, -0.09677103449881742, -0.0022831956617496516)",4.5316241121312605e-05,7.802823080338999
78,Move,"(0.0152, 0.0, 0.0151)","(0.0, 0.01672374489260967, 0.0)","(0.005854566573285079, 0.1604712933080203, 0.04793073947499942)","(0.0009831963707950437, 0.0008053934810677093, 0.06511455279593638)","[-0.004144260025437085, 0.0004435507860908461, 0.0003801804607817885]","[-0.026750000193715096, 0.05299999937415123, 0.03999999910593033]","[0.0, -0.0, 0.48515515769391077]","[-0.06032688170671463, 0.11669138818979263, 0.03999999910593033]","[0.0, 0.0, -0.3321637108089876]","[0.026750000193715096, 0.05299999937415123, 0.03999999910593033]","[0.0, 0.0, -0.5646288322785996]","[0.06527736783027649, 0.11382468044757843, 0.03999999910593033]","[0.0, -0.0, 0.2539842537769989]",0.48145458071847963,-0.8881271794622123,"(0.0, 0.0, 0.0, 0.0, 0.0, 0.0)",-1.891595625924469,-0.8165176008291599,0.1922954526610581,"(0.0, 0.0, 0.0, 0.0, 0.0, 0.0)",-0.9943324354563744,-0.5682669974120886,-0.8731585905740838,"(0.0, 0.0, 0.0, 0.0, 0.0, 0.0)",1.2899114078788383,0.8180829972136553,-0.1272170232299982,"(0.0, 0.0, 0.0, 0.0, 0.0, 0.0)",0.6254720131265358,True,"(-0.025302437339171854, 0.18231673229590217, 0.02399899806694078)","(0.997740319501848, 0.06718074490536288, -0.0010011764633281156)",-0.0023035420350167105,13.418765219818825,True,"(0.03549304112106907, 0.18150509895155661, 0.023997716044379027)","(-0.9953040509812058, -0.09677103449881742, -0.0022831956617496516)",4.153741513939787e-05,7.800768891415839
79,Move,"(0.0167, 0.0, 0.016399999999999998)","(0.0, 0.008066911802717793, 0.0)","(0.006322484267824638, 0.16046274558528614, 0.04798143306643239)","(0.0006971076283755097, 0.0008940271221082395, 0.06230596233355456)","[-0.0036763423308975264, 0.00043500306335669814, 0.00043087405221475805]","[-0.026750000193715096, 0.05299999937415123, 0.03999999910593033]","[0.0, -0.0, 0.4814545969944549]","[-0.06009095907211304, 0.11681520193815231, 0.03999999910593033]","[0.0, 0.0, -0.3350630265934518]","[0.026750000193715096, 0.05299999937415123, 0.03999999910593033]","[0.0, 0.0, -0.5682669722474868]","[0.06549839675426483, 0.11368411034345627, 0.03999999910593033]","[0.0, -0.0, 0.24981601844276663]",0.47756384195799445,-0.9337773025164424,"(0.0, 0.0, 0.0, 0.0, 0.0, 0.0)",-1.8660312142210602,-0.8157285942293447,0.18936158395563868,"(0.0, 0.0, 0.0, 0.0, 0.0, 0.0)",-0.9657544375373033,-0.5720611505462264,-0.9105967521930721,"(0.0, 0.0, 0.0, 0.0, 0.0, 0.0)",1.3176063891357381,0.8175410052322423,-0.13007807553912515,"(0.0, 0.0, 0.0, 0.0, 0.0, 0.0)",0.6315414861135059,True,"(-0.02487644650745087, 0.18233950697393603, 0.023999193848721682)","(0.9978804727923428, 0.06506852819306329, -0.0008053933939965261)",-0.002213329019659922,13.849895778270254,True,"(0.03599644121010646, 0.18148808762837942, 0.023997716044379027)","(-0.9953040509812058, -0.09677103449881742, -0.0022831956617496516)",3.906386982094542e-05,7.155913772421702
80,Move,"(0.0177, 0.0, 0.0181)","(0.0, 0.022591541837814602, 0.0)","(0.006817383984536852, 0.16044961891728948, 0.0480260212088582)","(0.00041335816785664407, 0.0008516399372579356, 0.05945251577510222)","[-0.0031814426141853125, 0.00042187639536003796, 0.0004754621946405635]","[-0.026750000193715096, 0.05299999937415123, 0.03999999910593033]","[0.0, -0.0, 0.47756384648424466]","[-0.059842418879270554, 0.11694443970918655, 0.03999999910593033]","[0.0, 0.0, -0.3381647208874112]","[0.026750000193715096, 0.05299999937415123, 0.03999999910593033]","[0.0, 0.0, -0.5720611501984831]","[0.06572836637496948, 0.11353665590286255, 0.03999999910593033]","[0.0, -0.0, 0.2454798475810053]",0.47342419723589346,-0.9935147333042341,"(0.0, 0.0, 0.0, 0.0, 0.0, 0.0)",-1.8643154801973911,-0.8149400646447497,0.18924710030282557,"(0.0, 0.0, 0.0, 0.0, 0.0, 0.0)",-0.9735031718310572,-0.5760620705003074,-0.9602207889794442,"(0.0, 0.0, 0.0, 0.0, 0.0, 0.0)",1.2922674787002408,0.8170085923762032,-0.12777908544938643,"(0.0, 0.0, 0.0, 0.0, 0.0, 0.0)",0.6281837135585473,True,"(-0.024424855658343035, 0.18235949616132865, 0.02399910521710295)","(0.9980592125049937, 0.06226563297381267, -0.0008940270030122388)",-0.002134190105889437,13.487458629841063,True,"(0.036520690874523254, 0.18146792077052398, 0.023997716044379027)","(-0.9953040509812058, -0.09677103449881742, -0.0022831956617496516)",4.686502465236366e-05,6.454486879381344
81,Move,"(0.018000000000000002, 0.0, 0.0202)","(0.0, 0.053339007270198704, 0.0)","(0.007320226671681295, 0.16043351894453067, 0.04808367732213466)","(-0.0024713764914968523, 0.0009747523720594281, 0.05608318250808569)","[-0.0026785999270408697, 0.00040577642260122837, 0.0005331183079170243]","[-0.026750000193715096, 0.05299999937415123, 0.03999999910593033]","[0.0, -0.0, 0.4734241900393749]","[-0.05957743152976036, 0.11708088219165802, 0.03999999910593033]","[0.0, 0.0, -0.34151588110022857]","[0.026750000193715096, 0.05299999937415123, 0.03999999910593033]","[0.0, 0.0, -0.5760620974767365]","[0.06597025692462921, 0.11338022351264954, 0.03999999910593033]","[0.0, -0.0, 0.24094653189720747]",0.4691940982577539,-1.0152237547534986,"(0.0, 0.0, 0.0, 0.0, 0.0, 0.0)",-1.5880333249626637,-0.8142387643478601,0.168312071253479,"(0.0, 0.0, 0.0, 0.0, 0.0, 0.0)",-0.8560416619698068,-0.5801255442574829,-0.9752337017221081,"(0.0, 0.0, 0.0, 0.0, 0.0, 0.0)",1.4146253545510614,0.8164656057482778,-0.1303167907020982,"(0.0, 0.0, 0.0, 0.0, 0.0, 0.0)",0.6352108146449542,True,"(-0.0239408809065036, 0.18237738011627705, 0.02399914760396394)","(0.9982328576768182, 0.05941747692359416, -0.0008516398343097398)",-0.002056443924163299,11.853293926952556,True,"(0.037070834673081796, 0.1814431969768632, 0.023997716044379027)","(-0.9953040509812058, -0.09677103449881742, -0.0022831956617496516)",4.998625028966316e-05,6.174170208960693
82,Move,"(0.018600000000000002, 0.0, 0.0222)","(0.0, 0.07058286027990268, 0.0)","(0.007812766585038024, 0.1603997045968736, 0.04811810258253108)","(-0.00270983766474963, 0.0006330493178666125, 0.05368169615227149)","[-0.0021860600136841407, 0.00037196207494416544, 0.0005675435683134486]","[-0.026750000193715096, 0.05299999937415123, 0.03999999910593033]","[0.0, -0.0, 0.4691941055263778]","[-0.0593060702085495, 0.11721917241811752, 0.03999999910593033]","[0.0, 0.0, -0.34504467133523614]","[0.026750000193715096, 0.05299999937415123, 0.03999999910593033]","[0.0, 0.0, -0.580125622661313]","[0.06621528416872025, 0.11322035640478134, 0.03999999910593033]","[0.0, -0.0, 0.23634008592400868]",0.46505120149146867,-0.9942952239084516,"(0.0, 0.0, 0.0, 0.0, 0.0, 0.0)",-1.7180787321862088,-0.8134453137282235,0.19042814871279484,"(0.0, 0.0, 0.0, 0.0, 0.0, 0.0)",-0.9631332243765953,-0.5840603596260825,-0.9443556884639228,"(0.0, 0.0, 0.0, 0.0, 0.0, 0.0)",1.4135268741055194,0.8159400950657842,-0.1261225637984362,"(0.0, 0.0, 0.0, 0.0, 0.0, 0.0)",0.6433981124850647,True,"(-0.023439332737739633, 0.1823896683772378, 0.02399902448782304)","(0.9984272761633295, 0.05605376054457769, -0.0009747522177441896)",-0.0019800182902544967,13.062689087762294,True,"(0.037629698549137724, 0.18141572988058613, 0.023997716044379027)","(-0.9953040509812058, -0.09677103449881742, -0.0022831956617496516)",5.185664043611276e-05,5.942883069303916
83,Move,"(0.0195, 0.0, 0.023899999999999998)","(0.0, 0.06569593837431856, 0.0)","(0.008303640660200002, 0.1603562897868858, 0.04814897041612023)","(-0.0029208615334283517, 0.0002646975574007962, 0.051261281594299386)","[-0.0016951859385221629, 0.000328547264956347, 0.0005984114019025946]","[-0.026750000193715096, 0.05299999937415123, 0.03999999910593033]","[0.0, -0.0, 0.4650512526535175]","[-0.05903973802924156, 0.11735349893569946, 0.03999999910593033]","[0.0, 0.0, -0.3483941430644744]","[0.026750000193715096, 0.05299999937415123, 0.03999999910593033]","[0.0, 0.0, -0.5840604537903873]","[0.06645193696022034, 0.11306460201740265, 0.03999999910593033]","[0.0, -0.0, 0.23187974323290003]",0.46087797359950944,-1.0015746940702177,"(0.0, 0.0, 0.0, 0.0, 0.0, 0.0)",-1.7546795273155575,-0.8126575152557818,0.18907163338599633,"(0.0, 0.0, 0.0, 0.0, 0.0, 0.0)",-0.9659299842659784,-0.5879751767315554,-0.939556105313494,"(0.0, 0.0, 0.0, 0.0, 0.0, 0.0)",1.3735220048343912,0.8154102456587091,-0.12716385769803842,"(0.0, 0.0, 0.0, 0.0, 0.0, 0.0)",0.6388874682655733,True,"(-0.022954967378902555, 0.18240444089797103, 0.023999366190765214)","(0.9985592836428107, 0.053655906472368495, -0.0006330492755693211)",-0.0019095461310218926,12.999384791119033,True,"(0.038170805345776104, 0.1813867977400308, 0.023997716044379027)","(-0.9953040509812058, -0.09677103449881742, -0.0022831956617496516)",5.1341295005984886e-05,6.058352451074287
84,Move,"(0.0206, 0.0, 0.0253)","(0.0, 0.052286573731246115, 0.0)","(0.008805274220465155, 0.16030175932848598, 0.04817685383686203)","(-0.0030949534094882967, -0.00014590191479452657, 0.04877406895078127)","[-0.0011935523782570095, 0.0002740168065565318, 0.0006262948226443965]","[-0.026750000193715096, 0.05299999937415123, 0.03999999910593033]","[0.0, -0.0, 0.4608779621423685]","[-0.05877089500427246, 0.11748769134283066, 0.03999999910593033]","[0.0, 0.0, -0.3517795407241465]","[0.026750000193715096, 0.05299999937415123, 0.03999999910593033]","[0.0, 0.0, -0.5879751819075093]","[0.06668677181005478, 0.11290871351957321, 0.03999999910593033]","[0.0, -0.0, 0.22743507682518696]",0.4565891602729232,-1.0293151983806998,"(0.0, 0.0, 0.0, 0.0, 0.0, 0.0)",-1.7541932224898906,-0.8118832174104256,0.18583148288548923,"(0.0, 0.0, 0.0, 0.0, 0.0, 0.0)",-0.9544133757293068,-0.5919804707680624,-0.9612705687616756,"(0.0, 0.0, 0.0, 0.0, 0.0, 0.0)",1.312656101738745,0.8148895811953542,-0.12495947120518179,"(0.0, 0.0, 0.0, 0.0, 0.0, 0.0)",0.625137553643394,True,"(-0.02246615581540471, 0.18241706134722446, 0.02399973454248646)","(0.9986863931975362, 0.05123883270822103, -0.00026469755432496694)",-0.0018443834612683673,12.734217860402328,True,"(0.03870959016782902, 0.18135593697657548, 0.023997716044379027)","(-0.9953040509812058, -0.09677103449881742, -0.0022831956617496516)",5.01484668134465e-05,6.015057956775043
85,Move,"(0.0214, 0.0, 0.0265)","(0.0, 0.038950512916757454, 0.0)","(0.009313751882421409, 0.16024614994548098, 0.04815842531091613)","(-0.0007717800507116107, -1.4747665049406561e-05, 0.045604016439204476)","[-0.0006850747163007556, 0.00021840742355153098, 0.0006078662966984977]","[-0.026750000193715096, 0.05299999937415123, 0.03999999910593033]","[0.0, -0.0, 0.4565891042772621]","[-0.058494023978710175, 0.117624431848526, 0.03999999910593033]","[0.0, 0.0, -0.3552940513452241]","[0.026750000193715096, 0.05299999937415123, 0.03999999910593033]","[0.0, 0.0, -0.591980465008773]","[0.06692640483379364, 0.11274828016757965, 0.03999999910593033]","[0.0, -0.0, 0.222909093560181]",0.4521484147988288,-1.065778913782662,"(0.0, 0.0, 0.0, 0.0, 0.0, 0.0)",-2.113045393511814,-0.8109770119225931,0.21748931707978886,"(0.0, 0.0, 0.0, 0.0, 0.0, 0.0)",-1.124394640794853,-0.5961349473599526,-0.9970743820536653,"(0.0, 0.0, 0.0, 0.0, 0.0, 0.0)",1.5634699250973663,0.8142854098206294,-0.1450011299339414,"(0.0, 0.0, 0.0, 0.0, 0.0, 0.0)",0.7106674205322837,True,"(-0.02196131590720736, 0.18242580517451165, 0.02399973454248646)","(0.9986863931975362, 0.05123883270822103, -0.00026469755432496694)",-0.001782106042477546,13.28856694914296,True,"(0.039283891561315516, 0.18048190191744484, 0.0239998533381265)","(-0.9988107702497616, -0.04875473254679237, -0.00014590191428184932)",-1.4278849455184134e-05,12.773642304359802
86,Move,"(0.0218, 0.0, 0.027600000000000003)","(0.0, 0.034222415973104825, 0.0)","(0.009832144697142931, 0.16018467454664193, 0.048086784557488396)","(0.003410277716366016, 4.3256852400597596e-05, 0.04218692074858338)","[-0.00016668190157923327, 0.00015693202471248058, 0.000536225543270763]","[-0.026750000193715096, 0.05299999937415123, 0.03999999910593033]","[0.0, -0.0, 0.4521484249584146]","[-0.05820673331618309, 0.11776475608348846, 0.03999999910593033]","[0.0, 0.0, -0.35882856412644587]","[0.026750000193715096, 0.05299999937415123, 0.03999999910593033]","[0.0, 0.0, -0.5961349776032621]","[0.0671742781996727, 0.11258085072040558, 0.03999999910593033]","[0.0, -0.0, 0.21815047072534222]",0.4476156226594009,-1.0878701134626931,"(0.0, 0.0, 0.0, 0.0, 0.0, 0.0)",-1.9784093058900578,-0.8101377193031171,0.20143022867424187,"(0.0, 0.0, 0.0, 0.0, 0.0, 0.0)",-1.065284904728424,-0.6003498094449166,-1.0115669003913381,"(0.0, 0.0, 0.0, 0.0, 0.0, 0.0)",1.5818768401766081,0.8136988922351125,-0.14076422052404403,"(0.0, 0.0, 0.0, 0.0, 0.0, 0.0)",0.7028070572725402,True,"(-0.02144520883296474, 0.1824366038110588, 0.02399973454248646)","(0.9986863931975362, 0.05123883270822103, -0.00026469755432496694)",-0.00172075993008382,12.36159246412498,True,"(0.03985439918759601, 0.18044524843502668, 0.0239998533381265)","(-0.9988107702497616, -0.04875473254679237, -0.00014590191428184932)",-7.434960557095757e-06,12.774670616167212
87,Move,"(0.0225, 0.0, 0.0285)","(0.0, 0.034222415973104825, 0.0)","(0.010332745929038496, 0.16016800644374152, 0.04814442319446079)","(0.0027388468394763037, 0.00021560388371208393, 0.03871753681795929)","[0.0003339193303163318, 0.0001402639218120727, 0.0005938641802431602]","[-0.026750000193715096, 0.05299999937415123, 0.03999999910593033]","[0.0, -0.0, 0.44761562123212084]","[-0.05791284516453743, 0.11790668219327927, 0.03999999910593033]","[0.0, 0.0, -0.36252213351362333]","[0.026750000193715096, 0.05299999937415123, 0.03999999910593033]","[0.0, 0.0, -0.6003498603825205]","[0.06742504239082336, 0.11240994185209274, 0.03999999910593033]","[0.0, -0.0, 0.21334907010656823]",0.44309581913475893,-1.0847528459140763,"(0.0, 0.0, 0.0, 0.0, 0.0, 0.0)",-1.9719104492617587,-0.8092928901710573,0.2027589916943488,"(0.0, 0.0, 0.0, 0.0, 0.0, 0.0)",-1.0310757891000584,-0.6045319036113557,-1.0037025999453884,"(0.0, 0.0, 0.0, 0.0, 0.0, 0.0)",1.5758318023964737,0.8131099438724828,-0.14134760703112315,"(0.0, 0.0, 0.0, 0.0, 0.0, 0.0)",0.7031023658588147,True,"(-0.020912707354514788, 0.18244230533328107, 0.02399973454248646)","(0.9986863931975362, 0.05123883270822103, -0.00026469755432496694)",-0.0016571424771289955,13.295714231287082,True,"(0.040431320836207346, 0.1804047273154451, 0.0239998533381265)","(-0.9988107702497616, -0.04875473254679237, -0.00014590191428184932)",-1.0686665802660188e-05,12.183132252177169
88,Move,"(0.0229, 0.0, 0.0293)","(0.0, 0.034222415973104825, 0.0)","(0.010837614078980904, 0.16014061781707895, 0.04819761031881047)","(0.0021783057261276525, 0.0003771385695134139, 0.035220614534326816)","[0.0008387874802587396, 0.00011287529514950045, 0.0006470513045928397]","[-0.026750000193715096, 0.05299999937415123, 0.03999999910593033]","[0.0, -0.0, 0.4430958216817526]","[-0.057619161903858185, 0.11804686486721039, 0.03999999910593033]","[0.0, 0.0, -0.3661970527383517]","[0.026750000193715096, 0.05299999937415123, 0.03999999910593033]","[0.0, 0.0, -0.60453193532461]","[0.06767314672470093, 0.11223931610584259, 0.03999999910593033]","[0.0, -0.0, 0.20857806379671529]",0.43851138804038503,-1.1002634626497405,"(0.0, 0.0, 0.0, 0.0, 0.0, 0.0)",-2.0034934778516384,-0.8084393862962642,0.2048409299503471,"(0.0, 0.0, 0.0, 0.0, 0.0, 0.0)",-1.0557617210697672,-0.6087462248317459,-1.0114370928936458,"(0.0, 0.0, 0.0, 0.0, 0.0, 0.0)",1.5556459216215333,0.8125231292647952,-0.14083550584502336,"(0.0, 0.0, 0.0, 0.0, 0.0, 0.0)",0.7017346660648106,True,"(-0.02038217898473621, 0.18244795421944862, 0.02399978363615874)","(0.9992505465725922, 0.03870786340450541, -0.00021560388204319993)",-0.00161270944099919,13.452709216984823,True,"(0.04100413439258271, 0.180362115246419, 0.0239998533381265)","(-0.9988107702497616, -0.04875473254679237, -0.00014590191428184932)",7.296308180111685e-08,11.296049328411444
89,Move,"(0.024100000000000003, 0.0, 0.030100000000000002)","(0.0, 0.025689501260104535, 0.0)","(0.011351685179593571, 0.16010428702740234, 0.04822630826873704)","(0.000812061684025575, 0.0003802266196783002, 0.03166463236004414)","[0.0013528585808714067, 7.654450547289748e-05, 0.0006757492545194088]","[-0.026750000193715096, 0.05299999937415123, 0.03999999910593033]","[0.0, -0.0, 0.43851137259548456]","[-0.05732063576579094, 0.11818770319223404, 0.03999999910593033]","[0.0, 0.0, -0.36992798416734923]","[0.026750000193715096, 0.05299999937415123, 0.03999999910593033]","[0.0, 0.0, -0.6087461914324792]","[0.0679224357008934, 0.11206632107496262, 0.03999999910593033]","[0.0, -0.0, 0.20377690730580972]",0.43393096046645874,-1.099302617742308,"(0.0, 0.0, 0.0, 0.0, 0.0, 0.0)",-1.7851727531713348,-0.8076378740409202,0.1923629412825489,"(0.0, 0.0, 0.0, 0.0, 0.0, 0.0)",-0.9853374684260947,-0.612929315052655,-1.003941653018201,"(0.0, 0.0, 0.0, 0.0, 0.0, 0.0)",1.6123107890251025,0.8119306472080914,-0.1421956936089114,"(0.0, 0.0, 0.0, 0.0, 0.0, 0.0)",0.7065529421493197,True,"(-0.019843644976537303, 0.1824496452088502, 0.02399962210148019)","(0.9993797471981015, 0.03521333066844016, -0.0003771385605904327)",-0.0015694723301038886,11.503527080230677,True,"(0.04158079668173636, 0.18031638232468028, 0.0239998533381265)","(-0.9988107702497616, -0.04875473254679237, -0.00014590191428184932)",1.0480220012646429e-05,11.02253567963242
90,Move,"(0.0252, 0.0, 0.0308)","(0.0, 0.017139133254584316, 0.0)","(0.01187880201997463, 0.16005201362309088, 0.04825176783154775)","(-0.00048243835070535307, 0.00038628384883590376, 0.02795514442392707)","[0.001879975421252466, 2.4271101161432718e-05, 0.0007012088173301151]","[-0.026750000193715096, 0.05299999937415123, 0.03999999910593033]","[0.0, -0.0, 0.43393096073225196]","[-0.05702172964811325, 0.11832704395055771, 0.03999999910593033]","[0.0, 0.0, -0.3737069445473234]","[0.026750000193715096, 0.05299999937415123, 0.03999999910593033]","[0.0, 0.0, -0.6129292687486019]","[0.06816915422677994, 0.11189357936382294, 0.03999999910593033]","[0.0, -0.0, 0.19900137376915084]",0.42915426715803273,-1.1464063940222347,"(0.0, 0.0, 0.0, 0.0, 0.0, 0.0)",-1.9078133683467238,-0.8068033847098101,0.20027743946645282,"(0.0, 0.0, 0.0, 0.0, 0.0, 0.0)",-1.0177209018502418,-0.6172652931947825,-1.040634754110602,"(0.0, 0.0, 0.0, 0.0, 0.0, 0.0)",1.6019097786371153,0.8113152909457663,-0.14768550295803484,"(0.0, 0.0, 0.0, 0.0, 0.0, 0.0)",0.727426602667786,True,"(-0.0193021725442055, 0.18244712942288144, 0.023999619013430267)","(0.9994986451651514, 0.031659338918420994, -0.0003802266105139134)",-0.0015150820835606736,11.916123335297877,True,"(0.04215374772287037, 0.1802686557007273, 0.0239998533381265)","(-0.9988107702497616, -0.04875473254679237, -0.00014590191428184932)",4.259403831442335e-06,11.466884365826322
91,Move,"(0.0265, 0.0, 0.0317)","(0.0, 0.01321039710834508, 0.0)","(0.01240594908094405, 0.16002074269934638, 0.04829531406362294)","(-0.0006595365415539973, 0.0005617536419086342, 0.024189494324066488)","[0.002407122482221885, -6.999822583064752e-06, 0.000744755049405306]","[-0.026750000193715096, 0.05299999937415123, 0.03999999910593033]","[0.0, -0.0, 0.4291543087556106]","[-0.05670933797955513, 0.11847089231014252, 0.03999999910593033]","[0.0, 0.0, -0.37764914583245235]","[0.026750000193715096, 0.05299999937415123, 0.03999999910593033]","[0.0, 0.0, -0.6172653264740494]","[0.06842412054538727, 0.11171343177556992, 0.03999999910593033]","[0.0, -0.0, 0.19405000194536698]",0.42422650857404154,-1.1826620601578886,"(0.0, 0.0, 0.0, 0.0, 0.0, 0.0)",-2.071665463206391,-0.805920382055334,0.21192063707423886,"(0.0, 0.0, 0.0, 0.0, 0.0, 0.0)",-1.0903032526234353,-0.6217053711397031,-1.065618706780941,"(0.0, 0.0, 0.0, 0.0, 0.0, 0.0)",1.5670937079474887,0.8107101910233833,-0.14522398137192305,"(0.0, 0.0, 0.0, 0.0, 0.0, 0.0)",0.7202712574373917,True,"(-0.01873730690510625, 0.18244201894464573, 0.023999612956201545)","(0.9996092058179504, 0.027951501369370822, -0.00038628383923793383)",-0.001468058247908782,13.842709563704101,True,"(0.042747584217880594, 0.1802164824162129, 0.0239998533381265)","(-0.9988107702497616, -0.04875473254679237, -0.00014590191428184932)",4.326494258630247e-06,10.879033878839783
92,Move,"(0.0253, 0.0, 0.033)","(0.0, 0.004593706591249077, 0.0)","(0.012950799898600094, 0.15998808894923988, 0.048334182976914455)","(-0.0008471897808132586, 0.0007158138304522442, 0.020290935729376684)","[0.00295197329987793, -3.9653572689563044e-05, 0.0007836239626968222]","[-0.026750000193715096, 0.05299999937415123, 0.03999999910593033]","[0.0, -0.0, 0.42422654649217334]","[-0.056386351585388184, 0.11861772835254669, 0.03999999910593033]","[0.0, 0.0, -0.3816938462401197]","[0.026750000193715096, 0.05299999937415123, 0.03999999910593033]","[0.0, 0.0, -0.6217052955980262]","[0.0686844065785408, 0.11152782291173935, 0.03999999910593033]","[0.0, -0.0, 0.18900484356977537]",0.419099418919195,-1.2305015171631675,"(0.0, 0.0, 0.0, 0.0, 0.0, 0.0)",-2.126194153535797,-0.8050141216710358,0.21750249223157928,"(0.0, 0.0, 0.0, 0.0, 0.0, 0.0)",-1.1212876864959012,-0.6262804805020418,-1.0980262469612574,"(0.0, 0.0, 0.0, 0.0, 0.0, 0.0)",1.5959480415895397,0.8100881698615533,-0.14928507883919087,"(0.0, 0.0, 0.0, 0.0, 0.0, 0.0)",0.7351173798738088,True,"(-0.018155890227708527, 0.18243502438418788, 0.023999437486428427)","(0.9997072907102743, 0.024187131570363535, -0.0005617536123580772)",-0.0014398919980674147,14.138402557803957,True,"(0.04335380017680532, 0.18015953824952102, 0.0239998533381265)","(-0.9988107702497616, -0.04875473254679237, -0.00014590191428184932)",1.8549102601406766e-05,9.932494794281174
