OSUrobotics/InHand-Manipulation/AnalyseData/Data/Trial Data/Tries/new_hand_human_sub1_2v2_c_n_1_kpNone_kdNone_dp1_step5_save_data.csv
,Phase,human_cube_pos,human_cube_orn,Cube_Pos,Cube_Orn,Cube_pos_in_start_pos,b'l_prox_pin'_link_pos,b'l_prox_pin'_link_orn,b'l_distal_pin'_link_pos,b'l_distal_pin'_link_orn,b'r_prox_pin'_link_pos,b'r_prox_pin'_link_orn,b'r_distal_pin'_link_pos,b'r_distal_pin'_link_orn,b'l_prox_pin'_joint_angle,b'l_prox_pin'_joint_vel,b'l_prox_pin'_joint_react_forces,b'l_prox_pin'_joint_motor_torque,b'l_distal_pin'_joint_angle,b'l_distal_pin'_joint_vel,b'l_distal_pin'_joint_react_forces,b'l_distal_pin'_joint_motor_torque,b'r_prox_pin'_joint_angle,b'r_prox_pin'_joint_vel,b'r_prox_pin'_joint_react_forces,b'r_prox_pin'_joint_motor_torque,b'r_distal_pin'_joint_angle,b'r_distal_pin'_joint_vel,b'r_distal_pin'_joint_react_forces,b'r_distal_pin'_joint_motor_torque,in_contact_l,contact_point_l_dist,contact_normal_l_dist,contact_distance_l_dist,contact_norm_force_l_dist,in_contact_r,contact_point_r_dist,contact_normal_r_dist,contact_distance_r_dist,contact_norm_force_r_dist
0,Open,,,,,,"[-0.026750000193715096, 0.05299999937415123, 0.03999999910593033]","[0.0, -0.0, 0.4254700097131474]","[-0.056467924267053604, 0.11858082562685013, 0.03999999910593033]","[0.0, -0.0, 0.4254700097131474]","[0.026750000193715096, 0.05299999937415123, 0.03999999910593033]","[0.0, 0.0, -0.4429245237535421]","[0.057608019560575485, 0.1180521547794342, 0.03999999910593033]","[0.0, 0.0, -0.5266622746639338]",0.5399229999999999,27.46872,"(0.0, 0.0, 0.0, 0.0, 0.0, 0.0)",-4.377393708535371,5.294901130302062e-32,0.0,"(0.0, 0.0, 0.0, 0.0, 0.0, 0.0)",-0.30017707799641646,-0.5623038734984663,-28.651050680519948,"(0.0, 0.0, 0.0, 0.0, 0.0, 0.0)",144.45470973647488,-0.10456727132876567,-4.999096204557077,"(0.0, 0.0, 0.0, 0.0, 0.0, 0.0)",33.97911746732963,False,,,,,False,,,,
1,Open,,,,,,"[-0.026750000193715096, 0.05299999937415123, 0.03999999910593033]","[0.0, -0.0, 0.894166469119967]","[-0.08288749307394028, 0.09808415919542313, 0.03999999910593033]","[0.0, -0.0, 0.894166894674561]","[0.026750000193715096, 0.05299999937415123, 0.03999999910593033]","[0.0, 0.0, -0.9122733503889549]","[0.08369457721710205, 0.09706035256385803, 0.03999999910593033]","[0.0, 0.0, -0.9997066729229968]",0.96174983227,16.220004472800003,"(0.0, 0.0, 0.0, 0.0, 0.0, 0.0)",-2.5959652512206968,5.681494863714967e-07,3.553320838026869e-05,"(0.0, 0.0, 0.0, 0.0, 0.0, 0.0)",-0.18114955764248034,-0.9780460127037736,-15.785439661232708,"(0.0, 0.0, 0.0, 0.0, 0.0, 0.0)",2.503992476159733,-0.0786900142246732,2.098357403184359,"(0.0, 0.0, 0.0, 0.0, 0.0, 0.0)",0.15360133560797545,False,,,,,False,,,,
2,Open,,,,,,"[-0.026750000193715096, 0.05299999937415123, 0.03999999910593033]","[0.0, -0.0, 1.170927100750299]","[-0.09307006001472473, 0.08102945238351822, 0.03999999910593033]","[0.0, -0.0, 1.1709279927689973]","[0.026750000193715096, 0.05299999937415123, 0.03999999910593033]","[0.0, 0.0, -1.181618964677462]","[0.09336595237255096, 0.08031877130270004, 0.03999999910593033]","[0.0, 0.0, -1.233247876832181]",1.2108343584571122,9.577750441143678,"(0.0, 0.0, 0.0, 0.0, 0.0, 0.0)",-1.5367816122769582,9.012180617793662e-07,6.275974057005224e-06,"(0.0, 0.0, 0.0, 0.0, 0.0, 0.0)",-0.1083256720668905,-1.2204570900414513,-9.3211442655613,"(0.0, 0.0, 0.0, 0.0, 0.0, 0.0)",1.4819475463743526,-0.046466145575958295,1.239071567699341,"(0.0, 0.0, 0.0, 0.0, 0.0, 0.0)",0.09166748660725833,False,,,,,False,,,,
3,Open,,,,,,"[-0.026750000193715096, 0.05299999937415123, 0.03999999910593033]","[0.0, -0.0, 1.334351465706577]","[-0.09674673527479172, 0.06986585259437561, 0.03999999910593033]","[0.0, -0.0, 1.33435435145599]","[0.026750000193715096, 0.05299999937415123, 0.03999999910593033]","[0.0, 0.0, -1.3406650641721125]","[0.09685182571411133, 0.06942359358072281, 0.03999999910593033]","[0.0, 0.0, -1.3711530696282732]",1.3579162851496,5.655565729344001,"(0.0, 0.0, 0.0, 0.0, 0.0, 0.0)",-0.9088150211252332,3.4316066113876724e-06,0.0001607445165674468,"(0.0, 0.0, 0.0, 0.0, 0.0, 0.0)",-0.06444344013525093,-1.3635984108023202,-5.504042378604797,"(0.0, 0.0, 0.0, 0.0, 0.0, 0.0)",0.8762522980402716,-0.02744024570882781,0.7315266716392431,"(0.0, 0.0, 0.0, 0.0, 0.0, 0.0)",0.05446985052483407,False,,,,,False,,,,
4,Open,,,,,,"[-0.026750000193715096, 0.05299999937415123, 0.03999999910593033]","[0.0, -0.0, 1.4308518944899675]","[-0.09804610908031464, 0.06304314732551575, 0.03999999910593033]","[0.0, -0.0, 1.4308566269594332]","[0.026750000193715096, 0.05299999937415123, 0.03999999910593033]","[0.0, 0.0, -1.4345798203875788]","[0.09808305650949478, 0.06277728080749512, 0.03999999910593033]","[0.0, 0.0, -1.4525855975984745]",1.4447666872179874,3.339555007520341,"(0.0, 0.0, 0.0, 0.0, 0.0, 0.0)",-0.5371183361845069,4.8269553674989e-06,2.0878160072459843e-05,"(0.0, 0.0, 0.0, 0.0, 0.0, 0.0)",-0.03821759960562203,-1.448121925594662,-3.2500819841423465,"(0.0, 0.0, 0.0, 0.0, 0.0, 0.0)",0.5178266556878065,-0.016205556838873442,0.4320218239148067,"(0.0, 0.0, 0.0, 0.0, 0.0, 0.0)",0.0322808466635012,False,,,,,False,,,,
5,Open,,,,,,"[-0.026750000193715096, 0.05299999937415123, 0.03999999910593033]","[0.0, -0.0, 1.487834617901085]","[-0.09850236773490906, 0.05896640568971634, 0.03999999910593033]","[0.0, -0.0, 1.4878390921106803]","[0.026750000193715096, 0.05299999937415123, 0.03999999910593033]","[0.0, 0.0, -1.4900358577435544]","[0.09851532429456711, 0.05880843847990036, 0.03999999910593033]","[0.0, 0.0, -1.5006695807985118]",1.4960509811353493,1.9719738363906854,"(0.0, 0.0, 0.0, 0.0, 0.0, 0.0)",-0.3173274216127963,4.509251873886308e-06,-3.168767150011037e-05,"(0.0, 0.0, 0.0, 0.0, 0.0, 0.0)",-0.022624215793833224,-1.498032215844392,-1.9191409108162163,"(0.0, 0.0, 0.0, 0.0, 0.0, 0.0)",0.30591369390909257,-0.00957062017308593,0.2551417656412126,"(0.0, 0.0, 0.0, 0.0, 0.0, 0.0)",0.019102112305110365,False,,,,,False,,,,
6,Open,,,,,,"[-0.026750000193715096, 0.05299999937415123, 0.03999999910593033]","[0.0, -0.0, 1.5214821319654974]","[-0.09866246581077576, 0.05654918774962425, 0.03999999910593033]","[0.0, -0.0, 1.5214858439169519]","[0.026750000193715096, 0.05299999937415123, 0.03999999910593033]","[0.0, 0.0, -1.5227821585534602]","[0.09866702556610107, 0.05645570904016495, 0.03999999910593033]","[0.0, 0.0, -1.529061933448946]",1.5263338438506127,1.164430830650334,"(0.0, 0.0, 0.0, 0.0, 0.0, 0.0)",-0.18743587261192823,3.6440993970645793e-06,-4.480530101024996e-05,"(0.0, 0.0, 0.0, 0.0, 0.0, 0.0)",-0.013379159967550349,-1.527503743133955,-1.1332335164278682,"(0.0, 0.0, 0.0, 0.0, 0.0, 0.0)",0.18068846528573543,-0.005652184024362593,0.1506807000213291,"(0.0, 0.0, 0.0, 0.0, 0.0, 0.0)",0.011293655891939093,False,,,,,False,,,,
7,Close,,,"(0.010000824637423049, 0.16001319418745247, 0.017848014970055004)","(-0.00026934863811186216, 1.6834304115272585e-05, -2.2671484573282825e-09)",,"[-0.026750000193715096, 0.05299999937415123, 0.03999999910593033]","[0.0, -0.0, 1.2784808254221978]","[-0.09569569677114487, 0.07374827563762665, 0.03999999910593033]","[0.0, -0.0, 1.034582661993943]","[0.026750000193715096, 0.05299999937415123, 0.03999999910593033]","[0.0, 0.0, -1.2792482299640686]","[0.0957116037607193, 0.0736953467130661, 0.03999999910593033]","[0.0, 0.0, -1.0390562259147462]",1.210632571455348,-16.283535238809286,"(0.0, 0.0, 0.0, 0.0, 0.0, 0.0)",2.771136716181199,-0.3095085607892871,-15.746535439217235,"(0.0, 0.0, 0.0, 0.0, 0.0, 0.0)",0.3469037989659341,-1.211323385283169,16.3019569408845,"(0.0, 0.0, 0.0, 0.0, 0.0, 0.0)",-2.7749564531312414,0.30617317599991634,15.835479338328643,"(0.0, 0.0, 0.0, 0.0, 0.0, 0.0)",-0.3479929302165593,False,,,,,False,,,,
8,Close,,,"(0.010001648057231211, 0.16002636889308344, 0.03133184175509247)","(-0.0005384699893107284, 3.3654401557527444e-05, -9.06094284338731e-09)",,"[-0.026750000193715096, 0.05299999937415123, 0.03999999910593033]","[0.0, -0.0, 1.0006360422079206]","[-0.08736064285039902, 0.0918632224202156, 0.03999999910593033]","[0.0, -0.0, 0.4880565025715103]","[0.026750000193715096, 0.05299999937415123, 0.03999999910593033]","[0.0, 0.0, -1.001089448203126]","[0.08737824857234955, 0.09183574467897415, 0.03999999910593033]","[0.0, 0.0, -0.49069812233338583]",0.9605724271186684,-9.615264723164493,"(0.0, 0.0, 0.0, 0.0, 0.0, 0.0)",1.6441783201079794,-0.5513218025251249,-9.298144061583436,"(0.0, 0.0, 0.0, 0.0, 0.0, 0.0)",0.21014173445603831,-0.9609803457758583,9.626142554022893,"(0.0, 0.0, 0.0, 0.0, 0.0, 0.0)",-1.6464751946207798,0.5493522946545342,9.350664461360347,"(0.0, 0.0, 0.0, 0.0, 0.0, 0.0)",-0.2108204377510729,False,,,,,False,,,,
9,Close,,,"(0.010002470404691093, 0.16003952644115657, 0.04045997120998789)","(-0.0008073642479911328, 5.0460303253361964e-05, -2.0369923505779015e-08)",,"[-0.026750000193715096, 0.05299999937415123, 0.03999999910593033]","[0.0, -0.0, 0.8365715799965936]","[-0.0801992267370224, 0.1012408509850502, 0.03999999910593033]","[0.0, -0.0, 0.16533874626364803]","[0.026750000193715096, 0.05299999937415123, 0.03999999910593033]","[0.0, 0.0, -0.8368392086626993]","[0.08021213859319687, 0.10122654587030411, 0.03999999910593033]","[0.0, 0.0, -0.1668985823484083]",0.8129144124893025,-5.677717666381402,"(0.0, 0.0, 0.0, 0.0, 0.0, 0.0)",0.9736078226475493,-0.6941096683608667,-5.490444078796776,"(0.0, 0.0, 0.0, 0.0, 0.0, 0.0)",0.12593397924105265,-0.8131552843771866,5.684140916724979,"(0.0, 0.0, 0.0, 0.0, 0.0, 0.0)",-0.9749785244213759,0.6929466958025952,5.521456795952681,"(0.0, 0.0, 0.0, 0.0, 0.0, 0.0)",-0.12634715317523504,False,,,,,False,,,,
10,Close,,,"(0.010003291824242136, 0.16005266914270105, 0.04523936165140331)","(-0.0010760316083767074, 6.725202012489063e-05, -3.618265319583079e-08)",,"[-0.026750000193715096, 0.05299999937415123, 0.03999999910593033]","[0.0, -0.0, 0.7396932119518481]","[-0.07528240978717804, 0.10618463158607483, 0.03999999910593033]","[0.0, 0.0, -0.025223688738047617]","[0.026750000193715096, 0.05299999937415123, 0.03999999910593033]","[0.0, 0.0, -0.7398511766938903]","[0.07529081404209137, 0.10617695748806, 0.03999999910593033]","[0.0, -0.0, 0.02430263317545323]",0.7257238314308083,-3.352635504821555,"(0.0, 0.0, 0.0, 0.0, 0.0, 0.0)",0.5758654822812497,-0.7784262532781683,-3.242260203768412,"(0.0, 0.0, 0.0, 0.0, 0.0, 0.0)",0.0750123771406224,-0.725866063871885,3.3564283699169333,"(0.0, 0.0, 0.0, 0.0, 0.0, 0.0)",-0.5766799137830688,0.7777395376647703,3.260573592131318,"(0.0, 0.0, 0.0, 0.0, 0.0, 0.0)",-0.0752606958188736,False,,,,,False,,,,
11,Close,,,"(0.009997966950406065, 0.16004795201914346, 0.046616050094935475)","(-0.0009640430328522325, -5.7324486097668704e-05, 4.2980615420070005e-09)",,"[-0.026750000193715096, 0.05299999937415123, 0.03999999910593033]","[0.0, -0.0, 0.682487397988505]","[-0.0721622109413147, 0.10887245088815689, 0.03999999910593033]","[0.0, 0.0, -0.13775029188859572]","[0.026750000193715096, 0.05299999937415123, 0.03999999910593033]","[0.0, 0.0, -0.6825807377410441]","[0.07216742634773254, 0.10886821150779724, 0.03999999910593033]","[0.0, -0.0, 0.1372064129763775]",0.6742386185346878,-1.979696494258342,"(0.0, 0.0, 0.0, 0.0, 0.0, 0.0)",0.34037467823530393,-0.8282145265472606,-1.9144534778819295,"(0.0, 0.0, 0.0, 0.0, 0.0, 0.0)",0.04449932044982575,-0.674322605213594,1.981936139029174,"(0.0, 0.0, 0.0, 0.0, 0.0, 0.0)",-0.3408573424145132,0.8278090365055835,1.9252671252731466,"(0.0, 0.0, 0.0, 0.0, 0.0, 0.0)",-0.04464739446319682,False,,,,,False,,,,
12,Close,,,"(0.009998679410322496, 0.16003066597344334, 0.0474253884764576)","(-0.0006112814540129935, -4.2805404436077314e-05, 1.9447426774393396e-07)",,"[-0.026750000193715096, 0.05299999937415123, 0.03999999910593033]","[0.0, -0.0, 0.6487079580530938]","[-0.07024932652711868, 0.11037428677082062, 0.03999999910593033]","[0.0, 0.0, -0.20419532625251113]","[0.026750000193715096, 0.05299999937415123, 0.03999999910593033]","[0.0, 0.0, -0.6487631098841893]","[0.07025248557329178, 0.11037188768386841, 0.03999999910593033]","[0.0, -0.0, 0.20387417727936794]",0.6438371618585478,-1.1689909828946077,"(0.0, 0.0, 0.0, 0.0, 0.0, 0.0)",0.20110328062585062,-0.8576133287829941,-1.1304144347684295,"(0.0, 0.0, 0.0, 0.0, 0.0, 0.0)",0.026365137971139978,-0.6438867551525752,1.1703134707353389,"(0.0, 0.0, 0.0, 0.0, 0.0, 0.0)",-0.20138889834359572,0.857373897412956,1.136799615752827,"(0.0, 0.0, 0.0, 0.0, 0.0, 0.0)",-0.026453134766811503,False,,,,,False,,,,
13,Close,,,"(0.008562352819313064, 0.15963169911231415, 0.04795936059784778)","(0.002880050037504477, -0.0018080766405500393, 0.027156574699580344)",,"[-0.026750000193715096, 0.05299999937415123, 0.03999999910593033]","[0.0, -0.0, 0.6287615983534538]","[-0.06909634172916412, 0.11123047024011612, 0.03999999910593033]","[0.0, 0.0, -0.24342883421715172]","[0.026750000193715096, 0.05299999937415123, 0.03999999910593033]","[0.0, 0.0, -0.6288059721302652]","[0.06909892708063126, 0.1112285852432251, 0.03999999910593033]","[0.0, -0.0, 0.24295585513718987]",0.6258854057058539,-0.6902774854894381,"(0.0, 0.0, 0.0, 0.0, 0.0, 0.0)",0.11878846609148704,-0.8749713231347032,-0.6674313830745814,"(0.0, 0.0, 0.0, 0.0, 0.0, 0.0)",0.015594191474811038,-0.6259255556368085,0.6912982329409242,"(0.0, 0.0, 0.0, 0.0, 0.0, 0.0)",0.23889456753769728,0.8745816224765113,0.6767593625972839,"(0.0, 0.0, 0.0, 0.0, 0.0, 0.0)",0.18939691443679915,False,,,,,True,"(0.040048198705117485, 0.17954190147604243, 0.02399995236517949)","(-0.9999968496142797, -0.00250969405768167, -4.6874861287478436e-05)",-8.481535683957195e-06,2.863336982423626
14,Move,,,"(0.003226703519616097, 0.15887842572556865, 0.048057042824217085)","(0.00733137607255103, 0.004060605831319912, 0.12411081910370701)","[0.0, 0.0, 0.0]","[-0.026750000193715096, 0.05299999937415123, 0.03999999910593033]","[0.0, -0.0, 0.5601465041237582]","[-0.06500434130430222, 0.11399676650762558, 0.03999999910593033]","[0.0, 0.0, -0.31665092698218517]","[0.026750000193715096, 0.05299999937415123, 0.03999999910593033]","[0.0, 0.0, -0.5704848668453074]","[0.0656328946352005, 0.11359802633523941, 0.03999999910593033]","[0.0, -0.0, 0.3056114929739557]",0.5446837312064112,-3.7110582962534506,"(0.0, 0.0, 0.0, 0.0, 0.0, 0.0)",-53.09089974488294,-0.8536776571297426,5.5487419201507295,"(0.0, 0.0, 0.0, 0.0, 0.0, 0.0)",-27.521806933097807,-0.5577558572400253,3.0549589579805563,"(0.0, 0.0, 0.0, 0.0, 0.0, 0.0)",39.845640952717,0.8551826533669656,-5.0192908628628805,"(0.0, 0.0, 0.0, 0.0, 0.0, 0.0)",19.520428399002,True,"(-0.031006456029053206, 0.18019920383377602, 0.023994329638221932)","(0.9922239401206523, 0.12433627092149606, -0.005669601818851313)",-0.0005148038489068186,428.5206410406488,True,"(0.03236246380961459, 0.17994971919477992, 0.023997959838382148)","(-0.9993845697424365, -0.035018889211399305, -0.00203940165862912)",0.0005577664042068458,310.72647358115125
15,Move,"(-0.0031000000000000003, 0.0, -0.0002)","(0.0, 0.02079385270826044, 0.0)","(0.003263008606544455, 0.16130558235884088, 0.04819236844559784)","(-0.010990109020328296, 0.0006697204406797765, 0.12032536991973942)","[3.630508692835767e-05, 0.002427156633272226, 0.000135325621380758]","[-0.026750000193715096, 0.05299999937415123, 0.03999999910593033]","[0.0, -0.0, 0.5327906793337871]","[-0.06332162022590637, 0.11502029001712799, 0.03999999910593033]","[0.0, 0.0, -0.30421938128079257]","[0.026750000193715096, 0.05299999937415123, 0.03999999910593033]","[0.0, 0.0, -0.551101438372152]","[0.06445106863975525, 0.11434027552604675, 0.03999999910593033]","[0.0, -0.0, 0.28828574479021635]",0.5333167022270282,0.1262461655024376,"(0.0, 0.0, 0.0, 0.0, 0.0, 0.0)",-1.356620921366907,-0.838160059406048,-0.2760068342670233,"(0.0, 0.0, 0.0, 0.0, 0.0, 0.0)",-0.6824863277341972,-0.5523361695728845,-0.29632362304588855,"(0.0, 0.0, 0.0, 0.0, 0.0, 0.0)",0.8909572347182195,0.8405049698789832,0.268257356938442,"(0.0, 0.0, 0.0, 0.0, 0.0, 0.0)",0.507004343843981,True,"(-0.03014714054785425, 0.18162333381669152, 0.023999284576372123)","(0.9928045145054668, 0.11974424927070577, -0.0007146636686612093)",-0.0007853425874461722,9.901465623725903,True,"(0.032443255688119496, 0.18011747231412575, 0.056000715423627875)","(-0.9928045145054653, -0.1197442492707183, 0.0007146636686617731)",-0.0001518181715837807,6.4636475702263505
16,Move,"(0.0048, 0.0, 0.0011)","(0.0, 0.02079385270826044, 0.0)","(0.004156128058273673, 0.16150018272256328, 0.04851456892305959)","(-0.009180638425886671, 0.0004950664005762297, 0.11036378985995067)","[0.0009294245386575755, 0.0026217569969946286, 0.0004575260988425034]","[-0.026750000193715096, 0.05299999937415123, 0.03999999910593033]","[0.0, -0.0, 0.5273935664770272]","[-0.062986359000206, 0.11521676927804947, 0.03999999910593033]","[0.0, 0.0, -0.3103522460458124]","[0.026750000193715096, 0.05299999937415123, 0.03999999910593033]","[0.0, 0.0, -0.5593480255176568]","[0.06495562195777893, 0.11402729153633118, 0.03999999910593033]","[0.0, -0.0, 0.2809841691932493]",0.5256729087599015,-0.41296334518092664,"(0.0, 0.0, 0.0, 0.0, 0.0, 0.0)",-1.1295608078350083,-0.8373543916679147,0.09394199031243944,"(0.0, 0.0, 0.0, 0.0, 0.0, 0.0)",-0.6128624041447235,-0.5609352287860698,-0.3809476141644937,"(0.0, 0.0, 0.0, 0.0, 0.0, 0.0)",0.6385641982972181,0.840021865698752,-0.0744610206259164,"(0.0, 0.0, 0.0, 0.0, 0.0, 0.0)",0.30290172143184113,True,"(-0.02940390967812089, 0.18161396790939927, 0.02399947377938335)","(0.9936496011541625, 0.11251752760024201, -0.0005254606574317825)",-0.0005422282658715303,9.233315860991192,True,"(0.03342893665650076, 0.18003641622733138, 0.05600052622061665)","(-0.9936496011541621, -0.11251752760024541, 0.0005254606574303893)",-9.225673502151772e-05,3.8747027657652384
17,Move,"(0.004200000000000001, 0.0, 0.0009000000000000001)","(0.0, 0.02528982086139784, 0.0)","(0.004911198096089418, 0.1615952843240668, 0.04866172633678653)","(-0.006074829101385065, -9.389433047439906e-05, 0.09636300619590339)","[0.0016844945764733208, 0.0027168585984981564, 0.0006046835125694469]","[-0.026750000193715096, 0.05299999937415123, 0.03999999910593033]","[0.0, -0.0, 0.5193431688166745]","[-0.062484320253133774, 0.11550646275281906, 0.03999999910593033]","[0.0, 0.0, -0.31735540799584655]","[0.026750000193715096, 0.05299999937415123, 0.03999999910593033]","[0.0, 0.0, -0.5673641335677415]","[0.06544359028339386, 0.11371907591819763, 0.03999999910593033]","[0.0, -0.0, 0.2721821193005921]",0.5180555009475986,-0.3090375437415391,"(0.0, 0.0, 0.0, 0.0, 0.0, 0.0)",-0.5671801279908537,-0.8366401485815181,0.014017748732670615,"(0.0, 0.0, 0.0, 0.0, 0.0, 0.0)",-0.32457590682522186,-0.5687085010098096,-0.3226630665797058,"(0.0, 0.0, 0.0, 0.0, 0.0, 0.0)",0.16322044353886947,0.8395030215963418,-0.010361512725818043,"(0.0, 0.0, 0.0, 0.0, 0.0, 0.0)",0.06159552461457387,True,"(-0.02843748420286485, 0.18166475268527318, 0.023999532331310774)","(0.9941611294243533, 0.10790472991454977, -0.0004669087300085056)",-0.0003568405745086883,3.986494213739484,True,"(0.034499028666322, 0.18000416695822363, 0.05600046766868922)","(-0.994161129424353, -0.10790472991455405, 0.0004669087300025129)",-4.389360770184928e-05,0.6646431492032333
18,Move,"(0.0029, 0.0, 0.0009000000000000001)","(0.0, 0.021265091606298914, 0.0)","(0.005477704242588173, 0.16177523330462998, 0.048773650218519204)","(-0.004386445783350934, 0.000323152969782207, 0.08451380683356098)","[0.0022510007229720763, 0.002896807579061328, 0.0007166073943021198]","[-0.026750000193715096, 0.05299999937415123, 0.03999999910593033]","[0.0, -0.0, 0.5132479972124239]","[-0.06210267171263695, 0.11572311073541641, 0.03999999910593033]","[0.0, 0.0, -0.3233317322646904]","[0.026750000193715096, 0.05299999937415123, 0.03999999910593033]","[0.0, 0.0, -0.573960051323202]","[0.06584324687719345, 0.11346253752708435, 0.03999999910593033]","[0.0, -0.0, 0.2655128224142068]",0.5122670008851035,-0.2354372587457559,"(0.0, 0.0, 0.0, 0.0, 0.0, 0.0)",-0.4748704840724618,-0.8365704129827646,0.002246068220055796,"(0.0, 0.0, 0.0, 0.0, 0.0, 0.0)",-0.2756566241352315,-0.5750471957346588,-0.26091754740221257,"(0.0, 0.0, 0.0, 0.0, 0.0, 0.0)",0.04200538550097475,0.8394758515343608,0.0007245349861619842,"(0.0, 0.0, 0.0, 0.0, 0.0, 0.0)",0.002994589624358325,True,"(-0.027660032938510458, 0.1816656351032339, 0.023999647590798527)","(0.9962603785736464, 0.08640100941022213, -0.00035164924225825035)",-0.0002483422370924071,3.870137457384803,True,"(0.03534055831435402, 0.17996222952768381, 0.056000352409201475)","(-0.9962603785736464, -0.08640100941022365, 0.000351649242253558)",-1.9094047417452377e-05,0.0
19,Move,"(0.0024, 0.0, 0.0009000000000000001)","(0.0, 0.021750293138353336, 0.0)","(0.005987338143528738, 0.16173321768509416, 0.04871097767851674)","(0.002488291409050729, -0.0006689310624865801, 0.07686251718364534)","[0.0027606346239126413, 0.00285479195952551, 0.0006539348542996537]","[-0.026750000193715096, 0.05299999937415123, 0.03999999910593033]","[0.0, -0.0, 0.5083685442935869]","[-0.061796195805072784, 0.1158948689699173, 0.03999999910593033]","[0.0, 0.0, -0.3281257419998658]","[0.026750000193715096, 0.05299999937415123, 0.03999999910593033]","[0.0, 0.0, -0.5796951453121888]","[0.06618935614824295, 0.11323733627796173, 0.03999999910593033]","[0.0, -0.0, 0.2597827295443068]",0.5075559390054517,-0.1950199542519715,"(0.0, 0.0, 0.0, 0.0, 0.0, 0.0)",-0.513870159095799,-0.8365000165272398,-0.001383594184997324,"(0.0, 0.0, 0.0, 0.0, 0.0, 0.0)",-0.2943990936803674,-0.580682218902156,-0.23690481260096696,"(0.0, 0.0, 0.0, 0.0, 0.0, 0.0)",0.03814801292830753,0.8394776341621275,-4.753674044533085e-05,"(0.0, 0.0, 0.0, 0.0, 0.0, 0.0)",0.0027272279330193944,True,"(-0.027037616240309384, 0.18166886444526348, 0.023999768117182487)","(0.9968768211207238, 0.07897183101881736, -0.00023112285829704176)",-0.0001678862940184641,0.0,True,"(0.03606808005482636, 0.17991244288330027, 0.05600023188281752)","(-0.9968768211207236, -0.078971831018821, 0.00023112285830197314)",5.638815419299585e-05,0.0
20,Move,"(0.0029, 0.0, 0.0011)","(0.0, 0.013110913340981403, 0.0)","(0.006468796041821157, 0.16172876185446222, 0.04880608189848343)","(0.0016382904123332111, -0.00044188468386008133, 0.06956587255466154)","[0.0032420925222050602, 0.0028503361288935714, 0.000749039074266343]","[-0.026750000193715096, 0.05299999937415123, 0.03999999910593033]","[0.0, -0.0, 0.5037158814437611]","[-0.06150319054722786, 0.11605723947286606, 0.03999999910593033]","[0.0, 0.0, -0.33273358813400744]","[0.026750000193715096, 0.05299999937415123, 0.03999999910593033]","[0.0, 0.0, -0.585392670294531]","[0.06653191894292831, 0.11301165819168091, 0.03999999910593033]","[0.0, -0.0, 0.25408487352262205]",0.5028793531121364,-0.20076363065259276,"(0.0, 0.0, 0.0, 0.0, 0.0, 0.0)",-0.5113551366729892,-0.8364398487521137,0.002301303642084667,"(0.0, 0.0, 0.0, 0.0, 0.0, 0.0)",-0.28772859206617146,-0.5864207667898795,-0.24675286155528386,"(0.0, 0.0, 0.0, 0.0, 0.0, 0.0)",0.039733058183070595,0.8394775172039197,3.118885541830709e-06,"(0.0, 0.0, 0.0, 0.0, 0.0, 0.0)",0.002839940424170347,True,"(-0.026441903946352485, 0.1816703812657801, 0.023999768117182487)","(0.9968768211207238, 0.07897183101881736, -0.00023112285829704176)",-9.257558328310709e-05,3.8476866602432107,True,"(0.03679103229443258, 0.1798573031420756, 0.05600023188281752)","(-0.9968768211207236, -0.078971831018821, 0.00023112285830197314)",0.00018434892130767027,0.0
21,Move,"(0.0047, 0.0, 0.0012)","(0.0, 0.008604473212332044, 0.0)","(0.007068174446992612, 0.16177414853702457, 0.048829363134747845)","(-0.001219131329218086, 0.0006131322248775448, 0.06102121897598383)","[0.003841470927376515, 0.0028957228114559197, 0.0007723203105307608]","[-0.026750000193715096, 0.05299999937415123, 0.03999999910593033]","[0.0, -0.0, 0.4981679495261383]","[-0.06115281954407692, 0.11624907702207565, 0.03999999910593033]","[0.0, 0.0, -0.3382336191028948]","[0.026750000193715096, 0.05299999937415123, 0.03999999910593033]","[0.0, 0.0, -0.5920088397994435]","[0.06692809611558914, 0.11274714022874832, 0.03999999910593033]","[0.0, -0.0, 0.24746869657059534]",0.49710352570550326,-0.25545240148459003,"(0.0, 0.0, 0.0, 0.0, 0.0, 0.0)",-0.8086220836271443,-0.8363813436332846,0.004845772625322858,"(0.0, 0.0, 0.0, 0.0, 0.0, 0.0)",-0.44862531980941917,-0.5932630725247303,-0.3010279903760038,"(0.0, 0.0, 0.0, 0.0, 0.0, 0.0)",0.04847168715329303,0.8394775248775477,-2.0463007821547308e-07,"(0.0, 0.0, 0.0, 0.0, 0.0, 0.0)",0.0034643036164781664,True,"(-0.02573118829087688, 0.18166838863265258, 0.023999768117182487)","(0.9968768211207238, 0.07897183101881736, -0.00023112285829704176)",-5.640134272474965e-05,6.541190854040774,True,"(0.03763011309745051, 0.179788093438299, 0.05600023188281752)","(-0.9968768211207236, -0.078971831018821, 0.00023112285830197314)",0.0003287714323223617,0.0
22,Move,"(0.007200000000000001, 0.0, 0.0011)","(0.0, 0.017205455766160106, 0.0)","(0.007823939723400994, 0.16180960554776924, 0.0488841502195116)","(-0.0008082259178772193, 0.00040379339693569547, 0.051936082406275536)","[0.004597236203784896, 0.0029311798222005914, 0.0008271073952945129]","[-0.026750000193715096, 0.05299999937415123, 0.03999999910593033]","[0.0, -0.0, 0.4910928646898381]","[-0.060704465955495834, 0.11649090051651001, 0.03999999910593033]","[0.0, 0.0, -0.3452225286675587]","[0.026750000193715096, 0.05299999937415123, 0.03999999910593033]","[0.0, 0.0, -0.6001138381133361]","[0.06741102784872055, 0.11241953819990158, 0.03999999910593033]","[0.0, -0.0, 0.23936368068434838]",0.4897334540950066,-0.32624494652176117,"(0.0, 0.0, 0.0, 0.0, 0.0, 0.0)",-0.4398629370740777,-0.8363055380996313,0.0023463711893188964,"(0.0, 0.0, 0.0, 0.0, 0.0, 0.0)",-0.2688267822715772,-0.6016530971119516,-0.36941385207749633,"(0.0, 0.0, 0.0, 0.0, 0.0, 0.0)",0.05948166712631621,0.8394775243740809,1.3425780487352768e-08,"(0.0, 0.0, 0.0, 0.0, 0.0, 0.0)",0.004250762181281898,True,"(-0.024826022343847697, 0.18165283581730973, 0.023999560286614683)","(0.9985570283679973, 0.053699799038398464, -0.00043895342610026934)",-4.814497504066365e-05,3.776366577527118,True,"(0.03865709705753935, 0.17970064742746567, 0.05600043971338533)","(-0.9985570283679973, -0.05369979903839865, 0.00043895342610403987)",0.0004467808244496525,0.0
23,Move,"(0.009800000000000001, 0.0, 0.0016)","(0.0, 0.01676912345316152, 0.0)","(0.008762085397528896, 0.16167085400062656, 0.04892020860147189)","(0.000110044218341881, 0.0009122046270312976, 0.04020101819563203)","[0.005535381877912799, 0.0027924282750579066, 0.0008631657772548082]","[-0.026750000193715096, 0.05299999937415123, 0.03999999910593033]","[0.0, -0.0, 0.4823568473618121]","[-0.06014851853251457, 0.11678510159254074, 0.03999999910593033]","[0.0, 0.0, -0.35391769842529897]","[0.026750000193715096, 0.05299999937415123, 0.03999999910593033]","[0.0, 0.0, -0.6097993816694316]","[0.06798461079597473, 0.11202293634414673, 0.03999999910593033]","[0.0, -0.0, 0.22967822479309158]",0.48070190428203274,-0.39716642162520766,"(0.0, 0.0, 0.0, 0.0, 0.0, 0.0)",-0.3862917971901589,-0.8362624484953826,0.0028821300379036486,"(0.0, 0.0, 0.0, 0.0, 0.0, 0.0)",-0.24693276784587787,-0.6116180571260449,-0.4364922872107347,"(0.0, 0.0, 0.0, 0.0, 0.0, 0.0)",0.07028060114018347,0.8394775244071134,-8.808687113059932e-10,"(0.0, 0.0, 0.0, 0.0, 0.0, 0.0)",0.005021993476635274,True,"(-0.023704726589292076, 0.18162994265746454, 0.02399900690758686)","(0.9991023419467007, 0.04235003651614912, -0.0009923324539185476)",-3.50297650872724e-05,3.4537539668818282,True,"(0.039883602207835774, 0.17958105660498097, 0.056000993092413145)","(-0.9991023419467003, -0.04235003651615704, 0.0009923324539210514)",0.0005737507864648146,0.0
24,Move,"(0.0128, 0.0, 0.0023)","(0.0, 0.029272662214448894, 0.0)","(0.009814191728077386, 0.16159115145000966, 0.048914410770508024)","(-0.0001411620924509977, -0.0006320648656493766, 0.024464389620411264)","[0.006587488208461289, 0.0027127257244410063, 0.0008573679462909392]","[-0.026750000193715096, 0.05299999937415123, 0.03999999910593033]","[0.0, -0.0, 0.4717810030226832]","[-0.05947209149599075, 0.11713474243879318, 0.03999999910593033]","[0.0, 0.0, -0.36445492671384366]","[0.026750000193715096, 0.05299999937415123, 0.03999999910593033]","[0.0, 0.0, -0.6210286601991349]","[0.06864478439092636, 0.11155618727207184, 0.03999999910593033]","[0.0, -0.0, 0.21844888983501676]",0.46978193256478384,-0.4797832973612638,"(0.0, 0.0, 0.0, 0.0, 0.0, 0.0)",-0.3361759861934408,-0.8362311728121381,0.0011460201317974868,"(0.0, 0.0, 0.0, 0.0, 0.0, 0.0)",-0.22491512794439678,-0.6231197745618622,-0.501877840340695,"(0.0, 0.0, 0.0, 0.0, 0.0, 0.0)",0.08080646886096333,0.8394775244049462,5.779376976988715e-11,"(0.0, 0.0, 0.0, 0.0, 0.0, 0.0)",0.005773575770339081,True,"(-0.022346978585808516, 0.1815897163985682, 0.023999533859557855)","(0.9994136455574919, 0.03423665425373647, -0.00046538048293032425)",-1.4103425503046882e-05,2.7022035178691493,True,"(0.04130410346274413, 0.17942739264881225, 0.05600046614044214)","(-0.999413645557492, -0.03423665425373242, 0.00046538048292695596)",0.0007331096063212625,0.0
25,Move,"(0.0143, 0.0, 0.0024)","(0.0, 0.04689525167183564, 0.0)","(0.010994232844852616, 0.16166829767644086, 0.04894019854355953)","(-0.0011658110553507827, 0.0006536639427905577, 0.008801523744697963)","[0.007767529325236519, 0.0027898719508722136, 0.0008831557193424433]","[-0.026750000193715096, 0.05299999937415123, 0.03999999910593033]","[0.0, -0.0, 0.4602949032282884]","[-0.05873328447341919, 0.11750635504722595, 0.03999999910593033]","[0.0, 0.0, -0.37589427578323736]","[0.026750000193715096, 0.05299999937415123, 0.03999999910593033]","[0.0, 0.0, -0.6328313116436954]","[0.06933296471834183, 0.11105765402317047, 0.03999999910593033]","[0.0, -0.0, 0.20664635293506922]",0.45822666427663256,-0.4963615244270997,"(0.0, 0.0, 0.0, 0.0, 0.0, 0.0)",-0.30622922615358017,-0.8361811589860078,0.0019151608357263108,"(0.0, 0.0, 0.0, 0.0, 0.0, 0.0)",-0.21118328877975287,-0.6349373213966332,-0.5054713414259951,"(0.0, 0.0, 0.0, 0.0, 0.0, 0.0)",0.0813849410809076,0.8394775244050884,-3.791633673699835e-12,"(0.0, 0.0, 0.0, 0.0, 0.0, 0.0)",0.0058148764180574715,True,"(-0.020873192855664503, 0.18152568702793764, 0.023999288506707718)","(0.9999349874722746, 0.011380495900950176, -0.0007107333330677889)",-2.835854958485224e-05,2.964468574920824,True,"(0.04278708556621959, 0.17988183584900624, 0.05600072768007188)","(-0.9999349760710137, -0.011380475254198691, 0.0007269201126624344)",0.0007690457332660436,0.0
26,Move,"(0.0162, 0.0, 0.0033)","(0.0, 0.06007597818289681, 0.0)","(0.0122612022493555, 0.1616455580148846, 0.048868212322196604)","(-0.0005657618000820317, -4.271715214947673e-06, -0.006620061790656634)","[0.009034498729739403, 0.002767132289315938, 0.0008111694979795192]","[-0.026750000193715096, 0.05299999937415123, 0.03999999910593033]","[0.0, -0.0, 0.4481501602112165]","[-0.05794753506779671, 0.11789001524448395, 0.03999999910593033]","[0.0, 0.0, -0.38799385970392875]","[0.026750000193715096, 0.05299999937415123, 0.03999999910593033]","[0.0, 0.0, -0.6450144854335089]","[0.0700371265411377, 0.11053455621004105, 0.03999999910593033]","[0.0, -0.0, 0.19446297099144477]",0.4459397748941606,-0.5304873511331545,"(0.0, 0.0, 0.0, 0.0, 0.0, 0.0)",0.02133222837425561,-0.8361452021174374,-0.00028275883831064283,"(0.0, 0.0, 0.0, 0.0, 0.0, 0.0)",-0.028051514543096175,-0.6472154597671205,-0.5282184769383118,"(0.0, 0.0, 0.0, 0.0, 0.0, 0.0)",0.08504667763928046,0.8394775244050791,2.4780177909633494e-13,"(0.0, 0.0, 0.0, 0.0, 0.0, 0.0)",0.0060762998608101405,True,"(-0.0193156261933252, 0.18144651321801292, 0.023999396725642014)","(0.9999724456905279, 0.007398975341449829, -0.0006025143987663972)",-1.0060587042354837e-05,0.0,True,"(0.04433170387781662, 0.17967711036163664, 0.056000619233123265)","(-0.9999724358531745, -0.007398988093939866, 0.0006184731640494138)",0.0007955041997215252,0.0
27,Move,"(0.0181, 0.0, 0.0054)","(0.0, 0.06476916854150959, 0.0)","(0.01375023732949822, 0.1615759361548082, 0.04890969739788667)","(0.00028969893438491326, 0.002410034128116895, -0.019284155964173526)","[0.010523533809882123, 0.002697510429239547, 0.0008526545736695854]","[-0.026750000193715096, 0.05299999937415123, 0.03999999910593033]","[0.0, -0.0, 0.43519937526428726]","[-0.05710456147789955, 0.11828859150409698, 0.03999999910593033]","[0.0, 0.0, -0.40086693347502017]","[0.026750000193715096, 0.05299999937415123, 0.03999999910593033]","[0.0, 0.0, -0.6576427226112332]","[0.07076021283864975, 0.10998333990573883, 0.03999999910593033]","[0.0, -0.0, 0.18183480348586475]",0.432844126699344,-0.5652420775771106,"(0.0, 0.0, 0.0, 0.0, 0.0, 0.0)",-0.4760951364613239,-0.8360667283944081,-0.00013776439699999263,"(0.0, 0.0, 0.0, 0.0, 0.0, 0.0)",-0.28927352974309845,-0.659914864743679,-0.5453107740562491,"(0.0, 0.0, 0.0, 0.0, 0.0, 0.0)",0.08779808086538764,0.8394775244050796,-1.3322676295501878e-14,"(0.0, 0.0, 0.0, 0.0, 0.0, 0.0)",0.006272720034783188,True,"(-0.01765777211002391, 0.1813389719249844, 0.02399852065535681)","(0.9998505891067501, -0.01722246353508144, -0.0014785846839746224)",-1.702406004855931e-05,4.393489172765181,True,"(0.0459356251565332, 0.17991530771369169, 0.05600147934464319)","(-0.9998505891067502, 0.017222463535084172, 0.0014785846839735753)",0.0007041195090319837,0.0
28,Move,"(0.02, 0.0, 0.0074)","(0.0, 0.0695007561436662, 0.0)","(0.015085687353254636, 0.16150565797172778, 0.04884130148459766)","(-8.857637096705014e-05, -0.0018637204546427541, -0.03790312008090119)","[0.011858983833638538, 0.002627232246159128, 0.0007842586603805726]","[-0.026750000193715096, 0.05299999937415123, 0.03999999910593033]","[0.0, -0.0, 0.42155069385568866]","[-0.05621066316962242, 0.11869680136442184, 0.03999999910593033]","[0.0, 0.0, -0.4145171057914703]","[0.026750000193715096, 0.05299999937415123, 0.03999999910593033]","[0.0, 0.0, -0.6705233087462381]","[0.07149051874876022, 0.10941175371408463, 0.03999999910593033]","[0.0, -0.0, 0.16895420549009482]",0.419082255975697,-0.5924177598476881,"(0.0, 0.0, 0.0, 0.0, 0.0, 0.0)",-0.7751136117702961,-0.836078553871361,-0.0025848754294470143,"(0.0, 0.0, 0.0, 0.0, 0.0, 0.0)",-0.4772571890030696,-0.672826949965588,-0.5528700295338417,"(0.0, 0.0, 0.0, 0.0, 0.0, 0.0)",0.0890149076613979,0.8394775244050796,0.0,"(0.0, 0.0, 0.0, 0.0, 0.0, 0.0)",0.006359585026359051,True,"(-0.015906979760865497, 0.1812009267901068, 0.023999797265994743)","(0.9995479862627602, -0.030062973315118806, -0.0002019740460381065)",1.1005346443659798e-05,1.4922013705215424,True,"(0.047568810322190555, 0.17966018627795138, 0.05600020273400525)","(-0.9995479862627603, 0.030062973315116336, 0.00020197404603799482)",0.0006724618649420002,0.0
29,Move,"(0.0228, 0.0, 0.0083)","(0.0, 0.056189129938705444, 0.0)","(0.01679647531437989, 0.1614398049303943, 0.04871930970082495)","(0.0034045766177620996, 0.002633227603064064, -0.05670702458019564)","[0.01356977179476379, 0.002561379204825659, 0.0006622668766078643]","[-0.026750000193715096, 0.05299999937415123, 0.03999999910593033]","[0.0, -0.0, 0.4064460230811684]","[-0.0552150122821331, 0.11913428455591202, 0.03999999910593033]","[0.0, 0.0, -0.42959325902306256]","[0.026750000193715096, 0.05299999937415123, 0.03999999910593033]","[0.0, 0.0, -0.6842100163706679]","[0.07225839048624039, 0.10879414528608322, 0.03999999910593033]","[0.0, -0.0, 0.15526760662122033]",0.40364390084349655,-0.6725043179873558,"(0.0, 0.0, 0.0, 0.0, 0.0, 0.0)",-0.29915779887402427,-0.8360385840811809,0.0001718127052228748,"(0.0, 0.0, 0.0, 0.0, 0.0, 0.0)",-0.2209557671953988,-0.6867142895036584,-0.6010441695852444,"(0.0, 0.0, 0.0, 0.0, 0.0, 0.0)",0.09676942046574821,0.8394775244050796,0.0,"(0.0, 0.0, 0.0, 0.0, 0.0, 0.0)",0.006913106835584707,True,"(-0.013973990049084534, 0.18101658451715, 0.02399802685183165)","(0.9984852676210645, -0.054984361671696444, -0.001972388209136902)",-3.362603171616512e-05,3.1343292175946624,True,"(0.04930079780277756, 0.1793720803467523, 0.05600197314816836)","(-0.9984852676210644, 0.05498436167169799, 0.0019723882091463186)",0.00036586712771501464,0.0
30,Move,"(0.0254, 0.0, 0.0083)","(0.0, 0.04296127953784044, 0.0)","(0.018498678035981625, 0.161342543203, 0.04858204115718478)","(-0.0028735843307924587, -0.000719145734408956, -0.08025364025186427)","[0.015271974516365527, 0.00246411747743136, 0.0005249983329676938]","[-0.026750000193715096, 0.05299999937415123, 0.03999999910593033]","[0.0, -0.0, 0.389816799168578]","[-0.05411136522889137, 0.11959846317768097, 0.03999999910593033]","[0.0, 0.0, -0.44618163735166816]","[0.026750000193715096, 0.05299999937415123, 0.03999999910593033]","[0.0, 0.0, -0.698695189331067]","[0.07306177914142609, 0.1081291139125824, 0.03999999910593033]","[0.0, -0.0, 0.14078228738974438]",0.3867784077347294,-0.7292065041576149,"(0.0, 0.0, 0.0, 0.0, 0.0, 0.0)",0.0007445362320745042,-0.8359419785235831,0.013538428416941486,"(0.0, 0.0, 0.0, 0.0, 0.0, 0.0)",-0.053611533404784625,-0.7013146686192023,-0.628664386703696,"(0.0, 0.0, 0.0, 0.0, 0.0, 0.0)",0.22119155574817284,0.8394321590139329,-0.010887693875231473,"(0.0, 0.0, 0.0, 0.0, 0.0, 0.0)",0.06912720970889745,True,"(-0.011849568277312608, 0.1807877564929169, 0.02399907109215389)","(0.9978961385216216, -0.06482619273979168, -0.0009281478868924545)",8.455527003065207e-06,0.0,True,"(0.05112900945092169, 0.17903368741129946, 0.056000928907846116)","(-0.9978961385216221, 0.06482619273978481, 0.0009281478868955642)",7.965749246961373e-05,0.0
31,Move,"(0.027100000000000003, 0.0, 0.008)","(0.0, 0.04296127953784044, 0.0)","(0.020436697349982505, 0.16116721478600143, 0.04865083197450845)","(-0.0016848723460945133, 3.16523859201641e-05, -0.08516716360830062)","[0.017209993830366407, 0.002288789060432783, 0.000593789150291367]","[-0.026750000193715096, 0.05299999937415123, 0.03999999910593033]","[0.0, -0.0, 0.37252399865369573]","[-0.05295565724372864, 0.12006164342164993, 0.03999999910593033]","[0.0, 0.0, -0.46091644649697877]","[0.026750000193715096, 0.05299999937415123, 0.03999999910593033]","[0.0, 0.0, -0.7132624877337671]","[0.07385992258787155, 0.10744865238666534, 0.03999999910593033]","[0.0, -0.0, 0.12420931655989738]",0.3694129635234553,-0.7466447103004954,"(0.0, 0.0, 0.0, 0.0, 0.0, 0.0)",-1.6449427023445955,-0.8330115032508753,0.10294105830501726,"(0.0, 0.0, 0.0, 0.0, 0.0, 0.0)",-0.8550406227883244,-0.7158435396752042,-0.619449350177349,"(0.0, 0.0, 0.0, 0.0, 0.0, 0.0)",1.588800329029668,0.8369112046583207,-0.13454836385124747,"(0.0, 0.0, 0.0, 0.0, 0.0, 0.0)",0.8320406770139213,True,"(-0.009796771433678318, 0.18062271585431286, 0.0239992631302662)","(0.9963367826898103, -0.08551300253012721, -0.0007361097745821156)",-4.673965954811948e-05,8.127365481179607,True,"(0.0531050352383841, 0.17870500579564397, 0.0560007368697338)","(-0.9963367826898102, 0.08551300253012772, 0.000736109774585296)",-1.544429964298833e-05,10.476899320724286
32,Move,"(0.028399999999999998, 0.0, 0.0086)","(0.0, 0.04296127953784044, 0.0)","(0.0223201133336461, 0.1609013232593882, 0.04866814154766681)","(-0.00012558977935379624, -0.0010192027524223738, -0.08846282953468174)","[0.019093409814030002, 0.00202289753381954, 0.0006110987234497281]","[-0.026750000193715096, 0.05299999937415123, 0.03999999910593033]","[0.0, -0.0, 0.355326038477251]","[-0.051798515021800995, 0.12050238251686096, 0.03999999910593033]","[0.0, 0.0, -0.4745902969052577]","[0.026750000193715096, 0.05299999937415123, 0.03999999910593033]","[0.0, 0.0, -0.7272818790912344]","[0.07461860030889511, 0.10678286850452423, 0.03999999910593033]","[0.0, -0.0, 0.10692619822309336]",0.3522792447203544,-0.7312280469591028,"(0.0, 0.0, 0.0, 0.0, 0.0, 0.0)",-2.1841717602546953,-0.8293707881798484,0.13092705119685993,"(0.0, 0.0, 0.0, 0.0, 0.0, 0.0)",-1.1401300676443777,-0.729729065339422,-0.5873272967831038,"(0.0, 0.0, 0.0, 0.0, 0.0, 0.0)",1.7674809298443388,0.8336848601810244,-0.12556892459677485,"(0.0, 0.0, 0.0, 0.0, 0.0, 0.0)",0.9177924781014751,True,"(-0.007815587488229775, 0.18046766894493538, 0.0239992631302662)","(0.9963367826898103, -0.08551300253012721, -0.0007361097745821156)",-1.0032151530258254e-05,17.824479377913768,True,"(0.055097924591889155, 0.1783837011216881, 0.056000032412345135)","(-0.9963754682788485, 0.08506424166611957, 3.165238592277188e-05)",3.806197462951615e-05,9.454766266977717
33,Move,"(0.0287, 0.0, 0.009300000000000001)","(0.0, 0.05152386484812462, 0.0)","(0.024089008892218624, 0.1606599600170763, 0.048688747112760083)","(0.0019925623590173447, -6.300274896641035e-05, -0.09003454423403061)","[0.020862305372602526, 0.0017815342915076526, 0.0006317042885429988]","[-0.026750000193715096, 0.05299999937415123, 0.03999999910593033]","[0.0, -0.0, 0.33909784364634354]","[-0.05069982260465622, 0.12089996784925461, 0.03999999910593033]","[0.0, 0.0, -0.4874100764442658]","[0.026750000193715096, 0.05299999937415123, 0.03999999910593033]","[0.0, 0.0, -0.7400036850608612]","[0.07529892772436142, 0.10616955906152725, 0.03999999910593033]","[0.0, -0.0, 0.09106548009591407]",0.3362995132478285,-0.6715951059570018,"(0.0, 0.0, 0.0, 0.0, 0.0, 0.0)",-2.481545909794597,-0.8257671663176555,0.17776739402518993,"(0.0, 0.0, 0.0, 0.0, 0.0, 0.0)",-1.2659803870399464,-0.7421778274830659,-0.5217900675769723,"(0.0, 0.0, 0.0, 0.0, 0.0, 0.0)",1.7829513460272681,0.8304565982816546,-0.1470185683920935,"(0.0, 0.0, 0.0, 0.0, 0.0, 0.0)",0.9195007741659076,True,"(-0.0059495165871704045, 0.18031896778687306, 0.023999733811866333)","(0.9959956133235031, -0.08940172139407176, -0.000265428174447152)",-6.59688826809221e-05,18.221119932727625,True,"(0.056801273352253316, 0.17695570202189892, 0.05600026618813367)","(-0.9959956133235035, 0.08940172139406666, 0.00026542817445033)",-1.6331890752542273e-05,11.9861201172643
34,Move,"(0.030100000000000002, 0.0, 0.010199999999999999)","(0.0, 0.05152386484812462, 0.0)","(0.025755253659638055, 0.16045426261480256, 0.04876680199419634)","(-0.0005256028851344392, -0.000871319244568945, -0.0941880627486776)","[0.022528550140021957, 0.0015758368892339059, 0.0007097591699792571]","[-0.026750000193715096, 0.05299999937415123, 0.03999999910593033]","[0.0, -0.0, 0.3233586600756982]","[-0.04962821304798126, 0.12126849591732025, 0.03999999910593033]","[0.0, 0.0, -0.4990654304929747]","[0.026750000193715096, 0.05299999937415123, 0.03999999910593033]","[0.0, 0.0, -0.7519615951534582]","[0.07593123614788055, 0.10558522492647171, 0.03999999910593033]","[0.0, -0.0, 0.07530043817604952]",0.3205547128770711,-0.6729478260923655,"(0.0, 0.0, 0.0, 0.0, 0.0, 0.0)",-2.3130643549250722,-0.8216926209073377,0.1755532432916747,"(0.0, 0.0, 0.0, 0.0, 0.0, 0.0)",-1.1947794350632421,-0.754071207132472,-0.5063004266455375,"(0.0, 0.0, 0.0, 0.0, 0.0, 0.0)",2.4303580548614416,0.8264964215464813,-0.18375139304977067,"(0.0, 0.0, 0.0, 0.0, 0.0, 0.0)",1.2775462892515117,True,"(-0.00418840906146125, 0.18016188592112367, 0.023999733811866333)","(0.9959956133235031, -0.08940172139407176, -0.000265428174447152)",-6.858203553064736e-05,16.445806740089118,True,"(0.0585517835201434, 0.17665417825441898, 0.05600026618813367)","(-0.9959956133235035, 0.08940172139406666, 0.00026542817445033)",9.830740259189171e-06,12.860273694491749
35,Move,"(0.0319, 0.0, 0.0108)","(0.0, 0.04296127953784044, 0.0)","(0.02747414133633497, 0.16020158947072696, 0.0487637410596774)","(0.0013020358908929644, 7.585780411160033e-05, -0.09598279496375385)","[0.024247437816718873, 0.0013231637451583123, 0.0007066982354603166]","[-0.026750000193715096, 0.05299999937415123, 0.03999999910593033]","[0.0, -0.0, 0.3073297843184201]","[-0.048531047999858856, 0.12162642180919647, 0.03999999910593033]","[0.0, 0.0, -0.5105142735074117]","[0.026750000193715096, 0.05299999937415123, 0.03999999910593033]","[0.0, 0.0, -0.7637095253685884]","[0.0765455886721611, 0.10500384122133255, 0.03999999910593033]","[0.0, -0.0, 0.05968770560197052]",0.30444121937622426,-0.6932420656859049,"(0.0, 0.0, 0.0, 0.0, 0.0, 0.0)",-2.62715352687602,-0.8171586197205315,0.16450398509899572,"(0.0, 0.0, 0.0, 0.0, 0.0, 0.0)",-1.3154902051080033,-0.7658026491037103,-0.5023715594461208,"(0.0, 0.0, 0.0, 0.0, 0.0, 0.0)",2.426273246904972,0.8225725748398448,-0.19789480367145235,"(0.0, 0.0, 0.0, 0.0, 0.0, 0.0)",1.3341048552516839,True,"(-0.002418317994276116, 0.1800114911355581, 0.023999843529356482)","(0.9953207174670471, -0.09662631699006917, -0.00015571068429875602)",-0.00011112318090700018,19.607539486866848,True,"(0.06027517008718245, 0.17631148063253754, 0.05600015647064352)","(-0.995320717467048, 0.09662631699006113, 0.0001557106842997305)",-1.021387592685908e-05,18.164670418988383
36,Move,"(0.0339, 0.0, 0.0108)","(0.0, 0.02580120233223217, 0.0)","(0.029203162099858057, 0.15996264527507445, 0.04881467986826548)","(-0.0004306286520059766, -0.0008832147887883342, -0.09958604771932784)","[0.02597645858024196, 0.0010842195495057994, 0.0007576370440483954]","[-0.026750000193715096, 0.05299999937415123, 0.03999999910593033]","[0.0, -0.0, 0.29075419059492347]","[-0.047390587627887726, 0.12197801470756531, 0.03999999910593033]","[0.0, 0.0, -0.5221390808763877]","[0.026750000193715096, 0.05299999937415123, 0.03999999910593033]","[0.0, 0.0, -0.7755215252882179]","[0.07715637981891632, 0.1044120341539383, 0.03999999910593033]","[0.0, -0.0, 0.04312539972935528]",0.2877633545037291,-0.7177912381835791,"(0.0, 0.0, 0.0, 0.0, 0.0, 0.0)",-2.957771635568266,-0.81199966347006,0.2144473650396538,"(0.0, 0.0, 0.0, 0.0, 0.0, 0.0)",-1.4911582542985313,-0.777641458778316,-0.5087822024257145,"(0.0, 0.0, 0.0, 0.0, 0.0, 0.0)",3.0739380017306135,0.8176337283886275,-0.24316847291146854,"(0.0, 0.0, 0.0, 0.0, 0.0, 0.0)",1.65250151707478,True,"(-0.0006019566053920081, 0.17982608092405594, 0.02399992338223675)","(0.9953971839933925, -0.09583548582658712, -7.58578040354725e-05)",-0.00011896034260520581,20.344714143420838,True,"(0.062068739855463725, 0.17597567011300916, 0.056000076617763246)","(-0.9953971839933923, 0.095835485826588, 7.585780403304043e-05)",7.619345426467742e-06,17.369705264330182
37,Move,"(0.0365, 0.0, 0.0108)","(0.0, 0.008604473212332044, 0.0)","(0.031066414192179707, 0.15966330421158068, 0.048795188837772216)","(0.00139475021017409, -1.6211082564950764e-05, -0.10106659658793836)","[0.02783971067256361, 0.000784878486012025, 0.0007381460135551313]","[-0.026750000193715096, 0.05299999937415123, 0.03999999910593033]","[0.0, -0.0, 0.27315819146386333]","[-0.04617371782660484, 0.12233050912618637, 0.03999999910593033]","[0.0, 0.0, -0.5339707065108112]","[0.026750000193715096, 0.05299999937415123, 0.03999999910593033]","[0.0, 0.0, -0.7876620800626395]","[0.07777681946754456, 0.10379629582166672, 0.03999999910593033]","[0.0, -0.0, 0.025942527513985958]",0.2699425266725672,-0.7717557367170651,"(0.0, 0.0, 0.0, 0.0, 0.0, 0.0)",-3.3940708676030846,-0.8062449596634649,0.2121338693204779,"(0.0, 0.0, 0.0, 0.0, 0.0, 0.0)",-1.6676358719415585,-0.7898572275606436,-0.5268383486739763,"(0.0, 0.0, 0.0, 0.0, 0.0, 0.0)",3.1158832967205985,0.812520365073143,-0.2602154861753476,"(0.0, 0.0, 0.0, 0.0, 0.0, 0.0)",1.7375846867161675,True,"(0.0012977381777880756, 0.17963623164126039, 0.023999901923678107)","(0.9948161888811942, -0.10168943342069399, -9.731636267903027e-05)",-0.00016215631688480434,25.129074666721117,True,"(0.06391816890110082, 0.17558382655631843, 0.05600009807632189)","(-0.9948161888811934, 0.1016894334207014, 9.731636267550988e-05)",-7.053002154515049e-06,22.996487550971448
38,Move,"(0.037899999999999996, 0.0, 0.0111)","(0.0, 0.004461061568097505, 0.0)","(0.03288118310544803, 0.1593871156977537, 0.04884117235838728)","(-0.000640394902365235, -0.0005874634731062853, -0.10436660651261502)","[0.02965447958583193, 0.0005086899721850613, 0.0007841295341701957]","[-0.026750000193715096, 0.05299999937415123, 0.03999999910593033]","[0.0, -0.0, 0.2553247813368135]","[-0.04493429511785507, 0.12266585230827332, 0.03999999910593033]","[0.0, 0.0, -0.5460013372726751]","[0.026750000193715096, 0.05299999937415123, 0.03999999910593033]","[0.0, 0.0, -0.799564197023306]","[0.07837776839733124, 0.10318539291620255, 0.03999999910593033]","[0.0, -0.0, 0.007733001361323202]",0.2521778367555663,-0.7552612212595391,"(0.0, 0.0, 0.0, 0.0, 0.0, 0.0)",-4.1416261876937845,-0.800128175239991,0.2874879331461714,"(0.0, 0.0, 0.0, 0.0, 0.0, 0.0)",-2.0339683134171516,-0.8016310562186373,-0.4960570034589578,"(0.0, 0.0, 0.0, 0.0, 0.0, 0.0)",3.0593249425632547,0.8063432552910944,-0.22893550200783958,"(0.0, 0.0, 0.0, 0.0, 0.0, 0.0)",1.702192366952168,True,"(0.0032238393916841357, 0.17940270284965337, 0.02399986541833724)","(0.9947599621940905, -0.102237956294928, -0.00013382170354282128)",-0.00016122367036803539,32.85783507765406,True,"(0.06582744232186954, 0.17520366202462298, 0.05600013458166276)","(-0.9947599621940902, 0.10223795629492848, 0.00013382170354061938)",1.5038225278426107e-05,19.12864226737569
39,Move,"(0.0394, 0.0, 0.0114)","(0.0, 0.004461061568097505, 0.0)","(0.03468072421316207, 0.15907150483266602, 0.04882158166534962)","(0.0012335206663264303, -0.000122137576858838, -0.10572040222166737)","[0.03145402069354597, 0.00019307910709737142, 0.0007645388411325338]","[-0.026750000193715096, 0.05299999937415123, 0.03999999910593033]","[0.0, -0.0, 0.2376385643085877]","[-0.043699391186237335, 0.12297655642032623, 0.03999999910593033]","[0.0, 0.0, -0.5570988350702923]","[0.026750000193715096, 0.05299999937415123, 0.03999999910593033]","[0.0, 0.0, -0.8108654338875602]","[0.07894162088632584, 0.10259874165058136, 0.03999999910593033]","[0.0, 0.0, -0.009535665968388826]",0.23449608738589475,-0.7541964024630661,"(0.0, 0.0, 0.0, 0.0, 0.0, 0.0)",-4.50953387592149,-0.7934705850139142,0.30403906253081714,"(0.0, 0.0, 0.0, 0.0, 0.0, 0.0)",-2.184251469318304,-0.8128488186361223,-0.4760261233581008,"(0.0, 0.0, 0.0, 0.0, 0.0, 0.0)",3.398697032406786,0.8002198813838597,-0.2663590929630223,"(0.0, 0.0, 0.0, 0.0, 0.0, 0.0)",1.8563574265868472,True,"(0.00508540454025571, 0.17917548094688482, 0.02399986541833724)","(0.9947599621940905, -0.102237956294928, -0.00013382170354282128)",-0.00020238664604521153,35.75928756838839,True,"(0.06763463861934484, 0.174805202615395, 0.05600001661099875)","(-0.9943809464332298, 0.10586091403014938, 1.5851039530402427e-05)",-1.427037362719051e-06,24.81030235328383
40,Move,"(0.043000000000000003, 0.0, 0.0117)","(0.0, 0.0044209189953016365, 0.0)","(0.036611256766387844, 0.1587486463164336, 0.04884747290442867)","(-0.0006183753559454095, -0.00021183424795881073, -0.1090566138365205)","[0.033384553246771746, -0.0001297794091350557, 0.0007904300802115821]","[-0.026750000193715096, 0.05299999937415123, 0.03999999910593033]","[0.0, -0.0, 0.2186017377642494]","[-0.042364269495010376, 0.12328651547431946, 0.03999999910593033]","[0.0, 0.0, -0.5685955036020895]","[0.026750000193715096, 0.05299999937415123, 0.03999999910593033]","[0.0, 0.0, -0.8227007637715049]","[0.07952497154474258, 0.10197757184505463, 0.03999999910593033]","[0.0, 0.0, -0.02851424108802771]",0.21508881842727445,-0.8431026459032837,"(0.0, 0.0, 0.0, 0.0, 0.0, 0.0)",-5.05352011727005,-0.7858070644556322,0.3336209188306886,"(0.0, 0.0, 0.0, 0.0, 0.0, 0.0)",-2.454693384909262,-0.8248637163511146,-0.5190989802494081,"(0.0, 0.0, 0.0, 0.0, 0.0, 0.0)",3.783298217525185,0.792956676152466,-0.2951725252950927,"(0.0, 0.0, 0.0, 0.0, 0.0, 0.0)",2.1067176324819052,True,"(0.0070655622580338, 0.17893879795110723, 0.023999896587707965)","(0.9942817584456509, -0.10678845576523173, -0.00010265233281879731)",-0.000220833166142684,39.51546940047437,True,"(0.0695887122969759, 0.1743724843830855, 0.056000103412292036)","(-0.9942817584456509, 0.10678845576523116, 0.00010265233281709079)",1.0293713674272365e-05,26.38147494106237
41,Move,"(0.0445, 0.0, 0.0115)","(0.0, 0.01301142957361773, 0.0)","(0.0385161832441203, 0.15840154826233227, 0.04886737639425037)","(-0.00018257237017662287, 2.1179973219517367e-05, -0.11115278817611664)","[0.035289479724504205, -0.00047687746323638036, 0.0008103335700332878]","[-0.026750000193715096, 0.05299999937415123, 0.03999999910593033]","[0.0, -0.0, 0.19914854273851712]","[-0.040994103997945786, 0.12357694655656815, 0.03999999910593033]","[0.0, 0.0, -0.5798421089569206]","[0.026750000193715096, 0.05299999937415123, 0.03999999910593033]","[0.0, 0.0, -0.8343281818017044]","[0.08009087294340134, 0.10136064141988754, 0.03999999910593033]","[0.0, 0.0, -0.04753944797303157]",0.19570901385645093,-0.8254900995640565,"(0.0, 0.0, 0.0, 0.0, 0.0, 0.0)",-5.41402232859132,-0.7775071789182059,0.35603850633811734,"(0.0, 0.0, 0.0, 0.0, 0.0, 0.0)",-2.602118160660519,-0.8363479894940036,-0.4847534127720476,"(0.0, 0.0, 0.0, 0.0, 0.0, 0.0)",4.120277670203542,0.7854940592156786,-0.3107234724043241,"(0.0, 0.0, 0.0, 0.0, 0.0, 0.0)",2.3113099590132262,True,"(0.009058493165525157, 0.17866979644943512, 0.023999896587707965)","(0.9942817584456509, -0.10678845576523173, -0.00010265233281879731)",-0.00025685845041765066,42.349452572137466,True,"(0.07153365573029084, 0.17393147917767277, 0.056000103412292036)","(-0.9942817584456509, 0.10678845576523116, 0.00010265233281709079)",4.230628833113914e-06,30.85888089784086
42,Move,"(0.0469, 0.0, 0.0107)","(0.0, 0.03446676206838401, 0.0)","(0.04050102844165555, 0.15803246074845098, 0.04885996969971268)","(-0.00029225531052569554, -0.0014225683719018742, -0.11303888880929153)","[0.03727432492203945, -0.0008459649771176692, 0.0008029268754955951]","[-0.026750000193715096, 0.05299999937415123, 0.03999999910593033]","[0.0, -0.0, 0.17939513872887644]","[-0.0395972803235054, 0.12384452670812607, 0.03999999910593033]","[0.0, 0.0, -0.5912560548432061]","[0.026750000193715096, 0.05299999937415123, 0.03999999910593033]","[0.0, 0.0, -0.845671217158982]","[0.08063597977161407, 0.10075249522924423, 0.03999999910593033]","[0.0, 0.0, -0.06760825340214491]",0.17583819142492027,-0.8536667217510765,"(0.0, 0.0, 0.0, 0.0, 0.0, 0.0)",-5.224723954985044,-0.769145565714214,0.3613601783310542,"(0.0, 0.0, 0.0, 0.0, 0.0, 0.0)",-2.484708015349167,-0.8476983743587639,-0.48652937939756924,"(0.0, 0.0, 0.0, 0.0, 0.0, 0.0)",5.309257690473644,0.7762682070353949,-0.4307315140986507,"(0.0, 0.0, 0.0, 0.0, 0.0, 0.0)",3.0024064245686928,True,"(0.01108087216529638, 0.17836250326177097, 0.023999896587707965)","(0.9942817584456509, -0.10678845576523173, -0.00010265233281879731)",-0.00025508576906636084,35.31300551971647,True,"(0.07353305696397062, 0.17345410097757868, 0.056000021939932434)","(-0.993828886190332, 0.110924048452502, 2.1179973213314633e-05)",2.1343485875903004e-05,31.543504610644934
43,Move,"(0.048600000000000004, 0.0, 0.009800000000000001)","(0.0, 0.05170537909033201, 0.0)","(0.04241907368411032, 0.15765085143958815, 0.048850968519109764)","(0.0011505619127700976, -0.0010357421880504345, -0.11443998155032867)","[0.03919237016449422, -0.0012275742859804983, 0.000793925694892679]","[-0.026750000193715096, 0.05299999937415123, 0.03999999910593033]","[0.0, -0.0, 0.1596003688562426]","[-0.0381925031542778, 0.1240849420428276, 0.03999999910593033]","[0.0, 0.0, -0.602086341082238]","[0.026750000193715096, 0.05299999937415123, 0.03999999910593033]","[0.0, 0.0, -0.8565119402506431]","[0.08115047961473465, 0.10016553848981857, 0.03999999910593033]","[0.0, 0.0, -0.0876055436936268]",0.15609768964217163,-0.8406459311594409,"(0.0, 0.0, 0.0, 0.0, 0.0, 0.0)",-5.930572293419828,-0.7599773255253188,0.4102383203361913,"(0.0, 0.0, 0.0, 0.0, 0.0, 0.0)",-2.795978536479704,-0.8583954540504558,-0.4520532624559752,"(0.0, 0.0, 0.0, 0.0, 0.0, 0.0)",4.907583436667354,0.7673437128583291,-0.3750361058941617,"(0.0, 0.0, 0.0, 0.0, 0.0, 0.0)",2.7613127181359975,True,"(0.013073103136268582, 0.17805087656803026, 0.023999896587707965)","(0.9942817584456509, -0.10678845576523173, -0.00010265233281879731)",-0.0002666395821207671,46.019784167618134,True,"(0.07550271062808422, 0.1729946369673086, 0.056000021939932434)","(-0.993828886190332, 0.110924048452502, 2.1179973213314633e-05)",3.2132439503196034e-05,31.655821326546818
44,Move,"(0.050100000000000006, 0.0, 0.009800000000000001)","(0.0, 0.05170537909033201, 0.0)","(0.04426941943239102, 0.15729797178713406, 0.04887328240863295)","(-0.0005577928913822197, -0.0008111075569812115, -0.11737123030299752)","[0.041042715912774926, -0.0015804539384345895, 0.0008162395844158662]","[-0.026750000193715096, 0.05299999937415123, 0.03999999910593033]","[0.0, -0.0, 0.1400491423545321]","[-0.03680060803890228, 0.12429505586624146, 0.03999999910593033]","[0.0, 0.0, -0.6120797687146009]","[0.026750000193715096, 0.05299999937415123, 0.03999999910593033]","[0.0, 0.0, -0.8667197225814738]","[0.08162909746170044, 0.09960777312517166, 0.03999999910593033]","[0.0, 0.0, -0.10713273444290948]",0.1365848731809063,-0.8314215459215272,"(0.0, 0.0, 0.0, 0.0, 0.0, 0.0)",-6.334020523895075,-0.7503823113074195,0.41917478531352953,"(0.0, 0.0, 0.0, 0.0, 0.0, 0.0)",-2.9916135274239393,-0.8684954405398377,-0.4261493720462616,"(0.0, 0.0, 0.0, 0.0, 0.0, 0.0)",4.834658889549596,0.7580044511471058,-0.3798339183774981,"(0.0, 0.0, 0.0, 0.0, 0.0, 0.0)",2.7560552631446624,True,"(0.015001739251765123, 0.17774598421093718, 0.023999896587707965)","(0.9942817584456509, -0.10678845576523173, -0.00010265233281879731)",-0.0002900244687804005,48.707977217454804,True,"(0.07740446401799927, 0.17253326675996167, 0.056000021939932434)","(-0.993828886190332, 0.110924048452502, 2.1179973213314633e-05)",3.2517752203892714e-05,32.186883580535714
45,Move,"(0.0514, 0.0, 0.009800000000000001)","(0.0, 0.05170537909033201, 0.0)","(0.04593861630195877, 0.15690250419901877, 0.04887227612645131)","(0.0009583777198056731, -0.001106016218410578, -0.12416334059538446)","[0.042711912782342674, -0.0019759215265498786, 0.0008152333022342223]","[-0.026750000193715096, 0.05299999937415123, 0.03999999910593033]","[0.0, -0.0, 0.12082638463517795]","[-0.03542834892868996, 0.12447507679462433, 0.03999999910593033]","[0.0, 0.0, -0.6204113277138826]","[0.026750000193715096, 0.05299999937415123, 0.03999999910593033]","[0.0, 0.0, -0.8763333307326991]","[0.0820746198296547, 0.09907805174589157, 0.03999999910593033]","[0.0, 0.0, -0.12636001453767026]",0.11742598820002187,-0.8160955158748264,"(0.0, 0.0, 0.0, 0.0, 0.0, 0.0)",-7.559272257816233,-0.7387111978343752,0.6063669901082642,"(0.0, 0.0, 0.0, 0.0, 0.0, 0.0)",-3.8823665605335824,-0.8780303913418436,-0.407303298957874,"(0.0, 0.0, 0.0, 0.0, 0.0, 0.0)",5.586929762752979,0.7485160095443409,-0.3497434572817325,"(0.0, 0.0, 0.0, 0.0, 0.0, 0.0)",2.4243153505922748,True,"(0.016817526839339465, 0.17749255424587818, 0.023999896587707965)","(0.9942817584456509, -0.10678845576523173, -0.00010265233281879731)",-0.000277030424604978,55.47875116042504,True,"(0.07925283833127991, 0.17207128609762418, 0.056000021939932434)","(-0.993828886190332, 0.110924048452502, 2.1179973213314633e-05)",7.115416108525993e-05,23.434184597558755
46,Move,"(0.0522, 0.0, 0.0103)","(0.0, 0.047453757032473835, 0.0)","(0.047309848233096016, 0.1565725448568113, 0.04891421120143936)","(-0.0008520173430339047, -0.0019990820014023597, -0.14344634254896607)","[0.04408314471347992, -0.002305880868757354, 0.0008571683772222727]","[-0.026750000193715096, 0.05299999937415123, 0.03999999910593033]","[0.0, -0.0, 0.10204310629980803]","[-0.03408436104655266, 0.12462546676397324, 0.03999999910593033]","[0.0, 0.0, -0.6256508852350371]","[0.026750000193715096, 0.05299999937415123, 0.03999999910593033]","[0.0, 0.0, -0.8853174541351558]","[0.0824863463640213, 0.09857915341854095, 0.03999999910593033]","[0.0, 0.0, -0.14464561690540095]",0.09873077399815454,-0.7949610526372626,"(0.0, 0.0, 0.0, 0.0, 0.0, 0.0)",-7.4567142258424015,-0.7253293869530165,0.5675136015500772,"(0.0, 0.0, 0.0, 0.0, 0.0, 0.0)",-3.8170793899980233,-0.8868508838246089,-0.36803050506281804,"(0.0, 0.0, 0.0, 0.0, 0.0, 0.0)",5.777524268121119,0.7390937086681476,-0.37874783935618334,"(0.0, 0.0, 0.0, 0.0, 0.0, 0.0)",2.5434224765420295,True,"(0.01843858531116003, 0.17736847156633545, 0.023999896587707965)","(0.9942817584456509, -0.10678845576523173, -0.00010265233281879731)",-0.00013009561497437025,54.13175741767807,True,"(0.08099969206781804, 0.1716117819316596, 0.056000021939932434)","(-0.993828886190332, 0.110924048452502, 2.1179973213314633e-05)",0.00010166135324359769,19.6840921098887
47,Move,"(0.0535, 0.0, 0.0103)","(0.0, 0.047453757032473835, 0.0)","(0.04865306923940257, 0.15603070578469966, 0.04895568331342122)","(-0.0010687780809954495, -0.002107447752251513, -0.16291189053150068)","[0.04542636571978647, -0.0028477199408689924, 0.0008986404892041347]","[-0.026750000193715096, 0.05299999937415123, 0.03999999910593033]","[0.0, -0.0, 0.08291482058580689]","[-0.03271302953362465, 0.12475264817476273, 0.03999999910593033]","[0.0, 0.0, -0.6308952417607913]","[0.026750000193715096, 0.05299999937415123, 0.03999999910593033]","[0.0, 0.0, -0.8937455159482601]","[0.08286850899457932, 0.09810779243707657, 0.03999999910593033]","[0.0, 0.0, -0.16265859329993568]",0.07946062025809132,-0.8290078396587468,"(0.0, 0.0, 0.0, 0.0, 0.0, 0.0)",-7.771731527183293,-0.711317739854056,0.5981546718142082,"(0.0, 0.0, 0.0, 0.0, 0.0, 0.0)",-3.952078304000074,-0.895227103169357,-0.35557962124984954,"(0.0, 0.0, 0.0, 0.0, 0.0, 0.0)",6.081946228871339,0.7293188959367276,-0.42432976670784056,"(0.0, 0.0, 0.0, 0.0, 0.0, 0.0)",2.7528384243926944,True,"(0.020085793793228314, 0.1772194826573717, 0.023999896587707965)","(0.9942817584456509, -0.10678845576523173, -0.00010265233281879731)",-4.306951584937653e-05,55.321291927200264,True,"(0.08269755929877173, 0.17115534692823278, 0.056000021939932434)","(-0.993828886190332, 0.110924048452502, 2.1179973213314633e-05)",0.00010325590483814351,21.802098326348702
48,Move,"(0.054700000000000006, 0.0, 0.0097)","(0.0, 0.0561105901223657, 0.0)","(0.05007100788556191, 0.1553623526094174, 0.04882384461460039)","(0.0018378781505398595, 0.0011067805950289126, -0.19118715747527507)","[0.04684430436594581, -0.0035160731161512637, 0.0007668017903833049]","[-0.026750000193715096, 0.05299999937415123, 0.03999999910593033]","[0.0, -0.0, 0.0628452895331751]","[-0.031271882355213165, 0.12485786527395248, 0.03999999910593033]","[0.0, 0.0, -0.6404195804968944]","[0.026750000193715096, 0.05299999937415123, 0.03999999910593033]","[0.0, 0.0, -0.9014653605524057]","[0.08321505039930344, 0.09767322987318039, 0.03999999910593033]","[0.0, 0.0, -0.17815511793835104]",0.059317924680600535,-0.8465680350670192,"(0.0, 0.0, 0.0, 0.0, 0.0, 0.0)",-9.002797771359639,-0.6998196579436229,0.8268484049955769,"(0.0, 0.0, 0.0, 0.0, 0.0, 0.0)",-4.715883443601497,-0.902869709346697,-0.33708160878187376,"(0.0, 0.0, 0.0, 0.0, 0.0, 0.0)",7.161631727662513,0.7212470662218995,-0.49512536876214114,"(0.0, 0.0, 0.0, 0.0, 0.0, 0.0)",2.9990868152031416,True,"(0.022023491720496023, 0.17681542884386825, 0.023999021249332717)","(0.9823869975430893, -0.1868551058773866, -0.0009779907080674074)",-0.00010504564563455035,66.30830665024392,True,"(0.07512028223878522, 0.12043296226479802, 0.0239974276533672)","(-0.9858677553331051, 0.1675056892659028, -0.0025715866735758017)",-5.577333309947634e-05,26.366133900699275
49,Move,"(0.056100000000000004, 0.0, 0.008400000000000001)","(0.0, 0.07341029366813348, 0.0)","(0.05134012167859215, 0.1551024031040044, 0.04885452457282654)","(-0.00010280876285024579, 0.0014349812960858606, -0.20770872585004904)","[0.04811341815897605, -0.0037760226215642623, 0.0007974817486094549]","[-0.026750000193715096, 0.05299999937415123, 0.03999999910593033]","[0.0, -0.0, 0.042211134724831935]","[-0.029788298532366753, 0.12493586540222168, 0.03999999910593033]","[0.0, 0.0, -0.6413365489492547]","[0.026750000193715096, 0.05299999937415123, 0.03999999910593033]","[0.0, 0.0, -0.9089421393647178]","[0.08354748785495758, 0.09724980592727661, 0.03999999910593033]","[0.0, 0.0, -0.1981341658092352]",0.038461267341897754,-0.8999680130569788,"(0.0, 0.0, 0.0, 0.0, 0.0, 0.0)",-10.593313461542087,-0.6800138416858906,0.8481049228028631,"(0.0, 0.0, 0.0, 0.0, 0.0, 0.0)",-5.614130080683414,-0.9102382415933523,-0.3110692143355011,"(0.0, 0.0, 0.0, 0.0, 0.0, 0.0)",8.909392924212149,0.7084703502746134,-0.5610308466903816,"(0.0, 0.0, 0.0, 0.0, 0.0, 0.0)",3.8450676225132634,True,"(0.02355155912695701, 0.1768288302082936, 0.02399863926098722)","(0.9790807996507419, -0.20346729027594926, -0.001359979053564109)",-8.058931788174649e-05,76.09678072020328,True,"(0.07590902138272235, 0.12016670560130406, 0.0239974276533672)","(-0.9858677553331051, 0.1675056892659028, -0.0025715866735758017)",4.341738897864688e-05,29.373069309532752
50,Move,"(0.0578, 0.0, 0.007200000000000001)","(0.0, 0.08614596121993615, 0.0)","(0.05267619490150052, 0.15467386027417304, 0.04882419323133943)","(0.00011685459890892586, -0.0017679443043916955, -0.21903658686294203)","[0.049449491381884425, -0.004204565451395609, 0.000767150407122344]","[-0.026750000193715096, 0.05299999937415123, 0.03999999910593033]","[0.0, -0.0, 0.02043709903887549]","[-0.02822136878967285, 0.12498496472835541, 0.03999999910593033]","[0.0, 0.0, -0.6435178275404817]","[0.026750000193715096, 0.05299999937415123, 0.03999999910593033]","[0.0, 0.0, -0.9161811519564818]","[0.08386632800102234, 0.09683749079704285, 0.03999999910593033]","[0.0, 0.0, -0.21997477208064617]",0.01654014588742461,-0.9352685568095487,"(0.0, 0.0, 0.0, 0.0, 0.0, 0.0)",-13.154161617517458,-0.6597302859197636,1.0139182573584706,"(0.0, 0.0, 0.0, 0.0, 0.0, 0.0)",-6.623171439913468,-0.9174791723821181,-0.3115266514348818,"(0.0, 0.0, 0.0, 0.0, 0.0, 0.0)",9.248603332870518,0.6939719297673868,-0.5362626404784062,"(0.0, 0.0, 0.0, 0.0, 0.0, 0.0)",3.899076997319283,True,"(0.025229703488918023, 0.17675280209062721, 0.023998862844472026)","(0.9770426572102212, -0.21304073459482167, -0.0011363955687631723)",-4.333484345321118e-05,93.09383047493816,True,"(0.08786626707703345, 0.169720984506591, 0.05600113715552798)","(-0.9770426572102215, 0.2130407345948202, 0.0011363955687623698)",-9.289095402506374e-05,44.52333684935809
51,Move,"(0.0588, 0.0, 0.006900000000000001)","(0.0, 0.08614596121993615, 0.0)","(0.053845994710197694, 0.15412234887000695, 0.04897035981495611)","(-0.001051651943641907, -0.004541783310568763, -0.24034273219922783)","[0.050619291190581596, -0.004756076855561703, 0.0009133169907390229]","[-0.026750000193715096, 0.05299999937415123, 0.03999999910593033]","[0.0, 0.0, -0.001792478303413572]","[-0.02662094123661518, 0.12499988079071045, 0.03999999910593033]","[0.0, 0.0, -0.6435016742525981]","[0.026750000193715096, 0.05299999937415123, 0.03999999910593033]","[0.0, 0.0, -0.9229895764068373]","[0.08416346460580826, 0.09644760191440582, 0.03999999910593033]","[0.0, 0.0, -0.23940874982340235]",-0.005777255655634634,-0.9563466421129859,"(0.0, 0.0, 0.0, 0.0, 0.0, 0.0)",-12.139535055396232,-0.6379136785963868,0.9109096397321912,"(0.0, 0.0, 0.0, 0.0, 0.0, 0.0)",-6.179128365244487,-0.9241520775527122,-0.27899916165526845,"(0.0, 0.0, 0.0, 0.0, 0.0, 0.0)",8.695912951553094,0.6813107213319269,-0.5448246153544664,"(0.0, 0.0, 0.0, 0.0, 0.0, 0.0)",3.726648555702921,True,"(0.026829290083611932, 0.17676858990185784, 0.023998862844472026)","(0.9770426572102212, -0.21304073459482167, -0.0011363955687631723)",-1.0144140943320521e-05,82.01628540980911,True,"(0.08957897689686993, 0.16923960588713155, 0.05600113715552798)","(-0.9770426572102215, 0.2130407345948202, 0.0011363955687623698)",4.1283288480715435e-05,45.97752034936055
52,Move,"(0.0594, 0.0, 0.0063)","(0.0, 0.09020385173082295, 0.0)","(0.055193960535718706, 0.1534249540575043, 0.0489153638535426)","(-0.0011433942162399513, -0.0016383317676356792, -0.27262886233992456)","[0.05196725701610261, -0.005453471668064341, 0.0008583210293255164]","[-0.026750000193715096, 0.05299999937415123, 0.03999999910593033]","[0.0, 0.0, -0.02485088523391031]","[-0.024960920214653015, 0.12497776746749878, 0.03999999910593033]","[0.0, 0.0, -0.6498503603516638]","[0.026750000193715096, 0.05299999937415123, 0.03999999910593033]","[0.0, 0.0, -0.9286653901567593]","[0.08440913259983063, 0.09612104296684265, 0.03999999910593033]","[0.0, 0.0, -0.25527131418097815]",-0.028895207316432615,-0.9706373798080795,"(0.0, 0.0, 0.0, 0.0, 0.0, 0.0)",-12.335565842454468,-0.6204373005036029,1.094911935405184,"(0.0, 0.0, 0.0, 0.0, 0.0, 0.0)",-6.304668412849482,-0.9297359523333807,-0.25694970699147,"(0.0, 0.0, 0.0, 0.0, 0.0, 0.0)",9.938592625489294,0.6705967089763516,-0.6713463910314316,"(0.0, 0.0, 0.0, 0.0, 0.0, 0.0)",4.153746733941105,True,"(0.028816896146517404, 0.17640609355009013, 0.023998862844472026)","(0.9770426572102212, -0.21304073459482167, -0.0011363955687631723)",-1.8245877852434122e-05,90.59517438377523,True,"(0.07784787220646311, 0.11850187465460427, 0.02399419116126267)","(-0.9690210919856515, 0.24690967884601667, -0.005808078778105661)",-0.00015845586519135633,35.62950906049324
53,Move,"(0.0599, 0.0, 0.0064)","(0.0, 0.08164301174979079, 0.0)","(0.0564489279886944, 0.1534365948686674, 0.04886969603353531)","(0.0009556464337625904, -0.00030946499456416645, -0.2926032590131001)","[0.0532222244690783, -0.005441830856901253, 0.0008126532093182259]","[-0.026750000193715096, 0.05299999937415123, 0.03999999910593033]","[0.0, 0.0, -0.048163801062309324]","[-0.023283546790480614, 0.12491650879383087, 0.03999999910593033]","[0.0, 0.0, -0.6466564295275332]","[0.026750000193715096, 0.05299999937415123, 0.03999999910593033]","[0.0, 0.0, -0.9340147836757524]","[0.08463898301124573, 0.09581198543310165, 0.03999999910593033]","[0.0, 0.0, -0.2778255456185577]",-0.05236967052409143,-1.0094100554315446,"(0.0, 0.0, 0.0, 0.0, 0.0, 0.0)",-14.211472744425423,-0.5938161113543449,1.1223500371776487,"(0.0, 0.0, 0.0, 0.0, 0.0, 0.0)",-7.39831899985234,-0.9349101468728627,-0.21489546180553243,"(0.0, 0.0, 0.0, 0.0, 0.0, 0.0)",12.054909807067643,0.6530984201736607,-0.7417863003693249,"(0.0, 0.0, 0.0, 0.0, 0.0, 0.0)",5.15261779032149,True,"(0.0303297355805149, 0.17651633112521206, 0.023998862844472026)","(0.9770426572102212, -0.21304073459482167, -0.0011363955687631723)",3.479955509568418e-05,88.8989899766971,True,"(0.07858412667659694, 0.11833509548998986, 0.02399419116126267)","(-0.9690210919856515, 0.24690967884601667, -0.005808078778105661)",5.8656827383512217e-05,40.23624462709799
54,Move,"(0.06, 0.0, 0.0066)","(0.0, 0.0730751904517506, 0.0)","(0.05768097356377617, 0.15336378442636572, 0.04887051330442363)","(0.00022393279549017648, 0.0008357395352775923, -0.3089792269686374)","[0.05445427004416007, -0.005514641299202927, 0.0008134704802065448]","[-0.026750000193715096, 0.05299999937415123, 0.03999999910593033]","[0.0, 0.0, -0.07192649447792952]","[-0.02157575637102127, 0.12481383979320526, 0.03999999910593033]","[0.0, 0.0, -0.6431417782587445]","[0.026750000193715096, 0.05299999937415123, 0.03999999910593033]","[0.0, 0.0, -0.9386379430050477]","[0.08483628928661346, 0.09554389119148254, 0.03999999910593033]","[0.0, 0.0, -0.29930150680977724]",-0.07615601551708945,-1.0150845968214979,"(0.0, 0.0, 0.0, 0.0, 0.0, 0.0)",-15.128517218245552,-0.5663795192423132,1.1605773441577645,"(0.0, 0.0, 0.0, 0.0, 0.0, 0.0)",-8.092638863558966,-0.9394315342945135,-0.19045917437192425,"(0.0, 0.0, 0.0, 0.0, 0.0, 0.0)",12.125882741625757,0.6364415403308167,-0.6947686734420488,"(0.0, 0.0, 0.0, 0.0, 0.0, 0.0)",4.870045307975501,True,"(0.031832481341927114, 0.17651425736680149, 0.02399927217451309)","(0.9534971064003762, -0.3014012930659526, -0.0007270655276908868)",-3.660964641719582e-05,105.60929819967862,True,"(0.07926650115552354, 0.11819183644363873, 0.02399419116126267)","(-0.9690210919856515, 0.24690967884601667, -0.005808078778105661)",4.850212506701592e-05,49.58397853206071
55,Move,"(0.0606, 0.0, 0.0060999999999999995)","(0.0, 0.0730751904517506, 0.0)","(0.058772777379698084, 0.1532008051673144, 0.04892970650504709)","(-0.001666227978663932, -0.0029347440233776032, -0.3173878238339171)","[0.055546073860081986, -0.005677620558254243, 0.0008726636808300062]","[-0.026750000193715096, 0.05299999937415123, 0.03999999910593033]","[0.0, 0.0, -0.0958475131919228]","[-0.019859541207551956, 0.12466952949762344, 0.03999999910593033]","[0.0, 0.0, -0.6385587252938989]","[0.026750000193715096, 0.05299999937415123, 0.03999999910593033]","[0.0, 0.0, -0.9429139839184318]","[0.08501768112182617, 0.09529512375593185, 0.03999999910593033]","[0.0, 0.0, -0.3214673416726103]",-0.10015480854778233,-1.0337509180561997,"(0.0, 0.0, 0.0, 0.0, 0.0, 0.0)",-17.23893226321095,-0.5372254175093488,1.3165845084719003,"(0.0, 0.0, 0.0, 0.0, 0.0, 0.0)",-9.057055909406955,-0.9436879089636008,-0.18573600346505598,"(0.0, 0.0, 0.0, 0.0, 0.0, 0.0)",12.55106047929841,0.6186637788887015,-0.6678895490630286,"(0.0, 0.0, 0.0, 0.0, 0.0, 0.0)",4.717988698530441,True,"(0.03331016871505306, 0.1766109124422015, 0.023999163500602796)","(0.9526441366133486, -0.304086255058987, -0.0008357394379930227)",-9.722947520529185e-05,116.51532850440968,True,"(0.09638191571154087, 0.16739958892617746, 0.0560008364993972)","(-0.9526441366133491, 0.3040862550589853, 0.0008357394379829552)",0.00013376292653875267,32.98333426899281
56,Move,"(0.0594, 0.0, 0.0054)","(0.0, 0.07754497866610804, 0.0)","(0.059684503753740833, 0.15276230209903358, 0.04895475514210246)","(0.0002642730662202008, -0.004267328231751127, -0.33721024089032964)","[0.056457800234124736, -0.006116123626535075, 0.0008977123178853727]","[-0.026750000193715096, 0.05299999937415123, 0.03999999910593033]","[0.0, 0.0, -0.11900615515966499]","[-0.018201768398284912, 0.12449075281620026, 0.03999999910593033]","[0.0, 0.0, -0.6332842511866114]","[0.026750000193715096, 0.05299999937415123, 0.03999999910593033]","[0.0, 0.0, -0.9461256739310774]","[0.08515321463346481, 0.09510777145624161, 0.03999999910593033]","[0.0, 0.0, -0.34029792331470815]",-0.12302469887787994,-0.9644511279446957,"(0.0, 0.0, 0.0, 0.0, 0.0, 0.0)",-15.496152470569315,-0.5092500620217632,1.2067072234016936,"(0.0, 0.0, 0.0, 0.0, 0.0, 0.0)",-8.038594143844803,-0.9465728193860451,-0.1073198851633483,"(0.0, 0.0, 0.0, 0.0, 0.0, 0.0)",11.086298742142702,0.603209519855515,-0.628375371845891,"(0.0, 0.0, 0.0, 0.0, 0.0, 0.0)",4.266006111605112,True,"(0.034693236361095635, 0.1767118567361079, 0.023999163500602796)","(0.9526441366133486, -0.304086255058987, -0.0008357394379930227)",-4.365755211854259e-05,107.35644314936432,True,"(0.09787312326868577, 0.16698547056368046, 0.0560008364993972)","(-0.9526441366133491, 0.3040862550589853, 0.0008357394379829552)",0.00020601254849876818,25.88499709087901
57,Move,"(0.060200000000000004, 0.0, 0.004)","(0.0, 0.08614596121993615, 0.0)","(0.060779485837916515, 0.15212427878174456, 0.04891441526353304)","(-0.0012865418160122656, -0.003209351975641791, -0.3759388554874853)","[0.05755278231830042, -0.006754146943824091, 0.0008573724393159537]","[-0.026750000193715096, 0.05299999937415123, 0.03999999910593033]","[0.0, 0.0, -0.14289017015870342]","[-0.01649688184261322, 0.12426621466875076, 0.03999999910593033]","[0.0, 0.0, -0.6352151274773329]","[0.026750000193715096, 0.05299999937415123, 0.03999999910593033]","[0.0, 0.0, -0.9480259663323688]","[0.08523312211036682, 0.09499671310186386, 0.03999999910593033]","[0.0, 0.0, -0.3537203610838648]",-0.14709741610907456,-1.009739781358752,"(0.0, 0.0, 0.0, 0.0, 0.0, 0.0)",-16.096997750677982,-0.4862517551025786,1.4575691425333184,"(0.0, 0.0, 0.0, 0.0, 0.0, 0.0)",-8.346146446644433,-0.9484975415671735,-0.11319684618354019,"(0.0, 0.0, 0.0, 0.0, 0.0, 0.0)",12.483639495343134,0.5909648207020413,-0.8017660857035216,"(0.0, 0.0, 0.0, 0.0, 0.0, 0.0)",4.772535538991148,True,"(0.03649886064489816, 0.17638508447473927, 0.023999163500602796)","(0.9526441366133486, -0.304086255058987, -0.0008357394379930227)",-1.1641871302278348e-06,111.72839483517669,True,"(0.08090305420406631, 0.11791302560975991, 0.02399474718306095)","(-0.9401310991806753, 0.34077255207955914, -0.0052520569798278115)",-0.00017047809962248258,56.367288894928265
58,Move,"(0.0632, 0.0, 0.0023)","(0.0, 0.1033252370473163, 0.0)","(0.06197895196465238, 0.1522535855515879, 0.04890288506014442)","(-0.00021656306715839177, -0.0015392403317929632, -0.39622243442230776)","[0.058752248445036286, -0.006624840173980739, 0.0008458422359273327]","[-0.026750000193715096, 0.05299999937415123, 0.03999999910593033]","[0.0, 0.0, -0.16939787017231359]","[-0.014611600898206234, 0.1239694282412529, 0.03999999910593033]","[0.0, 0.0, -0.62560987020279]","[0.026750000193715096, 0.05299999937415123, 0.03999999910593033]","[0.0, 0.0, -0.9510217524868424]","[0.08535867929458618, 0.09482131898403168, 0.03999999910593033]","[0.0, 0.0, -0.3775662349111433]",-0.17438080178460583,-1.1959015796921022,"(0.0, 0.0, 0.0, 0.0, 0.0, 0.0)",-19.68486577177561,-0.4497408325150042,1.553075648814793,"(0.0, 0.0, 0.0, 0.0, 0.0, 0.0)",-10.362245412996147,-0.9515889911947292,-0.13612933525279047,"(0.0, 0.0, 0.0, 0.0, 0.0, 0.0)",16.145034662896872,0.5695579686394516,-0.9354174535792386,"(0.0, 0.0, 0.0, 0.0, 0.0, 0.0)",6.5774301897645415,True,"(0.03788108904021742, 0.1765949193476227, 0.023999163500602796)","(0.9526441366133486, -0.304086255058987, -0.0008357394379930227)",5.4993225147222514e-05,115.56279285084321,True,"(0.08157624797700173, 0.11783435735781406, 0.02399474718306095)","(-0.9401310991806753, 0.34077255207955914, -0.0052520569798278115)",7.190235955094654e-05,63.743070135381615
59,Move,"(0.06470000000000001, 0.0, 0.001)","(0.0, 0.11190003966236446, 0.0)","(0.06399729175899417, 0.15209006374311107, 0.048724836994488416)","(-0.0032551644438155013, 0.022037643016441306, -0.4044798104271706)","[0.06077058823937807, -0.00678836198245758, 0.0006677941702713311]","[-0.026750000193715096, 0.05299999937415123, 0.03999999910593033]","[0.0, 0.0, -0.19888148693182534]","[-0.012524744495749474, 0.12358074635267258, 0.03999999910593033]","[0.0, 0.0, -0.6237258063726077]","[0.026750000193715096, 0.05299999937415123, 0.03999999910593033]","[0.0, 0.0, -0.9540077850276568]","[0.08548329770565033, 0.09464613348245621, 0.03999999910593033]","[0.0, 0.0, -0.4001526247290439]",-0.20418532337658676,-1.2729210645716367,"(0.0, 0.0, 0.0, 0.0, 0.0, 0.0)",-18.721569227031623,-0.42038494096313384,1.0702492578256242,"(0.0, 0.0, 0.0, 0.0, 0.0, 0.0)",-9.036365374370451,-0.954459930552475,-0.10852587609069464,"(0.0, 0.0, 0.0, 0.0, 0.0, 0.0)",15.953832017662961,0.5475984776640087,-1.5016085698826576,"(0.0, 0.0, 0.0, 0.0, 0.0, 0.0)",8.96061016978413,True,"(0.03982634764147213, 0.1761896216012955, 0.05600041344681629)","(0.9175817026043818, -0.3975470396509097, 0.0004126868570627328)",-8.585597949609804e-05,86.697270106869,True,"(0.10248199232521299, 0.1656386601379201, 0.023999586553183714)","(-0.9175817026043799, 0.3975470396509144, -0.0004126868570645854)",-0.0005335693527606122,73.75210479164005
60,Move,"(0.06620000000000001, 0.0, 0.0008)","(0.0, 0.11190003966236446, 0.0)","(0.06495056115355854, 0.15212372434063443, 0.04898807383322478)","(-0.0031848600742486848, 0.022777806318800258, -0.42047270259206565)","[0.06172385763394245, -0.006754701384934225, 0.0009310310090076962]","[-0.026750000193715096, 0.05299999937415123, 0.03999999910593033]","[0.0, 0.0, -0.22839301575715823]","[-0.010448294691741467, 0.12313026934862137, 0.03999999910593033]","[0.0, 0.0, -0.6118167794942693]","[0.026750000193715096, 0.05299999937415123, 0.03999999910593033]","[0.0, 0.0, -0.9578697827342135]","[0.0856436938047409, 0.09441899508237839, 0.03999999910593033]","[0.0, 0.0, -0.42988135921381293]",-0.23368630419591382,-1.2703863998964946,"(0.0, 0.0, 0.0, 0.0, 0.0, 0.0)",-24.90441605100355,-0.37561333241015527,1.8744865390129497,"(0.0, 0.0, 0.0, 0.0, 0.0, 0.0)",-13.093059300842357,-0.9586291633469712,-0.1822735512491369,"(0.0, 0.0, 0.0, 0.0, 0.0, 0.0)",18.026521572048424,0.5237322344793615,-1.0214575484186432,"(0.0, 0.0, 0.0, 0.0, 0.0, 0.0)",6.941715406477863,True,"(0.04127257718570341, 0.1763588479605554, 0.05600041344681629)","(0.9175817026043818, -0.3975470396509097, 0.0004126868570627328)",4.812012647980096e-05,152.87953964239568,True,"(0.10474509156041896, 0.1648748787956974, 0.023999586553183714)","(-0.9175817026043799, 0.3975470396509144, -0.0004126868570645854)",0.0005231040653604653,0.0
61,Move,"(0.0683, 0.0, 0.0011)","(0.0, 0.11190003966236446, 0.0)","(0.06630721047898491, 0.1518871587138182, 0.04904014262507196)","(-0.001734336815363413, 0.017830786075695042, -0.4467002547860287)","[0.06308050695936882, -0.006991267011750457, 0.0009830998008548766]","[-0.026750000193715096, 0.05299999937415123, 0.03999999910593033]","[0.0, 0.0, -0.2600581991436096]","[-0.008236152119934559, 0.12257900089025497, 0.03999999910593033]","[0.0, 0.0, -0.6009548531613204]","[0.026750000193715096, 0.05299999937415123, 0.03999999910593033]","[0.0, 0.0, -0.9624808856253588]","[0.08583405613899231, 0.0941469818353653, 0.03999999910593033]","[0.0, 0.0, -0.4570880324204218]",-0.26587862910319493,-1.3969069420580735,"(0.0, 0.0, 0.0, 0.0, 0.0, 0.0)",-22.31258507479642,-0.33366062832532,1.7366579347124842,"(0.0, 0.0, 0.0, 0.0, 0.0, 0.0)",-11.803067727205892,-0.9633189003699646,-0.20111504452998602,"(0.0, 0.0, 0.0, 0.0, 0.0, 0.0)",17.27952896203737,0.5015496821649694,-0.9223691705359136,"(0.0, 0.0, 0.0, 0.0, 0.0, 0.0)",6.3159962944650445,True,"(0.04290352031618718, 0.17636621449862336, 0.05600041344681629)","(0.9175817026043818, -0.3975470396509097, 0.0004126868570627328)",8.264817087181957e-05,130.25137633428798,True,"(0.10684502048236909, 0.16405717179279333, 0.023999586553183714)","(-0.9175817026043799, 0.3975470396509144, -0.0004126868570645854)",0.0007696792292469708,0.0
62,Move,"(0.0676, 0.0, 0.0017)","(0.0, 0.1033252370473163, 0.0)","(0.06783683893557518, 0.15196643400884485, 0.04861794556413522)","(-0.0005432035129589508, -0.0037488943881776537, -0.47304993231155473)","[0.06461013541595909, -0.006911991716723798, 0.0005609027399181357]","[-0.026750000193715096, 0.05299999937415123, 0.03999999910593033]","[0.0, 0.0, -0.2929076804622249]","[-0.005960914772003889, 0.12193340063095093, 0.03999999910593033]","[0.0, 0.0, -0.5971934898743725]","[0.026750000193715096, 0.05299999937415123, 0.03999999910593033]","[0.0, 0.0, -0.9660614511267048]","[0.08598100394010544, 0.09393516927957535, 0.03999999910593033]","[0.0, 0.0, -0.4814931666887904]",-0.2987423095673097,-1.4003078196748182,"(0.0, 0.0, 0.0, 0.0, 0.0, 0.0)",-18.430611786036188,-0.29833765655330163,1.4275400677028647,"(0.0, 0.0, 0.0, 0.0, 0.0, 0.0)",-9.329038903687717,-0.9666160913139907,-0.13311694555596945,"(0.0, 0.0, 0.0, 0.0, 0.0, 0.0)",15.489290643949357,0.4803583083197063,-1.0104041305158786,"(0.0, 0.0, 0.0, 0.0, 0.0, 0.0)",7.012033995564313,True,"(0.0445110430384756, 0.17482833548103469, 0.023997689181600407)","(0.8911367297084536, -0.4537289858434487, -0.0023100584403778113)",-0.000528991927702205,132.93908925580695,True,"(0.10869170628644664, 0.16331181526583424, 0.023999586553183714)","(-0.9175817026043799, 0.3975470396509144, -0.0004126868570645854)",0.00012936997576129525,84.20955194982595
63,Move,"(0.0678, 0.0, 0.0021000000000000003)","(0.0, 0.1033252370473163, 0.0)","(0.06909513431288382, 0.15100570058054819, 0.048719643735425554)","(-9.58311002758403e-05, -0.00469953475314206, -0.5278599868255545)","[0.06586843079326772, -0.007872725145020465, 0.0006626009112084691]","[-0.026750000193715096, 0.05299999937415123, 0.03999999910593033]","[0.0, 0.0, -0.32647133550554813]","[-0.00365940248593688, 0.12119695544242859, 0.03999999910593033]","[0.0, 0.0, -0.5944568494532122]","[0.026750000193715096, 0.05299999937415123, 0.03999999910593033]","[0.0, 0.0, -0.968612675362406]","[0.0860852375626564, 0.09378393739461899, 0.03999999910593033]","[0.0, 0.0, -0.5003088278560082]",-0.33236303808776435,-1.4140104193633278,"(0.0, 0.0, 0.0, 0.0, 0.0, 0.0)",-22.40952957597194,-0.2588558092641493,2.191152807156413,"(0.0, 0.0, 0.0, 0.0, 0.0, 0.0)",-11.691081456570503,-0.9692512214935697,-0.15329583520403123,"(0.0, 0.0, 0.0, 0.0, 0.0, 0.0)",21.91468871392512,0.46377753171031577,-1.0862694668067616,"(0.0, 0.0, 0.0, 0.0, 0.0, 0.0)",8.300774298655696,True,"(0.04666762021888529, 0.1742298034802848, 0.023997689181600407)","(0.8911367297084536, -0.4537289858434487, -0.0023100584403778113)",-0.0003739371817795713,157.91392795328963,True,"(0.08514422784288427, 0.1170783204919605, 0.02399487361825284)","(-0.8827815698370349, 0.4697557109363835, -0.0051256217879374595)",-0.0005061516556928484,94.01126544324144
64,Move,"(0.06770000000000001, 0.0, 0.0018000000000000002)","(0.0, 0.1033252370473163, 0.0)","(0.07108537662053323, 0.15058965869590504, 0.04874998995001552)","(8.279412180691588e-05, -0.00023255082846929944, -0.5175909396989551)","[0.06785867310091713, -0.008288767029663607, 0.0006929471257984335]","[-0.026750000193715096, 0.05299999937415123, 0.03999999910593033]","[0.0, 0.0, -0.3615634015353667]","[-0.0012809359468519688, 0.12034483253955841, 0.03999999910593033]","[0.0, 0.0, -0.5885361817932676]","[0.026750000193715096, 0.05299999937415123, 0.03999999910593033]","[0.0, 0.0, -0.9700050692013626]","[0.08614197373390198, 0.09370126575231552, 0.03999999910593033]","[0.0, 0.0, -0.533657678488495]",-0.36776638429750985,-1.4887117207556975,"(0.0, 0.0, 0.0, 0.0, 0.0, 0.0)",-31.003659638647946,-0.21620342169492412,2.584637029536771,"(0.0, 0.0, 0.0, 0.0, 0.0, 0.0)",-15.707394167031456,-0.9704748930668231,-0.11276377004253985,"(0.0, 0.0, 0.0, 0.0, 0.0, 0.0)",23.067098414581295,0.43168758109795113,-1.1183535471845565,"(0.0, 0.0, 0.0, 0.0, 0.0, 0.0)",8.453610572231746,True,"(0.04873121056707661, 0.17367472990478755, 0.023997689181600407)","(0.8911367297084536, -0.4537289858434487, -0.0023100584403778113)",-0.0006276662172997222,212.53283888645345,True,"(0.11231661414254933, 0.16159210935173318, 0.023996939444124663)","(-0.8672722561384931, 0.49782473962369483, -0.0030597959161162824)",-0.0009393525944721695,87.6515186892877
65,Move,"(0.0684, 0.0, 0.0012)","(0.0, 0.11190003966236446, 0.0)","(0.07167826304433843, 0.15053372260744424, 0.04881118765794815)","(-0.000312279683121855, 0.0019249402541582825, -0.5344562647442481)","[0.06845155952472233, -0.008344703118124408, 0.0007541448337310686]","[-0.026750000193715096, 0.05299999937415123, 0.03999999910593033]","[0.0, 0.0, -0.39523747484344274]","[0.0009719727095216513, 0.11944916844367981, 0.03999999910593033]","[0.0, 0.0, -0.5639890448240511]","[0.026750000193715096, 0.05299999937415123, 0.03999999910593033]","[0.0, 0.0, -0.9722267417817753]","[0.0862322524189949, 0.09356921166181564, 0.03999999910593033]","[0.0, 0.0, -0.5597013257352037]",-0.4011972727740871,-1.4303431220391793,"(0.0, 0.0, 0.0, 0.0, 0.0, 0.0)",-30.317503156277446,-0.1593990389751052,2.2446078992182112,"(0.0, 0.0, 0.0, 0.0, 0.0, 0.0)",-15.780744535964022,-0.9725130848455773,-0.06872167685951419,"(0.0, 0.0, 0.0, 0.0, 0.0, 0.0)",20.30006176273545,0.40892559786515054,-0.8639571025831542,"(0.0, 0.0, 0.0, 0.0, 0.0, 0.0)",5.98275318232146,True,"(0.049617858469606806, 0.17391003583284684, 0.023998396607959584)","(0.8634763988600046, -0.5043866970709783, -0.0016026320811940481)",-0.0007766877275769533,208.04607528554843,True,"(0.11416594400312777, 0.1607554283413109, 0.023996939444124663)","(-0.8672722561384931, 0.49782473962369483, -0.0030597959161162824)",0.000272164051748924,47.744029131817925
66,Move,"(0.0673, 0.0, 0.0009000000000000001)","(0.0, 0.11190003966236446, 0.0)","(0.07233852612287578, 0.1499997474740227, 0.04897391060991439)","(-0.005967210460514703, -0.004751237838751617, -0.5606358513146598)","[0.06911182260325968, -0.008878678251545952, 0.0009168677856973076]","[-0.026750000193715096, 0.05299999937415123, 0.03999999910593033]","[0.0, 0.0, -0.42833298747770016]","[0.0031555574387311935, 0.11849547922611237, 0.03999999910593033]","[0.0, 0.0, -0.5443813007945125]","[0.026750000193715096, 0.05299999937415123, 0.03999999910593033]","[0.0, 0.0, -0.9735234107950348]","[0.0862848088145256, 0.0934920534491539, 0.03999999910593033]","[0.0, 0.0, -0.5855264228226973]",-0.4334667427075164,-1.2321015019004595,"(0.0, 0.0, 0.0, 0.0, 0.0, 0.0)",-45.9679140796575,-0.10190310680342549,3.3948410123013,"(0.0, 0.0, 0.0, 0.0, 0.0, 0.0)",-20.205673128169774,-0.9741730964222229,-0.15592089826041344,"(0.0, 0.0, 0.0, 0.0, 0.0, 0.0)",29.76483937538427,0.3838308045522319,-0.9998952817256621,"(0.0, 0.0, 0.0, 0.0, 0.0, 0.0)",7.334634147211184,True,"(0.050709637062630285, 0.17387426066347245, 0.023998296264622722)","(0.8537418597393707, -0.5206937072823967, -0.0017029754180619063)",-0.0004050448699492532,192.81145911824922,True,"(0.11594408039956532, 0.15993455243221122, 0.023996939444124663)","(-0.8672722561384931, 0.49782473962369483, -0.0030597959161162824)",0.0002842206065971047,19.70721341294123
67,Move,"(0.0689, 0.0, 0.0008)","(0.0, 0.12046437030190062, 0.0)","(0.07303876738661343, 0.14985673122305004, 0.04916334464611178)","(-0.0026009952735059167, -0.004860821593772129, -0.566524492412674)","[0.06981206386699733, -0.009021694502518607, 0.0011063018218946952]","[-0.026750000193715096, 0.05299999937415123, 0.03999999910593033]","[0.0, 0.0, -0.45895919557172393]","[0.005147096235305071, 0.11754901707172394, 0.03999999910593033]","[0.0, 0.0, -0.5058295015390931]","[0.026750000193715096, 0.05299999937415123, 0.03999999910593033]","[0.0, 0.0, -0.9773403236850257]","[0.08643893152475357, 0.09326452016830444, 0.03999999910593033]","[0.0, 0.0, -0.6165396443235385]",-0.4645368331233974,-1.338639128496955,"(0.0, 0.0, 0.0, 0.0, 0.0, 0.0)",-48.543792551009325,-0.03702197284152859,2.3636056194373802,"(0.0, 0.0, 0.0, 0.0, 0.0, 0.0)",-17.122415800209435,-0.9780437499862762,-0.1688228649366922,"(0.0, 0.0, 0.0, 0.0, 0.0, 0.0)",36.77202967262368,0.3549108014007685,-1.413572308202836,"(0.0, 0.0, 0.0, 0.0, 0.0, 0.0)",9.2016648572377,True,"(0.05053142101683555, 0.17471948861275333, 0.023998296264622722)","(0.8537418597393707, -0.5206937072823967, -0.0017029754180619063)",0.0009016323159354402,44.9434286340466,True,"(0.08818456986517416, 0.11647897907633976, 0.023994778305183193)","(-0.8439426798336866, 0.5364079557522878, -0.0052209348575877265)",-0.0007596809573657732,411.061299099513
68,Move,"(0.0684, 0.0, 0.0)","(0.0, 0.1251278900632295, 0.0)","(0.07380275973125645, 0.1497270844393592, 0.04924494694393618)","(-0.001536352169692485, -0.0035566396854080605, -0.5674632932043562)","[0.07057605621164036, -0.009151341286209452, 0.0011879041197190923]","[-0.026750000193715096, 0.05299999937415123, 0.03999999910593033]","[0.0, 0.0, -0.4893969152740223]","[0.007096744142472744, 0.11654838919639587, 0.03999999910593033]","[0.0, 0.0, -0.48252592924368637]","[0.026750000193715096, 0.05299999937415123, 0.03999999910593033]","[0.0, 0.0, -0.9809042054031202]","[0.08658204972743988, 0.09305154532194138, 0.03999999910593033]","[0.0, 0.0, -0.6544624419202183]",-0.4947323247233534,-1.2805013602113617,"(0.0, 0.0, 0.0, 0.0, 0.0, 0.0)",-48.25631462340221,0.01583469639219186,2.1512885477230634,"(0.0, 0.0, 0.0, 0.0, 0.0, 0.0)",-15.062357766109564,-0.9815044284504053,-0.1440666150711024,"(0.0, 0.0, 0.0, 0.0, 0.0, 0.0)",38.68513399368306,0.32001893544460924,-1.5414758219847458,"(0.0, 0.0, 0.0, 0.0, 0.0, 0.0)",10.368053815461343,True,"(0.05113658941150121, 0.17476086395983048, 0.023998296264622722)","(0.8537418597393707, -0.5206937072823967, -0.0017029754180619063)",0.0010990084777695525,0.0,True,"(0.08918627444777119, 0.11615253754651116, 0.023996267683412304)","(-0.8433010634492686, 0.537428499309872, -0.003731556628469002)",-0.00039038986994913025,450.4735500087962
69,Move,"(0.0695, 0.0, 0.0002)","(0.0, 0.1251278900632295, 0.0)","(0.07469768723935519, 0.14951518416799928, 0.04928203340397897)","(-0.0018301161284437395, -0.0026913625152835794, -0.568081220548417)","[0.07147098371973909, -0.009363241557569374, 0.0012249905797618865]","[-0.026750000193715096, 0.05299999937415123, 0.03999999910593033]","[0.0, 0.0, -0.5194577041433329]","[0.0089914845302701, 0.11550237238407135, 0.03999999910593033]","[0.0, 0.0, -0.4602252466317299]","[0.026750000193715096, 0.05299999937415123, 0.03999999910593033]","[0.0, 0.0, -0.9845787624823713]","[0.08672881871461868, 0.09283141791820526, 0.03999999910593033]","[0.0, 0.0, -0.6945589984109856]",-0.524856150153188,-1.2956104880626549,"(0.0, 0.0, 0.0, 0.0, 0.0, 0.0)",-48.727283043446,0.06866318233639901,2.263355617281521,"(0.0, 0.0, 0.0, 0.0, 0.0, 0.0)",-15.087302990688267,-0.9852238740752405,-0.1548374442206661,"(0.0, 0.0, 0.0, 0.0, 0.0, 0.0)",39.18568126342372,0.2835493036561447,-1.5529155577757892,"(0.0, 0.0, 0.0, 0.0, 0.0, 0.0)",10.665413942167492,True,"(0.05172230989862987, 0.1746824059138724, 0.023998296264622722)","(0.8537418597393707, -0.5206937072823967, -0.0017029754180619063)",0.0013722918619896768,0.0,True,"(0.0902350604025381, 0.1157765709169312, 0.023997152955667757)","(-0.8429903352009024, 0.537921177704632, -0.002846284373016871)",-9.489333158680885e-05,466.927904694908
70,Move,"(0.0692, 0.0, 0.0005)","(0.0, 0.11653563415566137, 0.0)","(0.07569517091378312, 0.14944448061265847, 0.049202737466639494)","(-0.00022781593116876829, 0.00795203765223709, -0.5608248366602256)","[0.07246846739416703, -0.00943394511291018, 0.0011456946424224096]","[-0.026750000193715096, 0.05299999937415123, 0.03999999910593033]","[0.0, 0.0, -0.5486990833592138]","[0.010803595185279846, 0.11443067342042923, 0.03999999910593033]","[0.0, 0.0, -0.4345564662674998]","[0.026750000193715096, 0.05299999937415123, 0.03999999910593033]","[0.0, 0.0, -0.9880361131545954]","[0.08686617016792297, 0.09262381494045258, 0.03999999910593033]","[0.0, 0.0, -0.7357570121240261]",-0.5538524239450856,-1.236806733861288,"(0.0, 0.0, 0.0, 0.0, 0.0, 0.0)",-49.67256835886464,0.12384933703451281,2.329610795233173,"(0.0, 0.0, 0.0, 0.0, 0.0, 0.0)",-15.517809008271291,-0.9885795600875363,-0.13044238033663375,"(0.0, 0.0, 0.0, 0.0, 0.0, 0.0)",39.44045280651077,0.24572358278866568,-1.5733049942955883,"(0.0, 0.0, 0.0, 0.0, 0.0, 0.0)",10.837032124275561,True,"(0.035443471042821646, 0.1390139811374934, 0.056002470942789734)","(0.8977333857912784, -0.4405322532996556, 0.0024701899634533937)",-0.0030488702506295136,447.5132080188438,True,"(0.0913104772990346, 0.11539932772206873, 0.023997307880774612)","(-0.8429318067254539, 0.5380136855098228, -0.0026913592661704745)",0.0002730514434374676,195.82256985150957
71,Move,"(0.0695, 0.0, 0.0009000000000000001)","(0.0, 0.11257024609513026, 0.0)","(0.07664653482105166, 0.14906304093994832, 0.04928754030359587)","(0.00048342109660444796, 0.010305122620294585, -0.5594873875394161)","[0.07341983130143556, -0.009815384785620329, 0.0012304974793787837]","[-0.026750000193715096, 0.05299999937415123, 0.03999999910593033]","[0.0, 0.0, -0.5769783878410477]","[0.012525564059615135, 0.11334425956010818, 0.03999999910593033]","[0.0, 0.0, -0.4083181989089868]","[0.026750000193715096, 0.05299999937415123, 0.03999999910593033]","[0.0, 0.0, -0.9910598319277114]","[0.08698570728302002, 0.0924418494105339, 0.03999999910593033]","[0.0, 0.0, -0.7750512424963218]",-0.5819597943497692,-1.1955466759675089,"(0.0, 0.0, 0.0, 0.0, 0.0, 0.0)",-49.000089905021106,0.1784036914521441,2.338450224036556,"(0.0, 0.0, 0.0, 0.0, 0.0, 0.0)",-15.461092712235981,-0.9915903051172319,-0.1273146146858149,"(0.0, 0.0, 0.0, 0.0, 0.0, 0.0)",37.89393210051408,0.20959189893181887,-1.540007544841591,"(0.0, 0.0, 0.0, 0.0, 0.0, 0.0)",10.476281031983836,True,"(0.03651201023182918, 0.13856554287965467, 0.056002470942789734)","(0.8977333857912784, -0.4405322532996556, 0.0024701899634533937)",-0.0031280899550170395,438.0693709954567,True,"(0.09232130065108847, 0.11502519744863846, 0.023997307880774612)","(-0.8429318067254539, 0.5380136855098228, -0.0026913592661704745)",0.00035720927306554423,130.5195809739636
72,Move,"(0.0702, 0.0, 0.0011)","(0.0, 0.10792941561407735, 0.0)","(0.077585468574444, 0.1486530822813463, 0.04931265483537266)","(5.399725491277251e-05, 0.011524875547479902, -0.5584782812220108)","[0.0743587650548279, -0.010225343444222351, 0.0012556120111555727]","[-0.026750000193715096, 0.05299999937415123, 0.03999999910593033]","[0.0, 0.0, -0.6046194700517079]","[0.014178326353430748, 0.11223573237657547, 0.03999999910593033]","[0.0, 0.0, -0.38144187434007987]","[0.026750000193715096, 0.05299999937415123, 0.03999999910593033]","[0.0, 0.0, -0.9939296010278797]","[0.08709865063428879, 0.09226882457733154, 0.03999999910593033]","[0.0, 0.0, -0.8139197573446063]",-0.609503091782833,-1.172090903724966,"(0.0, 0.0, 0.0, 0.0, 0.0, 0.0)",-48.69695496785486,0.2329987574627761,2.3570940225303585,"(0.0, 0.0, 0.0, 0.0, 0.0, 0.0)",-15.542937950963031,-0.9944251838200774,-0.11893110588552498,"(0.0, 0.0, 0.0, 0.0, 0.0, 0.0)",37.418771658028746,0.1736094140158491,-1.5361067328222708,"(0.0, 0.0, 0.0, 0.0, 0.0, 0.0)",10.387761943576553,True,"(0.03747833551221973, 0.13809249525304204, 0.056002470942789734)","(0.8977333857912784, -0.4405322532996556, 0.0024701899634533937)",-0.0031347985163856264,433.35984266582585,True,"(0.09330777399253741, 0.1146277787231638, 0.023997307880774612)","(-0.8429318067254539, 0.5380136855098228, -0.0026913592661704745)",0.00039831058471474074,97.61818391043546
73,Move,"(0.0704, 0.0, 0.0009000000000000001)","(0.0, 0.10792941561407735, 0.0)","(0.07846501333457037, 0.14824956053808672, 0.04934865873414693)","(0.0006343030869036658, 0.012432553963811535, -0.5571987176606176)","[0.07523830981495427, -0.010628865187481934, 0.0012916159099298427]","[-0.026750000193715096, 0.05299999937415123, 0.03999999910593033]","[0.0, 0.0, -0.6314499861950702]","[0.015752730891108513, 0.11111641675233841, 0.03999999910593033]","[0.0, 0.0, -0.3538853509535986]","[0.026750000193715096, 0.05299999937415123, 0.03999999910593033]","[0.0, 0.0, -0.9963085131297492]","[0.08719189465045929, 0.09212515503168106, 0.03999999910593033]","[0.0, 0.0, -0.8517671448618606]",-0.6361739042257003,-1.1337546383880197,"(0.0, 0.0, 0.0, 0.0, 0.0, 0.0)",-47.49692297098836,0.2872418050217468,2.322536228783776,"(0.0, 0.0, 0.0, 0.0, 0.0, 0.0)",-15.332714597412927,-0.9966965870536654,-0.09314690099993353,"(0.0, 0.0, 0.0, 0.0, 0.0, 0.0)",36.58246086918053,0.1382451776139124,-1.511090536500498,"(0.0, 0.0, 0.0, 0.0, 0.0, 0.0)",10.186583675897552,True,"(0.03833146368115743, 0.13760534622574816, 0.056002470942789734)","(0.8977333857912784, -0.4405322532996556, 0.0024701899634533937)",-0.003102436943358883,421.6501831615498,True,"(0.09424259498011342, 0.11423315375221842, 0.023997307880774612)","(-0.8429318067254539, 0.5380136855098228, -0.0026913592661704745)",0.00043813955441333494,64.89726002868332
74,Move,"(0.0697, 0.0, 0.0008)","(0.0, 0.10792941561407735, 0.0)","(0.07925373635189084, 0.14787195578662957, 0.04933343182234768)","(-1.8294660110242206e-05, 0.012549078765801936, -0.555709386418527)","[0.07602703283227474, -0.011006469938939084, 0.0012763889981305954]","[-0.026750000193715096, 0.05299999937415123, 0.03999999910593033]","[0.0, 0.0, -0.6569505267032267]","[0.0172207560390234, 0.11001379042863846, 0.03999999910593033]","[0.0, 0.0, -0.32599612487755636]","[0.026750000193715096, 0.05299999937415123, 0.03999999910593033]","[0.0, 0.0, -0.997800084658694]","[0.08725018054246902, 0.0920349657535553, 0.03999999910593033]","[0.0, 0.0, -0.888056764117717]",-0.6613946966134785,-1.0666005329344728,"(0.0, 0.0, 0.0, 0.0, 0.0, 0.0)",-45.73457294284156,0.34043939465543865,2.276393799594863,"(0.0, 0.0, 0.0, 0.0, 0.0, 0.0)",-14.92008142818513,-0.998008234408112,-0.04998512379340053,"(0.0, 0.0, 0.0, 0.0, 0.0, 0.0)",36.10116342992016,0.10353728275442932,-1.489424582561744,"(0.0, 0.0, 0.0, 0.0, 0.0, 0.0)",10.079803622391973,True,"(0.039052046991798706, 0.13712204473876877, 0.056002470942789734)","(0.8977333857912784, -0.4405322532996556, 0.0024701899634533937)",-0.0030289720469237496,404.89797892078235,True,"(0.09509835589925178, 0.11387259460123866, 0.023997307880774612)","(-0.8429318067254539, 0.5380136855098228, -0.0026913592661704745)",0.00044896188647969027,52.025574621725816
