OSUrobotics/InHand-Manipulation/AnalyseData/Data/Trial Data/Tries/new_hand_human_sub1_2v2_e_n_1_kpNone_kdNone_dp5_step5_save_data.csv
,Phase,human_cube_pos,human_cube_orn,Cube_Pos,Cube_Orn,Cube_pos_in_start_pos,b'l_prox_pin'_link_pos,b'l_prox_pin'_link_orn,b'l_distal_pin'_link_pos,b'l_distal_pin'_link_orn,b'r_prox_pin'_link_pos,b'r_prox_pin'_link_orn,b'r_distal_pin'_link_pos,b'r_distal_pin'_link_orn,b'l_prox_pin'_joint_angle,b'l_prox_pin'_joint_vel,b'l_prox_pin'_joint_react_forces,b'l_prox_pin'_joint_motor_torque,b'l_distal_pin'_joint_angle,b'l_distal_pin'_joint_vel,b'l_distal_pin'_joint_react_forces,b'l_distal_pin'_joint_motor_torque,b'r_prox_pin'_joint_angle,b'r_prox_pin'_joint_vel,b'r_prox_pin'_joint_react_forces,b'r_prox_pin'_joint_motor_torque,b'r_distal_pin'_joint_angle,b'r_distal_pin'_joint_vel,b'r_distal_pin'_joint_react_forces,b'r_distal_pin'_joint_motor_torque,in_contact_l,contact_point_l_dist,contact_normal_l_dist,contact_distance_l_dist,contact_norm_force_l_dist,in_contact_r,contact_point_r_dist,contact_normal_r_dist,contact_distance_r_dist,contact_norm_force_r_dist
0,Open,,,,,,"[-0.026750000193715096, 0.05299999937415123, 0.03999999910593033]","[0.0, -0.0, 0.4254700097131474]","[-0.056467924267053604, 0.11858082562685013, 0.03999999910593033]","[0.0, -0.0, 0.4254700097131474]","[0.026750000193715096, 0.05299999937415123, 0.03999999910593033]","[0.0, 0.0, -0.4429245237535421]","[0.057608019560575485, 0.1180521547794342, 0.03999999910593033]","[0.0, 0.0, -0.5266622746639338]",0.5399229999999999,27.46872,"(0.0, 0.0, 0.0, 0.0, 0.0, 0.0)",-4.377393708535371,5.294901130302062e-32,0.0,"(0.0, 0.0, 0.0, 0.0, 0.0, 0.0)",-0.30017707799641646,-0.5623038734984663,-28.651050680519948,"(0.0, 0.0, 0.0, 0.0, 0.0, 0.0)",144.45470973647488,-0.10456727132876567,-4.999096204557077,"(0.0, 0.0, 0.0, 0.0, 0.0, 0.0)",33.97911746732963,False,,,,,False,,,,
1,Open,,,,,,"[-0.026750000193715096, 0.05299999937415123, 0.03999999910593033]","[0.0, -0.0, 0.894166469119967]","[-0.08288749307394028, 0.09808415919542313, 0.03999999910593033]","[0.0, -0.0, 0.894166894674561]","[0.026750000193715096, 0.05299999937415123, 0.03999999910593033]","[0.0, 0.0, -0.9122733503889549]","[0.08369457721710205, 0.09706035256385803, 0.03999999910593033]","[0.0, 0.0, -0.9997066729229968]",0.96174983227,16.220004472800003,"(0.0, 0.0, 0.0, 0.0, 0.0, 0.0)",-2.5959652512206968,5.681494863714967e-07,3.553320838026869e-05,"(0.0, 0.0, 0.0, 0.0, 0.0, 0.0)",-0.18114955764248034,-0.9780460127037736,-15.785439661232708,"(0.0, 0.0, 0.0, 0.0, 0.0, 0.0)",2.503992476159733,-0.0786900142246732,2.098357403184359,"(0.0, 0.0, 0.0, 0.0, 0.0, 0.0)",0.15360133560797545,False,,,,,False,,,,
2,Open,,,,,,"[-0.026750000193715096, 0.05299999937415123, 0.03999999910593033]","[0.0, -0.0, 1.170927100750299]","[-0.09307006001472473, 0.08102945238351822, 0.03999999910593033]","[0.0, -0.0, 1.1709279927689973]","[0.026750000193715096, 0.05299999937415123, 0.03999999910593033]","[0.0, 0.0, -1.181618964677462]","[0.09336595237255096, 0.08031877130270004, 0.03999999910593033]","[0.0, 0.0, -1.233247876832181]",1.2108343584571122,9.577750441143678,"(0.0, 0.0, 0.0, 0.0, 0.0, 0.0)",-1.5367816122769582,9.012180617793662e-07,6.275974057005224e-06,"(0.0, 0.0, 0.0, 0.0, 0.0, 0.0)",-0.1083256720668905,-1.2204570900414513,-9.3211442655613,"(0.0, 0.0, 0.0, 0.0, 0.0, 0.0)",1.4819475463743526,-0.046466145575958295,1.239071567699341,"(0.0, 0.0, 0.0, 0.0, 0.0, 0.0)",0.09166748660725833,False,,,,,False,,,,
3,Open,,,,,,"[-0.026750000193715096, 0.05299999937415123, 0.03999999910593033]","[0.0, -0.0, 1.334351465706577]","[-0.09674673527479172, 0.06986585259437561, 0.03999999910593033]","[0.0, -0.0, 1.33435435145599]","[0.026750000193715096, 0.05299999937415123, 0.03999999910593033]","[0.0, 0.0, -1.3406650641721125]","[0.09685182571411133, 0.06942359358072281, 0.03999999910593033]","[0.0, 0.0, -1.3711530696282732]",1.3579162851496,5.655565729344001,"(0.0, 0.0, 0.0, 0.0, 0.0, 0.0)",-0.9088150211252332,3.4316066113876724e-06,0.0001607445165674468,"(0.0, 0.0, 0.0, 0.0, 0.0, 0.0)",-0.06444344013525093,-1.3635984108023202,-5.504042378604797,"(0.0, 0.0, 0.0, 0.0, 0.0, 0.0)",0.8762522980402716,-0.02744024570882781,0.7315266716392431,"(0.0, 0.0, 0.0, 0.0, 0.0, 0.0)",0.05446985052483407,False,,,,,False,,,,
4,Open,,,,,,"[-0.026750000193715096, 0.05299999937415123, 0.03999999910593033]","[0.0, -0.0, 1.4308518944899675]","[-0.09804610908031464, 0.06304314732551575, 0.03999999910593033]","[0.0, -0.0, 1.4308566269594332]","[0.026750000193715096, 0.05299999937415123, 0.03999999910593033]","[0.0, 0.0, -1.4345798203875788]","[0.09808305650949478, 0.06277728080749512, 0.03999999910593033]","[0.0, 0.0, -1.4525855975984745]",1.4447666872179874,3.339555007520341,"(0.0, 0.0, 0.0, 0.0, 0.0, 0.0)",-0.5371183361845069,4.8269553674989e-06,2.0878160072459843e-05,"(0.0, 0.0, 0.0, 0.0, 0.0, 0.0)",-0.03821759960562203,-1.448121925594662,-3.2500819841423465,"(0.0, 0.0, 0.0, 0.0, 0.0, 0.0)",0.5178266556878065,-0.016205556838873442,0.4320218239148067,"(0.0, 0.0, 0.0, 0.0, 0.0, 0.0)",0.0322808466635012,False,,,,,False,,,,
5,Open,,,,,,"[-0.026750000193715096, 0.05299999937415123, 0.03999999910593033]","[0.0, -0.0, 1.487834617901085]","[-0.09850236773490906, 0.05896640568971634, 0.03999999910593033]","[0.0, -0.0, 1.4878390921106803]","[0.026750000193715096, 0.05299999937415123, 0.03999999910593033]","[0.0, 0.0, -1.4900358577435544]","[0.09851532429456711, 0.05880843847990036, 0.03999999910593033]","[0.0, 0.0, -1.5006695807985118]",1.4960509811353493,1.9719738363906854,"(0.0, 0.0, 0.0, 0.0, 0.0, 0.0)",-0.3173274216127963,4.509251873886308e-06,-3.168767150011037e-05,"(0.0, 0.0, 0.0, 0.0, 0.0, 0.0)",-0.022624215793833224,-1.498032215844392,-1.9191409108162163,"(0.0, 0.0, 0.0, 0.0, 0.0, 0.0)",0.30591369390909257,-0.00957062017308593,0.2551417656412126,"(0.0, 0.0, 0.0, 0.0, 0.0, 0.0)",0.019102112305110365,False,,,,,False,,,,
6,Open,,,,,,"[-0.026750000193715096, 0.05299999937415123, 0.03999999910593033]","[0.0, -0.0, 1.5214821319654974]","[-0.09866246581077576, 0.05654918774962425, 0.03999999910593033]","[0.0, -0.0, 1.5214858439169519]","[0.026750000193715096, 0.05299999937415123, 0.03999999910593033]","[0.0, 0.0, -1.5227821585534602]","[0.09866702556610107, 0.05645570904016495, 0.03999999910593033]","[0.0, 0.0, -1.529061933448946]",1.5263338438506127,1.164430830650334,"(0.0, 0.0, 0.0, 0.0, 0.0, 0.0)",-0.18743587261192823,3.6440993970645793e-06,-4.480530101024996e-05,"(0.0, 0.0, 0.0, 0.0, 0.0, 0.0)",-0.013379159967550349,-1.527503743133955,-1.1332335164278682,"(0.0, 0.0, 0.0, 0.0, 0.0, 0.0)",0.18068846528573543,-0.005652184024362593,0.1506807000213291,"(0.0, 0.0, 0.0, 0.0, 0.0, 0.0)",0.011293655891939093,False,,,,,False,,,,
7,Close,,,"(0.010000824637423049, 0.16001319418745247, 0.017848014970055004)","(-0.00026934863811186216, 1.6834304115272585e-05, -2.2671484573282825e-09)",,"[-0.026750000193715096, 0.05299999937415123, 0.03999999910593033]","[0.0, -0.0, 1.2784808254221978]","[-0.09569569677114487, 0.07374827563762665, 0.03999999910593033]","[0.0, -0.0, 1.034582661993943]","[0.026750000193715096, 0.05299999937415123, 0.03999999910593033]","[0.0, 0.0, -1.2792482299640686]","[0.0957116037607193, 0.0736953467130661, 0.03999999910593033]","[0.0, 0.0, -1.0390562259147462]",1.210632571455348,-16.283535238809286,"(0.0, 0.0, 0.0, 0.0, 0.0, 0.0)",2.771136716181199,-0.3095085607892871,-15.746535439217235,"(0.0, 0.0, 0.0, 0.0, 0.0, 0.0)",0.3469037989659341,-1.211323385283169,16.3019569408845,"(0.0, 0.0, 0.0, 0.0, 0.0, 0.0)",-2.7749564531312414,0.30617317599991634,15.835479338328643,"(0.0, 0.0, 0.0, 0.0, 0.0, 0.0)",-0.3479929302165593,False,,,,,False,,,,
8,Close,,,"(0.010001648057231211, 0.16002636889308344, 0.03133184175509247)","(-0.0005384699893107284, 3.3654401557527444e-05, -9.06094284338731e-09)",,"[-0.026750000193715096, 0.05299999937415123, 0.03999999910593033]","[0.0, -0.0, 1.0006360422079206]","[-0.08736064285039902, 0.0918632224202156, 0.03999999910593033]","[0.0, -0.0, 0.4880565025715103]","[0.026750000193715096, 0.05299999937415123, 0.03999999910593033]","[0.0, 0.0, -1.001089448203126]","[0.08737824857234955, 0.09183574467897415, 0.03999999910593033]","[0.0, 0.0, -0.49069812233338583]",0.9605724271186684,-9.615264723164493,"(0.0, 0.0, 0.0, 0.0, 0.0, 0.0)",1.6441783201079794,-0.5513218025251249,-9.298144061583436,"(0.0, 0.0, 0.0, 0.0, 0.0, 0.0)",0.21014173445603831,-0.9609803457758583,9.626142554022893,"(0.0, 0.0, 0.0, 0.0, 0.0, 0.0)",-1.6464751946207798,0.5493522946545342,9.350664461360347,"(0.0, 0.0, 0.0, 0.0, 0.0, 0.0)",-0.2108204377510729,False,,,,,False,,,,
9,Close,,,"(0.010002470404691093, 0.16003952644115657, 0.04045997120998789)","(-0.0008073642479911328, 5.0460303253361964e-05, -2.0369923505779015e-08)",,"[-0.026750000193715096, 0.05299999937415123, 0.03999999910593033]","[0.0, -0.0, 0.8365715799965936]","[-0.0801992267370224, 0.1012408509850502, 0.03999999910593033]","[0.0, -0.0, 0.16533874626364803]","[0.026750000193715096, 0.05299999937415123, 0.03999999910593033]","[0.0, 0.0, -0.8368392086626993]","[0.08021213859319687, 0.10122654587030411, 0.03999999910593033]","[0.0, 0.0, -0.1668985823484083]",0.8129144124893025,-5.677717666381402,"(0.0, 0.0, 0.0, 0.0, 0.0, 0.0)",0.9736078226475493,-0.6941096683608667,-5.490444078796776,"(0.0, 0.0, 0.0, 0.0, 0.0, 0.0)",0.12593397924105265,-0.8131552843771866,5.684140916724979,"(0.0, 0.0, 0.0, 0.0, 0.0, 0.0)",-0.9749785244213759,0.6929466958025952,5.521456795952681,"(0.0, 0.0, 0.0, 0.0, 0.0, 0.0)",-0.12634715317523504,False,,,,,False,,,,
10,Close,,,"(0.010003291824242136, 0.16005266914270105, 0.04523936165140331)","(-0.0010760316083767074, 6.725202012489063e-05, -3.618265319583079e-08)",,"[-0.026750000193715096, 0.05299999937415123, 0.03999999910593033]","[0.0, -0.0, 0.7396932119518481]","[-0.07528240978717804, 0.10618463158607483, 0.03999999910593033]","[0.0, 0.0, -0.025223688738047617]","[0.026750000193715096, 0.05299999937415123, 0.03999999910593033]","[0.0, 0.0, -0.7398511766938903]","[0.07529081404209137, 0.10617695748806, 0.03999999910593033]","[0.0, -0.0, 0.02430263317545323]",0.7257238314308083,-3.352635504821555,"(0.0, 0.0, 0.0, 0.0, 0.0, 0.0)",0.5758654822812497,-0.7784262532781683,-3.242260203768412,"(0.0, 0.0, 0.0, 0.0, 0.0, 0.0)",0.0750123771406224,-0.725866063871885,3.3564283699169333,"(0.0, 0.0, 0.0, 0.0, 0.0, 0.0)",-0.5766799137830688,0.7777395376647703,3.260573592131318,"(0.0, 0.0, 0.0, 0.0, 0.0, 0.0)",-0.0752606958188736,False,,,,,False,,,,
11,Close,,,"(0.009997966950406065, 0.16004795201914346, 0.046616050094935475)","(-0.0009640430328522325, -5.7324486097668704e-05, 4.2980615420070005e-09)",,"[-0.026750000193715096, 0.05299999937415123, 0.03999999910593033]","[0.0, -0.0, 0.682487397988505]","[-0.0721622109413147, 0.10887245088815689, 0.03999999910593033]","[0.0, 0.0, -0.13775029188859572]","[0.026750000193715096, 0.05299999937415123, 0.03999999910593033]","[0.0, 0.0, -0.6825807377410441]","[0.07216742634773254, 0.10886821150779724, 0.03999999910593033]","[0.0, -0.0, 0.1372064129763775]",0.6742386185346878,-1.979696494258342,"(0.0, 0.0, 0.0, 0.0, 0.0, 0.0)",0.34037467823530393,-0.8282145265472606,-1.9144534778819295,"(0.0, 0.0, 0.0, 0.0, 0.0, 0.0)",0.04449932044982575,-0.674322605213594,1.981936139029174,"(0.0, 0.0, 0.0, 0.0, 0.0, 0.0)",-0.3408573424145132,0.8278090365055835,1.9252671252731466,"(0.0, 0.0, 0.0, 0.0, 0.0, 0.0)",-0.04464739446319682,False,,,,,False,,,,
12,Close,,,"(0.009998679410322496, 0.16003066597344334, 0.0474253884764576)","(-0.0006112814540129935, -4.2805404436077314e-05, 1.9447426774393396e-07)",,"[-0.026750000193715096, 0.05299999937415123, 0.03999999910593033]","[0.0, -0.0, 0.6487079580530938]","[-0.07024932652711868, 0.11037428677082062, 0.03999999910593033]","[0.0, 0.0, -0.20419532625251113]","[0.026750000193715096, 0.05299999937415123, 0.03999999910593033]","[0.0, 0.0, -0.6487631098841893]","[0.07025248557329178, 0.11037188768386841, 0.03999999910593033]","[0.0, -0.0, 0.20387417727936794]",0.6438371618585478,-1.1689909828946077,"(0.0, 0.0, 0.0, 0.0, 0.0, 0.0)",0.20110328062585062,-0.8576133287829941,-1.1304144347684295,"(0.0, 0.0, 0.0, 0.0, 0.0, 0.0)",0.026365137971139978,-0.6438867551525752,1.1703134707353389,"(0.0, 0.0, 0.0, 0.0, 0.0, 0.0)",-0.20138889834359572,0.857373897412956,1.136799615752827,"(0.0, 0.0, 0.0, 0.0, 0.0, 0.0)",-0.026453134766811503,False,,,,,False,,,,
13,Close,,,"(0.008562352819313064, 0.15963169911231415, 0.04795936059784778)","(0.002880050037504477, -0.0018080766405500393, 0.027156574699580344)",,"[-0.026750000193715096, 0.05299999937415123, 0.03999999910593033]","[0.0, -0.0, 0.6287615983534538]","[-0.06909634172916412, 0.11123047024011612, 0.03999999910593033]","[0.0, 0.0, -0.24342883421715172]","[0.026750000193715096, 0.05299999937415123, 0.03999999910593033]","[0.0, 0.0, -0.6288059721302652]","[0.06909892708063126, 0.1112285852432251, 0.03999999910593033]","[0.0, -0.0, 0.24295585513718987]",0.6258854057058539,-0.6902774854894381,"(0.0, 0.0, 0.0, 0.0, 0.0, 0.0)",0.11878846609148704,-0.8749713231347032,-0.6674313830745814,"(0.0, 0.0, 0.0, 0.0, 0.0, 0.0)",0.015594191474811038,-0.6259255556368085,0.6912982329409242,"(0.0, 0.0, 0.0, 0.0, 0.0, 0.0)",0.23889456753769728,0.8745816224765113,0.6767593625972839,"(0.0, 0.0, 0.0, 0.0, 0.0, 0.0)",0.18939691443679915,False,,,,,True,"(0.040048198705117485, 0.17954190147604243, 0.02399995236517949)","(-0.9999968496142797, -0.00250969405768167, -4.6874861287478436e-05)",-8.481535683957195e-06,2.863336982423626
14,Move,,,"(0.0021872179113760974, 0.1587702000093447, 0.04795070422976376)","(0.005962162449872379, -0.0033931589555412952, 0.10738858230627975)","[0.0, 0.0, 0.0]","[-0.026750000193715096, 0.05299999937415123, 0.03999999910593033]","[0.0, -0.0, 0.5601465041237582]","[-0.06500434130430222, 0.11399676650762558, 0.03999999910593033]","[0.0, 0.0, -0.31665092698218517]","[0.026750000193715096, 0.05299999937415123, 0.03999999910593033]","[0.0, 0.0, -0.5704791351722326]","[0.06563255190849304, 0.11359824240207672, 0.03999999910593033]","[0.0, -0.0, 0.305956737273258]",0.5441270049833652,-3.8446725897845018,"(0.0, 0.0, 0.0, 0.0, 0.0, 0.0)",-31.016206067854263,-0.862168545717363,3.5109286459519033,"(0.0, 0.0, 0.0, 0.0, 0.0, 0.0)",-15.92332423422567,-0.5571846401428407,3.1906852662822005,"(0.0, 0.0, 0.0, 0.0, 0.0, 0.0)",30.615399196288518,0.8610595255010496,-3.6903265511769647,"(0.0, 0.0, 0.0, 0.0, 0.0, 0.0)",16.541442123431672,True,"(-0.03100426910775894, 0.18018038835621497, 0.05600352127687249)","(0.9944108650409498, 0.10552079154921731, 0.0035205169132651575)",-0.0003255110162118496,255.8309528106214,True,"(0.03234100379217806, 0.17992001197697366, 0.02399647872312752)","(-0.9944108650409488, -0.10552079154922665, -0.003520516913257393)",0.00030258198891258155,195.87528475250997
15,Move,"(0.0028, 0.0, -0.0019)","(0.0, 0.03882310388136187, 0.0)","(0.0026621294129409046, 0.15983821253006075, 0.04788062747642655)","(0.0022266594044104905, 0.0005593827202418546, 0.09392114078067418)","[0.0004749115015648072, 0.0010680125207160607, -7.007675333720736e-05]","[-0.026750000193715096, 0.05299999937415123, 0.03999999910593033]","[0.0, -0.0, 0.527801681604151]","[-0.06301175057888031, 0.11520197242498398, 0.03999999910593033]","[0.0, 0.0, -0.32420924194507134]","[0.026750000193715096, 0.05299999937415123, 0.03999999910593033]","[0.0, 0.0, -0.5541716274398163]","[0.06463921815156937, 0.11422424018383026, 0.03999999910593033]","[0.0, -0.0, 0.2962083452650297]",0.5273027839602158,-0.11974112219592603,"(0.0, 0.0, 0.0, 0.0, 0.0, 0.0)",-0.9460996297710429,-0.8525657930338189,-0.13316367357057285,"(0.0, 0.0, 0.0, 0.0, 0.0, 0.0)",-0.49483767824058894,-0.5565933961969357,-0.5812152108082133,"(0.0, 0.0, 0.0, 0.0, 0.0, 0.0)",0.9876118425797147,0.8510482808290435,0.160384190496513,"(0.0, 0.0, 0.0, 0.0, 0.0, 0.0)",0.4664896897060946,True,"(-0.028512985327101448, 0.1811323341362026, 0.05600311533242741)","(0.9940239572680721, 0.10911769707920065, 0.003114572403053239)",-0.0026445327578124463,6.44634187695285,True,"(0.032108537583669154, 0.17976940546382164, 0.02399688466763773)","(-0.9940239572680716, -0.10911769707920535, -0.003114572403051332)",1.2289879362240159e-05,3.820806003010765
16,Move,"(0.0048, 0.0, -0.0057)","(0.0, 0.008576547944300137, 0.0)","(0.0038909502367175256, 0.1599561797744904, 0.04813263593870265)","(-0.0024315315383977424, 0.002104695346274421, 0.08638278620627048)","[0.0017037323253414282, 0.0011859797651457005, 0.00018193170893889]","[-0.026750000193715096, 0.05299999937415123, 0.03999999910593033]","[0.0, -0.0, 0.5199460045460184]","[-0.06252199411392212, 0.11548491567373276, 0.03999999910593033]","[0.0, 0.0, -0.33022713560729183]","[0.026750000193715096, 0.05299999937415123, 0.03999999910593033]","[0.0, 0.0, -0.5647351862549329]","[0.06528382748365402, 0.11382059007883072, 0.03999999910593033]","[0.0, -0.0, 0.2846477768045008]",0.5180844357637232,-0.44677428772436517,"(0.0, 0.0, 0.0, 0.0, 0.0, 0.0)",-2.0695334665896095,-0.8494557352016063,0.17217507720155933,"(0.0, 0.0, 0.0, 0.0, 0.0, 0.0)",-1.0730320706327707,-0.56633200761016,-0.38325392240627504,"(0.0, 0.0, 0.0, 0.0, 0.0, 0.0)",1.7172675323755806,0.848827596845392,-0.13326364994165318,"(0.0, 0.0, 0.0, 0.0, 0.0, 0.0)",0.7938183119137673,True,"(-0.027626149947310996, 0.18119633151351938, 0.023998230774185277)","(0.9961644064771923, 0.08748341420921575, -0.0017684756832367793)",-0.0021570150646479836,17.352165595799327,True,"(0.03351304927398203, 0.1797374421032633, 0.02399688466763773)","(-0.9940239572680716, -0.10911769707920535, -0.003114572403051332)",6.301367856528342e-05,7.490814167784555
17,Move,"(0.0055, 0.0, -0.0063)","(0.0, 0.004593706591249077, 0.0)","(0.00513332043471499, 0.1599272810510963, 0.048196874762116794)","(-0.0020326587603864544, 0.0013107642126768528, 0.08315621761511692)","[0.0029461025233388925, 0.0011570810417516064, 0.0002461705323530336]","[-0.026750000193715096, 0.05299999937415123, 0.03999999910593033]","[0.0, -0.0, 0.5101513430374502]","[-0.06190827488899231, 0.11583228409290314, 0.03999999910593033]","[0.0, 0.0, -0.33659037449784796]","[0.026750000193715096, 0.05299999937415123, 0.03999999910593033]","[0.0, 0.0, -0.5736854870831158]","[0.0658266469836235, 0.11347326636314392, 0.03999999910593033]","[0.0, -0.0, 0.27326317775145315]",0.5084714945033825,-0.4031738269796157,"(0.0, 0.0, 0.0, 0.0, 0.0, 0.0)",-1.6839686755519605,-0.8461611803686337,0.1393318694294107,"(0.0, 0.0, 0.0, 0.0, 0.0, 0.0)",-0.9394869143432462,-0.575278328497372,-0.3822764631919847,"(0.0, 0.0, 0.0, 0.0, 0.0, 0.0)",1.4043397213643327,0.8465604833474206,-0.09316523850145068,"(0.0, 0.0, 0.0, 0.0, 0.0, 0.0)",0.638967330989244,True,"(-0.026595190684975026, 0.18132261062171667, 0.023998580677335384)","(0.9965125950925536, 0.08343042311864056, -0.001418562705401483)",-0.0018587716680873334,13.33217574067967,True,"(0.03480834536046178, 0.1797475352716581, 0.02399688466763773)","(-0.9940239572680716, -0.10911769707920535, -0.003114572403051332)",4.910761397242031e-05,6.920766901150291
18,Move,"(0.0105, 0.0, -0.0068)","(0.0, 0.034222415973104825, 0.0)","(0.006615937313456899, 0.1598401702481831, 0.048254929633383147)","(-0.0003747790684377982, 0.0012636667690486497, 0.07651932642381479)","[0.004428719402080802, 0.001069970238838397, 0.00030422540361938616]","[-0.026750000193715096, 0.05299999937415123, 0.03999999910593033]","[0.0, -0.0, 0.4984140548225234]","[-0.06116838380694389, 0.11624061316251755, 0.03999999910593033]","[0.0, 0.0, -0.34528828074230206]","[0.026750000193715096, 0.05299999937415123, 0.03999999910593033]","[0.0, 0.0, -0.5846311573866242]","[0.06648620218038559, 0.1130419373512268, 0.03999999910593033]","[0.0, -0.0, 0.2602608743804754]",0.4961173779935304,-0.5511927396620844,"(0.0, 0.0, 0.0, 0.0, 0.0, 0.0)",-1.563506131727675,-0.8431532882577145,0.13176034075292967,"(0.0, 0.0, 0.0, 0.0, 0.0, 0.0)",-0.8786759223915499,-0.5867621614482196,-0.511467324649471,"(0.0, 0.0, 0.0, 0.0, 0.0, 0.0)",1.357832091538656,0.8445079144972205,-0.09215549639775533,"(0.0, 0.0, 0.0, 0.0, 0.0, 0.0)",0.6118078080017647,True,"(-0.02528724344020518, 0.1814243366773526, 0.02399886681715704)","(0.9969697636337874, 0.07778179747474664, -0.0011324228837449781)",-0.0016060851762970138,12.719335692771628,True,"(0.036332220307906914, 0.17971390267941004, 0.02399688466763773)","(-0.9940239572680716, -0.10911769707920535, -0.003114572403051332)",4.503901625777257e-05,5.674095676547007
19,Move,"(0.0103, 0.0, -0.0073)","(0.0, 0.034222415973104825, 0.0)","(0.007974971463675064, 0.15977008081361627, 0.04834636060095899)","(-0.0008852023517572645, 0.0006511684834625894, 0.0708647902818651)","[0.005787753552298967, 0.0009998808042715746, 0.0003956563711952285]","[-0.026750000193715096, 0.05299999937415123, 0.03999999910593033]","[0.0, -0.0, 0.4866418994452388]","[-0.06042154133319855, 0.11664139479398727, 0.03999999910593033]","[0.0, 0.0, -0.3542646062560287]","[0.026750000193715096, 0.05299999937415123, 0.03999999910593033]","[0.0, 0.0, -0.5954186552307711]","[0.06713158637285233, 0.11260978877544403, 0.03999999910593033]","[0.0, -0.0, 0.2475429819058522]",0.4846502533424853,-0.47800148581917573,"(0.0, 0.0, 0.0, 0.0, 0.0, 0.0)",-1.3768888687955096,-0.8404155219758642,0.11784513020802281,"(0.0, 0.0, 0.0, 0.0, 0.0, 0.0)",-0.7968390679782652,-0.5972317006041996,-0.43513174191520054,"(0.0, 0.0, 0.0, 0.0, 0.0, 0.0)",1.2092648580132974,0.8426302749516772,-0.07952367351970975,"(0.0, 0.0, 0.0, 0.0, 0.0, 0.0)",0.5418499978803268,True,"(-0.02395693112148354, 0.1815030871498088, 0.023999182729789955)","(0.9974403873245373, 0.07149830099301074, -0.0008165102508259164)",-0.0013999903071640828,10.892222290901259,True,"(0.03782794585295919, 0.1796598514408482, 0.02399688466763773)","(-0.9940239572680716, -0.10911769707920535, -0.003114572403051332)",4.4025662406622805e-05,5.320127189057068
20,Move,"(0.007, 0.0, -0.0085)","(0.0, 0.038950512916757454, 0.0)","(0.008896322877440258, 0.15971941357946176, 0.0483959259206315)","(-0.0005156514969183566, 0.0004421465350220845, 0.06783513319677278)","[0.00670910496606416, 0.000949213570117069, 0.0004452216908677406]","[-0.026750000193715096, 0.05299999937415123, 0.03999999910593033]","[0.0, -0.0, 0.47821641317888003]","[-0.05988414213061333, 0.11692283302545547, 0.03999999910593033]","[0.0, 0.0, -0.3602185150426382]","[0.026750000193715096, 0.05299999937415123, 0.03999999910593033]","[0.0, 0.0, -0.6029298999701922]","[0.06757818162441254, 0.11230479925870895, 0.03999999910593033]","[0.0, -0.0, 0.23830458403611365]",0.4769681407767627,-0.29959437877905626,"(0.0, 0.0, 0.0, 0.0, 0.0, 0.0)",-1.254774803824525,-0.8380183156198319,0.09999434582669622,"(0.0, 0.0, 0.0, 0.0, 0.0, 0.0)",-0.6848129355798266,-0.6040234780818095,-0.2624813978424704,"(0.0, 0.0, 0.0, 0.0, 0.0, 0.0)",1.0211669191733028,0.840931263729032,-0.07274394512181907,"(0.0, 0.0, 0.0, 0.0, 0.0, 0.0)",0.48736815614627815,True,"(-0.02303418333530685, 0.18156896966313169, 0.023999547568062544)","(0.997667525840743, 0.06825909371823294, -0.0004516719782381958)",-0.001232892671708928,10.012391380234355,True,"(0.03889521875479168, 0.17962271450846684, 0.02399688466763773)","(-0.9940239572680716, -0.10911769707920535, -0.003114572403051332)",4.0753515471970603e-05,4.145108703293111
21,Move,"(0.0111, 0.0, -0.009800000000000001)","(0.0, 0.017139133254584316, 0.0)","(0.01004045692593097, 0.1596428680652834, 0.04847466016386507)","(-0.001212649345937251, 0.00011683812607237203, 0.06261641301842259)","[0.007853239014554873, 0.000872668055938719, 0.0005239559341013098]","[-0.026750000193715096, 0.05299999937415123, 0.03999999910593033]","[0.0, -0.0, 0.46886920012292477]","[-0.059285201132297516, 0.11722974479198456, 0.03999999910593033]","[0.0, 0.0, -0.36721844776221074]","[0.026750000193715096, 0.05299999937415123, 0.03999999910593033]","[0.0, 0.0, -0.6112104920342672]","[0.06806786358356476, 0.11196468770503998, 0.03999999910593033]","[0.0, -0.0, 0.22837602536629872]",0.46699586299491636,-0.4496019931367594,"(0.0, 0.0, 0.0, 0.0, 0.0, 0.0)",-1.305886319261956,-0.8356134109038513,0.11382552880139725,"(0.0, 0.0, 0.0, 0.0, 0.0, 0.0)",-0.7439263358451056,-0.6128817546557631,-0.40109672557823733,"(0.0, 0.0, 0.0, 0.0, 0.0, 0.0)",1.13559708089829,0.839261032391988,-0.07812375324406333,"(0.0, 0.0, 0.0, 0.0, 0.0, 0.0)",0.5108562336239324,True,"(-0.02198376556335189, 0.1816185654236604, 0.02399990294258116)","(0.9979828543700268, 0.06348395947208359, -9.629745962428995e-05)",-0.0010905758642712588,9.351741506300874,True,"(0.04005466990258293, 0.179564055674553, 0.02399688466763773)","(-0.9940239572680716, -0.10911769707920535, -0.003114572403051332)",4.0499769476056453e-05,4.200316269568469
22,Move,"(0.0105, 0.0, -0.0125)","(0.0, 0.09133133442761127, 0.0)","(0.011027968161394897, 0.15956435630353658, 0.04849913422103131)","(-0.0010195392189906519, 5.603902148064599e-05, 0.05958563156150529)","[0.008840750250018799, 0.0007941562941918834, 0.0005484299912675503]","[-0.026750000193715096, 0.05299999937415123, 0.03999999910593033]","[0.0, -0.0, 0.4597898067627739]","[-0.05870069935917854, 0.11752250045537949, 0.03999999910593033]","[0.0, 0.0, -0.3736435495023782]","[0.026750000193715096, 0.05299999937415123, 0.03999999910593033]","[0.0, 0.0, -0.6189103601367932]","[0.06852065026760101, 0.11164479702711105, 0.03999999910593033]","[0.0, -0.0, 0.21884954715226929]",0.4583052207331708,-0.35629088260261144,"(0.0, 0.0, 0.0, 0.0, 0.0, 0.0)",-1.3471832501647876,-0.8329605481964795,0.11347008052738215,"(0.0, 0.0, 0.0, 0.0, 0.0, 0.0)",-0.7612996431321782,-0.620127394762584,-0.2920919517348848,"(0.0, 0.0, 0.0, 0.0, 0.0, 0.0)",1.1744853729188707,0.8374270934393937,-0.07987426412215189,"(0.0, 0.0, 0.0, 0.0, 0.0, 0.0)",0.5368852842942416,True,"(-0.020986396050467565, 0.18167144919274644, 0.02399990806532126)","(0.9980777614532526, 0.06197397663241387, -9.117471952641769e-05)",-0.0009745462179013677,9.363357699636714,True,"(0.04115270336399194, 0.17950796595423063, 0.02399688466763773)","(-0.9940239572680716, -0.10911769707920535, -0.003114572403051332)",4.850561394997561e-05,3.96206063230113
23,Move,"(0.0136, 0.0, -0.0141)","(0.0, 0.16568410589182173, 0.0)","(0.012090154760692287, 0.1594752326044843, 0.04853321946171383)","(-0.0016263115933641058, 0.00017403211013366306, 0.05603397973659048)","[0.00990293684931619, 0.0007050325951395986, 0.000582515231950069]","[-0.026750000193715096, 0.05299999937415123, 0.03999999910593033]","[0.0, -0.0, 0.44993634336437427]","[-0.058063387870788574, 0.1178341880440712, 0.03999999910593033]","[0.0, 0.0, -0.38043492980875876]","[0.026750000193715096, 0.05299999937415123, 0.03999999910593033]","[0.0, 0.0, -0.6264104958928678]","[0.0689593181014061, 0.11132986843585968, 0.03999999910593033]","[0.0, -0.0, 0.20919154092572928]",0.44804558329192284,-0.4537723356669488,"(0.0, 0.0, 0.0, 0.0, 0.0, 0.0)",-1.6355961719751808,-0.829784407490015,0.14084117138406052,"(0.0, 0.0, 0.0, 0.0, 0.0, 0.0)",-0.9343992576864499,-0.6278059775791061,-0.33493543454307256,"(0.0, 0.0, 0.0, 0.0, 0.0, 0.0)",1.4667783851359841,0.8351818692225408,-0.10082048724924869,"(0.0, 0.0, 0.0, 0.0, 0.0, 0.0)",0.6690095896167783,True,"(-0.019914576574549342, 0.181730663009709, 0.02399986203751321)","(0.99839969188151, 0.056551184128825295, -0.00013720252756938963)",-0.00094001588949889,11.363767867069885,True,"(0.0422480542197432, 0.1794541877161974, 0.02399688466763773)","(-0.9940239572680716, -0.10911769707920535, -0.003114572403051332)",6.201753145797615e-05,4.78728054447046
24,Move,"(0.0146, 0.0, -0.0146)","(0.0, 0.18759147866285453, 0.0)","(0.01314109993875307, 0.15939284350485228, 0.04857095358148372)","(-0.0026413539298209237, 0.00021505016835558283, 0.052712951799236386)","[0.010953882027376972, 0.0006226434955075855, 0.000620249351719962]","[-0.026750000193715096, 0.05299999937415123, 0.03999999910593033]","[0.0, -0.0, 0.4393696606877091]","[-0.057376570999622345, 0.11816143989562988, 0.03999999910593033]","[0.0, 0.0, -0.3875654216412247]","[0.026750000193715096, 0.05299999937415123, 0.03999999910593033]","[0.0, 0.0, -0.6339012693738133]","[0.06939506530761719, 0.1110120564699173, 0.03999999910593033]","[0.0, -0.0, 0.199210713243784]",0.43749429746112317,-0.4500833113115703,"(0.0, 0.0, 0.0, 0.0, 0.0, 0.0)",-1.7890789123326531,-0.8263051370411071,0.1511854416508027,"(0.0, 0.0, 0.0, 0.0, 0.0, 0.0)",-1.0140792755262378,-0.6352028918031032,-0.31239442555388897,"(0.0, 0.0, 0.0, 0.0, 0.0, 0.0)",1.612096331977033,0.8326481611832257,-0.11131129322782352,"(0.0, 0.0, 0.0, 0.0, 0.0, 0.0)",0.7432913206454252,True,"(-0.018773312461517387, 0.1817879961846006, 0.02399981283295649)","(0.9985863420059365, 0.05315338946484487, -0.00018640708429331536)",-0.0009494763949657881,12.386821876378443,True,"(0.043365061818846105, 0.1793995741650084, 0.02399688466763773)","(-0.9940239572680716, -0.10911769707920535, -0.003114572403051332)",7.34249722048074e-05,4.71270950888103
25,Move,"(0.0126, 0.0, -0.014199999999999999)","(0.0, 0.19366347913054283, 0.0)","(0.013931926318319361, 0.15938976406761013, 0.04859992690787877)","(-0.0038543242154283233, 0.0004404386864858042, 0.05160174119665097)","[0.011744708406943263, 0.0006195640582654371, 0.0006492226781150065]","[-0.026750000193715096, 0.05299999937415123, 0.03999999910593033]","[0.0, -0.0, 0.4307075823159166]","[-0.05681099742650986, 0.11842428147792816, 0.03999999910593033]","[0.0, 0.0, -0.39277537611756064]","[0.026750000193715096, 0.05299999937415123, 0.03999999910593033]","[0.0, 0.0, -0.6394113085521638]","[0.06971406191587448, 0.11077620089054108, 0.03999999910593033]","[0.0, -0.0, 0.1911016739353771]",0.4293368603471817,-0.3289742545025223,"(0.0, 0.0, 0.0, 0.0, 0.0, 0.0)",-1.803975452889851,-0.8228637445133417,0.14860444857107702,"(0.0, 0.0, 0.0, 0.0, 0.0, 0.0)",-0.9968796450383564,-0.640228812656251,-0.19621375340091293,"(0.0, 0.0, 0.0, 0.0, 0.0, 0.0)",1.5883120365461736,0.8300573355181445,-0.10933843144184412,"(0.0, 0.0, 0.0, 0.0, 0.0, 0.0)",0.7507932646855047,True,"(-0.017876956837143555, 0.18185250230156697, 0.023999674358791828)","(0.9986679268871274, 0.051597153595341554, -0.0003248812489553469)",-0.0009706701966655931,12.492749010915693,True,"(0.04423998243947462, 0.17933936440344062, 0.04700285698560811)","(-0.9982001020173387, -0.059971290828678456, 2.467623780126708e-05)",-3.668156054036641e-06,12.498969797091862
26,Move,"(0.0135, 0.0, -0.016100000000000003)","(0.0, 0.1605144406474145, 0.0)","(0.014732855974892172, 0.15936661065701876, 0.048630454917076106)","(-0.0048303892267825225, 0.00048197155856219095, 0.0502898566321513)","[0.012545638063516074, 0.0005964106476740727, 0.0006797506873123457]","[-0.026750000193715096, 0.05299999937415123, 0.03999999910593033]","[0.0, -0.0, 0.42285637577569596]","[-0.056296419352293015, 0.11865827441215515, 0.03999999910593033]","[0.0, 0.0, -0.3974161637333332]","[0.026750000193715096, 0.05299999937415123, 0.03999999910593033]","[0.0, 0.0, -0.6445050253257973]","[0.0700078010559082, 0.11055660247802734, 0.03999999910593033]","[0.0, -0.0, 0.18358685882232548]",0.4214461061174517,-0.3384735985460321,"(0.0, 0.0, 0.0, 0.0, 0.0, 0.0)",-1.649790559786096,-0.8197143096749326,0.1339641941133628,"(0.0, 0.0, 0.0, 0.0, 0.0, 0.0)",-0.9131349082941872,-0.645457431182004,-0.2285784489050737,"(0.0, 0.0, 0.0, 0.0, 0.0, 0.0)",1.4577827893233597,0.82766528523072,-0.10238099809422083,"(0.0, 0.0, 0.0, 0.0, 0.0, 0.0)",0.6883535913316071,True,"(-0.017068614285969876, 0.18190860756490285, 0.023999551755272932)","(0.9987271413067701, 0.050437059535519496, -0.0004474847678520049)",-0.0009689844770567213,11.374977398505589,True,"(0.045049675471545716, 0.1793092619436667, 0.04700285698560811)","(-0.9982001020173387, -0.059971290828678456, 2.467623780126708e-05)",-4.011430758262867e-06,11.382916834781769
27,Move,"(0.0148, 0.0, -0.0166)","(0.0, 0.12016417367055761, 0.0)","(0.015613700539981694, 0.15930325997055933, 0.04866630872375255)","(-0.005608420235888258, 0.00023068332644885555, 0.04824698501043112)","[0.013426482628605596, 0.0005330599612146381, 0.000715604493988789]","[-0.026750000193715096, 0.05299999937415123, 0.03999999910593033]","[0.0, -0.0, 0.4146316214353092]","[-0.05575540289282799, 0.11889906227588654, 0.03999999910593033]","[0.0, 0.0, -0.4027198544765256]","[0.026750000193715096, 0.05299999937415123, 0.03999999910593033]","[0.0, 0.0, -0.6504144843544271]","[0.07034717500209808, 0.1102999672293663, 0.03999999910593033]","[0.0, -0.0, 0.1754526834200606]",0.4131410515119678,-0.3577437575440986,"(0.0, 0.0, 0.0, 0.0, 0.0, 0.0)",-1.4950936759278592,-0.8168412529003889,0.12246551089352578,"(0.0, 0.0, 0.0, 0.0, 0.0, 0.0)",-0.8332218558289549,-0.6515173657493707,-0.2646930654728484,"(0.0, 0.0, 0.0, 0.0, 0.0, 0.0)",1.340574188536759,0.8254783619727716,-0.09330922676892482,"(0.0, 0.0, 0.0, 0.0, 0.0, 0.0)",0.629285811956332,True,"(-0.016192842959698556, 0.18194384573159356, 0.023999747300812425)","(0.9988215193121392, 0.04853358719088536, -0.0002519392283578574)",-0.0009323864739546487,10.196968855359556,True,"(0.045949112408668356, 0.17925336547503973, 0.04700285698560811)","(-0.9982001020173387, -0.059971290828678456, 2.467623780126708e-05)",-4.758049549145323e-06,10.412379910200514
28,Move,"(0.0145, 0.0, -0.0205)","(0.0, 0.07314849428033433, 0.0)","(0.016425123741726073, 0.15924108412122176, 0.048695294459633394)","(-0.006125307046886842, 4.063234158118829e-05, 0.04647443568421991)","[0.014237905830349975, 0.0004708841118770679, 0.0007445902298696336]","[-0.026750000193715096, 0.05299999937415123, 0.03999999910593033]","[0.0, -0.0, 0.40694268051360805]","[-0.05524785816669464, 0.11912013590335846, 0.03999999910593033]","[0.0, 0.0, -0.4077599175745212]","[0.026750000193715096, 0.05299999937415123, 0.03999999910593033]","[0.0, 0.0, -0.6562146798248892]","[0.07067879289388657, 0.1100461333990097, 0.03999999910593033]","[0.0, -0.0, 0.16764409621361254]",0.4056384024476835,-0.31303242784253077,"(0.0, 0.0, 0.0, 0.0, 0.0, 0.0)",-1.4083656844850194,-0.8142174899561408,0.11644137358163387,"(0.0, 0.0, 0.0, 0.0, 0.0, 0.0)",-0.7819723230437446,-0.6572123035014155,-0.23943366242320108,"(0.0, 0.0, 0.0, 0.0, 0.0, 0.0)",1.230935740944917,0.8234999687117308,-0.08610901508027914,"(0.0, 0.0, 0.0, 0.0, 0.0, 0.0)",0.5764333543642614,True,"(-0.015368134985549758, 0.18196664793756634, 0.02399987997379377)","(0.9988752395846894, 0.047415625274710244, -0.00011926624701623271)",-0.0008792410694494388,9.586282121372848,True,"(0.04682088968759869, 0.17915127151168775, 0.04686609055747276)","(-0.9988962665696792, -0.04697071154408218, 2.9836204096962425e-05)",-5.278129844463856e-06,9.022512506082798
29,Move,"(0.0116, 0.0, -0.0212)","(0.0, 0.025778513051956248, 0.0)","(0.016950752486024793, 0.1592215013977167, 0.04870326738919781)","(-0.00599756697500459, 0.00011584639341604928, 0.04612005351104454)","[0.014763534574648695, 0.0004513013883720163, 0.0007525631594340471]","[-0.026750000193715096, 0.05299999937415123, 0.03999999910593033]","[0.0, -0.0, 0.40174091094847864]","[-0.054903529584407806, 0.11926747858524323, 0.03999999910593033]","[0.0, 0.0, -0.41073269404385526]","[0.026750000193715096, 0.05299999937415123, 0.03999999910593033]","[0.0, 0.0, -0.660031424839916]","[0.0708962008357048, 0.1098780557513237, 0.03999999910593033]","[0.0, -0.0, 0.16213422016141027]",0.4010090188706732,-0.1756573740997677,"(0.0, 0.0, 0.0, 0.0, 0.0, 0.0)",-1.1344961408181164,-0.8121145902040913,0.08615083760162254,"(0.0, 0.0, 0.0, 0.0, 0.0, 0.0)",-0.6026911372453383,-0.6605485331823606,-0.12410518143661267,"(0.0, 0.0, 0.0, 0.0, 0.0, 0.0)",0.9399394028933445,0.8218827821337072,-0.06789279097079458,"(0.0, 0.0, 0.0, 0.0, 0.0, 0.0)",0.458596670089187,True,"(-0.014837324239735647, 0.18199879946680203, 0.023999914346095264)","(0.9989371574526146, 0.046092822147364154, -8.489394551955083e-05)",-0.0008194070240849445,7.7755467010621775,True,"(0.047419517299764374, 0.17911123678810364, 0.04686470803598055)","(-0.9989195082592097, -0.046473810753884584, 3.054817085689896e-05)",1.042572313592162e-06,6.996913431649074
30,Move,"(0.0094, 0.0, -0.018000000000000002)","(0.0, 0.06938556441303458, 0.0)","(0.017160679239419024, 0.15923536198786706, 0.04870286632881884)","(-0.005586554590237952, 0.00022602296162222338, 0.046563076177404454)","[0.014973461328042927, 0.00046516197852236596, 0.0007521620990550773]","[-0.026750000193715096, 0.05299999937415123, 0.03999999910593033]","[0.0, -0.0, 0.3993561979742365]","[-0.054745424538850784, 0.11933442950248718, 0.03999999910593033]","[0.0, 0.0, -0.41133104293158784]","[0.026750000193715096, 0.05299999937415123, 0.03999999910593033]","[0.0, 0.0, -0.661264812451028]","[0.07096632570028305, 0.1098235622048378, 0.03999999910593033]","[0.0, -0.0, 0.159397461303197]",0.39908896921796916,-0.06415103813043926,"(0.0, 0.0, 0.0, 0.0, 0.0, 0.0)",-1.0098880314801286,-0.8103877612174615,0.07189960846320229,"(0.0, 0.0, 0.0, 0.0, 0.0, 0.0)",-0.49470438289306645,-0.6613323842395837,-0.016206175469740288,"(0.0, 0.0, 0.0, 0.0, 0.0, 0.0)",0.8144459080742441,0.8203992358533515,-0.06313902833032727,"(0.0, 0.0, 0.0, 0.0, 0.0, 0.0)",0.4232137414977697,True,"(-0.01464172760816284, 0.1820426935962891, 0.023999797820653732)","(0.9989215305666344, 0.04642989554848179, -0.0002014193870513436)",-0.0007620123351468587,7.069624124911175,True,"(0.04767920275606794, 0.17912073352795144, 0.04686470803598055)","(-0.9989195082592097, -0.046473810753884584, 3.054817085689896e-05)",1.4573137576610015e-06,6.206233750329725
31,Move,"(0.0032, 0.0, -0.016399999999999998)","(0.0, 0.11331201102722786, 0.0)","(0.016758147264108944, 0.15928646135699637, 0.04870249035578625)","(-0.0032330412882068137, -0.0005825116164628166, 0.04813060761866476)","[0.014570929352732846, 0.0005162613476516753, 0.0007517861260224884]","[-0.026750000193715096, 0.05299999937415123, 0.03999999910593033]","[0.0, -0.0, 0.40187787005959597]","[-0.05491260811686516, 0.11926361918449402, 0.03999999910593033]","[0.0, 0.0, -0.40765114491388943]","[0.026750000193715096, 0.05299999937415123, 0.03999999910593033]","[0.0, 0.0, -0.6578700628214574]","[0.0707731619477272, 0.10997334122657776, 0.03999999910593033]","[0.0, -0.0, 0.16109774842498675]",0.4026941662403884,0.19590119785185148,"(0.0, 0.0, 0.0, 0.0, 0.0, 0.0)",-0.70843891507152,-0.8093594312882308,0.0406964759029752,"(0.0, 0.0, 0.0, 0.0, 0.0, 0.0)",-0.275438725486818,-0.656924446217787,0.2269263789784252,"(0.0, 0.0, 0.0, 0.0, 0.0, 0.0)",0.9537722666205302,0.8186022146574664,-0.08771926065091129,"(0.0, 0.0, 0.0, 0.0, 0.0, 0.0)",0.5665094839824871,True,"(-0.015039956199807046, 0.18211922468747727, 0.023999744846741375)","(0.9989102044754556, 0.04667267593413223, -0.0002543932994106212)",-0.0006662600849914778,3.961178849738092,True,"(0.047368247805603565, 0.17923082032589954, 0.04686470803598055)","(-0.9989195082592097, -0.046473810753884584, 3.054817085689896e-05)",1.9235612041442097e-07,5.826112135452694
32,Move,"(0.0024, 0.0, -0.0167)","(0.0, 0.1302259968083049, 0.0)","(0.01623185786285644, 0.15933559732262872, 0.048709588980991425)","(-0.0011305572007574243, -0.0013543254404653053, 0.04988090667610982)","[0.014044639951480344, 0.0005653973132840329, 0.0007588847512276647]","[-0.026750000193715096, 0.05299999937415123, 0.03999999910593033]","[0.0, -0.0, 0.40640380560945666]","[-0.055212218314409256, 0.11913548409938812, 0.03999999910593033]","[0.0, 0.0, -0.40219586038378363]","[0.026750000193715096, 0.05299999937415123, 0.03999999910593033]","[0.0, 0.0, -0.6524925829964952]","[0.07046614587306976, 0.11020924896001816, 0.03999999910593033]","[0.0, -0.0, 0.16450365889785326]",0.4072039649725951,0.19204318940056903,"(0.0, 0.0, 0.0, 0.0, 0.0, 0.0)",-0.6901327827692304,-0.8084337354250295,0.03980580334599942,"(0.0, 0.0, 0.0, 0.0, 0.0, 0.0)",-0.26120914729232614,-0.6515294193338027,0.23112625447170043,"(0.0, 0.0, 0.0, 0.0, 0.0, 0.0)",0.9275271221592143,0.8166532183554361,-0.08229657746791275,"(0.0, 0.0, 0.0, 0.0, 0.0, 0.0)",0.5637304812978505,True,"(-0.01568305409552856, 0.18220766619768086, 0.023999744846741375)","(0.9989102044754556, 0.04667267593413223, -0.0002543932994106212)",-0.0005716166741552169,3.751060515821942,True,"(0.046825486682430334, 0.17938661396178374, 0.04686470803598055)","(-0.9989195082592097, -0.046473810753884584, 3.054817085689896e-05)",1.6865663153797045e-05,3.937371748168657
33,Move,"(0.0017, 0.0, -0.016800000000000002)","(0.0, 0.13186660630517957, 0.0)","(0.015686555705052715, 0.15939295507633108, 0.04872824692742921)","(0.00018242405377694504, -0.0020072596036622816, 0.05203580833574262)","[0.013499337793676618, 0.0006227550669863913, 0.0007775426976654523]","[-0.026750000193715096, 0.05299999937415123, 0.03999999910593033]","[0.0, -0.0, 0.4110155056784658]","[-0.055516909807920456, 0.11900351941585541, 0.03999999910593033]","[0.0, 0.0, -0.3967189589383132]","[0.026750000193715096, 0.05299999937415123, 0.03999999910593033]","[0.0, 0.0, -0.6469681676532517]","[0.07014944404363632, 0.110449880361557, 0.03999999910593033]","[0.0, -0.0, 0.16819032732807448]",0.4118471591008948,0.19960861259508142,"(0.0, 0.0, 0.0, 0.0, 0.0, 0.0)",-0.6317482590531884,-0.80757691290978,0.03781044528157605,"(0.0, 0.0, 0.0, 0.0, 0.0, 0.0)",-0.23943919304511377,-0.6459746595168094,0.23844150747272064,"(0.0, 0.0, 0.0, 0.0, 0.0, 0.0)",0.8298446739786763,0.8148459370181045,-0.07500973320975181,"(0.0, 0.0, 0.0, 0.0, 0.0, 0.0)",0.5125826476750087,True,"(-0.016333770837550318, 0.18229125161988913, 0.023999744846741375)","(0.9989102044754556, 0.04667267593413223, -0.0002543932994106212)",-0.0004974342137463176,3.291742248290091,True,"(0.04625391078198947, 0.1795396155838248, 0.04686470803598055)","(-0.9989195082592097, -0.046473810753884584, 3.054817085689896e-05)",2.8733413797798016e-05,2.2994446922183975
34,Move,"(-0.0008, 0.0, -0.0169)","(0.0, 0.12517850461153732, 0.0)","(0.01498022573512571, 0.1594925509718518, 0.04879993186447474)","(-0.00036114412844937715, -0.002441888663982257, 0.05585247508836787)","[0.012793007823749612, 0.0007223509625071123, 0.0008492276347109792]","[-0.026750000193715096, 0.05299999937415123, 0.03999999910593033]","[0.0, -0.0, 0.41692578732492386]","[-0.0559065081179142, 0.11883234977722168, 0.03999999910593033]","[0.0, 0.0, -0.3900492327502788]","[0.026750000193715096, 0.05299999937415123, 0.03999999910593033]","[0.0, 0.0, -0.640320757152397]","[0.06976659595966339, 0.11073710024356842, 0.03999999910593033]","[0.0, -0.0, 0.17321803949552914]",0.4180904190630269,0.2795131065049249,"(0.0, 0.0, 0.0, 0.0, 0.0, 0.0)",-0.5481094196069731,-0.8068503599603258,0.02991033461231441,"(0.0, 0.0, 0.0, 0.0, 0.0, 0.0)",-0.19330343965331084,-0.6390404475838889,0.30727822823549666,"(0.0, 0.0, 0.0, 0.0, 0.0, 0.0)",0.674582869558664,0.8132622856186879,-0.06636657159577,"(0.0, 0.0, 0.0, 0.0, 0.0, 0.0)",0.4499150935324686,True,"(-0.01714635294502727, 0.18238001186815034, 0.023999744846741375)","(0.9989102044754556, 0.04667267593413223, -0.0002543932994106212)",-0.00043061695080310057,2.7093297629335686,True,"(0.04552400195345389, 0.17970582434424354, 0.04686470803598055)","(-0.9989195082592097, -0.046473810753884584, 3.054817085689896e-05)",3.988004593945575e-05,0.13418846576376095
35,Move,"(-0.0032, 0.0, -0.0171)","(0.0, 0.09982934255557166, 0.0)","(0.014126596150771109, 0.15955263117440974, 0.04884578254522206)","(-0.0005846846559671567, -0.002249665253642306, 0.0604375315892485)","[0.011939378239395011, 0.0007824311650650451, 0.0008950783154582989]","[-0.026750000193715096, 0.05299999937415123, 0.03999999910593033]","[0.0, -0.0, 0.4244412145124914]","[-0.05640043318271637, 0.11861137300729752, 0.03999999910593033]","[0.0, 0.0, -0.38198939751724403]","[0.026750000193715096, 0.05299999937415123, 0.03999999910593033]","[0.0, 0.0, -0.6324111878026277]","[0.0693085789680481, 0.11107553541660309, 0.03999999910593033]","[0.0, -0.0, 0.17992046944215215]",0.4258676733663458,0.3423733216117422,"(0.0, 0.0, 0.0, 0.0, 0.0, 0.0)",-0.4009655415469811,-0.8063450376112753,0.020509918747772356,"(0.0, 0.0, 0.0, 0.0, 0.0, 0.0)",-0.1339250434149066,-0.6309381472277587,0.3535309588287684,"(0.0, 0.0, 0.0, 0.0, 0.0, 0.0)",0.4469223130655458,0.8121437930581042,-0.04508310727800437,"(0.0, 0.0, 0.0, 0.0, 0.0, 0.0)",0.3144629409983531,True,"(-0.018153713772925108, 0.18246936658658225, 0.023999744846741375)","(0.9989102044754556, 0.04667267593413223, -0.0002543932994106212)",-0.0003623714800851818,1.943685491012521,True,"(0.044604276399376884, 0.17988022635577644, 0.04686470803598055)","(-0.9989195082592097, -0.046473810753884584, 3.054817085689896e-05)",3.788171126902628e-05,0.0
36,Move,"(-0.001, 0.0, -0.0172)","(0.0, 0.12517850461153732, 0.0)","(0.013477313009715565, 0.15960441795313007, 0.04886220508278702)","(-0.00018821279414078432, -0.0024351073598166966, 0.0633997554811882)","[0.011290095098339467, 0.0008342179437853814, 0.0009115008530232588]","[-0.026750000193715096, 0.05299999937415123, 0.03999999910593033]","[0.0, -0.0, 0.4304740124968958]","[-0.056795716285705566, 0.11843129992485046, 0.03999999910593033]","[0.0, 0.0, -0.37535463736540575]","[0.026750000193715096, 0.05299999937415123, 0.03999999910593033]","[0.0, 0.0, -0.6256979516230154]","[0.06891774386167526, 0.11135993152856827, 0.03999999910593033]","[0.0, -0.0, 0.18532238418590993]",0.4313675529257066,0.2144451091420957,"(0.0, 0.0, 0.0, 0.0, 0.0, 0.0)",-0.4933406757138361,-0.8057088891618311,0.028754919889395658,"(0.0, 0.0, 0.0, 0.0, 0.0, 0.0)",-0.177276451066338,-0.6246452030336668,0.2526463507283177,"(0.0, 0.0, 0.0, 0.0, 0.0, 0.0)",0.6227615001010343,0.8107616417703861,-0.06207170096156259,"(0.0, 0.0, 0.0, 0.0, 0.0, 0.0)",0.4100692572592833,True,"(-0.018973517383006594, 0.18254164363739395, 0.023999744846741375)","(0.9989102044754556, 0.04667267593413223, -0.0002543932994106212)",-0.0003192318743698198,2.3984741177377926,True,"(0.04384212605407103, 0.18003016971466318, 0.04686470803598055)","(-0.9989195082592097, -0.046473810753884584, 3.054817085689896e-05)",4.118749136990518e-05,0.0
37,Move,"(-0.0013000000000000002, 0.0, -0.0159)","(0.0, 0.1470247908587503, 0.0)","(0.012854815871849973, 0.15967577104403965, 0.048887133182329366)","(-0.0006698008536267141, -0.002733143387922242, 0.06584576790272978)","[0.010667597960473875, 0.000905571034694963, 0.0009364289525656058]","[-0.026750000193715096, 0.05299999937415123, 0.03999999910593033]","[0.0, -0.0, 0.4354265986838251]","[-0.057119399309158325, 0.11828169226646423, 0.03999999910593033]","[0.0, 0.0, -0.36968109026202634]","[0.026750000193715096, 0.05299999937415123, 0.03999999910593033]","[0.0, 0.0, -0.6196397815006371]","[0.06856342405080795, 0.11161431670188904, 0.03999999910593033]","[0.0, -0.0, 0.18980901663675226]",0.4363013973522898,0.20995964729906577,"(0.0, 0.0, 0.0, 0.0, 0.0, 0.0)",-0.5547267656888423,-0.8049771996268422,0.03130564478283035,"(0.0, 0.0, 0.0, 0.0, 0.0, 0.0)",-0.20120979524322125,-0.6185484407321571,0.26192964476948155,"(0.0, 0.0, 0.0, 0.0, 0.0, 0.0)",0.70337302915205,0.8091656742352678,-0.06796614374636639,"(0.0, 0.0, 0.0, 0.0, 0.0, 0.0)",0.46297197607269214,True,"(-0.019661541251443954, 0.1826055942432917, 0.023999744846741375)","(0.9989102044754556, 0.04667267593413223, -0.0002543932994106212)",-0.000301855929991567,2.7556164151378435,True,"(0.04317995760244138, 0.1801713559531293, 0.04686470803598055)","(-0.9989195082592097, -0.046473810753884584, 3.054817085689896e-05)",4.806622999729526e-05,0.0
38,Move,"(-0.0009000000000000001, 0.0, -0.0162)","(0.0, 0.14520441244892024, 0.0)","(0.01231058928476036, 0.1597405972946998, 0.04890060525495273)","(-0.0010995231901660264, -0.003043258699108806, 0.06740666713666908)","[0.010123371373384262, 0.0009703972853551124, 0.000949901025188972]","[-0.026750000193715096, 0.05299999937415123, 0.03999999910593033]","[0.0, -0.0, 0.43972458787285784]","[-0.0573996938765049, 0.11815056949853897, 0.03999999910593033]","[0.0, 0.0, -0.36464065286481523]","[0.026750000193715096, 0.05299999937415123, 0.03999999910593033]","[0.0, 0.0, -0.6141090994703078]","[0.06823860853910446, 0.11184467375278473, 0.03999999910593033]","[0.0, -0.0, 0.19373992537248114]",0.4404334824647994,0.17015511788937662,"(0.0, 0.0, 0.0, 0.0, 0.0, 0.0)",-0.5572980860466911,-0.804229343647981,0.03259602302169186,"(0.0, 0.0, 0.0, 0.0, 0.0, 0.0)",-0.20749771590724148,-0.6131793623522297,0.22313875249343643,"(0.0, 0.0, 0.0, 0.0, 0.0, 0.0)",0.7215027544715403,0.8075632894299,-0.06858346173401489,"(0.0, 0.0, 0.0, 0.0, 0.0, 0.0)",0.4654013550011158,True,"(-0.020266530232731762, 0.18266245123680205, 0.023999744846741375)","(0.9989102044754556, 0.04667267593413223, -0.0002543932994106212)",-0.00029108262452379424,2.7053632508026446,True,"(0.042585847455678234, 0.18030140696715985, 0.04686470803598055)","(-0.9989195082592097, -0.046473810753884584, 3.054817085689896e-05)",5.066367171082651e-05,0.0
39,Move,"(-0.0029, 0.0, -0.014400000000000001)","(0.0, 0.1708869323920168, 0.0)","(0.011621072393964713, 0.15977234636625856, 0.04888114163019437)","(8.310518936256691e-05, -0.003336765798267525, 0.06978674292066739)","[0.009433854482588615, 0.0010021463569138689, 0.0009304374004306115]","[-0.026750000193715096, 0.05299999937415123, 0.03999999910593033]","[0.0, -0.0, 0.44465071810988066]","[-0.05772026255726814, 0.11799879372119904, 0.03999999910593033]","[0.0, 0.0, -0.35887293579428503]","[0.026750000193715096, 0.05299999937415123, 0.03999999910593033]","[0.0, 0.0, -0.6077218743353024]","[0.06786190718412399, 0.11210846900939941, 0.03999999910593033]","[0.0, -0.0, 0.19833930332829938]",0.4456149580273124,0.23143080583411624,"(0.0, 0.0, 0.0, 0.0, 0.0, 0.0)",-0.7246329204565027,-0.8033564811564606,0.04010925383215847,"(0.0, 0.0, 0.0, 0.0, 0.0, 0.0)",-0.25965180024714424,-0.6064782168137466,0.29847626227863,"(0.0, 0.0, 0.0, 0.0, 0.0, 0.0)",0.8017782192358771,0.8057173775029868,-0.0825069822492057,"(0.0, 0.0, 0.0, 0.0, 0.0, 0.0)",0.539249514377526,True,"(-0.020959801086372937, 0.18272377541192786, 0.023999744846741375)","(0.9989102044754556, 0.04667267593413223, -0.0002543932994106212)",-0.00029670943629638935,3.769872420900643,True,"(0.041894565213929494, 0.1804464930263343, 0.04686470803598055)","(-0.9989195082592097, -0.046473810753884584, 3.054817085689896e-05)",5.929589214406356e-05,0.0
40,Move,"(-0.003, 0.0, -0.0156)","(0.0, 0.19064405952459257, 0.0)","(0.010949011609921625, 0.15985155837382162, 0.04889644359722282)","(-0.0005584696120562733, -0.0037859658836706983, 0.07193369714444625)","[0.008761793698545527, 0.0010813583644769253, 0.0009457393674590572]","[-0.026750000193715096, 0.05299999937415123, 0.03999999910593033]","[0.0, -0.0, 0.4495703272343116]","[-0.05803966149687767, 0.11784563958644867, 0.03999999910593033]","[0.0, 0.0, -0.35295340538750686]","[0.026750000193715096, 0.05299999937415123, 0.03999999910593033]","[0.0, 0.0, -0.6009484813558044]","[0.06746059656143188, 0.1123855784535408, 0.03999999910593033]","[0.0, -0.0, 0.20299355776463857]",0.4504013157769195,0.19943131441362422,"(0.0, 0.0, 0.0, 0.0, 0.0, 0.0)",-0.7814935342122811,-0.8023339275554638,0.045550705772216434,"(0.0, 0.0, 0.0, 0.0, 0.0, 0.0)",-0.2921637623604647,-0.5997620995542898,0.2847209205853043,"(0.0, 0.0, 0.0, 0.0, 0.0, 0.0)",0.9829117549543159,0.8035485054893278,-0.09442593375376793,"(0.0, 0.0, 0.0, 0.0, 0.0, 0.0)",0.6341968866095343,True,"(-0.021662984734078877, 0.18278709620330508, 0.023999744846741375)","(0.9989102044754556, 0.04667267593413223, -0.0002543932994106212)",-0.00032014266591141557,3.8961525561142203,True,"(0.04117548013647834, 0.18060200616200667, 0.04686470803598055)","(-0.9989195082592097, -0.046473810753884584, 3.054817085689896e-05)",6.997573959740965e-05,0.0
41,Move,"(-0.001, 0.0, -0.0157)","(0.0, 0.18024538784121039, 0.0)","(0.01051947571229799, 0.15993628617268138, 0.04890776277119231)","(-0.0013373457817040634, -0.004634405263342227, 0.07258840527111941)","[0.008332257800921892, 0.0011660861633366881, 0.0009570585414285515]","[-0.026750000193715096, 0.05299999937415123, 0.03999999910593033]","[0.0, -0.0, 0.4526617138831505]","[-0.05823997035622597, 0.11774860322475433, 0.03999999910593033]","[0.0, 0.0, -0.34874738050738285]","[0.026750000193715096, 0.05299999937415123, 0.03999999910593033]","[0.0, 0.0, -0.5959304505917215]","[0.06716208904981613, 0.11258911341428757, 0.03999999910593033]","[0.0, -0.0, 0.2058667303040114]",0.4530684228173744,0.09761410206259546,"(0.0, 0.0, 0.0, 0.0, 0.0, 0.0)",-0.7838904749220054,-0.8011993126864206,0.05034370747763921,"(0.0, 0.0, 0.0, 0.0, 0.0, 0.0)",-0.3245327675178277,-0.5951875698228695,0.17828710759390198,"(0.0, 0.0, 0.0, 0.0, 0.0, 0.0)",1.0245186770577392,0.8014249378348937,-0.08933573263610034,"(0.0, 0.0, 0.0, 0.0, 0.0, 0.0)",0.6038715734564115,True,"(-0.02213675921008352, 0.18284248440877096, 0.023999744846741375)","(0.9989102044754556, 0.04667267593413223, -0.0002543932994106212)",-0.0003274678397449066,3.567241410213623,True,"(0.04068107924112978, 0.1807297389889608, 0.04686470803598055)","(-0.9989195082592097, -0.046473810753884584, 3.054817085689896e-05)",7.425127476368777e-05,0.0
42,Move,"(-0.0019, 0.0, -0.0172)","(0.0, 0.11675554564141268, 0.0)","(0.010138754780260053, 0.15999023215047736, 0.04892122375719009)","(-0.0017280747603006796, -0.005056849860121174, 0.07320729383260577)","[0.007951536868883955, 0.0012200321411326709, 0.0009705195274263279]","[-0.026750000193715096, 0.05299999937415123, 0.03999999910593033]","[0.0, -0.0, 0.45545033865095486]","[-0.05842040851712227, 0.1176605373620987, 0.03999999910593033]","[0.0, 0.0, -0.345080782312365]","[0.026750000193715096, 0.05299999937415123, 0.03999999910593033]","[0.0, 0.0, -0.5919502977649161]","[0.06692460179328918, 0.11274948716163635, 0.03999999910593033]","[0.0, -0.0, 0.20820826329094969]",0.4559926636584836,0.13016037590961105,"(0.0, 0.0, 0.0, 0.0, 0.0, 0.0)",-0.519527697021961,-0.8003987371100785,0.031774682639319936,"(0.0, 0.0, 0.0, 0.0, 0.0, 0.0)",-0.20852221676619223,-0.591259701076596,0.1657392616050184,"(0.0, 0.0, 0.0, 0.0, 0.0, 0.0)",0.6987393716031948,0.7999029778850631,-0.061336723917557456,"(0.0, 0.0, 0.0, 0.0, 0.0, 0.0)",0.42731313309130775,True,"(-0.022556110452872327, 0.18288635623153848, 0.023999744846741375)","(0.9989102044754556, 0.04667267593413223, -0.0002543932994106212)",-0.00028888522844828406,1.9866028026293279,True,"(0.040284105562947724, 0.18082792001592457, 0.04686470803598055)","(-0.9989195082592097, -0.046473810753884584, 3.054817085689896e-05)",7.091924551217944e-05,0.0
43,Move,"(0.0025, 0.0, -0.0176)","(0.0, 0.10333396369357628, 0.0)","(0.01018227588967653, 0.16001899383871698, 0.04892548818986178)","(-0.0019320511280058713, -0.004693401407829422, 0.07362711627995007)","[0.007995057978300432, 0.0012487938293722911, 0.0009747839600980218]","[-0.026750000193715096, 0.05299999937415123, 0.03999999910593033]","[0.0, -0.0, 0.4554931356257985]","[-0.058423176407814026, 0.11765918135643005, 0.03999999910593033]","[0.0, 0.0, -0.34388595801669164]","[0.026750000193715096, 0.05299999937415123, 0.03999999910593033]","[0.0, 0.0, -0.5909821300610194]","[0.06686673313379288, 0.1127883568406105, 0.03999999910593033]","[0.0, -0.0, 0.2080534459724512]",0.45522713131765585,-0.06384247657270646,"(0.0, 0.0, 0.0, 0.0, 0.0, 0.0)",-0.7204658343337607,-0.7991452242257127,0.05612118507113882,"(0.0, 0.0, 0.0, 0.0, 0.0, 0.0)",-0.36524396650121227,-0.5910743369594753,-0.02212635468244686,"(0.0, 0.0, 0.0, 0.0, 0.0, 0.0)",0.5630588413158298,0.7988599649684749,-0.04214667727803766,"(0.0, 0.0, 0.0, 0.0, 0.0, 0.0)",0.27876860868497016,True,"(-0.022636841467224077, 0.1829278073019332, 0.023999744846741375)","(0.9989102044754556, 0.04667267593413223, -0.0002543932994106212)",-0.0002709857140124621,4.1472959705071215,True,"(0.04023678219036217, 0.1808709105804589, 0.04686470803598055)","(-0.9989195082592097, -0.046473810753884584, 3.054817085689896e-05)",8.054967968483445e-05,0.0
44,Move,"(0.0035, 0.0, -0.0177)","(0.0, 0.06454576639725429, 0.0)","(0.010406655472138485, 0.16003230212988984, 0.048930906808612756)","(-0.0017730692852647085, -0.004048511557694006, 0.07351804289412991)","[0.008219437560762387, 0.0012621021205451444, 0.000980202578848996]","[-0.026750000193715096, 0.05299999937415123, 0.03999999910593033]","[0.0, -0.0, 0.45357073440384926]","[-0.05829881504178047, 0.11771994829177856, 0.03999999910593033]","[0.0, 0.0, -0.344669255261332]","[0.026750000193715096, 0.05299999937415123, 0.03999999910593033]","[0.0, 0.0, -0.5921385850641622]","[0.06693584471940994, 0.11274192482233047, 0.03999999910593033]","[0.0, -0.0, 0.20606553147773254]",0.45318978756574396,-0.09142547493836453,"(0.0, 0.0, 0.0, 0.0, 0.0, 0.0)",-0.5670044197350596,-0.7980514293010009,0.045251621106505865,"(0.0, 0.0, 0.0, 0.0, 0.0, 0.0)",-0.30286596724171994,-0.5924025230960214,-0.0633518572289431,"(0.0, 0.0, 0.0, 0.0, 0.0, 0.0)",0.44178231784455957,0.7980676700986877,-0.032730167390073985,"(0.0, 0.0, 0.0, 0.0, 0.0, 0.0)",0.20760564456936673,True,"(-0.022461365385516484, 0.18296052423646236, 0.023999744846741375)","(0.9989102044754556, 0.04667267593413223, -0.0002543932994106212)",-0.00025853669582918964,3.386651364905346,True,"(0.040441292199505194, 0.18087728336963643, 0.04686470803598055)","(-0.9989195082592097, -0.046473810753884584, 3.054817085689896e-05)",8.128294581077932e-05,0.0
45,Move,"(0.0054, 0.0, -0.016800000000000002)","(0.0, 0.13688617323391528, 0.0)","(0.010716429442113757, 0.16001963365168032, 0.04893641362679076)","(-0.001665551336225609, -0.0036544858101212815, 0.07263904773799622)","[0.008529211530737659, 0.0012494336423356234, 0.0009857093970270028]","[-0.026750000193715096, 0.05299999937415123, 0.03999999910593033]","[0.0, -0.0, 0.4505007129349459]","[-0.05809997767210007, 0.1178165003657341, 0.03999999910593033]","[0.0, 0.0, -0.34630943017570226]","[0.026750000193715096, 0.05299999937415123, 0.03999999910593033]","[0.0, 0.0, -0.5939659046822258]","[0.0670449435710907, 0.11266839504241943, 0.03999999910593033]","[0.0, -0.0, 0.2032564504713644]",0.449869607547744,-0.15146785308421892,"(0.0, 0.0, 0.0, 0.0, 0.0, 0.0)",-0.820698928483614,-0.7965143396234579,0.07099270254850876,"(0.0, 0.0, 0.0, 0.0, 0.0, 0.0)",-0.4568836642732916,-0.5943225674893515,-0.08561394764779923,"(0.0, 0.0, 0.0, 0.0, 0.0, 0.0)",0.6727099451737464,0.7970260630043005,-0.047095708971843904,"(0.0, 0.0, 0.0, 0.0, 0.0, 0.0)",0.30478926557607605,True,"(-0.022155569285276677, 0.18299820689203594, 0.023999744846741375)","(0.9989102044754556, 0.04667267593413223, -0.0002543932994106212)",-0.0002645220313399577,4.8942141305372955,True,"(0.040741889589455904, 0.18087790790185804, 0.04686470803598055)","(-0.9989195082592097, -0.046473810753884584, 3.054817085689896e-05)",7.337210389468199e-05,0.0
46,Move,"(0.0075, 0.0, -0.016800000000000002)","(0.0, 0.18235898156537556, 0.0)","(0.01114687825504513, 0.15998970534553036, 0.048946881016742654)","(-0.0016867080804033037, -0.003318762050513622, 0.07108828991362945)","[0.008959660343669032, 0.0012195053361856723, 0.0009961767869788932]","[-0.026750000193715096, 0.05299999937415123, 0.03999999910593033]","[0.0, -0.0, 0.44583822089761227]","[-0.05779743194580078, 0.11796196550130844, 0.03999999910593033]","[0.0, 0.0, -0.348913871296836]","[0.026750000193715096, 0.05299999937415123, 0.03999999910593033]","[0.0, 0.0, -0.5965508372158148]","[0.06719904392957687, 0.11256403475999832, 0.03999999910593033]","[0.0, -0.0, 0.19928560843340618]",0.44490629214645905,-0.2236624426656013,"(0.0, 0.0, 0.0, 0.0, 0.0, 0.0)",-1.107429671926292,-0.794346817955311,0.09725899429126235,"(0.0, 0.0, 0.0, 0.0, 0.0, 0.0)",-0.6317430996040355,-0.5970634274943641,-0.12304639683622691,"(0.0, 0.0, 0.0, 0.0, 0.0, 0.0)",0.9514404367148881,0.7955576323852883,-0.06688876354371705,"(0.0, 0.0, 0.0, 0.0, 0.0, 0.0)",0.4349097018439707,True,"(-0.021683383566297995, 0.18304983575319597, 0.023999744846741375)","(0.9989102044754556, 0.04667267593413223, -0.0002543932994106212)",-0.0003076987243173133,6.6097633142923415,True,"(0.04116704759498779, 0.18087745810555655, 0.04686470803598055)","(-0.9989195082592097, -0.046473810753884584, 3.054817085689896e-05)",6.552066500399697e-05,0.0
47,Move,"(0.004200000000000001, 0.0, -0.0162)","(0.0, 0.18759147866285453, 0.0)","(0.01126846960532981, 0.1600274909756807, 0.04895625346231786)","(-0.0021838140777952495, -0.0027549650391021406, 0.07173298380093532)","[0.009081251693953712, 0.0012572909663360055, 0.0010055492325541024]","[-0.026750000193715096, 0.05299999937415123, 0.03999999910593033]","[0.0, -0.0, 0.44302583996179445]","[-0.057614605873823166, 0.1180490255355835, 0.03999999910593033]","[0.0, 0.0, -0.3497282393652958]","[0.026750000193715096, 0.05299999937415123, 0.03999999910593033]","[0.0, 0.0, -0.5971495756563134]","[0.06723470985889435, 0.11253980547189713, 0.03999999910593033]","[0.0, -0.0, 0.1971668116557303]",0.4427446564711457,-0.06747062325889655,"(0.0, 0.0, 0.0, 0.0, 0.0, 0.0)",-1.03712525908063,-0.7924340903783671,0.07679069180031069,"(0.0, 0.0, 0.0, 0.0, 0.0, 0.0)",-0.5206036234325669,-0.5970471841737357,0.024563531383887522,"(0.0, 0.0, 0.0, 0.0, 0.0, 0.0)",0.8742619637923786,0.7940531701395386,-0.0631617685861915,"(0.0, 0.0, 0.0, 0.0, 0.0, 0.0)",0.43638638363359056,True,"(-0.02144756265647728, 0.18310746391443766, 0.023999744846741375)","(0.9989102044754556, 0.04667267593413223, -0.0002543932994106212)",-0.00036958267241479526,6.383127774418592,True,"(0.041347507248052404, 0.18090822956344926, 0.04686470803598055)","(-0.9989195082592097, -0.046473810753884584, 3.054817085689896e-05)",5.880350648695986e-05,0.5766556150284905
48,Move,"(0.0054, 0.0, -0.016399999999999998)","(0.0, 0.19064405952459257, 0.0)","(0.011454195504697078, 0.16007596136763205, 0.04897058911620365)","(-0.0027687105902071364, -0.0021436636131806595, 0.07235954513790437)","[0.00926697759332098, 0.0013057613582873606, 0.0010198848864398924]","[-0.026750000193715096, 0.05299999937415123, 0.03999999910593033]","[0.0, -0.0, 0.44059124574372766]","[-0.05745615437626839, 0.11812397837638855, 0.03999999910593033]","[0.0, 0.0, -0.3500809019509207]","[0.026750000193715096, 0.05299999937415123, 0.03999999910593033]","[0.0, 0.0, -0.5973711626554198]","[0.0672478973865509, 0.11253083497285843, 0.03999999910593033]","[0.0, -0.0, 0.1954405455927103]",0.44008023167459487,-0.12264954469611437,"(0.0, 0.0, 0.0, 0.0, 0.0, 0.0)",-1.143553122758424,-0.7902818731794728,0.09366762998126486,"(0.0, 0.0, 0.0, 0.0, 0.0, 0.0)",-0.6145890615573188,-0.5974824748407642,-0.02671940741069066,"(0.0, 0.0, 0.0, 0.0, 0.0, 0.0)",0.9555872053934696,0.7925299822111636,-0.06760733634561299,"(0.0, 0.0, 0.0, 0.0, 0.0, 0.0)",0.45559584932915187,True,"(-0.021266170271532214, 0.18316965422437276, 0.023999744846741375)","(0.9989102044754556, 0.04667267593413223, -0.0002543932994106212)",-0.0004242697813798244,7.118986544124117,True,"(0.04147876228978838, 0.18094384278573844, 0.04686470803598055)","(-0.9989195082592097, -0.046473810753884584, 3.054817085689896e-05)",4.488990583483787e-05,2.444706394436219
49,Move,"(0.0107, 0.0, -0.0181)","(0.0, 0.16568410589182173, 0.0)","(0.012103981383915781, 0.15998351210188586, 0.04899804764365524)","(-0.003385919478635645, -0.0018375111190437833, 0.06905417868818453)","[0.009916763472539683, 0.0012133120925411633, 0.0010473434138914828]","[-0.026750000193715096, 0.05299999937415123, 0.03999999910593033]","[0.0, -0.0, 0.43463071063719255]","[-0.05706743150949478, 0.11830584704875946, 0.03999999910593033]","[0.0, 0.0, -0.35381242027218984]","[0.026750000193715096, 0.05299999937415123, 0.03999999910593033]","[0.0, 0.0, -0.6011803361603499]","[0.067474365234375, 0.1123761385679245, 0.03999999910593033]","[0.0, -0.0, 0.1901255156783556]",0.4332887062740162,-0.32207622021470345,"(0.0, 0.0, 0.0, 0.0, 0.0, 0.0)",-1.120834173435482,-0.7880279948641827,0.09962532190262996,"(0.0, 0.0, 0.0, 0.0, 0.0, 0.0)",-0.648306151083979,-0.6021483295710849,-0.23232544987899634,"(0.0, 0.0, 0.0, 0.0, 0.0, 0.0)",0.9897022501823544,0.7910335403065513,-0.06534429867789436,"(0.0, 0.0, 0.0, 0.0, 0.0, 0.0)",0.43973429852649065,True,"(-0.020634983234560623, 0.18321602635729087, 0.023999744846741375)","(0.9989102044754556, 0.04667267593413223, -0.0002543932994106212)",-0.000453872836289168,7.004721840029291,True,"(0.042069210326617326, 0.1809251450578478, 0.04686470803598055)","(-0.9989195082592097, -0.046473810753884584, 3.054817085689896e-05)",3.352773179993199e-05,3.488761310746839
50,Move,"(0.012, 0.0, -0.021)","(0.0, 0.08996648695255173, 0.0)","(0.012919326989098302, 0.15981183330186816, 0.04900150658193454)","(-0.002978300308049859, -0.0016712381090850264, 0.06392840873292907)","[0.010732109077722204, 0.001041633292523464, 0.001050802352170782]","[-0.026750000193715096, 0.05299999937415123, 0.03999999910593033]","[0.0, -0.0, 0.4268714720279475]","[-0.05655979737639427, 0.11853911727666855, 0.03999999910593033]","[0.0, 0.0, -0.35969040355378185]","[0.026750000193715096, 0.05299999937415123, 0.03999999910593033]","[0.0, 0.0, -0.6073868618152996]","[0.06784210354089737, 0.11212223768234253, 0.03999999910593033]","[0.0, -0.0, 0.1826926074560739]",0.42547040989091783,-0.33623806703560444,"(0.0, 0.0, 0.0, 0.0, 0.0, 0.0)",-0.8351555019268185,-0.7862535497017599,0.07398161999703191,"(0.0, 0.0, 0.0, 0.0, 0.0, 0.0)",-0.48497230261276314,-0.6085620856940656,-0.28205642981098145,"(0.0, 0.0, 0.0, 0.0, 0.0, 0.0)",0.7693354511262921,0.7898789477424145,-0.04812648105436095,"(0.0, 0.0, 0.0, 0.0, 0.0, 0.0)",0.3320432845743851,True,"(-0.01974643864158389, 0.1832340299384578, 0.023999744846741375)","(0.9989102044754556, 0.04667267593413223, -0.0002543932994106212)",-0.00044115662326911476,5.354851399841802,True,"(0.04294715762594258, 0.1808581835957685, 0.04686470803598055)","(-0.9989195082592097, -0.046473810753884584, 3.054817085689896e-05)",2.4122988458628242e-05,2.6279468128602557
51,Move,"(0.009800000000000001, 0.0, -0.0257)","(0.0, 0.025778513051956248, 0.0)","(0.013539269754848041, 0.15969504486370342, 0.04897724671598037)","(-0.0016291078414671202, -0.0015178372161614691, 0.060199901265700934)","[0.011352051843471943, 0.0009248448543587307, 0.001026542486216607]","[-0.026750000193715096, 0.05299999937415123, 0.03999999910593033]","[0.0, -0.0, 0.42065832800599484]","[-0.05615202337503433, 0.118723064661026, 0.03999999910593033]","[0.0, 0.0, -0.36444872396690153]","[0.026750000193715096, 0.05299999937415123, 0.03999999910593033]","[0.0, 0.0, -0.6125980381302586]","[0.068149633705616, 0.11190730333328247, 0.03999999910593033]","[0.0, -0.0, 0.17650980541600042]",0.4197036791883015,-0.2291067017504395,"(0.0, 0.0, 0.0, 0.0, 0.0, 0.0)",-0.6889730466047858,-0.7848571313972788,0.059962368189326584,"(0.0, 0.0, 0.0, 0.0, 0.0, 0.0)",-0.3907502042528762,-0.6133996663674003,-0.19240959074975436,"(0.0, 0.0, 0.0, 0.0, 0.0, 0.0)",0.6269887186003545,0.788945448970624,-0.038956869241211084,"(0.0, 0.0, 0.0, 0.0, 0.0, 0.0)",0.2704831025933776,True,"(-0.019031245488249034, 0.183242075373724, 0.023999744846741375)","(0.9989102044754556, 0.04667267593413223, -0.0002543932994106212)",-0.00040506894437316844,4.388770007474966,True,"(0.043680145461724586, 0.18079585244513824, 0.04686470803598055)","(-0.9989195082592097, -0.046473810753884584, 3.054817085689896e-05)",1.8377670056882013e-05,2.0801291180792534
52,Move,"(0.006, 0.0, -0.0212)","(0.0, 0.1553779366587952, 0.0)","(0.01365025061730087, 0.15972138739361488, 0.048980107840363114)","(-0.0019217639493068395, -0.0013497748182027829, 0.06024840303418315)","[0.011463032705924771, 0.0009511873842701912, 0.001029403610599354]","[-0.026750000193715096, 0.05299999937415123, 0.03999999910593033]","[0.0, -0.0, 0.4181573674063056]","[-0.055987562984228134, 0.11879638582468033, 0.03999999910593033]","[0.0, 0.0, -0.3654304306666345]","[0.026750000193715096, 0.05299999937415123, 0.03999999910593033]","[0.0, 0.0, -0.6136486879862922]","[0.06821151077747345, 0.11186376959085464, 0.03999999910593033]","[0.0, -0.0, 0.17420162495240318]",0.41797217098173994,-0.044450986675571284,"(0.0, 0.0, 0.0, 0.0, 0.0, 0.0)",-0.9033749823470318,-0.783311484436271,0.06631928269667228,"(0.0, 0.0, 0.0, 0.0, 0.0, 0.0)",-0.4456348415721789,-0.613520783845753,0.030695908799373423,"(0.0, 0.0, 0.0, 0.0, 0.0, 0.0)",0.8333977315872534,0.7875894956630859,-0.06259616335038651,"(0.0, 0.0, 0.0, 0.0, 0.0, 0.0)",0.41302591457877835,True,"(-0.01880346298153679, 0.18327892718434183, 0.023999744846741375)","(0.9989102044754556, 0.04667267593413223, -0.0002543932994106212)",-0.00041359772840564437,5.658240289205221,True,"(0.043901090112104996, 0.18080861678463667, 0.04686470803598055)","(-0.9989195082592097, -0.046473810753884584, 3.054817085689896e-05)",1.8283105629092056e-05,4.0340490439118355
53,Move,"(0.002, 0.0, -0.019899999999999998)","(0.0, 0.18235898156537556, 0.0)","(0.013312744462957576, 0.1597925031210127, 0.04896761736067739)","(-0.0016219290732893423, -0.002062088926399141, 0.06074924074375075)","[0.011125526551581479, 0.0010223031116680104, 0.0010169131309136284]","[-0.026750000193715096, 0.05299999937415123, 0.03999999910593033]","[0.0, -0.0, 0.4194672392736497]","[-0.05607372149825096, 0.11875803768634796, 0.03999999910593033]","[0.0, 0.0, -0.3629041465288814]","[0.026750000193715096, 0.05299999937415123, 0.03999999910593033]","[0.0, 0.0, -0.6105529815074325]","[0.06802908331155777, 0.11199183762073517, 0.03999999910593033]","[0.0, -0.0, 0.1753761677934894]",0.4199144993580344,0.10734764495909264,"(0.0, 0.0, 0.0, 0.0, 0.0, 0.0)",-0.8115401011723157,-0.7821757314051886,0.04694369201673239,"(0.0, 0.0, 0.0, 0.0, 0.0, 0.0)",-0.32040176084892064,-0.609786537766862,0.18394283121859387,"(0.0, 0.0, 0.0, 0.0, 0.0, 0.0)",0.998636315990923,0.7855463977179579,-0.09185715835760759,"(0.0, 0.0, 0.0, 0.0, 0.0, 0.0)",0.6003438924547111,True,"(-0.01905264215933438, 0.18333430741459544, 0.023999744846741375)","(0.9989102044754556, 0.04667267593413223, -0.0002543932994106212)",-0.0004246324848582241,4.503750547100615,True,"(0.043637704444273624, 0.18090808651474094, 0.04686470803598055)","(-0.9989195082592097, -0.046473810753884584, 3.054817085689896e-05)",2.53998871595662e-05,3.815308231796983
54,Move,"(0.0039, 0.0, -0.0185)","(0.0, 0.18846763394735566, 0.0)","(0.013130523691744826, 0.15986715969482565, 0.048975531235413795)","(-0.0022422902666108416, -0.003072964565805873, 0.06078388204068666)","[0.010943305780368728, 0.0010969596854809582, 0.001024827005650035]","[-0.026750000193715096, 0.05299999937415123, 0.03999999910593033]","[0.0, -0.0, 0.4203792090929849]","[-0.056133680045604706, 0.11873126775026321, 0.03999999910593033]","[0.0, 0.0, -0.3606211807470583]","[0.026750000193715096, 0.05299999937415123, 0.03999999910593033]","[0.0, 0.0, -0.6076983852659792]","[0.06786051392555237, 0.11210943758487701, 0.03999999910593033]","[0.0, -0.0, 0.17620287434960222]",0.4203959980145663,0.00402477025258869,"(0.0, 0.0, 0.0, 0.0, 0.0, 0.0)",-0.9129856689397893,-0.7807402100076029,0.062439046563304894,"(0.0, 0.0, 0.0, 0.0, 0.0, 0.0)",-0.4145018834559271,-0.6073222469135766,0.09026311818797679,"(0.0, 0.0, 0.0, 0.0, 0.0, 0.0)",1.124753242072917,0.7835473829615316,-0.08491805559147862,"(0.0, 0.0, 0.0, 0.0, 0.0, 0.0)",0.5861808018099729,True,"(-0.0192601238961956, 0.18339188610986645, 0.023999744846741375)","(0.9989102044754556, 0.04667267593413223, -0.0002543932994106212)",-0.0004256227872416267,4.8901568346019975,True,"(0.04341217262443136, 0.18100549443222583, 0.04686470803598055)","(-0.9989195082592097, -0.046473810753884584, 3.054817085689896e-05)",3.2530925099538296e-05,3.7967665351663844
55,Move,"(0.0047, 0.0, -0.0158)","(0.0, 0.11176215865145692, 0.0)","(0.01312843027851781, 0.15991003944436394, 0.04898511310998264)","(-0.002877939678003936, -0.003035306201503894, 0.06120800432527162)","[0.010941212367141712, 0.0011398394350192464, 0.0010344088802188775]","[-0.026750000193715096, 0.05299999937415123, 0.03999999910593033]","[0.0, -0.0, 0.42007993327816723]","[-0.05611400678753853, 0.11874005943536758, 0.03999999910593033]","[0.0, 0.0, -0.35961212819240873]","[0.026750000193715096, 0.05299999937415123, 0.03999999910593033]","[0.0, 0.0, -0.6067619591324884]","[0.06780514866113663, 0.11214790493249893, 0.03999999910593033]","[0.0, -0.0, 0.17577351499158617]",0.4199905050867775,-0.021466187124878192,"(0.0, 0.0, 0.0, 0.0, 0.0, 0.0)",-0.7361023599945049,-0.7794703722130334,0.053214137791127374,"(0.0, 0.0, 0.0, 0.0, 0.0, 0.0)",-0.3477558742262223,-0.6067020158983201,0.014387472270124517,"(0.0, 0.0, 0.0, 0.0, 0.0, 0.0)",0.6508757317817645,0.782347994584899,-0.04499106047551377,"(0.0, 0.0, 0.0, 0.0, 0.0, 0.0)",0.3165559733646762,True,"(-0.019305711444941476, 0.1834378494214433, 0.023999744846741375)","(0.9989102044754556, 0.04667267593413223, -0.0002543932994106212)",-0.000412975806605325,4.385005108963676,True,"(0.0433863899869908, 0.18105445462580744, 0.04686470803598055)","(-0.9989195082592097, -0.046473810753884584, 3.054817085689896e-05)",4.4232472799275783e-05,0.0
56,Move,"(0.008, 0.0, -0.016300000000000002)","(0.0, 0.05125159348481349, 0.0)","(0.013486305722328938, 0.15983659601661193, 0.04889639396034584)","(0.001428578255225937, -0.0031312869493399773, 0.05920812528347531)","[0.01129908781095284, 0.0010663960072672396, 0.0009456897305820805]","[-0.026750000193715096, 0.05299999937415123, 0.03999999910593033]","[0.0, -0.0, 0.41738985163301356]","[-0.05593705549836159, 0.11881881207227707, 0.03999999910593033]","[0.0, 0.0, -0.36109830736045445]","[0.026750000193715096, 0.05299999937415123, 0.03999999910593033]","[0.0, 0.0, -0.6087134289202902]","[0.0679204985499382, 0.11206767708063126, 0.03999999910593033]","[0.0, -0.0, 0.172879534113724]",0.4167124375026464,-0.16257922424725751,"(0.0, 0.0, 0.0, 0.0, 0.0, 0.0)",-0.5856081216850944,-0.7783192769746405,0.04053375608184244,"(0.0, 0.0, 0.0, 0.0, 0.0, 0.0)",-0.30052142060753756,-0.609268988996228,-0.13332691488972231,"(0.0, 0.0, 0.0, 0.0, 0.0, 0.0)",0.5941172362888961,0.7814158567149806,-0.042515209184146724,"(0.0, 0.0, 0.0, 0.0, 0.0, 0.0)",0.2783969753797979,True,"(-0.019032647304471156, 0.1834618287935691, 0.023999744846741375)","(0.9989102044754556, 0.04667267593413223, -0.0002543932994106212)",-0.00037024066465495323,3.3645664110177873,True,"(0.04370125277778625, 0.18104460110531184, 0.04686470803598055)","(-0.9989195082592097, -0.046473810753884584, 3.054817085689896e-05)",4.593684085678022e-05,0.0
57,Move,"(0.012199999999999999, 0.0, -0.016300000000000002)","(0.0, 0.026150268182631043, 0.0)","(0.014205904437587718, 0.15970339156994048, 0.04893396597862539)","(0.001007913323089273, -0.002914134890100523, 0.053927370334492915)","[0.01201868652621162, 0.0009331915605957919, 0.0009832617488616316]","[-0.026750000193715096, 0.05299999937415123, 0.03999999910593033]","[0.0, -0.0, 0.4111725108547735]","[-0.055527277290821075, 0.11899900436401367, 0.03999999910593033]","[0.0, 0.0, -0.3660847106367596]","[0.026750000193715096, 0.05299999937415123, 0.03999999910593033]","[0.0, 0.0, -0.6140240042734139]","[0.06823360174894333, 0.11184820532798767, 0.03999999910593033]","[0.0, -0.0, 0.16664443484764258]",0.409846451672624,-0.31825800188870845,"(0.0, 0.0, 0.0, 0.0, 0.0, 0.0)",-0.6575370489855114,-0.7770192714206933,0.05711027708381324,"(0.0, 0.0, 0.0, 0.0, 0.0, 0.0)",-0.3725437978097504,-0.6151690212478873,-0.27479764190383926,"(0.0, 0.0, 0.0, 0.0, 0.0, 0.0)",0.6098830198299108,0.7804981412240288,-0.04087258897553905,"(0.0, 0.0, 0.0, 0.0, 0.0, 0.0)",0.26524199091145706,True,"(-0.018300993931731437, 0.18345719833854549, 0.023999744846741375)","(0.9989102044754556, 0.04667267593413223, -0.0002543932994106212)",-0.000340275625181226,4.313852924335233,True,"(0.044444901973381815, 0.1809747987496325, 0.04686470803598055)","(-0.9989195082592097, -0.046473810753884584, 3.054817085689896e-05)",4.8102616512893506e-05,0.0
58,Move,"(0.0149, 0.0, -0.016399999999999998)","(0.0, 0.025778513051956248, 0.0)","(0.015127126290327565, 0.1594858975881571, 0.048961562719820106)","(0.0005207458329028156, -0.002819319496066062, 0.04693761039414625)","[0.012939908378951467, 0.000715697578812402, 0.001010858490056346]","[-0.026750000193715096, 0.05299999937415123, 0.03999999910593033]","[0.0, -0.0, 0.40256904793178516]","[-0.05495839938521385, 0.11924414336681366, 0.03999999910593033]","[0.0, 0.0, -0.3732588737852693]","[0.026750000193715096, 0.05299999937415123, 0.03999999910593033]","[0.0, 0.0, -0.6213861476960951]","[0.06866572052240372, 0.11154120415449142, 0.03999999910593033]","[0.0, -0.0, 0.15825343764052396]",0.40093183484911826,-0.3929382270221857,"(0.0, 0.0, 0.0, 0.0, 0.0, 0.0)",-0.6681724433916917,-0.7755548909140241,0.06554256098008145,"(0.0, 0.0, 0.0, 0.0, 0.0, 0.0)",-0.39594417433212437,-0.6227820049441483,-0.33500887367123866,"(0.0, 0.0, 0.0, 0.0, 0.0, 0.0)",0.7181148554462403,0.7794359984869995,-0.04885920168819467,"(0.0, 0.0, 0.0, 0.0, 0.0, 0.0)",0.3167353305782074,True,"(-0.01727064260864051, 0.183433611111605, 0.023999744846741375)","(0.9989102044754556, 0.04667267593413223, -0.0002543932994106212)",-0.0003276196769251824,4.339661849423055,True,"(0.045457845560646894, 0.1808661519015864, 0.037447135762594584)","(-0.9989112119366836, -0.046651800202856517, 1.4318474901968166e-05)",2.3480262642651302e-05,1.9999914981575349
59,Move,"(0.012400000000000001, 0.0, -0.012400000000000001)","(0.0, 0.06454576639725429, 0.0)","(0.01576032777223096, 0.15934498164708796, 0.048975993453753926)","(0.00018349709995401565, -0.0027087733987724437, 0.04265154808237057)","[0.013573109860854863, 0.0005747816377432713, 0.0010252892239901654]","[-0.026750000193715096, 0.05299999937415123, 0.03999999910593033]","[0.0, -0.0, 0.3957095350782009]","[-0.05450333282351494, 0.11943607777357101, 0.03999999910593033]","[0.0, 0.0, -0.3786420450148311]","[0.026750000193715096, 0.05299999937415123, 0.03999999910593033]","[0.0, 0.0, -0.6269018224625633]","[0.06898797303438187, 0.11130911856889725, 0.03999999910593033]","[0.0, -0.0, 0.15165079126377187]",0.3947011808875382,-0.2420027281554806,"(0.0, 0.0, 0.0, 0.0, 0.0, 0.0)",-0.6940734617252843,-0.7740851147735378,0.06394694513478147,"(0.0, 0.0, 0.0, 0.0, 0.0, 0.0)",-0.3986667637569751,-0.6276723541751976,-0.18492342908076081,"(0.0, 0.0, 0.0, 0.0, 0.0, 0.0)",0.6821866346919111,0.7783558920779461,-0.047218798785630366,"(0.0, 0.0, 0.0, 0.0, 0.0, 0.0)",0.3104074187408881,True,"(-0.016470585037917512, 0.1834217410173759, 0.023999744846741375)","(0.9989102044754556, 0.04667267593413223, -0.0002543932994106212)",-0.0003156229347732829,4.362247309750993,True,"(0.046238802784511125, 0.18077319231036343, 0.023997266110579174)","(-0.9990597926155502, -0.04326731771580053, -0.0027331294616024077)",-2.6913343845922622e-05,5.090478272493464
60,Move,"(0.0119, 0.0, -0.0126)","(0.0, 0.05973912963726191, 0.0)","(0.016262679395463137, 0.15925523339493353, 0.04898531144930054)","(-1.7870507625279014e-05, -0.0025972435469084464, 0.039530739694676936)","[0.014075461484087039, 0.00048503338558883446, 0.0010346072195367775]","[-0.026750000193715096, 0.05299999937415123, 0.03999999910593033]","[0.0, -0.0, 0.3905181086764596]","[-0.05415806546807289, 0.1195792630314827, 0.03999999910593033]","[0.0, 0.0, -0.38236340239670386]","[0.026750000193715096, 0.05299999937415123, 0.03999999910593033]","[0.0, 0.0, -0.6307667288010571]","[0.06921301782131195, 0.11114544421434402, 0.03999999910593033]","[0.0, -0.0, 0.14670748917091983]",0.38963702197310957,-0.2114585756967005,"(0.0, 0.0, 0.0, 0.0, 0.0, 0.0)",-0.7013427312653354,-0.7726160468580061,0.06370023493016862,"(0.0, 0.0, 0.0, 0.0, 0.0, 0.0)",-0.3997265684751623,-0.6314125448114745,-0.15500683976783758,"(0.0, 0.0, 0.0, 0.0, 0.0, 0.0)",0.6780808062291802,0.7772780122062016,-0.047078786487704,"(0.0, 0.0, 0.0, 0.0, 0.0, 0.0)",0.3102186726297353,True,"(-0.015887466707186854, 0.1834229493608417, 0.023999744846741375)","(0.9989102044754556, 0.04667267593413223, -0.0002543932994106212)",-0.0003093209281091542,4.3719572655504555,True,"(0.046807567243870106, 0.18071942651752673, 0.023997379115825484)","(-0.999195336617429, -0.040022671463547786, -0.0026201242152917832)",-3.5889896668684006e-05,5.101169689658082
61,Move,"(0.0106, 0.0, -0.011)","(0.0, 0.06938556441303458, 0.0)","(0.01659957103662145, 0.1592133965218843, 0.04899375269634926)","(-5.8443867705784295e-05, -0.0024774288437391366, 0.037899534911088724)","[0.014412353125245352, 0.0004431965125396009, 0.0010430484665854972]","[-0.026750000193715096, 0.05299999937415123, 0.03999999910593033]","[0.0, -0.0, 0.3866855517159482]","[-0.05390269681811333, 0.11968381702899933, 0.03999999910593033]","[0.0, 0.0, -0.38475216887837344]","[0.026750000193715096, 0.05299999937415123, 0.03999999910593033]","[0.0, 0.0, -0.6333209498843019]","[0.06936138868331909, 0.11103679239749908, 0.03999999910593033]","[0.0, -0.0, 0.1430969015879892]",0.3861047632240492,-0.13939489101311964,"(0.0, 0.0, 0.0, 0.0, 0.0, 0.0)",-0.721946129047101,-0.7711780508790421,0.062328982434642424,"(0.0, 0.0, 0.0, 0.0, 0.0, 0.0)",-0.40348565219984583,-0.6336779462577342,-0.08569849922168787,"(0.0, 0.0, 0.0, 0.0, 0.0, 0.0)",0.654314402086603,0.7762268635798704,-0.0458189504264571,"(0.0, 0.0, 0.0, 0.0, 0.0, 0.0)",0.3014052502073405,True,"(-0.015479698027606355, 0.18343589877104424, 0.023999744846741375)","(0.9989102044754556, 0.04667267593413223, -0.0002543932994106212)",-0.0003065880294443302,4.396988266118605,True,"(0.04720735358439658, 0.18068953695704582, 0.02399749709950265)","(-0.9992708220906448, -0.038099388591082015, -0.0025021405381253936)",-4.0253634451990526e-05,5.034727798046534
62,Move,"(0.0066, 0.0, -0.011800000000000001)","(0.0, 0.08280714636087097, 0.0)","(0.016531815529617445, 0.15925118905418922, 0.0489964390846953)","(-0.00027792610892505307, -0.0026850672777885194, 0.03805114038554653)","[0.014344597618241348, 0.000480989044844532, 0.0010457348549315418]","[-0.026750000193715096, 0.05299999937415123, 0.03999999910593033]","[0.0, -0.0, 0.3861478096711167]","[-0.053866833448410034, 0.1196984052658081, 0.03999999910593033]","[0.0, 0.0, -0.38431731163839483]","[0.026750000193715096, 0.05299999937415123, 0.03999999910593033]","[0.0, 0.0, -0.6328314249350623]","[0.06933297961950302, 0.11105763912200928, 0.03999999910593033]","[0.0, -0.0, 0.1424701334985007]",0.38630000223121536,0.03652090627279821,"(0.0, 0.0, 0.0, 0.0, 0.0, 0.0)",-0.4934041131684032,-0.7703338860448158,0.03149880138082247,"(0.0, 0.0, 0.0, 0.0, 0.0, 0.0)",-0.20919500874756344,-0.6325174595234306,0.0753535410570716,"(0.0, 0.0, 0.0, 0.0, 0.0, 0.0)",0.5785415563995562,0.7750991433748583,-0.04857792963848176,"(0.0, 0.0, 0.0, 0.0, 0.0, 0.0)",0.32441825191282253,True,"(-0.015471563484324179, 0.18346719369645836, 0.023999744846741375)","(0.9989102044754556, 0.04667267593413223, -0.0002543932994106212)",-0.00029578151003540443,2.627808159608815,True,"(0.04722262451248562, 0.18072374924261095, 0.023997374017631436)","(-0.9992749909366268, -0.03798158364136897, -0.0026252224093402036)",-4.344266699064992e-05,4.810934466699856
63,Move,"(0.0054, 0.0, -0.012199999999999999)","(0.0, 0.08151385738514316, 0.0)","(0.016316785695614646, 0.15930913227055546, 0.04899787530509516)","(-0.0006522354714622429, -0.0030723366800866074, 0.03842972338950592)","[0.014129567784238548, 0.0005389322612107672, 0.0010471710753314004]","[-0.026750000193715096, 0.05299999937415123, 0.03999999910593033]","[0.0, -0.0, 0.3875245726585738]","[-0.05395863577723503, 0.11966101080179214, 0.03999999910593033]","[0.0, 0.0, -0.38228878735928457]","[0.026750000193715096, 0.05299999937415123, 0.03999999910593033]","[0.0, 0.0, -0.6306334852872957]","[0.06920526921749115, 0.11115109920501709, 0.03999999910593033]","[0.0, -0.0, 0.14350464411616595]",0.38781707349440764,0.07019931919938742,"(0.0, 0.0, 0.0, 0.0, 0.0, 0.0)",-0.4343422988141494,-0.7696997364248928,0.027268410306960936,"(0.0, 0.0, 0.0, 0.0, 0.0, 0.0)",-0.1689244659237417,-0.6302031374258573,0.10329441687123,"(0.0, 0.0, 0.0, 0.0, 0.0, 0.0)",0.547504016210069,0.7739312047877474,-0.049676910686320554,"(0.0, 0.0, 0.0, 0.0, 0.0, 0.0)",0.3311054559048626,True,"(-0.015692799642388802, 0.18350755189446846, 0.023999744846741375)","(0.9989102044754556, 0.04667267593413223, -0.0002543932994106212)",-0.0002736264401391243,2.092495514140877,True,"(0.04702283181473893, 0.1807949437150757, 0.023997011288717424)","(-0.9992594246644546, -0.03836240824233971, -0.0029879513233585864)",-4.4734926254841404e-05,4.4791718880338225
64,Move,"(0.0060999999999999995, 0.0, -0.0143)","(0.0, 0.025689501260104535, 0.0)","(0.016226438441838974, 0.15934472939796832, 0.049001906833942746)","(-0.0010377054461722878, -0.0034901927171864266, 0.03850242133614738)","[0.014039220530462877, 0.0005745293886236236, 0.0010512026041789857]","[-0.026750000193715096, 0.05299999937415123, 0.03999999910593033]","[0.0, -0.0, 0.38836614612052506]","[-0.05401472747325897, 0.11963808536529541, 0.03999999910593033]","[0.0, 0.0, -0.3808198957500738]","[0.026750000193715096, 0.05299999937415123, 0.03999999910593033]","[0.0, 0.0, -0.6291616346383964]","[0.0691196396946907, 0.11121352016925812, 0.03999999910593033]","[0.0, -0.0, 0.1440185681074165]",0.38844303878377207,0.01845323305204442,"(0.0, 0.0, 0.0, 0.0, 0.0, 0.0)",-0.36786782001944757,-0.7690728317375524,0.027172400457639776,"(0.0, 0.0, 0.0, 0.0, 0.0, 0.0)",-0.16631211553767583,-0.6289858669907121,0.042199389793241004,"(0.0, 0.0, 0.0, 0.0, 0.0, 0.0)",0.47550047534277523,0.7730230175059308,-0.03773640553575229,"(0.0, 0.0, 0.0, 0.0, 0.0, 0.0)",0.25757280810813726,True,"(-0.015842714246186426, 0.18354076918465081, 0.023999744846741375)","(0.9989102044754556, 0.04667267593413223, -0.0002543932994106212)",-0.00023650497339836848,1.5428835740058273,True,"(0.046901397267238104, 0.18084633664909783, 0.02399659623946262)","(-0.9992528659546499, -0.03849843462380947, -0.0034030005781574084)",-5.3465254492656086e-05,3.9140556217984424
65,Move,"(0.0058, 0.0, -0.0175)","(0.0, 0.06341304771270997, 0.0)","(0.016095670384216134, 0.1593871272112841, 0.049006754767575614)","(-0.0014798862422183753, -0.0039819055230036204, 0.03855058695179894)","[0.013908452472840036, 0.000616927201939399, 0.0010560505378118534]","[-0.026750000193715096, 0.05299999937415123, 0.03999999910593033]","[0.0, -0.0, 0.3891456189533274]","[-0.05406666174530983, 0.11961681395769119, 0.03999999910593033]","[0.0, 0.0, -0.37943145247830506]","[0.026750000193715096, 0.05299999937415123, 0.03999999910593033]","[0.0, 0.0, -0.6277397671394548]","[0.0690368190407753, 0.11127370595932007, 0.03999999910593033]","[0.0, -0.0, 0.14446871570076403]",0.3893160261443602,0.04088928234379184,"(0.0, 0.0, 0.0, 0.0, 0.0, 0.0)",-0.3775231705131412,-0.7684674220096562,0.026327798508383217,"(0.0, 0.0, 0.0, 0.0, 0.0, 0.0)",-0.16014055743067324,-0.6274474175798372,0.0701666693223729,"(0.0, 0.0, 0.0, 0.0, 0.0, 0.0)",0.505494854807448,0.772026198991468,-0.04375308889511022,"(0.0, 0.0, 0.0, 0.0, 0.0, 0.0)",0.2900598044581501,True,"(-0.015983411940199664, 0.18357243364219555, 0.023999744846741375)","(0.9989102044754556, 0.04667267593413223, -0.0002543932994106212)",-0.00020119513149331278,1.4549112638974397,True,"(0.046787221253041064, 0.18089691896046037, 0.02399612149270907)","(-0.9992493707391321, -0.03854423631465404, -0.0038777473317005745)",-6.193612883241781e-05,4.104200906552821
66,Move,"(0.0075, 0.0, -0.0233)","(0.0, 0.06454576639725429, 0.0)","(0.016108576601786363, 0.15940747464727656, 0.049009092444758075)","(-0.0017096460018137022, -0.0036933312246025963, 0.039072716236088295)","[0.013921358690410265, 0.0006372746379318672, 0.0010583882149943144]","[-0.026750000193715096, 0.05299999937415123, 0.03999999910593033]","[0.0, -0.0, 0.3889207719375386]","[-0.054051678627729416, 0.11962295323610306, 0.03999999910593033]","[0.0, 0.0, -0.3787736321198707]","[0.026750000193715096, 0.05299999937415123, 0.03999999910593033]","[0.0, 0.0, -0.6271774923870925]","[0.06900404393672943, 0.11129748076200485, 0.03999999910593033]","[0.0, -0.0, 0.14417352863470406]",0.38877332786713925,-0.035382945012796194,"(0.0, 0.0, 0.0, 0.0, 0.0, 0.0)",-0.5463460099679487,-0.7675085569436,0.04460068244702321,"(0.0, 0.0, 0.0, 0.0, 0.0, 0.0)",-0.26776310192763175,-0.6271754660289867,0.0004656708704051461,"(0.0, 0.0, 0.0, 0.0, 0.0, 0.0)",0.45533019759156307,0.7712178746785111,-0.031932463143748646,"(0.0, 0.0, 0.0, 0.0, 0.0, 0.0)",0.22917022491660322,True,"(-0.016010509513833572, 0.18360361389372043, 0.023999744846741375)","(0.9989102044754556, 0.04667267593413223, -0.0002543932994106212)",-0.00020650356695644495,3.1909266096434723,True,"(0.04677502238955958, 0.18092659326022914, 0.023996198127294706)","(-0.9992354184763828, -0.03891182345020385, -0.0038011127460683062)",-4.343966844097563e-05,3.6436563014721215
67,Move,"(0.009300000000000001, 0.0, -0.023100000000000002)","(0.0, 0.053339007270198704, 0.0)","(0.016316921404598558, 0.15939083459847156, 0.049009960977761245)","(-0.0016015689537007187, -0.0034096220788146624, 0.03854546706920495)","[0.01412970349322246, 0.0006206345891268672, 0.0010592567479974849]","[-0.026750000193715096, 0.05299999937415123, 0.03999999910593033]","[0.0, -0.0, 0.3870006838245199]","[-0.05392370745539665, 0.11967525631189346, 0.03999999910593033]","[0.0, 0.0, -0.37958558787254704]","[0.026750000193715096, 0.05299999937415123, 0.03999999910593033]","[0.0, 0.0, -0.6281864361702763]","[0.06906284391880035, 0.11125481128692627, 0.03999999910593033]","[0.0, -0.0, 0.14239127947066665]",0.3865594956423041,-0.10588829259375844,"(0.0, 0.0, 0.0, 0.0, 0.0, 0.0)",-0.5794927917192185,-0.766377736895295,0.05005547983223489,"(0.0, 0.0, 0.0, 0.0, 0.0, 0.0)",-0.32041141407512413,-0.6284589307114546,-0.0654050106238311,"(0.0, 0.0, 0.0, 0.0, 0.0, 0.0)",0.4817514622491382,0.7704383100250439,-0.03345351470058906,"(0.0, 0.0, 0.0, 0.0, 0.0, 0.0)",0.2205253188103956,True,"(-0.015830601482548126, 0.18362500260699677, 0.023999744846741375)","(0.9989102044754556, 0.04667267593413223, -0.0002543932994106212)",-0.00021685636953631837,3.446840143675489,True,"(0.04695800982461445, 0.18092191979262406, 0.023996542821951808)","(-0.999246953624617, -0.038646847813462226, -0.0034564180889682127)",-2.999667895960286e-05,3.715206342992399
68,Move,"(0.008199999999999999, 0.0, -0.023600000000000003)","(0.0, 0.043708280457693996, 0.0)","(0.016439687056605017, 0.15939796383060123, 0.049011419290186285)","(-0.0015161821593326053, -0.003210662670941225, 0.03857100681596518)","[0.01425246914522892, 0.0006277638212565384, 0.0010607150604225249]","[-0.026750000193715096, 0.05299999937415123, 0.03999999910593033]","[0.0, -0.0, 0.38541208681496697]","[-0.0538177564740181, 0.11971833556890488, 0.03999999910593033]","[0.0, 0.0, -0.3801658147596684]","[0.026750000193715096, 0.05299999937415123, 0.03999999910593033]","[0.0, 0.0, -0.628948903221918]","[0.06910724937915802, 0.1112225353717804, 0.03999999910593033]","[0.0, -0.0, 0.14089304438289998]",0.38521041482901336,-0.04840486208238351,"(0.0, 0.0, 0.0, 0.0, 0.0, 0.0)",-0.5111232354278797,-0.7654158129700412,0.03889816679933289,"(0.0, 0.0, 0.0, 0.0, 0.0, 0.0)",-0.2592587494697177,-0.6290143957591695,-0.015718165512492315,"(0.0, 0.0, 0.0, 0.0, 0.0, 0.0)",0.41754305978553413,0.7697099437072707,-0.03168407857243111,"(0.0, 0.0, 0.0, 0.0, 0.0, 0.0)",0.2047383070592945,True,"(-0.015687551152486795, 0.1836459747665884, 0.023999744846741375)","(0.9989102044754556, 0.04667267593413223, -0.0002543932994106212)",-0.00021484100028014175,3.0952123762379875,True,"(0.04710687065726488, 0.18092129024335796, 0.02399674980087662)","(-0.9992518124938781, -0.038539024025234694, -0.003249439164159025)",-2.66397147388679e-05,3.316799796538
69,Move,"(0.012, 0.0, -0.0257)","(0.0, 0.04850444524217441, 0.0)","(0.016849797497519126, 0.15930765624567078, 0.04901352042312676)","(-0.001315826547510647, -0.0030506444908234274, 0.03607662516617434)","[0.014662579586143028, 0.0005374562363260893, 0.0010628161933630004]","[-0.026750000193715096, 0.05299999937415123, 0.03999999910593033]","[0.0, -0.0, 0.3818499806379213]","[-0.05357992276549339, 0.11981433629989624, 0.03999999910593033]","[0.0, 0.0, -0.3825723375262835]","[0.026750000193715096, 0.05299999937415123, 0.03999999910593033]","[0.0, 0.0, -0.6314448960176584]","[0.06925243139266968, 0.11111663281917572, 0.03999999910593033]","[0.0, -0.0, 0.13754992995000423]",0.3809947813583869,-0.20524562267610413,"(0.0, 0.0, 0.0, 0.0, 0.0, 0.0)",-0.6134017314720428,-0.7641903197811406,0.05567004536561,"(0.0, 0.0, 0.0, 0.0, 0.0, 0.0)",-0.35060006474097855,-0.6320827244548208,-0.1531013474802233,"(0.0, 0.0, 0.0, 0.0, 0.0, 0.0)",0.5540223164257386,0.7688304449920842,-0.03943074400089374,"(0.0, 0.0, 0.0, 0.0, 0.0, 0.0)",0.25090854301894633,True,"(-0.015295987941653905, 0.18365002402588215, 0.023999744846741375)","(0.9989102044754556, 0.04667267593413223, -0.0002543932994106212)",-0.00022187483092756812,3.8296498696660826,True,"(0.047485238460286794, 0.18088718334742326, 0.023996915151843098)","(-0.9993265281633773, -0.0365647167214418, -0.003084088197684563)",-2.631490760617413e-05,4.140856260234375
70,Move,"(0.0083, 0.0, -0.028800000000000003)","(0.0, 0.026150268182631043, 0.0)","(0.01696596209149987, 0.15930337052395568, 0.04901422702736129)","(-0.0012603956995238263, -0.0028147371994495223, 0.03589312663617265)","[0.014778744180123773, 0.0005331705146109922, 0.001063522797597527]","[-0.026750000193715096, 0.05299999937415123, 0.03999999910593033]","[0.0, -0.0, 0.3797732847004476]","[-0.053441114723682404, 0.1198699101805687, 0.03999999910593033]","[0.0, 0.0, -0.3836774395006109]","[0.026750000193715096, 0.05299999937415123, 0.03999999910593033]","[0.0, 0.0, -0.6326393549632879]","[0.06932182610034943, 0.1110658198595047, 0.03999999910593033]","[0.0, -0.0, 0.13557943297563052]",0.3796536757800684,-0.028704576224233894,"(0.0, 0.0, 0.0, 0.0, 0.0, 0.0)",-0.480907701271697,-0.7632929439225659,0.03785896226436393,"(0.0, 0.0, 0.0, 0.0, 0.0, 0.0)",-0.23219390474864518,-0.6326338195185038,0.0013301412315937376,"(0.0, 0.0, 0.0, 0.0, 0.0, 0.0)",0.40309027572629946,0.7681028933047507,-0.027817774425328273,"(0.0, 0.0, 0.0, 0.0, 0.0, 0.0)",0.2026529825303579,True,"(-0.01508665558889466, 0.18366325071136907, 0.023999744846741375)","(0.9989102044754556, 0.04667267593413223, -0.0002543932994106212)",-0.000223497159021229,2.977793558839133,True,"(0.04769219656043577, 0.18087798423927087, 0.02399708062256672)","(-0.9993569250669149, -0.035738186759276806, -0.002918617474050071)",-2.4655941462404042e-05,3.236329580845824
71,Move,"(0.009000000000000001, 0.0, -0.028)","(0.0, 0.009101892049150427, 0.0)","(0.017115006603384348, 0.15930232197071542, 0.04901434504221991)","(-0.0011173297074707975, -0.002613162924164568, 0.035791149613379945)","[0.01492778869200825, 0.0005321219613707295, 0.0010636408124561486]","[-0.026750000193715096, 0.05299999937415123, 0.03999999910593033]","[0.0, -0.0, 0.37841183808145584]","[-0.0533500500023365, 0.11990618705749512, 0.03999999910593033]","[0.0, 0.0, -0.38408371837199684]","[0.026750000193715096, 0.05299999937415123, 0.03999999910593033]","[0.0, 0.0, -0.633233811719091]","[0.06935633718967438, 0.11104050278663635, 0.03999999910593033]","[0.0, -0.0, 0.13431207964611405]",0.37810672235074033,-0.07322649063897632,"(0.0, 0.0, 0.0, 0.0, 0.0, 0.0)",-0.49855668108666057,-0.7623207062530196,0.04196348712715578,"(0.0, 0.0, 0.0, 0.0, 0.0, 0.0)",-0.2676194172282719,-0.6333964636122988,-0.03902995709892964,"(0.0, 0.0, 0.0, 0.0, 0.0, 0.0)",0.4237944711177066,0.7674171318293863,-0.030902056183576974,"(0.0, 0.0, 0.0, 0.0, 0.0, 0.0)",0.20045449197443507,True,"(-0.01496967444491256, 0.18368393815858547, 0.023999744846741375)","(0.9989102044754556, 0.04667267593413223, -0.0002543932994106212)",-0.0002239908873361951,3.06629579024376,True,"(0.04781525044647128, 0.1808786862943, 0.023997363793310297)","(-0.9993552006075714, -0.03580834314976751, -0.002635446730479356)",-1.9193073405839635e-05,3.2981937819845424
72,Move,"(0.0094, 0.0, -0.0282)","(0.0, 0.018053685782629343, 0.0)","(0.017289458226080443, 0.15929698412950666, 0.04901516010273048)","(-0.0009466021014443248, -0.002495823023636338, 0.03544619487678621)","[0.015102240314704345, 0.0005267841201619661, 0.0010644558729667186]","[-0.026750000193715096, 0.05299999937415123, 0.03999999910593033]","[0.0, -0.0, 0.37663556842742746]","[-0.05323116481304169, 0.11995332688093185, 0.03999999910593033]","[0.0, 0.0, -0.384869579812733]","[0.026750000193715096, 0.05299999937415123, 0.03999999910593033]","[0.0, 0.0, -0.6341905990577235]","[0.06941185146570206, 0.1109997108578682, 0.03999999910593033]","[0.0, -0.0, 0.13264993860123409]",0.3763134961860766,-0.07729399533626134,"(0.0, 0.0, 0.0, 0.0, 0.0, 0.0)",-0.5013572208172972,-0.7613280820646517,0.04249283842848541,"(0.0, 0.0, 0.0, 0.0, 0.0, 0.0)",-0.27147478274477144,-0.6343649559600096,-0.041845940887969585,"(0.0, 0.0, 0.0, 0.0, 0.0, 0.0)",0.43174689518286846,0.7667111120191851,-0.03106003073823183,"(0.0, 0.0, 0.0, 0.0, 0.0, 0.0)",0.20369603560760735,True,"(-0.014800680037894288, 0.18370090039267237, 0.023999744846741375)","(0.9989102044754556, 0.04667267593413223, -0.0002543932994106212)",-0.0002153210493401675,3.078650908842924,True,"(0.04798691672525685, 0.18087227864665406, 0.023997485393112136)","(-0.9993675182613707, -0.03547173547668944, -0.002513846928640679)",-2.4750732939173033e-05,3.3466359110633603
73,Move,"(0.0094, 0.0, -0.0282)","(0.0, 0.018053685782629343, 0.0)","(0.017448169848670095, 0.1592957739989925, 0.049017023316224866)","(-0.0007912712678223557, -0.002409522442564248, 0.03520562668214237)","[0.015260951937293998, 0.0005255739896478095, 0.0010663190864611052]","[-0.026750000193715096, 0.05299999937415123, 0.03999999910593033]","[0.0, -0.0, 0.37494247059872476]","[-0.053117766976356506, 0.11999806761741638, 0.03999999910593033]","[0.0, 0.0, -0.3855881660440359]","[0.026750000193715096, 0.05299999937415123, 0.03999999910593033]","[0.0, 0.0, -0.6350669186578772]","[0.06946265697479248, 0.11096230894327164, 0.03999999910593033]","[0.0, -0.0, 0.13107397299107984]",0.3746516206282457,-0.06979906307320306,"(0.0, 0.0, 0.0, 0.0, 0.0, 0.0)",-0.4871215263056358,-0.7603628248051311,0.04026673724451931,"(0.0, 0.0, 0.0, 0.0, 0.0, 0.0)",-0.26036624473273506,-0.6352133356372157,-0.03515215591193997,"(0.0, 0.0, 0.0, 0.0, 0.0, 0.0)",0.42276115044144713,0.7660120908864578,-0.0308990043178407,"(0.0, 0.0, 0.0, 0.0, 0.0, 0.0)",0.2015118956828171,True,"(-0.01464148588080634, 0.18371800826663737, 0.023999744846741375)","(0.9989102044754556, 0.04667267593413223, -0.0002543932994106212)",-0.00020889435346017242,3.0139784422554565,True,"(0.04814791261954471, 0.1808672221412418, 0.023997575130118746)","(-0.9993764403939663, -0.03522575870823512, -0.0024241099220303998)",-2.925509064300654e-05,3.292400991549579
74,Move,"(0.0103, 0.0, -0.028100000000000003)","(0.0, 0.026150268182631043, 0.0)","(0.017658498865382573, 0.15927356694933356, 0.04901747445423308)","(-0.0006427010576758325, -0.0022922883928943216, 0.03440763532363153)","[0.015471280954006475, 0.0005033669399888696, 0.0010667702244693197]","[-0.026750000193715096, 0.05299999937415123, 0.03999999910593033]","[0.0, -0.0, 0.37285720852833737]","[-0.05297800526022911, 0.12005290389060974, 0.03999999910593033]","[0.0, 0.0, -0.386677695533744]","[0.026750000193715096, 0.05299999937415123, 0.03999999910593033]","[0.0, 0.0, -0.6362719783308697]","[0.06953247636556625, 0.1109107956290245, 0.03999999910593033]","[0.0, -0.0, 0.12913535247472652]",0.37244486905724705,-0.0989665240288668,"(0.0, 0.0, 0.0, 0.0, 0.0, 0.0)",-0.5145823466128675,-0.7593457031512613,0.045414369116251865,"(0.0, 0.0, 0.0, 0.0, 0.0, 0.0)",-0.2860049176763183,-0.6365213524270324,-0.05986714510706134,"(0.0, 0.0, 0.0, 0.0, 0.0, 0.0)",0.4558993163649433,0.7652714412654774,-0.03259797619981848,"(0.0, 0.0, 0.0, 0.0, 0.0, 0.0)",0.2123553603039953,True,"(-0.014432319877492626, 0.1837308856343231, 0.023999744846741375)","(0.9989102044754556, 0.04667267593413223, -0.0002543932994106212)",-0.00020685454668498496,3.167986697796733,True,"(0.04835332838656793, 0.1808556589752871, 0.023997685162058868)","(-0.9994010316184458, -0.034528582986847974, -0.002314077981909601)",-3.320083178664341e-05,3.4862728747951417
