OSUrobotics/InHand-Manipulation/AnalyseData/Data/Trial Data/Tries/new_hand_human_sub1_2v2_c_n_1_kpNone_kdNone_dp2_step1_save_data.csv
,Phase,human_cube_pos,human_cube_orn,Cube_Pos,Cube_Orn,Cube_pos_in_start_pos,b'l_prox_pin'_link_pos,b'l_prox_pin'_link_orn,b'l_distal_pin'_link_pos,b'l_distal_pin'_link_orn,b'r_prox_pin'_link_pos,b'r_prox_pin'_link_orn,b'r_distal_pin'_link_pos,b'r_distal_pin'_link_orn,b'l_prox_pin'_joint_angle,b'l_prox_pin'_joint_vel,b'l_prox_pin'_joint_react_forces,b'l_prox_pin'_joint_motor_torque,b'l_distal_pin'_joint_angle,b'l_distal_pin'_joint_vel,b'l_distal_pin'_joint_react_forces,b'l_distal_pin'_joint_motor_torque,b'r_prox_pin'_joint_angle,b'r_prox_pin'_joint_vel,b'r_prox_pin'_joint_react_forces,b'r_prox_pin'_joint_motor_torque,b'r_distal_pin'_joint_angle,b'r_distal_pin'_joint_vel,b'r_distal_pin'_joint_react_forces,b'r_distal_pin'_joint_motor_torque,in_contact_l,contact_point_l_dist,contact_normal_l_dist,contact_distance_l_dist,contact_norm_force_l_dist,in_contact_r,contact_point_r_dist,contact_normal_r_dist,contact_distance_r_dist,contact_norm_force_r_dist
0,Open,,,,,,"[-0.026750000193715096, 0.05299999937415123, 0.03999999910593033]","[0.0, -0.0, 0.0]","[-0.026750000193715096, 0.125, 0.03999999910593033]","[0.0, -0.0, 0.0]","[0.026750000193715096, 0.05299999937415123, 0.03999999910593033]","[0.0, -0.0, 0.0]","[0.026750000193715096, 0.125, 0.03999999910593033]","[0.0, -0.0, 0.0]",0.0,0.0,"(0.0, 0.0, 0.0, 0.0, 0.0, 0.0)",1.3400621000080305e-17,5.883223478113402e-32,1.4119736347472167e-29,"(0.0, 0.0, 0.0, 0.0, 0.0, 0.0)",1.0542555313129702e-18,-0.008068665190486622,-1.9364796457167894,"(0.0, 0.0, 0.0, 0.0, 0.0, 0.0)",193.26378306879909,-0.0700246186727924,-16.805908481470176,"(0.0, 0.0, 0.0, 0.0, 0.0, 0.0)",71.94009191575694,False,,,,,False,,,,
1,Open,,,,,,"[-0.026750000193715096, 0.05299999937415123, 0.03999999910593033]","[0.0, -0.0, 0.0]","[-0.026750000193715096, 0.125, 0.03999999910593033]","[0.0, -0.0, 5.883223447970011e-32]","[0.026750000193715096, 0.05299999937415123, 0.03999999910593033]","[0.0, 0.0, -0.008068665592501188]","[0.02733093686401844, 0.12499765306711197, 0.03999999910593033]","[0.0, 0.0, -0.0780932845685428]",0.157,37.68,"(0.0, 0.0, 0.0, 0.0, 0.0, 0.0)",54.702693795169004,5.294901130302062e-32,-1.4119736347472162e-30,"(0.0, 0.0, 0.0, 0.0, 0.0, 0.0)",3.9113724975844915,-0.1670280316324969,-38.150247946082466,"(0.0, 0.0, 0.0, 0.0, 0.0, 0.0)",-25.93345404555236,-0.0659493391739072,0.9780670797324476,"(0.0, 0.0, 0.0, 0.0, 0.0, 0.0)",-6.754749483880455,False,,,,,False,,,,
2,Open,,,,,,"[-0.026750000193715096, 0.05299999937415123, 0.03999999910593033]","[0.0, -0.0, 0.1569999988554567]","[-0.03800761699676514, 0.12411445379257202, 0.03999999910593033]","[0.0, -0.0, 0.1569999988554567]","[0.026750000193715096, 0.05299999937415123, 0.03999999910593033]","[0.0, 0.0, -0.16702801712980753]","[0.038720179349184036, 0.1239979937672615, 0.03999999910593033]","[0.0, 0.0, -0.23297739431320727]",0.29829999999999995,33.91199999999999,"(0.0, 0.0, 0.0, 0.0, 0.0, 0.0)",-5.390828189440958,5.294901130302062e-32,0.0,"(0.0, 0.0, 0.0, 0.0, 0.0, 0.0)",-0.3659219356209609,-0.3122944613104081,-34.863943122698686,"(0.0, 0.0, 0.0, 0.0, 0.0, 0.0)",95.8006544774165,-0.06705867534034729,-0.2662406799456205,"(0.0, 0.0, 0.0, 0.0, 0.0, 0.0)",9.049911776264722,False,,,,,False,,,,
3,Open,,,,,,"[-0.026750000193715096, 0.05299999937415123, 0.03999999910593033]","[0.0, -0.0, 0.29830000998707634]","[-0.04791048914194107, 0.12182030081748962, 0.03999999910593033]","[0.0, -0.0, 0.29830000998707634]","[0.026750000193715096, 0.05299999937415123, 0.03999999910593033]","[0.0, 0.0, -0.3122944642903269]","[0.048871491104364395, 0.12151744216680527, 0.03999999910593033]","[0.0, 0.0, -0.3793531994353912]",0.42546999999999996,30.5208,"(0.0, 0.0, 0.0, 0.0, 0.0, 0.0)",-4.858074537215091,5.294901130302062e-32,0.0,"(0.0, 0.0, 0.0, 0.0, 0.0, 0.0)",-0.33154044974508506,-0.44292449566296654,-31.35120824461403,"(0.0, 0.0, 0.0, 0.0, 0.0, 0.0)",100.88457241511576,-0.08373770380977785,-4.0029668326633345,"(0.0, 0.0, 0.0, 0.0, 0.0, 0.0)",24.077304806401806,False,,,,,False,,,,
4,Open,,,,,,"[-0.026750000193715096, 0.05299999937415123, 0.03999999910593033]","[0.0, -0.0, 0.4254700097131474]","[-0.056467924267053604, 0.11858082562685013, 0.03999999910593033]","[0.0, -0.0, 0.4254700097131474]","[0.026750000193715096, 0.05299999937415123, 0.03999999910593033]","[0.0, 0.0, -0.4429245237535421]","[0.057608019560575485, 0.1180521547794342, 0.03999999910593033]","[0.0, 0.0, -0.5266622746639338]",0.5399229999999999,27.46872,"(0.0, 0.0, 0.0, 0.0, 0.0, 0.0)",-4.377393708535371,5.294901130302062e-32,0.0,"(0.0, 0.0, 0.0, 0.0, 0.0, 0.0)",-0.30017707799641646,-0.5623038734984663,-28.651050680519948,"(0.0, 0.0, 0.0, 0.0, 0.0, 0.0)",144.45470973647488,-0.10456727132876567,-4.999096204557077,"(0.0, 0.0, 0.0, 0.0, 0.0, 0.0)",33.97911746732963,False,,,,,False,,,,
5,Open,,,,,,"[-0.026750000193715096, 0.05299999937415123, 0.03999999910593033]","[0.0, -0.0, 0.5399230359738098]","[-0.06376303732395172, 0.11475787311792374, 0.03999999910593033]","[0.0, -0.0, 0.5399230359738098]","[0.026750000193715096, 0.05299999937415123, 0.03999999910593033]","[0.0, 0.0, -0.5623038790270362]","[0.06513584405183792, 0.11391409486532211, 0.03999999910593033]","[0.0, 0.0, -0.6668711870723439]",0.6429307,24.721848,"(0.0, 0.0, 0.0, 0.0, 0.0, 0.0)",-3.943806903965684,5.294901130302062e-32,0.0,"(0.0, 0.0, 0.0, 0.0, 0.0, 0.0)",-0.2716098155097054,-0.6673401099248648,-25.208696742335626,"(0.0, 0.0, 0.0, 0.0, 0.0, 0.0)",94.97739775913854,-0.11755295807544866,-3.116564819203918,"(0.0, 0.0, 0.0, 0.0, 0.0, 0.0)",25.79194570087013,False,,,,,False,,,,
6,Open,,,,,,"[-0.026750000193715096, 0.05299999937415123, 0.03999999910593033]","[0.0, -0.0, 0.6429307111289271]","[-0.06991713494062424, 0.11062463372945786, 0.03999999910593033]","[0.0, -0.0, 0.6429307111289271]","[0.026750000193715096, 0.05299999937415123, 0.03999999910593033]","[0.0, 0.0, -0.6673401753977319]","[0.07131072133779526, 0.10955388844013214, 0.03999999910593033]","[0.0, 0.0, -0.7848931559948581]",0.73563763,22.249663200000004,"(0.0, 0.0, 0.0, 0.0, 0.0, 0.0)",-3.552789792259023,5.294901130302062e-32,0.0,"(0.0, 0.0, 0.0, 0.0, 0.0, 0.0)",-0.24562369466220793,-0.7579917869736262,-21.756402491702737,"(0.0, 0.0, 0.0, 0.0, 0.0, 0.0)",34.46450837185191,-0.10794166402774508,2.3067105714488583,"(0.0, 0.0, 0.0, 0.0, 0.0, 0.0)",8.765009015475858,False,,,,,False,,,,
7,Open,,,,,,"[-0.026750000193715096, 0.05299999937415123, 0.03999999910593033]","[0.0, -0.0, 0.7356376306875043]","[-0.07506632059812546, 0.10638101398944855, 0.03999999910593033]","[0.0, -0.0, 0.7356376306875043]","[0.026750000193715096, 0.05299999937415123, 0.03999999910593033]","[0.0, 0.0, -0.757991847340814]","[0.076247438788414, 0.10528770089149475, 0.03999999910593033]","[0.0, 0.0, -0.8659334873334429]",0.8190738670000001,20.024696880000004,"(0.0, 0.0, 0.0, 0.0, 0.0, 0.0)",-3.2002295086701533,2.3293280891773424e-07,5.5903874140256216e-05,"(0.0, 0.0, 0.0, 0.0, 0.0, 0.0)",-0.22200715926400075,-0.8391926082762636,-19.488197112632974,"(0.0, 0.0, 0.0, 0.0, 0.0, 0.0)",3.295349739497939,-0.09714776835574307,2.590534961280482,"(0.0, 0.0, 0.0, 0.0, 0.0, 0.0)",0.25803221970863044,False,,,,,False,,,,
8,Open,,,,,,"[-0.026750000193715096, 0.05299999937415123, 0.03999999910593033]","[0.0, -0.0, 0.8190738875671263]","[-0.07934698462486267, 0.10216865688562393, 0.03999999910593033]","[0.0, -0.0, 0.8190741465287105]","[0.026750000193715096, 0.05299999937415123, 0.03999999910593033]","[0.0, 0.0, -0.839192558822362]","[0.08032548427581787, 0.10110059380531311, 0.03999999910593033]","[0.0, 0.0, -0.9363403253067936]",0.8941664803,18.022227192,"(0.0, 0.0, 0.0, 0.0, 0.0, 0.0)",-2.8824197251771095,4.2009445145371055e-07,4.4918794208634316e-05,"(0.0, 0.0, 0.0, 0.0, 0.0, 0.0)",-0.2005835928406654,-0.9122733474486373,-17.539377401369673,"(0.0, 0.0, 0.0, 0.0, 0.0, 0.0)",2.7804978356880783,-0.0874331700712747,2.33150358827241,"(0.0, 0.0, 0.0, 0.0, 0.0, 0.0)",0.17017621517521792,False,,,,,False,,,,
9,Open,,,,,,"[-0.026750000193715096, 0.05299999937415123, 0.03999999910593033]","[0.0, -0.0, 0.894166469119967]","[-0.08288749307394028, 0.09808415919542313, 0.03999999910593033]","[0.0, -0.0, 0.894166894674561]","[0.026750000193715096, 0.05299999937415123, 0.03999999910593033]","[0.0, 0.0, -0.9122733503889549]","[0.08369457721710205, 0.09706035256385803, 0.03999999910593033]","[0.0, 0.0, -0.9997066729229968]",0.96174983227,16.220004472800003,"(0.0, 0.0, 0.0, 0.0, 0.0, 0.0)",-2.5959652512206968,5.681494863714967e-07,3.553320838026869e-05,"(0.0, 0.0, 0.0, 0.0, 0.0, 0.0)",-0.18114955764248034,-0.9780460127037736,-15.785439661232708,"(0.0, 0.0, 0.0, 0.0, 0.0, 0.0)",2.503992476159733,-0.0786900142246732,2.098357403184359,"(0.0, 0.0, 0.0, 0.0, 0.0, 0.0)",0.15360133560797545,False,,,,,False,,,,
10,Open,,,,,,"[-0.026750000193715096, 0.05299999937415123, 0.03999999910593033]","[0.0, -0.0, 0.9617498658906226]","[-0.08580395579338074, 0.09419016540050507, 0.03999999910593033]","[0.0, -0.0, 0.9617504517765805]","[0.026750000193715096, 0.05299999937415123, 0.03999999910593033]","[0.0, 0.0, -0.9780460255881384]","[0.08646733313798904, 0.09322238713502884, 0.03999999910593033]","[0.0, 0.0, -1.0567360258914282]",1.022574849043,14.598004025520002,"(0.0, 0.0, 0.0, 0.0, 0.0, 0.0)",-2.337816594086846,6.829231533297027e-07,2.7545680069969436e-05,"(0.0, 0.0, 0.0, 0.0, 0.0, 0.0)",-0.16354029854134106,-1.0372414114333963,-14.206895695109438,"(0.0, 0.0, 0.0, 0.0, 0.0, 0.0)",2.2548456713339484,-0.07082115822448021,1.8885254400463192,"(0.0, 0.0, 0.0, 0.0, 0.0, 0.0)",0.13860128234430863,False,,,,,False,,,,
11,Open,,,,,,"[-0.026750000193715096, 0.05299999937415123, 0.03999999910593033]","[0.0, -0.0, 1.0225748785172661]","[-0.08819860219955444, 0.09052424877882004, 0.03999999910593033]","[0.0, -0.0, 1.0225755149967983]","[0.026750000193715096, 0.05299999937415123, 0.03999999910593033]","[0.0, 0.0, -1.037241417801626]","[0.08874232321977615, 0.08961901068687439, 0.03999999910593033]","[0.0, 0.0, -1.1080626941470386]",1.0773173641387,13.138203622968001,"(0.0, 0.0, 0.0, 0.0, 0.0, 0.0)",-2.105207702642618,7.694903593429899e-07,2.0776129443188934e-05,"(0.0, 0.0, 0.0, 0.0, 0.0, 0.0)",-0.14759587787833617,-1.0905172702900567,-12.78620612559849,"(0.0, 0.0, 0.0, 0.0, 0.0, 0.0)",2.0303755786213302,-0.06373917358809339,1.6996763127328351,"(0.0, 0.0, 0.0, 0.0, 0.0, 0.0)",0.1250328149112744,False,,,,,False,,,,
12,Open,,,,,,"[-0.026750000193715096, 0.05299999937415123, 0.03999999910593033]","[0.0, -0.0, 1.0773173786594632]","[-0.09015969932079315, 0.08710587024688721, 0.03999999910593033]","[0.0, -0.0, 1.0773182784199262]","[0.026750000193715096, 0.05299999937415123, 0.03999999910593033]","[0.0, 0.0, -1.090517334189526]","[0.09060435742139816, 0.0862659215927124, 0.03999999910593033]","[0.0, 0.0, -1.1542564269670996]",1.1265856277248298,11.824383260671203,"(0.0, 0.0, 0.0, 0.0, 0.0, 0.0)",-1.895636869852492,8.322629993378343e-07,1.5065433598762668e-05,"(0.0, 0.0, 0.0, 0.0, 0.0, 0.0)",-0.13316806895824274,-1.138465543261051,-11.50758551303864,"(0.0, 0.0, 0.0, 0.0, 0.0, 0.0)",1.828159741200242,-0.05736537454460671,1.5297117704368035,"(0.0, 0.0, 0.0, 0.0, 0.0, 0.0)",0.11276577482950233,False,,,,,False,,,,
13,Open,,,,,,"[-0.026750000193715096, 0.05299999937415123, 0.03999999910593033]","[0.0, -0.0, 1.126585512342968]","[-0.09176240861415863, 0.08394166082143784, 0.03999999910593033]","[0.0, -0.0, 1.1265864725026016]","[0.026750000193715096, 0.05299999937415123, 0.03999999910593033]","[0.0, 0.0, -1.13846552283997]","[0.09212540090084076, 0.08316715806722641, 0.03999999910593033]","[0.0, 0.0, -1.1958309904194953]",1.1709270649523469,10.641944934604087,"(0.0, 0.0, 0.0, 0.0, 0.0, 0.0)",-1.7068426281171958,8.750681698751778e-07,1.0273240928962424e-05,"(0.0, 0.0, 0.0, 0.0, 0.0, 0.0)",-0.12011999884119333,-1.181618988934946,-10.356826961734775,"(0.0, 0.0, 0.0, 0.0, 0.0, 0.0)",1.6460093571929852,-0.051628943774705546,1.376743384776279,"(0.0, 0.0, 0.0, 0.0, 0.0, 0.0)",0.10168054944364863,False,,,,,False,,,,
14,Open,,,,,,"[-0.026750000193715096, 0.05299999937415123, 0.03999999910593033]","[0.0, -0.0, 1.170927100750299]","[-0.09307006001472473, 0.08102945238351822, 0.03999999910593033]","[0.0, -0.0, 1.1709279927689973]","[0.026750000193715096, 0.05299999937415123, 0.03999999910593033]","[0.0, 0.0, -1.181618964677462]","[0.09336595237255096, 0.08031877130270004, 0.03999999910593033]","[0.0, 0.0, -1.233247876832181]",1.2108343584571122,9.577750441143678,"(0.0, 0.0, 0.0, 0.0, 0.0, 0.0)",-1.5367816122769582,9.012180617793662e-07,6.275974057005224e-06,"(0.0, 0.0, 0.0, 0.0, 0.0, 0.0)",-0.1083256720668905,-1.2204570900414513,-9.3211442655613,"(0.0, 0.0, 0.0, 0.0, 0.0, 0.0)",1.4819475463743526,-0.046466145575958295,1.239071567699341,"(0.0, 0.0, 0.0, 0.0, 0.0, 0.0)",0.09166748660725833,False,,,,,False,,,,
15,Open,,,,,,"[-0.026750000193715096, 0.05299999937415123, 0.03999999910593033]","[0.0, -0.0, 1.2108343955497323]","[-0.09413553774356842, 0.07836118340492249, 0.03999999910593033]","[0.0, -0.0, 1.210835255049739]","[0.026750000193715096, 0.05299999937415123, 0.03999999910593033]","[0.0, 0.0, -1.2204571829136446]","[0.09437645971775055, 0.07771158218383789, 0.03999999910593033]","[0.0, 0.0, -1.2669233179031547]",1.2467509226114009,8.619975397029307,"(0.0, 0.0, 0.0, 0.0, 0.0, 0.0)",-1.3836082777937824,9.135722823677317e-07,2.9650129412077397e-06,"(0.0, 0.0, 0.0, 0.0, 0.0, 0.0)",-0.09766941677677543,-1.2554113810373062,-8.38902983900517,"(0.0, 0.0, 0.0, 0.0, 0.0, 0.0)",1.334189480132575,-0.04181961771093252,1.1151666876061868,"(0.0, 0.0, 0.0, 0.0, 0.0, 0.0)",0.08262627878010878,False,,,,,False,,,,
16,Open,,,,,,"[-0.026750000193715096, 0.05299999937415123, 0.03999999910593033]","[0.0, -0.0, 1.2467510110527222]","[-0.09500277042388916, 0.07592508941888809, 0.03999999910593033]","[0.0, -0.0, 1.246751870145374]","[0.026750000193715096, 0.05299999937415123, 0.03999999910593033]","[0.0, 0.0, -1.255411348379259]","[0.09519875049591064, 0.0753331333398819, 0.03999999910593033]","[0.0, 0.0, -1.2972309672073006]",1.2790758303502607,7.757977857326381,"(0.0, 0.0, 0.0, 0.0, 0.0, 0.0)",-1.2456264712746363,2.1141758111398655e-06,0.0002881448469053121,"(0.0, 0.0, 0.0, 0.0, 0.0, 0.0)",-0.088015399348708,-1.2868702429335757,-7.5501268551046525,"(0.0, 0.0, 0.0, 0.0, 0.0, 0.0)",1.2010989712673745,-0.037638748630864464,1.0034085792163332,"(0.0, 0.0, 0.0, 0.0, 0.0, 0.0)",0.07444006052486639,False,,,,,False,,,,
17,Open,,,,,,"[-0.026750000193715096, 0.05299999937415123, 0.03999999910593033]","[0.0, -0.0, 1.2790758758817962]","[-0.09570803493261337, 0.0737072303891182, 0.03999999910593033]","[0.0, -0.0, 1.2790780932516201]","[0.026750000193715096, 0.05299999937415123, 0.03999999910593033]","[0.0, 0.0, -1.2868702529032277]","[0.0958673357963562, 0.07316911965608597, 0.03999999910593033]","[0.0, 0.0, -1.3245087793274308]",1.3081682532711112,6.982181501004109,"(0.0, 0.0, 0.0, 0.0, 0.0, 0.0)",-1.12145472366965,1.9027582300258812e-06,-5.0740219467356254e-05,"(0.0, 0.0, 0.0, 0.0, 0.0, 0.0)",-0.07939114715284208,-1.315183223212741,-6.795115266999686,"(0.0, 0.0, 0.0, 0.0, 0.0, 0.0)",1.0813262344929835,-0.033874873767778015,0.9033299671407473,"(0.0, 0.0, 0.0, 0.0, 0.0, 0.0)",0.06713055017345074,False,,,,,False,,,,
18,Open,,,,,,"[-0.026750000193715096, 0.05299999937415123, 0.03999999910593033]","[0.0, -0.0, 1.3081682459906412]","[-0.09628119319677353, 0.07169260084629059, 0.03999999910593033]","[0.0, -0.0, 1.3081702011658356]","[0.026750000193715096, 0.05299999937415123, 0.03999999910593033]","[0.0, 0.0, -1.3151833180210462]","[0.0964106097817421, 0.07120437920093536, 0.03999999910593033]","[0.0, 0.0, -1.349058153261439]",1.334351427944,6.283961921493333,"(0.0, 0.0, 0.0, 0.0, 0.0, 0.0)",-1.0095234585863413,2.7618377923566443e-06,0.00020617909495938315,"(0.0, 0.0, 0.0, 0.0, 0.0, 0.0)",-0.07148780084672787,-1.3406649008914668,-6.11560264289422,"(0.0, 0.0, 0.0, 0.0, 0.0, 0.0)",0.9733796231570812,-0.030488273507324658,0.8127840625088054,"(0.0, 0.0, 0.0, 0.0, 0.0, 0.0)",0.060435192896783604,False,,,,,False,,,,
19,Open,,,,,,"[-0.026750000193715096, 0.05299999937415123, 0.03999999910593033]","[0.0, -0.0, 1.334351465706577]","[-0.09674673527479172, 0.06986585259437561, 0.03999999910593033]","[0.0, -0.0, 1.33435435145599]","[0.026750000193715096, 0.05299999937415123, 0.03999999910593033]","[0.0, 0.0, -1.3406650641721125]","[0.09685182571411133, 0.06942359358072281, 0.03999999910593033]","[0.0, 0.0, -1.3711530696282732]",1.3579162851496,5.655565729344001,"(0.0, 0.0, 0.0, 0.0, 0.0, 0.0)",-0.9088150211252332,3.4316066113876724e-06,0.0001607445165674468,"(0.0, 0.0, 0.0, 0.0, 0.0, 0.0)",-0.06444344013525093,-1.3635984108023202,-5.504042378604797,"(0.0, 0.0, 0.0, 0.0, 0.0, 0.0)",0.8762522980402716,-0.02744024570882781,0.7315266716392431,"(0.0, 0.0, 0.0, 0.0, 0.0, 0.0)",0.05446985052483407,False,,,,,False,,,,
20,Open,,,,,,"[-0.026750000193715096, 0.05299999937415123, 0.03999999910593033]","[0.0, -0.0, 1.3579163939939654]","[-0.09712471067905426, 0.0682118609547615, 0.03999999910593033]","[0.0, -0.0, 1.3579197824809437]","[0.026750000193715096, 0.05299999937415123, 0.03999999910593033]","[0.0, 0.0, -1.3635984874387626]","[0.09721000492572784, 0.06781173497438431, 0.03999999910593033]","[0.0, 0.0, -1.3910385869420074]",1.37912465663464,5.090009156409601,"(0.0, 0.0, 0.0, 0.0, 0.0, 0.0)",-0.8181093185961676,3.940702417530038e-06,0.0001221829934741677,"(0.0, 0.0, 0.0, 0.0, 0.0, 0.0)",-0.05806034967263589,-1.3842385697220883,-4.953638140744317,"(0.0, 0.0, 0.0, 0.0, 0.0, 0.0)",0.7887791417834831,-0.024696941374704916,0.6583930401894944,"(0.0, 0.0, 0.0, 0.0, 0.0, 0.0)",0.04906644857689494,False,,,,,False,,,,
21,Open,,,,,,"[-0.026750000193715096, 0.05299999937415123, 0.03999999910593033]","[0.0, -0.0, 1.3791247702213432]","[-0.0974314734339714, 0.0667160153388977, 0.03999999910593033]","[0.0, -0.0, 1.3791284782568445]","[0.026750000193715096, 0.05299999937415123, 0.03999999910593033]","[0.0, 0.0, -1.3842387704807777]","[0.09750068932771683, 0.06635437905788422, 0.03999999910593033]","[0.0, 0.0, -1.408935619520831]",1.398212190971176,4.581008240768642,"(0.0, 0.0, 0.0, 0.0, 0.0, 0.0)",-0.7364407507487188,4.314390796743166e-06,8.968521101115077e-05,"(0.0, 0.0, 0.0, 0.0, 0.0, 0.0)",-0.05230389643117988,-1.4028147127498793,-4.458274326669883,"(0.0, 0.0, 0.0, 0.0, 0.0, 0.0)",0.7100243788118592,-0.02222789596809768,0.5925708975857369,"(0.0, 0.0, 0.0, 0.0, 0.0, 0.0)",0.04419507766734469,False,,,,,False,,,,
22,Open,,,,,,"[-0.026750000193715096, 0.05299999937415123, 0.03999999910593033]","[0.0, -0.0, 1.3982120672717784]","[-0.09768038988113403, 0.06536446511745453, 0.03999999910593033]","[0.0, -0.0, 1.3982164487645397]","[0.026750000193715096, 0.05299999937415123, 0.03999999910593033]","[0.0, 0.0, -1.4028147367436141]","[0.09773654490709305, 0.06503787636756897, 0.03999999910593033]","[0.0, 0.0, -1.4250426427007885]",1.4153909718740585,4.122907416691778,"(0.0, 0.0, 0.0, 0.0, 0.0, 0.0)",-0.6629119687698639,4.574523674952359e-06,6.243189077020624e-05,"(0.0, 0.0, 0.0, 0.0, 0.0, 0.0)",-0.04711364623212332,-1.4195332414748913,-4.012446894002898,"(0.0, 0.0, 0.0, 0.0, 0.0, 0.0)",0.6391216750959775,-0.02000569064819732,0.5333292767760867,"(0.0, 0.0, 0.0, 0.0, 0.0, 0.0)",0.039804123486470444,False,,,,,False,,,,
23,Open,,,,,,"[-0.026750000193715096, 0.05299999937415123, 0.03999999910593033]","[0.0, -0.0, 1.415391158105469]","[-0.09788231551647186, 0.06414420157670975, 0.03999999910593033]","[0.0, -0.0, 1.415395709317307]","[0.026750000193715096, 0.05299999937415123, 0.03999999910593033]","[0.0, 0.0, -1.419533200978404]","[0.09792786836624146, 0.06384945660829544, 0.03999999910593033]","[0.0, 0.0, -1.4395389386881268]",1.4308518746866525,3.7106166750225977,"(0.0, 0.0, 0.0, 0.0, 0.0, 0.0)",-0.5967141397561109,4.7399630338636504e-06,3.9705446138709865e-05,"(0.0, 0.0, 0.0, 0.0, 0.0, 0.0)",-0.042434775014060074,-1.4345799173274023,-3.611202204602609,"(0.0, 0.0, 0.0, 0.0, 0.0, 0.0)",0.5752902758042565,-0.018005647771851804,0.4800102903229233,"(0.0, 0.0, 0.0, 0.0, 0.0, 0.0)",0.0358468230863414,False,,,,,False,,,,
24,Open,,,,,,"[-0.026750000193715096, 0.05299999937415123, 0.03999999910593033]","[0.0, -0.0, 1.4308518944899675]","[-0.09804610908031464, 0.06304314732551575, 0.03999999910593033]","[0.0, -0.0, 1.4308566269594332]","[0.026750000193715096, 0.05299999937415123, 0.03999999910593033]","[0.0, 0.0, -1.4345798203875788]","[0.09808305650949478, 0.06277728080749512, 0.03999999910593033]","[0.0, 0.0, -1.4525855975984745]",1.4447666872179874,3.339555007520341,"(0.0, 0.0, 0.0, 0.0, 0.0, 0.0)",-0.5371183361845069,4.8269553674989e-06,2.0878160072459843e-05,"(0.0, 0.0, 0.0, 0.0, 0.0, 0.0)",-0.03821759960562203,-1.448121925594662,-3.2500819841423465,"(0.0, 0.0, 0.0, 0.0, 0.0, 0.0)",0.5178266556878065,-0.016205556838873442,0.4320218239148067,"(0.0, 0.0, 0.0, 0.0, 0.0, 0.0)",0.0322808466635012,False,,,,,False,,,,
25,Open,,,,,,"[-0.026750000193715096, 0.05299999937415123, 0.03999999910593033]","[0.0, -0.0, 1.4447668540021588]","[-0.09817895293235779, 0.06205013021826744, 0.03999999910593033]","[0.0, -0.0, 1.4447715863131299]","[0.026750000193715096, 0.05299999937415123, 0.03999999910593033]","[0.0, 0.0, -1.448121993206969]","[0.09820891171693802, 0.06181041896343231, 0.03999999910593033]","[0.0, 0.0, -1.46432761016298]",1.4572900184961886,3.005599506768304,"(0.0, 0.0, 0.0, 0.0, 0.0, 0.0)",-0.483467731204937,4.849462099751187e-06,5.401615740548756e-06,"(0.0, 0.0, 0.0, 0.0, 0.0, 0.0)",-0.03441712855198442,-1.4603097330351957,-2.925073785728113,"(0.0, 0.0, 0.0, 0.0, 0.0, 0.0)",0.4660969568661882,-0.014585427836986846,0.38883096045278315,"(0.0, 0.0, 0.0, 0.0, 0.0, 0.0)",0.029067900465992856,False,,,,,False,,,,
26,Open,,,,,,"[-0.026750000193715096, 0.05299999937415123, 0.03999999910593033]","[0.0, -0.0, 1.4572900807517244]","[-0.0982866883277893, 0.061154916882514954, 0.03999999910593033]","[0.0, -0.0, 1.4572948921008348]","[0.026750000193715096, 0.05299999937415123, 0.03999999910593033]","[0.0, 0.0, -1.4603097470714805]","[0.09831098467111588, 0.06093886122107506, 0.03999999910593033]","[0.0, 0.0, -1.4748951413427742]",1.4685610166465697,2.705039556091476,"(0.0, 0.0, 0.0, 0.0, 0.0, 0.0)",-0.43517053908893033,4.819450845044722e-06,-7.202701129551542e-06,"(0.0, 0.0, 0.0, 0.0, 0.0, 0.0)",-0.030992645518402973,-1.471278759731676,-2.632566407155304,"(0.0, 0.0, 0.0, 0.0, 0.0, 0.0)",0.4195301522878829,-0.013127269246907155,0.3499580616191257,"(0.0, 0.0, 0.0, 0.0, 0.0, 0.0)",0.02617336062226555,False,,,,,False,,,,
27,Open,,,,,,"[-0.026750000193715096, 0.05299999937415123, 0.03999999910593033]","[0.0, -0.0, 1.4685611215819594]","[-0.09837405383586884, 0.06034812703728676, 0.03999999910593033]","[0.0, -0.0, 1.468565853091142]","[0.026750000193715096, 0.05299999937415123, 0.03999999910593033]","[0.0, 0.0, -1.4712788457263521]","[0.0983937606215477, 0.06015344336628914, 0.03999999910593033]","[0.0, 0.0, -1.4844061039497418]",1.4787049149819127,2.434535600482329,"(0.0, 0.0, 0.0, 0.0, 0.0, 0.0)",-0.39169363303347604,4.747151892642784e-06,-1.7351748576465223e-05,"(0.0, 0.0, 0.0, 0.0, 0.0, 0.0)",-0.02790732436186781,-1.4811508837585086,-2.3693097664397755,"(0.0, 0.0, 0.0, 0.0, 0.0, 0.0)",0.37761186810531283,-0.011814888241968555,0.3149714411852639,"(0.0, 0.0, 0.0, 0.0, 0.0, 0.0)",0.023565936472848985,False,,,,,False,,,,
28,Open,,,,,,"[-0.026750000193715096, 0.05299999937415123, 0.03999999910593033]","[0.0, -0.0, 1.4787049625213984]","[-0.09844490885734558, 0.059621214866638184, 0.03999999910593033]","[0.0, -0.0, 1.4787095898811649]","[0.026750000193715096, 0.05299999937415123, 0.03999999910593033]","[0.0, 0.0, -1.4811508165812142]","[0.09846089035272598, 0.059445831924676895, 0.03999999910593033]","[0.0, 0.0, -1.492965762433775]",1.4878344234837215,2.191082040434097,"(0.0, 0.0, 0.0, 0.0, 0.0, 0.0)",-0.35255677801820895,4.641283838470101e-06,-2.5408333001444004e-05,"(0.0, 0.0, 0.0, 0.0, 0.0, 0.0)",-0.02512787460267613,-1.4900357953826577,-2.132378789795796,"(0.0, 0.0, 0.0, 0.0, 0.0, 0.0)",0.33987880377374147,-0.010633710863257649,0.2834825708906175,"(0.0, 0.0, 0.0, 0.0, 0.0, 0.0)",0.021217361806457186,False,,,,,False,,,,
29,Close,,,"(0.010000165031897679, 0.16000264050809818, 0.003919197399597577)","(-5.388791991209616e-05, 3.3679978815229247e-06, -9.074720008653711e-11)",,"[-0.026750000193715096, 0.05299999937415123, 0.03999999910593033]","[0.0, -0.0, 1.487834617901085]","[-0.09850236773490906, 0.05896640568971634, 0.03999999910593033]","[0.0, -0.0, 1.4878390921106803]","[0.026750000193715096, 0.05299999937415123, 0.03999999910593033]","[0.0, 0.0, -1.4900358577435544]","[0.09851532429456711, 0.05880843847990036, 0.03999999910593033]","[0.0, 0.0, -1.5006695807985118]",1.4960509811353493,1.9719738363906854,"(0.0, 0.0, 0.0, 0.0, 0.0, 0.0)",-0.3173274216127963,4.509251873886308e-06,-3.168767150011037e-05,"(0.0, 0.0, 0.0, 0.0, 0.0, 0.0)",-0.022624215793833224,-1.498032215844392,-1.9191409108162163,"(0.0, 0.0, 0.0, 0.0, 0.0, 0.0)",0.30591369390909257,-0.00957062017308593,0.2551417656412126,"(0.0, 0.0, 0.0, 0.0, 0.0, 0.0)",0.019102112305110365,False,,,,,False,,,,
30,Close,,,"(0.010000330010418335, 0.1600052801621647, 0.0076635160840755065)","(-0.00010776674212266888, 6.7354271463595154e-06, -3.629275205618536e-10)",,"[-0.026750000193715096, 0.05299999937415123, 0.03999999910593033]","[0.0, -0.0, 1.4960509653323988]","[-0.09854896366596222, 0.058376654982566833, 0.03999999910593033]","[0.0, -0.0, 1.4960555203126162]","[0.026750000193715096, 0.05299999937415123, 0.03999999910593033]","[0.0, 0.0, -1.4980320325532246]","[0.09855947643518448, 0.05823439359664917, 0.03999999910593033]","[0.0, 0.0, -1.5076028800413472]",1.4064458830218143,-21.505223547248388,"(0.0, 0.0, 0.0, 0.0, 0.0, 0.0)",-36.32500847077206,-0.08999559064729075,-21.600023975799512,"(0.0, 0.0, 0.0, 0.0, 0.0, 0.0)",-4.679136399120495,-1.4082289942599528,21.552773180265405,"(0.0, 0.0, 0.0, 0.0, 0.0, 0.0)",36.31473208701179,0.08138609105625041,21.82961069504072,"(0.0, 0.0, 0.0, 0.0, 0.0, 0.0)",4.675963213372079,False,,,,,False,,,,
31,Close,,,"(0.010000494936733278, 0.16000791898094055, 0.011233038807318392)","(-0.00016163646818851668, 1.0102287881965475e-05, -8.164490687548302e-10)",,"[-0.026750000193715096, 0.05299999937415123, 0.03999999910593033]","[0.0, -0.0, 1.4064459844712927]","[-0.0977797880768776, 0.06478003412485123, 0.03999999910593033]","[0.0, -0.0, 1.316450240076391]","[0.026750000193715096, 0.05299999937415123, 0.03999999910593033]","[0.0, 0.0, -1.4082291009672807]","[0.09780067950487137, 0.06465335935354233, 0.03999999910593033]","[0.0, 0.0, -1.3268428349863826]",1.325801294719633,-19.354701192523546,"(0.0, 0.0, 0.0, 0.0, 0.0, 0.0)",3.2936342521930255,-0.17099646652613912,-19.44021021092361,"(0.0, 0.0, 0.0, 0.0, 0.0, 0.0)",0.4145426679866387,-1.3274060948339577,19.39749586223887,"(0.0, 0.0, 0.0, 0.0, 0.0, 0.0)",-3.3024243844052092,0.16324791947241268,19.646838819878944,"(0.0, 0.0, 0.0, 0.0, 0.0, 0.0)",-0.41699994760359754,False,,,,,False,,,,
32,Close,,,"(0.010000659812012168, 0.16001055698314023, 0.0146278458391823)","(-0.0002154970996661642, 1.346858017578936e-05, -1.4512199879406586e-09)",,"[-0.026750000193715096, 0.05299999937415123, 0.03999999910593033]","[0.0, -0.0, 1.3258013857525741]","[-0.09659997373819351, 0.07046370953321457, 0.03999999910593033]","[0.0, -0.0, 1.1548048042561467]","[0.026750000193715096, 0.05299999937415123, 0.03999999910593033]","[0.0, 0.0, -1.3274060658778382]","[0.09662791341543198, 0.07035159319639206, 0.03999999910593033]","[0.0, 0.0, -1.1641581075845935]",1.2532211652476697,-17.41923107327119,"(0.0, 0.0, 0.0, 0.0, 0.0, 0.0)",2.9685258329366073,-0.24389721437960032,-17.496179484830687,"(0.0, 0.0, 0.0, 0.0, 0.0, 0.0)",0.3760018756193849,-1.2546654853505619,17.457746276014984,"(0.0, 0.0, 0.0, 0.0, 0.0, 0.0)",-2.976480273609718,0.2369235243908578,17.682145180426822,"(0.0, 0.0, 0.0, 0.0, 0.0, 0.0)",-0.3782508099482112,False,,,,,False,,,,
33,Close,,,"(0.010000824637423049, 0.16001319418745247, 0.017848014970055004)","(-0.00026934863811186216, 1.6834304115272585e-05, -2.2671484573282825e-09)",,"[-0.026750000193715096, 0.05299999937415123, 0.03999999910593033]","[0.0, -0.0, 1.2532212515508983]","[-0.09514966607093811, 0.07548300176858902, 0.03999999910593033]","[0.0, -0.0, 1.0093239867956962]","[0.026750000193715096, 0.05299999937415123, 0.03999999910593033]","[0.0, 0.0, -1.254665405963893]","[0.09518206864595413, 0.07538418471813202, 0.03999999910593033]","[0.0, 0.0, -1.0177419933055243]",1.1878990487229026,-15.677307965944074,"(0.0, 0.0, 0.0, 0.0, 0.0, 0.0)",2.675103284419244,-0.30950785045582774,-15.746552658294572,"(0.0, 0.0, 0.0, 0.0, 0.0, 0.0)",0.34074508229325023,-1.1891989368155058,15.711971648413485,"(0.0, 0.0, 0.0, 0.0, 0.0, 0.0)",-2.6822973218910153,0.30323153162132754,15.913921735312746,"(0.0, 0.0, 0.0, 0.0, 0.0, 0.0)",-0.34279935345822066,False,,,,,False,,,,
34,Close,,,"(0.010000989414132393, 0.1600158306125408, 0.020893621515273818)","(-0.00032319108508158773, 2.0199459787849396e-05, -3.2641426920478403e-09)",,"[-0.026750000193715096, 0.05299999937415123, 0.03999999910593033]","[0.0, -0.0, 1.1878990574339587]","[-0.09353619813919067, 0.07989988476037979, 0.03999999910593033]","[0.0, -0.0, 0.8783912846834516]","[0.026750000193715096, 0.05299999937415123, 0.03999999910593033]","[0.0, 0.0, -1.1891990098250689]","[0.09357111155986786, 0.07981304824352264, 0.03999999910593033]","[0.0, 0.0, -0.8859674697633095]",1.1291091438506125,-14.109577169349663,"(0.0, 0.0, 0.0, 0.0, 0.0, 0.0)",2.4103712722760626,-0.36855738916456426,-14.17188929009676,"(0.0, 0.0, 0.0, 0.0, 0.0, 0.0)",0.3085687115248564,-1.1302790431339553,14.140774483572143,"(0.0, 0.0, 0.0, 0.0, 0.0, 0.0)",-2.4168742890236286,0.36290870417903687,14.322521413850238,"(0.0, 0.0, 0.0, 0.0, 0.0, 0.0)",-0.31044204201279674,False,,,,,False,,,,
35,Close,,,"(0.010001154143305145, 0.16001846627704427, 0.023764738319401603)","(-0.00037702444213104407, 2.3564047280946926e-05, -4.4421109431381166e-09)",,"[-0.026750000193715096, 0.05299999937415123, 0.03999999910593033]","[0.0, -0.0, 1.1291090274464952]","[-0.09184028208255768, 0.08377750217914581, 0.03999999910593033]","[0.0, -0.0, 0.7605517150898052]","[0.026750000193715096, 0.05299999937415123, 0.03999999910593033]","[0.0, 0.0, -1.130279133319625]","[0.09187624603509903, 0.08370133489370346, 0.03999999910593033]","[0.0, 0.0, -0.7673703325611945]",1.0761982294655512,-12.698619452414698,"(0.0, 0.0, 0.0, 0.0, 0.0, 0.0)",2.1715845710489208,-0.42170194324014043,-12.754692978138287,"(0.0, 0.0, 0.0, 0.0, 0.0, 0.0)",0.27924932151422227,-1.07725113882056,12.72669703521493,"(0.0, 0.0, 0.0, 0.0, 0.0, 0.0)",-2.177460276301377,0.41661812854294633,12.890261847338277,"(0.0, 0.0, 0.0, 0.0, 0.0, 0.0)",-0.2809551529003472,False,,,,,False,,,,
36,Close,,,"(0.010001318826104761, 0.16002110119957821, 0.02646143576036139)","(-0.0004308487108156613, 2.692806668198511e-05, -5.800961497533997e-09)",,"[-0.026750000193715096, 0.05299999937415123, 0.03999999910593033]","[0.0, -0.0, 1.076198055145404]","[-0.09012148529291153, 0.08717681467533112, 0.03999999910593033]","[0.0, -0.0, 0.6544962762796218]","[0.026750000193715096, 0.05299999937415123, 0.03999999910593033]","[0.0, 0.0, -1.0772510781061955]","[0.09015743434429169, 0.08711007237434387, 0.03999999910593033]","[0.0, 0.0, -0.6606329452337051]",1.028578406518996,-11.428757507173229,"(0.0, 0.0, 0.0, 0.0, 0.0, 0.0)",1.9562489498726314,-0.46953201391559385,-11.479216962108818,"(0.0, 0.0, 0.0, 0.0, 0.0, 0.0)",0.2525697399559188,-1.0295260249385039,11.454027331693439,"(0.0, 0.0, 0.0, 0.0, 0.0, 0.0)",-1.961555706583625,0.46495658231577774,11.601228905479532,"(0.0, 0.0, 0.0, 0.0, 0.0, 0.0)",-0.25412105363877113,False,,,,,False,,,,
37,Close,,,"(0.010001483463693249, 0.1600237353987347, 0.0289837817534302)","(-0.0004846638926905951, 3.0291518078376737e-05, -7.3406026780539124e-09)",,"[-0.026750000193715096, 0.05299999937415123, 0.03999999910593033]","[0.0, -0.0, 1.028578444789276]","[-0.08842276781797409, 0.09015467017889023, 0.03999999910593033]","[0.0, -0.0, 0.5590464126725148]","[0.026750000193715096, 0.05299999937415123, 0.03999999910593033]","[0.0, 0.0, -1.029526007298545]","[0.08845794945955276, 0.09009620547294617, 0.03999999910593033]","[0.0, 0.0, -0.564569399435659]",0.9857205658670964,-10.285881756455906,"(0.0, 0.0, 0.0, 0.0, 0.0, 0.0)",1.7621005438122825,-0.5125790520819234,-10.331289159919107,"(0.0, 0.0, 0.0, 0.0, 0.0, 0.0)",0.22832149176550065,-0.9865734224446535,10.308624598524094,"(0.0, 0.0, 0.0, 0.0, 0.0, 0.0)",-1.766891708603882,0.508461165120635,10.441099873165749,"(0.0, 0.0, 0.0, 0.0, 0.0, 0.0)",-0.22973068702752517,False,,,,,False,,,,
38,Close,,,"(0.010001648057231211, 0.16002636889308344, 0.03133184175509247)","(-0.0005384699893107284, 3.3654401557527444e-05, -9.06094284338731e-09)",,"[-0.026750000193715096, 0.05299999937415123, 0.03999999910593033]","[0.0, -0.0, 0.9857205423734198]","[-0.08677425980567932, 0.09276290237903595, 0.03999999910593033]","[0.0, -0.0, 0.47314147483112123]","[0.026750000193715096, 0.05299999937415123, 0.03999999910593033]","[0.0, 0.0, -0.9865734261287252]","[0.08680814504623413, 0.09271169453859329, 0.03999999910593033]","[0.0, 0.0, -0.4781122693565934]",0.9471485092803869,-9.257293580810316,"(0.0, 0.0, 0.0, 0.0, 0.0, 0.0)",1.587086438141582,-0.5513213633331018,-9.29815470028281,"(0.0, 0.0, 0.0, 0.0, 0.0, 0.0)",0.206306403170868,-0.9479160802001881,9.277762138671687,"(0.0, 0.0, 0.0, 0.0, 0.0, 0.0)",-1.5914107042435905,0.5476152664096928,9.396984309373877,"(0.0, 0.0, 0.0, 0.0, 0.0, 0.0)",-0.2075852193448244,False,,,,,False,,,,
39,Close,,,"(0.01000181260787789, 0.16002900170117218, 0.03350567876675359)","(-0.00059226700223067, 3.7016717206835695e-05, -1.0961890388082131e-08)",,"[-0.026750000193715096, 0.05299999937415123, 0.03999999910593033]","[0.0, -0.0, 0.9471486716739237]","[-0.08519625663757324, 0.09504801034927368, 0.03999999910593033]","[0.0, -0.0, 0.39582717163487297]","[0.026750000193715096, 0.05299999937415123, 0.03999999910593033]","[0.0, 0.0, -0.9479160840165974]","[0.08522851020097733, 0.09500313550233841, 0.03999999910593033]","[0.0, 0.0, -0.4003008647547732]",0.9124336583523481,-8.331564222729286,"(0.0, 0.0, 0.0, 0.0, 0.0, 0.0)",1.4293465062267445,-0.5861894225076075,-8.368334201881392,"(0.0, 0.0, 0.0, 0.0, 0.0, 0.0)",0.18633757536892917,-0.9131244721801693,8.349985924804516,"(0.0, 0.0, 0.0, 0.0, 0.0, 0.0)",-1.433248242084051,0.5828539364930729,8.45728082001123,"(0.0, 0.0, 0.0, 0.0, 0.0, 0.0)",-0.18749704763631705,False,,,,,False,,,,
40,Close,,,"(0.010001977116791199, 0.1600316338415276, 0.035505353338314005)","(-0.0006460549330047555, 4.037846511369274e-05, -1.3043353742532214e-08)",,"[-0.026750000193715096, 0.05299999937415123, 0.03999999910593033]","[0.0, -0.0, 0.9124336635104583]","[-0.08370164036750793, 0.0970512256026268, 0.03999999910593033]","[0.0, -0.0, 0.3262442150321584]","[0.026750000193715096, 0.05299999937415123, 0.03999999910593033]","[0.0, 0.0, -0.9131245532476111]","[0.08373206108808517, 0.09701187163591385, 0.03999999910593033]","[0.0, 0.0, -0.3302705841133475]",0.8811902925171133,-7.498407800456356,"(0.0, 0.0, 0.0, 0.0, 0.0, 0.0)",1.2871965063691413,-0.6175706567763247,-7.531496224492115,"(0.0, 0.0, 0.0, 0.0, 0.0, 0.0)",0.16823988009592084,-0.8818120249621524,7.514987332324067,"(0.0, 0.0, 0.0, 0.0, 0.0, 0.0)",-1.2907160846573733,0.6145687204653795,7.61154815335357,"(0.0, 0.0, 0.0, 0.0, 0.0, 0.0)",-0.16929032064296096,False,,,,,False,,,,
41,Close,,,"(0.010002141585127773, 0.16003426533265583, 0.03733092357160428)","(-0.0006998337831870475, 4.3739645365482716e-05, -1.5305241372964883e-08)",,"[-0.026750000193715096, 0.05299999937415123, 0.03999999910593033]","[0.0, -0.0, 0.8811903688816151]","[-0.08229776471853256, 0.09880879521369934, 0.03999999910593033]","[0.0, -0.0, 0.2636196251065186]","[0.026750000193715096, 0.05299999937415123, 0.03999999910593033]","[0.0, 0.0, -0.8818121535754343]","[0.08232623338699341, 0.098774254322052, 0.03999999910593033]","[0.0, 0.0, -0.26724331826119446]",0.853071263265402,-6.7485670204107215,"(0.0, 0.0, 0.0, 0.0, 0.0, 0.0)",1.1591124175888132,-0.6458137504217961,-6.77834247491313,"(0.0, 0.0, 0.0, 0.0, 0.0, 0.0)",0.1518500972569631,-0.8536308224659371,6.763488599091658,"(0.0, 0.0, 0.0, 0.0, 0.0, 0.0)",-1.1622865309865396,0.643112008739745,6.850389185847702,"(0.0, 0.0, 0.0, 0.0, 0.0, 0.0)",-0.15280109527428076,False,,,,,False,,,,
42,Close,,,"(0.010002306014043007, 0.16003689619304312, 0.038982445123681576)","(-0.0007536035543313348, 4.7100258049582536e-05, -1.7747461781428295e-08)",,"[-0.026750000193715096, 0.05299999937415123, 0.03999999910593033]","[0.0, -0.0, 0.8530713239495782]","[-0.08098787814378738, 0.10035242885351181, 0.03999999910593033]","[0.0, -0.0, 0.2072574956851119]","[0.026750000193715096, 0.05299999937415123, 0.03999999910593033]","[0.0, 0.0, -0.8536307856313979]","[0.08101436495780945, 0.10032207518815994, 0.03999999910593033]","[0.0, 0.0, -0.21051882644475053]",0.8277641369388617,-6.073710318369648,"(0.0, 0.0, 0.0, 0.0, 0.0, 0.0)",1.043715976216214,-0.6712325191394197,-6.100504492229669,"(0.0, 0.0, 0.0, 0.0, 0.0, 0.0)",0.1370167890019201,-0.8282677402193435,6.0871397391824935,"(0.0, 0.0, 0.0, 0.0, 0.0, 0.0)",-1.0465779375227178,0.6688009525283538,6.165346509266115,"(0.0, 0.0, 0.0, 0.0, 0.0, 0.0)",-0.1378772244212715,False,,,,,False,,,,
43,Close,,,"(0.010002470404691093, 0.16003952644115657, 0.04045997120998789)","(-0.0008073642479911328, 5.0460303253361964e-05, -2.0369923505779015e-08)",,"[-0.026750000193715096, 0.05299999937415123, 0.03999999910593033]","[0.0, -0.0, 0.8277641182932235]","[-0.07977228611707687, 0.10170972347259521, 0.03999999910593033]","[0.0, -0.0, 0.1565316389415725]","[0.026750000193715096, 0.05299999937415123, 0.03999999910593033]","[0.0, 0.0, -0.8282677342123946]","[0.07979680597782135, 0.10168302059173584, 0.03999999910593033]","[0.0, 0.0, -0.1594667900835625]",0.8049877232449756,-5.4663392865326825,"(0.0, 0.0, 0.0, 0.0, 0.0, 0.0)",0.9397613626777375,-0.6941093969081942,-5.49045066450586,"(0.0, 0.0, 0.0, 0.0, 0.0, 0.0)",0.12359998406321729,-0.8054409661974091,5.478425765264244,"(0.0, 0.0, 0.0, 0.0, 0.0, 0.0)",-0.9423413878167864,0.6919209877745929,5.54880845909737,"(0.0, 0.0, 0.0, 0.0, 0.0, 0.0)",-0.12437805104754245,False,,,,,False,,,,
44,Close,,,"(0.010002634758225062, 0.1600421560954447, 0.041763552607370504)","(-0.000861115865719684, 5.381978106418352e-05, -2.3172535119669436e-08)",,"[-0.026750000193715096, 0.05299999937415123, 0.03999999910593033]","[0.0, -0.0, 0.8049877164750058]","[-0.07864919304847717, 0.10290464758872986, 0.03999999910593033]","[0.0, -0.0, 0.11087832859978779]","[0.026750000193715096, 0.05299999937415123, 0.03999999910593033]","[0.0, 0.0, -0.805440964305088]","[0.07867180556058884, 0.10288111865520477, 0.03999999910593033]","[0.0, 0.0, -0.11351997099607207]",0.784488950920478,-4.919705357879415,"(0.0, 0.0, 0.0, 0.0, 0.0, 0.0)",0.8461229797239068,-0.7146985741739192,-4.941402543774016,"(0.0, 0.0, 0.0, 0.0, 0.0, 0.0)",0.11147072977230046,-0.7848968695776682,4.93058318873782,"(0.0, 0.0, 0.0, 0.0, 0.0, 0.0)",-0.8484484528940599,0.7127290066915236,4.993924540063379,"(0.0, 0.0, 0.0, 0.0, 0.0, 0.0)",-0.1121739668696123,False,,,,,False,,,,
45,Close,,,"(0.010002799075796832, 0.16004478517433812, 0.04289323765696492)","(-0.0009148584090699577, 5.7178691569402595e-05, -2.615520523253533e-08)",,"[-0.026750000193715096, 0.05299999937415123, 0.03999999910593033]","[0.0, -0.0, 0.7844889896573499]","[-0.07761538028717041, 0.10395795851945877, 0.03999999910593033]","[0.0, -0.0, 0.06979037514545033]","[0.026750000193715096, 0.05299999937415123, 0.03999999910593033]","[0.0, 0.0, -0.7848969068252226]","[0.07763615995645523, 0.10393720120191574, 0.03999999910593033]","[0.0, 0.0, -0.07216786709232846]",0.7660400558284302,-4.427734822091471,"(0.0, 0.0, 0.0, 0.0, 0.0, 0.0)",0.7617842585328375,-0.7332288222135146,-4.44725952950288,"(0.0, 0.0, 0.0, 0.0, 0.0, 0.0)",0.10051055612556806,-0.7664071826199014,4.437524869864038,"(0.0, 0.0, 0.0, 0.0, 0.0, 0.0)",-0.7638799793048979,0.7314562121459494,4.494529309062177,"(0.0, 0.0, 0.0, 0.0, 0.0, 0.0)",-0.10114588070786824,False,,,,,False,,,,
46,Close,,,"(0.010002963358557236, 0.16004741369625017, 0.04384907226694074)","(-0.0009685918795946493, 6.053703485636736e-05, -2.9317842489583264e-08)",,"[-0.026750000193715096, 0.05299999937415123, 0.03999999910593033]","[0.0, -0.0, 0.7660400058439011]","[-0.07666666060686111, 0.10488764196634293, 0.03999999910593033]","[0.0, -0.0, 0.0328112365488731]","[0.026750000193715096, 0.05299999937415123, 0.03999999910593033]","[0.0, 0.0, -0.7664072421942376]","[0.07668570429086685, 0.1048693135380745, 0.03999999910593033]","[0.0, 0.0, -0.03495097036229706]",0.7494360502455871,-3.984961339882325,"(0.0, 0.0, 0.0, 0.0, 0.0, 0.0)",0.6858274268188955,-0.7499060350622873,-4.002531083705426,"(0.0, 0.0, 0.0, 0.0, 0.0, 0.0)",0.09061088591719418,-0.7497664643579113,3.9937723828776335,"(0.0, 0.0, 0.0, 0.0, 0.0, 0.0)",-0.6877158393779155,0.7483106866034595,4.045073869802414,"(0.0, 0.0, 0.0, 0.0, 0.0, 0.0)",-0.09118463108881669,False,,,,,False,,,,
47,Close,,,"(0.010003127607656072, 0.16005004167957756, 0.04463109991511072)","(-0.0010223162788461832, 6.389481101241881e-05, -3.266035557177819e-08)",,"[-0.026750000193715096, 0.05299999937415123, 0.03999999910593033]","[0.0, -0.0, 0.7494360616149593]","[-0.07579827308654785, 0.1057092696428299, 0.03999999910593033]","[0.0, 0.0, -0.00046998485639781964]","[0.026750000193715096, 0.05299999937415123, 0.03999999910593033]","[0.0, 0.0, -0.7497665229086657]","[0.07581568509340286, 0.10569305717945099, 0.03999999910593033]","[0.0, 0.0, -0.0014557777936095985]",0.7344924452210284,-3.5864652058940925,"(0.0, 0.0, 0.0, 0.0, 0.0, 0.0)",0.6173964503690262,-0.7649166300024903,-3.602542785648727,"(0.0, 0.0, 0.0, 0.0, 0.0, 0.0)",0.08164469448201127,-0.7347898179221202,3.594395144589871,"(0.0, 0.0, 0.0, 0.0, 0.0, 0.0)",-0.61909767957405,0.7634808239898891,3.6408329727431203,"(0.0, 0.0, 0.0, 0.0, 0.0, 0.0)",-0.08216247127692902,False,,,,,False,,,,
48,Close,,,"(0.010003291824242136, 0.16005266914270105, 0.04523936165140331)","(-0.0010760316083767074, 6.725202012489063e-05, -3.618265319583079e-08)",,"[-0.026750000193715096, 0.05299999937415123, 0.03999999910593033]","[0.0, -0.0, 0.7344924171356654]","[-0.07500515878200531, 0.10643631219863892, 0.03999999910593033]","[0.0, 0.0, -0.03042418292779103]","[0.026750000193715096, 0.05299999937415123, 0.03999999910593033]","[0.0, 0.0, -0.7347898072320369]","[0.07502105087041855, 0.10642196238040924, 0.03999999910593033]","[0.0, -0.0, 0.028691003185096618]",0.7210432006989256,-3.227818685304683,"(0.0, 0.0, 0.0, 0.0, 0.0, 0.0)",0.5558325671900768,-0.77842604750784,-3.2422602012839143,"(0.0, 0.0, 0.0, 0.0, 0.0, 0.0)",0.07360992294062317,-0.7213108361299082,3.234955630130884,"(0.0, 0.0, 0.0, 0.0, 0.0, 0.0)",-0.5573653507703412,0.7771338289584356,3.2767211924511668,"(0.0, 0.0, 0.0, 0.0, 0.0, 0.0)",-0.07407739542501454,False,,,,,False,,,,
49,Close,,,"(0.010003456009463264, 0.16005529610398603, 0.04567389610019914)","(-0.0011297378697381003, 7.060866228110946e-05, -3.988464411418517e-08)",,"[-0.026750000193715096, 0.05299999937415123, 0.03999999910593033]","[0.0, -0.0, 0.7210432248946826]","[-0.07428213953971863, 0.10708045959472656, 0.03999999910593033]","[0.0, 0.0, -0.05738284539856889]","[0.026750000193715096, 0.05299999937415123, 0.03999999910593033]","[0.0, 0.0, -0.7213108742429458]","[0.07429660856723785, 0.10706773400306702, 0.03999999910593033]","[0.0, -0.0, 0.0558229905847104]",0.708938880629033,-2.905036816774215,"(0.0, 0.0, 0.0, 0.0, 0.0, 0.0)",0.5003668258645501,-0.7905844163893876,-2.9180085315714246,"(0.0, 0.0, 0.0, 0.0, 0.0, 0.0)",0.06632913423961855,-0.7091797525169173,2.911460067117798,"(0.0, 0.0, 0.0, 0.0, 0.0, 0.0)",-0.5017475327577147,0.7894214258858812,2.9490232625869344,"(0.0, 0.0, 0.0, 0.0, 0.0, 0.0)",-0.06675089596581112,False,,,,,False,,,,
50,Close,,,"(0.010001644182078712, 0.16005595153396976, 0.045940321410535084)","(-0.0011271805217326655, 1.767785898679914e-05, -1.508889111938428e-08)",,"[-0.026750000193715096, 0.05299999937415123, 0.03999999910593033]","[0.0, -0.0, 0.7089389671526269]","[-0.07362406700849533, 0.10765182226896286, 0.03999999910593033]","[0.0, 0.0, -0.08164554069303018]","[0.026750000193715096, 0.05299999937415123, 0.03999999910593033]","[0.0, 0.0, -0.7091797033714331]","[0.0736372321844101, 0.10764053463935852, 0.03999999910593033]","[0.0, -0.0, 0.08024167743029369]",0.6980449925661297,-2.6145331350967917,"(0.0, 0.0, 0.0, 0.0, 0.0, 0.0)",0.4504252929298086,-0.8015268519725993,-2.6261845399708146,"(0.0, 0.0, 0.0, 0.0, 0.0, 0.0)",0.059761147909024356,-0.6982617772652256,2.6203140604060167,"(0.0, 0.0, 0.0, 0.0, 0.0, 0.0)",-0.4516689022418484,0.8004801661036254,2.6540976522586175,"(0.0, 0.0, 0.0, 0.0, 0.0, 0.0)",-0.06014157277442886,False,,,,,False,,,,
51,Close,,,"(0.009998458164918766, 0.16005543218265145, 0.046184544665354044)","(-0.001116587313714928, -4.731063982249702e-05, 3.3486629919706074e-09)",,"[-0.026750000193715096, 0.05299999937415123, 0.03999999910593033]","[0.0, -0.0, 0.6980450466292163]","[-0.07302592694759369, 0.10815921425819397, 0.03999999910593033]","[0.0, 0.0, -0.1034818592301779]","[0.026750000193715096, 0.05299999937415123, 0.03999999910593033]","[0.0, 0.0, -0.6982617371246688]","[0.07303788512945175, 0.10814917832612991, 0.03999999910593033]","[0.0, -0.0, 0.10221840210156648]",0.6882404933095168,-2.3530798215871136,"(0.0, 0.0, 0.0, 0.0, 0.0, 0.0)",0.40545980991383274,-0.8113749570468809,-2.3635452178275753,"(0.0, 0.0, 0.0, 0.0, 0.0, 0.0)",0.0538375991228723,-0.688435599538703,2.358282654365416,"(0.0, 0.0, 0.0, 0.0, 0.0, 0.0)",-0.4065798463491374,0.810432944800545,2.3886668872606847,"(0.0, 0.0, 0.0, 0.0, 0.0, 0.0)",-0.0541806611811555,False,,,,,False,,,,
52,Close,,,"(0.0099979269032565, 0.16005188637635104, 0.04640949954916324)","(-0.0010442772263960227, -5.814874739306873e-05, 7.787963860925158e-09)",,"[-0.026750000193715096, 0.05299999937415123, 0.03999999910593033]","[0.0, -0.0, 0.688240548987758]","[-0.07248289883136749, 0.10861026495695114, 0.03999999910593033]","[0.0, 0.0, -0.12313446206189271]","[0.026750000193715096, 0.05299999937415123, 0.03999999910593033]","[0.0, 0.0, -0.6884356086136862]","[0.07249374687671661, 0.10860133916139603, 0.03999999910593033]","[0.0, -0.0, 0.1219973374555316]",0.679416393078237,-2.117784055507141,"(0.0, 0.0, 0.0, 0.0, 0.0, 0.0)",0.3649762140031281,-0.8202374613421928,-2.12700103087486,"(0.0, 0.0, 0.0, 0.0, 0.0, 0.0)",0.04851286211734207,-0.6795919883598663,2.1224666829208143,"(0.0, 0.0, 0.0, 0.0, 0.0, 0.0)",-0.36598488497268467,0.8193896503204905,2.149609324786922,"(0.0, 0.0, 0.0, 0.0, 0.0, 0.0)",-0.04882227338805697,False,,,,,False,,,,
53,Close,,,"(0.009997966950406065, 0.16004795201914346, 0.046616050094935475)","(-0.0009640430328522325, -5.7324486097668704e-05, 4.2980615420070005e-09)",,"[-0.026750000193715096, 0.05299999937415123, 0.03999999910593033]","[0.0, -0.0, 0.6794163791618646]","[-0.07199041545391083, 0.10901165008544922, 0.03999999910593033]","[0.0, 0.0, -0.1408210743259801]","[0.026750000193715096, 0.05299999937415123, 0.03999999910593033]","[0.0, 0.0, -0.6795920181483843]","[0.07200025022029877, 0.1090037003159523, 0.03999999910593033]","[0.0, -0.0, 0.13979766167419433]",0.6714747537704133,-1.9059934338776885,"(0.0, 0.0, 0.0, 0.0, 0.0, 0.0)",0.3285291326313333,-0.8282143561304102,-1.914454749172182,"(0.0, 0.0, 0.0, 0.0, 0.0, 0.0)",0.043663125146434535,-0.6716327895238797,1.9102077206367922,"(0.0, 0.0, 0.0, 0.0, 0.0, 0.0)",-0.3294374536237565,0.8274513303019508,1.934803195550486,"(0.0, 0.0, 0.0, 0.0, 0.0, 0.0)",-0.043941831288343336,False,,,,,False,,,,
54,Close,,,"(0.009998107600018924, 0.16004411888380865, 0.0468059782297436)","(-0.0008858309445970004, -5.447527859797503e-05, 4.128601528647624e-08)",,"[-0.026750000193715096, 0.05299999937415123, 0.03999999910593033]","[0.0, -0.0, 0.6714747449539094]","[-0.07154417037963867, 0.10936915874481201, 0.03999999910593033]","[0.0, 0.0, -0.15673960659097733]","[0.026750000193715096, 0.05299999937415123, 0.03999999910593033]","[0.0, 0.0, -0.6716327690441329]","[0.07155308127403259, 0.10936208069324493, 0.03999999910593033]","[0.0, -0.0, 0.15581855230220754]",0.664327278393372,-1.7153940904899205,"(0.0, 0.0, 0.0, 0.0, 0.0, 0.0)",0.2957170811345372,-0.8353934979980445,-1.7229940482322428,"(0.0, 0.0, 0.0, 0.0, 0.0, 0.0)",0.03934112702889199,-0.6644695105714917,1.7191869485731137,"(0.0, 0.0, 0.0, 0.0, 0.0, 0.0)",-0.2965349881453131,0.8347067784412298,1.7413075534269409,"(0.0, 0.0, 0.0, 0.0, 0.0, 0.0)",-0.039592428071821256,False,,,,,False,,,,
55,Close,,,"(0.009998248644105466, 0.16004048002584464, 0.0469807018618576)","(-0.0008115684428503489, -5.1596750749095254e-05, 7.881188886077776e-08)",,"[-0.026750000193715096, 0.05299999937415123, 0.03999999910593033]","[0.0, -0.0, 0.6643273336690038]","[-0.07114013284444809, 0.10968788713216782, 0.03999999910593033]","[0.0, 0.0, -0.17106622141763456]","[0.026750000193715096, 0.05299999937415123, 0.03999999910593033]","[0.0, 0.0, -0.6644694779113771]","[0.07114819437265396, 0.10968156903982162, 0.03999999910593033]","[0.0, -0.0, 0.17023725548976373]",0.6578945505540348,-1.543854681440929,"(0.0, 0.0, 0.0, 0.0, 0.0, 0.0)",0.2661784897251144,-0.8418546682622772,-1.5506808634158242,"(0.0, 0.0, 0.0, 0.0, 0.0, 0.0)",0.03542959308904228,-0.6580225595143425,1.547268253715802,"(0.0, 0.0, 0.0, 0.0, 0.0, 0.0)",-0.26691494494593054,0.8412366239853526,1.567162930589489,"(0.0, 0.0, 0.0, 0.0, 0.0, 0.0)",-0.035656056287006674,False,,,,,False,,,,
56,Close,,,"(0.009998390752654573, 0.16003702894197389, 0.04714144752999396)","(-0.0007411380797103218, -4.869650481896534e-05, 1.1687517768299383e-07)",,"[-0.026750000193715096, 0.05299999937415123, 0.03999999910593033]","[0.0, -0.0, 0.6578945475257985]","[-0.07077455520629883, 0.1099722608923912, 0.03999999910593033]","[0.0, 0.0, -0.18396012465064338]","[0.026750000193715096, 0.05299999937415123, 0.03999999910593033]","[0.0, 0.0, -0.6580225896942233]","[0.07078184932470322, 0.10996662080287933, 0.03999999910593033]","[0.0, -0.0, 0.18321406389742323]",0.6521050954986313,-1.3894692132968354,"(0.0, 0.0, 0.0, 0.0, 0.0, 0.0)",0.23958744527110798,-0.8476696697618468,-1.395600359896693,"(0.0, 0.0, 0.0, 0.0, 0.0, 0.0)",0.031904902566438624,-0.6522203035629083,1.392541428344221,"(0.0, 0.0, 0.0, 0.0, 0.0, 0.0)",-0.24025052935853647,0.8471134329078756,1.410434141405507,"(0.0, 0.0, 0.0, 0.0, 0.0, 0.0)",-0.032108956045352514,False,,,,,False,,,,
57,Close,,,"(0.009998534235924597, 0.16003375955333046, 0.04728933347451534)","(-0.0006744157946989166, -4.576820860538318e-05, 1.554405829918684e-07)",,"[-0.026750000193715096, 0.05299999937415123, 0.03999999910593033]","[0.0, -0.0, 0.6521051450040646]","[-0.07044398784637451, 0.11022617667913437, 0.03999999910593033]","[0.0, 0.0, -0.19556454293122102]","[0.026750000193715096, 0.05299999937415123, 0.03999999910593033]","[0.0, 0.0, -0.6522203497730787]","[0.07045057415962219, 0.11022114753723145, 0.03999999910593033]","[0.0, -0.0, 0.19489313608724637]",0.6468945859487681,-1.250522291967151,"(0.0, 0.0, 0.0, 0.0, 0.0, 0.0)",0.2156503992603495,-0.8529031244958994,-1.2560291361726517,"(0.0, 0.0, 0.0, 0.0, 0.0, 0.0)",0.02872919688306315,-0.6469982732066174,1.253287285509799,"(0.0, 0.0, 0.0, 0.0, 0.0, 0.0)",-0.2162473971085442,0.8524025140258721,1.2693794683191757,"(0.0, 0.0, 0.0, 0.0, 0.0, 0.0)",-0.02891303657535659,False,,,,,False,,,,
58,Close,,,"(0.009998679410322496, 0.16003066597344334, 0.0474253884764576)","(-0.0006112814540129935, -4.2805404436077314e-05, 1.9447426774393396e-07)",,"[-0.026750000193715096, 0.05299999937415123, 0.03999999910593033]","[0.0, -0.0, 0.6468945636476681]","[-0.07014521211385727, 0.11045306921005249, 0.03999999910593033]","[0.0, 0.0, -0.20600854729134555]","[0.026750000193715096, 0.05299999937415123, 0.03999999910593033]","[0.0, 0.0, -0.6469982503054421]","[0.07015117257833481, 0.11044856905937195, 0.03999999910593033]","[0.0, -0.0, 0.20540423443750838]",0.6422051273538913,-1.125470062770436,"(0.0, 0.0, 0.0, 0.0, 0.0, 0.0)",0.1941029233168818,-0.8576131917611358,-1.1304161436567226,"(0.0, 0.0, 0.0, 0.0, 0.0, 0.0)",0.025868240883426936,-0.6422984458859556,1.1279585569588184,"(0.0, 0.0, 0.0, 0.0, 0.0, 0.0)",-0.19464040126091972,0.8571626447690798,1.1424313783698345,"(0.0, 0.0, 0.0, 0.0, 0.0, 0.0)",-0.026033851694478666,False,,,,,False,,,,
59,Move,,,"(0.009998826598722164, 0.16002774252192944, 0.04755055901421763)","(-0.0005516191299448554, -3.980150267197137e-05, 2.339437659612592e-07)","[0.0, 0.0, 0.0]","[-0.026750000193715096, 0.05299999937415123, 0.03999999910593033]","[0.0, -0.0, 0.6422051137296667]","[-0.0698753148317337, 0.11065594106912613, 0.03999999910593033]","[0.0, 0.0, -0.2154080556264429]","[0.026750000193715096, 0.05299999937415123, 0.03999999910593033]","[0.0, 0.0, -0.6422983956794274]","[0.06988069415092468, 0.1106519103050232, 0.03999999910593033]","[0.0, -0.0, 0.21486417441436167]",0.6379846146185022,-1.0129230564933929,"(0.0, 0.0, 0.0, 0.0, 0.0, 0.0)",0.17470684718642912,-0.8618522144704561,-1.0173654502368856,"(0.0, 0.0, 0.0, 0.0, 0.0, 0.0)",0.023291096758263134,-0.6380686012973601,1.0151627012629356,"(0.0, 0.0, 0.0, 0.0, 0.0, 0.0)",-0.1751907229705418,0.8614467243673204,1.02817910357775,"(0.0, 0.0, 0.0, 0.0, 0.0, 0.0)",-0.023440272040621463,False,,,,,True,"(0.04276013174954747, 0.17974174897294792, 0.02399995643463635)","(-0.9999999990838299, -1.9447426661030803e-07, -4.2805404423670755e-05)",0.0013234533115717422,0.0
60,Move,,,"(0.008647793626345025, 0.1597689571706415, 0.047760933831017184)","(0.002751303965997485, 0.0062729435278858535, 0.019071034327276495)","[-0.0013510329723771392, -0.00025878535128795455, 0.0002103748167995509]","[-0.026750000193715096, 0.05299999937415123, 0.03999999910593033]","[0.0, -0.0, 0.6379846501970732]","[-0.06963159143924713, 0.1108374372124672, 0.03999999910593033]","[0.0, 0.0, -0.22386762157269943]","[0.026750000193715096, 0.05299999937415123, 0.03999999910593033]","[0.0, 0.0, -0.638068602671057]","[0.06963644921779633, 0.11083383113145828, 0.03999999910593033]","[0.0, -0.0, 0.22337816170537766]",0.6141590059460926,-5.718146081378296,"(0.0, 0.0, 0.0, 0.0, 0.0, 0.0)",-6.715100343954984,-0.8614283121995241,0.10173654502368734,"(0.0, 0.0, 0.0, 0.0, 0.0, 0.0)",-0.3723637437215536,-0.618674413222096,4.654605138063383,"(0.0, 0.0, 0.0, 0.0, 0.0, 0.0)",17.065562232689366,0.8602412058242138,-0.2893244503455854,"(0.0, 0.0, 0.0, 0.0, 0.0, 0.0)",7.106572277209307,False,,,,,True,"(0.041928616181162004, 0.17969877893574898, 0.023999959438538117)","(-0.9999999992078928, -2.3394376620903917e-07, -3.980150265941498e-05)",0.0004918567139684023,95.49017250977
61,Move,,,"(0.006887758219239088, 0.1593835704015558, 0.04787339905154088)","(0.0017305935767232348, 0.007158794924062122, 0.045174096098190876)","[-0.0031110683794830767, -0.0006441721203736539, 0.0003228400373232465]","[-0.026750000193715096, 0.05299999937415123, 0.03999999910593033]","[0.0, -0.0, 0.6141590305095613]","[-0.06824154406785965, 0.11184260249137878, 0.03999999910593033]","[0.0, 0.0, -0.24726930604170874]","[0.026750000193715096, 0.05299999937415123, 0.03999999910593033]","[0.0, 0.0, -0.618674376348331]","[0.06850681453943253, 0.11165465414524078, 0.03999999910593033]","[0.0, -0.0, 0.24156678282122587]",0.5923752537221402,-5.228100533748595,"(0.0, 0.0, 0.0, 0.0, 0.0, 0.0)",0.6968351830029371,-0.8614707024266173,-0.010173654502368734,"(0.0, 0.0, 0.0, 0.0, 0.0, 0.0)",0.03860943376531379,-0.6008653718670635,4.27416992520783,"(0.0, 0.0, 0.0, 0.0, 0.0, 0.0)",2.7714475160773278,0.860320425695421,0.0190127690897251,"(0.0, 0.0, 0.0, 0.0, 0.0, 0.0)",1.9183868958463108,False,,,,,True,"(0.03955107142692287, 0.18000426661724492, 0.023999959438538117)","(-0.9999999992078928, -2.3394376620903917e-07, -3.980150265941498e-05)",-3.4813334978635733e-06,7.95863737321659
62,Move,,,"(0.005156246405490289, 0.15898837711102404, 0.04787181722309448)","(-0.0006978234858739093, 0.005886868475808684, 0.07186846288996017)","[-0.004842580193231876, -0.0010393654109054073, 0.00032125820887684425]","[-0.026750000193715096, 0.05299999937415123, 0.03999999910593033]","[0.0, -0.0, 0.5923752994005711]","[-0.0669499859213829, 0.1127324104309082, 0.03999999910593033]","[0.0, 0.0, -0.2690954538189607]","[0.026750000193715096, 0.05299999937415123, 0.03999999910593033]","[0.0, 0.0, -0.6008653768440841]","[0.06745566427707672, 0.1123889610171318, 0.03999999910593033]","[0.0, -0.0, 0.2594550801452816]",0.5711859969447054,-5.085421626584345,"(0.0, 0.0, 0.0, 0.0, 0.0, 0.0)",0.20567214267044365,-0.8614666894792501,0.0009631073681238798,"(0.0, 0.0, 0.0, 0.0, 0.0, 0.0)",0.015401482911136017,-0.5830389824118744,4.278333469245391,"(0.0, 0.0, 0.0, 0.0, 0.0, 0.0)",0.005816219175850161,0.8603125234533382,-0.0018965380998672496,"(0.0, 0.0, 0.0, 0.0, 0.0, 0.0)",-0.0013451394632792869,False,,,,,True,"(0.03728196395174807, 0.1802096993046306, 0.023999959438538117)","(-0.9999999992078928, -2.3394376620903917e-07, -3.980150265941498e-05)",4.892771539140048e-05,0.0
63,Move,,,"(0.003404244954299223, 0.15856544912242948, 0.047847954716995975)","(-0.0006973002403329397, 0.0016561879586783524, 0.09699797359966167)","[-0.006594581644422942, -0.0014622933994999643, 0.0002973957027783414]","[-0.026750000193715096, 0.05299999937415123, 0.03999999910593033]","[0.0, -0.0, 0.5711859664485911]","[-0.06567537039518356, 0.11357074975967407, 0.03999999910593033]","[0.0, 0.0, -0.29028069794293593]","[0.026750000193715096, 0.05299999937415123, 0.03999999910593033]","[0.0, 0.0, -0.5830389491384459]","[0.06639056652784348, 0.11310511827468872, 0.03999999910593033]","[0.0, -0.0, 0.2772735504024037]",0.5508150274188468,-4.8890326862060665,"(0.0, 0.0, 0.0, 0.0, 0.0, 0.0)",0.2824903473683782,-0.8614670907739869,-9.63107368123781e-05,"(0.0, 0.0, 0.0, 0.0, 0.0, 0.0)",0.019740959922631196,-0.5652522846263247,4.268807468531912,"(0.0, 0.0, 0.0, 0.0, 0.0, 0.0)",0.7505972223171798,0.8602839874211469,-0.006848647725916821,"(0.0, 0.0, 0.0, 0.0, 0.0, 0.0)",0.42767352367951667,False,,,,,True,"(0.035013252633157715, 0.18037747238131807, 0.023999959438538117)","(-0.9999999992078928, -2.3394376620903917e-07, -3.980150265941498e-05)",5.2263974547817456e-05,6.131153447533295
64,Move,,,"(0.0031616990513464813, 0.15909254558158703, 0.04754936166915191)","(0.01297366590934766, 0.0004459415653265169, 0.09761701245889662)","[-0.006837127547375683, -0.0009351969403424143, -1.1973450657204454e-06]","[-0.026750000193715096, 0.05299999937415123, 0.03999999910593033]","[0.0, -0.0, 0.5508150617847357]","[-0.0644334927201271, 0.1143510714173317, 0.03999999910593033]","[0.0, 0.0, -0.31065204826008097]","[0.026750000193715096, 0.05299999937415123, 0.03999999910593033]","[0.0, 0.0, -0.5652523595604302]","[0.06531527638435364, 0.11380065232515335, 0.03999999910593033]","[0.0, -0.0, 0.29503169820293296]",0.5329953217988566,-4.276729348797648,"(0.0, 0.0, 0.0, 0.0, 0.0, 0.0)",-61.52606082001932,-0.8364990999216424,5.992317804562665,"(0.0, 0.0, 0.0, 0.0, 0.0, 0.0)",-30.680100735338495,-0.5492951891238746,3.8297029205880246,"(0.0, 0.0, 0.0, 0.0, 0.0, 0.0)",50.65810246657347,0.8365980556070605,-5.684623635380728,"(0.0, 0.0, 0.0, 0.0, 0.0, 0.0)",24.01164697020015,True,"(-0.030829522594976747, 0.18072282766051662, 0.023998343052839245)","(0.995298018781857, 0.09684580968149176, -0.001656187201538528)",0.00045045223484861896,507.14984327908655,True,"(0.03274834388297207, 0.18050522150842535, 0.023999959438538117)","(-0.9999999992078928, -2.3394376620903917e-07, -3.980150265941498e-05)",-1.5400330321782158e-06,421.40115856029155
65,Move,"(-0.0031000000000000003, 0.0, -0.0002)","(0.0, 0.02079385270826044, 0.0)","(0.0030578914452438198, 0.15995484165698684, 0.04757533495250378)","(0.011294345044397485, 0.00019604477219894225, 0.09664468694608624)","[-0.006940935153478345, -7.290086494260439e-05, 2.477593828614788e-05]","[-0.026750000193715096, 0.05299999937415123, 0.03999999910593033]","[0.0, -0.0, 0.5329953166561011]","[-0.06333431601524353, 0.11501280218362808, 0.03999999910593033]","[0.0, 0.0, -0.30350379409347095]","[0.026750000193715096, 0.05299999937415123, 0.03999999910593033]","[0.0, 0.0, -0.5492951489173719]","[0.06434021145105362, 0.11440827697515488, 0.03999999910593033]","[0.0, -0.0, 0.28730290365452904]",0.5161282994275627,-4.048085369110546,"(0.0, 0.0, 0.0, 0.0, 0.0, 0.0)",-66.88994651343681,-0.8103308800207519,6.28037277621371,"(0.0, 0.0, 0.0, 0.0, 0.0, 0.0)",-33.218401357700806,-0.5336723339566758,3.749485240127723,"(0.0, 0.0, 0.0, 0.0, 0.0, 0.0)",67.343271859445,0.811965059448471,-5.911919078061482,"(0.0, 0.0, 0.0, 0.0, 0.0, 0.0)",31.08744849397386,True,"(-0.03020497941833443, 0.18161657752350394, 0.02399955329849024)","(0.995239142753629, 0.09746204321250072, -0.00044594155054465543)",-0.0004349156316458332,539.416429866673,True,"(0.032289789691503736, 0.1813625543157511, 0.023999959438538117)","(-0.9999999992078928, -2.3394376620903917e-07, -3.980150265941498e-05)",-0.00020087015603815656,541.3311923797135
66,Move,"(0.004200000000000001, 0.0, 0.0009000000000000001)","(0.0, 0.02528982086139784, 0.0)","(0.00295925298150264, 0.1607739647365278, 0.04751411843723557)","(0.006596539271978712, -0.001834959887979091, 0.09402334907937683)","[-0.007039573617219524, 0.0007462222145983577, -3.644057698206499e-05]","[-0.026750000193715096, 0.05299999937415123, 0.03999999910593033]","[0.0, -0.0, 0.5161283352439424]","[-0.06228318810462952, 0.11562102288007736, 0.03999999910593033]","[0.0, 0.0, -0.29420260327654413]","[0.026750000193715096, 0.05299999937415123, 0.03999999910593033]","[0.0, 0.0, -0.5336723421542716]","[0.063376285135746, 0.11498802155256271, 0.03999999910593033]","[0.0, -0.0, 0.2782926867336902]",0.5172464637455094,0.26835943630721193,"(0.0, 0.0, 0.0, 0.0, 0.0, 0.0)",5.5429562815205005,-0.8129463167389606,-0.6277048123700624,"(0.0, 0.0, 0.0, 0.0, 0.0, 0.0)",-0.2716691156880621,-0.5359682663583174,-0.5510237763939787,"(0.0, 0.0, 0.0, 0.0, 0.0, 0.0)",-5.567117374141815,0.8144283590643299,0.5911919078061452,"(0.0, 0.0, 0.0, 0.0, 0.0, 0.0)",0.22852279045001217,True,"(-0.029773728721575576, 0.18251983241141312, 0.02399980319526985)","(0.9953335169527671, 0.09649430862430869, -0.0001960447709347975)",-0.0009406031696321318,0.039258612254486694,True,"(0.03193042913382093, 0.18222836003606496, 0.023999959438538117)","(-0.9999999992078928, -2.3394376620903917e-07, -3.980150265941498e-05)",-0.0004882925103592817,0.0
67,Move,"(0.0024, 0.0, 0.0009000000000000001)","(0.0, 0.021750293138353336, 0.0)","(0.003085889097802398, 0.16150776916778625, 0.04743259010917306)","(-0.0008025045908547347, -0.001948201922960598, 0.08911202547986534)","[-0.006912937500919767, 0.0014800266458568079, -0.00011796890504457008]","[-0.026750000193715096, 0.05299999937415123, 0.03999999910593033]","[0.0, -0.0, 0.5172464841897133]","[-0.062353186309337616, 0.11558125168085098, 0.03999999910593033]","[0.0, 0.0, -0.29569981302008275]","[0.026750000193715096, 0.05299999937415123, 0.03999999910593033]","[0.0, 0.0, -0.5359682282759386]","[0.06351850926876068, 0.1149037703871727, 0.03999999910593033]","[0.0, -0.0, 0.27846009522065257]",0.5150677347632672,-0.5228949557381445,"(0.0, 0.0, 0.0, 0.0, 0.0, 0.0)",-3.0837556589664863,-0.8123619203171303,0.1402551412392674,"(0.0, 0.0, 0.0, 0.0, 0.0, 0.0)",-1.049922214567311,-0.5382035058489427,-0.5364574777500744,"(0.0, 0.0, 0.0, 0.0, 0.0, 0.0)",0.36817265604064947,0.8138289246959369,-0.14386424841430545,"(0.0, 0.0, 0.0, 0.0, 0.0, 0.0)",0.18081237255096178,True,"(-0.029743597825859273, 0.18243131084650271, 0.02399980319526985)","(0.9953335169527671, 0.09649430862430869, -0.0001960447709347975)",-0.0008659784758307303,10.160356339460519,True,"(0.03215688833475048, 0.18100838172066536, 0.023998164281182538)","(-0.995581384206284, -0.0938847183938272, -0.001834958858241041)",-0.0005118261432769034,3.2832491342929573
68,Move,"(0.0047, 0.0, 0.0012)","(0.0, 0.008604473212332044, 0.0)","(0.0032879111457976484, 0.16204232515946304, 0.04755741539899896)","(-0.005613866715795239, 0.003084706694335641, 0.08919194219870412)","[-0.006710915452924516, 0.0020145826375335962, 6.856384781324387e-06]","[-0.026750000193715096, 0.05299999937415123, 0.03999999910593033]","[0.0, -0.0, 0.515067710876384]","[-0.062216755002737045, 0.11565867066383362, 0.03999999910593033]","[0.0, 0.0, -0.29729419266917634]","[0.026750000193715096, 0.05299999937415123, 0.03999999910593033]","[0.0, 0.0, -0.538203492930235]","[0.06365679204463959, 0.1148214265704155, 0.03999999910593033]","[0.0, -0.0, 0.27562540785021306]",0.5133659627045798,-0.40842529408496064,"(0.0, 0.0, 0.0, 0.0, 0.0, 0.0)",-0.2676254120191995,-0.8123987358489888,-0.008835727646037572,"(0.0, 0.0, 0.0, 0.0, 0.0, 0.0)",-0.23149830846330197,-0.5398203428019179,-0.38804086871406085,"(0.0, 0.0, 0.0, 0.0, 0.0, 0.0)",0.23191360909444728,0.8138888681327763,0.014386424841430517,"(0.0, 0.0, 0.0, 0.0, 0.0, 0.0)",0.03198301087203553,True,"(-0.029500222931013405, 0.18245223376667669, 0.056001948960649785)","(0.9960302599945847, 0.08899396434134782, 0.0019482006905572398)",-0.0008608722260646631,3.184275111710838,True,"(0.032482490140004615, 0.18101674321431463, 0.023998051039350213)","(-0.9960302599945847, -0.08899396434134799, -0.0019482006905662311)",-0.000466570161388323,0.0
69,Move,"(0.009800000000000001, 0.0, 0.0016)","(0.0, 0.01676912345316152, 0.0)","(0.003503116541618199, 0.16242599903371036, 0.04771979187441948)","(-0.006393616559731811, 0.003253344931817098, 0.08687803242307643)","[-0.006495710057103966, 0.0023982565117809107, 0.00016923286020184558]","[-0.026750000193715096, 0.05299999937415123, 0.03999999910593033]","[0.0, -0.0, 0.5133659693816004]","[-0.06211007013916969, 0.11571893841028214, 0.03999999910593033]","[0.0, 0.0, -0.29903275788321415]","[0.026750000193715096, 0.05299999937415123, 0.03999999910593033]","[0.0, 0.0, -0.5398204210720381]","[0.06375669687986374, 0.11476167291402817, 0.03999999910593033]","[0.0, -0.0, 0.2740685376080249]",0.5112993554473593,-0.4959857417329169,"(0.0, 0.0, 0.0, 0.0, 0.0, 0.0)",-1.7208598914017834,-0.8118648357593722,0.12813602150798786,"(0.0, 0.0, 0.0, 0.0, 0.0, 0.0)",-0.8408695560550826,-0.5421249438805374,-0.5531042588686722,"(0.0, 0.0, 0.0, 0.0, 0.0, 0.0)",0.5811626208223192,0.8133893755223409,-0.1198782265044804,"(0.0, 0.0, 0.0, 0.0, 0.0, 0.0)",0.45407663163117984,True,"(-0.0292774638957448, 0.18245551786366948, 0.056001948960649785)","(0.9960302599945847, 0.08899396434134782, 0.0019482006905572398)",-0.0007926550650475691,7.095759058391736,True,"(0.03268549382293727, 0.18100544499262872, 0.023998051039350213)","(-0.9960302599945847, -0.08899396434134799, -0.0019482006905662311)",-0.0003940272001752584,3.715271527215317
70,Move,"(0.0143, 0.0, 0.0024)","(0.0, 0.04689525167183564, 0.0)","(0.0038324597731198436, 0.16272962151739698, 0.047843946072095175)","(-0.006414506013460909, 0.003271347596331417, 0.08326856088453276)","[-0.00616636682560232, 0.0027018789954675326, 0.00029338705787754216]","[-0.026750000193715096, 0.05299999937415123, 0.03999999910593033]","[0.0, -0.0, 0.5112993486584753]","[-0.06198038160800934, 0.11579187959432602, 0.03999999910593033]","[0.0, 0.0, -0.3005655223800387]","[0.026750000193715096, 0.05299999937415123, 0.03999999910593033]","[0.0, 0.0, -0.5421249463347698]","[0.06389893591403961, 0.11467622220516205, 0.03999999910593033]","[0.0, -0.0, 0.2712644479363806]",0.5082147119949473,-0.7403144285788824,"(0.0, 0.0, 0.0, 0.0, 0.0, 0.0)",-2.1585369172088087,-0.8114893346009809,0.09012027801388695,"(0.0, 0.0, 0.0, 0.0, 0.0, 0.0)",-0.971000733818639,-0.5454926579119296,-0.8082513675341225,"(0.0, 0.0, 0.0, 0.0, 0.0, 0.0)",0.02108175783823104,0.8131072134229009,-0.06771890386559448,"(0.0, 0.0, 0.0, 0.0, 0.0, 0.0)",0.20202404331913942,True,"(-0.02904552403658156, 0.18247805811811046, 0.056001948960649785)","(0.9960302599945847, 0.08899396434134782, 0.0019482006905572398)",-0.0007203316588507933,10.808972092024096,True,"(0.03301360709468343, 0.18100686139532213, 0.023998051039350213)","(-0.9960302599945847, -0.08899396434134799, -0.0019482006905662311)",-0.00035036002199445744,2.5971800053165564
71,Move,"(0.0181, 0.0, 0.0054)","(0.0, 0.06476916854150959, 0.0)","(0.004263656342595537, 0.16296486537716795, 0.04793824520528639)","(-0.006010538491424183, 0.0030580512952918717, 0.07941232484674464)","[-0.005735170256126627, 0.0029371228552385054, 0.00038768619106875624]","[-0.026750000193715096, 0.05299999937415123, 0.03999999910593033]","[0.0, -0.0, 0.5082147238107428]","[-0.06178652122616768, 0.11590025573968887, 0.03999999910593033]","[0.0, 0.0, -0.3032746324432937]","[0.026750000193715096, 0.05299999937415123, 0.03999999910593033]","[0.0, 0.0, -0.5454926586065885]","[0.06410642713308334, 0.11455076932907104, 0.03999999910593033]","[0.0, -0.0, 0.26761460050774627]",0.5043385396812703,-0.9302813552824759,"(0.0, 0.0, 0.0, 0.0, 0.0, 0.0)",-1.9504846213674176,-0.8112089502933639,0.06729223382809385,"(0.0, 0.0, 0.0, 0.0, 0.0, 0.0)",-0.9243151923433595,-0.5496599682024981,-1.000154469736438,"(0.0, 0.0, 0.0, 0.0, 0.0, 0.0)",-0.0037121477750169316,0.8128747030086355,-0.05580249942371258,"(0.0, 0.0, 0.0, 0.0, 0.0, 0.0)",0.1381622117016235,True,"(-0.0286711397344451, 0.1824970987632591, 0.023996727898279283)","(0.99652984375598, 0.08317192330805881, -0.003271341761499722)",-0.00076830465925783,12.88279836054067,True,"(0.03346340771802304, 0.18099369044808727, 0.023998051039350213)","(-0.9960302599945847, -0.08899396434134799, -0.0019482006905662311)",-0.0003181450679396788,2.239329552466264
72,Move,"(0.0228, 0.0, 0.0083)","(0.0, 0.056189129938705444, 0.0)","(0.004750563745829714, 0.1631524595517791, 0.04796527655760788)","(-0.004768406875623201, 0.0017456879475688867, 0.07532346297833134)","[-0.00524826285289245, 0.0031247170298496496, 0.00041471754339024447]","[-0.026750000193715096, 0.05299999937415123, 0.03999999910593033]","[0.0, -0.0, 0.504338584890551]","[-0.06154244765639305, 0.1160355880856514, 0.03999999910593033]","[0.0, 0.0, -0.306870455505021]","[0.026750000193715096, 0.05299999937415123, 0.03999999910593033]","[0.0, 0.0, -0.5496600364890558]","[0.06436260789632797, 0.11439456045627594, 0.03999999910593033]","[0.0, -0.0, 0.2632147118492586]",0.4998083508102815,-1.0872453290373103,"(0.0, 0.0, 0.0, 0.0, 0.0, 0.0)",-1.3747890228119235,-0.8109254148819224,0.06804849874598287,"(0.0, 0.0, 0.0, 0.0, 0.0, 0.0)",-0.655443169008484,-0.5544776268529185,-1.1562380761009043,"(0.0, 0.0, 0.0, 0.0, 0.0, 0.0)",0.06117319895354355,0.8126833016884654,-0.0459363168408297,"(0.0, 0.0, 0.0, 0.0, 0.0, 0.0)",0.15108735511463478,True,"(-0.02818779001348059, 0.1825126677461656, 0.0239969411935118)","(0.9968438369518736, 0.07932851367883348, -0.003058046528981876)",-0.0007118875248678869,8.71770001761816,True,"(0.03401221635257329, 0.1809716608593388, 0.023998051039350213)","(-0.9960302599945847, -0.08899396434134799, -0.0019482006905662311)",-0.0002926638804633215,2.3234312154939634
73,Move,"(0.027100000000000003, 0.0, 0.008)","(0.0, 0.04296127953784044, 0.0)","(0.005318185436282965, 0.163301385801038, 0.047925799392955555)","(-0.002505392627486269, -0.00048053779852985846, 0.07039469014857926)","[-0.004680641162439199, 0.0032736432791085623, 0.0003752403787379219]","[-0.026750000193715096, 0.05299999937415123, 0.03999999910593033]","[0.0, -0.0, 0.49980837547313406]","[-0.0612565279006958, 0.11619255691766739, 0.03999999910593033]","[0.0, 0.0, -0.311117070304075]","[0.026750000193715096, 0.05299999937415123, 0.03999999910593033]","[0.0, 0.0, -0.5544777108198681]","[0.06465794891119003, 0.11421263962984085, 0.03999999910593033]","[0.0, -0.0, 0.25820566913956716]",0.4943734425149189,-1.3043779908870323,"(0.0, 0.0, 0.0, 0.0, 0.0, 0.0)",-1.5106160973262088,-0.8106906108184218,0.056352975240152176,"(0.0, 0.0, 0.0, 0.0, 0.0, 0.0)",-0.6814363093815017,-0.560184911446431,-1.3697483024430241,"(0.0, 0.0, 0.0, 0.0, 0.0, 0.0)",-0.08014880130751523,0.8125233519102663,-0.03838794676779908,"(0.0, 0.0, 0.0, 0.0, 0.0, 0.0)",0.11216700583836217,True,"(-0.027619876061108536, 0.1825275496498669, 0.023998253552979857)","(0.9971630095668913, 0.07525214234947128, -0.0017456870609270344)",-0.0006582508769970433,9.087771468741474,True,"(0.03464142480289538, 0.1809409354417684, 0.023998051039350213)","(-0.9960302599945847, -0.08899396434134799, -0.0019482006905662311)",-0.00026875826373169275,1.8558975785787373
74,Move,"(0.0287, 0.0, 0.009300000000000001)","(0.0, 0.05152386484812462, 0.0)","(0.006033781486364129, 0.16337166162099478, 0.04791571386866885)","(0.0008226399919614703, -0.00044822100936208994, 0.06439394705818877)","[-0.003965045112358036, 0.00334391909906534, 0.0003651548544512176]","[-0.026750000193715096, 0.05299999937415123, 0.03999999910593033]","[0.0, -0.0, 0.49437342499445874]","[-0.06091257557272911, 0.11637916415929794, 0.03999999910593033]","[0.0, 0.0, -0.3163171873127692]","[0.026750000193715096, 0.05299999937415123, 0.03999999910593033]","[0.0, 0.0, -0.5601848945587061]","[0.06500668823719025, 0.11399529129266739, 0.03999999910593033]","[0.0, -0.0, 0.2523384685284152]",0.4881335949975259,-1.4975634041743149,"(0.0, 0.0, 0.0, 0.0, 0.0, 0.0)",-2.3819322582776996,-0.8105748919778726,0.027772521731797752,"(0.0, 0.0, 0.0, 0.0, 0.0, 0.0)",-1.2056962755261849,-0.5666534826056707,-1.5524570782175218,"(0.0, 0.0, 0.0, 0.0, 0.0, 0.0)",-0.18393551014349122,0.8124349236370539,-0.021222785570945556,"(0.0, 0.0, 0.0, 0.0, 0.0, 0.0)",0.02592022573990528,True,"(-0.02693142983302004, 0.1825383450554116, 0.023998253552979857)","(0.9971630095668913, 0.07525214234947128, -0.0017456870609270344)",-0.0006069456280509331,13.62407712057039,True,"(0.03538249764548814, 0.18089399349530935, 0.023999518702260744)","(-0.9975232016294538, -0.07033655731101546, -0.0004805377800349023)",-0.00022124514859970897,0.6609403498660349
75,Move,"(0.0319, 0.0, 0.0108)","(0.0, 0.04296127953784044, 0.0)","(0.00675861793625246, 0.1633915271880652, 0.047952647931468244)","(0.0007351133222335344, 0.0011711420545749065, 0.05763676015573343)","[-0.0032402086624697046, 0.003363784666135766, 0.00040208891725061063]","[-0.026750000193715096, 0.05299999937415123, 0.03999999910593033]","[0.0, -0.0, 0.48813355443751966]","[-0.06051643565297127, 0.11659109592437744, 0.03999999910593033]","[0.0, 0.0, -0.3224413060970154]","[0.026750000193715096, 0.05299999937415123, 0.03999999910593033]","[0.0, 0.0, -0.5666535221256308]","[0.06540043652057648, 0.11374655365943909, 0.03999999910593033]","[0.0, -0.0, 0.24578146924953925]",0.4817697960346237,-1.5273117510965195,"(0.0, 0.0, 0.0, 0.0, 0.0, 0.0)",-1.7074127271918502,-0.8101552494169489,0.1007142146216832,"(0.0, 0.0, 0.0, 0.0, 0.0, 0.0)",-0.8819259695630124,-0.5732557181686742,-1.5845365351208187,"(0.0, 0.0, 0.0, 0.0, 0.0, 0.0)",0.66656960016565,0.8121981928640327,-0.05681538552508617,"(0.0, 0.0, 0.0, 0.0, 0.0, 0.0)",0.3379908981002518,True,"(-0.026130763433819572, 0.18254093482958567, 0.023998253552979857)","(0.9971630095668913, 0.07525214234947128, -0.0017456870609270344)",-0.0005543599736602052,12.83249647324904,True,"(0.036215570969541665, 0.18083750419040565, 0.023999551019046418)","(-0.9979273258713232, -0.06434944737330928, -0.0004482209943578653)",-0.00020457003592847526,0.0
76,Move,"(0.0365, 0.0, 0.0108)","(0.0, 0.008604473212332044, 0.0)","(0.007515416930652831, 0.1634224892471699, 0.047982475735850454)","(-0.0010745472774844873, 0.0010685478056817795, 0.04898045428014996)","[-0.002483409668069333, 0.003394746725240455, 0.0004319167216328204]","[-0.026750000193715096, 0.05299999937415123, 0.03999999910593033]","[0.0, -0.0, 0.4817697751688441]","[-0.06011107563972473, 0.11680468916893005, 0.03999999910593033]","[0.0, 0.0, -0.3283854240372271]","[0.026750000193715096, 0.05299999937415123, 0.03999999910593033]","[0.0, 0.0, -0.5732557022567356]","[0.06580065190792084, 0.11349005252122879, 0.03999999910593033]","[0.0, -0.0, 0.23894246474155229]",0.4747869536592772,-1.6758821700831605,"(0.0, 0.0, 0.0, 0.0, 0.0, 0.0)",-1.015141955614796,-0.8101182200213488,0.008887054944033745,"(0.0, 0.0, 0.0, 0.0, 0.0, 0.0)",-0.451179624781659,-0.5803649354687714,-1.7062121520233364,"(0.0, 0.0, 0.0, 0.0, 0.0, 0.0)",-0.12077598604097102,0.8121613376057638,-0.008845261984547569,"(0.0, 0.0, 0.0, 0.0, 0.0, 0.0)",0.017769440785448096,True,"(-0.02533397008400612, 0.18254855326361488, 0.023998828098253933)","(0.9983387770595512, 0.05760481443555406, -0.0011711417868504495)",-0.0005293152706038761,6.234734720309104,True,"(0.037075300420903054, 0.18077902659816286, 0.023999551019046418)","(-0.9979273258713232, -0.06434944737330928, -0.0004482209943578653)",-0.00014013915173638846,0.1513478405273399
77,Move,"(0.0394, 0.0, 0.0114)","(0.0, 0.004461061568097505, 0.0)","(0.008386022862283873, 0.1634215733310303, 0.048062704699602395)","(-0.0011359043153784322, 0.0008515428558891563, 0.04044785694576173)","[-0.0016128037364382918, 0.003393830809100856, 0.0005121456853847614]","[-0.026750000193715096, 0.05299999937415123, 0.03999999910593033]","[0.0, -0.0, 0.4747870242329108]","[-0.05966472625732422, 0.11703608930110931, 0.03999999910593033]","[0.0, 0.0, -0.3353312629655728]","[0.026750000193715096, 0.05299999937415123, 0.03999999910593033]","[0.0, 0.0, -0.580365004914078]","[0.06622970104217529, 0.11321090906858444, 0.03999999910593033]","[0.0, -0.0, 0.23179640600048462]",0.4668574408864764,-1.903083065472192,"(0.0, 0.0, 0.0, 0.0, 0.0, 0.0)",-2.168566876985454,-0.8099426490005863,0.04213704498300257,"(0.0, 0.0, 0.0, 0.0, 0.0, 0.0)",-1.0038196070389638,-0.5882918167221437,-1.9024515008093397,"(0.0, 0.0, 0.0, 0.0, 0.0, 0.0)",-0.20067532019955087,0.8120434601377409,-0.028290592325518116,"(0.0, 0.0, 0.0, 0.0, 0.0, 0.0)",0.02166727030577035,True,"(-0.02443173493583617, 0.18253510337957557, 0.02399893069243845)","(0.9988001271346194, 0.048960843966271435, -0.0010685476023372799)",-0.0004895780278820975,14.389664708857602,True,"(0.03798592814650753, 0.18070343436500394, 0.023999551019046418)","(-0.9979273258713232, -0.06434944737330928, -0.0004482209943578653)",-0.00012627253738952608,0.5723243304428997
78,Move,"(0.0445, 0.0, 0.0115)","(0.0, 0.01301142957361773, 0.0)","(0.009295098757310794, 0.1634194121198519, 0.048118642272785964)","(-0.0010478471810045037, 0.00022197240599757873, 0.03166998471766544)","[-0.0007037278414113706, 0.0033916695979224476, 0.0005680832585683304]","[-0.026750000193715096, 0.05299999937415123, 0.03999999910593033]","[0.0, -0.0, 0.4668575180897951]","[-0.05915592238306999, 0.11729507148265839, 0.03999999910593033]","[0.0, 0.0, -0.3430852289135319]","[0.026750000193715096, 0.05299999937415123, 0.03999999910593033]","[0.0, 0.0, -0.5882918091488046]","[0.06670574098825455, 0.11289606988430023, 0.03999999910593033]","[0.0, -0.0, 0.2237516443009683]",0.45846637007791496,-2.0138569940547493,"(0.0, 0.0, 0.0, 0.0, 0.0, 0.0)",-1.3684120845414478,-0.8096470342785621,0.07094753328581979,"(0.0, 0.0, 0.0, 0.0, 0.0, 0.0)",-0.6724093254510377,-0.5965685696629617,-1.986420705796327,"(0.0, 0.0, 0.0, 0.0, 0.0, 0.0)",0.1927755502932421,0.8118659932635095,-0.0425920498155407,"(0.0, 0.0, 0.0, 0.0, 0.0, 0.0)",0.14910595797242196,True,"(-0.02341608719577129, 0.1825181463619337, 0.0239991476972878)","(0.9991817346867493, 0.040436814208322625, -0.0008515427529839494)",-0.00045360832458020477,7.315151274230831,True,"(0.039005836681144476, 0.180613622964175, 0.023999551019046418)","(-0.9979273258713232, -0.06434944737330928, -0.0004482209943578653)",-0.00011466723044592385,2.422997433029149
79,Move,"(0.048600000000000004, 0.0, 0.009800000000000001)","(0.0, 0.05170537909033201, 0.0)","(0.010322813040538913, 0.1633827673978019, 0.04811021162148041)","(0.0007623688086140416, -0.0005586902157755269, 0.023354504654250628)","[0.0003239864418167482, 0.003355024875872442, 0.0005596526072627755]","[-0.026750000193715096, 0.05299999937415123, 0.03999999910593033]","[0.0, -0.0, 0.4584663199423212]","[-0.05861528217792511, 0.11756472289562225, 0.03999999910593033]","[0.0, 0.0, -0.3511806341215453]","[0.026750000193715096, 0.05299999937415123, 0.03999999910593033]","[0.0, 0.0, -0.5965686158810805]","[0.06720010936260223, 0.11256331950426102, 0.03999999910593033]","[0.0, -0.0, 0.21529742400815616]",0.4490831692244394,-2.251968204834133,"(0.0, 0.0, 0.0, 0.0, 0.0, 0.0)",-2.3912216241578523,-0.8090445921760999,0.14458610459091636,"(0.0, 0.0, 0.0, 0.0, 0.0, 0.0)",-1.1617639405252975,-0.6056283677241767,-2.174351534691598,"(0.0, 0.0, 0.0, 0.0, 0.0, 0.0)",0.3970431187365212,0.8115094280207504,-0.08557565826217792,"(0.0, 0.0, 0.0, 0.0, 0.0, 0.0)",0.307597119899477,True,"(-0.022348592358082058, 0.18249565367019516, 0.023999777267636604)","(0.9994985233251021, 0.031664690100991995, -0.00022197240417713254)",-0.0004185745528878255,11.443085380167021,True,"(0.04007368958750318, 0.18051262966329523, 0.023999551019046418)","(-0.9979273258713232, -0.06434944737330928, -0.0004482209943578653)",-0.00010543785362389546,5.212146324662704
80,Move,"(0.0514, 0.0, 0.009800000000000001)","(0.0, 0.05170537909033201, 0.0)","(0.011412132801012432, 0.16330517865181715, 0.048179113880812106)","(0.0007163687661588916, -0.0005081529391291667, 0.013769098177926622)","[0.0014133062022902675, 0.0032774361298877064, 0.0006285548665944732]","[-0.026750000193715096, 0.05299999937415123, 0.03999999910593033]","[0.0, -0.0, 0.44908322385983906]","[-0.058008063584566116, 0.11786087602376938, 0.03999999910593033]","[0.0, 0.0, -0.3599614684803345]","[0.026750000193715096, 0.05299999937415123, 0.03999999910593033]","[0.0, 0.0, -0.6056284539767675]","[0.06773807108402252, 0.11219440400600433, 0.03999999910593033]","[0.0, -0.0, 0.20588108929454615]",0.43903047747597373,-2.412646019631761,"(0.0, 0.0, 0.0, 0.0, 0.0, 0.0)",-2.8386498979500376,-0.8082707562481652,0.18572062270431125,"(0.0, 0.0, 0.0, 0.0, 0.0, 0.0)",-1.3863602083786422,-0.6151489777546417,-2.284946407311601,"(0.0, 0.0, 0.0, 0.0, 0.0, 0.0)",0.8418188747075014,0.8109598438127817,-0.1319002099124733,"(0.0, 0.0, 0.0, 0.0, 0.0, 0.0)",0.4537339380991166,True,"(-0.02117263730410255, 0.1824708572746841, 0.023999777267636604)","(0.9994985233251021, 0.031664690100991995, -0.00022197240417713254)",-0.00037997108383171295,18.620884857646843,True,"(0.041252655148062436, 0.18039727514082454, 0.023999440549854065)","(-0.9997271399268474, -0.023352378015119992, -0.0005586901867107353)",-0.0001317387419363187,7.991407477147205
81,Move,"(0.0535, 0.0, 0.0103)","(0.0, 0.047453757032473835, 0.0)","(0.012545667215421313, 0.16320674505963984, 0.04819094869610753)","(-0.0009344296903812875, -0.0003479488835303139, 0.003944566673898565)","[0.002546840616699148, 0.0031790025377103903, 0.0006403896818898969]","[-0.026750000193715096, 0.05299999937415123, 0.03999999910593033]","[0.0, -0.0, 0.4390305243699836]","[-0.05735446885228157, 0.1181718185544014, 0.03999999910593033]","[0.0, 0.0, -0.3692402768193433]","[0.026750000193715096, 0.05299999937415123, 0.03999999910593033]","[0.0, 0.0, -0.6151489720764224]","[0.0682997778058052, 0.11180149763822556, 0.03999999910593033]","[0.0, -0.0, 0.19581089147508288]",0.4285468815032595,-2.516063033451428,"(0.0, 0.0, 0.0, 0.0, 0.0, 0.0)",-2.4776100607777263,-0.8073413284657062,0.22306266779018935,"(0.0, 0.0, 0.0, 0.0, 0.0, 0.0)",-1.283253157120669,-0.6249227188150255,-2.3456978544921134,"(0.0, 0.0, 0.0, 0.0, 0.0, 0.0)",1.5485855578480012,0.8103240496145001,-0.15259060758759999,"(0.0, 0.0, 0.0, 0.0, 0.0, 0.0)",0.7550475967646778,True,"(-0.019921130091852528, 0.18243723532555622, 0.023999777267636604)","(0.9994985233251021, 0.031664690100991995, -0.00022197240417713254)",-0.000348006817470143,16.989828702955517,True,"(0.042502509860624704, 0.18026713274145875, 0.02399949108712351)","(-0.9999050783678619, -0.013768661328271465, -0.0005081529172659963)",-0.00012831773010120004,11.098116700262604
82,Move,"(0.056100000000000004, 0.0, 0.008400000000000001)","(0.0, 0.07341029366813348, 0.0)","(0.013721778194505133, 0.16308738719598156, 0.04823446014884057)","(-0.0009211668388926105, 0.0002838713234005202, -0.00455923879977085)","[0.0037229515957829685, 0.00305964467405212, 0.0006839011346229384]","[-0.026750000193715096, 0.05299999937415123, 0.03999999910593033]","[0.0, -0.0, 0.42854692745726003]","[-0.05666956678032875, 0.11848907917737961, 0.03999999910593033]","[0.0, 0.0, -0.3787944515487357]","[0.026750000193715096, 0.05299999937415123, 0.03999999910593033]","[0.0, 0.0, -0.6249227522974058]","[0.06887248903512955, 0.11139260232448578, 0.03999999910593033]","[0.0, -0.0, 0.18540132344942917]",0.41778284652821124,-2.583368394011578,"(0.0, 0.0, 0.0, 0.0, 0.0, 0.0)",-3.58633404900556,-0.8061686508470878,0.2814426284684118,"(0.0, 0.0, 0.0, 0.0, 0.0, 0.0)",-1.8775723238000244,-0.6348141277158416,-2.3739381361958714,"(0.0, 0.0, 0.0, 0.0, 0.0, 0.0)",1.91659323098308,0.8095371209099216,-0.1888628890988396,"(0.0, 0.0, 0.0, 0.0, 0.0, 0.0)",0.9127238769556286,True,"(-0.018623941025514297, 0.18239392089597406, 0.023999777267636604)","(0.9994985233251021, 0.031664690100991995, -0.00022197240417713254)",-0.00031369942001957995,26.282381730584248,True,"(0.0437893090977707, 0.1801224722610599, 0.023999651291164263)","(-0.999992159673224, -0.0039445562058065065, -0.0003479488765110037)",-0.00013529547190215243,10.047474249071497
83,Move,"(0.0588, 0.0, 0.006900000000000001)","(0.0, 0.08614596121993615, 0.0)","(0.014953748916113476, 0.16294320470877766, 0.048237722899228105)","(0.0009233367374824151, 0.00030281283956975016, -0.011356040564043013)","[0.004954922317391312, 0.002915462186848211, 0.0006871638850104722]","[-0.026750000193715096, 0.05299999937415123, 0.03999999910593033]","[0.0, -0.0, 0.41778288701458954]","[-0.05596292018890381, 0.1188073381781578, 0.03999999910593033]","[0.0, 0.0, -0.3883858144082245]","[0.026750000193715096, 0.05299999937415123, 0.03999999910593033]","[0.0, 0.0, -0.6348141372073632]","[0.06944800913333893, 0.11097309738397598, 0.03999999910593033]","[0.0, -0.0, 0.17472299294837634]",0.40662641182327525,-2.6775443291846415,"(0.0, 0.0, 0.0, 0.0, 0.0, 0.0)",-4.122791407372514,-0.8045183813041845,0.39606469029677904,"(0.0, 0.0, 0.0, 0.0, 0.0, 0.0)",-2.241359951026699,-0.6448590064479024,-2.4107708956946055,"(0.0, 0.0, 0.0, 0.0, 0.0, 0.0)",2.347614489714524,0.8084731687967484,-0.2553485071615666,"(0.0, 0.0, 0.0, 0.0, 0.0, 0.0)",1.1092229269042704,True,"(-0.01730611489613034, 0.18234530894161782, 0.0239997153687212)","(0.9999895663977418, -0.00455922282086544, -0.0002838713195837948)",-0.0003285091305796654,28.996058711089827,True,"(0.04510016104479166, 0.1799668948356981, 0.023999651291164263)","(-0.999992159673224, -0.0039445562058065065, -0.0003479488765110037)",-0.00012707948668871406,18.004999291555478
84,Move,"(0.0599, 0.0, 0.0064)","(0.0, 0.08164301174979079, 0.0)","(0.016194168129773777, 0.16280991056603555, 0.04826664674795216)","(1.661281277958032e-05, 9.03364308809264e-05, -0.02016664663882451)","[0.0061953415310516124, 0.002782168044106109, 0.0007160877337345287]","[-0.026750000193715096, 0.05299999937415123, 0.03999999910593033]","[0.0, -0.0, 0.40662641788267817]","[-0.05522694066166878, 0.11912914365530014, 0.03999999910593033]","[0.0, 0.0, -0.3978920177486856]","[0.026750000193715096, 0.05299999937415123, 0.03999999910593033]","[0.0, 0.0, -0.6448590405592453]","[0.07002817839384079, 0.11054128408432007, 0.03999999910593033]","[0.0, -0.0, 0.16361416206815332]",0.39503355102937054,-2.7822865905371232,"(0.0, 0.0, 0.0, 0.0, 0.0, 0.0)",-4.365628481238977,-0.8026943721178128,0.43776220472922117,"(0.0, 0.0, 0.0, 0.0, 0.0, 0.0)",-2.401364729559353,-0.6550835404223395,-2.453888153864901,"(0.0, 0.0, 0.0, 0.0, 0.0, 0.0)",3.044924138962122,0.8071807598084765,-0.3101781571852395,"(0.0, 0.0, 0.0, 0.0, 0.0, 0.0)",1.433328100326051,True,"(-0.01596785573194978, 0.18229948472041535, 0.02399969642720584)","(0.999935475019441, -0.011355795966462714, -0.0003028128349429311)",-0.0003049242827473079,28.979926212286998,True,"(0.04644825687771871, 0.17980129449311266, 0.023999651291164263)","(-0.999992159673224, -0.0039445562058065065, -0.0003479488765110037)",-0.00012287053303361534,24.43858814118375
85,Move,"(0.0606, 0.0, 0.0060999999999999995)","(0.0, 0.0730751904517506, 0.0)","(0.017428013545068025, 0.16268276276537674, 0.04827804255193386)","(-0.001409930056842889, -3.328795424450254e-05, -0.028779544072343958)","[0.00742918694634586, 0.002655020243447298, 0.0007274835377162267]","[-0.026750000193715096, 0.05299999937415123, 0.03999999910593033]","[0.0, -0.0, 0.3950335877522824]","[-0.05445842072367668, 0.11945482343435287, 0.03999999910593033]","[0.0, 0.0, -0.40766080689507944]","[0.026750000193715096, 0.05299999937415123, 0.03999999910593033]","[0.0, 0.0, -0.6550835331661764]","[0.07061423361301422, 0.1100957840681076, 0.03999999910593033]","[0.0, -0.0, 0.1520972192346618]",0.38341994964231074,-2.78726433289435,"(0.0, 0.0, 0.0, 0.0, 0.0, 0.0)",-4.183236020372021,-0.8007613211208454,0.4639322392721706,"(0.0, 0.0, 0.0, 0.0, 0.0, 0.0)",-2.3651736697699484,-0.6651888335055846,-2.4252703399788205,"(0.0, 0.0, 0.0, 0.0, 0.0, 0.0)",3.6162752618634872,0.805767232580553,-0.339246534701619,"(0.0, 0.0, 0.0, 0.0, 0.0, 0.0)",1.6634127196231803,True,"(-0.014584094939465296, 0.18223959669408957, 0.023999908903610024)","(0.9997966559937281, -0.02016527964319488, -9.033643076019152e-05)",-0.0002753827182550487,30.57503379437858,True,"(0.04783352704317559, 0.17962276464058002, 0.023999651291164263)","(-0.999992159673224, -0.0039445562058065065, -0.0003479488765110037)",-0.0001256728080123748,26.745663567715397
86,Move,"(0.060200000000000004, 0.0, 0.004)","(0.0, 0.08614596121993615, 0.0)","(0.018650857073842737, 0.16254242131440078, 0.048330801800794965)","(-0.0014765435272089652, 9.020315519206458e-05, -0.03681639923204666)","[0.008652030475120573, 0.002514678792471331, 0.0007802427865773315]","[-0.026750000193715096, 0.05299999937415123, 0.03999999910593033]","[0.0, -0.0, 0.3834199518195116]","[-0.053684789687395096, 0.11977212876081467, 0.03999999910593033]","[0.0, 0.0, -0.4173413947651925]","[0.026750000193715096, 0.05299999937415123, 0.03999999910593033]","[0.0, 0.0, -0.6651888205513703]","[0.07118895649909973, 0.10964962095022202, 0.03999999910593033]","[0.0, -0.0, 0.14057839061121985]",0.3718548281474231,-2.775629158773034,"(0.0, 0.0, 0.0, 0.0, 0.0, 0.0)",-5.29266300327955,-0.7985498499207706,0.5307530880179642,"(0.0, 0.0, 0.0, 0.0, 0.0, 0.0)",-2.9189877603553236,-0.6751256795155095,-2.3848430423819877,"(0.0, 0.0, 0.0, 0.0, 0.0, 0.0)",3.6836914810294155,0.8042678826950052,-0.3598439725315002,"(0.0, 0.0, 0.0, 0.0, 0.0, 0.0)",1.7204018061191122,True,"(-0.013204550573331461, 0.18216796124502932, 0.023999908903610024)","(0.9997966559937281, -0.02016527964319488, -9.033643076019152e-05)",-0.00025409789961749064,37.9382561465877,True,"(0.04921060960786974, 0.17943438463382427, 0.023999651291164263)","(-0.999992159673224, -0.0039445562058065065, -0.0003479488765110037)",-0.00012161237009219639,24.23480619052025
87,Move,"(0.06470000000000001, 0.0, 0.001)","(0.0, 0.11190003966236446, 0.0)","(0.01988762127863814, 0.16235567450028637, 0.04832188040181029)","(1.4185262130856982e-05, -0.0002992216325395042, -0.04111124562652528)","[0.009888794679915977, 0.0023279319783569286, 0.0007713213875926578]","[-0.026750000193715096, 0.05299999937415123, 0.03999999910593033]","[0.0, -0.0, 0.3718548330838172]","[-0.05291077494621277, 0.1200791597366333, 0.03999999910593033]","[0.0, 0.0, -0.426695048939305]","[0.026750000193715096, 0.05299999937415123, 0.03999999910593033]","[0.0, 0.0, -0.6751256642988814]","[0.07174967229366302, 0.10920524597167969, 0.03999999910593033]","[0.0, -0.0, 0.129142201444181]",0.3605962877940048,-2.702049684820381,"(0.0, 0.0, 0.0, 0.0, 0.0, 0.0)",-5.3123427442441145,-0.7961429302941377,0.5776607103918866,"(0.0, 0.0, 0.0, 0.0, 0.0, 0.0)",-3.0428531113192565,-0.6846511748864929,-2.2861188890360116,"(0.0, 0.0, 0.0, 0.0, 0.0, 0.0)",4.135836192788103,0.8026641009747381,-0.3849076128641118,"(0.0, 0.0, 0.0, 0.0, 0.0, 0.0)",1.9304281603090179,True,"(-0.011848598651132386, 0.18209601374470288, 0.023999909036885713)","(0.9993223488563394, -0.03680808253141861, -9.02031550732067e-05)",-0.00024067684125482784,36.99103791559631,True,"(0.05057081700763802, 0.1792367918337748, 0.023999651291164263)","(-0.999992159673224, -0.0039445562058065065, -0.0003479488765110037)",-0.00010693135220228711,30.035815041259866
88,Move,"(0.0683, 0.0, 0.0011)","(0.0, 0.11190003966236446, 0.0)","(0.02116223506652789, 0.16217667060101393, 0.048370282178617836)","(-3.128839118680597e-05, -0.0002716552209004723, -0.04863126022583543)","[0.011163408467805724, 0.0021489280790844834, 0.0008197231644002032]","[-0.026750000193715096, 0.05299999937415123, 0.03999999910593033]","[0.0, -0.0, 0.36059631870723297]","[-0.052153922617435455, 0.12036943435668945, 0.03999999910593033]","[0.0, 0.0, -0.43554671909174825]","[0.026750000193715096, 0.05299999937415123, 0.03999999910593033]","[0.0, 0.0, -0.6846512235685163]","[0.07228300720453262, 0.10877405852079391, 0.03999999910593033]","[0.0, -0.0, 0.11801292136400883]",0.34839660765911096,-2.927923232374527,"(0.0, 0.0, 0.0, 0.0, 0.0, 0.0)",-7.306422436844238,-0.7932994030076184,0.6824465487646407,"(0.0, 0.0, 0.0, 0.0, 0.0, 0.0)",-3.8423468186713823,-0.6946893419665198,-2.4091600992064675,"(0.0, 0.0, 0.0, 0.0, 0.0, 0.0)",4.3511638562312225,0.8007181773037059,-0.46702168104772507,"(0.0, 0.0, 0.0, 0.0, 0.0, 0.0)",2.1013817964164936,True,"(-0.010544409316030103, 0.18202039681503085, 0.023999909036885713)","(0.9993223488563394, -0.03680808253141861, -9.02031550732067e-05)",-0.00021495057475263534,48.92992559821154,True,"(0.05188367925236472, 0.17901466609871397, 0.02399970001841271)","(-0.9991550070289574, 0.04109966417601212, -0.0002992216280652364)",-0.00015993524882558011,35.90828293653126
89,Move,"(0.0678, 0.0, 0.0021000000000000003)","(0.0, 0.1033252370473163, 0.0)","(0.022503650308872955, 0.1620014479411349, 0.04840230569512524)","(-0.00013456019358995362, 0.00014677983873909593, -0.05538059360816786)","[0.01250482371015079, 0.001973705419205468, 0.0008517466809076085]","[-0.026750000193715096, 0.05299999937415123, 0.03999999910593033]","[0.0, -0.0, 0.3483965738122803]","[-0.051330164074897766, 0.12067433446645737, 0.03999999910593033]","[0.0, 0.0, -0.4449027820132131]","[0.026750000193715096, 0.05299999937415123, 0.03999999910593033]","[0.0, 0.0, -0.6946893379309884]","[0.07284057140350342, 0.10831418633460999, 0.03999999910593033]","[0.0, -0.0, 0.10602882788851536]",0.33560530429741187,-3.0699128068077854,"(0.0, 0.0, 0.0, 0.0, 0.0, 0.0)",-7.9199743694545095,-0.7901600279376441,0.7534500167938276,"(0.0, 0.0, 0.0, 0.0, 0.0, 0.0)",-4.197409551190399,-0.7050227739620833,-2.480023678935262,"(0.0, 0.0, 0.0, 0.0, 0.0, 0.0)",5.265351249509094,0.7985694219016393,-0.5157012964959964,"(0.0, 0.0, 0.0, 0.0, 0.0, 0.0)",2.488592935937281,True,"(-0.009145667485811165, 0.18193329788886997, 0.023999909036885713)","(0.9993223488563394, -0.03680808253141861, -9.02031550732067e-05)",-0.00019562604098748835,56.830192059916904,True,"(0.05328423266806061, 0.1787897552122144, 0.02399972758482322)","(-0.998817696442334, 0.048612091881266015, -0.000271655217556742)",-0.0001671976302163089,38.91805968854166
90,Move,"(0.0684, 0.0, 0.0012)","(0.0, 0.11190003966236446, 0.0)","(0.023858669076889737, 0.16178372800230664, 0.048385019815339006)","(0.0013497520067272208, -6.827343023870767e-05, -0.057944659944578515)","[0.013859842478167572, 0.001755985480377198, 0.0008344608011213728]","[-0.026750000193715096, 0.05299999937415123, 0.03999999910593033]","[0.0, -0.0, 0.3356052916973314]","[-0.05046253651380539, 0.12098319828510284, 0.03999999910593033]","[0.0, 0.0, -0.4545547809040433]","[0.026750000193715096, 0.05299999937415123, 0.03999999910593033]","[0.0, 0.0, -0.705022795597741]","[0.07340968400239944, 0.10783497244119644, 0.03999999910593033]","[0.0, -0.0, 0.09354665870304785]",0.3232396827506348,-2.9677491712264987,"(0.0, 0.0, 0.0, 0.0, 0.0, 0.0)",-7.541812052166192,-0.7869890782705538,0.761027920101677,"(0.0, 0.0, 0.0, 0.0, 0.0, 0.0)",-4.2159189755230635,-0.7148994402858361,-2.370399917700654,"(0.0, 0.0, 0.0, 0.0, 0.0, 0.0)",5.745796523506818,0.796286985471748,-0.5477847431738853,"(0.0, 0.0, 0.0, 0.0, 0.0, 0.0)",2.7402337627188307,True,"(-0.007688186647240976, 0.18184143528458868, 0.023999852460202576)","(0.998466876069726, -0.05535228854565576, -0.00014677983820494416)",-0.00019684405142751053,52.49152434346714,True,"(0.05473453700889934, 0.17854914610145384, 0.02399972758482322)","(-0.998817696442334, 0.048612091881266015, -0.000271655217556742)",-0.00016686282174581225,44.608480284253105
91,Move,"(0.0689, 0.0, 0.0008)","(0.0, 0.12046437030190062, 0.0)","(0.025200210635850134, 0.16159233493987332, 0.048398189161421856)","(0.0003338771249824216, 0.00012422367538280545, -0.06128780254009393)","[0.01520138403712797, 0.0015645924179438775, 0.000847630147204223]","[-0.026750000193715096, 0.05299999937415123, 0.03999999910593033]","[0.0, -0.0, 0.3232396705002489]","[-0.04962008818984032, 0.12127121537923813, 0.03999999910593033]","[0.0, 0.0, -0.46374942041316625]","[0.026750000193715096, 0.05299999937415123, 0.03999999910593033]","[0.0, 0.0, -0.7148994263168975]","[0.07394898682832718, 0.10737145692110062, 0.03999999910593033]","[0.0, -0.0, 0.08138755214438771]",0.3109059267429446,-2.9601014418456506,"(0.0, 0.0, 0.0, 0.0, 0.0, 0.0)",-7.697174199383105,-0.7837696431860169,0.7726644202888232,"(0.0, 0.0, 0.0, 0.0, 0.0, 0.0)",-4.249487823750021,-0.7245711270276715,-2.321204818040495,"(0.0, 0.0, 0.0, 0.0, 0.0, 0.0)",6.644342736695366,0.7938340629853365,-0.5887013967387519,"(0.0, 0.0, 0.0, 0.0, 0.0, 0.0)",3.0844194818600252,True,"(-0.0062879851229482725, 0.18173358742798035, 0.023999852460202576)","(0.998466876069726, -0.05535228854565576, -0.00014677983820494416)",-0.0001839254441941099,55.8758455675289,True,"(0.05613401442119792, 0.17829218236587482, 0.023999930966610586)","(-0.9983216755363221, 0.05791223957929029, -6.827343019004353e-05)",-0.00017352967104887783,46.809883514992606
92,Move,"(0.0695, 0.0, 0.0002)","(0.0, 0.1251278900632295, 0.0)","(0.026545011026742876, 0.1614306810701601, 0.0484161357350293)","(-0.0005887304217805754, 0.00010468581169336807, -0.06328128547773182)","[0.01654618442802071, 0.0014029385482306478, 0.0008655767208116671]","[-0.026750000193715096, 0.05299999937415123, 0.03999999910593033]","[0.0, -0.0, 0.31090592344875156]","[-0.048776328563690186, 0.12154809385538101, 0.03999999910593033]","[0.0, 0.0, -0.4728636735579504]","[0.026750000193715096, 0.05299999937415123, 0.03999999910593033]","[0.0, 0.0, -0.7245711983514005]","[0.07447263598442078, 0.10691242665052414, 0.03999999910593033]","[0.0, -0.0, 0.06926293857905218]",0.2986953451855511,-2.9305395737744426,"(0.0, 0.0, 0.0, 0.0, 0.0, 0.0)",-7.7289952555072965,-0.7804711997265233,0.7916264302784564,"(0.0, 0.0, 0.0, 0.0, 0.0, 0.0)",-4.272288515878016,-0.7339971695770844,-2.2622502118590893,"(0.0, 0.0, 0.0, 0.0, 0.0, 0.0)",6.833446492644249,0.7912915533796758,-0.6102023053585671,"(0.0, 0.0, 0.0, 0.0, 0.0, 0.0)",3.1876952270718104,True,"(-0.0048941240892179175, 0.1816253866047745, 0.023999875016365715)","(0.9981224827299838, -0.061249441119178606, -0.000124223675068874)",-0.00017518563381364776,54.16452328286512,True,"(0.05751883685255711, 0.1780439341517474, 0.023999930966610586)","(-0.9983216755363221, 0.05791223957929029, -6.827343019004353e-05)",-0.0001834187406852414,52.270435489420336
