OSUrobotics/InHand-Manipulation/AnalyseData/Data/Trial Data/Tries/new_hand_human_sub1_2v2_a_n_1_kpNone_kdNone_dp1_step1_save_data.csv
,Phase,human_cube_pos,human_cube_orn,Cube_Pos,Cube_Orn,Cube_pos_in_start_pos,b'l_prox_pin'_link_pos,b'l_prox_pin'_link_orn,b'l_distal_pin'_link_pos,b'l_distal_pin'_link_orn,b'r_prox_pin'_link_pos,b'r_prox_pin'_link_orn,b'r_distal_pin'_link_pos,b'r_distal_pin'_link_orn,b'l_prox_pin'_joint_angle,b'l_prox_pin'_joint_vel,b'l_prox_pin'_joint_react_forces,b'l_prox_pin'_joint_motor_torque,b'l_distal_pin'_joint_angle,b'l_distal_pin'_joint_vel,b'l_distal_pin'_joint_react_forces,b'l_distal_pin'_joint_motor_torque,b'r_prox_pin'_joint_angle,b'r_prox_pin'_joint_vel,b'r_prox_pin'_joint_react_forces,b'r_prox_pin'_joint_motor_torque,b'r_distal_pin'_joint_angle,b'r_distal_pin'_joint_vel,b'r_distal_pin'_joint_react_forces,b'r_distal_pin'_joint_motor_torque,in_contact_l,contact_point_l_dist,contact_normal_l_dist,contact_distance_l_dist,contact_norm_force_l_dist,in_contact_r,contact_point_r_dist,contact_normal_r_dist,contact_distance_r_dist,contact_norm_force_r_dist
0,Open,,,,,,"[-0.026750000193715096, 0.05299999937415123, 0.03999999910593033]","[0.0, -0.0, 0.0]","[-0.026750000193715096, 0.125, 0.03999999910593033]","[0.0, -0.0, 0.0]","[0.026750000193715096, 0.05299999937415123, 0.03999999910593033]","[0.0, -0.0, 0.0]","[0.026750000193715096, 0.125, 0.03999999910593033]","[0.0, -0.0, 0.0]",0.0,0.0,"(0.0, 0.0, 0.0, 0.0, 0.0, 0.0)",1.3400621000080305e-17,5.883223478113402e-32,1.4119736347472167e-29,"(0.0, 0.0, 0.0, 0.0, 0.0, 0.0)",1.0542555313129702e-18,-0.008068665190486622,-1.9364796457167894,"(0.0, 0.0, 0.0, 0.0, 0.0, 0.0)",193.26378306879909,-0.0700246186727924,-16.805908481470176,"(0.0, 0.0, 0.0, 0.0, 0.0, 0.0)",71.94009191575694,False,,,,,False,,,,
1,Open,,,,,,"[-0.026750000193715096, 0.05299999937415123, 0.03999999910593033]","[0.0, -0.0, 0.0]","[-0.026750000193715096, 0.125, 0.03999999910593033]","[0.0, -0.0, 5.883223447970011e-32]","[0.026750000193715096, 0.05299999937415123, 0.03999999910593033]","[0.0, 0.0, -0.008068665592501188]","[0.02733093686401844, 0.12499765306711197, 0.03999999910593033]","[0.0, 0.0, -0.0780932845685428]",0.157,37.68,"(0.0, 0.0, 0.0, 0.0, 0.0, 0.0)",54.702693795169004,5.294901130302062e-32,-1.4119736347472162e-30,"(0.0, 0.0, 0.0, 0.0, 0.0, 0.0)",3.9113724975844915,-0.1670280316324969,-38.150247946082466,"(0.0, 0.0, 0.0, 0.0, 0.0, 0.0)",-25.93345404555236,-0.0659493391739072,0.9780670797324476,"(0.0, 0.0, 0.0, 0.0, 0.0, 0.0)",-6.754749483880455,False,,,,,False,,,,
2,Open,,,,,,"[-0.026750000193715096, 0.05299999937415123, 0.03999999910593033]","[0.0, -0.0, 0.1569999988554567]","[-0.03800761699676514, 0.12411445379257202, 0.03999999910593033]","[0.0, -0.0, 0.1569999988554567]","[0.026750000193715096, 0.05299999937415123, 0.03999999910593033]","[0.0, 0.0, -0.16702801712980753]","[0.038720179349184036, 0.1239979937672615, 0.03999999910593033]","[0.0, 0.0, -0.23297739431320727]",0.29829999999999995,33.91199999999999,"(0.0, 0.0, 0.0, 0.0, 0.0, 0.0)",-5.390828189440958,5.294901130302062e-32,0.0,"(0.0, 0.0, 0.0, 0.0, 0.0, 0.0)",-0.3659219356209609,-0.3122944613104081,-34.863943122698686,"(0.0, 0.0, 0.0, 0.0, 0.0, 0.0)",95.8006544774165,-0.06705867534034729,-0.2662406799456205,"(0.0, 0.0, 0.0, 0.0, 0.0, 0.0)",9.049911776264722,False,,,,,False,,,,
3,Open,,,,,,"[-0.026750000193715096, 0.05299999937415123, 0.03999999910593033]","[0.0, -0.0, 0.29830000998707634]","[-0.04791048914194107, 0.12182030081748962, 0.03999999910593033]","[0.0, -0.0, 0.29830000998707634]","[0.026750000193715096, 0.05299999937415123, 0.03999999910593033]","[0.0, 0.0, -0.3122944642903269]","[0.048871491104364395, 0.12151744216680527, 0.03999999910593033]","[0.0, 0.0, -0.3793531994353912]",0.42546999999999996,30.5208,"(0.0, 0.0, 0.0, 0.0, 0.0, 0.0)",-4.858074537215091,5.294901130302062e-32,0.0,"(0.0, 0.0, 0.0, 0.0, 0.0, 0.0)",-0.33154044974508506,-0.44292449566296654,-31.35120824461403,"(0.0, 0.0, 0.0, 0.0, 0.0, 0.0)",100.88457241511576,-0.08373770380977785,-4.0029668326633345,"(0.0, 0.0, 0.0, 0.0, 0.0, 0.0)",24.077304806401806,False,,,,,False,,,,
4,Open,,,,,,"[-0.026750000193715096, 0.05299999937415123, 0.03999999910593033]","[0.0, -0.0, 0.4254700097131474]","[-0.056467924267053604, 0.11858082562685013, 0.03999999910593033]","[0.0, -0.0, 0.4254700097131474]","[0.026750000193715096, 0.05299999937415123, 0.03999999910593033]","[0.0, 0.0, -0.4429245237535421]","[0.057608019560575485, 0.1180521547794342, 0.03999999910593033]","[0.0, 0.0, -0.5266622746639338]",0.5399229999999999,27.46872,"(0.0, 0.0, 0.0, 0.0, 0.0, 0.0)",-4.377393708535371,5.294901130302062e-32,0.0,"(0.0, 0.0, 0.0, 0.0, 0.0, 0.0)",-0.30017707799641646,-0.5623038734984663,-28.651050680519948,"(0.0, 0.0, 0.0, 0.0, 0.0, 0.0)",144.45470973647488,-0.10456727132876567,-4.999096204557077,"(0.0, 0.0, 0.0, 0.0, 0.0, 0.0)",33.97911746732963,False,,,,,False,,,,
5,Open,,,,,,"[-0.026750000193715096, 0.05299999937415123, 0.03999999910593033]","[0.0, -0.0, 0.5399230359738098]","[-0.06376303732395172, 0.11475787311792374, 0.03999999910593033]","[0.0, -0.0, 0.5399230359738098]","[0.026750000193715096, 0.05299999937415123, 0.03999999910593033]","[0.0, 0.0, -0.5623038790270362]","[0.06513584405183792, 0.11391409486532211, 0.03999999910593033]","[0.0, 0.0, -0.6668711870723439]",0.6429307,24.721848,"(0.0, 0.0, 0.0, 0.0, 0.0, 0.0)",-3.943806903965684,5.294901130302062e-32,0.0,"(0.0, 0.0, 0.0, 0.0, 0.0, 0.0)",-0.2716098155097054,-0.6673401099248648,-25.208696742335626,"(0.0, 0.0, 0.0, 0.0, 0.0, 0.0)",94.97739775913854,-0.11755295807544866,-3.116564819203918,"(0.0, 0.0, 0.0, 0.0, 0.0, 0.0)",25.79194570087013,False,,,,,False,,,,
6,Open,,,,,,"[-0.026750000193715096, 0.05299999937415123, 0.03999999910593033]","[0.0, -0.0, 0.6429307111289271]","[-0.06991713494062424, 0.11062463372945786, 0.03999999910593033]","[0.0, -0.0, 0.6429307111289271]","[0.026750000193715096, 0.05299999937415123, 0.03999999910593033]","[0.0, 0.0, -0.6673401753977319]","[0.07131072133779526, 0.10955388844013214, 0.03999999910593033]","[0.0, 0.0, -0.7848931559948581]",0.73563763,22.249663200000004,"(0.0, 0.0, 0.0, 0.0, 0.0, 0.0)",-3.552789792259023,5.294901130302062e-32,0.0,"(0.0, 0.0, 0.0, 0.0, 0.0, 0.0)",-0.24562369466220793,-0.7579917869736262,-21.756402491702737,"(0.0, 0.0, 0.0, 0.0, 0.0, 0.0)",34.46450837185191,-0.10794166402774508,2.3067105714488583,"(0.0, 0.0, 0.0, 0.0, 0.0, 0.0)",8.765009015475858,False,,,,,False,,,,
7,Open,,,,,,"[-0.026750000193715096, 0.05299999937415123, 0.03999999910593033]","[0.0, -0.0, 0.7356376306875043]","[-0.07506632059812546, 0.10638101398944855, 0.03999999910593033]","[0.0, -0.0, 0.7356376306875043]","[0.026750000193715096, 0.05299999937415123, 0.03999999910593033]","[0.0, 0.0, -0.757991847340814]","[0.076247438788414, 0.10528770089149475, 0.03999999910593033]","[0.0, 0.0, -0.8659334873334429]",0.8190738670000001,20.024696880000004,"(0.0, 0.0, 0.0, 0.0, 0.0, 0.0)",-3.2002295086701533,2.3293280891773424e-07,5.5903874140256216e-05,"(0.0, 0.0, 0.0, 0.0, 0.0, 0.0)",-0.22200715926400075,-0.8391926082762636,-19.488197112632974,"(0.0, 0.0, 0.0, 0.0, 0.0, 0.0)",3.295349739497939,-0.09714776835574307,2.590534961280482,"(0.0, 0.0, 0.0, 0.0, 0.0, 0.0)",0.25803221970863044,False,,,,,False,,,,
8,Open,,,,,,"[-0.026750000193715096, 0.05299999937415123, 0.03999999910593033]","[0.0, -0.0, 0.8190738875671263]","[-0.07934698462486267, 0.10216865688562393, 0.03999999910593033]","[0.0, -0.0, 0.8190741465287105]","[0.026750000193715096, 0.05299999937415123, 0.03999999910593033]","[0.0, 0.0, -0.839192558822362]","[0.08032548427581787, 0.10110059380531311, 0.03999999910593033]","[0.0, 0.0, -0.9363403253067936]",0.8941664803,18.022227192,"(0.0, 0.0, 0.0, 0.0, 0.0, 0.0)",-2.8824197251771095,4.2009445145371055e-07,4.4918794208634316e-05,"(0.0, 0.0, 0.0, 0.0, 0.0, 0.0)",-0.2005835928406654,-0.9122733474486373,-17.539377401369673,"(0.0, 0.0, 0.0, 0.0, 0.0, 0.0)",2.7804978356880783,-0.0874331700712747,2.33150358827241,"(0.0, 0.0, 0.0, 0.0, 0.0, 0.0)",0.17017621517521792,False,,,,,False,,,,
9,Open,,,,,,"[-0.026750000193715096, 0.05299999937415123, 0.03999999910593033]","[0.0, -0.0, 0.894166469119967]","[-0.08288749307394028, 0.09808415919542313, 0.03999999910593033]","[0.0, -0.0, 0.894166894674561]","[0.026750000193715096, 0.05299999937415123, 0.03999999910593033]","[0.0, 0.0, -0.9122733503889549]","[0.08369457721710205, 0.09706035256385803, 0.03999999910593033]","[0.0, 0.0, -0.9997066729229968]",0.96174983227,16.220004472800003,"(0.0, 0.0, 0.0, 0.0, 0.0, 0.0)",-2.5959652512206968,5.681494863714967e-07,3.553320838026869e-05,"(0.0, 0.0, 0.0, 0.0, 0.0, 0.0)",-0.18114955764248034,-0.9780460127037736,-15.785439661232708,"(0.0, 0.0, 0.0, 0.0, 0.0, 0.0)",2.503992476159733,-0.0786900142246732,2.098357403184359,"(0.0, 0.0, 0.0, 0.0, 0.0, 0.0)",0.15360133560797545,False,,,,,False,,,,
10,Open,,,,,,"[-0.026750000193715096, 0.05299999937415123, 0.03999999910593033]","[0.0, -0.0, 0.9617498658906226]","[-0.08580395579338074, 0.09419016540050507, 0.03999999910593033]","[0.0, -0.0, 0.9617504517765805]","[0.026750000193715096, 0.05299999937415123, 0.03999999910593033]","[0.0, 0.0, -0.9780460255881384]","[0.08646733313798904, 0.09322238713502884, 0.03999999910593033]","[0.0, 0.0, -1.0567360258914282]",1.022574849043,14.598004025520002,"(0.0, 0.0, 0.0, 0.0, 0.0, 0.0)",-2.337816594086846,6.829231533297027e-07,2.7545680069969436e-05,"(0.0, 0.0, 0.0, 0.0, 0.0, 0.0)",-0.16354029854134106,-1.0372414114333963,-14.206895695109438,"(0.0, 0.0, 0.0, 0.0, 0.0, 0.0)",2.2548456713339484,-0.07082115822448021,1.8885254400463192,"(0.0, 0.0, 0.0, 0.0, 0.0, 0.0)",0.13860128234430863,False,,,,,False,,,,
11,Open,,,,,,"[-0.026750000193715096, 0.05299999937415123, 0.03999999910593033]","[0.0, -0.0, 1.0225748785172661]","[-0.08819860219955444, 0.09052424877882004, 0.03999999910593033]","[0.0, -0.0, 1.0225755149967983]","[0.026750000193715096, 0.05299999937415123, 0.03999999910593033]","[0.0, 0.0, -1.037241417801626]","[0.08874232321977615, 0.08961901068687439, 0.03999999910593033]","[0.0, 0.0, -1.1080626941470386]",1.0773173641387,13.138203622968001,"(0.0, 0.0, 0.0, 0.0, 0.0, 0.0)",-2.105207702642618,7.694903593429899e-07,2.0776129443188934e-05,"(0.0, 0.0, 0.0, 0.0, 0.0, 0.0)",-0.14759587787833617,-1.0905172702900567,-12.78620612559849,"(0.0, 0.0, 0.0, 0.0, 0.0, 0.0)",2.0303755786213302,-0.06373917358809339,1.6996763127328351,"(0.0, 0.0, 0.0, 0.0, 0.0, 0.0)",0.1250328149112744,False,,,,,False,,,,
12,Open,,,,,,"[-0.026750000193715096, 0.05299999937415123, 0.03999999910593033]","[0.0, -0.0, 1.0773173786594632]","[-0.09015969932079315, 0.08710587024688721, 0.03999999910593033]","[0.0, -0.0, 1.0773182784199262]","[0.026750000193715096, 0.05299999937415123, 0.03999999910593033]","[0.0, 0.0, -1.090517334189526]","[0.09060435742139816, 0.0862659215927124, 0.03999999910593033]","[0.0, 0.0, -1.1542564269670996]",1.1265856277248298,11.824383260671203,"(0.0, 0.0, 0.0, 0.0, 0.0, 0.0)",-1.895636869852492,8.322629993378343e-07,1.5065433598762668e-05,"(0.0, 0.0, 0.0, 0.0, 0.0, 0.0)",-0.13316806895824274,-1.138465543261051,-11.50758551303864,"(0.0, 0.0, 0.0, 0.0, 0.0, 0.0)",1.828159741200242,-0.05736537454460671,1.5297117704368035,"(0.0, 0.0, 0.0, 0.0, 0.0, 0.0)",0.11276577482950233,False,,,,,False,,,,
13,Open,,,,,,"[-0.026750000193715096, 0.05299999937415123, 0.03999999910593033]","[0.0, -0.0, 1.126585512342968]","[-0.09176240861415863, 0.08394166082143784, 0.03999999910593033]","[0.0, -0.0, 1.1265864725026016]","[0.026750000193715096, 0.05299999937415123, 0.03999999910593033]","[0.0, 0.0, -1.13846552283997]","[0.09212540090084076, 0.08316715806722641, 0.03999999910593033]","[0.0, 0.0, -1.1958309904194953]",1.1709270649523469,10.641944934604087,"(0.0, 0.0, 0.0, 0.0, 0.0, 0.0)",-1.7068426281171958,8.750681698751778e-07,1.0273240928962424e-05,"(0.0, 0.0, 0.0, 0.0, 0.0, 0.0)",-0.12011999884119333,-1.181618988934946,-10.356826961734775,"(0.0, 0.0, 0.0, 0.0, 0.0, 0.0)",1.6460093571929852,-0.051628943774705546,1.376743384776279,"(0.0, 0.0, 0.0, 0.0, 0.0, 0.0)",0.10168054944364863,False,,,,,False,,,,
14,Open,,,,,,"[-0.026750000193715096, 0.05299999937415123, 0.03999999910593033]","[0.0, -0.0, 1.170927100750299]","[-0.09307006001472473, 0.08102945238351822, 0.03999999910593033]","[0.0, -0.0, 1.1709279927689973]","[0.026750000193715096, 0.05299999937415123, 0.03999999910593033]","[0.0, 0.0, -1.181618964677462]","[0.09336595237255096, 0.08031877130270004, 0.03999999910593033]","[0.0, 0.0, -1.233247876832181]",1.2108343584571122,9.577750441143678,"(0.0, 0.0, 0.0, 0.0, 0.0, 0.0)",-1.5367816122769582,9.012180617793662e-07,6.275974057005224e-06,"(0.0, 0.0, 0.0, 0.0, 0.0, 0.0)",-0.1083256720668905,-1.2204570900414513,-9.3211442655613,"(0.0, 0.0, 0.0, 0.0, 0.0, 0.0)",1.4819475463743526,-0.046466145575958295,1.239071567699341,"(0.0, 0.0, 0.0, 0.0, 0.0, 0.0)",0.09166748660725833,False,,,,,False,,,,
15,Open,,,,,,"[-0.026750000193715096, 0.05299999937415123, 0.03999999910593033]","[0.0, -0.0, 1.2108343955497323]","[-0.09413553774356842, 0.07836118340492249, 0.03999999910593033]","[0.0, -0.0, 1.210835255049739]","[0.026750000193715096, 0.05299999937415123, 0.03999999910593033]","[0.0, 0.0, -1.2204571829136446]","[0.09437645971775055, 0.07771158218383789, 0.03999999910593033]","[0.0, 0.0, -1.2669233179031547]",1.2467509226114009,8.619975397029307,"(0.0, 0.0, 0.0, 0.0, 0.0, 0.0)",-1.3836082777937824,9.135722823677317e-07,2.9650129412077397e-06,"(0.0, 0.0, 0.0, 0.0, 0.0, 0.0)",-0.09766941677677543,-1.2554113810373062,-8.38902983900517,"(0.0, 0.0, 0.0, 0.0, 0.0, 0.0)",1.334189480132575,-0.04181961771093252,1.1151666876061868,"(0.0, 0.0, 0.0, 0.0, 0.0, 0.0)",0.08262627878010878,False,,,,,False,,,,
16,Open,,,,,,"[-0.026750000193715096, 0.05299999937415123, 0.03999999910593033]","[0.0, -0.0, 1.2467510110527222]","[-0.09500277042388916, 0.07592508941888809, 0.03999999910593033]","[0.0, -0.0, 1.246751870145374]","[0.026750000193715096, 0.05299999937415123, 0.03999999910593033]","[0.0, 0.0, -1.255411348379259]","[0.09519875049591064, 0.0753331333398819, 0.03999999910593033]","[0.0, 0.0, -1.2972309672073006]",1.2790758303502607,7.757977857326381,"(0.0, 0.0, 0.0, 0.0, 0.0, 0.0)",-1.2456264712746363,2.1141758111398655e-06,0.0002881448469053121,"(0.0, 0.0, 0.0, 0.0, 0.0, 0.0)",-0.088015399348708,-1.2868702429335757,-7.5501268551046525,"(0.0, 0.0, 0.0, 0.0, 0.0, 0.0)",1.2010989712673745,-0.037638748630864464,1.0034085792163332,"(0.0, 0.0, 0.0, 0.0, 0.0, 0.0)",0.07444006052486639,False,,,,,False,,,,
17,Open,,,,,,"[-0.026750000193715096, 0.05299999937415123, 0.03999999910593033]","[0.0, -0.0, 1.2790758758817962]","[-0.09570803493261337, 0.0737072303891182, 0.03999999910593033]","[0.0, -0.0, 1.2790780932516201]","[0.026750000193715096, 0.05299999937415123, 0.03999999910593033]","[0.0, 0.0, -1.2868702529032277]","[0.0958673357963562, 0.07316911965608597, 0.03999999910593033]","[0.0, 0.0, -1.3245087793274308]",1.3081682532711112,6.982181501004109,"(0.0, 0.0, 0.0, 0.0, 0.0, 0.0)",-1.12145472366965,1.9027582300258812e-06,-5.0740219467356254e-05,"(0.0, 0.0, 0.0, 0.0, 0.0, 0.0)",-0.07939114715284208,-1.315183223212741,-6.795115266999686,"(0.0, 0.0, 0.0, 0.0, 0.0, 0.0)",1.0813262344929835,-0.033874873767778015,0.9033299671407473,"(0.0, 0.0, 0.0, 0.0, 0.0, 0.0)",0.06713055017345074,False,,,,,False,,,,
18,Open,,,,,,"[-0.026750000193715096, 0.05299999937415123, 0.03999999910593033]","[0.0, -0.0, 1.3081682459906412]","[-0.09628119319677353, 0.07169260084629059, 0.03999999910593033]","[0.0, -0.0, 1.3081702011658356]","[0.026750000193715096, 0.05299999937415123, 0.03999999910593033]","[0.0, 0.0, -1.3151833180210462]","[0.0964106097817421, 0.07120437920093536, 0.03999999910593033]","[0.0, 0.0, -1.349058153261439]",1.334351427944,6.283961921493333,"(0.0, 0.0, 0.0, 0.0, 0.0, 0.0)",-1.0095234585863413,2.7618377923566443e-06,0.00020617909495938315,"(0.0, 0.0, 0.0, 0.0, 0.0, 0.0)",-0.07148780084672787,-1.3406649008914668,-6.11560264289422,"(0.0, 0.0, 0.0, 0.0, 0.0, 0.0)",0.9733796231570812,-0.030488273507324658,0.8127840625088054,"(0.0, 0.0, 0.0, 0.0, 0.0, 0.0)",0.060435192896783604,False,,,,,False,,,,
19,Open,,,,,,"[-0.026750000193715096, 0.05299999937415123, 0.03999999910593033]","[0.0, -0.0, 1.334351465706577]","[-0.09674673527479172, 0.06986585259437561, 0.03999999910593033]","[0.0, -0.0, 1.33435435145599]","[0.026750000193715096, 0.05299999937415123, 0.03999999910593033]","[0.0, 0.0, -1.3406650641721125]","[0.09685182571411133, 0.06942359358072281, 0.03999999910593033]","[0.0, 0.0, -1.3711530696282732]",1.3579162851496,5.655565729344001,"(0.0, 0.0, 0.0, 0.0, 0.0, 0.0)",-0.9088150211252332,3.4316066113876724e-06,0.0001607445165674468,"(0.0, 0.0, 0.0, 0.0, 0.0, 0.0)",-0.06444344013525093,-1.3635984108023202,-5.504042378604797,"(0.0, 0.0, 0.0, 0.0, 0.0, 0.0)",0.8762522980402716,-0.02744024570882781,0.7315266716392431,"(0.0, 0.0, 0.0, 0.0, 0.0, 0.0)",0.05446985052483407,False,,,,,False,,,,
20,Open,,,,,,"[-0.026750000193715096, 0.05299999937415123, 0.03999999910593033]","[0.0, -0.0, 1.3579163939939654]","[-0.09712471067905426, 0.0682118609547615, 0.03999999910593033]","[0.0, -0.0, 1.3579197824809437]","[0.026750000193715096, 0.05299999937415123, 0.03999999910593033]","[0.0, 0.0, -1.3635984874387626]","[0.09721000492572784, 0.06781173497438431, 0.03999999910593033]","[0.0, 0.0, -1.3910385869420074]",1.37912465663464,5.090009156409601,"(0.0, 0.0, 0.0, 0.0, 0.0, 0.0)",-0.8181093185961676,3.940702417530038e-06,0.0001221829934741677,"(0.0, 0.0, 0.0, 0.0, 0.0, 0.0)",-0.05806034967263589,-1.3842385697220883,-4.953638140744317,"(0.0, 0.0, 0.0, 0.0, 0.0, 0.0)",0.7887791417834831,-0.024696941374704916,0.6583930401894944,"(0.0, 0.0, 0.0, 0.0, 0.0, 0.0)",0.04906644857689494,False,,,,,False,,,,
21,Open,,,,,,"[-0.026750000193715096, 0.05299999937415123, 0.03999999910593033]","[0.0, -0.0, 1.3791247702213432]","[-0.0974314734339714, 0.0667160153388977, 0.03999999910593033]","[0.0, -0.0, 1.3791284782568445]","[0.026750000193715096, 0.05299999937415123, 0.03999999910593033]","[0.0, 0.0, -1.3842387704807777]","[0.09750068932771683, 0.06635437905788422, 0.03999999910593033]","[0.0, 0.0, -1.408935619520831]",1.398212190971176,4.581008240768642,"(0.0, 0.0, 0.0, 0.0, 0.0, 0.0)",-0.7364407507487188,4.314390796743166e-06,8.968521101115077e-05,"(0.0, 0.0, 0.0, 0.0, 0.0, 0.0)",-0.05230389643117988,-1.4028147127498793,-4.458274326669883,"(0.0, 0.0, 0.0, 0.0, 0.0, 0.0)",0.7100243788118592,-0.02222789596809768,0.5925708975857369,"(0.0, 0.0, 0.0, 0.0, 0.0, 0.0)",0.04419507766734469,False,,,,,False,,,,
22,Open,,,,,,"[-0.026750000193715096, 0.05299999937415123, 0.03999999910593033]","[0.0, -0.0, 1.3982120672717784]","[-0.09768038988113403, 0.06536446511745453, 0.03999999910593033]","[0.0, -0.0, 1.3982164487645397]","[0.026750000193715096, 0.05299999937415123, 0.03999999910593033]","[0.0, 0.0, -1.4028147367436141]","[0.09773654490709305, 0.06503787636756897, 0.03999999910593033]","[0.0, 0.0, -1.4250426427007885]",1.4153909718740585,4.122907416691778,"(0.0, 0.0, 0.0, 0.0, 0.0, 0.0)",-0.6629119687698639,4.574523674952359e-06,6.243189077020624e-05,"(0.0, 0.0, 0.0, 0.0, 0.0, 0.0)",-0.04711364623212332,-1.4195332414748913,-4.012446894002898,"(0.0, 0.0, 0.0, 0.0, 0.0, 0.0)",0.6391216750959775,-0.02000569064819732,0.5333292767760867,"(0.0, 0.0, 0.0, 0.0, 0.0, 0.0)",0.039804123486470444,False,,,,,False,,,,
23,Open,,,,,,"[-0.026750000193715096, 0.05299999937415123, 0.03999999910593033]","[0.0, -0.0, 1.415391158105469]","[-0.09788231551647186, 0.06414420157670975, 0.03999999910593033]","[0.0, -0.0, 1.415395709317307]","[0.026750000193715096, 0.05299999937415123, 0.03999999910593033]","[0.0, 0.0, -1.419533200978404]","[0.09792786836624146, 0.06384945660829544, 0.03999999910593033]","[0.0, 0.0, -1.4395389386881268]",1.4308518746866525,3.7106166750225977,"(0.0, 0.0, 0.0, 0.0, 0.0, 0.0)",-0.5967141397561109,4.7399630338636504e-06,3.9705446138709865e-05,"(0.0, 0.0, 0.0, 0.0, 0.0, 0.0)",-0.042434775014060074,-1.4345799173274023,-3.611202204602609,"(0.0, 0.0, 0.0, 0.0, 0.0, 0.0)",0.5752902758042565,-0.018005647771851804,0.4800102903229233,"(0.0, 0.0, 0.0, 0.0, 0.0, 0.0)",0.0358468230863414,False,,,,,False,,,,
24,Open,,,,,,"[-0.026750000193715096, 0.05299999937415123, 0.03999999910593033]","[0.0, -0.0, 1.4308518944899675]","[-0.09804610908031464, 0.06304314732551575, 0.03999999910593033]","[0.0, -0.0, 1.4308566269594332]","[0.026750000193715096, 0.05299999937415123, 0.03999999910593033]","[0.0, 0.0, -1.4345798203875788]","[0.09808305650949478, 0.06277728080749512, 0.03999999910593033]","[0.0, 0.0, -1.4525855975984745]",1.4447666872179874,3.339555007520341,"(0.0, 0.0, 0.0, 0.0, 0.0, 0.0)",-0.5371183361845069,4.8269553674989e-06,2.0878160072459843e-05,"(0.0, 0.0, 0.0, 0.0, 0.0, 0.0)",-0.03821759960562203,-1.448121925594662,-3.2500819841423465,"(0.0, 0.0, 0.0, 0.0, 0.0, 0.0)",0.5178266556878065,-0.016205556838873442,0.4320218239148067,"(0.0, 0.0, 0.0, 0.0, 0.0, 0.0)",0.0322808466635012,False,,,,,False,,,,
25,Open,,,,,,"[-0.026750000193715096, 0.05299999937415123, 0.03999999910593033]","[0.0, -0.0, 1.4447668540021588]","[-0.09817895293235779, 0.06205013021826744, 0.03999999910593033]","[0.0, -0.0, 1.4447715863131299]","[0.026750000193715096, 0.05299999937415123, 0.03999999910593033]","[0.0, 0.0, -1.448121993206969]","[0.09820891171693802, 0.06181041896343231, 0.03999999910593033]","[0.0, 0.0, -1.46432761016298]",1.4572900184961886,3.005599506768304,"(0.0, 0.0, 0.0, 0.0, 0.0, 0.0)",-0.483467731204937,4.849462099751187e-06,5.401615740548756e-06,"(0.0, 0.0, 0.0, 0.0, 0.0, 0.0)",-0.03441712855198442,-1.4603097330351957,-2.925073785728113,"(0.0, 0.0, 0.0, 0.0, 0.0, 0.0)",0.4660969568661882,-0.014585427836986846,0.38883096045278315,"(0.0, 0.0, 0.0, 0.0, 0.0, 0.0)",0.029067900465992856,False,,,,,False,,,,
26,Open,,,,,,"[-0.026750000193715096, 0.05299999937415123, 0.03999999910593033]","[0.0, -0.0, 1.4572900807517244]","[-0.0982866883277893, 0.061154916882514954, 0.03999999910593033]","[0.0, -0.0, 1.4572948921008348]","[0.026750000193715096, 0.05299999937415123, 0.03999999910593033]","[0.0, 0.0, -1.4603097470714805]","[0.09831098467111588, 0.06093886122107506, 0.03999999910593033]","[0.0, 0.0, -1.4748951413427742]",1.4685610166465697,2.705039556091476,"(0.0, 0.0, 0.0, 0.0, 0.0, 0.0)",-0.43517053908893033,4.819450845044722e-06,-7.202701129551542e-06,"(0.0, 0.0, 0.0, 0.0, 0.0, 0.0)",-0.030992645518402973,-1.471278759731676,-2.632566407155304,"(0.0, 0.0, 0.0, 0.0, 0.0, 0.0)",0.4195301522878829,-0.013127269246907155,0.3499580616191257,"(0.0, 0.0, 0.0, 0.0, 0.0, 0.0)",0.02617336062226555,False,,,,,False,,,,
27,Open,,,,,,"[-0.026750000193715096, 0.05299999937415123, 0.03999999910593033]","[0.0, -0.0, 1.4685611215819594]","[-0.09837405383586884, 0.06034812703728676, 0.03999999910593033]","[0.0, -0.0, 1.468565853091142]","[0.026750000193715096, 0.05299999937415123, 0.03999999910593033]","[0.0, 0.0, -1.4712788457263521]","[0.0983937606215477, 0.06015344336628914, 0.03999999910593033]","[0.0, 0.0, -1.4844061039497418]",1.4787049149819127,2.434535600482329,"(0.0, 0.0, 0.0, 0.0, 0.0, 0.0)",-0.39169363303347604,4.747151892642784e-06,-1.7351748576465223e-05,"(0.0, 0.0, 0.0, 0.0, 0.0, 0.0)",-0.02790732436186781,-1.4811508837585086,-2.3693097664397755,"(0.0, 0.0, 0.0, 0.0, 0.0, 0.0)",0.37761186810531283,-0.011814888241968555,0.3149714411852639,"(0.0, 0.0, 0.0, 0.0, 0.0, 0.0)",0.023565936472848985,False,,,,,False,,,,
28,Open,,,,,,"[-0.026750000193715096, 0.05299999937415123, 0.03999999910593033]","[0.0, -0.0, 1.4787049625213984]","[-0.09844490885734558, 0.059621214866638184, 0.03999999910593033]","[0.0, -0.0, 1.4787095898811649]","[0.026750000193715096, 0.05299999937415123, 0.03999999910593033]","[0.0, 0.0, -1.4811508165812142]","[0.09846089035272598, 0.059445831924676895, 0.03999999910593033]","[0.0, 0.0, -1.492965762433775]",1.4878344234837215,2.191082040434097,"(0.0, 0.0, 0.0, 0.0, 0.0, 0.0)",-0.35255677801820895,4.641283838470101e-06,-2.5408333001444004e-05,"(0.0, 0.0, 0.0, 0.0, 0.0, 0.0)",-0.02512787460267613,-1.4900357953826577,-2.132378789795796,"(0.0, 0.0, 0.0, 0.0, 0.0, 0.0)",0.33987880377374147,-0.010633710863257649,0.2834825708906175,"(0.0, 0.0, 0.0, 0.0, 0.0, 0.0)",0.021217361806457186,False,,,,,False,,,,
29,Close,,,"(0.010000165031897679, 0.16000264050809818, 0.003919197399597577)","(-5.388791991209616e-05, 3.3679978815229247e-06, -9.074720008653711e-11)",,"[-0.026750000193715096, 0.05299999937415123, 0.03999999910593033]","[0.0, -0.0, 1.487834617901085]","[-0.09850236773490906, 0.05896640568971634, 0.03999999910593033]","[0.0, -0.0, 1.4878390921106803]","[0.026750000193715096, 0.05299999937415123, 0.03999999910593033]","[0.0, 0.0, -1.4900358577435544]","[0.09851532429456711, 0.05880843847990036, 0.03999999910593033]","[0.0, 0.0, -1.5006695807985118]",1.4960509811353493,1.9719738363906854,"(0.0, 0.0, 0.0, 0.0, 0.0, 0.0)",-0.3173274216127963,4.509251873886308e-06,-3.168767150011037e-05,"(0.0, 0.0, 0.0, 0.0, 0.0, 0.0)",-0.022624215793833224,-1.498032215844392,-1.9191409108162163,"(0.0, 0.0, 0.0, 0.0, 0.0, 0.0)",0.30591369390909257,-0.00957062017308593,0.2551417656412126,"(0.0, 0.0, 0.0, 0.0, 0.0, 0.0)",0.019102112305110365,False,,,,,False,,,,
30,Close,,,"(0.010000330010418335, 0.1600052801621647, 0.0076635160840755065)","(-0.00010776674212266888, 6.7354271463595154e-06, -3.629275205618536e-10)",,"[-0.026750000193715096, 0.05299999937415123, 0.03999999910593033]","[0.0, -0.0, 1.4960509653323988]","[-0.09854896366596222, 0.058376654982566833, 0.03999999910593033]","[0.0, -0.0, 1.4960555203126162]","[0.026750000193715096, 0.05299999937415123, 0.03999999910593033]","[0.0, 0.0, -1.4980320325532246]","[0.09855947643518448, 0.05823439359664917, 0.03999999910593033]","[0.0, 0.0, -1.5076028800413472]",1.4064458830218143,-21.505223547248388,"(0.0, 0.0, 0.0, 0.0, 0.0, 0.0)",-36.32500847077206,-0.08999559064729075,-21.600023975799512,"(0.0, 0.0, 0.0, 0.0, 0.0, 0.0)",-4.679136399120495,-1.4082289942599528,21.552773180265405,"(0.0, 0.0, 0.0, 0.0, 0.0, 0.0)",36.31473208701179,0.08138609105625041,21.82961069504072,"(0.0, 0.0, 0.0, 0.0, 0.0, 0.0)",4.675963213372079,False,,,,,False,,,,
31,Close,,,"(0.010000494936733278, 0.16000791898094055, 0.011233038807318392)","(-0.00016163646818851668, 1.0102287881965475e-05, -8.164490687548302e-10)",,"[-0.026750000193715096, 0.05299999937415123, 0.03999999910593033]","[0.0, -0.0, 1.4064459844712927]","[-0.0977797880768776, 0.06478003412485123, 0.03999999910593033]","[0.0, -0.0, 1.316450240076391]","[0.026750000193715096, 0.05299999937415123, 0.03999999910593033]","[0.0, 0.0, -1.4082291009672807]","[0.09780067950487137, 0.06465335935354233, 0.03999999910593033]","[0.0, 0.0, -1.3268428349863826]",1.325801294719633,-19.354701192523546,"(0.0, 0.0, 0.0, 0.0, 0.0, 0.0)",3.2936342521930255,-0.17099646652613912,-19.44021021092361,"(0.0, 0.0, 0.0, 0.0, 0.0, 0.0)",0.4145426679866387,-1.3274060948339577,19.39749586223887,"(0.0, 0.0, 0.0, 0.0, 0.0, 0.0)",-3.3024243844052092,0.16324791947241268,19.646838819878944,"(0.0, 0.0, 0.0, 0.0, 0.0, 0.0)",-0.41699994760359754,False,,,,,False,,,,
32,Close,,,"(0.010000659812012168, 0.16001055698314023, 0.0146278458391823)","(-0.0002154970996661642, 1.346858017578936e-05, -1.4512199879406586e-09)",,"[-0.026750000193715096, 0.05299999937415123, 0.03999999910593033]","[0.0, -0.0, 1.3258013857525741]","[-0.09659997373819351, 0.07046370953321457, 0.03999999910593033]","[0.0, -0.0, 1.1548048042561467]","[0.026750000193715096, 0.05299999937415123, 0.03999999910593033]","[0.0, 0.0, -1.3274060658778382]","[0.09662791341543198, 0.07035159319639206, 0.03999999910593033]","[0.0, 0.0, -1.1641581075845935]",1.2532211652476697,-17.41923107327119,"(0.0, 0.0, 0.0, 0.0, 0.0, 0.0)",2.9685258329366073,-0.24389721437960032,-17.496179484830687,"(0.0, 0.0, 0.0, 0.0, 0.0, 0.0)",0.3760018756193849,-1.2546654853505619,17.457746276014984,"(0.0, 0.0, 0.0, 0.0, 0.0, 0.0)",-2.976480273609718,0.2369235243908578,17.682145180426822,"(0.0, 0.0, 0.0, 0.0, 0.0, 0.0)",-0.3782508099482112,False,,,,,False,,,,
33,Close,,,"(0.010000824637423049, 0.16001319418745247, 0.017848014970055004)","(-0.00026934863811186216, 1.6834304115272585e-05, -2.2671484573282825e-09)",,"[-0.026750000193715096, 0.05299999937415123, 0.03999999910593033]","[0.0, -0.0, 1.2532212515508983]","[-0.09514966607093811, 0.07548300176858902, 0.03999999910593033]","[0.0, -0.0, 1.0093239867956962]","[0.026750000193715096, 0.05299999937415123, 0.03999999910593033]","[0.0, 0.0, -1.254665405963893]","[0.09518206864595413, 0.07538418471813202, 0.03999999910593033]","[0.0, 0.0, -1.0177419933055243]",1.1878990487229026,-15.677307965944074,"(0.0, 0.0, 0.0, 0.0, 0.0, 0.0)",2.675103284419244,-0.30950785045582774,-15.746552658294572,"(0.0, 0.0, 0.0, 0.0, 0.0, 0.0)",0.34074508229325023,-1.1891989368155058,15.711971648413485,"(0.0, 0.0, 0.0, 0.0, 0.0, 0.0)",-2.6822973218910153,0.30323153162132754,15.913921735312746,"(0.0, 0.0, 0.0, 0.0, 0.0, 0.0)",-0.34279935345822066,False,,,,,False,,,,
34,Close,,,"(0.010000989414132393, 0.1600158306125408, 0.020893621515273818)","(-0.00032319108508158773, 2.0199459787849396e-05, -3.2641426920478403e-09)",,"[-0.026750000193715096, 0.05299999937415123, 0.03999999910593033]","[0.0, -0.0, 1.1878990574339587]","[-0.09353619813919067, 0.07989988476037979, 0.03999999910593033]","[0.0, -0.0, 0.8783912846834516]","[0.026750000193715096, 0.05299999937415123, 0.03999999910593033]","[0.0, 0.0, -1.1891990098250689]","[0.09357111155986786, 0.07981304824352264, 0.03999999910593033]","[0.0, 0.0, -0.8859674697633095]",1.1291091438506125,-14.109577169349663,"(0.0, 0.0, 0.0, 0.0, 0.0, 0.0)",2.4103712722760626,-0.36855738916456426,-14.17188929009676,"(0.0, 0.0, 0.0, 0.0, 0.0, 0.0)",0.3085687115248564,-1.1302790431339553,14.140774483572143,"(0.0, 0.0, 0.0, 0.0, 0.0, 0.0)",-2.4168742890236286,0.36290870417903687,14.322521413850238,"(0.0, 0.0, 0.0, 0.0, 0.0, 0.0)",-0.31044204201279674,False,,,,,False,,,,
35,Close,,,"(0.010001154143305145, 0.16001846627704427, 0.023764738319401603)","(-0.00037702444213104407, 2.3564047280946926e-05, -4.4421109431381166e-09)",,"[-0.026750000193715096, 0.05299999937415123, 0.03999999910593033]","[0.0, -0.0, 1.1291090274464952]","[-0.09184028208255768, 0.08377750217914581, 0.03999999910593033]","[0.0, -0.0, 0.7605517150898052]","[0.026750000193715096, 0.05299999937415123, 0.03999999910593033]","[0.0, 0.0, -1.130279133319625]","[0.09187624603509903, 0.08370133489370346, 0.03999999910593033]","[0.0, 0.0, -0.7673703325611945]",1.0761982294655512,-12.698619452414698,"(0.0, 0.0, 0.0, 0.0, 0.0, 0.0)",2.1715845710489208,-0.42170194324014043,-12.754692978138287,"(0.0, 0.0, 0.0, 0.0, 0.0, 0.0)",0.27924932151422227,-1.07725113882056,12.72669703521493,"(0.0, 0.0, 0.0, 0.0, 0.0, 0.0)",-2.177460276301377,0.41661812854294633,12.890261847338277,"(0.0, 0.0, 0.0, 0.0, 0.0, 0.0)",-0.2809551529003472,False,,,,,False,,,,
36,Close,,,"(0.010001318826104761, 0.16002110119957821, 0.02646143576036139)","(-0.0004308487108156613, 2.692806668198511e-05, -5.800961497533997e-09)",,"[-0.026750000193715096, 0.05299999937415123, 0.03999999910593033]","[0.0, -0.0, 1.076198055145404]","[-0.09012148529291153, 0.08717681467533112, 0.03999999910593033]","[0.0, -0.0, 0.6544962762796218]","[0.026750000193715096, 0.05299999937415123, 0.03999999910593033]","[0.0, 0.0, -1.0772510781061955]","[0.09015743434429169, 0.08711007237434387, 0.03999999910593033]","[0.0, 0.0, -0.6606329452337051]",1.028578406518996,-11.428757507173229,"(0.0, 0.0, 0.0, 0.0, 0.0, 0.0)",1.9562489498726314,-0.46953201391559385,-11.479216962108818,"(0.0, 0.0, 0.0, 0.0, 0.0, 0.0)",0.2525697399559188,-1.0295260249385039,11.454027331693439,"(0.0, 0.0, 0.0, 0.0, 0.0, 0.0)",-1.961555706583625,0.46495658231577774,11.601228905479532,"(0.0, 0.0, 0.0, 0.0, 0.0, 0.0)",-0.25412105363877113,False,,,,,False,,,,
37,Close,,,"(0.010001483463693249, 0.1600237353987347, 0.0289837817534302)","(-0.0004846638926905951, 3.0291518078376737e-05, -7.3406026780539124e-09)",,"[-0.026750000193715096, 0.05299999937415123, 0.03999999910593033]","[0.0, -0.0, 1.028578444789276]","[-0.08842276781797409, 0.09015467017889023, 0.03999999910593033]","[0.0, -0.0, 0.5590464126725148]","[0.026750000193715096, 0.05299999937415123, 0.03999999910593033]","[0.0, 0.0, -1.029526007298545]","[0.08845794945955276, 0.09009620547294617, 0.03999999910593033]","[0.0, 0.0, -0.564569399435659]",0.9857205658670964,-10.285881756455906,"(0.0, 0.0, 0.0, 0.0, 0.0, 0.0)",1.7621005438122825,-0.5125790520819234,-10.331289159919107,"(0.0, 0.0, 0.0, 0.0, 0.0, 0.0)",0.22832149176550065,-0.9865734224446535,10.308624598524094,"(0.0, 0.0, 0.0, 0.0, 0.0, 0.0)",-1.766891708603882,0.508461165120635,10.441099873165749,"(0.0, 0.0, 0.0, 0.0, 0.0, 0.0)",-0.22973068702752517,False,,,,,False,,,,
38,Close,,,"(0.010001648057231211, 0.16002636889308344, 0.03133184175509247)","(-0.0005384699893107284, 3.3654401557527444e-05, -9.06094284338731e-09)",,"[-0.026750000193715096, 0.05299999937415123, 0.03999999910593033]","[0.0, -0.0, 0.9857205423734198]","[-0.08677425980567932, 0.09276290237903595, 0.03999999910593033]","[0.0, -0.0, 0.47314147483112123]","[0.026750000193715096, 0.05299999937415123, 0.03999999910593033]","[0.0, 0.0, -0.9865734261287252]","[0.08680814504623413, 0.09271169453859329, 0.03999999910593033]","[0.0, 0.0, -0.4781122693565934]",0.9471485092803869,-9.257293580810316,"(0.0, 0.0, 0.0, 0.0, 0.0, 0.0)",1.587086438141582,-0.5513213633331018,-9.29815470028281,"(0.0, 0.0, 0.0, 0.0, 0.0, 0.0)",0.206306403170868,-0.9479160802001881,9.277762138671687,"(0.0, 0.0, 0.0, 0.0, 0.0, 0.0)",-1.5914107042435905,0.5476152664096928,9.396984309373877,"(0.0, 0.0, 0.0, 0.0, 0.0, 0.0)",-0.2075852193448244,False,,,,,False,,,,
39,Close,,,"(0.01000181260787789, 0.16002900170117218, 0.03350567876675359)","(-0.00059226700223067, 3.7016717206835695e-05, -1.0961890388082131e-08)",,"[-0.026750000193715096, 0.05299999937415123, 0.03999999910593033]","[0.0, -0.0, 0.9471486716739237]","[-0.08519625663757324, 0.09504801034927368, 0.03999999910593033]","[0.0, -0.0, 0.39582717163487297]","[0.026750000193715096, 0.05299999937415123, 0.03999999910593033]","[0.0, 0.0, -0.9479160840165974]","[0.08522851020097733, 0.09500313550233841, 0.03999999910593033]","[0.0, 0.0, -0.4003008647547732]",0.9124336583523481,-8.331564222729286,"(0.0, 0.0, 0.0, 0.0, 0.0, 0.0)",1.4293465062267445,-0.5861894225076075,-8.368334201881392,"(0.0, 0.0, 0.0, 0.0, 0.0, 0.0)",0.18633757536892917,-0.9131244721801693,8.349985924804516,"(0.0, 0.0, 0.0, 0.0, 0.0, 0.0)",-1.433248242084051,0.5828539364930729,8.45728082001123,"(0.0, 0.0, 0.0, 0.0, 0.0, 0.0)",-0.18749704763631705,False,,,,,False,,,,
40,Close,,,"(0.010001977116791199, 0.1600316338415276, 0.035505353338314005)","(-0.0006460549330047555, 4.037846511369274e-05, -1.3043353742532214e-08)",,"[-0.026750000193715096, 0.05299999937415123, 0.03999999910593033]","[0.0, -0.0, 0.9124336635104583]","[-0.08370164036750793, 0.0970512256026268, 0.03999999910593033]","[0.0, -0.0, 0.3262442150321584]","[0.026750000193715096, 0.05299999937415123, 0.03999999910593033]","[0.0, 0.0, -0.9131245532476111]","[0.08373206108808517, 0.09701187163591385, 0.03999999910593033]","[0.0, 0.0, -0.3302705841133475]",0.8811902925171133,-7.498407800456356,"(0.0, 0.0, 0.0, 0.0, 0.0, 0.0)",1.2871965063691413,-0.6175706567763247,-7.531496224492115,"(0.0, 0.0, 0.0, 0.0, 0.0, 0.0)",0.16823988009592084,-0.8818120249621524,7.514987332324067,"(0.0, 0.0, 0.0, 0.0, 0.0, 0.0)",-1.2907160846573733,0.6145687204653795,7.61154815335357,"(0.0, 0.0, 0.0, 0.0, 0.0, 0.0)",-0.16929032064296096,False,,,,,False,,,,
41,Close,,,"(0.010002141585127773, 0.16003426533265583, 0.03733092357160428)","(-0.0006998337831870475, 4.3739645365482716e-05, -1.5305241372964883e-08)",,"[-0.026750000193715096, 0.05299999937415123, 0.03999999910593033]","[0.0, -0.0, 0.8811903688816151]","[-0.08229776471853256, 0.09880879521369934, 0.03999999910593033]","[0.0, -0.0, 0.2636196251065186]","[0.026750000193715096, 0.05299999937415123, 0.03999999910593033]","[0.0, 0.0, -0.8818121535754343]","[0.08232623338699341, 0.098774254322052, 0.03999999910593033]","[0.0, 0.0, -0.26724331826119446]",0.853071263265402,-6.7485670204107215,"(0.0, 0.0, 0.0, 0.0, 0.0, 0.0)",1.1591124175888132,-0.6458137504217961,-6.77834247491313,"(0.0, 0.0, 0.0, 0.0, 0.0, 0.0)",0.1518500972569631,-0.8536308224659371,6.763488599091658,"(0.0, 0.0, 0.0, 0.0, 0.0, 0.0)",-1.1622865309865396,0.643112008739745,6.850389185847702,"(0.0, 0.0, 0.0, 0.0, 0.0, 0.0)",-0.15280109527428076,False,,,,,False,,,,
42,Close,,,"(0.010002306014043007, 0.16003689619304312, 0.038982445123681576)","(-0.0007536035543313348, 4.7100258049582536e-05, -1.7747461781428295e-08)",,"[-0.026750000193715096, 0.05299999937415123, 0.03999999910593033]","[0.0, -0.0, 0.8530713239495782]","[-0.08098787814378738, 0.10035242885351181, 0.03999999910593033]","[0.0, -0.0, 0.2072574956851119]","[0.026750000193715096, 0.05299999937415123, 0.03999999910593033]","[0.0, 0.0, -0.8536307856313979]","[0.08101436495780945, 0.10032207518815994, 0.03999999910593033]","[0.0, 0.0, -0.21051882644475053]",0.8277641369388617,-6.073710318369648,"(0.0, 0.0, 0.0, 0.0, 0.0, 0.0)",1.043715976216214,-0.6712325191394197,-6.100504492229669,"(0.0, 0.0, 0.0, 0.0, 0.0, 0.0)",0.1370167890019201,-0.8282677402193435,6.0871397391824935,"(0.0, 0.0, 0.0, 0.0, 0.0, 0.0)",-1.0465779375227178,0.6688009525283538,6.165346509266115,"(0.0, 0.0, 0.0, 0.0, 0.0, 0.0)",-0.1378772244212715,False,,,,,False,,,,
43,Close,,,"(0.010002470404691093, 0.16003952644115657, 0.04045997120998789)","(-0.0008073642479911328, 5.0460303253361964e-05, -2.0369923505779015e-08)",,"[-0.026750000193715096, 0.05299999937415123, 0.03999999910593033]","[0.0, -0.0, 0.8277641182932235]","[-0.07977228611707687, 0.10170972347259521, 0.03999999910593033]","[0.0, -0.0, 0.1565316389415725]","[0.026750000193715096, 0.05299999937415123, 0.03999999910593033]","[0.0, 0.0, -0.8282677342123946]","[0.07979680597782135, 0.10168302059173584, 0.03999999910593033]","[0.0, 0.0, -0.1594667900835625]",0.8049877232449756,-5.4663392865326825,"(0.0, 0.0, 0.0, 0.0, 0.0, 0.0)",0.9397613626777375,-0.6941093969081942,-5.49045066450586,"(0.0, 0.0, 0.0, 0.0, 0.0, 0.0)",0.12359998406321729,-0.8054409661974091,5.478425765264244,"(0.0, 0.0, 0.0, 0.0, 0.0, 0.0)",-0.9423413878167864,0.6919209877745929,5.54880845909737,"(0.0, 0.0, 0.0, 0.0, 0.0, 0.0)",-0.12437805104754245,False,,,,,False,,,,
44,Close,,,"(0.010002634758225062, 0.1600421560954447, 0.041763552607370504)","(-0.000861115865719684, 5.381978106418352e-05, -2.3172535119669436e-08)",,"[-0.026750000193715096, 0.05299999937415123, 0.03999999910593033]","[0.0, -0.0, 0.8049877164750058]","[-0.07864919304847717, 0.10290464758872986, 0.03999999910593033]","[0.0, -0.0, 0.11087832859978779]","[0.026750000193715096, 0.05299999937415123, 0.03999999910593033]","[0.0, 0.0, -0.805440964305088]","[0.07867180556058884, 0.10288111865520477, 0.03999999910593033]","[0.0, 0.0, -0.11351997099607207]",0.784488950920478,-4.919705357879415,"(0.0, 0.0, 0.0, 0.0, 0.0, 0.0)",0.8461229797239068,-0.7146985741739192,-4.941402543774016,"(0.0, 0.0, 0.0, 0.0, 0.0, 0.0)",0.11147072977230046,-0.7848968695776682,4.93058318873782,"(0.0, 0.0, 0.0, 0.0, 0.0, 0.0)",-0.8484484528940599,0.7127290066915236,4.993924540063379,"(0.0, 0.0, 0.0, 0.0, 0.0, 0.0)",-0.1121739668696123,False,,,,,False,,,,
45,Close,,,"(0.010002799075796832, 0.16004478517433812, 0.04289323765696492)","(-0.0009148584090699577, 5.7178691569402595e-05, -2.615520523253533e-08)",,"[-0.026750000193715096, 0.05299999937415123, 0.03999999910593033]","[0.0, -0.0, 0.7844889896573499]","[-0.07761538028717041, 0.10395795851945877, 0.03999999910593033]","[0.0, -0.0, 0.06979037514545033]","[0.026750000193715096, 0.05299999937415123, 0.03999999910593033]","[0.0, 0.0, -0.7848969068252226]","[0.07763615995645523, 0.10393720120191574, 0.03999999910593033]","[0.0, 0.0, -0.07216786709232846]",0.7660400558284302,-4.427734822091471,"(0.0, 0.0, 0.0, 0.0, 0.0, 0.0)",0.7617842585328375,-0.7332288222135146,-4.44725952950288,"(0.0, 0.0, 0.0, 0.0, 0.0, 0.0)",0.10051055612556806,-0.7664071826199014,4.437524869864038,"(0.0, 0.0, 0.0, 0.0, 0.0, 0.0)",-0.7638799793048979,0.7314562121459494,4.494529309062177,"(0.0, 0.0, 0.0, 0.0, 0.0, 0.0)",-0.10114588070786824,False,,,,,False,,,,
46,Close,,,"(0.010002963358557236, 0.16004741369625017, 0.04384907226694074)","(-0.0009685918795946493, 6.053703485636736e-05, -2.9317842489583264e-08)",,"[-0.026750000193715096, 0.05299999937415123, 0.03999999910593033]","[0.0, -0.0, 0.7660400058439011]","[-0.07666666060686111, 0.10488764196634293, 0.03999999910593033]","[0.0, -0.0, 0.0328112365488731]","[0.026750000193715096, 0.05299999937415123, 0.03999999910593033]","[0.0, 0.0, -0.7664072421942376]","[0.07668570429086685, 0.1048693135380745, 0.03999999910593033]","[0.0, 0.0, -0.03495097036229706]",0.7494360502455871,-3.984961339882325,"(0.0, 0.0, 0.0, 0.0, 0.0, 0.0)",0.6858274268188955,-0.7499060350622873,-4.002531083705426,"(0.0, 0.0, 0.0, 0.0, 0.0, 0.0)",0.09061088591719418,-0.7497664643579113,3.9937723828776335,"(0.0, 0.0, 0.0, 0.0, 0.0, 0.0)",-0.6877158393779155,0.7483106866034595,4.045073869802414,"(0.0, 0.0, 0.0, 0.0, 0.0, 0.0)",-0.09118463108881669,False,,,,,False,,,,
47,Close,,,"(0.010003127607656072, 0.16005004167957756, 0.04463109991511072)","(-0.0010223162788461832, 6.389481101241881e-05, -3.266035557177819e-08)",,"[-0.026750000193715096, 0.05299999937415123, 0.03999999910593033]","[0.0, -0.0, 0.7494360616149593]","[-0.07579827308654785, 0.1057092696428299, 0.03999999910593033]","[0.0, 0.0, -0.00046998485639781964]","[0.026750000193715096, 0.05299999937415123, 0.03999999910593033]","[0.0, 0.0, -0.7497665229086657]","[0.07581568509340286, 0.10569305717945099, 0.03999999910593033]","[0.0, 0.0, -0.0014557777936095985]",0.7344924452210284,-3.5864652058940925,"(0.0, 0.0, 0.0, 0.0, 0.0, 0.0)",0.6173964503690262,-0.7649166300024903,-3.602542785648727,"(0.0, 0.0, 0.0, 0.0, 0.0, 0.0)",0.08164469448201127,-0.7347898179221202,3.594395144589871,"(0.0, 0.0, 0.0, 0.0, 0.0, 0.0)",-0.61909767957405,0.7634808239898891,3.6408329727431203,"(0.0, 0.0, 0.0, 0.0, 0.0, 0.0)",-0.08216247127692902,False,,,,,False,,,,
48,Close,,,"(0.010003291824242136, 0.16005266914270105, 0.04523936165140331)","(-0.0010760316083767074, 6.725202012489063e-05, -3.618265319583079e-08)",,"[-0.026750000193715096, 0.05299999937415123, 0.03999999910593033]","[0.0, -0.0, 0.7344924171356654]","[-0.07500515878200531, 0.10643631219863892, 0.03999999910593033]","[0.0, 0.0, -0.03042418292779103]","[0.026750000193715096, 0.05299999937415123, 0.03999999910593033]","[0.0, 0.0, -0.7347898072320369]","[0.07502105087041855, 0.10642196238040924, 0.03999999910593033]","[0.0, -0.0, 0.028691003185096618]",0.7210432006989256,-3.227818685304683,"(0.0, 0.0, 0.0, 0.0, 0.0, 0.0)",0.5558325671900768,-0.77842604750784,-3.2422602012839143,"(0.0, 0.0, 0.0, 0.0, 0.0, 0.0)",0.07360992294062317,-0.7213108361299082,3.234955630130884,"(0.0, 0.0, 0.0, 0.0, 0.0, 0.0)",-0.5573653507703412,0.7771338289584356,3.2767211924511668,"(0.0, 0.0, 0.0, 0.0, 0.0, 0.0)",-0.07407739542501454,False,,,,,False,,,,
49,Close,,,"(0.010003456009463264, 0.16005529610398603, 0.04567389610019914)","(-0.0011297378697381003, 7.060866228110946e-05, -3.988464411418517e-08)",,"[-0.026750000193715096, 0.05299999937415123, 0.03999999910593033]","[0.0, -0.0, 0.7210432248946826]","[-0.07428213953971863, 0.10708045959472656, 0.03999999910593033]","[0.0, 0.0, -0.05738284539856889]","[0.026750000193715096, 0.05299999937415123, 0.03999999910593033]","[0.0, 0.0, -0.7213108742429458]","[0.07429660856723785, 0.10706773400306702, 0.03999999910593033]","[0.0, -0.0, 0.0558229905847104]",0.708938880629033,-2.905036816774215,"(0.0, 0.0, 0.0, 0.0, 0.0, 0.0)",0.5003668258645501,-0.7905844163893876,-2.9180085315714246,"(0.0, 0.0, 0.0, 0.0, 0.0, 0.0)",0.06632913423961855,-0.7091797525169173,2.911460067117798,"(0.0, 0.0, 0.0, 0.0, 0.0, 0.0)",-0.5017475327577147,0.7894214258858812,2.9490232625869344,"(0.0, 0.0, 0.0, 0.0, 0.0, 0.0)",-0.06675089596581112,False,,,,,False,,,,
50,Close,,,"(0.010001644182078712, 0.16005595153396976, 0.045940321410535084)","(-0.0011271805217326655, 1.767785898679914e-05, -1.508889111938428e-08)",,"[-0.026750000193715096, 0.05299999937415123, 0.03999999910593033]","[0.0, -0.0, 0.7089389671526269]","[-0.07362406700849533, 0.10765182226896286, 0.03999999910593033]","[0.0, 0.0, -0.08164554069303018]","[0.026750000193715096, 0.05299999937415123, 0.03999999910593033]","[0.0, 0.0, -0.7091797033714331]","[0.0736372321844101, 0.10764053463935852, 0.03999999910593033]","[0.0, -0.0, 0.08024167743029369]",0.6980449925661297,-2.6145331350967917,"(0.0, 0.0, 0.0, 0.0, 0.0, 0.0)",0.4504252929298086,-0.8015268519725993,-2.6261845399708146,"(0.0, 0.0, 0.0, 0.0, 0.0, 0.0)",0.059761147909024356,-0.6982617772652256,2.6203140604060167,"(0.0, 0.0, 0.0, 0.0, 0.0, 0.0)",-0.4516689022418484,0.8004801661036254,2.6540976522586175,"(0.0, 0.0, 0.0, 0.0, 0.0, 0.0)",-0.06014157277442886,False,,,,,False,,,,
51,Close,,,"(0.009998458164918766, 0.16005543218265145, 0.046184544665354044)","(-0.001116587313714928, -4.731063982249702e-05, 3.3486629919706074e-09)",,"[-0.026750000193715096, 0.05299999937415123, 0.03999999910593033]","[0.0, -0.0, 0.6980450466292163]","[-0.07302592694759369, 0.10815921425819397, 0.03999999910593033]","[0.0, 0.0, -0.1034818592301779]","[0.026750000193715096, 0.05299999937415123, 0.03999999910593033]","[0.0, 0.0, -0.6982617371246688]","[0.07303788512945175, 0.10814917832612991, 0.03999999910593033]","[0.0, -0.0, 0.10221840210156648]",0.6882404933095168,-2.3530798215871136,"(0.0, 0.0, 0.0, 0.0, 0.0, 0.0)",0.40545980991383274,-0.8113749570468809,-2.3635452178275753,"(0.0, 0.0, 0.0, 0.0, 0.0, 0.0)",0.0538375991228723,-0.688435599538703,2.358282654365416,"(0.0, 0.0, 0.0, 0.0, 0.0, 0.0)",-0.4065798463491374,0.810432944800545,2.3886668872606847,"(0.0, 0.0, 0.0, 0.0, 0.0, 0.0)",-0.0541806611811555,False,,,,,False,,,,
52,Close,,,"(0.0099979269032565, 0.16005188637635104, 0.04640949954916324)","(-0.0010442772263960227, -5.814874739306873e-05, 7.787963860925158e-09)",,"[-0.026750000193715096, 0.05299999937415123, 0.03999999910593033]","[0.0, -0.0, 0.688240548987758]","[-0.07248289883136749, 0.10861026495695114, 0.03999999910593033]","[0.0, 0.0, -0.12313446206189271]","[0.026750000193715096, 0.05299999937415123, 0.03999999910593033]","[0.0, 0.0, -0.6884356086136862]","[0.07249374687671661, 0.10860133916139603, 0.03999999910593033]","[0.0, -0.0, 0.1219973374555316]",0.679416393078237,-2.117784055507141,"(0.0, 0.0, 0.0, 0.0, 0.0, 0.0)",0.3649762140031281,-0.8202374613421928,-2.12700103087486,"(0.0, 0.0, 0.0, 0.0, 0.0, 0.0)",0.04851286211734207,-0.6795919883598663,2.1224666829208143,"(0.0, 0.0, 0.0, 0.0, 0.0, 0.0)",-0.36598488497268467,0.8193896503204905,2.149609324786922,"(0.0, 0.0, 0.0, 0.0, 0.0, 0.0)",-0.04882227338805697,False,,,,,False,,,,
53,Close,,,"(0.009997966950406065, 0.16004795201914346, 0.046616050094935475)","(-0.0009640430328522325, -5.7324486097668704e-05, 4.2980615420070005e-09)",,"[-0.026750000193715096, 0.05299999937415123, 0.03999999910593033]","[0.0, -0.0, 0.6794163791618646]","[-0.07199041545391083, 0.10901165008544922, 0.03999999910593033]","[0.0, 0.0, -0.1408210743259801]","[0.026750000193715096, 0.05299999937415123, 0.03999999910593033]","[0.0, 0.0, -0.6795920181483843]","[0.07200025022029877, 0.1090037003159523, 0.03999999910593033]","[0.0, -0.0, 0.13979766167419433]",0.6714747537704133,-1.9059934338776885,"(0.0, 0.0, 0.0, 0.0, 0.0, 0.0)",0.3285291326313333,-0.8282143561304102,-1.914454749172182,"(0.0, 0.0, 0.0, 0.0, 0.0, 0.0)",0.043663125146434535,-0.6716327895238797,1.9102077206367922,"(0.0, 0.0, 0.0, 0.0, 0.0, 0.0)",-0.3294374536237565,0.8274513303019508,1.934803195550486,"(0.0, 0.0, 0.0, 0.0, 0.0, 0.0)",-0.043941831288343336,False,,,,,False,,,,
54,Close,,,"(0.009998107600018924, 0.16004411888380865, 0.0468059782297436)","(-0.0008858309445970004, -5.447527859797503e-05, 4.128601528647624e-08)",,"[-0.026750000193715096, 0.05299999937415123, 0.03999999910593033]","[0.0, -0.0, 0.6714747449539094]","[-0.07154417037963867, 0.10936915874481201, 0.03999999910593033]","[0.0, 0.0, -0.15673960659097733]","[0.026750000193715096, 0.05299999937415123, 0.03999999910593033]","[0.0, 0.0, -0.6716327690441329]","[0.07155308127403259, 0.10936208069324493, 0.03999999910593033]","[0.0, -0.0, 0.15581855230220754]",0.664327278393372,-1.7153940904899205,"(0.0, 0.0, 0.0, 0.0, 0.0, 0.0)",0.2957170811345372,-0.8353934979980445,-1.7229940482322428,"(0.0, 0.0, 0.0, 0.0, 0.0, 0.0)",0.03934112702889199,-0.6644695105714917,1.7191869485731137,"(0.0, 0.0, 0.0, 0.0, 0.0, 0.0)",-0.2965349881453131,0.8347067784412298,1.7413075534269409,"(0.0, 0.0, 0.0, 0.0, 0.0, 0.0)",-0.039592428071821256,False,,,,,False,,,,
55,Close,,,"(0.009998248644105466, 0.16004048002584464, 0.0469807018618576)","(-0.0008115684428503489, -5.1596750749095254e-05, 7.881188886077776e-08)",,"[-0.026750000193715096, 0.05299999937415123, 0.03999999910593033]","[0.0, -0.0, 0.6643273336690038]","[-0.07114013284444809, 0.10968788713216782, 0.03999999910593033]","[0.0, 0.0, -0.17106622141763456]","[0.026750000193715096, 0.05299999937415123, 0.03999999910593033]","[0.0, 0.0, -0.6644694779113771]","[0.07114819437265396, 0.10968156903982162, 0.03999999910593033]","[0.0, -0.0, 0.17023725548976373]",0.6578945505540348,-1.543854681440929,"(0.0, 0.0, 0.0, 0.0, 0.0, 0.0)",0.2661784897251144,-0.8418546682622772,-1.5506808634158242,"(0.0, 0.0, 0.0, 0.0, 0.0, 0.0)",0.03542959308904228,-0.6580225595143425,1.547268253715802,"(0.0, 0.0, 0.0, 0.0, 0.0, 0.0)",-0.26691494494593054,0.8412366239853526,1.567162930589489,"(0.0, 0.0, 0.0, 0.0, 0.0, 0.0)",-0.035656056287006674,False,,,,,False,,,,
56,Close,,,"(0.009998390752654573, 0.16003702894197389, 0.04714144752999396)","(-0.0007411380797103218, -4.869650481896534e-05, 1.1687517768299383e-07)",,"[-0.026750000193715096, 0.05299999937415123, 0.03999999910593033]","[0.0, -0.0, 0.6578945475257985]","[-0.07077455520629883, 0.1099722608923912, 0.03999999910593033]","[0.0, 0.0, -0.18396012465064338]","[0.026750000193715096, 0.05299999937415123, 0.03999999910593033]","[0.0, 0.0, -0.6580225896942233]","[0.07078184932470322, 0.10996662080287933, 0.03999999910593033]","[0.0, -0.0, 0.18321406389742323]",0.6521050954986313,-1.3894692132968354,"(0.0, 0.0, 0.0, 0.0, 0.0, 0.0)",0.23958744527110798,-0.8476696697618468,-1.395600359896693,"(0.0, 0.0, 0.0, 0.0, 0.0, 0.0)",0.031904902566438624,-0.6522203035629083,1.392541428344221,"(0.0, 0.0, 0.0, 0.0, 0.0, 0.0)",-0.24025052935853647,0.8471134329078756,1.410434141405507,"(0.0, 0.0, 0.0, 0.0, 0.0, 0.0)",-0.032108956045352514,False,,,,,False,,,,
57,Close,,,"(0.009998534235924597, 0.16003375955333046, 0.04728933347451534)","(-0.0006744157946989166, -4.576820860538318e-05, 1.554405829918684e-07)",,"[-0.026750000193715096, 0.05299999937415123, 0.03999999910593033]","[0.0, -0.0, 0.6521051450040646]","[-0.07044398784637451, 0.11022617667913437, 0.03999999910593033]","[0.0, 0.0, -0.19556454293122102]","[0.026750000193715096, 0.05299999937415123, 0.03999999910593033]","[0.0, 0.0, -0.6522203497730787]","[0.07045057415962219, 0.11022114753723145, 0.03999999910593033]","[0.0, -0.0, 0.19489313608724637]",0.6468945859487681,-1.250522291967151,"(0.0, 0.0, 0.0, 0.0, 0.0, 0.0)",0.2156503992603495,-0.8529031244958994,-1.2560291361726517,"(0.0, 0.0, 0.0, 0.0, 0.0, 0.0)",0.02872919688306315,-0.6469982732066174,1.253287285509799,"(0.0, 0.0, 0.0, 0.0, 0.0, 0.0)",-0.2162473971085442,0.8524025140258721,1.2693794683191757,"(0.0, 0.0, 0.0, 0.0, 0.0, 0.0)",-0.02891303657535659,False,,,,,False,,,,
58,Close,,,"(0.009998679410322496, 0.16003066597344334, 0.0474253884764576)","(-0.0006112814540129935, -4.2805404436077314e-05, 1.9447426774393396e-07)",,"[-0.026750000193715096, 0.05299999937415123, 0.03999999910593033]","[0.0, -0.0, 0.6468945636476681]","[-0.07014521211385727, 0.11045306921005249, 0.03999999910593033]","[0.0, 0.0, -0.20600854729134555]","[0.026750000193715096, 0.05299999937415123, 0.03999999910593033]","[0.0, 0.0, -0.6469982503054421]","[0.07015117257833481, 0.11044856905937195, 0.03999999910593033]","[0.0, -0.0, 0.20540423443750838]",0.6422051273538913,-1.125470062770436,"(0.0, 0.0, 0.0, 0.0, 0.0, 0.0)",0.1941029233168818,-0.8576131917611358,-1.1304161436567226,"(0.0, 0.0, 0.0, 0.0, 0.0, 0.0)",0.025868240883426936,-0.6422984458859556,1.1279585569588184,"(0.0, 0.0, 0.0, 0.0, 0.0, 0.0)",-0.19464040126091972,0.8571626447690798,1.1424313783698345,"(0.0, 0.0, 0.0, 0.0, 0.0, 0.0)",-0.026033851694478666,False,,,,,False,,,,
59,Move,,,"(0.009998826598722164, 0.16002774252192944, 0.04755055901421763)","(-0.0005516191299448554, -3.980150267197137e-05, 2.339437659612592e-07)","[0.0, 0.0, 0.0]","[-0.026750000193715096, 0.05299999937415123, 0.03999999910593033]","[0.0, -0.0, 0.6422051137296667]","[-0.0698753148317337, 0.11065594106912613, 0.03999999910593033]","[0.0, 0.0, -0.2154080556264429]","[0.026750000193715096, 0.05299999937415123, 0.03999999910593033]","[0.0, 0.0, -0.6422983956794274]","[0.06988069415092468, 0.1106519103050232, 0.03999999910593033]","[0.0, -0.0, 0.21486417441436167]",0.6379846146185022,-1.0129230564933929,"(0.0, 0.0, 0.0, 0.0, 0.0, 0.0)",0.17470684718642912,-0.8618522144704561,-1.0173654502368856,"(0.0, 0.0, 0.0, 0.0, 0.0, 0.0)",0.023291096758263134,-0.6380686012973601,1.0151627012629356,"(0.0, 0.0, 0.0, 0.0, 0.0, 0.0)",-0.1751907229705418,0.8614467243673204,1.02817910357775,"(0.0, 0.0, 0.0, 0.0, 0.0, 0.0)",-0.023440272040621463,False,,,,,True,"(0.04276013174954747, 0.17974174897294792, 0.02399995643463635)","(-0.9999999990838299, -1.9447426661030803e-07, -4.2805404423670755e-05)",0.0013234533115717422,0.0
60,Move,,,"(0.008529162475457952, 0.15974954236529276, 0.0477048393377401)","(0.0013879222534856654, 0.003092032969080396, 0.019607357714227783)","[-0.001469664123264212, -0.00027820015663668207, 0.00015428032352246546]","[-0.026750000193715096, 0.05299999937415123, 0.03999999910593033]","[0.0, -0.0, 0.6379846501970732]","[-0.06963159143924713, 0.1108374372124672, 0.03999999910593033]","[0.0, 0.0, -0.22386762157269943]","[0.026750000193715096, 0.05299999937415123, 0.03999999910593033]","[0.0, 0.0, -0.638068602671057]","[0.06963644921779633, 0.11083383113145828, 0.03999999910593033]","[0.0, -0.0, 0.22337816170537766]",0.6141590059460926,-5.718146081378292,"(0.0, 0.0, 0.0, 0.0, 0.0, 0.0)",-6.715100343954979,-0.8614283121995241,0.10173654502368734,"(0.0, 0.0, 0.0, 0.0, 0.0, 0.0)",-0.37236374372155323,-0.6186460352886096,4.661415842100123,"(0.0, 0.0, 0.0, 0.0, 0.0, 0.0)",6.428194854706253,0.8610182254653614,-0.10283973647015276,"(0.0, 0.0, 0.0, 0.0, 0.0, 0.0)",0.9829946930619015,False,,,,,True,"(0.041928616181162004, 0.17969877893574898, 0.023999959438538117)","(-0.9999999992078928, -2.3394376620903917e-07, -3.980150265941498e-05)",0.0004918567139684023,10.112171877912418
61,Move,,,"(0.006723996611826882, 0.15936533702962205, 0.047765255621499005)","(6.714398616458164e-05, 0.002674296973039989, 0.04262647064426384)","[-0.0032748299868952824, -0.0006624054923073941, 0.00021469660728137135]","[-0.026750000193715096, 0.05299999937415123, 0.03999999910593033]","[0.0, -0.0, 0.6141590305095613]","[-0.06824154406785965, 0.11184260249137878, 0.03999999910593033]","[0.0, 0.0, -0.24726930604170874]","[0.026750000193715096, 0.05299999937415123, 0.03999999910593033]","[0.0, 0.0, -0.618646044105948]","[0.06850515305995941, 0.1116558387875557, 0.03999999910593033]","[0.0, -0.0, 0.24237220045044397]",0.5923752537221402,-5.228100533748594,"(0.0, 0.0, 0.0, 0.0, 0.0, 0.0)",0.6968351830029317,-0.8614707024266173,-0.010173654502368734,"(0.0, 0.0, 0.0, 0.0, 0.0, 0.0)",0.0386094337653134,-0.6008326176855909,4.2752202247244835,"(0.0, 0.0, 0.0, 0.0, 0.0, 0.0)",-0.2843818339581164,0.8610616731657038,0.010427448082156607,"(0.0, 0.0, 0.0, 0.0, 0.0, 0.0)",0.12162564932151312,False,,,,,True,"(0.03949436769622908, 0.17998210851349686, 0.023999959438538117)","(-0.9999999992078928, -2.3394376620903917e-07, -3.980150265941498e-05)",-6.347605402235445e-06,0.5640853154323047
62,Move,,,"(0.004916021046565853, 0.1589665718711254, 0.047720958898252924)","(-0.002763020338407607, 0.0006108079306357897, 0.0667691707902313)","[-0.005082805552156311, -0.0010611706508040497, 0.00017039988403529105]","[-0.026750000193715096, 0.05299999937415123, 0.03999999910593033]","[0.0, -0.0, 0.5923752994005711]","[-0.0669499859213829, 0.1127324104309082, 0.03999999910593033]","[0.0, 0.0, -0.2690954538189607]","[0.026750000193715096, 0.05299999937415123, 0.03999999910593033]","[0.0, 0.0, -0.6008327423896315]","[0.06745371967554092, 0.11239029467105865, 0.03999999910593033]","[0.0, -0.0, 0.2602290700881579]",0.5712150347036751,-5.078452564431617,"(0.0, 0.0, 0.0, 0.0, 0.0, 0.0)",0.2157952503283588,-0.861466463403908,0.0010173654502363396,"(0.0, 0.0, 0.0, 0.0, 0.0, 0.0)",0.016130538686302622,-0.5829836595254625,4.283749958430823,"(0.0, 0.0, 0.0, 0.0, 0.0, 0.0)",0.03654686188668907,0.8610568520052067,-0.0011570785193177847,"(0.0, 0.0, 0.0, 0.0, 0.0, 0.0)",0.013369392840733865,False,,,,,True,"(0.03722753437306846, 0.1801876577450428, 0.023999959438538117)","(-0.9999999992078928, -2.3394376620903917e-07, -3.980150265941498e-05)",-3.03090440028451e-06,0.20086448022229916
63,Move,,,"(0.003038586218639499, 0.15852968790700625, 0.047692659289474)","(-0.0025911153149836925, -0.0037098076030427207, 0.0892309075356073)","[-0.006960240380082665, -0.0014980546149231944, 0.00014210027525636548]","[-0.026750000193715096, 0.05299999937415123, 0.03999999910593033]","[0.0, -0.0, 0.5712149816841382]","[-0.06567712873220444, 0.11356961727142334, 0.03999999910593033]","[0.0, 0.0, -0.2902514434627483]","[0.026750000193715096, 0.05299999937415123, 0.03999999910593033]","[0.0, 0.0, -0.5829835823925363]","[0.06638723611831665, 0.11310731619596481, 0.03999999910593033]","[0.0, -0.0, 0.27807322292986936]",0.5508803967687295,-4.88031310438695,"(0.0, 0.0, 0.0, 0.0, 0.0, 0.0)",0.28503070876654335,-0.8614668873061792,-0.0001017365450710142,"(0.0, 0.0, 0.0, 0.0, 0.0, 0.0)",0.019917833408555515,-0.5651641840502668,4.2766741140469655,"(0.0, 0.0, 0.0, 0.0, 0.0, 0.0)",0.11956537689041521,0.8610565492790112,-7.265428690530302e-05,"(0.0, 0.0, 0.0, 0.0, 0.0, 0.0)",0.07009334439305036,False,,,,,True,"(0.03495614298930945, 0.18035455290140667, 0.023999959438538117)","(-0.9999999992078928, -2.3394376620903917e-07, -3.980150265941498e-05)",-3.483078081115776e-06,1.0531113700940868
64,Move,,,"(0.0020261779141126004, 0.159147963083264, 0.04760521211159295)","(0.002583370481578668, -0.003056729446151124, 0.09297246090683914)","[-0.007972648684609564, -0.0008797794386654345, 5.465309737531787e-05]","[-0.026750000193715096, 0.05299999937415123, 0.03999999910593033]","[0.0, -0.0, 0.5508804375563766]","[-0.06443750858306885, 0.11434861272573471, 0.03999999910593033]","[0.0, 0.0, -0.31058647044401844]","[0.026750000193715096, 0.05299999937415123, 0.03999999910593033]","[0.0, 0.0, -0.5651641731913941]","[0.06530991941690445, 0.11380404978990555, 0.03999999910593033]","[0.0, -0.0, 0.2958923811960855]",0.5325313952836437,-4.403760356420582,"(0.0, 0.0, 0.0, 0.0, 0.0, 0.0)",-38.47384383842257,-0.8434648155280273,4.320497226756436,"(0.0, 0.0, 0.0, 0.0, 0.0, 0.0)",-19.707773442051234,-0.5485203526437034,3.9945195375752336,"(0.0, 0.0, 0.0, 0.0, 0.0, 0.0)",38.40865227596146,0.8426940994674212,-4.406987954781599,"(0.0, 0.0, 0.0, 0.0, 0.0, 0.0)",20.213574547080277,True,"(-0.030837162206202397, 0.1807147684040986, 0.056003710559052795)","(0.9960147094140643, 0.08911192973728252, 0.0037097990935676286)",0.000295955962769222,310.9113148279181,True,"(0.032686946379462796, 0.18046390406811386, 0.023996289440947206)","(-0.9960147094140644, -0.08911192973728094, -0.0037097990935709194)",-4.010570765232737e-05,237.4598751600436
65,Move,"(0.0021000000000000003, 0.0, -0.0002)","(0.0, 0.0054262286444503715, 0.0)","(0.0011700253639096666, 0.15976182515520135, 0.04751897038725052)","(0.007930122363363799, -0.00226657279137191, 0.09692309735704685)","[-0.008828801234812498, -0.00026591736672809674, -3.1588626967116173e-05]","[-0.026750000193715096, 0.05299999937415123, 0.03999999910593033]","[0.0, -0.0, 0.5325313658465014]","[-0.06330554187297821, 0.11502977460622787, 0.03999999910593033]","[0.0, 0.0, -0.3109334583254266]","[0.026750000193715096, 0.05299999937415123, 0.03999999910593033]","[0.0, 0.0, -0.548520392495979]","[0.06429261714220047, 0.11443737894296646, 0.03999999910593033]","[0.0, -0.0, 0.2941737789306636]",0.5150286261073844,-4.20066460230223,"(0.0, 0.0, 0.0, 0.0, 0.0, 0.0)",-43.15160519850692,-0.8255232606133882,4.305973179513399,"(0.0, 0.0, 0.0, 0.0, 0.0, 0.0)",-22.03627704391551,-0.5318939745440465,3.990330743917647,"(0.0, 0.0, 0.0, 0.0, 0.0, 0.0)",43.6676935048907,0.8241209847892994,-4.457547522749228,"(0.0, 0.0, 0.0, 0.0, 0.0, 0.0)",23.068483497500033,True,"(-0.02968254207398162, 0.18138834120873254, 0.056003057484645)","(0.9956765214355997, 0.09283814461792712, 0.0030567246857756626)",-0.0019557974209563206,339.7172576639441,True,"(0.03178474084630808, 0.1811477674564546, 0.02399694251535476)","(-0.9956765214355902, -0.0928381446180211, -0.0030567246860136047)",0.00016315936690381586,263.2480870713977
66,Move,"(-0.0003, 0.0, 0.001)","(0.0, 0.022656119020138393, 0.0)","(0.00140611383235199, 0.16010453456325147, 0.04748702836590146)","(0.005738397729736407, 0.001313467913655705, 0.09062529852187516)","[-0.008592712766370175, 7.679204132202133e-05, -6.353064831617072e-05]","[-0.026750000193715096, 0.05299999937415123, 0.03999999910593033]","[0.0, -0.0, 0.5150286173626178]","[-0.06221430376172066, 0.11566006392240524, 0.03999999910593033]","[0.0, 0.0, -0.3104946497228739]","[0.026750000193715096, 0.05299999937415123, 0.03999999910593033]","[0.0, 0.0, -0.5318939608755999]","[0.06326599419116974, 0.11505305767059326, 0.03999999910593033]","[0.0, -0.0, 0.2922270319249003]",0.5148134618649943,-0.05163941817362261,"(0.0, 0.0, 0.0, 0.0, 0.0, 0.0)",4.7781098282822425,-0.8273168923859764,-0.4304716254211529,"(0.0, 0.0, 0.0, 0.0, 0.0, 0.0)",-0.46397490732165586,-0.5357452171003215,-0.9242982135060087,"(0.0, 0.0, 0.0, 0.0, 0.0, 0.0)",-6.624525788587417,0.8259782962571139,0.4457547522754828,"(0.0, 0.0, 0.0, 0.0, 0.0, 0.0)",-0.0011876261605867425,True,"(-0.02862075758073663, 0.18203687365922727, 0.05600226731562215)","(0.9953040758649819, 0.09677116937979674, 0.0022665708506747376)",-0.003960922893090458,5.968237903233863,True,"(0.03091578949574346, 0.18154523231783662, 0.023997716044379027)","(-0.9953040509812058, -0.09677103449881742, -0.0022831956617496516)",0.00022377337919692118,0.0
67,Move,"(-0.0009000000000000001, 0.0, 0.0018000000000000002)","(0.0, 0.044558255803415235, 0.0)","(0.0016510570508479787, 0.16049374287725604, 0.04751590211829991)","(0.002250050951945878, 0.001200734515841451, 0.08283187420846204)","[-0.008347769547874185, 0.00046600035532659567, -3.465689591772292e-05]","[-0.026750000193715096, 0.05299999937415123, 0.03999999910593033]","[0.0, -0.0, 0.5148134635582758]","[-0.062200818210840225, 0.11566769331693649, 0.03999999910593033]","[0.0, 0.0, -0.3125034140950466]","[0.026750000193715096, 0.05299999937415123, 0.03999999910593033]","[0.0, 0.0, -0.5357451943643683]","[0.06350470334291458, 0.11491196602582932, 0.03999999910593033]","[0.0, -0.0, 0.29023305864090043]",0.5133439344797377,-0.3526865724615988,"(0.0, 0.0, 0.0, 0.0, 0.0, 0.0)",-0.45995012835556454,-0.8271388548701778,0.04272900379166078,"(0.0, 0.0, 0.0, 0.0, 0.0, 0.0)",-0.019335040393376846,-0.5372428604733591,-0.35943440952901984,"(0.0, 0.0, 0.0, 0.0, 0.0, 0.0)",0.769026857746198,0.8257925651104282,-0.044575475204575,"(0.0, 0.0, 0.0, 0.0, 0.0, 0.0)",0.00784540796671143,True,"(-0.02847400494731865, 0.1819768864002309, 0.05600226731562215)","(0.9953040758649819, 0.09677116937979674, 0.0022665708506747376)",-0.0036439906194770553,0.0,True,"(0.03128714451695809, 0.18146851238764297, 0.023997716044379027)","(-0.9953040509812058, -0.09677103449881742, -0.0022831956617496516)",0.0002852390219108011,0.0
68,Move,"(-0.0015, 0.0, 0.0023)","(0.0, 0.044558255803415235, 0.0)","(0.0018616066706188688, 0.16055199198019182, 0.047566164449902935)","(2.6264109537936286e-05, 0.0016335310065878797, 0.08119743322869012)","[-0.008137219928103295, 0.0005242494582623769, 1.5605435685302205e-05]","[-0.026750000193715096, 0.05299999937415123, 0.03999999910593033]","[0.0, -0.0, 0.5133439076102237]","[-0.062108688056468964, 0.11571972072124481, 0.03999999910593033]","[0.0, 0.0, -0.31379495301674504]","[0.026750000193715096, 0.05299999937415123, 0.03999999910593033]","[0.0, 0.0, -0.5372428888995971]","[0.06359738111495972, 0.11485685408115387, 0.03999999910593033]","[0.0, -0.0, 0.2885497156460694]",0.512013887309333,-0.3192113208971401,"(0.0, 0.0, 0.0, 0.0, 0.0, 0.0)",-2.4552325779948285,-0.8259892371212014,0.27590825975432653,"(0.0, 0.0, 0.0, 0.0, 0.0, 0.0)",-1.2678114014212656,-0.5385034293745237,-0.30253653627948507,"(0.0, 0.0, 0.0, 0.0, 0.0, 0.0)",2.4028013027040385,0.8248073098423366,-0.23646126434198042,"(0.0, 0.0, 0.0, 0.0, 0.0, 0.0)",1.1632296716639963,True,"(-0.02829626531128191, 0.18198530153857279, 0.05600226731562215)","(0.9953040758649819, 0.09677116937979674, 0.0022665708506747376)",-0.0033431623127727177,17.38595447020714,True,"(0.031491910497890345, 0.18146753742770724, 0.023997716044379027)","(-0.9953040509812058, -0.09677103449881742, -0.0022831956617496516)",6.251006134799152e-05,10.631664346500665
69,Move,"(0.0015, 0.0, 0.0032)","(0.0, 0.03126582822022642, 0.0)","(0.002047399873103786, 0.1605981205078698, 0.04761504754680397)","(-0.0020630656625812887, 0.0020811299935218955, 0.07983293206512637)","[-0.007951426725618379, 0.0005703779859403679, 6.448853258633758e-05]","[-0.026750000193715096, 0.05299999937415123, 0.03999999910593033]","[0.0, -0.0, 0.5120138754219875]","[-0.06202523782849312, 0.11576668918132782, 0.03999999910593033]","[0.0, 0.0, -0.3139753375574829]","[0.026750000193715096, 0.05299999937415123, 0.03999999910593033]","[0.0, 0.0, -0.538503489368453]","[0.06367532908916473, 0.11481035500764847, 0.03999999910593033]","[0.0, -0.0, 0.28630387446606215]",0.5109301221308205,-0.2601036428429977,"(0.0, 0.0, 0.0, 0.0, 0.0, 0.0)",-2.4304448952953055,-0.8249584394237873,0.24739144737939608,"(0.0, 0.0, 0.0, 0.0, 0.0, 0.0)",-1.256336026715306,-0.5397076787656935,-0.2890198538807604,"(0.0, 0.0, 0.0, 0.0, 0.0, 0.0)",2.310026732393426,0.8239417956598788,-0.2077234037898721,"(0.0, 0.0, 0.0, 0.0, 0.0, 0.0)",1.1097305795032273,True,"(-0.028200858166425168, 0.182026172938745, 0.05600226731562215)","(0.9953040758649819, 0.09677116937979674, 0.0022665708506747376)",-0.0031812153014243966,17.060728812202473,True,"(0.031719532751012906, 0.18149297483182236, 0.023997716044379027)","(-0.9953040509812058, -0.09677103449881742, -0.0022831956617496516)",5.776693945520306e-05,8.868501961034177
70,Move,"(0.0013000000000000002, 0.0, 0.004)","(0.0, 0.003220132469929538, 0.0)","(0.0022885487204627173, 0.16064359987664384, 0.04771073600990998)","(-0.002441382162570084, 0.0025594642217498568, 0.07806454044631608)","[-0.0077102778782594476, 0.0006158573547143942, 0.000160176995692346]","[-0.026750000193715096, 0.05299999937415123, 0.03999999910593033]","[0.0, -0.0, 0.5109300864898195]","[-0.06195719167590141, 0.11580488830804825, 0.03999999910593033]","[0.0, 0.0, -0.314028323675399]","[0.026750000193715096, 0.05299999937415123, 0.03999999910593033]","[0.0, 0.0, -0.539707628169904]","[0.06374973803758621, 0.11476584523916245, 0.03999999910593033]","[0.0, -0.0, 0.2842340843815406]",0.5091870458634097,-0.41833830417858053,"(0.0, 0.0, 0.0, 0.0, 0.0, 0.0)",-2.939436453309479,-0.8239187638535677,0.24952213685271993,"(0.0, 0.0, 0.0, 0.0, 0.0, 0.0)",-1.3181343665132792,-0.5415702137064421,-0.44700838577966195,"(0.0, 0.0, 0.0, 0.0, 0.0, 0.0)",1.829541131820833,0.8231197890958695,-0.19728157536222932,"(0.0, 0.0, 0.0, 0.0, 0.0, 0.0)",0.981634619326125,True,"(-0.02812930355850503, 0.18206257445978907, 0.05600226731562215)","(0.9953040758649819, 0.09677116937979674, 0.0022665708506747376)",-0.003027623246255399,18.29709898976866,True,"(0.031932026647015624, 0.18151446078292416, 0.023997716044379027)","(-0.9953040509812058, -0.09677103449881742, -0.0022831956617496516)",6.885230823037822e-05,5.908700194969614
71,Move,"(0.0008, 0.0, 0.0053)","(0.0, 0.05080304386705095, 0.0)","(0.002542129880149224, 0.16067190631139555, 0.047786095632327615)","(-0.003031399910165323, 0.0027920605722970334, 0.07675947274932565)","[-0.00745669671857294, 0.0006441637894661068, 0.00023553661810998133]","[-0.026750000193715096, 0.05299999937415123, 0.03999999910593033]","[0.0, -0.0, 0.5091870657107892]","[-0.061847664415836334, 0.11586615443229675, 0.03999999910593033]","[0.0, 0.0, -0.314731742268915]","[0.026750000193715096, 0.05299999937415123, 0.03999999910593033]","[0.0, 0.0, -0.5415702158417096]","[0.06386471539735794, 0.11469682306051254, 0.03999999910593033]","[0.0, -0.0, 0.2815495405470344]",0.5075298552809154,-0.39772573979862313,"(0.0, 0.0, 0.0, 0.0, 0.0, 0.0)",-2.0416390112787792,-0.8231181892512457,0.19213790455727522,"(0.0, 0.0, 0.0, 0.0, 0.0, 0.0)",-1.0275395933806788,-0.5433250403784531,-0.42115840128263443,"(0.0, 0.0, 0.0, 0.0, 0.0, 0.0)",1.60925645225958,0.8224953958893124,-0.1498543695737047,"(0.0, 0.0, 0.0, 0.0, 0.0, 0.0)",0.781721252024301,True,"(-0.027971933016336076, 0.18208546880491272, 0.02399743979583554)","(0.9969512454016394, 0.07798502067270367, -0.002559461427303492)",-0.0030016130004957924,16.68475591783152,True,"(0.0322263073149963, 0.18153061572712165, 0.023997716044379027)","(-0.9953040509812058, -0.09677103449881742, -0.0022831956617496516)",9.849500830751731e-05,4.9725503291264825
72,Move,"(0.0002, 0.0, 0.007)","(0.0, 0.08527329659393897, 0.0)","(0.0027565530691503505, 0.16069973882036107, 0.04785495653451477)","(-0.003634792582294495, 0.002993093127625362, 0.07568428904718003)","[-0.007242273529571814, 0.0006719962984316208, 0.0003043975202971366]","[-0.026750000193715096, 0.05299999937415123, 0.03999999910593033]","[0.0, -0.0, 0.5075298185168198]","[-0.06174343824386597, 0.11592423170804977, 0.03999999910593033]","[0.0, 0.0, -0.3155883527371591]","[0.026750000193715096, 0.05299999937415123, 0.03999999910593033]","[0.0, 0.0, -0.5433250068494875]","[0.06397292762994766, 0.11463160067796707, 0.03999999910593033]","[0.0, -0.0, 0.27917036839033027]",0.5061137764486124,-0.3398589197527053,"(0.0, 0.0, 0.0, 0.0, 0.0, 0.0)",-1.9981157522249933,-0.8222855567821613,0.19983179258024864,"(0.0, 0.0, 0.0, 0.0, 0.0, 0.0)",-1.0216870073343707,-0.5448271790325909,-0.3605132769930878,"(0.0, 0.0, 0.0, 0.0, 0.0, 0.0)",1.6923198027520914,0.821832822355381,-0.15901764814353525,"(0.0, 0.0, 0.0, 0.0, 0.0, 0.0)",0.8049802407507417,True,"(-0.027810957712149503, 0.18211405601994238, 0.023997207202986086)","(0.9970515515604617, 0.07668381803805649, -0.002792056944666622)",-0.0028840928550323153,16.807383634893153,True,"(0.032493619029838786, 0.18154047636818826, 0.023997716044379027)","(-0.9953040509812058, -0.09677103449881742, -0.0022831956617496516)",9.269587751552326e-05,4.556860977518098
73,Move,"(-0.0008, 0.0, 0.0091)","(0.0, 0.07666009673534695, 0.0)","(0.0029433883681920193, 0.1607278459578727, 0.047918626289395125)","(-0.004275400630023715, 0.0031251545692496533, 0.07479569284900363)","[-0.007055438230530145, 0.0007001034359432612, 0.0003680672751774916]","[-0.026750000193715096, 0.05299999937415123, 0.03999999910593033]","[0.0, -0.0, 0.5061138073326847]","[-0.06165429577231407, 0.11597372591495514, 0.03999999910593033]","[0.0, 0.0, -0.3161717575286674]","[0.026750000193715096, 0.05299999937415123, 0.03999999910593033]","[0.0, 0.0, -0.5448271824740822]","[0.06406546384096146, 0.11457561701536179, 0.03999999910593033]","[0.0, -0.0, 0.2770056722340743]",0.5048931486599629,-0.29295066927588304,"(0.0, 0.0, 0.0, 0.0, 0.0, 0.0)",-1.9963616428708193,-0.8214679759717441,0.19621939450011455,"(0.0, 0.0, 0.0, 0.0, 0.0, 0.0)",-1.0156597264557363,-0.5460822593975737,-0.30121928759586836,"(0.0, 0.0, 0.0, 0.0, 0.0, 0.0)",1.6731854015209966,0.8211745359545094,-0.1579887362091888,"(0.0, 0.0, 0.0, 0.0, 0.0, 0.0)",0.8091094324949208,True,"(-0.027683167824127546, 0.18214324696940654, 0.023997006173699154)","(0.997132844593594, 0.07561171637364691, -0.002993088658637358)",-0.0027773440297600032,16.59652478682853,True,"(0.032731068312273744, 0.18155247967828003, 0.023997716044379027)","(-0.9953040509812058, -0.09677103449881742, -0.0022831956617496516)",9.98700121133402e-05,3.8623796131450563
74,Move,"(-0.0038, 0.0, 0.0088)","(0.0, 0.06804340621825093, 0.0)","(0.003104463034374061, 0.16075536904239068, 0.04797935310021013)","(-0.0049852015388738525, 0.003064237738501596, 0.07405016390597605)","[-0.0068943635643481035, 0.0007276265204612387, 0.0004287940859924941]","[-0.026750000193715096, 0.05299999937415123, 0.03999999910593033]","[0.0, -0.0, 0.5048931123688655]","[-0.06157740205526352, 0.11601628363132477, 0.03999999910593033]","[0.0, 0.0, -0.3165748072881715]","[0.026750000193715096, 0.05299999937415123, 0.03999999910593033]","[0.0, 0.0, -0.5460821799840747]","[0.06414271146059036, 0.11452873051166534, 0.03999999910593033]","[0.0, -0.0, 0.27509226244299684]",0.5039159562757172,-0.2345261722189818,"(0.0, 0.0, 0.0, 0.0, 0.0, 0.0)",-1.8396948945552891,-0.8207185532362322,0.17986145652287053,"(0.0, 0.0, 0.0, 0.0, 0.0, 0.0)",-0.9471042810316763,-0.5471211577560691,-0.24933560603887187,"(0.0, 0.0, 0.0, 0.0, 0.0, 0.0)",1.5570570563636417,0.8205593597223888,-0.14764229570895354,"(0.0, 0.0, 0.0, 0.0, 0.0, 0.0)",0.7714599455588305,True,"(-0.0275795716979163, 0.18217162365365575, 0.023996874114528454)","(0.9971992363366835, 0.07472560799517616, -0.0031251494822345776)",-0.0026766860046402003,15.393809237277171,True,"(0.03293652983326493, 0.1815654288395599, 0.023997716044379027)","(-0.9953040509812058, -0.09677103449881742, -0.0022831956617496516)",0.00010450767252610884,2.8248491889853784
75,Move,"(-0.0006, 0.0, 0.010400000000000001)","(0.0, 0.07666009673534695, 0.0)","(0.003186597441770352, 0.16078438817738328, 0.04803631662907639)","(-0.005577961164051255, 0.0029785068385763547, 0.07370439084772987)","[-0.006812229156951812, 0.0007566456554538303, 0.0004857576148587575]","[-0.026750000193715096, 0.05299999937415123, 0.03999999910593033]","[0.0, -0.0, 0.5039159604522905]","[-0.06151580810546875, 0.11605028808116913, 0.03999999910593033]","[0.0, 0.0, -0.31680259904490776]","[0.026750000193715096, 0.05299999937415123, 0.03999999910593033]","[0.0, 0.0, -0.5471212149470187]","[0.06420661509037018, 0.1144898533821106, 0.03999999910593033]","[0.0, -0.0, 0.2734382021297207]",0.503625229746798,-0.06977436694060102,"(0.0, 0.0, 0.0, 0.0, 0.0, 0.0)",-1.5511073670573183,-0.8200357881032879,0.16386363190661787,"(0.0, 0.0, 0.0, 0.0, 0.0, 0.0)",-0.8482399189661881,-0.547502262132217,-0.09146505027550614,"(0.0, 0.0, 0.0, 0.0, 0.0, 0.0)",1.6461976967036367,0.819959376884552,-0.14399588108084382,"(0.0, 0.0, 0.0, 0.0, 0.0, 0.0)",0.7682505152801673,True,"(-0.027502870123513698, 0.18219736492957272, 0.023996935030284015)","(0.9972548573088826, 0.07398216035173494, -0.0030642329432001222)",-0.0025735013283637617,14.432372584098719,True,"(0.03311135807684788, 0.1815780740411839, 0.023997716044379027)","(-0.9953040509812058, -0.09677103449881742, -0.0022831956617496516)",0.00010234170302859216,2.391366213189189
76,Move,"(-0.0007, 0.0, 0.0115)","(0.0, 0.08109672369391652, 0.0)","(0.0033692960057646005, 0.1607834416301515, 0.04805696440617464)","(-0.005391590074101996, 0.002251514576801593, 0.07332278378607616)","[-0.006629530592957564, 0.0007556991082220688, 0.00050640539195701]","[-0.026750000193715096, 0.05299999937415123, 0.03999999910593033]","[0.0, -0.0, 0.5036252093186723]","[-0.06149747595191002, 0.11606039106845856, 0.03999999910593033]","[0.0, 0.0, -0.31641054357047704]","[0.026750000193715096, 0.05299999937415123, 0.03999999910593033]","[0.0, 0.0, -0.5475022976024222]","[0.0642300471663475, 0.11447557061910629, 0.03999999910593033]","[0.0, -0.0, 0.2724571314332724]",0.5025751351660076,-0.2520226993896943,"(0.0, 0.0, 0.0, 0.0, 0.0, 0.0)",-1.8150759971305996,-0.8194082675246993,0.1506049388612639,"(0.0, 0.0, 0.0, 0.0, 0.0, 0.0)",-0.8206185967234257,-0.5486046090364105,-0.26456325700644073,"(0.0, 0.0, 0.0, 0.0, 0.0, 0.0)",0.9404066518902264,0.8194627370301755,-0.11919356505036793,"(0.0, 0.0, 0.0, 0.0, 0.0, 0.0)",0.5872254046006244,True,"(-0.027510418224544426, 0.18222006314204664, 0.023997020759709126)","(0.9972806370521478, 0.07363735114810462, -0.0029785024346058115)",-0.0024735281822846045,12.02028471921444,True,"(0.033200623759282136, 0.18159426956385008, 0.023997716044379027)","(-0.9953040509812058, -0.09677103449881742, -0.0022831956617496516)",0.00010025326154867954,3.243689001137051
77,Move,"(-0.001, 0.0, 0.014400000000000001)","(0.0, 0.059498274200486694, 0.0)","(0.003527182566148235, 0.16078640922206922, 0.04807574001510376)","(-0.005304601602878544, 0.001768221249050567, 0.07308861361168807)","[-0.00647164403257393, 0.0007586667001397707, 0.0005251810008861241]","[-0.026750000193715096, 0.05299999937415123, 0.03999999910593033]","[0.0, -0.0, 0.502575172536323]","[-0.06143123656511307, 0.1160968467593193, 0.03999999910593033]","[0.0, 0.0, -0.3168331123275519]","[0.026750000193715096, 0.05299999937415123, 0.03999999910593033]","[0.0, 0.0, -0.5486046168987749]","[0.06429779529571533, 0.11443421989679337, 0.03999999910593033]","[0.0, -0.0, 0.2708581014986491]",0.5016401926249682,-0.22438620984946167,"(0.0, 0.0, 0.0, 0.0, 0.0, 0.0)",-1.5746133902653536,-0.8187317187334089,0.16237170990970226,"(0.0, 0.0, 0.0, 0.0, 0.0, 0.0)",-0.8182044725453784,-0.5495964659102126,-0.2380456497124964,"(0.0, 0.0, 0.0, 0.0, 0.0, 0.0)",1.2675387165986383,0.8189493754576124,-0.12320677741514732,"(0.0, 0.0, 0.0, 0.0, 0.0, 0.0)",0.6263086458255822,True,"(-0.027416226485756097, 0.182242189544993, 0.023997747741280735)","(0.9973105609529735, 0.07325691573047248, -0.0022515126745278453)",-0.00236044470953456,12.605108778574488,True,"(0.03337572990974458, 0.18160244601979825, 0.023997716044379027)","(-0.9953040509812058, -0.09677103449881742, -0.0022831956617496516)",6.919893650286469e-05,5.01528691373845
78,Move,"(-0.0047, 0.0, 0.0167)","(0.0, 0.024726079513003672, 0.0)","(0.003681013674168227, 0.16077839127143523, 0.04807984789370189)","(-0.004698304807575659, 0.0013769161108335615, 0.07298380719434219)","[-0.006317812924553938, 0.0007506487495057834, 0.000529288879484259]","[-0.026750000193715096, 0.05299999937415123, 0.03999999910593033]","[0.0, -0.0, 0.5016401528279828]","[-0.06137222796678543, 0.11612924188375473, 0.03999999910593033]","[0.0, 0.0, -0.3170915269041538]","[0.026750000193715096, 0.05299999937415123, 0.03999999910593033]","[0.0, 0.0, -0.549596518560303]","[0.06435871124267578, 0.11439694464206696, 0.03999999910593033]","[0.0, -0.0, 0.2693528934376905]",0.5007958550732022,-0.2026410124238307,"(0.0, 0.0, 0.0, 0.0, 0.0, 0.0)",-1.4822529639031865,-0.8181107648164725,0.1490289400647433,"(0.0, 0.0, 0.0, 0.0, 0.0, 0.0)",-0.7675361507692957,-0.5505327287797132,-0.2247030886801236,"(0.0, 0.0, 0.0, 0.0, 0.0, 0.0)",1.1532553845202245,0.8184859056758662,-0.11123274761906773,"(0.0, 0.0, 0.0, 0.0, 0.0, 0.0)",0.5710364366518121,True,"(-0.02734012980406278, 0.18226581968232902, 0.023998231031464822)","(0.9973286569552324, 0.07302344426788655, -0.0017682203276283236)",-0.0022632197793194726,11.775016888473493,True,"(0.03353778322857799, 0.18161164212135175, 0.023997716044379027)","(-0.9953040509812058, -0.09677103449881742, -0.0022831956617496516)",5.811228598569691e-05,5.405155884514535
79,Move,"(-0.0044, 0.0, 0.0176)","(0.0, 0.014041173832294382, 0.0)","(0.003736472139847524, 0.16077514272497995, 0.048092874482125465)","(-0.004205528719600808, 0.0011919439016642203, 0.07306572326478493)","[-0.006262354458874641, 0.0007474002030505023, 0.0005423154679078321]","[-0.026750000193715096, 0.05299999937415123, 0.03999999910593033]","[0.0, -0.0, 0.5007958369492811]","[-0.06131891533732414, 0.11615845561027527, 0.03999999910593033]","[0.0, 0.0, -0.3173148985542903]","[0.026750000193715096, 0.05299999937415123, 0.03999999910593033]","[0.0, 0.0, -0.5505327202359318]","[0.06441617757081985, 0.1143617108464241, 0.03999999910593033]","[0.0, -0.0, 0.26795317290770576]",0.5007692232313722,-0.006391642039215467,"(0.0, 0.0, 0.0, 0.0, 0.0, 0.0)",-1.0766606418914433,-0.8175689813485172,0.13002803230927962,"(0.0, 0.0, 0.0, 0.0, 0.0, 0.0)",-0.6245269146617692,-0.5507000972897808,-0.040168442416211064,"(0.0, 0.0, 0.0, 0.0, 0.0, 0.0)",1.3465288254424692,0.8180350827924222,-0.108197492026551,"(0.0, 0.0, 0.0, 0.0, 0.0, 0.0)",0.5765470489974609,True,"(-0.02727205012531001, 0.18228754446721052, 0.023998622330433216)","(0.9973369185190644, 0.07291896229458554, -0.0013769156757517176)",-0.002167949775189142,10.890545791050537,True,"(0.03368936318394122, 0.1816194787750312, 0.023997716044379027)","(-0.9953040509812058, -0.09677103449881742, -0.0022831956617496516)",4.57777163868326e-05,5.606573924694981
80,Move,"(-0.0039, 0.0, 0.018000000000000002)","(0.0, 0.035192819037213656, 0.0)","(0.003806141467605193, 0.1607685413480124, 0.048103173309746804)","(-0.003611106607242571, 0.0009854801427491193, 0.0730591053631798)","[-0.006192685131116971, 0.0007407988260829668, 0.0005526142955291705]","[-0.026750000193715096, 0.05299999937415123, 0.03999999910593033]","[0.0, -0.0, 0.5007692077149152]","[-0.06131723150610924, 0.11615937203168869, 0.03999999910593033]","[0.0, 0.0, -0.31679975748231604]","[0.026750000193715096, 0.05299999937415123, 0.03999999910593033]","[0.0, 0.0, -0.5507000862050984]","[0.06442644447088242, 0.11435540020465851, 0.03999999910593033]","[0.0, -0.0, 0.26733497039009085]",0.5006059065798594,-0.03919599636307862,"(0.0, 0.0, 0.0, 0.0, 0.0, 0.0)",-1.3763969225114596,-0.8170523605807807,0.1239889842567537,"(0.0, 0.0, 0.0, 0.0, 0.0, 0.0)",-0.6442307720112204,-0.5509976137701645,-0.0714039552921123,"(0.0, 0.0, 0.0, 0.0, 0.0, 0.0)",0.9330840579418416,0.8176187173674865,-0.09992770198457741,"(0.0, 0.0, 0.0, 0.0, 0.0, 0.0)",0.5002287751649002,True,"(-0.027304407155503994, 0.18230556354583483, 0.02399880730110886)","(0.9973311788879222, 0.07300067731490874, -0.0011919436194258398)",-0.002079417426933312,10.586372311791616,True,"(0.033741216717460915, 0.18163215598179094, 0.023997716044379027)","(-0.9953040509812058, -0.09677103449881742, -0.0022831956617496516)",4.041607662305964e-05,5.551115417531935
81,Move,"(-0.001, 0.0, 0.019)","(0.0, 0.026628488397677487, 0.0)","(0.003880404456289781, 0.16076109390083307, 0.04811392613739251)","(-0.002987129455617201, 0.0008866897157472862, 0.07302769487012477)","[-0.006118422142432384, 0.0007333513789036239, 0.0005633671231748752]","[-0.026750000193715096, 0.05299999937415123, 0.03999999910593033]","[0.0, -0.0, 0.5006059078122916]","[-0.0613069161772728, 0.11616501957178116, 0.03999999910593033]","[0.0, 0.0, -0.31644651513712635]","[0.026750000193715096, 0.05299999937415123, 0.03999999910593033]","[0.0, 0.0, -0.5509976226789276]","[0.06444469839334488, 0.11434419453144073, 0.03999999910593033]","[0.0, -0.0, 0.2666211101837881]",0.500372091399219,-0.05611564335368997,"(0.0, 0.0, 0.0, 0.0, 0.0, 0.0)",-1.3327986166847847,-0.8165354724986188,0.12405313971886042,"(0.0, 0.0, 0.0, 0.0, 0.0, 0.0)",-0.6319112105509682,-0.5513490245777047,-0.08433859380963896,"(0.0, 0.0, 0.0, 0.0, 0.0, 0.0)",0.9455217828947652,0.8172053272122957,-0.09921363724580634,"(0.0, 0.0, 0.0, 0.0, 0.0, 0.0)",0.49062924616164144,True,"(-0.027317437000287458, 0.18232286191579286, 0.023999013760057728)","(0.9973318861572326, 0.07299409348200689, -0.0009854799830535065)",-0.001993555135695592,10.447396517385318,True,"(0.03380750476461088, 0.18164283238728865, 0.023997716044379027)","(-0.9953040509812058, -0.09677103449881742, -0.0022831956617496516)",3.326953195100585e-05,5.799874702728225
82,Move,"(-0.0007, 0.0, 0.019899999999999998)","(0.0, 0.018053685782629343, 0.0)","(0.004030321450308487, 0.16074167469858222, 0.04811443130714927)","(-0.0020146701292171184, 0.0007331746676182266, 0.07267702440273563)","[-0.005968505148413678, 0.0007139321766527762, 0.0005638722929316373]","[-0.026750000193715096, 0.05299999937415123, 0.03999999910593033]","[0.0, -0.0, 0.5003721474035149]","[-0.061292149126529694, 0.11617309600114822, 0.03999999910593033]","[0.0, 0.0, -0.31616339878903554]","[0.026750000193715096, 0.05299999937415123, 0.03999999910593033]","[0.0, 0.0, -0.5513490732945777]","[0.06446625292301178, 0.11433093994855881, 0.03999999910593033]","[0.0, -0.0, 0.26585631403641485]",0.4994907878210054,-0.21151285877125764,"(0.0, 0.0, 0.0, 0.0, 0.0, 0.0)",-1.514081500717245,-0.8160236965808411,0.12282622026665047,"(0.0, 0.0, 0.0, 0.0, 0.0, 0.0)",-0.6717488159735804,-0.5523368076153565,-0.23706792903644072,"(0.0, 0.0, 0.0, 0.0, 0.0, 0.0)",0.6744899574568266,0.8168284850397393,-0.09044212141352945,"(0.0, 0.0, 0.0, 0.0, 0.0, 0.0)",0.42596024794072773,True,"(-0.027321372883084713, 0.18234024533631793, 0.023999112550441255)","(0.9973342706754919, 0.0729627735063511, -0.0008866895995270197)",-0.0019142553423486394,10.065851270209183,True,"(0.033880538469126656, 0.18165299394563772, 0.023997716044379027)","(-0.9953040509812058, -0.09677103449881742, -0.0022831956617496516)",3.041433704310918e-05,5.664527212545893
83,Move,"(-0.0003, 0.0, 0.0213)","(0.0, 0.009473647179825222, 0.0)","(0.0041780158558332265, 0.16071832768477673, 0.04811021617731846)","(-0.0008628597753150013, 0.0006441852390746578, 0.07233198190154452)","[-0.005820810742888938, 0.0006905851628472848, 0.0005596571631008296]","[-0.026750000193715096, 0.05299999937415123, 0.03999999910593033]","[0.0, -0.0, 0.4994907966273671]","[-0.061236459761857986, 0.11620351672172546, 0.03999999910593033]","[0.0, 0.0, -0.3165329065162756]","[0.026750000193715096, 0.05299999937415123, 0.03999999910593033]","[0.0, 0.0, -0.5523368448364322]","[0.06452681869268417, 0.1142936572432518, 0.03999999910593033]","[0.0, -0.0, 0.26449170399155636]",0.4986093579917508,-0.21154315902111018,"(0.0, 0.0, 0.0, 0.0, 0.0, 0.0)",-1.236973563202429,-0.8155193843552602,0.12103493413942389,"(0.0, 0.0, 0.0, 0.0, 0.0, 0.0)",-0.6261138586427245,-0.5533268391707626,-0.23760757329745413,"(0.0, 0.0, 0.0, 0.0, 0.0, 0.0)",0.901921127084128,0.8164575732788165,-0.08901882262144936,"(0.0, 0.0, 0.0, 0.0, 0.0, 0.0)",0.44022763948809823,True,"(-0.027241237773493424, 0.1823581240756212, 0.023999266065438854)","(0.997359919252412, 0.07261304238100194, -0.0007331746019289035)",-0.001835317094914648,9.679773513725177,True,"(0.03403299954274143, 0.1816573838960382, 0.023997716044379027)","(-0.9953040509812058, -0.09677103449881742, -0.0022831956617496516)",2.473132206348645e-05,5.7278380428392275
84,Move,"(-0.0004, 0.0, 0.0225)","(0.0, 0.009473647179825222, 0.0)","(0.00433194647574699, 0.1606895071053027, 0.048100589915437385)","(0.0004525457096551569, 0.0005472520068784798, 0.07194072619477977)","[-0.005666880122975174, 0.0006617645833732477, 0.0005500309012197516]","[-0.026750000193715096, 0.05299999937415123, 0.03999999910593033]","[0.0, -0.0, 0.4986093893357846]","[-0.06118073686957359, 0.11623388528823853, 0.03999999910593033]","[0.0, 0.0, -0.31691003723278]","[0.026750000193715096, 0.05299999937415123, 0.03999999910593033]","[0.0, 0.0, -0.5533268089612124]","[0.06458748131990433, 0.11425622552633286, 0.03999999910593033]","[0.0, -0.0, 0.2631307389309327]",0.49766436029489386,-0.22679944724566747,"(0.0, 0.0, 0.0, 0.0, 0.0, 0.0)",-1.2094361140776118,-0.8150368082353091,0.11581826878825625,"(0.0, 0.0, 0.0, 0.0, 0.0, 0.0)",-0.6072698336009078,-0.5543750057742632,-0.25155998484014436,"(0.0, 0.0, 0.0, 0.0, 0.0, 0.0)",0.8421905580895342,0.8161063839465372,-0.0842854397470167,"(0.0, 0.0, 0.0, 0.0, 0.0, 0.0)",0.41617662795653215,True,"(-0.02716057152810729, 0.18237570400894182, 0.023999355054846242)","(0.9973849755926528, 0.07226891093325227, -0.0006441851945416723)",-0.0017610507431864413,9.254827844991524,True,"(0.03418537009950834, 0.18166139158146585, 0.023997716044379027)","(-0.9953040509812058, -0.09677103449881742, -0.0022831956617496516)",2.304294723894245e-05,5.533592159478122
85,Move,"(-0.0006, 0.0, 0.023600000000000003)","(0.0, 0.03126582822022642, 0.0)","(0.004467350328651302, 0.160702556671683, 0.04814645823628541)","(0.00024954016234753534, 0.0007129134072245362, 0.0712331257407275)","[-0.005531476270070863, 0.0006748141497535665, 0.0005958992220677778]","[-0.026750000193715096, 0.05299999937415123, 0.03999999910593033]","[0.0, -0.0, 0.49766437647598444]","[-0.06112096458673477, 0.1162663921713829, 0.03999999910593033]","[0.0, 0.0, -0.3173724491741068]","[0.026750000193715096, 0.05299999937415123, 0.03999999910593033]","[0.0, 0.0, -0.5543750171407639]","[0.06465166807174683, 0.11421652883291245, 0.03999999910593033]","[0.0, -0.0, 0.26173137963264653]",0.49677906638580444,-0.2124705381814624,"(0.0, 0.0, 0.0, 0.0, 0.0, 0.0)",-1.1392967380298369,-0.8145705314345781,0.11190643217544546,"(0.0, 0.0, 0.0, 0.0, 0.0, 0.0)",-0.5686163071020799,-0.5553613666979227,-0.23672662167827835,"(0.0, 0.0, 0.0, 0.0, 0.0, 0.0)",0.8661897286346287,0.8157435880280778,-0.08707102043026883,"(0.0, 0.0, 0.0, 0.0, 0.0, 0.0)",0.42261874962897467,True,"(-0.027070223576313564, 0.18239254499282592, 0.023999451988061235)","(0.9974132324709606, 0.07187867699881864, -0.0005472519795479653)",-0.0016892352032667572,9.361244748196455,True,"(0.03434390958753877, 0.18166417531862344, 0.023997716044379027)","(-0.9953040509812058, -0.09677103449881742, -0.0022831956617496516)",2.0581846221320347e-05,4.934794657282725
86,Move,"(-0.0007, 0.0, 0.0247)","(0.0, 0.05316796500350326, 0.0)","(0.0045901832667051235, 0.16071675872080482, 0.04818689743751333)","(5.591270519836454e-05, 0.0008082912713124477, 0.07067358373180851)","[-0.005408643332017041, 0.0006890161988753751, 0.0006363384232956973]","[-0.026750000193715096, 0.05299999937415123, 0.03999999910593033]","[0.0, -0.0, 0.49677904119372224]","[-0.0610649436712265, 0.11629679799079895, 0.03999999910593033]","[0.0, 0.0, -0.3177914995293524]","[0.026750000193715096, 0.05299999937415123, 0.03999999910593033]","[0.0, 0.0, -0.5553613366966849]","[0.0647120252251625, 0.11417911946773529, 0.03999999910593033]","[0.0, -0.0, 0.2603822110186442]",0.49599750091566414,-0.18757571283367538,"(0.0, 0.0, 0.0, 0.0, 0.0, 0.0)",-1.0930325543936246,-0.8141170137698545,0.10884423953368869,"(0.0, 0.0, 0.0, 0.0, 0.0, 0.0)",-0.5586169362505927,-0.556228045434528,-0.20800289678526626,"(0.0, 0.0, 0.0, 0.0, 0.0, 0.0)",0.8722964459731769,0.815391782537178,-0.08443331781593595,"(0.0, 0.0, 0.0, 0.0, 0.0, 0.0)",0.4233568936169424,True,"(-0.026986475285540656, 0.18240838709875476, 0.023999286326693958)","(0.9974637400339347, 0.07117288157771354, -0.0007129133468275583)",-0.0016250309000119983,9.02616313766025,True,"(0.034495297740703396, 0.18166758934265476, 0.023997716044379027)","(-0.9953040509812058, -0.09677103449881742, -0.0022831956617496516)",2.6922534646945423e-05,4.264576237565218
87,Move,"(-0.001, 0.0, 0.0257)","(0.0, 0.06176196624032335, 0.0)","(0.004703547741058599, 0.16072923519900648, 0.04822250662395222)","(-0.00012313437589967025, 0.0008252616560822891, 0.070200908688283)","[-0.005295278857663566, 0.0007014926770770313, 0.0006719476097345883]","[-0.026750000193715096, 0.05299999937415123, 0.03999999910593033]","[0.0, -0.0, 0.4959974746912113]","[-0.06101546064019203, 0.11632359772920609, 0.03999999910593033]","[0.0, 0.0, -0.31811953492305506]","[0.026750000193715096, 0.05299999937415123, 0.03999999910593033]","[0.0, 0.0, -0.5562280800300032]","[0.06476503610610962, 0.11414619535207748, 0.03999999910593033]","[0.0, -0.0, 0.2591637296055985]",0.4952835362388652,-0.17135152243174698,"(0.0, 0.0, 0.0, 0.0, 0.0, 0.0)",-1.0636290339223753,-0.8136774412927914,0.10549739449512907,"(0.0, 0.0, 0.0, 0.0, 0.0, 0.0)",-0.5420044079538203,-0.5570075606051851,-0.18708364095771335,"(0.0, 0.0, 0.0, 0.0, 0.0, 0.0)",0.8269183873490716,0.8150506705851934,-0.08186686847631526,"(0.0, 0.0, 0.0, 0.0, 0.0, 0.0)",0.4086281825646829,True,"(-0.02691529198908902, 0.18242377329489118, 0.023999190948857465)","(0.9975033357388794, 0.07061474247755377, -0.0008082911833188896)",-0.0015625693881552002,8.635375219576273,True,"(0.0346305621666614, 0.18167143398750524, 0.023997716044379027)","(-0.9953040509812058, -0.09677103449881742, -0.0022831956617496516)",3.064599930185191e-05,3.846545948194616
88,Move,"(-0.0034, 0.0, 0.0273)","(0.0, 0.06176196624032335, 0.0)","(0.004804928955336691, 0.16074021543883485, 0.048254622254387966)","(-0.00028442914403190446, 0.0007830518360089755, 0.06981028169205596)","[-0.005193897643385474, 0.0007124729169054045, 0.0007040632401703328]","[-0.026750000193715096, 0.05299999937415123, 0.03999999910593033]","[0.0, -0.0, 0.49528353513195894]","[-0.0609702430665493, 0.11634805053472519, 0.03999999910593033]","[0.0, 0.0, -0.3183938806760695]","[0.026750000193715096, 0.05299999937415123, 0.03999999910593033]","[0.0, 0.0, -0.557007562725415]","[0.06481269001960754, 0.11411654204130173, 0.03999999910593033]","[0.0, -0.0, 0.2580430934069622]",0.49466511237122024,-0.14842172823478691,"(0.0, 0.0, 0.0, 0.0, 0.0, 0.0)",-1.001000712301534,-0.8132592990711857,0.10035413318536714,"(0.0, 0.0, 0.0, 0.0, 0.0, 0.0)",-0.5153556907659285,-0.5576846402613632,-0.16249911748274115,"(0.0, 0.0, 0.0, 0.0, 0.0, 0.0)",0.7928975317901037,0.8147240596452783,-0.07838662557962778,"(0.0, 0.0, 0.0, 0.0, 0.0, 0.0)",0.39168796962721414,True,"(-0.026851922444531613, 0.1824386643796294, 0.023999173978478377)","(0.9975365883052995, 0.07014323870179485, -0.0008252615624040792)",-0.001502024282982332,8.191599542182189,True,"(0.034753904519077734, 0.18167550921823744, 0.023997716044379027)","(-0.9953040509812058, -0.09677103449881742, -0.0022831956617496516)",3.1807991247503474e-05,3.5528579487252014
89,Move,"(-0.0032, 0.0, 0.027899999999999998)","(0.0, 0.057002453370134806, 0.0)","(0.004841727490014217, 0.16075163335476722, 0.04828409654555341)","(-0.0004273787233427097, 0.0007000176251523209, 0.06973941031755738)","[-0.005157099108707947, 0.0007238908328377758, 0.0007335375313357734]","[-0.026750000193715096, 0.05299999937415123, 0.03999999910593033]","[0.0, -0.0, 0.4946651239927535]","[-0.06093106046319008, 0.11636919528245926, 0.03999999910593033]","[0.0, 0.0, -0.3185941853939701]","[0.026750000193715096, 0.05299999937415123, 0.03999999910593033]","[0.0, 0.0, -0.5576846466153259]","[0.06485406309366226, 0.11409075558185577, 0.03999999910593033]","[0.0, -0.0, 0.25703943279329766]",0.49460627482521596,-0.01412101104102459,"(0.0, 0.0, 0.0, 0.0, 0.0, 0.0)",-0.7612512393401568,-0.8128879993938833,0.08911192255255974,"(0.0, 0.0, 0.0, 0.0, 0.0, 0.0)",-0.4472342196700799,-0.557818593441111,-0.032148763139457,"(0.0, 0.0, 0.0, 0.0, 0.0, 0.0)",0.9252467022024038,0.8144080941865158,-0.07583171010299379,"(0.0, 0.0, 0.0, 0.0, 0.0, 0.0)",0.40446477944903475,True,"(-0.026799490576614578, 0.18245279040219692, 0.02399921618828478)","(0.9975639459010951, 0.06975357100668292, -0.0007830517560022898)",-0.0014430935173940975,7.660215037195946,True,"(0.03486309998779541, 0.18167985942389142, 0.023997716044379027)","(-0.9953040509812058, -0.09677103449881742, -0.0022831956617496516)",3.1040314973632165e-05,3.278095977585846
90,Move,"(-0.0004, 0.0, 0.0296)","(0.0, 0.05227784708498615, 0.0)","(0.004888422751053957, 0.16076190420411343, 0.04831249698748249)","(-0.000554016148220591, 0.0005980808478667057, 0.06959887132842314)","[-0.005110403847668208, 0.0007341616821839869, 0.0007619379732648549]","[-0.026750000193715096, 0.05299999937415123, 0.03999999910593033]","[0.0, -0.0, 0.4946062582354569]","[-0.06092733144760132, 0.11637120693922043, 0.03999999910593033]","[0.0, 0.0, -0.3182817304058642]","[0.026750000193715096, 0.05299999937415123, 0.03999999910593033]","[0.0, 0.0, -0.5578186403378963]","[0.06486224383115768, 0.11408565193414688, 0.03999999910593033]","[0.0, -0.0, 0.2565895185064535]",0.4944620167108537,-0.03462194744694001,"(0.0, 0.0, 0.0, 0.0, 0.0, 0.0)",-0.9154872627611266,-0.812539853130134,0.08355510329984354,"(0.0, 0.0, 0.0, 0.0, 0.0, 0.0)",-0.43472783952271865,-0.5580430670311232,-0.05387366160291725,"(0.0, 0.0, 0.0, 0.0, 0.0, 0.0)",0.6026047781362577,0.8141186622316917,-0.06946366915779233,"(0.0, 0.0, 0.0, 0.0, 0.0, 0.0)",0.333597719978945,True,"(-0.026816385469014714, 0.18246508062655747, 0.02399929922247281)","(0.9975689483503613, 0.06968287639412546, -0.0007000175679719487)",-0.0013859048916404096,7.0741966494226025,True,"(0.03490169557869593, 0.1816882413667911, 0.023997716044379027)","(-0.9953040509812058, -0.09677103449881742, -0.0022831956617496516)",2.933124150972691e-05,3.120932423161394
91,Move,"(-0.0028, 0.0, 0.0302)","(0.0, 0.057002453370134806, 0.0)","(0.005006747097721508, 0.16076827280278963, 0.04834092995348876)","(-0.0006682966849359395, 0.000520452900628691, 0.06906797102307119)","[-0.004992079501000657, 0.0007405302808601855, 0.0007903709392711247]","[-0.026750000193715096, 0.05299999937415123, 0.03999999910593033]","[0.0, -0.0, 0.4944620128794651]","[-0.06091818958520889, 0.11637613922357559, 0.03999999910593033]","[0.0, 0.0, -0.3180778400896595]","[0.026750000193715096, 0.05299999937415123, 0.03999999910593033]","[0.0, 0.0, -0.5580431041936531]","[0.06487595289945602, 0.11407709121704102, 0.03999999910593033]","[0.0, -0.0, 0.2560755793238511]",0.4936832758429323,-0.1868978083011418,"(0.0, 0.0, 0.0, 0.0, 0.0, 0.0)",-1.0924824835647307,-0.8121831898328942,0.08559919133754997,"(0.0, 0.0, 0.0, 0.0, 0.0, 0.0)",-0.4603605108226378,-0.5588905294112445,-0.20339097122912728,"(0.0, 0.0, 0.0, 0.0, 0.0, 0.0)",0.3642001881154745,0.8138511771479919,-0.06419642008795898,"(0.0, 0.0, 0.0, 0.0, 0.0, 0.0)",0.2795127432923176,True,"(-0.026820695691007312, 0.1824766201836513, 0.023999401159228582)","(0.9975787976615439, 0.06954268297592796, -0.000598080812202109)",-0.0013292966508827043,6.8541326738653945,True,"(0.034950152034367424, 0.18169507260013645, 0.023997716044379027)","(-0.9953040509812058, -0.09677103449881742, -0.0022831956617496516)",2.585261828092616e-05,3.0772147735425524
92,Move,"(0.0003, 0.0, 0.0312)","(0.0, 0.06176196624032335, 0.0)","(0.00505203420700456, 0.16077787077723457, 0.0483682460551772)","(-0.0007741655779167715, 0.0004979434450376894, 0.06896195188462434)","[-0.004946792391717605, 0.0007501282553051269, 0.0008176870409595666]","[-0.026750000193715096, 0.05299999937415123, 0.03999999910593033]","[0.0, -0.0, 0.49368331076862737]","[-0.060868825763463974, 0.11640273034572601, 0.03999999910593033]","[0.0, 0.0, -0.31849988750261626]","[0.026750000193715096, 0.05299999937415123, 0.03999999910593033]","[0.0, 0.0, -0.5588905423141424]","[0.06492770463228226, 0.11404476314783096, 0.03999999910593033]","[0.0, -0.0, 0.254960642217136]",0.49353206825159845,-0.036289821920121035,"(0.0, 0.0, 0.0, 0.0, 0.0, 0.0)",-0.6262858433469084,-0.8118522581618796,0.07942360104350173,"(0.0, 0.0, 0.0, 0.0, 0.0, 0.0)",-0.3933022756555809,-0.5591224934284417,-0.05567136412732773,"(0.0, 0.0, 0.0, 0.0, 0.0, 0.0)",0.8629869310816374,0.8135745288285062,-0.0663955966765744,"(0.0, 0.0, 0.0, 0.0, 0.0, 0.0)",0.35593788028951046,True,"(-0.02674342769448755, 0.18248870289467758, 0.02399947878716366)","(0.997615620616313, 0.06901306130821187, -0.0005204528771272695)",-0.0012741917177034236,6.7682844857885405,True,"(0.035077307955141905, 0.1816960640220197, 0.023997716044379027)","(-0.9953040509812058, -0.09677103449881742, -0.0022831956617496516)",2.2877282934849206e-05,3.0055145858127137
