OSUrobotics/InHand-Manipulation/AnalyseData/Data/Trial Data/Tries/new_hand_human_sub1_2v2_c_n_1_kpNone_kdNone_dp5_step5_save_data.csv
,Phase,human_cube_pos,human_cube_orn,Cube_Pos,Cube_Orn,Cube_pos_in_start_pos,b'l_prox_pin'_link_pos,b'l_prox_pin'_link_orn,b'l_distal_pin'_link_pos,b'l_distal_pin'_link_orn,b'r_prox_pin'_link_pos,b'r_prox_pin'_link_orn,b'r_distal_pin'_link_pos,b'r_distal_pin'_link_orn,b'l_prox_pin'_joint_angle,b'l_prox_pin'_joint_vel,b'l_prox_pin'_joint_react_forces,b'l_prox_pin'_joint_motor_torque,b'l_distal_pin'_joint_angle,b'l_distal_pin'_joint_vel,b'l_distal_pin'_joint_react_forces,b'l_distal_pin'_joint_motor_torque,b'r_prox_pin'_joint_angle,b'r_prox_pin'_joint_vel,b'r_prox_pin'_joint_react_forces,b'r_prox_pin'_joint_motor_torque,b'r_distal_pin'_joint_angle,b'r_distal_pin'_joint_vel,b'r_distal_pin'_joint_react_forces,b'r_distal_pin'_joint_motor_torque,in_contact_l,contact_point_l_dist,contact_normal_l_dist,contact_distance_l_dist,contact_norm_force_l_dist,in_contact_r,contact_point_r_dist,contact_normal_r_dist,contact_distance_r_dist,contact_norm_force_r_dist
0,Open,,,,,,"[-0.026750000193715096, 0.05299999937415123, 0.03999999910593033]","[0.0, -0.0, 0.4254700097131474]","[-0.056467924267053604, 0.11858082562685013, 0.03999999910593033]","[0.0, -0.0, 0.4254700097131474]","[0.026750000193715096, 0.05299999937415123, 0.03999999910593033]","[0.0, 0.0, -0.4429245237535421]","[0.057608019560575485, 0.1180521547794342, 0.03999999910593033]","[0.0, 0.0, -0.5266622746639338]",0.5399229999999999,27.46872,"(0.0, 0.0, 0.0, 0.0, 0.0, 0.0)",-4.377393708535371,5.294901130302062e-32,0.0,"(0.0, 0.0, 0.0, 0.0, 0.0, 0.0)",-0.30017707799641646,-0.5623038734984663,-28.651050680519948,"(0.0, 0.0, 0.0, 0.0, 0.0, 0.0)",144.45470973647488,-0.10456727132876567,-4.999096204557077,"(0.0, 0.0, 0.0, 0.0, 0.0, 0.0)",33.97911746732963,False,,,,,False,,,,
1,Open,,,,,,"[-0.026750000193715096, 0.05299999937415123, 0.03999999910593033]","[0.0, -0.0, 0.894166469119967]","[-0.08288749307394028, 0.09808415919542313, 0.03999999910593033]","[0.0, -0.0, 0.894166894674561]","[0.026750000193715096, 0.05299999937415123, 0.03999999910593033]","[0.0, 0.0, -0.9122733503889549]","[0.08369457721710205, 0.09706035256385803, 0.03999999910593033]","[0.0, 0.0, -0.9997066729229968]",0.96174983227,16.220004472800003,"(0.0, 0.0, 0.0, 0.0, 0.0, 0.0)",-2.5959652512206968,5.681494863714967e-07,3.553320838026869e-05,"(0.0, 0.0, 0.0, 0.0, 0.0, 0.0)",-0.18114955764248034,-0.9780460127037736,-15.785439661232708,"(0.0, 0.0, 0.0, 0.0, 0.0, 0.0)",2.503992476159733,-0.0786900142246732,2.098357403184359,"(0.0, 0.0, 0.0, 0.0, 0.0, 0.0)",0.15360133560797545,False,,,,,False,,,,
2,Open,,,,,,"[-0.026750000193715096, 0.05299999937415123, 0.03999999910593033]","[0.0, -0.0, 1.170927100750299]","[-0.09307006001472473, 0.08102945238351822, 0.03999999910593033]","[0.0, -0.0, 1.1709279927689973]","[0.026750000193715096, 0.05299999937415123, 0.03999999910593033]","[0.0, 0.0, -1.181618964677462]","[0.09336595237255096, 0.08031877130270004, 0.03999999910593033]","[0.0, 0.0, -1.233247876832181]",1.2108343584571122,9.577750441143678,"(0.0, 0.0, 0.0, 0.0, 0.0, 0.0)",-1.5367816122769582,9.012180617793662e-07,6.275974057005224e-06,"(0.0, 0.0, 0.0, 0.0, 0.0, 0.0)",-0.1083256720668905,-1.2204570900414513,-9.3211442655613,"(0.0, 0.0, 0.0, 0.0, 0.0, 0.0)",1.4819475463743526,-0.046466145575958295,1.239071567699341,"(0.0, 0.0, 0.0, 0.0, 0.0, 0.0)",0.09166748660725833,False,,,,,False,,,,
3,Open,,,,,,"[-0.026750000193715096, 0.05299999937415123, 0.03999999910593033]","[0.0, -0.0, 1.334351465706577]","[-0.09674673527479172, 0.06986585259437561, 0.03999999910593033]","[0.0, -0.0, 1.33435435145599]","[0.026750000193715096, 0.05299999937415123, 0.03999999910593033]","[0.0, 0.0, -1.3406650641721125]","[0.09685182571411133, 0.06942359358072281, 0.03999999910593033]","[0.0, 0.0, -1.3711530696282732]",1.3579162851496,5.655565729344001,"(0.0, 0.0, 0.0, 0.0, 0.0, 0.0)",-0.9088150211252332,3.4316066113876724e-06,0.0001607445165674468,"(0.0, 0.0, 0.0, 0.0, 0.0, 0.0)",-0.06444344013525093,-1.3635984108023202,-5.504042378604797,"(0.0, 0.0, 0.0, 0.0, 0.0, 0.0)",0.8762522980402716,-0.02744024570882781,0.7315266716392431,"(0.0, 0.0, 0.0, 0.0, 0.0, 0.0)",0.05446985052483407,False,,,,,False,,,,
4,Open,,,,,,"[-0.026750000193715096, 0.05299999937415123, 0.03999999910593033]","[0.0, -0.0, 1.4308518944899675]","[-0.09804610908031464, 0.06304314732551575, 0.03999999910593033]","[0.0, -0.0, 1.4308566269594332]","[0.026750000193715096, 0.05299999937415123, 0.03999999910593033]","[0.0, 0.0, -1.4345798203875788]","[0.09808305650949478, 0.06277728080749512, 0.03999999910593033]","[0.0, 0.0, -1.4525855975984745]",1.4447666872179874,3.339555007520341,"(0.0, 0.0, 0.0, 0.0, 0.0, 0.0)",-0.5371183361845069,4.8269553674989e-06,2.0878160072459843e-05,"(0.0, 0.0, 0.0, 0.0, 0.0, 0.0)",-0.03821759960562203,-1.448121925594662,-3.2500819841423465,"(0.0, 0.0, 0.0, 0.0, 0.0, 0.0)",0.5178266556878065,-0.016205556838873442,0.4320218239148067,"(0.0, 0.0, 0.0, 0.0, 0.0, 0.0)",0.0322808466635012,False,,,,,False,,,,
5,Open,,,,,,"[-0.026750000193715096, 0.05299999937415123, 0.03999999910593033]","[0.0, -0.0, 1.487834617901085]","[-0.09850236773490906, 0.05896640568971634, 0.03999999910593033]","[0.0, -0.0, 1.4878390921106803]","[0.026750000193715096, 0.05299999937415123, 0.03999999910593033]","[0.0, 0.0, -1.4900358577435544]","[0.09851532429456711, 0.05880843847990036, 0.03999999910593033]","[0.0, 0.0, -1.5006695807985118]",1.4960509811353493,1.9719738363906854,"(0.0, 0.0, 0.0, 0.0, 0.0, 0.0)",-0.3173274216127963,4.509251873886308e-06,-3.168767150011037e-05,"(0.0, 0.0, 0.0, 0.0, 0.0, 0.0)",-0.022624215793833224,-1.498032215844392,-1.9191409108162163,"(0.0, 0.0, 0.0, 0.0, 0.0, 0.0)",0.30591369390909257,-0.00957062017308593,0.2551417656412126,"(0.0, 0.0, 0.0, 0.0, 0.0, 0.0)",0.019102112305110365,False,,,,,False,,,,
6,Open,,,,,,"[-0.026750000193715096, 0.05299999937415123, 0.03999999910593033]","[0.0, -0.0, 1.5214821319654974]","[-0.09866246581077576, 0.05654918774962425, 0.03999999910593033]","[0.0, -0.0, 1.5214858439169519]","[0.026750000193715096, 0.05299999937415123, 0.03999999910593033]","[0.0, 0.0, -1.5227821585534602]","[0.09866702556610107, 0.05645570904016495, 0.03999999910593033]","[0.0, 0.0, -1.529061933448946]",1.5263338438506127,1.164430830650334,"(0.0, 0.0, 0.0, 0.0, 0.0, 0.0)",-0.18743587261192823,3.6440993970645793e-06,-4.480530101024996e-05,"(0.0, 0.0, 0.0, 0.0, 0.0, 0.0)",-0.013379159967550349,-1.527503743133955,-1.1332335164278682,"(0.0, 0.0, 0.0, 0.0, 0.0, 0.0)",0.18068846528573543,-0.005652184024362593,0.1506807000213291,"(0.0, 0.0, 0.0, 0.0, 0.0, 0.0)",0.011293655891939093,False,,,,,False,,,,
7,Close,,,"(0.010000824637423049, 0.16001319418745247, 0.017848014970055004)","(-0.00026934863811186216, 1.6834304115272585e-05, -2.2671484573282825e-09)",,"[-0.026750000193715096, 0.05299999937415123, 0.03999999910593033]","[0.0, -0.0, 1.2784808254221978]","[-0.09569569677114487, 0.07374827563762665, 0.03999999910593033]","[0.0, -0.0, 1.034582661993943]","[0.026750000193715096, 0.05299999937415123, 0.03999999910593033]","[0.0, 0.0, -1.2792482299640686]","[0.0957116037607193, 0.0736953467130661, 0.03999999910593033]","[0.0, 0.0, -1.0390562259147462]",1.210632571455348,-16.283535238809286,"(0.0, 0.0, 0.0, 0.0, 0.0, 0.0)",2.771136716181199,-0.3095085607892871,-15.746535439217235,"(0.0, 0.0, 0.0, 0.0, 0.0, 0.0)",0.3469037989659341,-1.211323385283169,16.3019569408845,"(0.0, 0.0, 0.0, 0.0, 0.0, 0.0)",-2.7749564531312414,0.30617317599991634,15.835479338328643,"(0.0, 0.0, 0.0, 0.0, 0.0, 0.0)",-0.3479929302165593,False,,,,,False,,,,
8,Close,,,"(0.010001648057231211, 0.16002636889308344, 0.03133184175509247)","(-0.0005384699893107284, 3.3654401557527444e-05, -9.06094284338731e-09)",,"[-0.026750000193715096, 0.05299999937415123, 0.03999999910593033]","[0.0, -0.0, 1.0006360422079206]","[-0.08736064285039902, 0.0918632224202156, 0.03999999910593033]","[0.0, -0.0, 0.4880565025715103]","[0.026750000193715096, 0.05299999937415123, 0.03999999910593033]","[0.0, 0.0, -1.001089448203126]","[0.08737824857234955, 0.09183574467897415, 0.03999999910593033]","[0.0, 0.0, -0.49069812233338583]",0.9605724271186684,-9.615264723164493,"(0.0, 0.0, 0.0, 0.0, 0.0, 0.0)",1.6441783201079794,-0.5513218025251249,-9.298144061583436,"(0.0, 0.0, 0.0, 0.0, 0.0, 0.0)",0.21014173445603831,-0.9609803457758583,9.626142554022893,"(0.0, 0.0, 0.0, 0.0, 0.0, 0.0)",-1.6464751946207798,0.5493522946545342,9.350664461360347,"(0.0, 0.0, 0.0, 0.0, 0.0, 0.0)",-0.2108204377510729,False,,,,,False,,,,
9,Close,,,"(0.010002470404691093, 0.16003952644115657, 0.04045997120998789)","(-0.0008073642479911328, 5.0460303253361964e-05, -2.0369923505779015e-08)",,"[-0.026750000193715096, 0.05299999937415123, 0.03999999910593033]","[0.0, -0.0, 0.8365715799965936]","[-0.0801992267370224, 0.1012408509850502, 0.03999999910593033]","[0.0, -0.0, 0.16533874626364803]","[0.026750000193715096, 0.05299999937415123, 0.03999999910593033]","[0.0, 0.0, -0.8368392086626993]","[0.08021213859319687, 0.10122654587030411, 0.03999999910593033]","[0.0, 0.0, -0.1668985823484083]",0.8129144124893025,-5.677717666381402,"(0.0, 0.0, 0.0, 0.0, 0.0, 0.0)",0.9736078226475493,-0.6941096683608667,-5.490444078796776,"(0.0, 0.0, 0.0, 0.0, 0.0, 0.0)",0.12593397924105265,-0.8131552843771866,5.684140916724979,"(0.0, 0.0, 0.0, 0.0, 0.0, 0.0)",-0.9749785244213759,0.6929466958025952,5.521456795952681,"(0.0, 0.0, 0.0, 0.0, 0.0, 0.0)",-0.12634715317523504,False,,,,,False,,,,
10,Close,,,"(0.010003291824242136, 0.16005266914270105, 0.04523936165140331)","(-0.0010760316083767074, 6.725202012489063e-05, -3.618265319583079e-08)",,"[-0.026750000193715096, 0.05299999937415123, 0.03999999910593033]","[0.0, -0.0, 0.7396932119518481]","[-0.07528240978717804, 0.10618463158607483, 0.03999999910593033]","[0.0, 0.0, -0.025223688738047617]","[0.026750000193715096, 0.05299999937415123, 0.03999999910593033]","[0.0, 0.0, -0.7398511766938903]","[0.07529081404209137, 0.10617695748806, 0.03999999910593033]","[0.0, -0.0, 0.02430263317545323]",0.7257238314308083,-3.352635504821555,"(0.0, 0.0, 0.0, 0.0, 0.0, 0.0)",0.5758654822812497,-0.7784262532781683,-3.242260203768412,"(0.0, 0.0, 0.0, 0.0, 0.0, 0.0)",0.0750123771406224,-0.725866063871885,3.3564283699169333,"(0.0, 0.0, 0.0, 0.0, 0.0, 0.0)",-0.5766799137830688,0.7777395376647703,3.260573592131318,"(0.0, 0.0, 0.0, 0.0, 0.0, 0.0)",-0.0752606958188736,False,,,,,False,,,,
11,Close,,,"(0.009997966950406065, 0.16004795201914346, 0.046616050094935475)","(-0.0009640430328522325, -5.7324486097668704e-05, 4.2980615420070005e-09)",,"[-0.026750000193715096, 0.05299999937415123, 0.03999999910593033]","[0.0, -0.0, 0.682487397988505]","[-0.0721622109413147, 0.10887245088815689, 0.03999999910593033]","[0.0, 0.0, -0.13775029188859572]","[0.026750000193715096, 0.05299999937415123, 0.03999999910593033]","[0.0, 0.0, -0.6825807377410441]","[0.07216742634773254, 0.10886821150779724, 0.03999999910593033]","[0.0, -0.0, 0.1372064129763775]",0.6742386185346878,-1.979696494258342,"(0.0, 0.0, 0.0, 0.0, 0.0, 0.0)",0.34037467823530393,-0.8282145265472606,-1.9144534778819295,"(0.0, 0.0, 0.0, 0.0, 0.0, 0.0)",0.04449932044982575,-0.674322605213594,1.981936139029174,"(0.0, 0.0, 0.0, 0.0, 0.0, 0.0)",-0.3408573424145132,0.8278090365055835,1.9252671252731466,"(0.0, 0.0, 0.0, 0.0, 0.0, 0.0)",-0.04464739446319682,False,,,,,False,,,,
12,Close,,,"(0.009998679410322496, 0.16003066597344334, 0.0474253884764576)","(-0.0006112814540129935, -4.2805404436077314e-05, 1.9447426774393396e-07)",,"[-0.026750000193715096, 0.05299999937415123, 0.03999999910593033]","[0.0, -0.0, 0.6487079580530938]","[-0.07024932652711868, 0.11037428677082062, 0.03999999910593033]","[0.0, 0.0, -0.20419532625251113]","[0.026750000193715096, 0.05299999937415123, 0.03999999910593033]","[0.0, 0.0, -0.6487631098841893]","[0.07025248557329178, 0.11037188768386841, 0.03999999910593033]","[0.0, -0.0, 0.20387417727936794]",0.6438371618585478,-1.1689909828946077,"(0.0, 0.0, 0.0, 0.0, 0.0, 0.0)",0.20110328062585062,-0.8576133287829941,-1.1304144347684295,"(0.0, 0.0, 0.0, 0.0, 0.0, 0.0)",0.026365137971139978,-0.6438867551525752,1.1703134707353389,"(0.0, 0.0, 0.0, 0.0, 0.0, 0.0)",-0.20138889834359572,0.857373897412956,1.136799615752827,"(0.0, 0.0, 0.0, 0.0, 0.0, 0.0)",-0.026453134766811503,False,,,,,False,,,,
13,Close,,,"(0.008562352819313064, 0.15963169911231415, 0.04795936059784778)","(0.002880050037504477, -0.0018080766405500393, 0.027156574699580344)",,"[-0.026750000193715096, 0.05299999937415123, 0.03999999910593033]","[0.0, -0.0, 0.6287615983534538]","[-0.06909634172916412, 0.11123047024011612, 0.03999999910593033]","[0.0, 0.0, -0.24342883421715172]","[0.026750000193715096, 0.05299999937415123, 0.03999999910593033]","[0.0, 0.0, -0.6288059721302652]","[0.06909892708063126, 0.1112285852432251, 0.03999999910593033]","[0.0, -0.0, 0.24295585513718987]",0.6258854057058539,-0.6902774854894381,"(0.0, 0.0, 0.0, 0.0, 0.0, 0.0)",0.11878846609148704,-0.8749713231347032,-0.6674313830745814,"(0.0, 0.0, 0.0, 0.0, 0.0, 0.0)",0.015594191474811038,-0.6259255556368085,0.6912982329409242,"(0.0, 0.0, 0.0, 0.0, 0.0, 0.0)",0.23889456753769728,0.8745816224765113,0.6767593625972839,"(0.0, 0.0, 0.0, 0.0, 0.0, 0.0)",0.18939691443679915,False,,,,,True,"(0.040048198705117485, 0.17954190147604243, 0.02399995236517949)","(-0.9999968496142797, -0.00250969405768167, -4.6874861287478436e-05)",-8.481535683957195e-06,2.863336982423626
14,Move,,,"(0.0021872179113760974, 0.1587702000093447, 0.04795070422976376)","(0.005962162449872379, -0.0033931589555412952, 0.10738858230627975)","[0.0, 0.0, 0.0]","[-0.026750000193715096, 0.05299999937415123, 0.03999999910593033]","[0.0, -0.0, 0.5601465041237582]","[-0.06500434130430222, 0.11399676650762558, 0.03999999910593033]","[0.0, 0.0, -0.31665092698218517]","[0.026750000193715096, 0.05299999937415123, 0.03999999910593033]","[0.0, 0.0, -0.5704791351722326]","[0.06563255190849304, 0.11359824240207672, 0.03999999910593033]","[0.0, -0.0, 0.305956737273258]",0.5441270049833652,-3.8446725897845018,"(0.0, 0.0, 0.0, 0.0, 0.0, 0.0)",-31.016206067854263,-0.862168545717363,3.5109286459519033,"(0.0, 0.0, 0.0, 0.0, 0.0, 0.0)",-15.92332423422567,-0.5571846401428407,3.1906852662822005,"(0.0, 0.0, 0.0, 0.0, 0.0, 0.0)",30.615399196288518,0.8610595255010496,-3.6903265511769647,"(0.0, 0.0, 0.0, 0.0, 0.0, 0.0)",16.541442123431672,True,"(-0.03100426910775894, 0.18018038835621497, 0.05600352127687249)","(0.9944108650409498, 0.10552079154921731, 0.0035205169132651575)",-0.0003255110162118496,255.8309528106214,True,"(0.03234100379217806, 0.17992001197697366, 0.02399647872312752)","(-0.9944108650409488, -0.10552079154922665, -0.003520516913257393)",0.00030258198891258155,195.87528475250997
15,Move,"(-0.0031000000000000003, 0.0, -0.0002)","(0.0, 0.02079385270826044, 0.0)","(0.002308740694775891, 0.1596306497355771, 0.04777100853270691)","(0.001637954233573741, 0.003865199125114273, 0.10376208235515885)","[0.0001215227833997936, 0.0008604497262324207, -0.0001796956970568503]","[-0.026750000193715096, 0.05299999937415123, 0.03999999910593033]","[0.0, -0.0, 0.5312925954214675]","[-0.06322866678237915, 0.1150750070810318, 0.03999999910593033]","[0.0, 0.0, -0.32049919568145196]","[0.026750000193715096, 0.05299999937415123, 0.03999999910593033]","[0.0, 0.0, -0.5507753275686228]","[0.06443105638027191, 0.11435257643461227, 0.03999999910593033]","[0.0, -0.0, 0.2993542449113775]",0.5317281791632533,0.10454404673868437,"(0.0, 0.0, 0.0, 0.0, 0.0, 0.0)",-1.0748928450913546,-0.8523707569270877,-0.1389510966642597,"(0.0, 0.0, 0.0, 0.0, 0.0, 0.0)",-0.5096865316839065,-0.5522803495614148,-0.36123064222244633,"(0.0, 0.0, 0.0, 0.0, 0.0, 0.0)",1.045501322104344,0.8507819487722437,0.1566026708758195,"(0.0, 0.0, 0.0, 0.0, 0.0, 0.0)",0.5233999841465137,True,"(-0.028974507055985393, 0.1811307418500873, 0.056000098645409835)","(0.9943506738351131, 0.10614485070932922, 9.006414824496353e-05)",-0.0026723356472510454,6.756212404741894,True,"(0.03160755611340679, 0.18061450216221459, 0.023999902416469755)","(-0.9943506807011934, -0.1061447804381801, -9.682357102141215e-05)",0.00011276526577324072,0.0
16,Move,"(0.0029, 0.0, 0.0011)","(0.0, 0.013110913340981403, 0.0)","(0.0033288508722387825, 0.1597595819939158, 0.04807025636024919)","(-0.0017961048356881552, 0.005917280049575359, 0.09703301662697167)","[0.001141632960862685, 0.0009893819845711027, 0.00011955213048542995]","[-0.026750000193715096, 0.05299999937415123, 0.03999999910593033]","[0.0, -0.0, 0.525827427823938]","[-0.06288887560367584, 0.11527344584465027, 0.03999999910593033]","[0.0, 0.0, -0.323846414681824]","[0.026750000193715096, 0.05299999937415123, 0.03999999910593033]","[0.0, 0.0, -0.5588126644232853]","[0.06492294371128082, 0.11404773592948914, 0.03999999910593033]","[0.0, -0.0, 0.29003146483817843]",0.5241350365773999,-0.40616440853620733,"(0.0, 0.0, 0.0, 0.0, 0.0, 0.0)",-2.5430136245401784,-0.8488031136105795,0.20896483388817527,"(0.0, 0.0, 0.0, 0.0, 0.0, 0.0)",-1.2721839581409449,-0.5602049381442761,-0.3341520361564236,"(0.0, 0.0, 0.0, 0.0, 0.0, 0.0)",2.1035922702287992,0.8481566219178351,-0.16499420289810074,"(0.0, 0.0, 0.0, 0.0, 0.0, 0.0)",1.0081298237353773,True,"(-0.028413802949590672, 0.18121415145019598, 0.056000098645409835)","(0.9943506738351131, 0.10614485070932922, 9.006414824496353e-05)",-0.0021004700715147803,17.329215079006225,True,"(0.03271861111564821, 0.18061278694527697, 0.023999902416469755)","(-0.9943506807011934, -0.1061447804381801, -9.682357102141215e-05)",0.00018558394681600707,0.0
17,Move,"(0.0143, 0.0, 0.0024)","(0.0, 0.04689525167183564, 0.0)","(0.005270080128154482, 0.15988549031732835, 0.048276236583139856)","(-0.0013453945932226778, 0.007573116888194518, 0.08585420840061138)","[0.0030828622167783843, 0.0011152903079836574, 0.00032553235337609565]","[-0.026750000193715096, 0.05299999937415123, 0.03999999910593033]","[0.0, -0.0, 0.5106896089701629]","[-0.06194208934903145, 0.11581335216760635, 0.03999999910593033]","[0.0, 0.0, -0.33473255608474867]","[0.026750000193715096, 0.05299999937415123, 0.03999999910593033]","[0.0, 0.0, -0.5726277158472868]","[0.06576265394687653, 0.11351456493139267, 0.03999999910593033]","[0.0, -0.0, 0.27310182029195984]",0.5074850018795463,-0.7691117913745518,"(0.0, 0.0, 0.0, 0.0, 0.0, 0.0)",-2.164571604500101,-0.844671707175932,0.1801135345314252,"(0.0, 0.0, 0.0, 0.0, 0.0, 0.0)",-1.2069370629251257,-0.5756349002243284,-0.7217351861568732,"(0.0, 0.0, 0.0, 0.0, 0.0, 0.0)",1.9424834734306133,0.8452160377348094,-0.12323380105900814,"(0.0, 0.0, 0.0, 0.0, 0.0, 0.0)",0.8296166080097708,True,"(-0.026751235898908723, 0.1813748570107505, 0.056000098645409835)","(0.9943506738351131, 0.10614485070932922, 9.006414824496353e-05)",-0.0017272403457433848,13.752862401488402,True,"(0.03468980006667645, 0.18061525980556453, 0.023999902416469755)","(-0.9943506807011934, -0.1061447804381801, -9.682357102141215e-05)",0.000245934928680986,0.0
18,Move,"(0.0254, 0.0, 0.0083)","(0.0, 0.04296127953784044, 0.0)","(0.008034576450190657, 0.1600181012818298, 0.048452780691088805)","(-0.004337996576056995, 0.00679984454274552, 0.06713562893989108)","[0.005847358538814559, 0.0012479012724851135, 0.0005020764613250447]","[-0.026750000193715096, 0.05299999937415123, 0.03999999910593033]","[0.0, -0.0, 0.4873124099881682]","[-0.06046420335769653, 0.1166188046336174, 0.03999999910593033]","[0.0, 0.0, -0.3542367265637911]","[0.026750000193715096, 0.05299999937415123, 0.03999999910593033]","[0.0, 0.0, -0.5943243966635563]","[0.06706633418798447, 0.112653948366642, 0.03999999910593033]","[0.0, -0.0, 0.24863542283375792]",0.482644121670038,-1.1203856104025693,"(0.0, 0.0, 0.0, 0.0, 0.0, 0.0)",-1.3180276023548132,-0.8412094544735284,0.08151878129228635,"(0.0, 0.0, 0.0, 0.0, 0.0, 0.0)",-0.8005382957040735,-0.5986041843983676,-1.0271684143119395,"(0.0, 0.0, 0.0, 0.0, 0.0, 0.0)",1.5344700390453199,0.8425974217312091,-0.08695756537273658,"(0.0, 0.0, 0.0, 0.0, 0.0, 0.0)",0.6993408036076829,True,"(-0.024001342706043302, 0.18148017574053266, 0.0239915718571721)","(0.9974982145994417, 0.07018754226293115, -0.008427382868680968)",-0.0017184836319293188,11.216908712592641,True,"(0.037644327227287264, 0.18049472260121296, 0.023999902416469755)","(-0.9943506807011934, -0.1061447804381801, -9.682357102141215e-05)",0.00028814205683153993,0.0
19,Move,"(0.0319, 0.0, 0.0108)","(0.0, 0.04296127953784044, 0.0)","(0.011159169445794828, 0.1597714429898248, 0.048576173086489406)","(-0.008686722384012146, 8.673922547543769e-05, 0.04652934699983666)","[0.00897195153441873, 0.0010012429804800993, 0.0006254688567256458]","[-0.026750000193715096, 0.05299999937415123, 0.03999999910593033]","[0.0, -0.0, 0.458960035277804]","[-0.05864715203642845, 0.11754898726940155, 0.03999999910593033]","[0.0, 0.0, -0.38011637762218076]","[0.026750000193715096, 0.05299999937415123, 0.03999999910593033]","[0.0, 0.0, -0.6199701651527649]","[0.06858278065919876, 0.11160049587488174, 0.03999999910593033]","[0.0, -0.0, 0.22097844902630964]",0.45374406270960765,-1.251838818941079,"(0.0, 0.0, 0.0, 0.0, 0.0, 0.0)",-1.9412320459364636,-0.8382779345663273,0.19163493605433243,"(0.0, 0.0, 0.0, 0.0, 0.0, 0.0)",-1.1274963299862135,-0.624699748277281,-1.1351077671406196,"(0.0, 0.0, 0.0, 0.0, 0.0, 0.0)",1.9046833650453197,0.8404043047986661,-0.13062760254297892,"(0.0, 0.0, 0.0, 0.0, 0.0, 0.0)",0.7938108926702158,True,"(-0.02051828708721809, 0.18144982197901133, 0.023999477842063625)","(0.9985329951436935, 0.05414412021183904, -0.0005213979771572488)",-0.001437274958744774,14.922874578820318,True,"(0.04104805955561613, 0.1802289499069077, 0.023999902416469755)","(-0.9943506807011934, -0.1061447804381801, -9.682357102141215e-05)",6.005187937507758e-05,4.952179504718798
20,Move,"(0.043000000000000003, 0.0, 0.0117)","(0.0, 0.0044209189953016365, 0.0)","(0.014891160947919419, 0.15911577738590582, 0.048723226797595214)","(-0.010066721205159826, 0.00031684084744736763, 0.01851204856950442)","[0.012703943036543321, 0.0003455773765611292, 0.0007725225678314532]","[-0.026750000193715096, 0.05299999937415123, 0.03999999910593033]","[0.0, -0.0, 0.4240520222848656]","[-0.05637490004301071, 0.11862289905548096, 0.03999999910593033]","[0.0, 0.0, -0.41004823254344236]","[0.026750000193715096, 0.05299999937415123, 0.03999999910593033]","[0.0, 0.0, -0.6505353237815552]","[0.07035409659147263, 0.11029469966888428, 0.03999999910593033]","[0.0, -0.0, 0.18699518501250945]",0.4173283876050094,-1.6136670419852863,"(0.0, 0.0, 0.0, 0.0, 0.0, 0.0)",-2.4444536924834366,-0.8331414046424273,0.23010852632960557,"(0.0, 0.0, 0.0, 0.0, 0.0, 0.0)",-1.4922232458367652,-0.6563405688002415,-1.393272305157692,"(0.0, 0.0, 0.0, 0.0, 0.0, 0.0)",2.5821194296565793,0.8368423846348241,-0.16513507676523095,"(0.0, 0.0, 0.0, 0.0, 0.0, 0.0)",1.09798002118041,True,"(-0.016350816079258867, 0.18135818480346935, 0.023999670346250637)","(0.9997277660775262, 0.02332992847211196, -0.000328893790147672)",-0.0014180438013728799,18.37792460691818,True,"(0.045161522598722526, 0.1789734508391506, 0.037215986666801516)","(-0.9987211269048681, -0.050557984721910317, -2.9235753635814708e-05)",7.760043208163423e-06,17.256546229576415
21,Move,"(0.0514, 0.0, 0.009800000000000001)","(0.0, 0.05170537909033201, 0.0)","(0.01894096888937542, 0.15859351302243355, 0.049115014868451094)","(-0.021914693568126094, -0.00029342780152249775, -0.009288016880414052)","[0.01675375097799932, -0.00017668698691114537, 0.001164310638687334]","[-0.026750000193715096, 0.05299999937415123, 0.03999999910593033]","[0.0, -0.0, 0.38323095535460205]","[-0.05367216840386391, 0.11977721750736237, 0.03999999910593033]","[0.0, 0.0, -0.44357240011239635]","[0.026750000193715096, 0.05299999937415123, 0.03999999910593033]","[0.0, 0.0, -0.6843198510898576]","[0.07226451486349106, 0.10878914594650269, 0.03999999910593033]","[0.0, -0.0, 0.1480965525030766]",0.3756879197878013,-1.8103291236645989,"(0.0, 0.0, 0.0, 0.0, 0.0, 0.0)",-4.094934613206265,-0.8252446558985768,0.37408314913831936,"(0.0, 0.0, 0.0, 0.0, 0.0, 0.0)",-2.384457063020542,-0.6904417359965965,-1.469285641922256,"(0.0, 0.0, 0.0, 0.0, 0.0, 0.0)",3.82454475177097,0.8313748814228025,-0.24993380318923128,"(0.0, 0.0, 0.0, 0.0, 0.0, 0.0)",1.681633992958969,True,"(-0.01156779952663653, 0.18113781505167256, 0.023999793257424615)","(0.9998952967072535, 0.014469042603962454, -0.00020598261616851203)",-0.001548436757892608,26.35288526092073,True,"(0.04976165800801864, 0.17838542234572288, 0.05600020674257536)","(-0.9998952967072539, -0.01446904260395019, 0.000205982616145804)",4.319552288875303e-05,21.050625580210614
22,Move,"(0.0578, 0.0, 0.007200000000000001)","(0.0, 0.08614596121993615, 0.0)","(0.023239484278615486, 0.1580558024087717, 0.049633643859506554)","(-0.0414857719450536, 0.0006177482515102118, -0.0355426058210868)","[0.021052266367239388, -0.0007143976005729857, 0.001682939629742794]","[-0.026750000193715096, 0.05299999937415123, 0.03999999910593033]","[0.0, -0.0, 0.33891157407323935]","[-0.05068717524409294, 0.12090443074703217, 0.03999999910593033]","[0.0, 0.0, -0.478016422467231]","[0.026750000193715096, 0.05299999937415123, 0.03999999910593033]","[0.0, 0.0, -0.718628999307039]","[0.07415144145488739, 0.10719504952430725, 0.03999999910593033]","[0.0, -0.0, 0.10690473619718949]",0.33084369255548046,-1.936294032531771,"(0.0, 0.0, 0.0, 0.0, 0.0, 0.0)",-4.953332906149263,-0.8152196587689022,0.40999680490806606,"(0.0, 0.0, 0.0, 0.0, 0.0, 0.0)",-2.8040156971038948,-0.7247281057587959,-1.4637904620520552,"(0.0, 0.0, 0.0, 0.0, 0.0, 0.0)",4.875401359260585,0.8240909441015428,-0.3462606854575946,"(0.0, 0.0, 0.0, 0.0, 0.0, 0.0)",2.297568001897873,True,"(-0.006494286532677619, 0.18078966897104212, 0.023999452965814013)","(0.9995023207153855, -0.031540647885358195, -0.0005462742267645293)",-0.0018038112975755044,32.41966350602201,True,"(0.054532737730479904, 0.17763726672799432, 0.05600054703418599)","(-0.9995023207153856, 0.031540647885347994, 0.0005462742267733036)",8.410919489805492e-06,33.81003446206165
23,Move,"(0.0606, 0.0, 0.0060999999999999995)","(0.0, 0.0730751904517506, 0.0)","(0.027431648202870574, 0.1578337328341492, 0.05057790119405177)","(-0.08902797937659786, 0.0003133092288567369, -0.05994350471704661)","[0.025244430291494476, -0.0009364671751954934, 0.002627196964288009]","[-0.026750000193715096, 0.05299999937415123, 0.03999999910593033]","[0.0, -0.0, 0.2939764950115072]","[-0.0476127490401268, 0.12191114574670792, 0.03999999910593033]","[0.0, 0.0, -0.5127517406403939]","[0.026750000193715096, 0.05299999937415123, 0.03999999910593033]","[0.0, 0.0, -0.7511170186637194]","[0.0758868008852005, 0.10562674701213837, 0.03999999910593033]","[0.0, -0.0, 0.06553339972202771]",0.2860077195812049,-1.912502706928326,"(0.0, 0.0, 0.0, 0.0, 0.0, 0.0)",-5.2766898427223285,-0.8050480721320635,0.40322884883143817,"(0.0, 0.0, 0.0, 0.0, 0.0, 0.0)",-2.808138680829235,-0.7567314087866284,-1.3474631219340618,"(0.0, 0.0, 0.0, 0.0, 0.0, 0.0)",5.318600824895217,0.8150053999535258,-0.3947972493951869,"(0.0, 0.0, 0.0, 0.0, 0.0, 0.0)",2.6931324751131185,True,"(-0.0013661360241466886, 0.18023644131101832, 0.023999535700249187)","(0.9984693682568321, -0.05530556738012284, -0.00046354025225467973)",-0.002187124031134744,38.583715373956224,True,"(0.05919721937545003, 0.17680255901835454, 0.056000464300211474)","(-0.9984693682568321, 0.05530556738012125, 0.00046354025225363066)",-4.114186520776606e-05,39.93540813259083
24,Move,"(0.06620000000000001, 0.0, 0.0008)","(0.0, 0.11190003966236446, 0.0)","(0.03151967569528216, 0.15748111686475597, 0.0514098125948334)","(-0.12642810197685872, 0.0017588323983843807, -0.08400930078699549)","[0.029332457783906064, -0.0012890831445887263, 0.0034591083650696366]","[-0.026750000193715096, 0.05299999937415123, 0.03999999910593033]","[0.0, -0.0, 0.24789669482898305]","[-0.044416312128305435, 0.12279900908470154, 0.03999999910593033]","[0.0, 0.0, -0.5449274553673203]","[0.026750000193715096, 0.05299999937415123, 0.03999999910593033]","[0.0, 0.0, -0.781988882675044]","[0.07748782634735107, 0.10408496111631393, 0.03999999910593033]","[0.0, -0.0, 0.02380112484969827]",0.23955773565937874,-2.0013435793745975,"(0.0, 0.0, 0.0, 0.0, 0.0, 0.0)",-7.509967708541821,-0.790522208492472,0.5524568698693689,"(0.0, 0.0, 0.0, 0.0, 0.0, 0.0)",-4.044887987602631,-0.787419631125956,-1.3033628584948,"(0.0, 0.0, 0.0, 0.0, 0.0, 0.0)",7.234079946480207,0.8035076765210305,-0.5477762717893461,"(0.0, 0.0, 0.0, 0.0, 0.0, 0.0)",3.5241391780056484,True,"(0.003683328042536696, 0.17961389442065864, 0.023998059239221943)","(0.9968044328981709, -0.07985711554401405, -0.0019400132850275352)",-0.002767564121508987,44.98852837050992,True,"(0.06378072549414282, 0.17587803854988288, 0.056001940773244246)","(-0.9968044328981709, 0.07985711554401179, 0.0019400132850214459)",3.516283380455835e-05,51.99076079196104
25,Move,"(0.0684, 0.0, 0.0012)","(0.0, 0.11190003966236446, 0.0)","(0.03540362358182279, 0.1572730398554126, 0.05246046125863035)","(-0.17856542806128625, 0.0014752963695169646, -0.11017849666050022)","[0.033216405670446696, -0.0014971601539320867, 0.004509757028866593]","[-0.026750000193715096, 0.05299999937415123, 0.03999999910593033]","[0.0, -0.0, 0.20186487334771505]","[-0.041185762733221054, 0.12353799492120743, 0.03999999910593033]","[0.0, 0.0, -0.5775802878730733]","[0.026750000193715096, 0.05299999937415123, 0.03999999910593033]","[0.0, 0.0, -0.8103464212012089]","[0.07891587167978287, 0.10262581706047058, 0.03999999910593033]","[0.0, 0.0, -0.018417099412200627]",0.19380795552619318,-1.9336623518237603,"(0.0, 0.0, 0.0, 0.0, 0.0, 0.0)",-10.792978018292168,-0.775087021737242,1.0459588489787908,"(0.0, 0.0, 0.0, 0.0, 0.0, 0.0)",-5.829391268322133,-0.8152472747930503,-1.1761937818237396,"(0.0, 0.0, 0.0, 0.0, 0.0, 0.0)",8.64226039795007,0.7895306114886829,-0.5757017889457593,"(0.0, 0.0, 0.0, 0.0, 0.0, 0.0)",4.054989081791928,True,"(0.008743536197810112, 0.17875639219623202, 0.02399936423665026)","(0.9948661272609751, -0.10119775489825299, -0.000635005749817666)",-0.003262724103258956,66.81591151295405,True,"(0.06824955809763672, 0.17492048532635912, 0.056000635765709045)","(-0.9948661272609749, 0.1011977548982569, 0.0006350057498219841)",-3.3670195466521015e-05,59.65874310276054
26,Move,"(0.0692, 0.0, 0.0005)","(0.0, 0.11653563415566137, 0.0)","(0.039198512879648345, 0.15687298806037822, 0.05320609988535477)","(-0.21370338549436388, 0.002876802727599081, -0.12897257272615548)","[0.03701129496827225, -0.0018972119489664707, 0.005255395655591008]","[-0.026750000193715096, 0.05299999937415123, 0.03999999910593033]","[0.0, -0.0, 0.15793137074661764]","[-0.03807384520769119, 0.12410394102334976, 0.03999999910593033]","[0.0, 0.0, -0.6017780814695787]","[0.026750000193715096, 0.05299999937415123, 0.03999999910593033]","[0.0, 0.0, -0.8350193191871459]","[0.08012428134679794, 0.10132376104593277, 0.03999999910593033]","[0.0, 0.0, -0.05815217640092242]",0.15024396735898274,-1.844974600744633,"(0.0, 0.0, 0.0, 0.0, 0.0, 0.0)",-9.99553716355319,-0.7567322991551356,0.7145096939845522,"(0.0, 0.0, 0.0, 0.0, 0.0, 0.0)",-5.0249545030686456,-0.8391660475581099,-0.995223031215003,"(0.0, 0.0, 0.0, 0.0, 0.0, 0.0)",9.685625499343876,0.7736610745926455,-0.7694484339787604,"(0.0, 0.0, 0.0, 0.0, 0.0, 0.0)",5.021502645841732,True,"(0.013177826892995043, 0.17810557453099227, 0.023996606518891253)","(0.9921746757905374, -0.12481146497847662, -0.003392776130017618)",-0.0037305786108606624,58.4210418353492,True,"(0.07233502996735565, 0.1739615903943112, 0.056003393536089234)","(-0.992174675790537, 0.12481146497848017, 0.003392776130015312)",-4.0517931892918896e-05,71.77489368024558
27,Move,"(0.0698, 0.0, 0.0009000000000000001)","(0.0, 0.1033252370473163, 0.0)","(0.04248491797115957, 0.1566674593774007, 0.05404596286369899)","(-0.258413976385489, 0.0015794196293631001, -0.14811798618588964)","[0.040297700059783476, -0.002102740631943989, 0.00609525863393523]","[-0.026750000193715096, 0.05299999937415123, 0.03999999910593033]","[0.0, -0.0, 0.11614270601526137]","[-0.035093486309051514, 0.12451493740081787, 0.03999999910593033]","[0.0, 0.0, -0.6281506984585417]","[0.026750000193715096, 0.05299999937415123, 0.03999999910593033]","[0.0, 0.0, -0.8559112188322593]","[0.08112213760614395, 0.10019820183515549, 0.03999999910593033]","[0.0, 0.0, -0.09594046701977525]",0.10893010507782674,-1.7310236055027706,"(0.0, 0.0, 0.0, 0.0, 0.0, 0.0)",-13.284866526035927,-0.7390411967281206,1.2605253872825748,"(0.0, 0.0, 0.0, 0.0, 0.0, 0.0)",-7.030372801703538,-0.8594966315959491,-0.8604817750806661,"(0.0, 0.0, 0.0, 0.0, 0.0, 0.0)",10.441126182257538,0.7568814794380843,-0.7414441920323813,"(0.0, 0.0, 0.0, 0.0, 0.0, 0.0)",5.016496403890073,True,"(0.017564854618584418, 0.17714952027626452, 0.023999371351993395)","(0.9898517958968379, -0.14210217421208726, -0.0006278885270851319)",-0.004310121044227928,77.82523191856895,True,"(0.0760805507921149, 0.17306511658613882, 0.05600062864848631)","(-0.9898517958968382, 0.1421021742120851, 0.0006278885270913556)",-6.89477674790382e-05,72.80717149037443
28,Move,"(0.0693, 0.0, 0.0)","(0.0, 0.11257024609513026, 0.0)","(0.04575278818153417, 0.15630126445365933, 0.05455498978364643)","(-0.28508223150102974, 0.0042968588415168065, -0.15760810512575307)","[0.043565570270158074, -0.0024689355556853643, 0.00660428555388267]","[-0.026750000193715096, 0.05299999937415123, 0.03999999910593033]","[0.0, -0.0, 0.0775915762960218]","[-0.032330989837646484, 0.12478337436914444, 0.03999999910593033]","[0.0, 0.0, -0.6433906934422474]","[0.026750000193715096, 0.05299999937415123, 0.03999999910593033]","[0.0, 0.0, -0.8730290325635148]","[0.08192206174135208, 0.0992606058716774, 0.03999999910593033]","[0.0, 0.0, -0.13106638822367925]",0.07092438232854946,-1.6001273001521534,"(0.0, 0.0, 0.0, 0.0, 0.0, 0.0)",-12.026688591878191,-0.717401157735975,0.8594524787334683,"(0.0, 0.0, 0.0, 0.0, 0.0, 0.0)",-5.998395686537458,-0.8758207423523156,-0.6699940021373089,"(0.0, 0.0, 0.0, 0.0, 0.0, 0.0)",11.272081976680067,0.7382130414772312,-0.8999254640045328,"(0.0, 0.0, 0.0, 0.0, 0.0, 0.0)",5.859740380421919,True,"(0.02112456167657043, 0.1766169291793482, 0.02399527712730856)","(0.987870450914632, -0.15520847876026783, -0.004722322590128123)",-0.004672884568980647,66.10336604092738,True,"(0.07943772248935817, 0.1722313184159589, 0.056004723082549356)","(-0.987870450914632, 0.15520847876026755, 0.00472232259013203)",-6.574211103346523e-05,84.15818992992253
29,Move,"(0.0725, 0.0, 0.0007)","(0.0, 0.09931272509698134, 0.0)","(0.048797356332272813, 0.15589149115824616, 0.05505533582280995)","(-0.31294753608591397, 0.0030231903316202194, -0.16707671420424738)","[0.046610138420896716, -0.0028787088510985326, 0.007104631593046189]","[-0.026750000193715096, 0.05299999937415123, 0.03999999910593033]","[0.0, -0.0, 0.039675259866277304]","[-0.029605869203805923, 0.1249433383345604, 0.03999999910593033]","[0.0, 0.0, -0.65990387247951]","[0.026750000193715096, 0.05299999937415123, 0.03999999910593033]","[0.0, 0.0, -0.8882078782944304]","[0.0826178640127182, 0.09841786324977875, 0.03999999910593033]","[0.0, 0.0, -0.16764423983387736]",0.032931307195662195,-1.6185480381310602,"(0.0, 0.0, 0.0, 0.0, 0.0, 0.0)",-14.099827106133116,-0.695085533823719,1.0784428471778809,"(0.0, 0.0, 0.0, 0.0, 0.0, 0.0)",-6.872371375202572,-0.8909302803176847,-0.6533773331218455,"(0.0, 0.0, 0.0, 0.0, 0.0, 0.0)",12.800453107357141,0.7169479856147131,-0.8677573173727304,"(0.0, 0.0, 0.0, 0.0, 0.0, 0.0)",6.102631781797865,True,"(0.024699310948609197, 0.17589306395716645, 0.023997643660659474)","(0.9861928257756173, -0.16558430369676166, -0.0023555801751175987)",-0.004903489190625702,81.3847850567842,True,"(0.08279990687861266, 0.1714100502615647, 0.0560028251905389)","(-0.9865322080052797, 0.16354273190859953, 0.002824430579688253)",-5.238163995476815e-06,84.52943951359985
30,Move,"(0.0725, 0.0, 0.0006)","(0.0, 0.09931272509698134, 0.0)","(0.05135146319452579, 0.15528250668469262, 0.05506212626275713)","(-0.31847174406660983, 0.008452212026421844, -0.16908146335716046)","[0.04916424528314969, -0.003487693324652069, 0.007111422032993371]","[-0.026750000193715096, 0.05299999937415123, 0.03999999910593033]","[0.0, -0.0, 0.003751350556329018]","[-0.02702009677886963, 0.12499949336051941, 0.03999999910593033]","[0.0, 0.0, -0.6713044508022812]","[0.026750000193715096, 0.05299999937415123, 0.03999999910593033]","[0.0, 0.0, -0.9012415935810455]","[0.08320506662130356, 0.09768585860729218, 0.03999999910593033]","[0.0, 0.0, -0.1994809450658255]",-0.0024694604905790823,-1.4929945886927831,"(0.0, 0.0, 0.0, 0.0, 0.0, 0.0)",-14.170217125962983,-0.6708728307564245,1.0039181484801043,"(0.0, 0.0, 0.0, 0.0, 0.0, 0.0)",-6.842449109841937,-0.9033487647277402,-0.5057122923587896,"(0.0, 0.0, 0.0, 0.0, 0.0, 0.0)",12.33243687653302,0.6985792517825778,-0.7635484461723581,"(0.0, 0.0, 0.0, 0.0, 0.0, 0.0)",5.35011384356285,True,"(0.02786388691954251, 0.17533541353417156, 0.02399267756938353)","(0.9857243778909781, -0.16820772397093034, -0.007322050803099066)",-0.005616936398963617,84.35617809689946,True,"(0.08571045521351872, 0.1706352619682565, 0.0560028251905389)","(-0.9865322080052797, 0.16354273190859953, 0.002824430579688253)",0.0003208637854963576,56.44299560876849
31,Move,"(0.0718, 0.0, -0.0004)","(0.0, 0.08614596121993615, 0.0)","(0.053664514018248205, 0.15478338650731327, 0.05509697305569865)","(-0.32424784273229423, 0.011718428523915862, -0.1748626724208658)","[0.05147729610687211, -0.003986813502031422, 0.007146268825934887]","[-0.026750000193715096, 0.05299999937415123, 0.03999999910593033]","[0.0, 0.0, -0.029233814508967313]","[-0.02464546449482441, 0.1249692365527153, 0.03999999910593033]","[0.0, 0.0, -0.6803636226385398]","[0.026750000193715096, 0.05299999937415123, 0.03999999910593033]","[0.0, 0.0, -0.9116413707253245]","[0.08366671949625015, 0.09709633141756058, 0.03999999910593033]","[0.0, 0.0, -0.22762967310666746]",-0.03493599989377931,-1.3685243716577686,"(0.0, 0.0, 0.0, 0.0, 0.0, 0.0)",-14.328816146675393,-0.6468115114933545,1.0363738567669372,"(0.0, 0.0, 0.0, 0.0, 0.0, 0.0)",-6.913930790881656,-0.9133768652560079,-0.41653185033795753,"(0.0, 0.0, 0.0, 0.0, 0.0, 0.0)",12.135864858730347,0.6813163104291728,-0.6468780525247417,"(0.0, 0.0, 0.0, 0.0, 0.0, 0.0)",4.779068827508303,True,"(0.03069312344473067, 0.17481102053255151, 0.023988349223793583)","(0.9850264429283245, -0.17200921594405502, -0.011650594932593426)",-0.0061282225981766384,82.56046992396703,True,"(0.0882242840061211, 0.16994632795629339, 0.0560028251905389)","(-0.9865322080052797, 0.16354273190859953, 0.002824430579688253)",0.00039182375792457967,46.46996965690541
32,Move,"(0.0756, 0.0, -0.0005)","(0.0, 0.10392213965149837, 0.0)","(0.05561041871182011, 0.15503713588354115, 0.054800058750706246)","(-0.32298269265668705, 0.0011780830404389973, -0.2007190184801899)","[0.053423200800444014, -0.0037330641258035424, 0.0068493545209424855]","[-0.026750000193715096, 0.05299999937415123, 0.03999999910593033]","[0.0, 0.0, -0.062420221617829376]","[-0.022258661687374115, 0.1248597800731659, 0.03999999910593033]","[0.0, 0.0, -0.6914119518902436]","[0.026750000193715096, 0.05299999937415123, 0.03999999910593033]","[0.0, 0.0, -0.9212469608577765]","[0.08408766239881516, 0.09654758870601654, 0.03999999910593033]","[0.0, 0.0, -0.2516813143330068]",-0.06844894130454732,-1.4468930088883942,"(0.0, 0.0, 0.0, 0.0, 0.0, 0.0)",-11.900527276350035,-0.6253868221786345,0.8651941952147518,"(0.0, 0.0, 0.0, 0.0, 0.0, 0.0)",-5.844691061035757,-0.9229295461944559,-0.4038270970969782,"(0.0, 0.0, 0.0, 0.0, 0.0, 0.0)",10.108936378160463,0.6671650428806976,-0.5761360099606145,"(0.0, 0.0, 0.0, 0.0, 0.0, 0.0)",4.08037639086616,True,"(0.03362498128759676, 0.17407519596049048, 0.02399649156073851)","(0.9808341249139375, -0.19481302707883758, -0.0035076893663186343)",-0.006558038392959138,90.49346922753585,True,"(0.09039589920260674, 0.16926690532340272, 0.0560028251905389)","(-0.9865322080052797, 0.16354273190859953, 0.002824430579688253)",0.00018857151817746,46.582212659145554
33,Move,"(0.0741, 0.0, -0.0015)","(0.0, 0.1033252370473163, 0.0)","(0.057173331416518605, 0.15494995339770332, 0.054909759277923395)","(-0.3226731479554094, 0.004360153677799444, -0.21309325302531443)","[0.05498611350514251, -0.003820246611641376, 0.006959055048159635]","[-0.026750000193715096, 0.05299999937415123, 0.03999999910593033]","[0.0, 0.0, -0.09393116889398069]","[-0.019996898248791695, 0.12468260526657104, 0.03999999910593033]","[0.0, 0.0, -0.6946638146123588]","[0.026750000193715096, 0.05299999937415123, 0.03999999910593033]","[0.0, 0.0, -0.9299548484676066]","[0.08446469902992249, 0.09604664891958237, 0.03999999910593033]","[0.0, 0.0, -0.2753178300055086]",-0.09936923634157821,-1.3051401513580736,"(0.0, 0.0, 0.0, 0.0, 0.0, 0.0)",-18.241372067295217,-0.5953593243007879,1.289602804360205,"(0.0, 0.0, 0.0, 0.0, 0.0, 0.0)",-8.523873311137246,-0.9314171131619225,-0.3509259804709019,"(0.0, 0.0, 0.0, 0.0, 0.0, 0.0)",13.518896229676468,0.652218124268636,-0.5805531967350083,"(0.0, 0.0, 0.0, 0.0, 0.0, 0.0)",4.235989675023659,True,"(0.03604421161553453, 0.17370507249479303, 0.023997054004649025)","(0.977918390160971, -0.2089663794678534, -0.002945239730809298)",-0.0072637092147738655,106.51294628204626,True,"(0.09248984053492967, 0.16859656147132646, 0.0560028251905389)","(-0.9865322080052797, 0.16354273190859953, 0.002824430579688253)",0.0005542824400525744,29.471415727374083
