OSUrobotics/InHand-Manipulation/AnalyseData/Data/Trial Data/Tries/new_hand_human_sub1_2v2_e_n_1_kpNone_kdNone_dp1_step1_save_data.csv
,Phase,human_cube_pos,human_cube_orn,Cube_Pos,Cube_Orn,Cube_pos_in_start_pos,b'l_prox_pin'_link_pos,b'l_prox_pin'_link_orn,b'l_distal_pin'_link_pos,b'l_distal_pin'_link_orn,b'r_prox_pin'_link_pos,b'r_prox_pin'_link_orn,b'r_distal_pin'_link_pos,b'r_distal_pin'_link_orn,b'l_prox_pin'_joint_angle,b'l_prox_pin'_joint_vel,b'l_prox_pin'_joint_react_forces,b'l_prox_pin'_joint_motor_torque,b'l_distal_pin'_joint_angle,b'l_distal_pin'_joint_vel,b'l_distal_pin'_joint_react_forces,b'l_distal_pin'_joint_motor_torque,b'r_prox_pin'_joint_angle,b'r_prox_pin'_joint_vel,b'r_prox_pin'_joint_react_forces,b'r_prox_pin'_joint_motor_torque,b'r_distal_pin'_joint_angle,b'r_distal_pin'_joint_vel,b'r_distal_pin'_joint_react_forces,b'r_distal_pin'_joint_motor_torque,in_contact_l,contact_point_l_dist,contact_normal_l_dist,contact_distance_l_dist,contact_norm_force_l_dist,in_contact_r,contact_point_r_dist,contact_normal_r_dist,contact_distance_r_dist,contact_norm_force_r_dist
0,Open,,,,,,"[-0.026750000193715096, 0.05299999937415123, 0.03999999910593033]","[0.0, -0.0, 0.0]","[-0.026750000193715096, 0.125, 0.03999999910593033]","[0.0, -0.0, 0.0]","[0.026750000193715096, 0.05299999937415123, 0.03999999910593033]","[0.0, -0.0, 0.0]","[0.026750000193715096, 0.125, 0.03999999910593033]","[0.0, -0.0, 0.0]",0.0,0.0,"(0.0, 0.0, 0.0, 0.0, 0.0, 0.0)",1.3400621000080305e-17,5.883223478113402e-32,1.4119736347472167e-29,"(0.0, 0.0, 0.0, 0.0, 0.0, 0.0)",1.0542555313129702e-18,-0.008068665190486622,-1.9364796457167894,"(0.0, 0.0, 0.0, 0.0, 0.0, 0.0)",193.26378306879909,-0.0700246186727924,-16.805908481470176,"(0.0, 0.0, 0.0, 0.0, 0.0, 0.0)",71.94009191575694,False,,,,,False,,,,
1,Open,,,,,,"[-0.026750000193715096, 0.05299999937415123, 0.03999999910593033]","[0.0, -0.0, 0.0]","[-0.026750000193715096, 0.125, 0.03999999910593033]","[0.0, -0.0, 5.883223447970011e-32]","[0.026750000193715096, 0.05299999937415123, 0.03999999910593033]","[0.0, 0.0, -0.008068665592501188]","[0.02733093686401844, 0.12499765306711197, 0.03999999910593033]","[0.0, 0.0, -0.0780932845685428]",0.157,37.68,"(0.0, 0.0, 0.0, 0.0, 0.0, 0.0)",54.702693795169004,5.294901130302062e-32,-1.4119736347472162e-30,"(0.0, 0.0, 0.0, 0.0, 0.0, 0.0)",3.9113724975844915,-0.1670280316324969,-38.150247946082466,"(0.0, 0.0, 0.0, 0.0, 0.0, 0.0)",-25.93345404555236,-0.0659493391739072,0.9780670797324476,"(0.0, 0.0, 0.0, 0.0, 0.0, 0.0)",-6.754749483880455,False,,,,,False,,,,
2,Open,,,,,,"[-0.026750000193715096, 0.05299999937415123, 0.03999999910593033]","[0.0, -0.0, 0.1569999988554567]","[-0.03800761699676514, 0.12411445379257202, 0.03999999910593033]","[0.0, -0.0, 0.1569999988554567]","[0.026750000193715096, 0.05299999937415123, 0.03999999910593033]","[0.0, 0.0, -0.16702801712980753]","[0.038720179349184036, 0.1239979937672615, 0.03999999910593033]","[0.0, 0.0, -0.23297739431320727]",0.29829999999999995,33.91199999999999,"(0.0, 0.0, 0.0, 0.0, 0.0, 0.0)",-5.390828189440958,5.294901130302062e-32,0.0,"(0.0, 0.0, 0.0, 0.0, 0.0, 0.0)",-0.3659219356209609,-0.3122944613104081,-34.863943122698686,"(0.0, 0.0, 0.0, 0.0, 0.0, 0.0)",95.8006544774165,-0.06705867534034729,-0.2662406799456205,"(0.0, 0.0, 0.0, 0.0, 0.0, 0.0)",9.049911776264722,False,,,,,False,,,,
3,Open,,,,,,"[-0.026750000193715096, 0.05299999937415123, 0.03999999910593033]","[0.0, -0.0, 0.29830000998707634]","[-0.04791048914194107, 0.12182030081748962, 0.03999999910593033]","[0.0, -0.0, 0.29830000998707634]","[0.026750000193715096, 0.05299999937415123, 0.03999999910593033]","[0.0, 0.0, -0.3122944642903269]","[0.048871491104364395, 0.12151744216680527, 0.03999999910593033]","[0.0, 0.0, -0.3793531994353912]",0.42546999999999996,30.5208,"(0.0, 0.0, 0.0, 0.0, 0.0, 0.0)",-4.858074537215091,5.294901130302062e-32,0.0,"(0.0, 0.0, 0.0, 0.0, 0.0, 0.0)",-0.33154044974508506,-0.44292449566296654,-31.35120824461403,"(0.0, 0.0, 0.0, 0.0, 0.0, 0.0)",100.88457241511576,-0.08373770380977785,-4.0029668326633345,"(0.0, 0.0, 0.0, 0.0, 0.0, 0.0)",24.077304806401806,False,,,,,False,,,,
4,Open,,,,,,"[-0.026750000193715096, 0.05299999937415123, 0.03999999910593033]","[0.0, -0.0, 0.4254700097131474]","[-0.056467924267053604, 0.11858082562685013, 0.03999999910593033]","[0.0, -0.0, 0.4254700097131474]","[0.026750000193715096, 0.05299999937415123, 0.03999999910593033]","[0.0, 0.0, -0.4429245237535421]","[0.057608019560575485, 0.1180521547794342, 0.03999999910593033]","[0.0, 0.0, -0.5266622746639338]",0.5399229999999999,27.46872,"(0.0, 0.0, 0.0, 0.0, 0.0, 0.0)",-4.377393708535371,5.294901130302062e-32,0.0,"(0.0, 0.0, 0.0, 0.0, 0.0, 0.0)",-0.30017707799641646,-0.5623038734984663,-28.651050680519948,"(0.0, 0.0, 0.0, 0.0, 0.0, 0.0)",144.45470973647488,-0.10456727132876567,-4.999096204557077,"(0.0, 0.0, 0.0, 0.0, 0.0, 0.0)",33.97911746732963,False,,,,,False,,,,
5,Open,,,,,,"[-0.026750000193715096, 0.05299999937415123, 0.03999999910593033]","[0.0, -0.0, 0.5399230359738098]","[-0.06376303732395172, 0.11475787311792374, 0.03999999910593033]","[0.0, -0.0, 0.5399230359738098]","[0.026750000193715096, 0.05299999937415123, 0.03999999910593033]","[0.0, 0.0, -0.5623038790270362]","[0.06513584405183792, 0.11391409486532211, 0.03999999910593033]","[0.0, 0.0, -0.6668711870723439]",0.6429307,24.721848,"(0.0, 0.0, 0.0, 0.0, 0.0, 0.0)",-3.943806903965684,5.294901130302062e-32,0.0,"(0.0, 0.0, 0.0, 0.0, 0.0, 0.0)",-0.2716098155097054,-0.6673401099248648,-25.208696742335626,"(0.0, 0.0, 0.0, 0.0, 0.0, 0.0)",94.97739775913854,-0.11755295807544866,-3.116564819203918,"(0.0, 0.0, 0.0, 0.0, 0.0, 0.0)",25.79194570087013,False,,,,,False,,,,
6,Open,,,,,,"[-0.026750000193715096, 0.05299999937415123, 0.03999999910593033]","[0.0, -0.0, 0.6429307111289271]","[-0.06991713494062424, 0.11062463372945786, 0.03999999910593033]","[0.0, -0.0, 0.6429307111289271]","[0.026750000193715096, 0.05299999937415123, 0.03999999910593033]","[0.0, 0.0, -0.6673401753977319]","[0.07131072133779526, 0.10955388844013214, 0.03999999910593033]","[0.0, 0.0, -0.7848931559948581]",0.73563763,22.249663200000004,"(0.0, 0.0, 0.0, 0.0, 0.0, 0.0)",-3.552789792259023,5.294901130302062e-32,0.0,"(0.0, 0.0, 0.0, 0.0, 0.0, 0.0)",-0.24562369466220793,-0.7579917869736262,-21.756402491702737,"(0.0, 0.0, 0.0, 0.0, 0.0, 0.0)",34.46450837185191,-0.10794166402774508,2.3067105714488583,"(0.0, 0.0, 0.0, 0.0, 0.0, 0.0)",8.765009015475858,False,,,,,False,,,,
7,Open,,,,,,"[-0.026750000193715096, 0.05299999937415123, 0.03999999910593033]","[0.0, -0.0, 0.7356376306875043]","[-0.07506632059812546, 0.10638101398944855, 0.03999999910593033]","[0.0, -0.0, 0.7356376306875043]","[0.026750000193715096, 0.05299999937415123, 0.03999999910593033]","[0.0, 0.0, -0.757991847340814]","[0.076247438788414, 0.10528770089149475, 0.03999999910593033]","[0.0, 0.0, -0.8659334873334429]",0.8190738670000001,20.024696880000004,"(0.0, 0.0, 0.0, 0.0, 0.0, 0.0)",-3.2002295086701533,2.3293280891773424e-07,5.5903874140256216e-05,"(0.0, 0.0, 0.0, 0.0, 0.0, 0.0)",-0.22200715926400075,-0.8391926082762636,-19.488197112632974,"(0.0, 0.0, 0.0, 0.0, 0.0, 0.0)",3.295349739497939,-0.09714776835574307,2.590534961280482,"(0.0, 0.0, 0.0, 0.0, 0.0, 0.0)",0.25803221970863044,False,,,,,False,,,,
8,Open,,,,,,"[-0.026750000193715096, 0.05299999937415123, 0.03999999910593033]","[0.0, -0.0, 0.8190738875671263]","[-0.07934698462486267, 0.10216865688562393, 0.03999999910593033]","[0.0, -0.0, 0.8190741465287105]","[0.026750000193715096, 0.05299999937415123, 0.03999999910593033]","[0.0, 0.0, -0.839192558822362]","[0.08032548427581787, 0.10110059380531311, 0.03999999910593033]","[0.0, 0.0, -0.9363403253067936]",0.8941664803,18.022227192,"(0.0, 0.0, 0.0, 0.0, 0.0, 0.0)",-2.8824197251771095,4.2009445145371055e-07,4.4918794208634316e-05,"(0.0, 0.0, 0.0, 0.0, 0.0, 0.0)",-0.2005835928406654,-0.9122733474486373,-17.539377401369673,"(0.0, 0.0, 0.0, 0.0, 0.0, 0.0)",2.7804978356880783,-0.0874331700712747,2.33150358827241,"(0.0, 0.0, 0.0, 0.0, 0.0, 0.0)",0.17017621517521792,False,,,,,False,,,,
9,Open,,,,,,"[-0.026750000193715096, 0.05299999937415123, 0.03999999910593033]","[0.0, -0.0, 0.894166469119967]","[-0.08288749307394028, 0.09808415919542313, 0.03999999910593033]","[0.0, -0.0, 0.894166894674561]","[0.026750000193715096, 0.05299999937415123, 0.03999999910593033]","[0.0, 0.0, -0.9122733503889549]","[0.08369457721710205, 0.09706035256385803, 0.03999999910593033]","[0.0, 0.0, -0.9997066729229968]",0.96174983227,16.220004472800003,"(0.0, 0.0, 0.0, 0.0, 0.0, 0.0)",-2.5959652512206968,5.681494863714967e-07,3.553320838026869e-05,"(0.0, 0.0, 0.0, 0.0, 0.0, 0.0)",-0.18114955764248034,-0.9780460127037736,-15.785439661232708,"(0.0, 0.0, 0.0, 0.0, 0.0, 0.0)",2.503992476159733,-0.0786900142246732,2.098357403184359,"(0.0, 0.0, 0.0, 0.0, 0.0, 0.0)",0.15360133560797545,False,,,,,False,,,,
10,Open,,,,,,"[-0.026750000193715096, 0.05299999937415123, 0.03999999910593033]","[0.0, -0.0, 0.9617498658906226]","[-0.08580395579338074, 0.09419016540050507, 0.03999999910593033]","[0.0, -0.0, 0.9617504517765805]","[0.026750000193715096, 0.05299999937415123, 0.03999999910593033]","[0.0, 0.0, -0.9780460255881384]","[0.08646733313798904, 0.09322238713502884, 0.03999999910593033]","[0.0, 0.0, -1.0567360258914282]",1.022574849043,14.598004025520002,"(0.0, 0.0, 0.0, 0.0, 0.0, 0.0)",-2.337816594086846,6.829231533297027e-07,2.7545680069969436e-05,"(0.0, 0.0, 0.0, 0.0, 0.0, 0.0)",-0.16354029854134106,-1.0372414114333963,-14.206895695109438,"(0.0, 0.0, 0.0, 0.0, 0.0, 0.0)",2.2548456713339484,-0.07082115822448021,1.8885254400463192,"(0.0, 0.0, 0.0, 0.0, 0.0, 0.0)",0.13860128234430863,False,,,,,False,,,,
11,Open,,,,,,"[-0.026750000193715096, 0.05299999937415123, 0.03999999910593033]","[0.0, -0.0, 1.0225748785172661]","[-0.08819860219955444, 0.09052424877882004, 0.03999999910593033]","[0.0, -0.0, 1.0225755149967983]","[0.026750000193715096, 0.05299999937415123, 0.03999999910593033]","[0.0, 0.0, -1.037241417801626]","[0.08874232321977615, 0.08961901068687439, 0.03999999910593033]","[0.0, 0.0, -1.1080626941470386]",1.0773173641387,13.138203622968001,"(0.0, 0.0, 0.0, 0.0, 0.0, 0.0)",-2.105207702642618,7.694903593429899e-07,2.0776129443188934e-05,"(0.0, 0.0, 0.0, 0.0, 0.0, 0.0)",-0.14759587787833617,-1.0905172702900567,-12.78620612559849,"(0.0, 0.0, 0.0, 0.0, 0.0, 0.0)",2.0303755786213302,-0.06373917358809339,1.6996763127328351,"(0.0, 0.0, 0.0, 0.0, 0.0, 0.0)",0.1250328149112744,False,,,,,False,,,,
12,Open,,,,,,"[-0.026750000193715096, 0.05299999937415123, 0.03999999910593033]","[0.0, -0.0, 1.0773173786594632]","[-0.09015969932079315, 0.08710587024688721, 0.03999999910593033]","[0.0, -0.0, 1.0773182784199262]","[0.026750000193715096, 0.05299999937415123, 0.03999999910593033]","[0.0, 0.0, -1.090517334189526]","[0.09060435742139816, 0.0862659215927124, 0.03999999910593033]","[0.0, 0.0, -1.1542564269670996]",1.1265856277248298,11.824383260671203,"(0.0, 0.0, 0.0, 0.0, 0.0, 0.0)",-1.895636869852492,8.322629993378343e-07,1.5065433598762668e-05,"(0.0, 0.0, 0.0, 0.0, 0.0, 0.0)",-0.13316806895824274,-1.138465543261051,-11.50758551303864,"(0.0, 0.0, 0.0, 0.0, 0.0, 0.0)",1.828159741200242,-0.05736537454460671,1.5297117704368035,"(0.0, 0.0, 0.0, 0.0, 0.0, 0.0)",0.11276577482950233,False,,,,,False,,,,
13,Open,,,,,,"[-0.026750000193715096, 0.05299999937415123, 0.03999999910593033]","[0.0, -0.0, 1.126585512342968]","[-0.09176240861415863, 0.08394166082143784, 0.03999999910593033]","[0.0, -0.0, 1.1265864725026016]","[0.026750000193715096, 0.05299999937415123, 0.03999999910593033]","[0.0, 0.0, -1.13846552283997]","[0.09212540090084076, 0.08316715806722641, 0.03999999910593033]","[0.0, 0.0, -1.1958309904194953]",1.1709270739638962,10.641947097375944,"(0.0, 0.0, 0.0, 0.0, 0.0, 0.0)",-1.7068426281171958,7.490366994040668e-07,-1.997431198410421e-05,"(0.0, 0.0, 0.0, 0.0, 0.0, 0.0)",-0.1201229141819637,-1.181618988934946,-10.356826961734775,"(0.0, 0.0, 0.0, 0.0, 0.0, 0.0)",1.6460089386998036,-0.0516289605727552,1.3767393532443621,"(0.0, 0.0, 0.0, 0.0, 0.0, 0.0)",0.1016801309504675,False,,,,,False,,,,
14,Open,,,,,,"[-0.026750000193715096, 0.05299999937415123, 0.03999999910593033]","[0.0, -0.0, 1.170927100750299]","[-0.09307006001472473, 0.08102945238351822, 0.03999999910593033]","[0.0, -0.0, 1.1709279268955939]","[0.026750000193715096, 0.05299999937415123, 0.03999999910593033]","[0.0, 0.0, -1.181618964677462]","[0.09336595237255096, 0.08031877130270004, 0.03999999910593033]","[0.0, 0.0, -1.2332480430241894]",1.2108343746939914,9.577752175222843,"(0.0, 0.0, 0.0, 0.0, 0.0, 0.0)",-1.5367816212184733,6.741330294636471e-07,-1.7976880785700727e-05,"(0.0, 0.0, 0.0, 0.0, 0.0, 0.0)",-0.10832510511520577,-1.2204570900414513,-9.3211442655613,"(0.0, 0.0, 0.0, 0.0, 0.0, 0.0)",1.4819476317934424,-0.04646617569030742,1.239068371787467,"(0.0, 0.0, 0.0, 0.0, 0.0, 0.0)",0.09166757202634872,False,,,,,False,,,,
15,Open,,,,,,"[-0.026750000193715096, 0.05299999937415123, 0.03999999910593033]","[0.0, -0.0, 1.2108343955497323]","[-0.09413553774356842, 0.07836118340492249, 0.03999999910593033]","[0.0, -0.0, 1.2108350590066066]","[0.026750000193715096, 0.05299999937415123, 0.03999999910593033]","[0.0, 0.0, -1.2204571829136446]","[0.09437645971775055, 0.07771158218383789, 0.03999999910593033]","[0.0, 0.0, -1.2669233884677022]",1.2467509445516574,8.619976765839823,"(0.0, 0.0, 0.0, 0.0, 0.0, 0.0)",-1.3836082841687645,6.067197265172809e-07,-1.617919270712788e-05,"(0.0, 0.0, 0.0, 0.0, 0.0, 0.0)",-0.0976689322425957,-1.2554113810373062,-8.38902983900517,"(0.0, 0.0, 0.0, 0.0, 0.0, 0.0)",1.33418955218419,-0.04181965821138139,1.1151641949422484,"(0.0, 0.0, 0.0, 0.0, 0.0, 0.0)",0.08262635083172348,False,,,,,False,,,,
16,Open,,,,,,"[-0.026750000193715096, 0.05299999937415123, 0.03999999910593033]","[0.0, -0.0, 1.2467510110527222]","[-0.09500277042388916, 0.07592508941888809, 0.03999999910593033]","[0.0, -0.0, 1.246751606978466]","[0.026750000193715096, 0.05299999937415123, 0.03999999910593033]","[0.0, 0.0, -1.255411348379259]","[0.09519875049591064, 0.0753331333398819, 0.03999999910593033]","[0.0, 0.0, -1.2972309672073006]",1.2790759424720788,7.757999500901134,"(0.0, 0.0, 0.0, 0.0, 0.0, 0.0)",-1.2456264766665528,5.460477538655564e-07,-1.4561273436413877e-05,"(0.0, 0.0, 0.0, 0.0, 0.0, 0.0)",-0.08804273548135604,-1.2868702429335757,-7.5501268551046525,"(0.0, 0.0, 0.0, 0.0, 0.0, 0.0)",1.2010951569453028,-0.03763895259495742,1.0033693479417523,"(0.0, 0.0, 0.0, 0.0, 0.0, 0.0)",0.07443624620279518,False,,,,,False,,,,
17,Open,,,,,,"[-0.026750000193715096, 0.05299999937415123, 0.03999999910593033]","[0.0, -0.0, 1.2790758758817962]","[-0.09570803493261337, 0.0737072229385376, 0.03999999910593033]","[0.0, -0.0, 1.279076543070645]","[0.026750000193715096, 0.05299999937415123, 0.03999999910593033]","[0.0, 0.0, -1.2868702529032277]","[0.0958673357963562, 0.07316911965608597, 0.03999999910593033]","[0.0, 0.0, -1.3245092079583216]",1.3081683541782927,6.982178809491315,"(0.0, 0.0, 0.0, 0.0, 0.0, 0.0)",-1.1214547881272845,4.914429784790037e-07,-1.3105146092772663e-05,"(0.0, 0.0, 0.0, 0.0, 0.0, 0.0)",-0.07935842445036335,-1.3151832186402181,-6.795114169594187,"(0.0, 0.0, 0.0, 0.0, 0.0, 0.0)",1.0813303776722762,-0.03387513845622188,0.9033153932965301,"(0.0, 0.0, 0.0, 0.0, 0.0, 0.0)",0.0671332140885366,False,,,,,False,,,,
18,Open,,,,,,"[-0.026750000193715096, 0.05299999937415123, 0.03999999910593033]","[0.0, -0.0, 1.3081685077317584]","[-0.09628119319677353, 0.07169259339570999, 0.03999999910593033]","[0.0, -0.0, 1.3081688420037116]","[0.026750000193715096, 0.05299999937415123, 0.03999999910593033]","[0.0, 0.0, -1.3151833180210462]","[0.0964106097817421, 0.07120437920093536, 0.03999999910593033]","[0.0, 0.0, -1.3490583208137596]",1.3343515937922361,6.283977507346439,"(0.0, 0.0, 0.0, 0.0, 0.0, 0.0)",-1.0095234502962538,4.4229868063110187e-07,-1.1794631483496437e-05,"(0.0, 0.0, 0.0, 0.0, 0.0, 0.0)",-0.07151242799013426,-1.3406648967761963,-6.115602752634767,"(0.0, 0.0, 0.0, 0.0, 0.0, 0.0)",0.9733766982319307,-0.030488645890135023,0.8127582158608451,"(0.0, 0.0, 0.0, 0.0, 0.0, 0.0)",0.06043389443502437,False,,,,,False,,,,
19,Open,,,,,,"[-0.026750000193715096, 0.05299999937415123, 0.03999999910593033]","[0.0, -0.0, 1.3343516132327973]","[-0.09674674272537231, 0.06986583769321442, 0.03999999910593033]","[0.0, -0.0, 1.3343518742909517]","[0.026750000193715096, 0.05299999937415123, 0.03999999910593033]","[0.0, 0.0, -1.3406650641721125]","[0.09685182571411133, 0.06942359358072281, 0.03999999910593033]","[0.0, 0.0, -1.3711535141997537]",1.3579165020232475,5.6555779754427675,"(0.0, 0.0, 0.0, 0.0, 0.0, 0.0)",-0.908815068603283,3.980688125679917e-07,-1.0615168335146447e-05,"(0.0, 0.0, 0.0, 0.0, 0.0, 0.0)",-0.06443899555628997,-1.3635984070985767,-5.504042477371291,"(0.0, 0.0, 0.0, 0.0, 0.0, 0.0)",0.8762529342347148,-0.027440700677136106,0.7315068511197402,"(0.0, 0.0, 0.0, 0.0, 0.0, 0.0)",0.05447047199455375,False,,,,,False,,,,
20,Open,,,,,,"[-0.026750000193715096, 0.05299999937415123, 0.03999999910593033]","[0.0, -0.0, 1.3579165616272568]","[-0.09712471067905426, 0.06821184605360031, 0.03999999910593033]","[0.0, -0.0, 1.3579168220324676]","[0.026750000193715096, 0.05299999937415123, 0.03999999910593033]","[0.0, 0.0, -1.3635984874387626]","[0.09721000492572784, 0.06781173497438431, 0.03999999910593033]","[0.0, 0.0, -1.391038999143278]",1.379124912734628,5.090018570731287,"(0.0, 0.0, 0.0, 0.0, 0.0, 0.0)",-0.8181093432901946,3.582619313111918e-07,-9.553651501631975e-06,"(0.0, 0.0, 0.0, 0.0, 0.0, 0.0)",-0.05805656444600148,-1.3842385663887191,-4.953638229634161,"(0.0, 0.0, 0.0, 0.0, 0.0, 0.0)",0.7887796686614,-0.024697458207345226,0.6583781927498114,"(0.0, 0.0, 0.0, 0.0, 0.0, 0.0)",0.04906696219866594,False,,,,,False,,,,
21,Open,,,,,,"[-0.026750000193715096, 0.05299999937415123, 0.03999999910593033]","[0.0, -0.0, 1.3791250138760358]","[-0.097431480884552, 0.06671600043773651, 0.03999999910593033]","[0.0, -0.0, 1.379125441476487]","[0.026750000193715096, 0.05299999937415123, 0.03999999910593033]","[0.0, 0.0, -1.3842387704807777]","[0.09750068932771683, 0.06635437905788422, 0.03999999910593033]","[0.0, 0.0, -1.4089359555920198]",1.3982124763357375,4.581015264266325,"(0.0, 0.0, 0.0, 0.0, 0.0, 0.0)",-0.736440767527544,3.2243573818007335e-07,-8.598286351468431e-06,"(0.0, 0.0, 0.0, 0.0, 0.0, 0.0)",-0.05230069566688366,-1.4028147097498471,-4.458274406670743,"(0.0, 0.0, 0.0, 0.0, 0.0, 0.0)",0.7100248204661547,-0.022228457353918877,0.5925602048223237,"(0.0, 0.0, 0.0, 0.0, 0.0, 0.0)",0.04419550738795512,False,,,,,False,,,,
22,Open,,,,,,"[-0.026750000193715096, 0.05299999937415123, 0.03999999910593033]","[0.0, -0.0, 1.398212403191982]","[-0.09768038988113403, 0.06536444276571274, 0.03999999910593033]","[0.0, -0.0, 1.3982127391121955]","[0.026750000193715096, 0.05299999937415123, 0.03999999910593033]","[0.0, 0.0, -1.4028147367436141]","[0.09773654490709305, 0.06503787636756897, 0.03999999910593033]","[0.0, 0.0, -1.425043249603286]",1.41539127813159,4.122912431004605,"(0.0, 0.0, 0.0, 0.0, 0.0, 0.0)",-0.6629119797514275,2.9019216436206836e-07,-7.738457716321197e-06,"(0.0, 0.0, 0.0, 0.0, 0.0, 0.0)",-0.047110952554753796,-1.4195332387748625,-4.0124469660036715,"(0.0, 0.0, 0.0, 0.0, 0.0, 0.0)",0.639122043629686,-0.020006282193716352,0.5333220384486057,"(0.0, 0.0, 0.0, 0.0, 0.0, 0.0)",0.03980448127730784,False,,,,,False,,,,
23,Open,,,,,,"[-0.026750000193715096, 0.05299999937415123, 0.03999999910593033]","[0.0, -0.0, 1.4153913130976863]","[-0.09788232296705246, 0.06414417922496796, 0.03999999910593033]","[0.0, -0.0, 1.4153916492551244]","[0.026750000193715096, 0.05299999937415123, 0.03999999910593033]","[0.0, 0.0, -1.419533200978404]","[0.09792786836624146, 0.06384945660829544, 0.03999999910593033]","[0.0, 0.0, -1.43953962264216]",1.4308521948391852,3.710620009822829,"(0.0, 0.0, 0.0, 0.0, 0.0, 0.0)",-0.5967141465376924,2.6117294792586297e-07,-6.9646119446892946e-06,"(0.0, 0.0, 0.0, 0.0, 0.0, 0.0)",-0.04243252033060972,-1.4345799148973764,-3.611202269403302,"(0.0, 0.0, 0.0, 0.0, 0.0, 0.0)",0.5752905816912978,-0.01800625757673115,0.4800059080764485,"(0.0, 0.0, 0.0, 0.0, 0.0, 0.0)",0.035847119302725106,False,,,,,False,,,,
24,Open,,,,,,"[-0.026750000193715096, 0.05299999937415123, 0.03999999910593033]","[0.0, -0.0, 1.4308522308396758]","[-0.09804611653089523, 0.06304311752319336, 0.03999999910593033]","[0.0, -0.0, 1.4308524889953425]","[0.026750000193715096, 0.05299999937415123, 0.03999999910593033]","[0.0, 0.0, -1.4345798203875788]","[0.09808305650949478, 0.06277728080749512, 0.03999999910593033]","[0.0, 0.0, -1.4525860233102779]",1.4447670154517032,3.33955694700431,"(0.0, 0.0, 0.0, 0.0, 0.0, 0.0)",-0.5371183399670416,2.3505565313327666e-07,-6.268150750220712e-06,"(0.0, 0.0, 0.0, 0.0, 0.0, 0.0)",-0.038215724097524745,-1.4481219234076388,-3.25008204246297,"(0.0, 0.0, 0.0, 0.0, 0.0, 0.0)",0.5178269079912923,-0.016206175129808063,0.43201978726154083,"(0.0, 0.0, 0.0, 0.0, 0.0, 0.0)",0.032281090261723065,False,,,,,False,,,,
25,Open,,,,,,"[-0.026750000193715096, 0.05299999937415123, 0.03999999910593033]","[0.0, -0.0, 1.4447670328713966]","[-0.09817895293235779, 0.06205010786652565, 0.03999999910593033]","[0.0, -0.0, 1.444767279942354]","[0.026750000193715096, 0.05299999937415123, 0.03999999910593033]","[0.0, 0.0, -1.448121993206969]","[0.09820891171693802, 0.06181041896343231, 0.03999999910593033]","[0.0, 0.0, -1.464328292527651]",1.4572903500158083,3.005600295385231,"(0.0, 0.0, 0.0, 0.0, 0.0, 0.0)",-0.48346773288553907,2.1155008781994918e-07,-5.6413356751985975e-06,"(0.0, 0.0, 0.0, 0.0, 0.0, 0.0)",-0.03441557975733599,-1.460309731066875,-2.9250738382166706,"(0.0, 0.0, 0.0, 0.0, 0.0, 0.0)",0.4660971634241353,-0.01458604665205416,0.3888308346609367,"(0.0, 0.0, 0.0, 0.0, 0.0, 0.0)",0.02906809918784017,False,,,,,False,,,,
26,Open,,,,,,"[-0.026750000193715096, 0.05299999937415123, 0.03999999910593033]","[0.0, -0.0, 1.4572903284443197]","[-0.0982866883277893, 0.06115489453077316, 0.03999999910593033]","[0.0, -0.0, 1.457290496760294]","[0.026750000193715096, 0.05299999937415123, 0.03999999910593033]","[0.0, 0.0, -1.4603097470714805]","[0.09831098467111588, 0.06093886122107506, 0.03999999910593033]","[0.0, 0.0, -1.4748957266800833]",1.4685613150142274,2.705031599620602,"(0.0, 0.0, 0.0, 0.0, 0.0, 0.0)",-0.4351705393327762,6.451570079320701e-07,0.00010406566082690901,"(0.0, 0.0, 0.0, 0.0, 0.0, 0.0)",-0.030980858019910133,-1.4712787579601874,-2.632566454395004,"(0.0, 0.0, 0.0, 0.0, 0.0, 0.0)",0.4195317140232714,-0.013127826203288607,0.3499729077037328,"(0.0, 0.0, 0.0, 0.0, 0.0, 0.0)",0.026174915304067257,False,,,,,False,,,,
27,Open,,,,,,"[-0.026750000193715096, 0.05299999937415123, 0.03999999910593033]","[0.0, -0.0, 1.468561387053761]","[-0.09837405383586884, 0.06034810468554497, 0.03999999910593033]","[0.0, -0.0, 1.46856206052246]","[0.026750000193715096, 0.05299999937415123, 0.03999999910593033]","[0.0, 0.0, -1.4712788457263521]","[0.0983937606215477, 0.06015344336628914, 0.03999999910593033]","[0.0, 0.0, -1.4844066898153299]",1.4787051835128047,2.4345284396585445,"(0.0, 0.0, 0.0, 0.0, 0.0, 0.0)",-0.39169361997870505,9.90302944091314e-07,8.283502467821852e-05,"(0.0, 0.0, 0.0, 0.0, 0.0, 0.0)",-0.027908380636645753,-1.4811508821641686,-2.369309808955505,"(0.0, 0.0, 0.0, 0.0, 0.0, 0.0)",0.37761172288385886,-0.011815389500486988,0.31498480867238876,"(0.0, 0.0, 0.0, 0.0, 0.0, 0.0)",0.023565784902277034,False,,,,,False,,,,
28,Open,,,,,,"[-0.026750000193715096, 0.05299999937415123, 0.03999999910593033]","[0.0, -0.0, 1.478705291578837]","[-0.09844490885734558, 0.05962119251489639, 0.03999999910593033]","[0.0, -0.0, 1.4787063020311213]","[0.026750000193715096, 0.05299999937415123, 0.03999999910593033]","[0.0, 0.0, -1.4811508165812142]","[0.09846089035272598, 0.059445831924676895, 0.03999999910593033]","[0.0, 0.0, -1.4929661803036993]",1.4878346651615242,2.1910755956926895,"(0.0, 0.0, 0.0, 0.0, 0.0, 0.0)",-0.3525567717432964,1.260133821328751e-06,6.47594105369849e-05,"(0.0, 0.0, 0.0, 0.0, 0.0, 0.0)",-0.02512883084921646,-1.4900357939477518,-2.132378828059956,"(0.0, 0.0, 0.0, 0.0, 0.0, 0.0)",0.33987867234123564,-0.010634161993911078,0.28349460157821826,"(0.0, 0.0, 0.0, 0.0, 0.0, 0.0)",0.02121722465902935,False,,,,,False,,,,
29,Close,,,"(0.010000165031897679, 0.16000264050809818, 0.003919197399597577)","(-5.388791991209616e-05, 3.3679978815229247e-06, -9.074720008653711e-11)",,"[-0.026750000193715096, 0.05299999937415123, 0.03999999910593033]","[0.0, -0.0, 1.4878347863434642]","[-0.09850236773490906, 0.058966390788555145, 0.03999999910593033]","[0.0, -0.0, 1.487836060147879]","[0.026750000193715096, 0.05299999937415123, 0.03999999910593033]","[0.0, 0.0, -1.4900358577435544]","[0.09851532429456711, 0.05880843847990036, 0.03999999910593033]","[0.0, 0.0, -1.5006699177660507]",1.4960511986453717,1.971968036123421,"(0.0, 0.0, 0.0, 0.0, 0.0, 0.0)",-0.3173274165677089,1.4662295016849617e-06,4.9462963285490553e-05,"(0.0, 0.0, 0.0, 0.0, 0.0, 0.0)",-0.0226250771191982,-1.4980322145529765,-1.9191409452539587,"(0.0, 0.0, 0.0, 0.0, 0.0, 0.0)",0.3059135755354652,-0.009571026188860925,0.25515259321203676,"(0.0, 0.0, 0.0, 0.0, 0.0, 0.0)",0.01910198878746198,False,,,,,False,,,,
30,Close,,,"(0.010000330010418335, 0.1600052801621647, 0.0076635160840755065)","(-0.00010776674212266888, 6.7354271463595154e-06, -3.629275205618536e-10)",,"[-0.026750000193715096, 0.05299999937415123, 0.03999999910593033]","[0.0, -0.0, 1.4960512148873688]","[-0.09854897111654282, 0.05837664008140564, 0.03999999910593033]","[0.0, -0.0, 1.4960528184988442]","[0.026750000193715096, 0.05299999937415123, 0.03999999910593033]","[0.0, 0.0, -1.4980320325532246]","[0.09855947643518448, 0.05823439359664917, 0.03999999910593033]","[0.0, 0.0, -1.5076033908769837]",1.4064460787808346,-21.505228767488926,"(0.0, 0.0, 0.0, 0.0, 0.0, 0.0)",-36.3250084669997,-0.0899983293673675,-21.599950943248604,"(0.0, 0.0, 0.0, 0.0, 0.0, 0.0)",-4.679137175163469,-1.4082289930976788,21.552773149271438,"(0.0, 0.0, 0.0, 0.0, 0.0, 0.0)",36.314731980366986,0.08138572564206127,21.829620439421326,"(0.0, 0.0, 0.0, 0.0, 0.0, 0.0)",4.675963102097163,False,,,,,False,,,,
31,Close,,,"(0.010000494936733278, 0.16000791898094055, 0.011233038807318392)","(-0.00016163646818851668, 1.0102287881965475e-05, -8.164490687548302e-10)",,"[-0.026750000193715096, 0.05299999937415123, 0.03999999910593033]","[0.0, -0.0, 1.4064460753995969]","[-0.0977797880768776, 0.06478001922369003, 0.03999999910593033]","[0.0, -0.0, 1.316447688923159]","[0.026750000193715096, 0.05299999937415123, 0.03999999910593033]","[0.0, 0.0, -1.4082291009672807]","[0.09780067950487137, 0.06465335935354233, 0.03999999910593033]","[0.0, 0.0, -1.3268431167577472]",1.3258014709027512,-19.354705890740036,"(0.0, 0.0, 0.0, 0.0, 0.0, 0.0)",3.293634345858452,-0.17099893137357702,-19.440144481490286,"(0.0, 0.0, 0.0, 0.0, 0.0, 0.0)",0.41454206639130703,-1.3274060937879109,19.397495834344298,"(0.0, 0.0, 0.0, 0.0, 0.0, 0.0)",-3.302424466356286,0.16324759059973276,19.646847589841162,"(0.0, 0.0, 0.0, 0.0, 0.0, 0.0)",-0.417000033682525,False,,,,,False,,,,
32,Close,,,"(0.010000659812012168, 0.16001055698314023, 0.0146278458391823)","(-0.0002154970996661642, 1.346858017578936e-05, -1.4512199879406586e-09)",,"[-0.026750000193715096, 0.05299999937415123, 0.03999999910593033]","[0.0, -0.0, 1.3258014797145776]","[-0.09659997373819351, 0.07046369463205338, 0.03999999910593033]","[0.0, -0.0, 1.1548026553009842]","[0.026750000193715096, 0.05299999937415123, 0.03999999910593033]","[0.0, 0.0, -1.3274060658778382]","[0.09662791341543198, 0.07035159319639206, 0.03999999910593033]","[0.0, 0.0, -1.1641584718555469]",1.253221323812476,-17.41923530166603,"(0.0, 0.0, 0.0, 0.0, 0.0, 0.0)",2.968525908768914,-0.24389943274171677,-17.49612032835354,"(0.0, 0.0, 0.0, 0.0, 0.0, 0.0)",0.3760013250657054,-1.2546654844091198,17.45774625090986,"(0.0, 0.0, 0.0, 0.0, 0.0, 0.0)",-2.9764803486762395,0.2369232284055285,17.68215307339098,"(0.0, 0.0, 0.0, 0.0, 0.0, 0.0)",-0.3782508887336665,False,,,,,False,,,,
33,Close,,,"(0.010000824637423049, 0.16001319418745247, 0.017848014970055004)","(-0.00026934863811186216, 1.6834304115272585e-05, -2.2671484573282825e-09)",,"[-0.026750000193715096, 0.05299999937415123, 0.03999999910593033]","[0.0, -0.0, 1.25322134811277]","[-0.09514967352151871, 0.07548298686742783, 0.03999999910593033]","[0.0, -0.0, 1.0093219495272472]","[0.026750000193715096, 0.05299999937415123, 0.03999999910593033]","[0.0, 0.0, -1.254665405963893]","[0.09518206864595413, 0.07538418471813202, 0.03999999910593033]","[0.0, 0.0, -1.0177422656183972]",1.1878991914312285,-15.67731177149943,"(0.0, 0.0, 0.0, 0.0, 0.0, 0.0)",2.6751033458225493,-0.3095098469812049,-15.74649941747715,"(0.0, 0.0, 0.0, 0.0, 0.0, 0.0)",0.34074457942162095,-1.1891989359682078,15.711971625818876,"(0.0, 0.0, 0.0, 0.0, 0.0, 0.0)",-2.68229739051067,0.3032312652346067,15.91392883897876,"(0.0, 0.0, 0.0, 0.0, 0.0, 0.0)",-0.3427994254280705,False,,,,,False,,,,
34,Close,,,"(0.010000989414132393, 0.1600158306125408, 0.020893621515273818)","(-0.00032319108508158773, 2.0199459787849396e-05, -3.2641426920478403e-09)",,"[-0.026750000193715096, 0.05299999937415123, 0.03999999910593033]","[0.0, -0.0, 1.1878992229411989]","[-0.09353619813919067, 0.0798998773097992, 0.03999999910593033]","[0.0, -0.0, 0.8783893686316692]","[0.026750000193715096, 0.05299999937415123, 0.03999999910593033]","[0.0, 0.0, -1.1891990098250689]","[0.09357111155986786, 0.07981304824352264, 0.03999999910593033]","[0.0, 0.0, -0.8859677901178742]",1.1291092722881055,-14.109580594349485,"(0.0, 0.0, 0.0, 0.0, 0.0, 0.0)",2.410371321993984,-0.36855918603692256,-14.17184137337224,"(0.0, 0.0, 0.0, 0.0, 0.0, 0.0)",0.3085682529680238,-1.130279042371387,14.140774463236987,"(0.0, 0.0, 0.0, 0.0, 0.0, 0.0)",-2.4168743516397675,0.36290846443105695,14.322527807148063,"(0.0, 0.0, 0.0, 0.0, 0.0, 0.0)",-0.3104421076466392,False,,,,,False,,,,
35,Close,,,"(0.010001154143305145, 0.16001846627704427, 0.023764738319401603)","(-0.00037702444213104407, 2.3564047280946926e-05, -4.4421109431381166e-09)",,"[-0.026750000193715096, 0.05299999937415123, 0.03999999910593033]","[0.0, -0.0, 1.129109292650646]","[-0.09184028953313828, 0.08377749472856522, 0.03999999910593033]","[0.0, -0.0, 0.7605501544333955]","[0.026750000193715096, 0.05299999937415123, 0.03999999910593033]","[0.0, 0.0, -1.130279133319625]","[0.09187624603509903, 0.08370133489370346, 0.03999999910593033]","[0.0, 0.0, -0.7673705429986549]",1.076198345059295,-12.698622534914536,"(0.0, 0.0, 0.0, 0.0, 0.0, 0.0)",2.171584611303578,-0.4217035604248249,-12.75464985309655,"(0.0, 0.0, 0.0, 0.0, 0.0, 0.0)",0.27924890397547353,-1.0772511381342484,12.726697016913292,"(0.0, 0.0, 0.0, 0.0, 0.0, 0.0)",-2.177460333351216,0.4166179127698272,12.89026760130485,"(0.0, 0.0, 0.0, 0.0, 0.0, 0.0)",-0.28095521266819423,False,,,,,False,,,,
36,Close,,,"(0.010001318826104761, 0.16002110119957821, 0.02646143576036139)","(-0.0004308487108156613, 2.692806668198511e-05, -5.800961497533997e-09)",,"[-0.026750000193715096, 0.05299999937415123, 0.03999999910593033]","[0.0, -0.0, 1.076198423330204]","[-0.09012149274349213, 0.08717680722475052, 0.03999999910593033]","[0.0, -0.0, 0.6544948046570066]","[0.026750000193715096, 0.05299999937415123, 0.03999999910593033]","[0.0, 0.0, -1.0772510781061955]","[0.09015743434429169, 0.08711007237434387, 0.03999999910593033]","[0.0, 0.0, -0.660633265810357]",1.0285785105533654,-11.428760281423079,"(0.0, 0.0, 0.0, 0.0, 0.0, 0.0)",1.9562489824637483,-0.4695334693814115,-11.479178149580783,"(0.0, 0.0, 0.0, 0.0, 0.0, 0.0)",0.2525693602526048,-1.0295260243208235,11.454027315221964,"(0.0, 0.0, 0.0, 0.0, 0.0, 0.0)",-1.9615557584917043,0.4649563881200275,11.601234084048077,"(0.0, 0.0, 0.0, 0.0, 0.0, 0.0)",-0.25412110799471943,False,,,,,False,,,,
37,Close,,,"(0.010001483463693249, 0.1600237353987347, 0.0289837817534302)","(-0.0004846638926905951, 3.0291518078376737e-05, -7.3406026780539124e-09)",,"[-0.026750000193715096, 0.05299999937415123, 0.03999999910593033]","[0.0, -0.0, 1.0285786591132733]","[-0.08842277526855469, 0.09015466272830963, 0.03999999910593033]","[0.0, -0.0, 0.5590450207076754]","[0.026750000193715096, 0.05299999937415123, 0.03999999910593033]","[0.0, 0.0, -1.029526007298545]","[0.08845794945955276, 0.09009620547294617, 0.03999999910593033]","[0.0, 0.0, -0.5645696375840792]",0.9857206594980288,-10.285884253280768,"(0.0, 0.0, 0.0, 0.0, 0.0, 0.0)",1.7621005701974557,-0.5125803620007975,-10.331254228652632,"(0.0, 0.0, 0.0, 0.0, 0.0, 0.0)",0.22832114685859464,-0.9865734218887412,10.308624583699766,"(0.0, 0.0, 0.0, 0.0, 0.0, 0.0)",-1.7668917557773562,0.5084609903445115,10.441104533876183,"(0.0, 0.0, 0.0, 0.0, 0.0, 0.0)",-0.22973073640543207,False,,,,,False,,,,
38,Close,,,"(0.010001648057231211, 0.16002636889308344, 0.03133184175509247)","(-0.0005384699893107284, 3.3654401557527444e-05, -9.06094284338731e-09)",,"[-0.026750000193715096, 0.05299999937415123, 0.03999999910593033]","[0.0, -0.0, 0.9857206512877107]","[-0.08677425980567932, 0.09276289492845535, 0.03999999910593033]","[0.0, -0.0, 0.47314034594647597]","[0.026750000193715096, 0.05299999937415123, 0.03999999910593033]","[0.0, 0.0, -0.9865734261287252]","[0.08680814504623413, 0.09271169453859329, 0.03999999910593033]","[0.0, 0.0, -0.4781124141305859]",0.9471485935482259,-9.257295827952692,"(0.0, 0.0, 0.0, 0.0, 0.0, 0.0)",1.5870864595013103,-0.5513225422597601,-9.29812326215102,"(0.0, 0.0, 0.0, 0.0, 0.0, 0.0)",0.2063060901837854,-0.9479160796998671,9.27776212532979,"(0.0, 0.0, 0.0, 0.0, 0.0, 0.0)",-1.5914107470692371,0.5476151091112287,9.396988504012128,"(0.0, 0.0, 0.0, 0.0, 0.0, 0.0)",-0.2075852641555563,False,,,,,False,,,,
39,Close,,,"(0.01000181260787789, 0.16002900170117218, 0.03350567876675359)","(-0.00059226700223067, 3.7016717206835695e-05, -1.0961890388082131e-08)",,"[-0.026750000193715096, 0.05299999937415123, 0.03999999910593033]","[0.0, -0.0, 0.9471485655843503]","[-0.08519625663757324, 0.09504801034927368, 0.03999999910593033]","[0.0, -0.0, 0.3958260670351169]","[0.026750000193715096, 0.05299999937415123, 0.03999999910593033]","[0.0, 0.0, -0.9479160840165974]","[0.08522851020097733, 0.09500313550233841, 0.03999999910593033]","[0.0, 0.0, -0.40030098158424876]",0.9124337341934033,-8.331566245157424,"(0.0, 0.0, 0.0, 0.0, 0.0, 0.0)",1.4293465235171057,-0.5861904835413023,-8.368305907570138,"(0.0, 0.0, 0.0, 0.0, 0.0, 0.0)",0.1863372915981643,-0.9131244717298804,8.349985912796813,"(0.0, 0.0, 0.0, 0.0, 0.0, 0.0)",-1.4332482809264393,0.5828537949244978,8.4572845951846,"(0.0, 0.0, 0.0, 0.0, 0.0, 0.0)",-0.18749708826617498,False,,,,,False,,,,
40,Close,,,"(0.010001977116791199, 0.1600316338415276, 0.035505353338314005)","(-0.0006460549330047555, 4.037846511369274e-05, -1.3043353742532214e-08)",,"[-0.026750000193715096, 0.05299999937415123, 0.03999999910593033]","[0.0, -0.0, 0.9124337715180494]","[-0.08370164781808853, 0.0970512181520462, 0.03999999910593033]","[0.0, -0.0, 0.3262432352987203]","[0.026750000193715096, 0.05299999937415123, 0.03999999910593033]","[0.0, 0.0, -0.9131245532476111]","[0.08373206108808517, 0.09701187163591385, 0.03999999910593033]","[0.0, 0.0, -0.3302707017009406]",0.881190360774063,-7.498409620641681,"(0.0, 0.0, 0.0, 0.0, 0.0, 0.0)",1.2871965203644222,-0.6175716117063803,-7.531470759618704,"(0.0, 0.0, 0.0, 0.0, 0.0, 0.0)",0.16823962301550588,-0.8818120245568923,7.514987321517131,"(0.0, 0.0, 0.0, 0.0, 0.0, 0.0)",-1.2907161198579733,0.6145685930537005,7.611551551008641,"(0.0, 0.0, 0.0, 0.0, 0.0, 0.0)",-0.1692903574529927,False,,,,,False,,,,
41,Close,,,"(0.010002141585127773, 0.16003426533265583, 0.03733092357160428)","(-0.0006998337831870475, 4.3739645365482716e-05, -1.5305241372964883e-08)",,"[-0.026750000193715096, 0.05299999937415123, 0.03999999910593033]","[0.0, -0.0, 0.8811903719537708]","[-0.08229776471853256, 0.09880879521369934, 0.03999999910593033]","[0.0, -0.0, 0.2636187370011511]","[0.026750000193715096, 0.05299999937415123, 0.03999999910593033]","[0.0, 0.0, -0.8818121535754343]","[0.08232623338699341, 0.098774254322052, 0.03999999910593033]","[0.0, 0.0, -0.2672434068711692]",0.8530713246966567,-6.748568658577513,"(0.0, 0.0, 0.0, 0.0, 0.0, 0.0)",1.159112428916087,-0.645814609858602,-6.778319556533189,"(0.0, 0.0, 0.0, 0.0, 0.0, 0.0)",0.15184986451834945,-0.8536308221012031,6.7634885893654175,"(0.0, 0.0, 0.0, 0.0, 0.0, 0.0)",-1.162286562863449,0.6431118940692688,6.85039224373639,"(0.0, 0.0, 0.0, 0.0, 0.0, 0.0)",-0.1528011286002663,False,,,,,False,,,,
42,Close,,,"(0.010002306014043007, 0.16003689619304312, 0.038982445123681576)","(-0.0007536035543313348, 4.7100258049582536e-05, -1.7747461781428295e-08)",,"[-0.026750000193715096, 0.05299999937415123, 0.03999999910593033]","[0.0, -0.0, 0.8530713239495782]","[-0.08098787814378738, 0.10035242885351181, 0.03999999910593033]","[0.0, -0.0, 0.2072567224917457]","[0.026750000193715096, 0.05299999937415123, 0.03999999910593033]","[0.0, 0.0, -0.8536307856313979]","[0.08101436495780945, 0.10032207518815994, 0.03999999910593033]","[0.0, 0.0, -0.21051893017557355]",0.827764192226991,-6.073711792719763,"(0.0, 0.0, 0.0, 0.0, 0.0, 0.0)",1.0437159853832891,-0.671233292632324,-6.100483865693304,"(0.0, 0.0, 0.0, 0.0, 0.0, 0.0)",0.13701657843052062,-0.8282677398910828,6.087139730428875,"(0.0, 0.0, 0.0, 0.0, 0.0, 0.0)",-1.046577966371006,0.6688008493249569,6.165349261365132,"(0.0, 0.0, 0.0, 0.0, 0.0, 0.0)",-0.13787725457419386,False,,,,,False,,,,
43,Close,,,"(0.010002470404691093, 0.16003952644115657, 0.04045997120998789)","(-0.0008073642479911328, 5.0460303253361964e-05, -2.0369923505779015e-08)",,"[-0.026750000193715096, 0.05299999937415123, 0.03999999910593033]","[0.0, -0.0, 0.827764172865234]","[-0.07977228611707687, 0.10170972347259521, 0.03999999910593033]","[0.0, -0.0, 0.15653090169934583]","[0.026750000193715096, 0.05299999937415123, 0.03999999910593033]","[0.0, 0.0, -0.8282677342123946]","[0.07979680597782135, 0.10168302059173584, 0.03999999910593033]","[0.0, 0.0, -0.15946689406029724]",0.8049877730042919,-5.4663406134477865,"(0.0, 0.0, 0.0, 0.0, 0.0, 0.0)",0.9397613700958694,-0.6941100930516082,-5.49043210062821,"(0.0, 0.0, 0.0, 0.0, 0.0, 0.0)",0.12359979365258081,-0.8054409659019746,5.478425757385989,"(0.0, 0.0, 0.0, 0.0, 0.0, 0.0)",-0.9423414139090794,0.6919208948915642,5.548810935985761,"(0.0, 0.0, 0.0, 0.0, 0.0, 0.0)",-0.12437807831439385,False,,,,,False,,,,
44,Close,,,"(0.010002634758225062, 0.1600421560954447, 0.041763552607370504)","(-0.000861115865719684, 5.381978106418352e-05, -2.3172535119669436e-08)",,"[-0.026750000193715096, 0.05299999937415123, 0.03999999910593033]","[0.0, -0.0, 0.8049878180124297]","[-0.07864919304847717, 0.10290464013814926, 0.03999999910593033]","[0.0, -0.0, 0.11087766651689462]","[0.026750000193715096, 0.05299999937415123, 0.03999999910593033]","[0.0, 0.0, -0.805440964305088]","[0.07867180556058884, 0.10288111865520477, 0.03999999910593033]","[0.0, 0.0, -0.11352005282047319]",0.7844889957038628,-4.919706552103008,"(0.0, 0.0, 0.0, 0.0, 0.0, 0.0)",0.8461229857261192,-0.7146992007028113,-4.9413858362887435,"(0.0, 0.0, 0.0, 0.0, 0.0, 0.0)",0.11147055767666862,-0.784896869311777,4.930583181647391,"(0.0, 0.0, 0.0, 0.0, 0.0, 0.0)",-0.8484484764814869,0.7127289230968237,4.993926769262272,"(0.0, 0.0, 0.0, 0.0, 0.0, 0.0)",-0.11217399151444789,False,,,,,False,,,,
45,Close,,,"(0.010002799075796832, 0.16004478517433812, 0.04289323765696492)","(-0.0009148584090699577, 5.7178691569402595e-05, -2.615520523253533e-08)",,"[-0.026750000193715096, 0.05299999937415123, 0.03999999910593033]","[0.0, -0.0, 0.7844890998130931]","[-0.07761538028717041, 0.10395795106887817, 0.03999999910593033]","[0.0, -0.0, 0.06978979019501255]","[0.026750000193715096, 0.05299999937415123, 0.03999999910593033]","[0.0, 0.0, -0.7848969068252226]","[0.07763615995645523, 0.10393720120191574, 0.03999999910593033]","[0.0, 0.0, -0.07216794899535915]",0.7660400961334765,-4.427735896892706,"(0.0, 0.0, 0.0, 0.0, 0.0, 0.0)",0.7617842633888049,-0.7332293860893543,-4.447244492770317,"(0.0, 0.0, 0.0, 0.0, 0.0, 0.0)",0.10051040065139705,-0.7664071823805993,4.43752486348265,"(0.0, 0.0, 0.0, 0.0, 0.0, 0.0)",-0.7638800006181159,0.7314561369107427,4.4945313153405815,"(0.0, 0.0, 0.0, 0.0, 0.0, 0.0)",-0.10114590297300163,False,,,,,False,,,,
46,Close,,,"(0.010002963358557236, 0.16004741369625017, 0.04384907226694074)","(-0.0009685918795946493, 6.053703485636736e-05, -2.9317842489583264e-08)",,"[-0.026750000193715096, 0.05299999937415123, 0.03999999910593033]","[0.0, -0.0, 0.7660400611296081]","[-0.07666666060686111, 0.10488764196634293, 0.03999999910593033]","[0.0, -0.0, 0.03281071507840289]","[0.026750000193715096, 0.05299999937415123, 0.03999999910593033]","[0.0, 0.0, -0.7664072421942376]","[0.07668570429086685, 0.1048693135380745, 0.03999999910593033]","[0.0, 0.0, -0.034951044856727606]",0.7494360865201288,-3.9849623072034346,"(0.0, 0.0, 0.0, 0.0, 0.0, 0.0)",0.6858274307469967,-0.7499065425503956,-4.00251755064992,"(0.0, 0.0, 0.0, 0.0, 0.0, 0.0)",0.09061074551408163,-0.7497664641425394,3.993772377134385,"(0.0, 0.0, 0.0, 0.0, 0.0, 0.0)",-0.687715858628275,0.7483106188917945,4.045075675452436,"(0.0, 0.0, 0.0, 0.0, 0.0, 0.0)",-0.0911846511961082,False,,,,,False,,,,
47,Close,,,"(0.010003127607656072, 0.16005004167957756, 0.04463109991511072)","(-0.0010223162788461832, 6.389481101241881e-05, -3.266035557177819e-08)",,"[-0.026750000193715096, 0.05299999937415123, 0.03999999910593033]","[0.0, -0.0, 0.7494360616149593]","[-0.07579827308654785, 0.1057092696428299, 0.03999999910593033]","[0.0, 0.0, -0.0004704560764906971]","[0.026750000193715096, 0.05299999937415123, 0.03999999910593033]","[0.0, 0.0, -0.7497665229086657]","[0.07581568509340286, 0.10569305717945099, 0.03999999910593033]","[0.0, 0.0, -0.0014558451980572749]",0.7344924778681159,-3.5864660764830925,"(0.0, 0.0, 0.0, 0.0, 0.0, 0.0)",0.6173964535890987,-0.7649170867399279,-3.602530605487755,"(0.0, 0.0, 0.0, 0.0, 0.0, 0.0)",0.08164456777638714,-0.7347898177282856,3.594395139420947,"(0.0, 0.0, 0.0, 0.0, 0.0, 0.0)",-0.6190976969486747,0.7634807630496571,3.640834597887006,"(0.0, 0.0, 0.0, 0.0, 0.0, 0.0)",-0.08216248942295386,False,,,,,False,,,,
48,Close,,,"(0.010003291824242136, 0.16005266914270105, 0.04523936165140331)","(-0.0010760316083767074, 6.725202012489063e-05, -3.618265319583079e-08)",,"[-0.026750000193715096, 0.05299999937415123, 0.03999999910593033]","[0.0, -0.0, 0.7344925283960385]","[-0.07500515878200531, 0.10643631219863892, 0.03999999910593033]","[0.0, 0.0, -0.03042460756171801]","[0.026750000193715096, 0.05299999937415123, 0.03999999910593033]","[0.0, 0.0, -0.7347898072320369]","[0.07502105087041855, 0.10642196238040924, 0.03999999910593033]","[0.0, -0.0, 0.02869094358658587]",0.7210432300813043,-3.2278194688347814,"(0.0, 0.0, 0.0, 0.0, 0.0, 0.0)",0.5558325697509924,-0.7784264585698546,-3.242249239182412,"(0.0, 0.0, 0.0, 0.0, 0.0, 0.0)",0.07360980854604388,-0.721310835955457,3.234955625478854,"(0.0, 0.0, 0.0, 0.0, 0.0, 0.0)",-0.5573653664591504,0.7771337741124673,3.2767226550744537,"(0.0, 0.0, 0.0, 0.0, 0.0, 0.0)",-0.07407741180822026,False,,,,,False,,,,
49,Close,,,"(0.010003456009463264, 0.16005529610398603, 0.04567389610019914)","(-0.0011297378697381003, 7.060866228110946e-05, -3.988464411418517e-08)",,"[-0.026750000193715096, 0.05299999937415123, 0.03999999910593033]","[0.0, -0.0, 0.7210432806675134]","[-0.07428213953971863, 0.10708045214414597, 0.03999999910593033]","[0.0, 0.0, -0.05738323236538354]","[0.026750000193715096, 0.05299999937415123, 0.03999999910593033]","[0.0, 0.0, -0.7213108742429458]","[0.07429660856723785, 0.10706773400306702, 0.03999999910593033]","[0.0, -0.0, 0.055822934727123366]",0.7089389070731739,-2.905037521951305,"(0.0, 0.0, 0.0, 0.0, 0.0, 0.0)",0.5003668279346805,-0.7905847863436858,-2.9179986657194803,"(0.0, 0.0, 0.0, 0.0, 0.0, 0.0)",0.06632903103169341,-0.7091797523599113,2.9114600629309684,"(0.0, 0.0, 0.0, 0.0, 0.0, 0.0)",-0.5017475469139866,0.7894213765247267,2.9490245789422476,"(0.0, 0.0, 0.0, 0.0, 0.0, 0.0)",-0.06675091074714168,False,,,,,False,,,,
50,Close,,,"(0.010001644182078712, 0.16005595153396976, 0.045940321410535084)","(-0.0011271805217326655, 1.767785898679914e-05, -1.508889111938428e-08)",,"[-0.026750000193715096, 0.05299999937415123, 0.03999999910593033]","[0.0, -0.0, 0.7089389671526269]","[-0.07362406700849533, 0.10765182226896286, 0.03999999910593033]","[0.0, 0.0, -0.0816458831341846]","[0.026750000193715096, 0.05299999937415123, 0.03999999910593033]","[0.0, 0.0, -0.7091797033714331]","[0.0736372321844101, 0.10764053463935852, 0.03999999910593033]","[0.0, -0.0, 0.080241625318197]",0.6980450163658565,-2.6145337697561732,"(0.0, 0.0, 0.0, 0.0, 0.0, 0.0)",0.4504252946028887,-0.8015271849301012,-2.6261756607397033,"(0.0, 0.0, 0.0, 0.0, 0.0, 0.0)",0.05976105481718055,-0.6982617771239201,2.620314056637871,"(0.0, 0.0, 0.0, 0.0, 0.0, 0.0)",-0.45166891501191225,0.800480121678782,2.654098836973295,"(0.0, 0.0, 0.0, 0.0, 0.0, 0.0)",-0.06014158610713743,False,,,,,False,,,,
51,Close,,,"(0.009998458164918766, 0.16005543218265145, 0.046184544665354044)","(-0.001116587313714928, -4.731063982249702e-05, 3.3486629919706074e-09)",,"[-0.026750000193715096, 0.05299999937415123, 0.03999999910593033]","[0.0, -0.0, 0.6980450466292163]","[-0.07302592694759369, 0.10815921425819397, 0.03999999910593033]","[0.0, 0.0, -0.10348216557051321]","[0.026750000193715096, 0.05299999937415123, 0.03999999910593033]","[0.0, 0.0, -0.6982617371246688]","[0.07303788512945175, 0.10814917832612991, 0.03999999910593033]","[0.0, -0.0, 0.10221835745645769]",0.6882405147292708,-2.353080392780556,"(0.0, 0.0, 0.0, 0.0, 0.0, 0.0)",0.405459811265716,-0.8113752567074003,-2.363537226551786,"(0.0, 0.0, 0.0, 0.0, 0.0, 0.0)",0.0538375151744371,-0.6884355994115281,2.3582826509740835,"(0.0, 0.0, 0.0, 0.0, 0.0, 0.0)",-0.40657985786602613,0.8104329048183624,2.388667953499282,"(0.0, 0.0, 0.0, 0.0, 0.0, 0.0)",-0.054180673204492026,False,,,,,False,,,,
52,Close,,,"(0.0099979269032565, 0.16005188637635104, 0.04640949954916324)","(-0.0010442772263960227, -5.814874739306873e-05, 7.787963860925158e-09)",,"[-0.026750000193715096, 0.05299999937415123, 0.03999999910593033]","[0.0, -0.0, 0.688240548987758]","[-0.07248289883136749, 0.10861026495695114, 0.03999999910593033]","[0.0, 0.0, -0.12313474464752895]","[0.026750000193715096, 0.05299999937415123, 0.03999999910593033]","[0.0, 0.0, -0.6884356086136862]","[0.07249374687671661, 0.10860133916139603, 0.03999999910593033]","[0.0, -0.0, 0.12199730027191524]",0.6794164123560951,-2.1177845695621733,"(0.0, 0.0, 0.0, 0.0, 0.0, 0.0)",0.3649762150952054,-0.8202377310366603,-2.1269938390223935,"(0.0, 0.0, 0.0, 0.0, 0.0, 0.0)",0.04851278640380781,-0.6795919882453975,2.1224666798713465,"(0.0, 0.0, 0.0, 0.0, 0.0, 0.0)",-0.36598489535717693,0.8193896143365261,2.1496102843593032,"(0.0, 0.0, 0.0, 0.0, 0.0, 0.0)",-0.04882228423209319,False,,,,,False,,,,
53,Close,,,"(0.009997966950406065, 0.16004795201914346, 0.046616050094935475)","(-0.0009640430328522325, -5.7324486097668704e-05, 4.2980615420070005e-09)",,"[-0.026750000193715096, 0.05299999937415123, 0.03999999910593033]","[0.0, -0.0, 0.6794163791618646]","[-0.07199041545391083, 0.10901165008544922, 0.03999999910593033]","[0.0, 0.0, -0.14082132701803468]","[0.026750000193715096, 0.05299999937415123, 0.03999999910593033]","[0.0, 0.0, -0.6795920181483843]","[0.07200025022029877, 0.1090037003159523, 0.03999999910593033]","[0.0, -0.0, 0.13979763194464842]",0.6714747711204856,-1.9059938965462826,"(0.0, 0.0, 0.0, 0.0, 0.0, 0.0)",0.32852913351321567,-0.8282145988544299,-1.9144482762646995,"(0.0, 0.0, 0.0, 0.0, 0.0, 0.0)",0.0436630569468611,-0.6716327894208577,1.9102077178895396,"(0.0, 0.0, 0.0, 0.0, 0.0, 0.0)",-0.32943746298543863,0.8274512979165263,1.934804059200042,"(0.0, 0.0, 0.0, 0.0, 0.0, 0.0)",-0.04394184105629827,False,,,,,False,,,,
54,Close,,,"(0.009998107600018924, 0.16004411888380865, 0.0468059782297436)","(-0.0008858309445970004, -5.447527859797503e-05, 4.128601528647624e-08)",,"[-0.026750000193715096, 0.05299999937415123, 0.03999999910593033]","[0.0, -0.0, 0.6714747449539094]","[-0.07154417037963867, 0.10936915874481201, 0.03999999910593033]","[0.0, 0.0, -0.15673984427776605]","[0.026750000193715096, 0.05299999937415123, 0.03999999910593033]","[0.0, 0.0, -0.6716327690441329]","[0.07155308127403259, 0.10936208069324493, 0.03999999910593033]","[0.0, -0.0, 0.1558185225902853]",0.664327294008437,-1.715394506891655,"(0.0, 0.0, 0.0, 0.0, 0.0, 0.0)",0.29571708184661616,-0.8353937164487597,-1.7229882226391329,"(0.0, 0.0, 0.0, 0.0, 0.0, 0.0)",0.039341065535651636,-0.6644695104787719,1.7191869461005853,"(0.0, 0.0, 0.0, 0.0, 0.0, 0.0)",-0.29653499658346566,0.834706749294477,1.7413083307081587,"(0.0, 0.0, 0.0, 0.0, 0.0, 0.0)",-0.03959243687933702,False,,,,,False,,,,
55,Close,,,"(0.009998248644105466, 0.16004048002584464, 0.0469807018618576)","(-0.0008115684428503489, -5.1596750749095254e-05, 7.881188886077776e-08)",,"[-0.026750000193715096, 0.05299999937415123, 0.03999999910593033]","[0.0, -0.0, 0.6643273336690038]","[-0.07114013284444809, 0.10968787968158722, 0.03999999910593033]","[0.0, 0.0, -0.17106641442455991]","[0.026750000193715096, 0.05299999937415123, 0.03999999910593033]","[0.0, 0.0, -0.6644694779113771]","[0.07114819437265396, 0.10968156903982162, 0.03999999910593033]","[0.0, -0.0, 0.1702372257953365]",0.6578945646075933,-1.5438550562024898,"(0.0, 0.0, 0.0, 0.0, 0.0, 0.0)",0.2661784902998186,-0.8418548648671074,-1.5506756204034364,"(0.0, 0.0, 0.0, 0.0, 0.0, 0.0)",0.035429537673843194,-0.6580225594308947,1.5472682514905263,"(0.0, 0.0, 0.0, 0.0, 0.0, 0.0)",-0.2669149525505128,0.8412365977533917,1.5671636301395178,"(0.0, 0.0, 0.0, 0.0, 0.0, 0.0)",-0.03565606422404734,False,,,,,False,,,,
56,Close,,,"(0.009998390752654573, 0.16003702894197389, 0.04714144752999396)","(-0.0007411380797103218, -4.869650481896534e-05, 1.1687517768299383e-07)",,"[-0.026750000193715096, 0.05299999937415123, 0.03999999910593033]","[0.0, -0.0, 0.6578945475257985]","[-0.07077456265687943, 0.1099722608923912, 0.03999999910593033]","[0.0, 0.0, -0.18396030270869265]","[0.026750000193715096, 0.05299999937415123, 0.03999999910593033]","[0.0, 0.0, -0.6580225896942233]","[0.07078184932470322, 0.10996662080287933, 0.03999999910593033]","[0.0, -0.0, 0.18321404905874217]",0.652105108146834,-1.3894695505822403,"(0.0, 0.0, 0.0, 0.0, 0.0, 0.0)",0.23958744573477722,-0.847669846705461,-1.3955956412048647,"(0.0, 0.0, 0.0, 0.0, 0.0, 0.0)",0.03190485263505169,-0.6522203034878052,1.3925414263414735,"(0.0, 0.0, 0.0, 0.0, 0.0, 0.0)",-0.24025053621095405,0.8471134092992156,1.4104347709977643,"(0.0, 0.0, 0.0, 0.0, 0.0, 0.0)",-0.032108963197008476,False,,,,,False,,,,
57,Close,,,"(0.009998534235924597, 0.16003375955333046, 0.04728933347451534)","(-0.0006744157946989166, -4.576820860538318e-05, 1.554405829918684e-07)",,"[-0.026750000193715096, 0.05299999937415123, 0.03999999910593033]","[0.0, -0.0, 0.6521051450040646]","[-0.07044398784637451, 0.11022617667913437, 0.03999999910593033]","[0.0, 0.0, -0.1955647357209645]","[0.026750000193715096, 0.05299999937415123, 0.03999999910593033]","[0.0, 0.0, -0.6522203497730787]","[0.07045057415962219, 0.11022114753723145, 0.03999999910593033]","[0.0, -0.0, 0.19489310642631238]",0.6468945973321506,-1.250522595524016,"(0.0, 0.0, 0.0, 0.0, 0.0, 0.0)",0.21565039963428614,-0.852903283744492,-1.2560248893674326,"(0.0, 0.0, 0.0, 0.0, 0.0, 0.0)",0.028729151898092845,-0.6469982731390247,1.2532872837073263,"(0.0, 0.0, 0.0, 0.0, 0.0, 0.0)",-0.21624740328243594,0.8524024927781728,1.2693800349497129,"(0.0, 0.0, 0.0, 0.0, 0.0, 0.0)",-0.0289130430185823,False,,,,,False,,,,
58,Close,,,"(0.009998679410322496, 0.16003066597344334, 0.0474253884764576)","(-0.0006112814540129935, -4.2805404436077314e-05, 1.9447426774393396e-07)",,"[-0.026750000193715096, 0.05299999937415123, 0.03999999910593033]","[0.0, -0.0, 0.6468945636476681]","[-0.07014521211385727, 0.11045306921005249, 0.03999999910593033]","[0.0, 0.0, -0.20600871033533386]","[0.026750000193715096, 0.05299999937415123, 0.03999999910593033]","[0.0, 0.0, -0.6469982503054421]","[0.07015117257833481, 0.11044856905937195, 0.03999999910593033]","[0.0, -0.0, 0.20540420479222296]",0.6422051375989355,-1.1254703359716152,"(0.0, 0.0, 0.0, 0.0, 0.0, 0.0)",0.1941029236183173,-0.8576133350842742,-1.1304123215477382,"(0.0, 0.0, 0.0, 0.0, 0.0, 0.0)",0.02586820035912775,-0.6422984458251222,1.1279585553365932,"(0.0, 0.0, 0.0, 0.0, 0.0, 0.0)",-0.19464040682286005,0.8571626256462356,1.142431888335065,"(0.0, 0.0, 0.0, 0.0, 0.0, 0.0)",-0.026033857498835425,False,,,,,False,,,,
59,Move,,,"(0.009998826598722164, 0.16002774252192944, 0.04755055901421763)","(-0.0005516191299448554, -3.980150267197137e-05, 2.339437659612592e-07)","[0.0, 0.0, 0.0]","[-0.026750000193715096, 0.05299999937415123, 0.03999999910593033]","[0.0, -0.0, 0.6422051137296667]","[-0.0698753148317337, 0.11065594106912613, 0.03999999910593033]","[0.0, 0.0, -0.21540818895979197]","[0.026750000193715096, 0.05299999937415123, 0.03999999910593033]","[0.0, 0.0, -0.6422983956794274]","[0.06988069415092468, 0.1106519103050232, 0.03999999910593033]","[0.0, -0.0, 0.21486418922961412]",0.637984623839042,-1.0129233023744526,"(0.0, 0.0, 0.0, 0.0, 0.0, 0.0)",0.1747068474293042,-0.8618523434607449,-1.01736201035297,"(0.0, 0.0, 0.0, 0.0, 0.0, 0.0)",0.02329106025577139,-0.63806860124261,1.015162699802933,"(0.0, 0.0, 0.0, 0.0, 0.0, 0.0)",-0.17519072798068908,0.8614467071568374,1.02817956254443,"(0.0, 0.0, 0.0, 0.0, 0.0, 0.0)",-0.023440277268956776,False,,,,,True,"(0.042760133063031475, 0.1797417494734821, 0.023999956434636358)","(-0.9999999990838296, -1.9447426700153277e-07, -4.280540441894436e-05)",0.0013234546250558287,0.0
60,Move,,,"(0.008581690528345016, 0.15978471939865277, 0.04769270880518069)","(0.0016521444521756454, 0.0029600315661324258, 0.019678205234260164)","[-0.001417136070377148, -0.00024302312327667552, 0.00014214979096306007]","[-0.026750000193715096, 0.05299999937415123, 0.03999999910593033]","[0.0, -0.0, 0.6379846501970732]","[-0.06963159143924713, 0.1108374372124672, 0.03999999910593033]","[0.0, 0.0, -0.22386774003596563]","[0.026750000193715096, 0.05299999937415123, 0.03999999910593033]","[0.0, 0.0, -0.638068602671057]","[0.06963644921779633, 0.11083383113145828, 0.03999999910593033]","[0.0, -0.0, 0.22337813208874505]",0.6141590150728238,-5.718146103892376,"(0.0, 0.0, 0.0, 0.0, 0.0, 0.0)",-6.715100412254032,-0.8614284426230978,0.10173620103529757,"(0.0, 0.0, 0.0, 0.0, 0.0, 0.0)",-0.37236411304017625,-0.6186726037336626,4.655039402147372,"(0.0, 0.0, 0.0, 0.0, 0.0, 0.0)",17.280687247031832,0.8601907272807687,-0.30143517025645683,"(0.0, 0.0, 0.0, 0.0, 0.0, 0.0)",7.160138423329862,False,,,,,True,"(0.041928617359424214, 0.1796987793962895, 0.023999959438538117)","(-0.999999999207893, -2.3394376697498698e-07, -3.98015026593764e-05)",0.0004918578922307104,97.83922706632252
61,Move,,,"(0.006785635611892787, 0.15941775884877057, 0.04776287218192061)","(-0.00026582396697794633, 0.0035020072048632376, 0.043164468011858394)","[-0.003213190986829377, -0.0006099836731588704, 0.0002123131677029752]","[-0.026750000193715096, 0.05299999937415123, 0.03999999910593033]","[0.0, -0.0, 0.6141590305095613]","[-0.06824154406785965, 0.11184260249137878, 0.03999999910593033]","[0.0, 0.0, -0.24726943904195675]","[0.026750000193715096, 0.05299999937415123, 0.03999999910593033]","[0.0, 0.0, -0.6186725846952548]","[0.06850671023130417, 0.11165472865104675, 0.03999999910593033]","[0.0, -0.0, 0.24151810660672957]",0.5923752626809222,-5.228100574056365,"(0.0, 0.0, 0.0, 0.0, 0.0, 0.0)",0.6968351963581564,-0.8614708327068625,-0.01017362010353029,"(0.0, 0.0, 0.0, 0.0, 0.0, 0.0)",0.038609471119161125,-0.600865569304458,4.273688263009096,"(0.0, 0.0, 0.0, 0.0, 0.0, 0.0)",2.4244753066686964,0.8601972950194317,0.0015762572791019336,"(0.0, 0.0, 0.0, 0.0, 0.0, 0.0)",1.6901454046926252,False,,,,,True,"(0.03955429183766288, 0.18000575132626948, 0.023999959438538117)","(-0.999999999207893, -2.3394376697498698e-07, -3.98015026593764e-05)",-5.201105941770929e-07,15.901459937305935
62,Move,,,"(0.004974758325413157, 0.1590304088041107, 0.0478049507135417)","(-0.0002709376565968022, 0.0013689975782517232, 0.0654412778089667)","[-0.005024068273309008, -0.000997333717818738, 0.0002543916993240636]","[-0.026750000193715096, 0.05299999937415123, 0.03999999910593033]","[0.0, -0.0, 0.5923752994005711]","[-0.0669499859213829, 0.1127324104309082, 0.03999999910593033]","[0.0, 0.0, -0.2690956174748103]","[0.026750000193715096, 0.05299999937415123, 0.03999999910593033]","[0.0, 0.0, -0.6008655476486737]","[0.06745567917823792, 0.11238895356655121, 0.03999999910593033]","[0.0, -0.0, 0.2593317326804987]",0.5711989617740633,-5.082312217646158,"(0.0, 0.0, 0.0, 0.0, 0.0, 0.0)",0.21019197612704418,-0.8614665936984861,0.0010173620103532954,"(0.0, 0.0, 0.0, 0.0, 0.0, 0.0)",0.01572988762949781,-0.5830242291643031,4.2819216336371735,"(0.0, 0.0, 0.0, 0.0, 0.0, 0.0)",0.7062407893834178,0.8601655061306062,-0.007629333318117529,"(0.0, 0.0, 0.0, 0.0, 0.0, 0.0)",0.37765288121473356,False,,,,,True,"(0.03729034011111917, 0.1802134120007368, 0.023999959438538117)","(-0.999999999207893, -2.3394376697498698e-07, -3.98015026593764e-05)",2.867285679870257e-05,5.677777414256066
63,Move,,,"(0.0031153738592049115, 0.158621548246255, 0.047768881230557024)","(0.0011689162831583606, -0.001608360936868358, 0.0870630122286854)","[-0.006883452739517253, -0.001406194275674455, 0.0002183222163393908]","[-0.026750000193715096, 0.05299999937415123, 0.03999999910593033]","[0.0, -0.0, 0.5711990747287706]","[-0.06567616015672684, 0.11357024312019348, 0.03999999910593033]","[0.0, 0.0, -0.2902676533562998]","[0.026750000193715096, 0.05299999937415123, 0.03999999910593033]","[0.0, 0.0, -0.5830242539524286]","[0.06638967990875244, 0.11310570687055588, 0.03999999910593033]","[0.0, -0.0, 0.2771412594306359]",0.5508458281819245,-4.884752062113311,"(0.0, 0.0, 0.0, 0.0, 0.0, 0.0)",0.2841868160106719,-0.8614670175993238,-0.00010173620103426373,"(0.0, 0.0, 0.0, 0.0, 0.0, 0.0)",0.019856953967708826,-0.5652124077095647,4.274837149137202,"(0.0, 0.0, 0.0, 0.0, 0.0, 0.0)",0.7576359435712802,0.8601351052379504,-0.007296214237377811,"(0.0, 0.0, 0.0, 0.0, 0.0, 0.0)",0.4251704337764721,False,,,,,True,"(0.03502126387372198, 0.180382206687425, 0.023999959438538117)","(-0.999999999207893, -2.3394376697498698e-07, -3.98015026593764e-05)",-4.205595708291809e-06,6.201362754238296
64,Move,,,"(0.0028497122443591517, 0.15941086799018273, 0.04774470459108219)","(0.001902652826376827, -0.0007092665054023442, 0.08541490863152736)","[-0.007149114354363013, -0.0006168745317467195, 0.00019414557686455586]","[-0.026750000193715096, 0.05299999937415123, 0.03999999910593033]","[0.0, -0.0, 0.5508458780488563]","[-0.06443538516759872, 0.11434990912675858, 0.03999999910593033]","[0.0, 0.0, -0.3106211603998064]","[0.026750000193715096, 0.05299999937415123, 0.03999999910593033]","[0.0, 0.0, -0.5652124625190996]","[0.06531285494565964, 0.11380218714475632, 0.03999999910593033]","[0.0, -0.0, 0.2949227140838436]",0.5330420236281818,-4.2729130928982615,"(0.0, 0.0, 0.0, 0.0, 0.0, 0.0)",-61.54165204721372,-0.8360420868249164,6.101983385857751,"(0.0, 0.0, 0.0, 0.0, 0.0, 0.0)",-29.620335947412155,-0.5491882032343379,3.8458090740544373,"(0.0, 0.0, 0.0, 0.0, 0.0, 0.0)",51.25617203644133,0.8371649906251095,-5.512827507081823,"(0.0, 0.0, 0.0, 0.0, 0.0, 0.0)",24.557347270902223,True,"(-0.030832545317868762, 0.1807127808202267, 0.05600160912020266)","(0.9962111208292936, 0.08695295229818066, 0.0016083602434391394)",0.00044815543292519075,512.1642887829244,True,"(0.032754421292734814, 0.18049483973172653, 0.023998390879797334)","(-0.9962111208292934, -0.08695295229818277, -0.0016083602434461906)",-4.653567228176307e-05,383.55765076114375
65,Move,"(0.0028, 0.0, -0.0019)","(0.0, 0.03882310388136187, 0.0)","(0.002786481442794351, 0.16030168777205886, 0.04772774505726501)","(0.0032252368145547815, -7.390281942999974e-05, 0.0853017781173958)","[-0.007212345155927813, 0.00027394525012941484, 0.000177186043047374]","[-0.026750000193715096, 0.05299999937415123, 0.03999999910593033]","[0.0, -0.0, 0.533042078187686]","[-0.06333720684051514, 0.11501109600067139, 0.03999999910593033]","[0.0, 0.0, -0.3030000999835028]","[0.026750000193715096, 0.05299999937415123, 0.03999999910593033]","[0.0, 0.0, -0.5491882384284273]","[0.06433364003896713, 0.11441229283809662, 0.03999999910593033]","[0.0, -0.0, 0.2879767863600428]",0.5162048653993885,-4.040917974910391,"(0.0, 0.0, 0.0, 0.0, 0.0, 0.0)",-68.05301400173609,-0.8094402654933301,6.384437119580721,"(0.0, 0.0, 0.0, 0.0, 0.0, 0.0)",-34.39991711213009,-0.5333741835155834,3.7953647325010893,"(0.0, 0.0, 0.0, 0.0, 0.0, 0.0)",66.17935689167203,0.8117013321001185,-6.111278045997846,"(0.0, 0.0, 0.0, 0.0, 0.0, 0.0)",32.19838319435653,True,"(-0.030240264815508205, 0.18161889590793284, 0.05600071002640516)","(0.9963541133455898, 0.0853110647010837, 0.0007092664459357189)",-0.0003681115559416471,549.4744078098175,True,"(0.03223966515277637, 0.18132420385031367, 0.023999289973594844)","(-0.9963541133455897, -0.08531106470108496, -0.000709266445934942)",-0.00030159143696237853,499.9548099283464
66,Move,"(0.0032, 0.0, -0.0023)","(0.0, 0.03468318289563132, 0.0)","(0.0029095406442976035, 0.16110182025041725, 0.04766607521305213)","(0.0003849669981146515, 0.002707075007687061, 0.08349758003278927)","[-0.007089285954424561, 0.0010740777284878045, 0.00011551619883449354]","[-0.026750000193715096, 0.05299999937415123, 0.03999999910593033]","[0.0, -0.0, 0.5162048750199145]","[-0.06228798255324364, 0.11561830341815948, 0.03999999910593033]","[0.0, 0.0, -0.2932353875980906]","[0.026750000193715096, 0.05299999937415123, 0.03999999910593033]","[0.0, 0.0, -0.5333742131610487]","[0.06335780769586563, 0.1149989441037178, 0.03999999910593033]","[0.0, -0.0, 0.2783271254058326]",0.5160141221773993,-0.04577837327740619,"(0.0, 0.0, 0.0, 0.0, 0.0, 0.0)",3.7130950510956087,-0.8120845720503148,-0.6346335736763287,"(0.0, 0.0, 0.0, 0.0, 0.0, 0.0)",-1.075456843617777,-0.5370880840116999,-0.8913361190679754,"(0.0, 0.0, 0.0, 0.0, 0.0, 0.0)",-6.105008275162694,0.8142476979526176,0.6111278045997848,"(0.0, 0.0, 0.0, 0.0, 0.0, 0.0)",0.2111835032337035,True,"(-0.029842117393146607, 0.18253626425099714, 0.05600007466277858)","(0.9963640061482881, 0.08519836729954196, 7.390281936048762e-05)",-0.0008219996067435532,10.272417440588105,True,"(0.03198590382386789, 0.18133233105365976, 0.023999925384080908)","(-0.9963652438897624, -0.08518389116371289, -7.385595987080169e-05)",-0.0005537237168945353,0.0
67,Move,"(0.0045000000000000005, 0.0, -0.0029)","(0.0, 0.021678734639021566, 0.0)","(0.0030303972835095906, 0.16181809904221545, 0.047575486982933596)","(-0.0063770926980033825, 0.002743255257622758, 0.07986625835424185)","[-0.006968429315212574, 0.0017903565202860017, 2.492796871596259e-05]","[-0.026750000193715096, 0.05299999937415123, 0.03999999910593033]","[0.0, -0.0, 0.5160140642968477]","[-0.06227603554725647, 0.11562508344650269, 0.03999999910593033]","[0.0, 0.0, -0.29607046663976566]","[0.026750000193715096, 0.05299999937415123, 0.03999999910593033]","[0.0, 0.0, -0.5370880243885392]","[0.06358780711889267, 0.11486255377531052, 0.03999999910593033]","[0.0, -0.0, 0.27715958427516507]",0.5141877636193005,-0.43832605394369517,"(0.0, 0.0, 0.0, 0.0, 0.0, 0.0)",-0.9995656895824224,-0.8115743983762193,0.12244168178293624,"(0.0, 0.0, 0.0, 0.0, 0.0, 0.0)",-0.21724226955501857,-0.5390712563941704,-0.47596137179291187,"(0.0, 0.0, 0.0, 0.0, 0.0, 0.0)",1.0383051483134993,0.8137456992719553,-0.12047968335895531,"(0.0, 0.0, 0.0, 0.0, 0.0, 0.0)",0.28488349468336926,True,"(-0.02964058762454856, 0.18245078729757813, 0.05600007466277858)","(0.9963640061482881, 0.08519836729954196, 7.390281936048762e-05)",-0.0007567224371502398,0.7626052571882452,True,"(0.03229337662070078, 0.18123252860809058, 0.023999925384080908)","(-0.9963652438897624, -0.08518389116371289, -7.385595987080169e-05)",-0.0004135219444428639,2.408188197362656
68,Move,"(0.0032, 0.0, -0.0043)","(0.0, 0.004553564018453207, 0.0)","(0.0031499850838595895, 0.1623210146116383, 0.04770752806439533)","(-0.007668037137112125, 0.001466097261839085, 0.07534510981344616)","[-0.006848841514862575, 0.0022932720897088643, 0.0001569690501776952]","[-0.026750000193715096, 0.05299999937415123, 0.03999999910593033]","[0.0, -0.0, 0.5141878370627503]","[-0.06216160207986832, 0.11568985879421234, 0.03999999910593033]","[0.0, 0.0, -0.2973866187397068]","[0.026750000193715096, 0.05299999937415123, 0.03999999910593033]","[0.0, 0.0, -0.539071333372898]","[0.06371042132377625, 0.11478938162326813, 0.03999999910593033]","[0.0, -0.0, 0.2746744179880082]",0.5120600028210658,-0.5106625915763304,"(0.0, 0.0, 0.0, 0.0, 0.0, 0.0)",-1.762821185565859,-0.8110067535421631,0.13623476017347333,"(0.0, 0.0, 0.0, 0.0, 0.0, 0.0)",-0.9054741924522792,-0.5412634760789817,-0.5261327243547171,"(0.0, 0.0, 0.0, 0.0, 0.0, 0.0)",0.5578341752735072,0.8133300117142521,-0.09976501384875723,"(0.0, 0.0, 0.0, 0.0, 0.0, 0.0)",0.37457123616646854,True,"(-0.029438126358436623, 0.18247127351715114, 0.023997255988223866)","(0.9968086345822327, 0.07978107915899454, -0.002743251816917076)",-0.0007845089501000702,13.090579172737058,True,"(0.03258102541587276, 0.18123691826370644, 0.023999925384080908)","(-0.9963652438897624, -0.08518389116371289, -7.385595987080169e-05)",-0.0003722855016998433,4.934775198965458
69,Move,"(0.004200000000000001, 0.0, -0.0050999999999999995)","(0.0, 0.0039671333897831115, 0.0)","(0.0032519970829790567, 0.16277744779036132, 0.04778290820048385)","(-0.007773060104428968, -0.0002668725250456466, 0.0706556031940527)","[-0.006746829515743107, 0.002749705268431879, 0.00023234918626621748]","[-0.026750000193715096, 0.05299999937415123, 0.03999999910593033]","[0.0, -0.0, 0.5120599950708078]","[-0.06202813237905502, 0.11576506495475769, 0.03999999910593033]","[0.0, 0.0, -0.2989467449208312]","[0.026750000193715096, 0.05299999937415123, 0.03999999910593033]","[0.0, 0.0, -0.5412635261252017]","[0.06384579092264175, 0.11470820754766464, 0.03999999910593033]","[0.0, -0.0, 0.27206657211754137]",0.5103444607932321,-0.41173008668007577,"(0.0, 0.0, 0.0, 0.0, 0.0, 0.0)",-0.03883166790877297,-0.8110583355642847,-0.012379685309198196,"(0.0, 0.0, 0.0, 0.0, 0.0, 0.0)",-0.09671604863240596,-0.5432522088635398,-0.4772958682939361,"(0.0, 0.0, 0.0, 0.0, 0.0, 0.0)",0.08214687153983831,0.8133715804700224,0.00997650138487581,"(0.0, 0.0, 0.0, 0.0, 0.0, 0.0)",0.01644362212392034,True,"(-0.029200280450185495, 0.18249239321701163, 0.023998533143304166)","(0.9971618280811293, 0.0752737615524786, -0.001466096736619532)",-0.0007316854004138856,1.306900273886574,True,"(0.03282084022656937, 0.18211642029071823, 0.05600146685669583)","(-0.9971618280811294, -0.07527376155247371, 0.0014660967366195547)",-0.00037244101068501873,0.0
70,Move,"(0.0048, 0.0, -0.0057)","(0.0, 0.008576547944300137, 0.0)","(0.003468856015361446, 0.16311331050465075, 0.047898327100038364)","(-0.007781369850351294, -0.00026419803154832525, 0.0687455678593337)","[-0.006529970583360719, 0.0030855679827213045, 0.00034776808582073077]","[-0.026750000193715096, 0.05299999937415123, 0.03999999910593033]","[0.0, -0.0, 0.510344519943613]","[-0.0619204044342041, 0.11582549661397934, 0.03999999910593033]","[0.0, 0.0, -0.30071386413106754]","[0.026750000193715096, 0.05299999937415123, 0.03999999910593033]","[0.0, 0.0, -0.5432522044521375]","[0.06396843492984772, 0.11463431268930435, 0.03999999910593033]","[0.0, -0.0, 0.2701193734801359]",0.5084716217048268,-0.4494813812172771,"(0.0, 0.0, 0.0, 0.0, 0.0, 0.0)",-1.409306446228317,-0.810870889587126,0.04498703451808294,"(0.0, 0.0, 0.0, 0.0, 0.0, 0.0)",-0.6883048393231596,-0.5455308288637107,-0.5468688000410384,"(0.0, 0.0, 0.0, 0.0, 0.0, 0.0)",-0.06324514996523425,0.8132663933571924,-0.02524490707920697,"(0.0, 0.0, 0.0, 0.0, 0.0, 0.0)",0.012409343978571036,True,"(-0.02897468833394331, 0.1824947069025841, 0.023998533143304166)","(0.9971618280811293, 0.0752737615524786, -0.001466096736619532)",-0.0006735472947658913,9.754780161008995,True,"(0.033074801501880746, 0.18210280753666572, 0.05600146685669583)","(-0.9971618280811294, -0.07527376155247371, 0.0014660967366195547)",-0.0003234501626874013,0.36046620687545755
71,Move,"(0.005200000000000001, 0.0, -0.005900000000000001)","(0.0, 0.017139133254584316, 0.0)","(0.003706407838229922, 0.1633798262160981, 0.04799989452770933)","(-0.007628022992627927, -0.0002631913442726359, 0.06686135686884212)","[-0.006292418760492242, 0.003352083694168645, 0.0004493355134916957]","[-0.026750000193715096, 0.05299999937415123, 0.03999999910593033]","[0.0, -0.0, 0.5084716512097331]","[-0.06180268153548241, 0.11589125543832779, 0.03999999910593033]","[0.0, 0.0, -0.30239925819362284]","[0.026750000193715096, 0.05299999937415123, 0.03999999910593033]","[0.0, 0.0, -0.545530919581549]","[0.06410878151655197, 0.11454933881759644, 0.03999999910593033]","[0.0, -0.0, 0.2677355705018532]",0.5065528464922612,-0.4605060510157622,"(0.0, 0.0, 0.0, 0.0, 0.0, 0.0)",-0.7121985557890373,-0.8108367659767732,0.00818966648466455,"(0.0, 0.0, 0.0, 0.0, 0.0, 0.0)",-0.3936950901148525,-0.5479508983005106,-0.5808166648319555,"(0.0, 0.0, 0.0, 0.0, 0.0, 0.0)",-0.0235280223363193,0.8132375750431056,-0.006916395380835171,"(0.0, 0.0, 0.0, 0.0, 0.0, 0.0)",0.011747535167477617,True,"(-0.0287446476943801, 0.18250484404605546, 0.023998533143304166)","(0.9971618280811293, 0.0752737615524786, -0.001466096736619532)",-0.0006190036002343969,3.91765336765258,True,"(0.033376065439927514, 0.18209129363130694, 0.05600146685669583)","(-0.9971618280811294, -0.07527376155247371, 0.0014660967366195547)",-0.00029838589670007056,0.20815332083777516
72,Move,"(0.0053, 0.0, -0.006200000000000001)","(0.0, 0.008576547944300137, 0.0)","(0.003945855626834628, 0.16358973018856862, 0.048078382865440854)","(-0.006990040006119395, -0.00024287089042644727, 0.06508116949866667)","[-0.006052970971887536, 0.003561987666639177, 0.0005278238512232206]","[-0.026750000193715096, 0.05299999937415123, 0.03999999910593033]","[0.0, -0.0, 0.5065528568529712]","[-0.06168194115161896, 0.11595839262008667, 0.03999999910593033]","[0.0, 0.0, -0.3042838849663024]","[0.026750000193715096, 0.05299999937415123, 0.03999999910593033]","[0.0, 0.0, -0.5479508860947525]","[0.06425762176513672, 0.11445875465869904, 0.03999999910593033]","[0.0, -0.0, 0.2652867045722916]",0.5046538630825436,-0.45575601833221424,"(0.0, 0.0, 0.0, 0.0, 0.0, 0.0)",-0.5129996702148318,-0.8108301781077872,0.0015810885566411572,"(0.0, 0.0, 0.0, 0.0, 0.0, 0.0)",-0.2952557914638098,-0.5504191338088081,-0.5923765219914214,"(0.0, 0.0, 0.0, 0.0, 0.0, 0.0)",-0.016150006038315165,0.8132404568745143,0.0006916395380844875,"(0.0, 0.0, 0.0, 0.0, 0.0, 0.0)",-0.00042636341913020496,True,"(-0.028498424437263928, 0.18250956530563792, 0.023998533143304166)","(0.9971618280811293, 0.0752737615524786, -0.001466096736619532)",-0.0005651642286939762,2.4682020317451925,True,"(0.03369040422122689, 0.18207576100568865, 0.05600146685669583)","(-0.9971618280811294, -0.07527376155247371, 0.0014660967366195547)",-0.00027543050826849685,0.0
73,Move,"(0.0054, 0.0, -0.0063)","(0.0, 0.008576547944300137, 0.0)","(0.004195414074897114, 0.163759159646415, 0.04806687750597928)","(-0.0059714994838155, 0.0020996574771076307, 0.064950002746696)","[-0.00580341252382505, 0.0037314171244855476, 0.000516318491761647]","[-0.026750000193715096, 0.05299999937415123, 0.03999999910593033]","[0.0, -0.0, 0.5046539136708069]","[-0.061562322080135345, 0.11602461338043213, 0.03999999910593033]","[0.0, 0.0, -0.30617631654102895]","[0.026750000193715096, 0.05299999937415123, 0.03999999910593033]","[0.0, 0.0, -0.5504191860982699]","[0.06440920382738113, 0.11436598747968674, 0.03999999910593033]","[0.0, -0.0, 0.2628213453951416]",0.5028019638483564,-0.44445581620492464,"(0.0, 0.0, 0.0, 0.0, 0.0, 0.0)",-0.2519198967244057,-0.8108230608850058,0.0017081334675512004,"(0.0, 0.0, 0.0, 0.0, 0.0, 0.0)",-0.1435570682973561,-0.5529052492335526,-0.5966677019386495,"(0.0, 0.0, 0.0, 0.0, 0.0, 0.0)",-0.0064694689423830725,0.8132401686913734,-6.916395380951457e-05,"(0.0, 0.0, 0.0, 0.0, 0.0, 0.0)",-0.0005407146616059421,True,"(-0.028252719954002234, 0.18250984388057545, 0.05600024363084727)","(0.9978829386503206, 0.06503523479108882, 0.0002428708880442834)",-0.0005389889004771174,2.0335155690952837,True,"(0.0340087770556821, 0.1820581496857102, 0.05600146685669583)","(-0.9971618280811294, -0.07527376155247371, 0.0014660967366195547)",-0.0002444742204220577,0.0
74,Move,"(0.0057, 0.0, -0.006500000000000001)","(0.0, 0.008576547944300137, 0.0)","(0.0044370874268911285, 0.1638587476086258, 0.04809594896209336)","(-0.0038694235058108263, 0.0020780785925563487, 0.06362304766455683)","[-0.005561739171831036, 0.003831005086696343, 0.0005453899478757296]","[-0.026750000193715096, 0.05299999937415123, 0.03999999910593033]","[0.0, -0.0, 0.5028019666659671]","[-0.06144554913043976, 0.11608897894620895, 0.03999999910593033]","[0.0, 0.0, -0.30802110290414725]","[0.026750000193715096, 0.05299999937415123, 0.03999999910593033]","[0.0, 0.0, -0.5529052265344567]","[0.06456165015697479, 0.11427216976881027, 0.03999999910593033]","[0.0, -0.0, 0.26033494081054187]",0.5010011640575738,-0.4321919497878412,"(0.0, 0.0, 0.0, 0.0, 0.0, 0.0)",-0.7029381747751051,-0.810805016988059,0.004330535267238203,"(0.0, 0.0, 0.0, 0.0, 0.0, 0.0)",-0.4069973931627805,-0.5553903199568624,-0.5964169735943602,"(0.0, 0.0, 0.0, 0.0, 0.0, 0.0)",0.00020989022071213602,0.8132401975096875,6.916395381750821e-06,"(0.0, 0.0, 0.0, 0.0, 0.0, 0.0)",1.7439593876823607e-05,True,"(-0.028013351084760524, 0.182512642632057, 0.05600024363084727)","(0.9978829386503206, 0.06503523479108882, 0.0002428708880442834)",-0.0004965254727324914,2.567556949020674,True,"(0.034359969933722215, 0.1815839944524765, 0.05600211796502559)","(-0.9978892602039321, -0.06490409703829123, 0.0021172050663783486)",-0.00019586741671093316,0.0
75,Move,"(0.0055, 0.0, -0.0063)","(0.0, 0.004593706591249077, 0.0)","(0.004674598259464174, 0.16391426879809476, 0.04808959497020615)","(-0.0009847594383426998, 0.0019138850791277273, 0.062227684654094846)","[-0.00532422833925799, 0.003886526276165314, 0.0005390359559885177]","[-0.026750000193715096, 0.05299999937415123, 0.03999999910593033]","[0.0, -0.0, 0.5010011759792223]","[-0.06133187934756279, 0.1161513552069664, 0.03999999910593033]","[0.0, 0.0, -0.3098038393042252]","[0.026750000193715096, 0.05299999937415123, 0.03999999910593033]","[0.0, 0.0, -0.555390409891449]","[0.06471379846334457, 0.11417801678180695, 0.03999999910593033]","[0.0, -0.0, 0.25784986694694056]",0.4991985266743371,-0.43263297197680417,"(0.0, 0.0, 0.0, 0.0, 0.0, 0.0)",-0.46087182128681,-0.8107964229551201,0.0020625679053359798,"(0.0, 0.0, 0.0, 0.0, 0.0, 0.0)",-0.2520378542444062,-0.5579126717734992,-0.6053644359928539,"(0.0, 0.0, 0.0, 0.0, 0.0, 0.0)",-0.013152376103970728,0.813240194627856,-6.916395376421747e-07,"(0.0, 0.0, 0.0, 0.0, 0.0, 0.0)",-0.0009460534927384708,True,"(-0.02778132028158891, 0.18251531306994428, 0.05600024363084727)","(0.9978829386503206, 0.06503523479108882, 0.0002428708880442834)",-0.0004528344826637186,2.496790385463429,True,"(0.03470313149160802, 0.18119570216052566, 0.05600207886302497)","(-0.9979741549200284, -0.06358669357108516, 0.0020781030657546213)",-0.00014640347938595994,0.0
76,Move,"(0.0060999999999999995, 0.0, -0.006500000000000001)","(0.0, 0.004593706591249077, 0.0)","(0.004900686193612671, 0.16392578399118177, 0.04805319274070436)","(0.002661715043625238, 0.001762914474426031, 0.06093336066754783)","[-0.005098140405109494, 0.0038980414692523224, 0.0005026337264867273]","[-0.026750000193715096, 0.05299999937415123, 0.03999999910593033]","[0.0, -0.0, 0.49919851627038114]","[-0.061217986047267914, 0.1162135899066925, 0.03999999910593033]","[0.0, 0.0, -0.31159789704456287]","[0.026750000193715096, 0.05299999937415123, 0.03999999910593033]","[0.0, 0.0, -0.5579126965143154]","[0.06486798822879791, 0.11408206820487976, 0.03999999910593033]","[0.0, -0.0, 0.2553275016326713]",0.4974992197846917,-0.40783365351489886,"(0.0, 0.0, 0.0, 0.0, 0.0, 0.0)",-0.37751618445088275,-0.8107871084907271,0.0022354714543256866,"(0.0, 0.0, 0.0, 0.0, 0.0, 0.0)",-0.21941270231767357,-0.5603612875675578,-0.5876677905740361,"(0.0, 0.0, 0.0, 0.0, 0.0, 0.0)",0.025526911327651197,0.8132401949160392,6.916395456357805e-08,"(0.0, 0.0, 0.0, 0.0, 0.0, 0.0)",0.001820265794105137,True,"(-0.02754841940195716, 0.1825172510951953, 0.05600024363084727)","(0.9978829386503206, 0.06503523479108882, 0.0002428708880442834)",-0.00041668480992835676,2.161818603910648,True,"(0.03502651176237836, 0.18117440235399107, 0.05600191463085866)","(-0.9980634759828674, -0.0621742310541658, 0.0019138708994417073)",-8.566886058646058e-05,0.0
77,Move,"(0.006500000000000001, 0.0, -0.0067)","(0.0, 0.01321039710834508, 0.0)","(0.005080539594927741, 0.16400125312583627, 0.04813197080538209)","(0.0026133688230616315, 0.001582271647427107, 0.05714712910811169)","[-0.0049182870037944235, 0.003973510603906827, 0.0005814117911644573]","[-0.026750000193715096, 0.05299999937415123, 0.03999999910593033]","[0.0, -0.0, 0.49749919872226406]","[-0.061110515147447586, 0.11627206951379776, 0.03999999910593033]","[0.0, 0.0, -0.313287919245329]","[0.026750000193715096, 0.05299999937415123, 0.03999999910593033]","[0.0, 0.0, -0.5603613398985042]","[0.0650174468755722, 0.11398854851722717, 0.03999999910593033]","[0.0, -0.0, 0.25287891598837625]",0.49571068012002334,-0.42924951952040186,"(0.0, 0.0, 0.0, 0.0, 0.0, 0.0)",-0.6348450490956651,-0.8107880275219367,-0.00022056749029765454,"(0.0, 0.0, 0.0, 0.0, 0.0, 0.0)",-0.30728026721144047,-0.5629103533147921,-0.6117757793362566,"(0.0, 0.0, 0.0, 0.0, 0.0, 0.0)",-0.03515856184386766,0.8132401948872209,-6.916395456351028e-09,"(0.0, 0.0, 0.0, 0.0, 0.0, 0.0)",-0.002518679775527126,True,"(-0.027328945848730038, 0.18251873551444153, 0.05600024363084727)","(0.9978829386503206, 0.06503523479108882, 0.0002428708880442834)",-0.00038340898249792006,3.708821639344185,True,"(0.03535644541645669, 0.1808812044268221, 0.0560017636735205)","(-0.998142586051556, -0.060895566719487745, 0.0017629135612788843)",-1.9312532085911597e-05,0.0
78,Move,"(0.007, 0.0, -0.0067)","(0.0, 0.021800907686661174, 0.0)","(0.005248397699826248, 0.164105194783602, 0.048197245576269594)","(0.0024020607894666966, 0.0013448240167051393, 0.0529599956297406)","[-0.004750428898895916, 0.004077452261672554, 0.000646686562051961]","[-0.026750000193715096, 0.05299999937415123, 0.03999999910593033]","[0.0, -0.0, 0.4957106323461748]","[-0.06099729612469673, 0.11633342504501343, 0.03999999910593033]","[0.0, 0.0, -0.31507737254167095]","[0.026750000193715096, 0.05299999937415123, 0.03999999910593033]","[0.0, 0.0, -0.5629103988286135]","[0.06517278403043747, 0.11389080435037613, 0.03999999910593033]","[0.0, -0.0, 0.25032983542168097]",0.4939047892519927,-0.43341380832735,"(0.0, 0.0, 0.0, 0.0, 0.0, 0.0)",-0.43479672526408425,-0.8107720377369535,0.003837548395963313,"(0.0, 0.0, 0.0, 0.0, 0.0, 0.0)",-0.22131492203821787,-0.5654824798378517,-0.6173103655342995,"(0.0, 0.0, 0.0, 0.0, 0.0, 0.0)",-0.008201509895572973,0.8132401948901027,6.916387462684265e-10,"(0.0, 0.0, 0.0, 0.0, 0.0, 0.0)",-0.0005915763520191612,True,"(-0.027097234823346812, 0.18251953266930493, 0.05600024363084727)","(0.9978829386503206, 0.06503523479108882, 0.0002428708880442834)",-0.0003519232648449517,3.0981048207433632,True,"(0.03566701985703238, 0.18113073224316514, 0.05600158306164651)","(-0.9983669682579809, -0.057104229376974916, 0.001582301687288953)",6.542569755725677e-05,0.0
79,Move,"(0.0077, 0.0, -0.0070999999999999995)","(0.0, 0.025689501260104535, 0.0)","(0.005413335475782007, 0.16423052414880374, 0.048256085072518475)","(0.0022023631364881096, 0.0010872948605709226, 0.04842338595787261)","[-0.004585491122940158, 0.004202781626874291, 0.0007055260583008413]","[-0.026750000193715096, 0.05299999937415123, 0.03999999910593033]","[0.0, -0.0, 0.4939048102729466]","[-0.060882870107889175, 0.11639516800642014, 0.03999999910593033]","[0.0, 0.0, -0.3168672641998162]","[0.026750000193715096, 0.05299999937415123, 0.03999999910593033]","[0.0, 0.0, -0.5654824909120713]","[0.06532927602529526, 0.11379177123308182, 0.03999999910593033]","[0.0, -0.0, 0.24775773516931512]",0.4920435956795156,-0.4466864573945087,"(0.0, 0.0, 0.0, 0.0, 0.0, 0.0)",-0.5482754698107412,-0.8107514147212331,0.00494952377289815,"(0.0, 0.0, 0.0, 0.0, 0.0, 0.0)",-0.27591214988776874,-0.5681256259772679,-0.6343550734598926,"(0.0, 0.0, 0.0, 0.0, 0.0, 0.0)",-0.024913236339491877,0.8132401948898145,-6.916334172046845e-11,"(0.0, 0.0, 0.0, 0.0, 0.0, 0.0)",-0.0017865988777732021,True,"(-0.02686439356836748, 0.18252049249650915, 0.05600024363084727)","(0.9978829386503206, 0.06503523479108882, 0.0002428708880442834)",-0.00032317149086106905,3.3657596548899313,True,"(0.03597675990184164, 0.18147426352513712, 0.05600135643048019)","(-0.9985970281667945, -0.052935219786874536, 0.0013556705209667411)",0.0001571914517215739,0.0
80,Move,"(0.0105, 0.0, -0.0068)","(0.0, 0.034222415973104825, 0.0)","(0.005582864379876469, 0.16437078444145203, 0.04830839553508594)","(0.002012610875052879, 0.0007904940466239256, 0.043539422910212316)","[-0.004415962218845696, 0.004343041919522589, 0.0007578365208683047]","[-0.026750000193715096, 0.05299999937415123, 0.03999999910593033]","[0.0, -0.0, 0.492043623786315]","[-0.060764819383621216, 0.11645858734846115, 0.03999999910593033]","[0.0, 0.0, -0.3187078048106628]","[0.026750000193715096, 0.05299999937415123, 0.03999999910593033]","[0.0, 0.0, -0.5681255757744041]","[0.06548982113599777, 0.11368958652019501, 0.03999999910593033]","[0.0, -0.0, 0.24511460103558272]",0.49007495854951705,-0.4724729111996602,"(0.0, 0.0, 0.0, 0.0, 0.0, 0.0)",-0.6268296312834192,-0.8107266656399689,0.005939779503417266,"(0.0, 0.0, 0.0, 0.0, 0.0, 0.0)",-0.3104334282821477,-0.5708952307053773,-0.6647051347462449,"(0.0, 0.0, 0.0, 0.0, 0.0, 0.0)",-0.04423473005630402,0.8132401948898433,6.917133532624575e-12,"(0.0, 0.0, 0.0, 0.0, 0.0, 0.0)",-0.0031684250193361133,True,"(-0.02662469320403619, 0.1825211851592344, 0.05600024363084727)","(0.9978829386503206, 0.06503523479108882, 0.0002428708880442834)",-0.00029488769808837023,3.220369863092757,True,"(0.036292705763950064, 0.1819093757226255, 0.056001088054605554)","(-0.9988272265078768, -0.048404435508895595, 0.0010872946463357305)",0.0002534694159945416,0.0
81,Move,"(0.0103, 0.0, -0.0068)","(0.0, 0.034222415973104825, 0.0)","(0.005785400006172756, 0.1645296204612214, 0.04830069355527391)","(0.0009951439347964774, -0.0004650241621117018, 0.03764983655691828)","[-0.004213426592549408, 0.004501877939291965, 0.0007501345410562757]","[-0.026750000193715096, 0.05299999937415123, 0.03999999910593033]","[0.0, -0.0, 0.49007494230886084]","[-0.06063982471823692, 0.11652542650699615, 0.03999999910593033]","[0.0, 0.0, -0.3206517273745055]","[0.026750000193715096, 0.05299999937415123, 0.03999999910593033]","[0.0, 0.0, -0.5708952431306291]","[0.06565775722265244, 0.1135820597410202, 0.03999999910593033]","[0.0, -0.0, 0.24234497926666904]",0.487524059318109,-0.6122158155379346,"(0.0, 0.0, 0.0, 0.0, 0.0, 0.0)",-0.7396271469305027,-0.8107219353753029,0.0011352635198388526,"(0.0, 0.0, 0.0, 0.0, 0.0, 0.0)",-0.3024493159726503,-0.574231301831986,-0.800657070386106,"(0.0, 0.0, 0.0, 0.0, 0.0, 0.0)",-0.1975536601533484,0.8132401948898405,-6.927791673660977e-13,"(0.0, 0.0, 0.0, 0.0, 0.0, 0.0)",-0.014131635062422142,True,"(-0.02637101450444465, 0.18251447710321922, 0.02399920874607649)","(0.9990519969062129, 0.043525654469528045, -0.0007904939642901158)",-0.0003223459505949923,4.265643696447958,True,"(0.03664960218409066, 0.18188456406280437, 0.05600079125392351)","(-0.999051996906213, -0.0435256544695258, 0.0007904939642934578)",0.0003565042726853368,0.0
82,Move,"(0.010199999999999999, 0.0, -0.007)","(0.0, 0.034222415973104825, 0.0)","(0.006014943093179823, 0.1646709302927969, 0.048257392522595935)","(-0.0023177348101240695, -0.0004339485907486337, 0.03249984978444292)","[-0.003983883505542341, 0.004643187770867446, 0.0007068335083783017]","[-0.026750000193715096, 0.05299999937415123, 0.03999999910593033]","[0.0, -0.0, 0.48752407834071226]","[-0.06047767028212547, 0.11661166697740555, 0.03999999910593033]","[0.0, 0.0, -0.3231979078387643]","[0.026750000193715096, 0.05299999937415123, 0.03999999910593033]","[0.0, 0.0, -0.5742312923614072]","[0.06585964560508728, 0.11345192790031433, 0.03999999910593033]","[0.0, -0.0, 0.23900892928211948]",0.4851236043282605,-0.5761091975636367,"(0.0, 0.0, 0.0, 0.0, 0.0, 0.0)",-0.3319893521928798,-0.8107046729547986,0.004142980921026244,"(0.0, 0.0, 0.0, 0.0, 0.0, 0.0)",-0.18873651381118053,-0.577460173495485,-0.7749291992397492,"(0.0, 0.0, 0.0, 0.0, 0.0, 0.0)",0.037125471002069386,0.8132401948898408,6.927791673660977e-14,"(0.0, 0.0, 0.0, 0.0, 0.0, 0.0)",0.0026457389670733597,True,"(-0.026040949447237297, 0.18251325186524286, 0.02399920874607649)","(0.9990519969062129, 0.043525654469528045, -0.0007904939642901158)",-0.00029683307207725745,2.2049758746772254,True,"(0.037079514371261654, 0.18185082114568113, 0.05600079125392351)","(-0.999051996906213, -0.0435256544695258, 0.0007904939642934578)",0.0004903829998877697,0.0
83,Move,"(0.0101, 0.0, -0.0070999999999999995)","(0.0, 0.034222415973104825, 0.0)","(0.006285203069515351, 0.16475798949505985, 0.048315846383442364)","(-0.002930267228608246, 0.0003901334113967148, 0.029204191641942517)","[-0.003713623529206813, 0.004730246973130403, 0.0007652873692247306]","[-0.026750000193715096, 0.05299999937415123, 0.03999999910593033]","[0.0, -0.0, 0.48512361419558175]","[-0.06032487377524376, 0.1166924461722374, 0.03999999910593033]","[0.0, 0.0, -0.3255810991969535]","[0.026750000193715096, 0.05299999937415123, 0.03999999910593033]","[0.0, 0.0, -0.5774602139156465]","[0.06605463474988937, 0.113325335085392, 0.03999999910593033]","[0.0, -0.0, 0.23578002321284539]",0.4827936212910681,-0.5591959289261687,"(0.0, 0.0, 0.0, 0.0, 0.0, 0.0)",-1.3154689662321726,-0.8106491538320744,0.013324589453828509,"(0.0, 0.0, 0.0, 0.0, 0.0, 0.0)",-0.7066012364711308,-0.5806576221678722,-0.767387681372937,"(0.0, 0.0, 0.0, 0.0, 0.0, 0.0)",0.010731301801792848,0.8132401948898408,-7.993605777301127e-15,"(0.0, 0.0, 0.0, 0.0, 0.0, 0.0)",0.0007590509462109093,True,"(-0.025731197252699338, 0.18251177386393042, 0.02399920874607649)","(0.9990519969062129, 0.043525654469528045, -0.0007904939642901158)",-0.0002705353771517969,10.489903312094226,True,"(0.03749550256785224, 0.1818167968536195, 0.05600079125392351)","(-0.999051996906213, -0.0435256544695258, 0.0007904939642934578)",0.0005865853486969517,0.0
84,Move,"(0.0101, 0.0, -0.0073)","(0.0, 0.034222415973104825, 0.0)","(0.006553924752843452, 0.16482427584068063, 0.04837032226453284)","(-0.0027038668688924793, 0.0003910396291495791, 0.026933830486052468)","[-0.0034449018458787128, 0.004796533318751184, 0.0008197632503152072]","[-0.026750000193715096, 0.05299999937415123, 0.03999999910593033]","[0.0, -0.0, 0.48279363129156144]","[-0.06017637997865677, 0.11677050590515137, 0.03999999910593033]","[0.0, 0.0, -0.32785551649763023]","[0.026750000193715096, 0.05299999937415123, 0.03999999910593033]","[0.0, 0.0, -0.5806576645723839]","[0.06624732166528702, 0.11319935321807861, 0.03999999910593033]","[0.0, -0.0, 0.23258259446767604]",0.4805249755117128,-0.544474987045274,"(0.0, 0.0, 0.0, 0.0, 0.0, 0.0)",-0.661509195896081,-0.8106449708472959,0.0010039163468157173,"(0.0, 0.0, 0.0, 0.0, 0.0, 0.0)",-0.3714066788044409,-0.5838173093793685,-0.758324930759101,"(0.0, 0.0, 0.0, 0.0, 0.0, 0.0)",0.012942182755230862,0.8132401948898408,0.0,"(0.0, 0.0, 0.0, 0.0, 0.0, 0.0)",0.0009172942231000657,True,"(-0.025432855965638893, 0.18250384999054897, 0.02399960910663929)","(0.9995735118336754, 0.029200038294876208, -0.0003901334014918367)",-0.00026013481993170286,5.196549759000384,True,"(0.03790718781908069, 0.1817863507894122, 0.05600039089336071)","(-0.9995735118336753, -0.02920003829488395, 0.00039013340149561196)",0.000665729055835211,0.0
85,Move,"(0.0103, 0.0, -0.0073)","(0.0, 0.034222415973104825, 0.0)","(0.00681677126142239, 0.16487311148618408, 0.04842015706169225)","(-0.0024913297450879085, 0.00037409450928306743, 0.024781203288567772)","[-0.0031820553372997745, 0.004845368964254637, 0.0008695980474746137]","[-0.026750000193715096, 0.05299999937415123, 0.03999999910593033]","[0.0, -0.0, 0.48052499272568094]","[-0.060031622648239136, 0.11684617400169373, 0.03999999910593033]","[0.0, 0.0, -0.33012001356044335]","[0.026750000193715096, 0.05299999937415123, 0.03999999910593033]","[0.0, 0.0, -0.5838172922178363]","[0.06643733382225037, 0.11307425051927567, 0.03999999910593033]","[0.0, -0.0, 0.22942287397352185]",0.4783072893184132,-0.5322446863918989,"(0.0, 0.0, 0.0, 0.0, 0.0, 0.0)",-0.6427211420687641,-0.810634574877271,0.0024950328059840134,"(0.0, 0.0, 0.0, 0.0, 0.0, 0.0)",-0.36559226906096387,-0.5869433208345607,-0.750242749246131,"(0.0, 0.0, 0.0, 0.0, 0.0, 0.0)",0.011521499665608267,0.8132401948898408,0.0,"(0.0, 0.0, 0.0, 0.0, 0.0, 0.0)",0.0008159022594512965,True,"(-0.02513933571744506, 0.18250066865604236, 0.023999608200421595)","(0.9996372298859818, 0.026930572104893125, -0.0003910396191893661)",-0.0002408022792855065,4.907909529708595,True,"(0.03831407958815821, 0.18174956573377538, 0.0560003917995784)","(-0.9996372298859819, -0.02693057210489013, 0.00039103961918355565)",0.0007644571848564871,0.0
86,Move,"(0.010199999999999999, 0.0, -0.0076)","(0.0, 0.034222415973104825, 0.0)","(0.007078130994446158, 0.16490806988868043, 0.048466070985857965)","(-0.0022971669360523765, 0.0003623151434659206, 0.02263198990032266)","[-0.002920695604276006, 0.0048803273667509806, 0.0009155119716403315]","[-0.026750000193715096, 0.05299999937415123, 0.03999999910593033]","[0.0, -0.0, 0.4783073443103636]","[-0.05988994985818863, 0.11691982299089432, 0.03999999910593033]","[0.0, 0.0, -0.33232728465712463]","[0.026750000193715096, 0.05299999937415123, 0.03999999910593033]","[0.0, 0.0, -0.5869434208388709]","[0.06662493199110031, 0.11294989287853241, 0.03999999910593033]","[0.0, -0.0, 0.2262968659233787]",0.476096416167512,-0.5306095562162818,"(0.0, 0.0, 0.0, 0.0, 0.0, 0.0)",-0.7020271208458636,-0.8106261503035249,0.002021897699041508,"(0.0, 0.0, 0.0, 0.0, 0.0, 0.0)",-0.3914332853242334,-0.5900721558241344,-0.7509203974977021,"(0.0, 0.0, 0.0, 0.0, 0.0, 0.0)",-0.0011931989442101466,0.8132401948898408,0.0,"(0.0, 0.0, 0.0, 0.0, 0.0, 0.0)",-9.306112274843889e-05,True,"(-0.024852831153143615, 0.18249719715529938, 0.023999625145540226)","(0.9996928917432929, 0.02477866524325755, -0.0003740945005569441)",-0.00022296058337033838,5.218599843277692,True,"(0.038716518687344256, 0.18171181418383267, 0.05600037485445977)","(-0.9996928917432935, -0.024778665243245526, 0.0003740945005538199)",0.000867355513742616,0.0
87,Move,"(0.0078, 0.0, -0.0073)","(0.0, 0.038950512916757454, 0.0)","(0.007330213015207072, 0.16493366764046194, 0.048508286722666806)","(-0.002118084615386601, 0.00035021414908736496, 0.020565172169741925)","[-0.0026686135835150924, 0.004905925118532495, 0.0009577277084491728]","[-0.026750000193715096, 0.05299999937415123, 0.03999999910593033]","[0.0, -0.0, 0.4760964459728749]","[-0.05974855273962021, 0.11699293553829193, 0.03999999910593033]","[0.0, 0.0, -0.33452972737576564]","[0.026750000193715096, 0.05299999937415123, 0.03999999910593033]","[0.0, 0.0, -0.5900722663048278]","[0.06681231409311295, 0.11282483488321304, 0.03999999910593033]","[0.0, -0.0, 0.2231680618432262]",0.4739635377173008,-0.5118908280506912,"(0.0, 0.0, 0.0, 0.0, 0.0, 0.0)",-0.6138440718573116,-0.8106183194312819,0.0018794093383083562,"(0.0, 0.0, 0.0, 0.0, 0.0, 0.0)",-0.35471957046975056,-0.5931347483647265,-0.7350222097420912,"(0.0, 0.0, 0.0, 0.0, 0.0, 0.0)",0.02287088823036571,0.8132401948898408,0.0,"(0.0, 0.0, 0.0, 0.0, 0.0, 0.0)",0.0016275642535702373,True,"(-0.02456708715441757, 0.18249303588346594, 0.023999636924905247)","(0.9997438418285663, 0.02263005642063695, -0.00036231513553993343)",-0.0002067014601860928,4.736673841469191,True,"(0.039119199169187116, 0.18167276358247625, 0.056000363075094754)","(-0.9997438418285663, -0.02263005642063802, 0.00036231513553894047)",0.0009725166735680452,0.0
88,Move,"(0.0075, 0.0, -0.0077)","(0.0, 0.038950512916757454, 0.0)","(0.007516613163686562, 0.1649556155854574, 0.04854678209775846)","(-0.0019569153514476328, 0.00031098880981446483, 0.019368241068598187)","[-0.0024822134350356026, 0.00492787306352796, 0.0009962230835408245]","[-0.026750000193715096, 0.05299999937415123, 0.03999999910593033]","[0.0, -0.0, 0.47396360017094863]","[-0.05961198732256889, 0.11706317216157913, 0.03999999910593033]","[0.0, 0.0, -0.3366548124647567]","[0.026750000193715096, 0.05299999937415123, 0.03999999910593033]","[0.0, 0.0, -0.5931347187357118]","[0.06699534505605698, 0.11270186305046082, 0.03999999910593033]","[0.0, -0.0, 0.22010544911341245]",0.47244487375377153,-0.3644793512470288,"(0.0, 0.0, 0.0, 0.0, 0.0, 0.0)",0.04934474658441432,-0.8105922028394422,0.006267982041543109,"(0.0, 0.0, 0.0, 0.0, 0.0, 0.0)",-0.07688765063210597,-0.5956361105286035,-0.6003269193304952,"(0.0, 0.0, 0.0, 0.0, 0.0, 0.0)",0.19534197544452805,0.8132401948898408,1.3552527156068805e-20,"(0.0, 0.0, 0.0, 0.0, 0.0, 0.0)",0.013959981565668998,True,"(-0.024291412950006884, 0.18248842026696302, 0.02399964902589885)","(0.9997884829874798, 0.020563721347278036, -0.00035021414193292576)",-0.00019163695533801117,1.18846283843284,True,"(0.03951323276768405, 0.18163328280939567, 0.056000350974101144)","(-0.99978848298748, -0.02056372134727592, 0.0003502141419287409)",0.001079994806528374,0.0
89,Move,"(0.0074, 0.0, -0.008)","(0.0, 0.038950512916757454, 0.0)","(0.007692017463406368, 0.16496804312488605, 0.04858218099962244)","(-0.0018172154100768664, 0.0002613089864815293, 0.01811929461259619)","[-0.0023068091353157967, 0.00494030060295661, 0.0010316219854048098]","[-0.026750000193715096, 0.05299999937415123, 0.03999999910593033]","[0.0, -0.0, 0.472444888711816]","[-0.05951465666294098, 0.11711300164461136, 0.03999999910593033]","[0.0, 0.0, -0.33814733815837783]","[0.026750000193715096, 0.05299999937415123, 0.03999999910593033]","[0.0, 0.0, -0.5956360266721107]","[0.06714455038309097, 0.11260101199150085, 0.03999999910593033]","[0.0, -0.0, 0.21760406088497802]",0.470985082940979,-0.3503497950702048,"(0.0, 0.0, 0.0, 0.0, 0.0, 0.0)",-0.618116726065042,-0.8105549344542334,0.008944412450103063,"(0.0, 0.0, 0.0, 0.0, 0.0, 0.0)",-0.3518841260026213,-0.5980857771727238,-0.5879199945888657,"(0.0, 0.0, 0.0, 0.0, 0.0, 0.0)",0.01784889428939562,0.8132401948898408,0.0,"(0.0, 0.0, 0.0, 0.0, 0.0, 0.0)",0.0012712796098952853,True,"(-0.024096479425524377, 0.18248575776516568, 0.023999688251235978)","(0.9998123931343307, 0.019367029224063373, -0.00031098880480346427)",-0.00017697898712117795,4.662165950443067,True,"(0.03983497532960212, 0.18159965075550272, 0.05600031174876402)","(-0.9998123931343307, -0.01936702922406159, 0.00031098880480167945)",0.00119532647470865,0.0
90,Move,"(0.007, 0.0, -0.0085)","(0.0, 0.038950512916757454, 0.0)","(0.007872376704812148, 0.1649559073667582, 0.04856316741475427)","(-0.00028107276647672887, -4.690082513010788e-05, 0.01743497966402045)","[-0.002126449893910016, 0.004928164844828747, 0.0010126084005366368]","[-0.026750000193715096, 0.05299999937415123, 0.03999999910593033]","[0.0, -0.0, 0.47098509310732734]","[-0.059421032667160034, 0.11716076731681824, 0.03999999910593033]","[0.0, 0.0, -0.33956981483832754]","[0.026750000193715096, 0.05299999937415123, 0.03999999910593033]","[0.0, 0.0, -0.5980857538620755]","[0.06729043275117874, 0.11250187456607819, 0.03999999910593033]","[0.0, -0.0, 0.21515443758075337]",0.46957284813758154,-0.33893635281538814,"(0.0, 0.0, 0.0, 0.0, 0.0, 0.0)",-0.4836196028365108,-0.8105134094514822,0.009966000660282193,"(0.0, 0.0, 0.0, 0.0, 0.0, 0.0)",-0.2831537145488615,-0.6004959676584225,-0.5784457165676864,"(0.0, 0.0, 0.0, 0.0, 0.0, 0.0)",0.01359509796390912,0.8132401948898408,0.0,"(0.0, 0.0, 0.0, 0.0, 0.0, 0.0)",0.000967325916985293,True,"(-0.023909897748205317, 0.18248324325134613, 0.023999737931057277)","(0.9998358159368453, 0.018118302556202268, -0.00026130898350920526)",-0.00016404272350947275,1.4369874334082118,True,"(0.04014998304890176, 0.18156601056940933, 0.05600026206894272)","(-0.9998358159368453, -0.018118302556195745, 0.000261308983506584)",0.0013144249937335813,0.0
91,Move,"(0.0076, 0.0, -0.0088)","(0.0, 0.034222415973104825, 0.0)","(0.0080483946327049, 0.16490241348198428, 0.048520106291806905)","(0.0022820194666742987, -4.2739913199547155e-05, 0.017350715811786748)","[-0.0019504319660172652, 0.004874670960054839, 0.0009695472775892722]","[-0.026750000193715096, 0.05299999937415123, 0.03999999910593033]","[0.0, -0.0, 0.4695728514501689]","[-0.05933038890361786, 0.11720684170722961, 0.03999999910593033]","[0.0, 0.0, -0.3409405676408043]","[0.026750000193715096, 0.05299999937415123, 0.03999999910593033]","[0.0, 0.0, -0.6004959724976648]","[0.06743372231721878, 0.1124039962887764, 0.03999999910593033]","[0.0, -0.0, 0.2127442239379252]",0.4682826040489817,-0.3096585812639692,"(0.0, 0.0, 0.0, 0.0, 0.0, 0.0)",-0.5178537960556393,-0.8104868632189133,0.006371095816542615,"(0.0, 0.0, 0.0, 0.0, 0.0, 0.0)",-0.32156325688711995,-0.6027935550018793,-0.5514209624296313,"(0.0, 0.0, 0.0, 0.0, 0.0, 0.0)",0.03907719252652804,0.8132401948898408,-6.776263578034403e-21,"(0.0, 0.0, 0.0, 0.0, 0.0, 0.0)",0.0027895082310481194,True,"(-0.023729750360203188, 0.18248058161321554, 0.023999737931057277)","(0.9998358159368453, 0.018118302556202268, -0.00026130898350920526)",-0.00014401664026438804,3.797677517783981,False,,,,
92,Move,"(0.0076, 0.0, -0.0088)","(0.0, 0.034222415973104825, 0.0)","(0.008212630233945329, 0.16485525962632955, 0.0485576477164724)","(0.002384294623968713, 0.0002429794568135386, 0.015385556281767862)","[-0.0017861963647768358, 0.004827517104400103, 0.0010070887022547645]","[-0.026750000193715096, 0.05299999937415123, 0.03999999910593033]","[0.0, -0.0, 0.46828261699085233]","[-0.059247519820928574, 0.11724882572889328, 0.03999999910593033]","[0.0, 0.0, -0.34220426820483213]","[0.026750000193715096, 0.05299999937415123, 0.03999999910593033]","[0.0, 0.0, -0.6027935595716165]","[0.06757010519504547, 0.11231036484241486, 0.03999999910593033]","[0.0, -0.0, 0.2104466626529048]",0.46686876695513857,-0.3393209025223514,"(0.0, 0.0, 0.0, 0.0, 0.0, 0.0)",-0.9376227517431347,-0.8104796571814368,0.00172944899435566,"(0.0, 0.0, 0.0, 0.0, 0.0, 0.0)",-0.44492543078739244,-0.6052045665769692,-0.5786427780215878,"(0.0, 0.0, 0.0, 0.0, 0.0, 0.0)",-0.03966829892121166,0.8132401948898408,0.0,"(0.0, 0.0, 0.0, 0.0, 0.0, 0.0)",-0.002840561259462255,True,"(-0.023564422929201356, 0.18247752425474908, 0.023999737931057277)","(0.9998358159368453, 0.018118302556202268, -0.00026130898350920526)",-0.00013276951218543897,7.109952374573079,False,,,,
