OSUrobotics/InHand-Manipulation/AnalyseData/Data/Trial Data/Tries/new_hand_human_sub1_2v2_c_n_1_kpNone_kdNone_dp1_step2_save_data.csv
,Phase,human_cube_pos,human_cube_orn,Cube_Pos,Cube_Orn,Cube_pos_in_start_pos,b'l_prox_pin'_link_pos,b'l_prox_pin'_link_orn,b'l_distal_pin'_link_pos,b'l_distal_pin'_link_orn,b'r_prox_pin'_link_pos,b'r_prox_pin'_link_orn,b'r_distal_pin'_link_pos,b'r_distal_pin'_link_orn,b'l_prox_pin'_joint_angle,b'l_prox_pin'_joint_vel,b'l_prox_pin'_joint_react_forces,b'l_prox_pin'_joint_motor_torque,b'l_distal_pin'_joint_angle,b'l_distal_pin'_joint_vel,b'l_distal_pin'_joint_react_forces,b'l_distal_pin'_joint_motor_torque,b'r_prox_pin'_joint_angle,b'r_prox_pin'_joint_vel,b'r_prox_pin'_joint_react_forces,b'r_prox_pin'_joint_motor_torque,b'r_distal_pin'_joint_angle,b'r_distal_pin'_joint_vel,b'r_distal_pin'_joint_react_forces,b'r_distal_pin'_joint_motor_torque,in_contact_l,contact_point_l_dist,contact_normal_l_dist,contact_distance_l_dist,contact_norm_force_l_dist,in_contact_r,contact_point_r_dist,contact_normal_r_dist,contact_distance_r_dist,contact_norm_force_r_dist
0,Open,,,,,,"[-0.026750000193715096, 0.05299999937415123, 0.03999999910593033]","[0.0, -0.0, 0.0]","[-0.026750000193715096, 0.125, 0.03999999910593033]","[0.0, -0.0, 5.883223447970011e-32]","[0.026750000193715096, 0.05299999937415123, 0.03999999910593033]","[0.0, 0.0, -0.008068665592501188]","[0.02733093686401844, 0.12499765306711197, 0.03999999910593033]","[0.0, 0.0, -0.0780932845685428]",0.157,37.68,"(0.0, 0.0, 0.0, 0.0, 0.0, 0.0)",54.702693795169004,5.294901130302062e-32,-1.4119736347472162e-30,"(0.0, 0.0, 0.0, 0.0, 0.0, 0.0)",3.9113724975844915,-0.1670280316324969,-38.150247946082466,"(0.0, 0.0, 0.0, 0.0, 0.0, 0.0)",-25.93345404555236,-0.0659493391739072,0.9780670797324476,"(0.0, 0.0, 0.0, 0.0, 0.0, 0.0)",-6.754749483880455,False,,,,,False,,,,
1,Open,,,,,,"[-0.026750000193715096, 0.05299999937415123, 0.03999999910593033]","[0.0, -0.0, 0.29830000998707634]","[-0.04791048914194107, 0.12182030081748962, 0.03999999910593033]","[0.0, -0.0, 0.29830000998707634]","[0.026750000193715096, 0.05299999937415123, 0.03999999910593033]","[0.0, 0.0, -0.3122944642903269]","[0.048871491104364395, 0.12151744216680527, 0.03999999910593033]","[0.0, 0.0, -0.3793531994353912]",0.42546999999999996,30.5208,"(0.0, 0.0, 0.0, 0.0, 0.0, 0.0)",-4.858074537215091,5.294901130302062e-32,0.0,"(0.0, 0.0, 0.0, 0.0, 0.0, 0.0)",-0.33154044974508506,-0.44292449566296654,-31.35120824461403,"(0.0, 0.0, 0.0, 0.0, 0.0, 0.0)",100.88457241511576,-0.08373770380977785,-4.0029668326633345,"(0.0, 0.0, 0.0, 0.0, 0.0, 0.0)",24.077304806401806,False,,,,,False,,,,
2,Open,,,,,,"[-0.026750000193715096, 0.05299999937415123, 0.03999999910593033]","[0.0, -0.0, 0.5399230359738098]","[-0.06376303732395172, 0.11475787311792374, 0.03999999910593033]","[0.0, -0.0, 0.5399230359738098]","[0.026750000193715096, 0.05299999937415123, 0.03999999910593033]","[0.0, 0.0, -0.5623038790270362]","[0.06513584405183792, 0.11391409486532211, 0.03999999910593033]","[0.0, 0.0, -0.6668711870723439]",0.6429307,24.721848,"(0.0, 0.0, 0.0, 0.0, 0.0, 0.0)",-3.943806903965684,5.294901130302062e-32,0.0,"(0.0, 0.0, 0.0, 0.0, 0.0, 0.0)",-0.2716098155097054,-0.6673401099248648,-25.208696742335626,"(0.0, 0.0, 0.0, 0.0, 0.0, 0.0)",94.97739775913854,-0.11755295807544866,-3.116564819203918,"(0.0, 0.0, 0.0, 0.0, 0.0, 0.0)",25.79194570087013,False,,,,,False,,,,
3,Open,,,,,,"[-0.026750000193715096, 0.05299999937415123, 0.03999999910593033]","[0.0, -0.0, 0.7356376306875043]","[-0.07506632059812546, 0.10638101398944855, 0.03999999910593033]","[0.0, -0.0, 0.7356376306875043]","[0.026750000193715096, 0.05299999937415123, 0.03999999910593033]","[0.0, 0.0, -0.757991847340814]","[0.076247438788414, 0.10528770089149475, 0.03999999910593033]","[0.0, 0.0, -0.8659334873334429]",0.8190738670000001,20.024696880000004,"(0.0, 0.0, 0.0, 0.0, 0.0, 0.0)",-3.2002295086701533,2.3293280891773424e-07,5.5903874140256216e-05,"(0.0, 0.0, 0.0, 0.0, 0.0, 0.0)",-0.22200715926400075,-0.8391926082762636,-19.488197112632974,"(0.0, 0.0, 0.0, 0.0, 0.0, 0.0)",3.295349739497939,-0.09714776835574307,2.590534961280482,"(0.0, 0.0, 0.0, 0.0, 0.0, 0.0)",0.25803221970863044,False,,,,,False,,,,
4,Open,,,,,,"[-0.026750000193715096, 0.05299999937415123, 0.03999999910593033]","[0.0, -0.0, 0.894166469119967]","[-0.08288749307394028, 0.09808415919542313, 0.03999999910593033]","[0.0, -0.0, 0.894166894674561]","[0.026750000193715096, 0.05299999937415123, 0.03999999910593033]","[0.0, 0.0, -0.9122733503889549]","[0.08369457721710205, 0.09706035256385803, 0.03999999910593033]","[0.0, 0.0, -0.9997066729229968]",0.96174983227,16.220004472800003,"(0.0, 0.0, 0.0, 0.0, 0.0, 0.0)",-2.5959652512206968,5.681494863714967e-07,3.553320838026869e-05,"(0.0, 0.0, 0.0, 0.0, 0.0, 0.0)",-0.18114955764248034,-0.9780460127037736,-15.785439661232708,"(0.0, 0.0, 0.0, 0.0, 0.0, 0.0)",2.503992476159733,-0.0786900142246732,2.098357403184359,"(0.0, 0.0, 0.0, 0.0, 0.0, 0.0)",0.15360133560797545,False,,,,,False,,,,
5,Open,,,,,,"[-0.026750000193715096, 0.05299999937415123, 0.03999999910593033]","[0.0, -0.0, 1.0225748785172661]","[-0.08819860219955444, 0.09052424877882004, 0.03999999910593033]","[0.0, -0.0, 1.0225755149967983]","[0.026750000193715096, 0.05299999937415123, 0.03999999910593033]","[0.0, 0.0, -1.037241417801626]","[0.08874232321977615, 0.08961901068687439, 0.03999999910593033]","[0.0, 0.0, -1.1080626941470386]",1.0773173641387,13.138203622968001,"(0.0, 0.0, 0.0, 0.0, 0.0, 0.0)",-2.105207702642618,7.694903593429899e-07,2.0776129443188934e-05,"(0.0, 0.0, 0.0, 0.0, 0.0, 0.0)",-0.14759587787833617,-1.0905172702900567,-12.78620612559849,"(0.0, 0.0, 0.0, 0.0, 0.0, 0.0)",2.0303755786213302,-0.06373917358809339,1.6996763127328351,"(0.0, 0.0, 0.0, 0.0, 0.0, 0.0)",0.1250328149112744,False,,,,,False,,,,
6,Open,,,,,,"[-0.026750000193715096, 0.05299999937415123, 0.03999999910593033]","[0.0, -0.0, 1.126585512342968]","[-0.09176240861415863, 0.08394166082143784, 0.03999999910593033]","[0.0, -0.0, 1.1265864725026016]","[0.026750000193715096, 0.05299999937415123, 0.03999999910593033]","[0.0, 0.0, -1.13846552283997]","[0.09212540090084076, 0.08316715806722641, 0.03999999910593033]","[0.0, 0.0, -1.1958309904194953]",1.1709270649523469,10.641944934604087,"(0.0, 0.0, 0.0, 0.0, 0.0, 0.0)",-1.7068426281171958,8.750681698751778e-07,1.0273240928962424e-05,"(0.0, 0.0, 0.0, 0.0, 0.0, 0.0)",-0.12011999884119333,-1.181618988934946,-10.356826961734775,"(0.0, 0.0, 0.0, 0.0, 0.0, 0.0)",1.6460093571929852,-0.051628943774705546,1.376743384776279,"(0.0, 0.0, 0.0, 0.0, 0.0, 0.0)",0.10168054944364863,False,,,,,False,,,,
7,Open,,,,,,"[-0.026750000193715096, 0.05299999937415123, 0.03999999910593033]","[0.0, -0.0, 1.2108343955497323]","[-0.09413553774356842, 0.07836118340492249, 0.03999999910593033]","[0.0, -0.0, 1.210835255049739]","[0.026750000193715096, 0.05299999937415123, 0.03999999910593033]","[0.0, 0.0, -1.2204571829136446]","[0.09437645971775055, 0.07771158218383789, 0.03999999910593033]","[0.0, 0.0, -1.2669233179031547]",1.2467509226114009,8.619975397029307,"(0.0, 0.0, 0.0, 0.0, 0.0, 0.0)",-1.3836082777937824,9.135722823677317e-07,2.9650129412077397e-06,"(0.0, 0.0, 0.0, 0.0, 0.0, 0.0)",-0.09766941677677543,-1.2554113810373062,-8.38902983900517,"(0.0, 0.0, 0.0, 0.0, 0.0, 0.0)",1.334189480132575,-0.04181961771093252,1.1151666876061868,"(0.0, 0.0, 0.0, 0.0, 0.0, 0.0)",0.08262627878010878,False,,,,,False,,,,
8,Open,,,,,,"[-0.026750000193715096, 0.05299999937415123, 0.03999999910593033]","[0.0, -0.0, 1.2790758758817962]","[-0.09570803493261337, 0.0737072303891182, 0.03999999910593033]","[0.0, -0.0, 1.2790780932516201]","[0.026750000193715096, 0.05299999937415123, 0.03999999910593033]","[0.0, 0.0, -1.2868702529032277]","[0.0958673357963562, 0.07316911965608597, 0.03999999910593033]","[0.0, 0.0, -1.3245087793274308]",1.3081682532711112,6.982181501004109,"(0.0, 0.0, 0.0, 0.0, 0.0, 0.0)",-1.12145472366965,1.9027582300258812e-06,-5.0740219467356254e-05,"(0.0, 0.0, 0.0, 0.0, 0.0, 0.0)",-0.07939114715284208,-1.315183223212741,-6.795115266999686,"(0.0, 0.0, 0.0, 0.0, 0.0, 0.0)",1.0813262344929835,-0.033874873767778015,0.9033299671407473,"(0.0, 0.0, 0.0, 0.0, 0.0, 0.0)",0.06713055017345074,False,,,,,False,,,,
9,Open,,,,,,"[-0.026750000193715096, 0.05299999937415123, 0.03999999910593033]","[0.0, -0.0, 1.334351465706577]","[-0.09674673527479172, 0.06986585259437561, 0.03999999910593033]","[0.0, -0.0, 1.33435435145599]","[0.026750000193715096, 0.05299999937415123, 0.03999999910593033]","[0.0, 0.0, -1.3406650641721125]","[0.09685182571411133, 0.06942359358072281, 0.03999999910593033]","[0.0, 0.0, -1.3711530696282732]",1.3579162851496,5.655565729344001,"(0.0, 0.0, 0.0, 0.0, 0.0, 0.0)",-0.9088150211252332,3.4316066113876724e-06,0.0001607445165674468,"(0.0, 0.0, 0.0, 0.0, 0.0, 0.0)",-0.06444344013525093,-1.3635984108023202,-5.504042378604797,"(0.0, 0.0, 0.0, 0.0, 0.0, 0.0)",0.8762522980402716,-0.02744024570882781,0.7315266716392431,"(0.0, 0.0, 0.0, 0.0, 0.0, 0.0)",0.05446985052483407,False,,,,,False,,,,
10,Open,,,,,,"[-0.026750000193715096, 0.05299999937415123, 0.03999999910593033]","[0.0, -0.0, 1.3791247702213432]","[-0.0974314734339714, 0.0667160153388977, 0.03999999910593033]","[0.0, -0.0, 1.3791284782568445]","[0.026750000193715096, 0.05299999937415123, 0.03999999910593033]","[0.0, 0.0, -1.3842387704807777]","[0.09750068932771683, 0.06635437905788422, 0.03999999910593033]","[0.0, 0.0, -1.408935619520831]",1.398212190971176,4.581008240768642,"(0.0, 0.0, 0.0, 0.0, 0.0, 0.0)",-0.7364407507487188,4.314390796743166e-06,8.968521101115077e-05,"(0.0, 0.0, 0.0, 0.0, 0.0, 0.0)",-0.05230389643117988,-1.4028147127498793,-4.458274326669883,"(0.0, 0.0, 0.0, 0.0, 0.0, 0.0)",0.7100243788118592,-0.02222789596809768,0.5925708975857369,"(0.0, 0.0, 0.0, 0.0, 0.0, 0.0)",0.04419507766734469,False,,,,,False,,,,
11,Open,,,,,,"[-0.026750000193715096, 0.05299999937415123, 0.03999999910593033]","[0.0, -0.0, 1.415391158105469]","[-0.09788231551647186, 0.06414420157670975, 0.03999999910593033]","[0.0, -0.0, 1.415395709317307]","[0.026750000193715096, 0.05299999937415123, 0.03999999910593033]","[0.0, 0.0, -1.419533200978404]","[0.09792786836624146, 0.06384945660829544, 0.03999999910593033]","[0.0, 0.0, -1.4395389386881268]",1.4308518746866525,3.7106166750225977,"(0.0, 0.0, 0.0, 0.0, 0.0, 0.0)",-0.5967141397561109,4.7399630338636504e-06,3.9705446138709865e-05,"(0.0, 0.0, 0.0, 0.0, 0.0, 0.0)",-0.042434775014060074,-1.4345799173274023,-3.611202204602609,"(0.0, 0.0, 0.0, 0.0, 0.0, 0.0)",0.5752902758042565,-0.018005647771851804,0.4800102903229233,"(0.0, 0.0, 0.0, 0.0, 0.0, 0.0)",0.0358468230863414,False,,,,,False,,,,
12,Open,,,,,,"[-0.026750000193715096, 0.05299999937415123, 0.03999999910593033]","[0.0, -0.0, 1.4447668540021588]","[-0.09817895293235779, 0.06205013021826744, 0.03999999910593033]","[0.0, -0.0, 1.4447715863131299]","[0.026750000193715096, 0.05299999937415123, 0.03999999910593033]","[0.0, 0.0, -1.448121993206969]","[0.09820891171693802, 0.06181041896343231, 0.03999999910593033]","[0.0, 0.0, -1.46432761016298]",1.4572900184961886,3.005599506768304,"(0.0, 0.0, 0.0, 0.0, 0.0, 0.0)",-0.483467731204937,4.849462099751187e-06,5.401615740548756e-06,"(0.0, 0.0, 0.0, 0.0, 0.0, 0.0)",-0.03441712855198442,-1.4603097330351957,-2.925073785728113,"(0.0, 0.0, 0.0, 0.0, 0.0, 0.0)",0.4660969568661882,-0.014585427836986846,0.38883096045278315,"(0.0, 0.0, 0.0, 0.0, 0.0, 0.0)",0.029067900465992856,False,,,,,False,,,,
13,Open,,,,,,"[-0.026750000193715096, 0.05299999937415123, 0.03999999910593033]","[0.0, -0.0, 1.4685611215819594]","[-0.09837405383586884, 0.06034812703728676, 0.03999999910593033]","[0.0, -0.0, 1.468565853091142]","[0.026750000193715096, 0.05299999937415123, 0.03999999910593033]","[0.0, 0.0, -1.4712788457263521]","[0.0983937606215477, 0.06015344336628914, 0.03999999910593033]","[0.0, 0.0, -1.4844061039497418]",1.4787049149819127,2.434535600482329,"(0.0, 0.0, 0.0, 0.0, 0.0, 0.0)",-0.39169363303347604,4.747151892642784e-06,-1.7351748576465223e-05,"(0.0, 0.0, 0.0, 0.0, 0.0, 0.0)",-0.02790732436186781,-1.4811508837585086,-2.3693097664397755,"(0.0, 0.0, 0.0, 0.0, 0.0, 0.0)",0.37761186810531283,-0.011814888241968555,0.3149714411852639,"(0.0, 0.0, 0.0, 0.0, 0.0, 0.0)",0.023565936472848985,False,,,,,False,,,,
14,Open,,,,,,"[-0.026750000193715096, 0.05299999937415123, 0.03999999910593033]","[0.0, -0.0, 1.487834617901085]","[-0.09850236773490906, 0.05896640568971634, 0.03999999910593033]","[0.0, -0.0, 1.4878390921106803]","[0.026750000193715096, 0.05299999937415123, 0.03999999910593033]","[0.0, 0.0, -1.4900358577435544]","[0.09851532429456711, 0.05880843847990036, 0.03999999910593033]","[0.0, 0.0, -1.5006695807985118]",1.4960509811353493,1.9719738363906854,"(0.0, 0.0, 0.0, 0.0, 0.0, 0.0)",-0.3173274216127963,4.509251873886308e-06,-3.168767150011037e-05,"(0.0, 0.0, 0.0, 0.0, 0.0, 0.0)",-0.022624215793833224,-1.498032215844392,-1.9191409108162163,"(0.0, 0.0, 0.0, 0.0, 0.0, 0.0)",0.30591369390909257,-0.00957062017308593,0.2551417656412126,"(0.0, 0.0, 0.0, 0.0, 0.0, 0.0)",0.019102112305110365,False,,,,,False,,,,
15,Close,,,"(0.010000330010418335, 0.1600052801621647, 0.0076635160840755065)","(-0.00010776674212266888, 6.7354271463595154e-06, -3.629275205618536e-10)",,"[-0.026750000193715096, 0.05299999937415123, 0.03999999910593033]","[0.0, -0.0, 1.5034457455162191]","[-0.09858676046133041, 0.05784556642174721, 0.03999999910593033]","[0.0, -0.0, 1.5034503818793725]","[0.026750000193715096, 0.05299999937415123, 0.03999999910593033]","[0.0, 0.0, -1.5052288706440118]","[0.09859529137611389, 0.057717464864254, 0.03999999910593033]","[0.0, 0.0, -1.5138427586332608]",1.413101294719633,-21.682701192523552,"(0.0, 0.0, 0.0, 0.0, 0.0, 0.0)",-36.2964633864193,-0.08999572753671375,-21.600020366059084,"(0.0, 0.0, 0.0, 0.0, 0.0, 0.0)",-4.677104715743802,-1.4147060948339576,21.72549586223887,"(0.0, 0.0, 0.0, 0.0, 0.0, 0.0)",36.28721231316116,0.08224721981037424,21.806647295928226,"(0.0, 0.0, 0.0, 0.0, 0.0, 0.0)",4.674247117033191,False,,,,,False,,,,
16,Close,,,"(0.010000659812012168, 0.16001055698314023, 0.0146278458391823)","(-0.0002154970996661642, 1.346858017578936e-05, -1.4512199879406586e-09)",,"[-0.026750000193715096, 0.05299999937415123, 0.03999999910593033]","[0.0, -0.0, 1.331791174621689]","[-0.09670332819223404, 0.07004500180482864, 0.03999999910593033]","[0.0, -0.0, 1.1607947601674466]","[0.026750000193715096, 0.05299999937415123, 0.03999999910593033]","[0.0, 0.0, -1.333235579802916]","[0.0967278704047203, 0.06994394958019257, 0.03999999910593033]","[0.0, 0.0, -1.1692126917852095]",1.2586120487229027,-17.562987965944075,"(0.0, 0.0, 0.0, 0.0, 0.0, 0.0)",2.9912613024458263,-0.2438973282575851,-17.496176851103186,"(0.0, 0.0, 0.0, 0.0, 0.0, 0.0)",0.3774423078885404,-1.2599119368155056,17.59765164841349,"(0.0, 0.0, 0.0, 0.0, 0.0, 0.0)",-2.998418754928424,0.23762104120869787,17.663545071724318,"(0.0, 0.0, 0.0, 0.0, 0.0, 0.0)",-0.3794651959179023,False,,,,,False,,,,
17,Close,,,"(0.010000989414132393, 0.1600158306125408, 0.020893621515273818)","(-0.00032319108508158773, 2.0199459787849396e-05, -3.2641426920478403e-09)",,"[-0.026750000193715096, 0.05299999937415123, 0.03999999910593033]","[0.0, -0.0, 1.1927509376626115]","[-0.09366592019796371, 0.0795755386352539, 0.03999999910593033]","[0.0, -0.0, 0.8832429263887086]","[0.026750000193715096, 0.05299999937415123, 0.03999999910593033]","[0.0, 0.0, -1.1939208377844814]","[0.0936969667673111, 0.07949723303318024, 0.03999999910593033]","[0.0, 0.0, -0.8900614482005528]",1.1334757594655511,-14.226020252414699,"(0.0, 0.0, 0.0, 0.0, 0.0, 0.0)",2.4288508647123748,-0.36855748390702325,-14.171887099327844,"(0.0, 0.0, 0.0, 0.0, 0.0, 0.0)",0.30976852738726823,-1.1345286688205596,14.254097835214925,"(0.0, 0.0, 0.0, 0.0, 0.0, 0.0)",-2.4347025650831196,0.36347369491056536,14.307455277413446,"(0.0, 0.0, 0.0, 0.0, 0.0, 0.0)",-0.3114537668278207,False,,,,,False,,,,
18,Close,,,"(0.010001318826104761, 0.16002110119957821, 0.02646143576036139)","(-0.0004308487108156613, 2.692806668198511e-05, -5.800961497533997e-09)",,"[-0.026750000193715096, 0.05299999937415123, 0.03999999910593033]","[0.0, -0.0, 1.0801281957344744]","[-0.09025531262159348, 0.08692750334739685, 0.03999999910593033]","[0.0, -0.0, 0.658426092619021]","[0.026750000193715096, 0.05299999937415123, 0.03999999910593033]","[0.0, 0.0, -1.0810758877799864]","[0.09028743207454681, 0.0868673101067543, 0.03999999910593033]","[0.0, 0.0, -0.6639491897248752]",1.0321153651670965,-11.523076404455903,"(0.0, 0.0, 0.0, 0.0, 0.0, 0.0)",1.9712593195403922,-0.46953209273108476,-11.479215138346529,"(0.0, 0.0, 0.0, 0.0, 0.0, 0.0)",0.25356328507457,-1.0329682217446532,11.54581924652409,"(0.0, 0.0, 0.0, 0.0, 0.0, 0.0)",-1.976034733535922,0.46541422655746517,11.589025293474933,"(0.0, 0.0, 0.0, 0.0, 0.0, 0.0)",-0.2549589687679249,False,,,,,False,,,,
19,Close,,,"(0.010001648057231211, 0.16002636889308344, 0.03133184175509247)","(-0.0005384699893107284, 3.3654401557527444e-05, -9.06094284338731e-09)",,"[-0.026750000193715096, 0.05299999937415123, 0.03999999910593033]","[0.0, -0.0, 0.9889039009917453]","[-0.08690053224563599, 0.09257163107395172, 0.03999999910593033]","[0.0, -0.0, 0.4763247177857985]","[0.026750000193715096, 0.05299999937415123, 0.03999999910593033]","[0.0, 0.0, -0.9896714317513632]","[0.08693088591098785, 0.09252544492483139, 0.03999999910593033]","[0.0, 0.0, -0.4807983343348629]",0.9500134457853482,-9.333691887609287,"(0.0, 0.0, 0.0, 0.0, 0.0, 0.0)",1.59927232790674,-0.551321428885197,-9.298153181376478,"(0.0, 0.0, 0.0, 0.0, 0.0, 0.0)",0.20712540820679678,-0.9507042596131691,9.352113589684514,"(0.0, 0.0, 0.0, 0.0, 0.0, 0.0)",-1.6031637286990463,0.5479859596890367,9.387099348535743,"(0.0, 0.0, 0.0, 0.0, 0.0, 0.0)",-0.20827601456628825,False,,,,,False,,,,
20,Close,,,"(0.010001977116791199, 0.1600316338415276, 0.035505353338314005)","(-0.0006460549330047555, 4.037846511369274e-05, -1.3043353742532214e-08)",,"[-0.026750000193715096, 0.05299999937415123, 0.03999999910593033]","[0.0, -0.0, 0.9150121593347216]","[-0.08381503820419312, 0.09690423309803009, 0.03999999910593033]","[0.0, -0.0, 0.3288226039195219]","[0.026750000193715096, 0.05299999937415123, 0.03999999910593033]","[0.0, 0.0, -0.9156338940018686]","[0.08384232223033905, 0.09686874598264694, 0.03999999910593033]","[0.0, 0.0, -0.33244627340343963]",0.883510891086132,-7.560290428963521,"(0.0, 0.0, 0.0, 0.0, 0.0, 0.0)",1.2970851133907606,-0.6175707112805602,-7.53149495926978,"(0.0, 0.0, 0.0, 0.0, 0.0, 0.0)",0.1689126126712179,-0.884070450286667,7.575212007644451,"(0.0, 0.0, 0.0, 0.0, 0.0, 0.0)",-1.3002524451675361,0.6148689832085066,7.603541305643349,"(0.0, 0.0, 0.0, 0.0, 0.0, 0.0)",-0.16985779298155493,False,,,,,False,,,,
21,Close,,,"(0.010002306014043007, 0.16003689619304312, 0.038982445123681576)","(-0.0007536035543313348, 4.7100258049582536e-05, -1.7747461781428295e-08)",,"[-0.026750000193715096, 0.05299999937415123, 0.03999999910593033]","[0.0, -0.0, 0.855159831855573]","[-0.0810866579413414, 0.10023905336856842, 0.03999999910593033]","[0.0, -0.0, 0.20934598049273878]","[0.026750000193715096, 0.05299999937415123, 0.03999999910593033]","[0.0, 0.0, -0.855663319897266]","[0.08111044019460678, 0.10021167993545532, 0.03999999910593033]","[0.0, 0.0, -0.21228117869263835]",0.8296438217797669,-6.123835247460454,"(0.0, 0.0, 0.0, 0.0, 0.0, 0.0)",1.05173758145085,-0.6712325644411228,-6.100503438359898,"(0.0, 0.0, 0.0, 0.0, 0.0, 0.0)",0.13756782929819192,-0.8300970647322002,6.135921726192006,"(0.0, 0.0, 0.0, 0.0, 0.0, 0.0)",-1.0543131565319612,0.6690441663231638,6.158860938132814,"(0.0, 0.0, 0.0, 0.0, 0.0, 0.0)",-0.13834207864853043,False,,,,,False,,,,
22,Close,,,"(0.010002634758225062, 0.1600421560954447, 0.041763552607370504)","(-0.000861115865719684, 5.381978106418352e-05, -2.3172535119669436e-08)",,"[-0.026750000193715096, 0.05299999937415123, 0.03999999910593033]","[0.0, -0.0, 0.8066794434121096]","[-0.07873354107141495, 0.10281677544116974, 0.03999999910593033]","[0.0, -0.0, 0.11257000369976355]","[0.026750000193715096, 0.05299999937415123, 0.03999999910593033]","[0.0, 0.0, -0.807087375168555]","[0.07875385880470276, 0.1027955636382103, 0.03999999910593033]","[0.0, 0.0, -0.11494747853587685]",0.7860114956416112,-4.960306550442966,"(0.0, 0.0, 0.0, 0.0, 0.0, 0.0)",0.8526282438926112,-0.7146986118113532,-4.941401666116088,"(0.0, 0.0, 0.0, 0.0, 0.0, 0.0)",0.11192109221648956,-0.7863786224330822,4.970096598215528,"(0.0, 0.0, 0.0, 0.0, 0.0, 0.0)",-0.8547210444656044,0.7129260106609093,4.988671207184531,"(0.0, 0.0, 0.0, 0.0, 0.0, 0.0)",-0.11255391153308099,False,,,,,False,,,,
23,Close,,,"(0.010002963358557236, 0.16004741369625017, 0.04384907226694074)","(-0.0009685918795946493, 6.053703485636736e-05, -2.9317842489583264e-08)",,"[-0.026750000193715096, 0.05299999937415123, 0.03999999910593033]","[0.0, -0.0, 0.7674103444184671]","[-0.07673770934343338, 0.10481919348239899, 0.03999999910593033]","[0.0, -0.0, 0.03418149097606777]","[0.026750000193715096, 0.05299999937415123, 0.03999999910593033]","[0.0, 0.0, -0.7677407466611278]","[0.07675483077764511, 0.1048026755452156, 0.03999999910593033]","[0.0, 0.0, -0.0361072460378734]",0.7506693114697051,-4.017848305858803,"(0.0, 0.0, 0.0, 0.0, 0.0, 0.0)",0.6911017846597902,-0.7499060663183246,-4.0025303530146505,"(0.0, 0.0, 0.0, 0.0, 0.0, 0.0)",0.09097831684118958,-0.7509666841707966,4.025778244554576,"(0.0, 0.0, 0.0, 0.0, 0.0, 0.0)",-0.6928012733138227,0.7484702604680491,4.040818653480022,"(0.0, 0.0, 0.0, 0.0, 0.0, 0.0)",-0.09149462532289206,False,,,,,False,,,,
24,Close,,,"(0.010003291824242136, 0.16005266914270105, 0.04523936165140331)","(-0.0010760316083767074, 6.725202012489063e-05, -3.618265319583079e-08)",,"[-0.026750000193715096, 0.05299999937415123, 0.03999999910593033]","[0.0, -0.0, 0.7356023986171477]","[-0.07506444305181503, 0.10638272017240524, 0.03999999910593033]","[0.0, 0.0, -0.029314282157410606]","[0.026750000193715096, 0.05299999937415123, 0.03999999910593033]","[0.0, 0.0, -0.7358699744488303]","[0.07507872581481934, 0.10636978596448898, 0.03999999910593033]","[0.0, -0.0, 0.027754427824074522]",0.722042142290461,-3.2544571277456287,"(0.0, 0.0, 0.0, 0.0, 0.0, 0.0)",0.560108160717456,-0.7784260816002104,-3.242260463996204,"(0.0, 0.0, 0.0, 0.0, 0.0, 0.0)",0.0739092939425144,-0.7222830141783452,3.260880378089207,"(0.0, 0.0, 0.0, 0.0, 0.0, 0.0)",-0.5614876113391304,0.7772630911922368,3.2732751882458535,"(0.0, 0.0, 0.0, 0.0, 0.0, 0.0)",-0.07432997801242036,False,,,,,False,,,,
25,Close,,,"(0.010001644182078712, 0.16005595153396976, 0.045940321410535084)","(-0.0011271805217326655, 1.767785898679914e-05, -1.508889111938428e-08)",,"[-0.026750000193715096, 0.05299999937415123, 0.03999999910593033]","[0.0, -0.0, 0.7098379546684608]","[-0.07367318123579025, 0.10760965943336487, 0.03999999910593033]","[0.0, 0.0, -0.08074653118681538]","[0.026750000193715096, 0.05299999937415123, 0.03999999910593033]","[0.0, 0.0, -0.7100547061469626]","[0.07368502020835876, 0.10759948939085007, 0.03999999910593033]","[0.0, -0.0, 0.07948305351710017]",0.6988541352552734,-2.6361102734739577,"(0.0, 0.0, 0.0, 0.0, 0.0, 0.0)",0.4538907146887525,-0.8015268867317584,-2.626184566689172,"(0.0, 0.0, 0.0, 0.0, 0.0, 0.0)",0.06000477197099662,-0.6990492414844596,2.6413131062522566,"(0.0, 0.0, 0.0, 0.0, 0.0, 0.0)",-0.45500992694973624,0.8005848745408953,2.6513062318756173,"(0.0, 0.0, 0.0, 0.0, 0.0, 0.0)",-0.06034712704439637,False,,,,,False,,,,
26,Close,,,"(0.0099979269032565, 0.16005188637635104, 0.04640949954916324)","(-0.0010442772263960227, -5.814874739306873e-05, 7.787963860925158e-09)",,"[-0.026750000193715096, 0.05299999937415123, 0.03999999910593033]","[0.0, -0.0, 0.6889687286552088]","[-0.07252338528633118, 0.1085769459605217, 0.03999999910593033]","[0.0, 0.0, -0.12240626184562299]","[0.026750000193715096, 0.05299999937415123, 0.03999999910593033]","[0.0, 0.0, -0.6891442541658422]","[0.07253314554691315, 0.10856890678405762, 0.03999999910593033]","[0.0, -0.0, 0.12138287899953458]",0.6800717984485459,-2.1352615874880345,"(0.0, 0.0, 0.0, 0.0, 0.0, 0.0)",0.36778464275725675,-0.820237492399504,-2.127000202679893,"(0.0, 0.0, 0.0, 0.0, 0.0, 0.0)",0.04871100820034693,-0.6802298342020312,2.1394759521557623,"(0.0, 0.0, 0.0, 0.0, 0.0, 0.0)",-0.3686924226914724,0.8194744666035607,2.147347557238381,"(0.0, 0.0, 0.0, 0.0, 0.0, 0.0)",-0.04898946018255637,False,,,,,False,,,,
27,Close,,,"(0.009998107600018924, 0.16004411888380865, 0.0468059782297436)","(-0.0008858309445970004, -5.447527859797503e-05, 4.128601528647624e-08)",,"[-0.026750000193715096, 0.05299999937415123, 0.03999999910593033]","[0.0, -0.0, 0.672064613904271]","[-0.07157741487026215, 0.10934273153543472, 0.03999999910593033]","[0.0, 0.0, -0.15614974961002634]","[0.026750000193715096, 0.05299999937415123, 0.03999999910593033]","[0.0, 0.0, -0.6722069192953587]","[0.07158542424440384, 0.10933635383844376, 0.03999999910593033]","[0.0, -0.0, 0.15532080931604164]",0.6648581567433223,-1.7295508464885936,"(0.0, 0.0, 0.0, 0.0, 0.0, 0.0)",0.29799285099320455,-0.8353935278746698,-1.722993881465588,"(0.0, 0.0, 0.0, 0.0, 0.0, 0.0)",0.03950205891705609,-0.6649861657036452,1.732964418763874,"(0.0, 0.0, 0.0, 0.0, 0.0, 0.0)",-0.2987289514022836,0.83477548361327,1.7394759470338683,"(0.0, 0.0, 0.0, 0.0, 0.0, 0.0)",-0.03972821774930672,False,,,,,False,,,,
28,Close,,,"(0.009998390752654573, 0.16003702894197389, 0.04714144752999396)","(-0.0007411380797103218, -4.869650481896534e-05, 1.1687517768299383e-07)",,"[-0.026750000193715096, 0.05299999937415123, 0.03999999910593033]","[0.0, -0.0, 0.6583722791296546]","[-0.07080177217721939, 0.10995122045278549, 0.03999999910593033]","[0.0, 0.0, -0.18348236399010098]","[0.026750000193715096, 0.05299999937415123, 0.03999999910593033]","[0.0, 0.0, -0.6584875609778488]","[0.07080833613872528, 0.10994613915681839, 0.03999999910593033]","[0.0, -0.0, 0.18281091441867092]",0.652535106962091,-1.400936185655761,"(0.0, 0.0, 0.0, 0.0, 0.0, 0.0)",0.24143143710013154,-0.8476696977959799,-1.3956001238249038,"(0.0, 0.0, 0.0, 0.0, 0.0, 0.0)",0.032035576984152714,-0.6526387942199526,1.4037011791987364,"(0.0, 0.0, 0.0, 0.0, 0.0, 0.0)",-0.24202820218879367,0.8471690873323404,1.4089504550195393,"(0.0, 0.0, 0.0, 0.0, 0.0, 0.0)",-0.0322192170145395,False,,,,,False,,,,
29,Close,,,"(0.009998679410322496, 0.16003066597344334, 0.0474253884764576)","(-0.0006112814540129935, -4.2805404436077314e-05, 1.9447426774393396e-07)",,"[-0.026750000193715096, 0.05299999937415123, 0.03999999910593033]","[0.0, -0.0, 0.6472815645892557]","[-0.07016744464635849, 0.11043626815080643, 0.03999999910593033]","[0.0, 0.0, -0.2056215493544759]","[0.026750000193715096, 0.05299999937415123, 0.03999999910593033]","[0.0, 0.0, -0.6473749785824873]","[0.07017280906438828, 0.1104322224855423, 0.03999999910593033]","[0.0, -0.0, 0.20507767878351457]",0.6425534366392937,-1.1347583103811658,"(0.0, 0.0, 0.0, 0.0, 0.0, 0.0)",0.19559696212506814,-0.8576132175808707,-1.130415870269558,"(0.0, 0.0, 0.0, 0.0, 0.0, 0.0)",0.025974296640771184,-0.6426374233181616,1.1369979551509777,"(0.0, 0.0, 0.0, 0.0, 0.0, 0.0)",-0.19608068519888996,0.8572077274788498,1.141229523067934,"(0.0, 0.0, 0.0, 0.0, 0.0, 0.0)",-0.02612334092818916,False,,,,,False,,,,
30,Close,,,"(0.009865465308992205, 0.15999852606453366, 0.04766600164849151)","(-0.0003424815135586742, 0.00015086673503461647, 0.0034152828324375316)",,"[-0.026750000193715096, 0.05299999937415123, 0.03999999910593033]","[0.0, -0.0, 0.6382981045455605]","[-0.06964972615242004, 0.11082398891448975, 0.03999999910593033]","[0.0, 0.0, -0.22355414441709243]","[0.026750000193715096, 0.05299999937415123, 0.03999999910593033]","[0.0, 0.0, -0.6383737252477673]","[0.06965409219264984, 0.11082074791193008, 0.03999999910593033]","[0.0, -0.0, 0.22311363310560886]",0.6344682836778279,-0.9191542314087444,"(0.0, 0.0, 0.0, 0.0, 0.0, 0.0)",0.1584658053641607,-0.8656670151994418,-0.9155462613482186,"(0.0, 0.0, 0.0, 0.0, 0.0, 0.0)",0.021063560793533557,-0.6345419852789147,0.9196069697833984,"(0.0, 0.0, 0.0, 0.0, 0.0, 0.0)",1.5650710318467773,0.8652269258386903,0.8975102038417887,"(0.0, 0.0, 0.0, 0.0, 0.0, 0.0)",0.970263568851588,False,,,,,True,"(0.041964474105275554, 0.17969275438125942, 0.023999959438538113)","(-0.9999999992078928, -2.3394376763778626e-07, -3.980150266267419e-05)",0.0005277146366441324,13.827283024398023
31,Move,,,"(0.007531441160261598, 0.15943355925897776, 0.04793749047777572)","(0.0004675471125978071, 0.0030980487514889743, 0.042187087651658045)","[0.0, 0.0, 0.0]","[-0.026750000193715096, 0.05299999937415123, 0.03999999910593033]","[0.0, -0.0, 0.6310214732486521]","[-0.06922782957553864, 0.1111346185207367, 0.03999999910593033]","[0.0, 0.0, -0.23807887186492363]","[0.026750000193715096, 0.05299999937415123, 0.03999999910593033]","[0.0, 0.0, -0.6310921751356334]","[0.06923194229602814, 0.11113161593675613, 0.03999999910593033]","[0.0, -0.0, 0.2374845653717714]",0.6073010028525442,-5.692908589800243,"(0.0, 0.0, 0.0, 0.0, 0.0, 0.0)",-6.970029188620435,-0.868756983831492,0.08239916352133925,"(0.0, 0.0, 0.0, 0.0, 0.0, 0.0)",-0.4110687045203754,-0.611740225246224,4.644483936519708,"(0.0, 0.0, 0.0, 0.0, 0.0, 0.0)",16.89184890970004,0.867806474071962,-0.18487981123553754,"(0.0, 0.0, 0.0, 0.0, 0.0, 0.0)",7.048127015297625,False,,,,,True,"(0.04055545960179211, 0.17959859830229866, 0.023999959438538113)","(-0.9999999992078928, -2.3394376763778626e-07, -3.980150266267419e-05)",1.7680143456731747e-05,63.045922291441585
32,Move,,,"(0.003957544000973901, 0.15851764682849465, 0.04795390284420232)","(-0.0011008320770363102, -0.0006977175186555282, 0.10042858806964135)","[-0.003573897159287697, -0.0009159124304831123, 1.641236642659777e-05]","[-0.026750000193715096, 0.05299999937415123, 0.03999999910593033]","[0.0, -0.0, 0.5859526299274878]","[-0.06656552106142044, 0.11298936605453491, 0.03999999910593033]","[0.0, 0.0, -0.2824962348735626]","[0.026750000193715096, 0.05299999937415123, 0.03999999910593033]","[0.0, 0.0, -0.594314120306663]","[0.06706573069095612, 0.11265435814857483, 0.03999999910593033]","[0.0, -0.0, 0.2732348327231097]",0.565147400783918,-4.993246765650069,"(0.0, 0.0, 0.0, 0.0, 0.0, 0.0)",0.17829654108403456,-0.8684797142115713,-0.007411699001202532,"(0.0, 0.0, 0.0, 0.0, 0.0, 0.0)",0.00455822316724466,-0.5763918365092247,4.3013615307066,"(0.0, 0.0, 0.0, 0.0, 0.0, 0.0)",0.18183625603215695,0.8675744839432311,0.006108988916902286,"(0.0, 0.0, 0.0, 0.0, 0.0, 0.0)",0.019777118317349834,False,,,,,True,"(0.03596037581645286, 0.18005261626012228, 0.023999959438538113)","(-0.9999999992078928, -2.3394376763778626e-07, -3.980150266267419e-05)",0.00038226713401520615,0.0
33,Move,,,"(0.0017358019799075751, 0.15820347561446194, 0.04739704446680821)","(0.002208267246179006, 0.027849022087161775, 0.09243873703552388)","[-0.005795639180354023, -0.0012300836445158225, -0.0005404460109675116]","[-0.026750000193715096, 0.05299999937415123, 0.03999999910593033]","[0.0, -0.0, 0.5464227538600003]","[-0.06416366249322891, 0.1145159974694252, 0.03999999910593033]","[0.0, 0.0, -0.3220854742477549]","[0.026750000193715096, 0.05299999937415123, 0.03999999910593033]","[0.0, 0.0, -0.5602617986277152]","[0.06501137465238571, 0.1139923557639122, 0.03999999910593033]","[0.0, -0.0, 0.3073365932911184]",0.5289315414219142,-4.197884157795859,"(0.0, 0.0, 0.0, 0.0, 0.0, 0.0)",-64.154621435966,-0.8425565479674821,6.228395352294645,"(0.0, 0.0, 0.0, 0.0, 0.0, 0.0)",-32.130962778273805,-0.5441443267234657,3.868176970946213,"(0.0, 0.0, 0.0, 0.0, 0.0, 0.0)",55.902853283837345,0.8406694536036414,-6.462931091101013,"(0.0, 0.0, 0.0, 0.0, 0.0, 0.0)",28.486395057627597,True,"(-0.02980702394315294, 0.18053706616553367, 0.056003617273932486)","(0.992361453783653, 0.12331125608308205, 0.0036165131835969)",-0.0023810333573471374,509.7679218178472,True,"(0.03175431161395375, 0.1791632010450061, 0.023996382726857182)","(-0.9923614537836529, -0.12331125608308285, -0.0036165131835939734)",0.0003129619965613045,279.50711321282796
34,Move,"(-0.0031000000000000003, 0.0, -0.0002)","(0.0, 0.02079385270826044, 0.0)","(0.0017992883952863523, 0.15988901095008584, 0.047633257752315854)","(-0.0034164426216197292, 0.025205265208205027, 0.08482203290110019)","[-0.005732152764975245, 0.00045545169110808303, -0.0003042327254598673]","[-0.026750000193715096, 0.05299999937415123, 0.03999999910593033]","[0.0, -0.0, 0.5134920963637825]","[-0.06211797520518303, 0.11571448296308517, 0.03999999910593033]","[0.0, 0.0, -0.29994856636699835]","[0.026750000193715096, 0.05299999937415123, 0.03999999910593033]","[0.0, 0.0, -0.529932642021003]","[0.06314421445131302, 0.11512456089258194, 0.03999999910593033]","[0.0, -0.0, 0.2843188501033306]",0.5140407856365695,0.13170997040375054,"(0.0, 0.0, 0.0, 0.0, 0.0, 0.0)",2.601983357618347,-0.8154412044353861,-0.480164216319678,"(0.0, 0.0, 0.0, 0.0, 0.0, 0.0)",-1.5823901907474134,-0.5324117598518819,-0.5950068679893308,"(0.0, 0.0, 0.0, 0.0, 0.0, 0.0)",-3.55615955819883,0.8159485565414745,0.407319694235734,"(0.0, 0.0, 0.0, 0.0, 0.0, 0.0)",1.214581386092454,True,"(-0.029231141893287065, 0.1824798635860816, 0.056003617273932486)","(0.992361453783653, 0.12331125608308205, 0.0036165131835969)",-0.002430008289795608,12.648453330495824,True,"(0.03137726584588483, 0.18125295521235282, 0.05602827338581352)","(-0.9954977838430683, -0.09047000050205631, 0.028272625854305598)",-0.00020042701291845885,12.522787019415125
35,Move,"(0.0048, 0.0, 0.0011)","(0.0, 0.02079385270826044, 0.0)","(0.0019285235160331152, 0.16105803033089536, 0.04768510999968197)","(-0.003515670943919542, 0.015303869348034184, 0.0673855374858218)","[-0.005602917644228483, 0.0016244710719175992, -0.0002523804780937486]","[-0.026750000193715096, 0.05299999937415123, 0.03999999910593033]","[0.0, -0.0, 0.5145274099201748]","[-0.06218288838863373, 0.1156778335571289, 0.03999999910593033]","[0.0, 0.0, -0.30285331967848705]","[0.026750000193715096, 0.05299999937415123, 0.03999999910593033]","[0.0, 0.0, -0.5346378779521916]","[0.0634361132979393, 0.11495263129472733, 0.03999999910593033]","[0.0, -0.0, 0.2829737756059144]",0.511602817149622,-0.7018858422339054,"(0.0, 0.0, 0.0, 0.0, 0.0, 0.0)",-2.541481693309065,-0.8170721922679915,0.07403959874652494,"(0.0, 0.0, 0.0, 0.0, 0.0, 0.0)",-0.800488298540675,-0.5370309070979431,-0.5743521790397066,"(0.0, 0.0, 0.0, 0.0, 0.0, 0.0)",0.12382286918530058,0.8172892120032639,-0.07735671616187889,"(0.0, 0.0, 0.0, 0.0, 0.0, 0.0)",0.08066339177473811,True,"(-0.029095308865435175, 0.18228258804701553, 0.02397820023845662)","(0.996749213345501, 0.07756139509264638, -0.021799901064160847)",-0.0028555779609257706,10.754688532345769,True,"(0.031677324618533474, 0.1820270346521685, 0.05602180066102341)","(-0.9967492133455015, -0.07756139509263338, 0.02179990106419172)",-0.00016171600945881823,1.8289140593569622
36,Move,"(0.004200000000000001, 0.0, 0.0009000000000000001)","(0.0, 0.02528982086139784, 0.0)","(0.0021000336454736917, 0.16211597289981344, 0.04738373214381906)","(0.0012424150438277418, 0.00038694540872801116, 0.048865521260437535)","[-0.005431407514787906, 0.0026824136408356847, -0.0005537583339566624]","[-0.026750000193715096, 0.05299999937415123, 0.03999999910593033]","[0.0, -0.0, 0.5089640811518321]","[-0.06183364987373352, 0.11587397754192352, 0.03999999910593033]","[0.0, 0.0, -0.3079437177593139]","[0.026750000193715096, 0.05299999937415123, 0.03999999910593033]","[0.0, 0.0, -0.5391771519480977]","[0.06371696293354034, 0.11478546261787415, 0.03999999910593033]","[0.0, -0.0, 0.2779780044837682]",0.5067516567488781,-0.5309931889586466,"(0.0, 0.0, 0.0, 0.0, 0.0, 0.0)",0.14382652471430324,-0.8169243546975293,-0.003966195234907731,"(0.0, 0.0, 0.0, 0.0, 0.0, 0.0)",0.006095529811892128,-0.5415779215584549,-0.5761884946721406,"(0.0, 0.0, 0.0, 0.0, 0.0, 0.0)",-0.08515767864434022,0.8171685923726235,0.003227019729247868,"(0.0, 0.0, 0.0, 0.0, 0.0, 0.0)",-0.002681480169070689,True,"(-0.028406293263339766, 0.1822946978644419, 0.023991851531586315)","(0.9982986351099443, 0.05773599010731758, -0.008148041724854012)",-0.0024349484255224586,0.0,True,"(0.03229247854010288, 0.18203253154612914, 0.05600814880168408)","(-0.9982986351099447, -0.05773599010730788, 0.008148041724858087)",-0.00011955727993194737,0.0
37,Move,"(0.0029, 0.0, 0.0009000000000000001)","(0.0, 0.021265091606298914, 0.0)","(0.002259386558841726, 0.162884003451284, 0.04720971202017272)","(-0.004738531323904042, -0.008849895824030616, 0.029518782813725924)","[-0.005272054601419872, 0.003450444192306251, -0.0007277784576030025]","[-0.026750000193715096, 0.05299999937415123, 0.03999999910593033]","[0.0, -0.0, 0.5047604012702287]","[-0.061569035053253174, 0.11602091044187546, 0.03999999910593033]","[0.0, 0.0, -0.31217879299295226]","[0.026750000193715096, 0.05299999937415123, 0.03999999910593033]","[0.0, 0.0, -0.5437387144506126]","[0.06399841606616974, 0.11461619287729263, 0.03999999910593033]","[0.0, -0.0, 0.2734419413998278]",0.5029852292483675,-0.4260292161414393,"(0.0, 0.0, 0.0, 0.0, 0.0, 0.0)",-2.852878789086435,-0.8160567980342741,0.21176170087233784,"(0.0, 0.0, 0.0, 0.0, 0.0, 0.0)",-1.614657046170829,-0.5460303769696889,-0.5499987665437817,"(0.0, 0.0, 0.0, 0.0, 0.0, 0.0)",1.6263514403332466,0.816495835495592,-0.16435652162293032,"(0.0, 0.0, 0.0, 0.0, 0.0, 0.0)",0.8485671609418606,True,"(-0.02786031093476645, 0.18229279785755848, 0.023999612345336853)","(0.9988062431970491, 0.04884607275774989, -0.00038694539907251015)",-0.002036286733625042,2.545535049939111,True,"(0.03287893336255249, 0.18201162022810818, 0.05600038770535829)","(-0.9988062431970489, -0.04884607275775494, 0.00038694539906825064)",0.00014540832372484443,0.0
38,Move,"(0.0024, 0.0, 0.0009000000000000001)","(0.0, 0.021750293138353336, 0.0)","(0.0028232034255818448, 0.16327095238002934, 0.047483194980869906)","(-0.010821330770503733, -0.0007491025345802187, 0.023001149369073746)","[-0.004708237734679753, 0.00383739312105158, -0.0004542954969058155]","[-0.026750000193715096, 0.05299999937415123, 0.03999999910593033]","[0.0, -0.0, 0.5013842733774188]","[-0.0613560751080513, 0.11613810062408447, 0.03999999910593033]","[0.0, 0.0, -0.31411617335757364]","[0.026750000193715096, 0.05299999937415123, 0.03999999910593033]","[0.0, 0.0, -0.5480882214508734]","[0.06426606327295303, 0.11445359885692596, 0.03999999910593033]","[0.0, -0.0, 0.2678491474284274]",0.4997547474374054,-0.3910945389117339,"(0.0, 0.0, 0.0, 0.0, 0.0, 0.0)",-0.7091815223965553,-0.8152297855823031,0.06496995745884011,"(0.0, 0.0, 0.0, 0.0, 0.0, 0.0)",-0.37887120600631885,-0.5503454737776664,-0.5417379773083472,"(0.0, 0.0, 0.0, 0.0, 0.0, 0.0)",0.6276618577496154,0.8156430662366602,-0.07063353047083382,"(0.0, 0.0, 0.0, 0.0, 0.0, 0.0)",0.4118275502029489,True,"(-0.02751833691199626, 0.1823247442529306, 0.05600468983882732)","(0.9996741073773909, 0.025093656142250998, 0.004689078868093536)",-0.0018883046971254203,5.334210505222116,True,"(0.033523994618242764, 0.1820220153408222, 0.05600038770535829)","(-0.9988062431970489, -0.04884607275775494, 0.00038694539906825064)",2.146914677284458e-05,5.490483471768313
39,Move,"(0.0029, 0.0, 0.0011)","(0.0, 0.013110913340981403, 0.0)","(0.0033531834071977304, 0.16356005323375788, 0.047733463524255525)","(-0.013286421880264502, 0.0029995115716353903, 0.020102139030687187)","[-0.004178257753063868, 0.004126493974780127, -0.00020402695352019634]","[-0.026750000193715096, 0.05299999937415123, 0.03999999910593033]","[0.0, -0.0, 0.49830129522086214]","[-0.06116125360131264, 0.11624449491500854, 0.03999999910593033]","[0.0, 0.0, -0.3164817240351592]","[0.026750000193715096, 0.05299999937415123, 0.03999999910593033]","[0.0, 0.0, -0.5523874097954454]","[0.0645299181342125, 0.11429174244403839, 0.03999999910593033]","[0.0, -0.0, 0.26277246282427785]",0.4966631475511025,-0.39314860370232396,"(0.0, 0.0, 0.0, 0.0, 0.0, 0.0)",-1.7325781771681534,-0.81461652514956,0.03994991213131972,"(0.0, 0.0, 0.0, 0.0, 0.0, 0.0)",-0.8954318949638339,-0.5547168685609669,-0.5590533490468663,"(0.0, 0.0, 0.0, 0.0, 0.0, 0.0)",0.19534352603906394,0.8150184782785167,-0.03394485912738873,"(0.0, 0.0, 0.0, 0.0, 0.0, 0.0)",0.15794605230556508,True,"(-0.027167016486623695, 0.18235017052289018, 0.05600074986242378)","(0.9997352047229435, 0.022999114832354645, 0.000749102464558545)",-0.0016061916518909116,5.79363902183857,True,"(0.034130863462943375, 0.1820296069508275, 0.056003134593020004)","(-0.9997577320116735, -0.021786609952494488, 0.0031338330607827082)",9.184281435348993e-06,2.2363880892844183
40,Move,"(0.0047, 0.0, 0.0012)","(0.0, 0.008604473212332044, 0.0)","(0.0038983443565918214, 0.16369538971045344, 0.04792655888567193)","(-0.01127158312045738, 0.002566240586834408, 0.0152028583296021)","[-0.0036330968036697767, 0.004261830451475684, -1.0931592103788357e-05]","[-0.026750000193715096, 0.05299999937415123, 0.03999999910593033]","[0.0, -0.0, 0.4951976356751391]","[-0.06096480041742325, 0.11635098606348038, 0.03999999910593033]","[0.0, 0.0, -0.31914284539943444]","[0.026750000193715096, 0.05299999937415123, 0.03999999910593033]","[0.0, 0.0, -0.5568185664379467]","[0.06480113416910172, 0.11412373185157776, 0.03999999910593033]","[0.0, -0.0, 0.25799580754588386]",0.49326957190183557,-0.46273327322202995,"(0.0, 0.0, 0.0, 0.0, 0.0, 0.0)",-1.1826779683707989,-0.8142501858361108,0.021663025682930007,"(0.0, 0.0, 0.0, 0.0, 0.0, 0.0)",-0.561488871615618,-0.5594671405196622,-0.6356592023750691,"(0.0, 0.0, 0.0, 0.0, 0.0, 0.0)",-0.11791766788744784,0.8147519740079273,-0.014964445624641817,"(0.0, 0.0, 0.0, 0.0, 0.0, 0.0)",0.026042802905965407,True,"(-0.026794769392878615, 0.18236596968902707, 0.05600074986242378)","(0.9997352047229435, 0.022999114832354645, 0.000749102464558545)",-0.0013576814777865568,6.469424409644038,True,"(0.034726013484280935, 0.182004504888529, 0.05600278292464198)","(-0.9998242703279151, -0.01853882474511778, 0.0027821646827648192)",-9.395998617838553e-06,0.5355710939138926
41,Move,"(0.007200000000000001, 0.0, 0.0011)","(0.0, 0.017205455766160106, 0.0)","(0.004442189675333233, 0.16379147185701545, 0.04807350875318647)","(-0.009544416521459185, 0.001633104246480286, 0.006495195931520754)","[-0.003089251484928365, 0.004357912598037694, 0.0001360182754107514]","[-0.026750000193715096, 0.05299999937415123, 0.03999999910593033]","[0.0, -0.0, 0.49153537060623476]","[-0.060732562094926834, 0.11647586524486542, 0.03999999910593033]","[0.0, 0.0, -0.32261299526163717]","[0.026750000193715096, 0.05299999937415123, 0.03999999910593033]","[0.0, 0.0, -0.5618517403325821]","[0.0651082992553711, 0.11393144726753235, 0.03999999910593033]","[0.0, -0.0, 0.2528324878340665]",0.489195216009295,-0.5616332990334544,"(0.0, 0.0, 0.0, 0.0, 0.0, 0.0)",-1.120513652301265,-0.8141329496819054,0.0036924013739872003,"(0.0, 0.0, 0.0, 0.0, 0.0, 0.0)",-0.5224652273256168,-0.5648958868013753,-0.7305993961407263,"(0.0, 0.0, 0.0, 0.0, 0.0, 0.0)",-0.22811245407345293,0.8146909684857309,0.001626813925237336,"(0.0, 0.0, 0.0, 0.0, 0.0, 0.0)",-0.014590889448821009,True,"(-0.026333655619905694, 0.18237187582273087, 0.05600074986242378)","(0.9997352047229435, 0.022999114832354645, 0.000749102464558545)",-0.0011449156741232332,6.976122664625839,True,"(0.035384041980010245, 0.18196825415716597, 0.05600236926087566)","(-0.9999285451052623, -0.011717290091244356, 0.002368500916435174)",-9.879399839626823e-06,0.0
42,Move,"(0.009800000000000001, 0.0, 0.0016)","(0.0, 0.01676912345316152, 0.0)","(0.005002545963718404, 0.16392769733059842, 0.04813261947350637)","(-0.008068455704055011, -0.00131007199171956, -0.006061553264070137)","[-0.002528895196543194, 0.0044941380716206625, 0.00019512899573064652]","[-0.026750000193715096, 0.05299999937415123, 0.03999999910593033]","[0.0, -0.0, 0.48708807770635365]","[-0.060449931770563126, 0.11662636697292328, 0.03999999910593033]","[0.0, 0.0, -0.3270499249042595]","[0.026750000193715096, 0.05299999937415123, 0.03999999910593033]","[0.0, 0.0, -0.5676356541769751]","[0.06546007841825485, 0.11370856314897537, 0.03999999910593033]","[0.0, -0.0, 0.24706142830887723]",0.48429277658658015,-0.6708774220174915,"(0.0, 0.0, 0.0, 0.0, 0.0, 0.0)",-1.12764150733746,-0.8141162188592036,0.005242439843264214,"(0.0, 0.0, 0.0, 0.0, 0.0, 0.0)",-0.520451288958201,-0.5711080948267298,-0.8333904695584122,"(0.0, 0.0, 0.0, 0.0, 0.0, 0.0)",-0.2556428649281708,0.8146964589827285,-0.0001464132532706941,"(0.0, 0.0, 0.0, 0.0, 0.0, 0.0)",-0.018440195103820924,True,"(-0.02575898716662106, 0.18236910123756617, 0.05600074986242378)","(0.9997352047229435, 0.022999114832354645, 0.000749102464558545)",-0.0009696102650030221,6.818348609806528,True,"(0.036128936016906366, 0.18192074092182267, 0.056000268187707994)","(-0.9999994776386802, -0.0009865114119634237, 0.00026742774877827803)",1.0216704524207133e-05,0.0
43,Move,"(0.0128, 0.0, 0.0023)","(0.0, 0.029272662214448894, 0.0)","(0.005694186534687663, 0.16400531449026037, 0.048211502537092416)","(-0.005061676103354499, -0.0010985065165090922, -0.017147084725368106)","[-0.0018372546255739355, 0.004571755231282615, 0.0002740120593166945]","[-0.026750000193715096, 0.05299999937415123, 0.03999999910593033]","[0.0, -0.0, 0.48177706096896666]","[-0.06011153757572174, 0.11680445075035095, 0.03999999910593033]","[0.0, 0.0, -0.3323182107809291]","[0.026750000193715096, 0.05299999937415123, 0.03999999910593033]","[0.0, 0.0, -0.5742334047542306]","[0.06585977226495743, 0.11345184594392776, 0.03999999910593033]","[0.0, -0.0, 0.24046259331502937]",0.47844917879711435,-0.798691616221373,"(0.0, 0.0, 0.0, 0.0, 0.0, 0.0)",-1.5826452134596989,-0.8140459371584051,0.011845915593692616,"(0.0, 0.0, 0.0, 0.0, 0.0, 0.0)",-0.7485447564988177,-0.5781853959119698,-0.9485008378550681,"(0.0, 0.0, 0.0, 0.0, 0.0, 0.0)",-0.2882972168920552,0.8146959648379987,1.3177192795588155e-05,"(0.0, 0.0, 0.0, 0.0, 0.0, 0.0)",-0.02060771088831523,True,"(-0.025074713785584, 0.18235307222169736, 0.023999731812292004)","(0.9999994776386802, 0.000986511411962977, -0.00026742774878146867)",-0.0008159670060798956,8.261010774557452,True,"(0.03697938209662384, 0.1818560897734844, 0.056000268187707994)","(-0.9999994776386802, -0.0009865114119634237, 0.00026742774877827803)",4.627978610261243e-05,0.0
44,Move,"(0.0143, 0.0, 0.0024)","(0.0, 0.04689525167183564, 0.0)","(0.006565577977771447, 0.16391532911232462, 0.048026742641202304)","(0.0037928682513227317, 0.0010403992782979658, -0.023981718965256405)","[-0.0009658631824901514, 0.004481769853346862, 8.925216342658276e-05]","[-0.026750000193715096, 0.05299999937415123, 0.03999999910593033]","[0.0, -0.0, 0.47545255027504696]","[-0.059707339853048325, 0.11701416969299316, 0.03999999910593033]","[0.0, 0.0, -0.33858158170817326]","[0.026750000193715096, 0.05299999937415123, 0.03999999910593033]","[0.0, 0.0, -0.5817422892348034]","[0.06631259620189667, 0.11315647512674332, 0.03999999910593033]","[0.0, -0.0, 0.2329537367161259]",0.4719684288349033,-0.8361829970274736,"(0.0, 0.0, 0.0, 0.0, 0.0, 0.0)",-0.9616643245848571,-0.8140018960588532,0.0077300773548992195,"(0.0, 0.0, 0.0, 0.0, 0.0, 0.0)",-0.46745481489749197,-0.5857957144525966,-0.9728256956808625,"(0.0, 0.0, 0.0, 0.0, 0.0, 0.0)",-0.17325860461845227,0.8146960093110244,-1.1859473509900909e-06,"(0.0, 0.0, 0.0, 0.0, 0.0, 0.0)",-0.012399685073081456,True,"(-0.024260819451957495, 0.1823315108819135, 0.023998876216162434)","(0.999776887291557, -0.021092995400701902, -0.0011230238783510778)",-0.0007070197568959378,6.066748313004552,True,"(0.03794679031667073, 0.1817836149245196, 0.056001123783837564)","(-0.9997768872915572, 0.021092995400697055, 0.0011230238783489933)",2.367504264399155e-06,0.0
45,Move,"(0.0162, 0.0, 0.0033)","(0.0, 0.06007597818289681, 0.0)","(0.007333900765943347, 0.16387168957390014, 0.04817455390933632)","(0.00430134630312786, -0.000489687750842405, -0.03664358652816325)","[-0.00019754039431825118, 0.004438130314922378, 0.0002370634315606024]","[-0.026750000193715096, 0.05299999937415123, 0.03999999910593033]","[0.0, -0.0, 0.46883198570567625]","[-0.0592828132212162, 0.11723095923662186, 0.03999999910593033]","[0.0, 0.0, -0.345158491027154]","[0.026750000193715096, 0.05299999937415123, 0.03999999910593033]","[0.0, 0.0, -0.5894438170661085]","[0.06677471101284027, 0.11285000294446945, 0.03999999910593033]","[0.0, -0.0, 0.22525218917988704]",0.46507757153413215,-0.9010571795291942,"(0.0, 0.0, 0.0, 0.0, 0.0, 0.0)",-1.2623699441736669,-0.813949230078852,0.00990163497417483,"(0.0, 0.0, 0.0, 0.0, 0.0, 0.0)",-0.5989228510837996,-0.5936757942709505,-1.0156760302921608,"(0.0, 0.0, 0.0, 0.0, 0.0, 0.0)",-0.20369044278479206,0.8146960053084521,1.0673526062987548e-07,"(0.0, 0.0, 0.0, 0.0, 0.0, 0.0)",-0.014574784681201249,True,"(-0.023407457937687073, 0.18231432625830685, 0.023998958840950185)","(0.9997119112997449, -0.02397940731425908, -0.0010403990906000715)",-0.0005584566023791713,6.160502530299209,True,"(0.038938247852853894, 0.18169239841861962, 0.05600104115904983)","(-0.9997119112997449, 0.023979407314261313, 0.0010403990906069343)",3.51255992964206e-05,0.0
46,Move,"(0.0181, 0.0, 0.0054)","(0.0, 0.06476916854150959, 0.0)","(0.008142954278131595, 0.1638594158831177, 0.048148779202742964)","(-0.0013211154270970464, -0.0004300170375777254, -0.05058041917059683)","[0.0006115131178699969, 0.00442585662413994, 0.00021128872496724294]","[-0.026750000193715096, 0.05299999937415123, 0.03999999910593033]","[0.0, -0.0, 0.4616960364981054]","[-0.058823637664318085, 0.11746147274971008, 0.03999999910593033]","[0.0, 0.0, -0.3522586885836832]","[0.026750000193715096, 0.05299999937415123, 0.03999999910593033]","[0.0, 0.0, -0.5974845701213658]","[0.06725465506315231, 0.11252623796463013, 0.03999999910593033]","[0.0, -0.0, 0.21721164884208177]",0.4576274775664016,-0.9764555446316036,"(0.0, 0.0, 0.0, 0.0, 0.0, 0.0)",-0.8862150312888187,-0.813919890655678,0.008365745561183083,"(0.0, 0.0, 0.0, 0.0, 0.0, 0.0)",-0.37165230805841076,-0.6019085747025855,-1.06175887632945,"(0.0, 0.0, 0.0, 0.0, 0.0, 0.0)",-0.21462327907689926,0.8146962096153105,-5.448182891498732e-06,"(0.0, 0.0, 0.0, 0.0, 0.0, 0.0)",-0.015363344930901947,True,"(-0.022487089187247282, 0.1822884805434446, 0.023998958840950185)","(0.9997119112997449, -0.02397940731425908, -0.0010403990906000715)",-0.0004536548239778421,3.181127221228438,True,"(0.039972612779312376, 0.18159023017487583, 0.05600104115904983)","(-0.9997119112997449, 0.023979407314261313, 0.0010403990906069343)",4.6050982496361145e-05,0.0
47,Move,"(0.02, 0.0, 0.0074)","(0.0, 0.0695007561436662, 0.0)","(0.009107070725425303, 0.16386970765791953, 0.04827763266043076)","(-0.0030719123053446493, 0.0015670316453418414, -0.060688778841611134)","[0.0015756295651637052, 0.004436148398941769, 0.00034014218265503854]","[-0.026750000193715096, 0.05299999937415123, 0.03999999910593033]","[0.0, -0.0, 0.45396718763062355]","[-0.05832446739077568, 0.11770743876695633, 0.03999999910593033]","[0.0, 0.0, -0.35990953194246034]","[0.026750000193715096, 0.05299999937415123, 0.03999999910593033]","[0.0, 0.0, -0.6058902328142589]","[0.06775356829166412, 0.11218367516994476, 0.03999999910593033]","[0.0, -0.0, 0.20880603748939786]",0.44958862761901847,-1.0508376017170418,"(0.0, 0.0, 0.0, 0.0, 0.0, 0.0)",-1.472301461582384,-0.8137531971181747,0.029628306730209227,"(0.0, 0.0, 0.0, 0.0, 0.0, 0.0)",-0.6995259879271087,-0.6104915148418996,-1.1043226447388534,"(0.0, 0.0, 0.0, 0.0, 0.0, 0.0)",-0.17017792177943714,0.8146278394439418,-0.01640393776391552,"(0.0, 0.0, 0.0, 0.0, 0.0, 0.0)",0.006303433039950093,True,"(-0.021493711372657556, 0.18224020474765512, 0.023998295694207295)","(0.9984186926348622, -0.05618907481785, -0.001703545833492198)",-0.0004048599067900035,9.490549935257112,True,"(0.04105362239979397, 0.18148667345425934, 0.05600170430579271)","(-0.9984186926348619, 0.056189074817851854, 0.0017035458334880701)",-3.2892119186732216e-05,0.3671819384863774
48,Move,"(0.0228, 0.0, 0.0083)","(0.0, 0.056189129938705444, 0.0)","(0.010146022639733574, 0.16378789017547069, 0.04838634922074346)","(-0.0028570978754945747, 0.0010858127252258288, -0.0684811418861666)","[0.0026145814794719764, 0.004354330916492927, 0.0004488587429677393]","[-0.026750000193715096, 0.05299999937415123, 0.03999999910593033]","[0.0, -0.0, 0.4456498644186368]","[-0.057785194367170334, 0.11796781420707703, 0.03999999910593033]","[0.0, 0.0, -0.3679520269116934]","[0.026750000193715096, 0.05299999937415123, 0.03999999910593033]","[0.0, 0.0, -0.6146360838671817]","[0.06826961040496826, 0.11182279884815216, 0.03999999910593033]","[0.0, -0.0, 0.19988015878996188]",0.4407737158121801,-1.170273186923183,"(0.0, 0.0, 0.0, 0.0, 0.0, 0.0)",-1.871178950160042,-0.8134007239521317,0.04827256075423172,"(0.0, 0.0, 0.0, 0.0, 0.0, 0.0)",-0.893938004493208,-0.6196158292640234,-1.1951404328932298,"(0.0, 0.0, 0.0, 0.0, 0.0, 0.0)",-0.16726570377528396,0.8143979269618238,-0.028392163869478553,"(0.0, 0.0, 0.0, 0.0, 0.0, 0.0)",0.03876734356003347,True,"(-0.02043661338749054, 0.18220254400635438, 0.023998325340265414)","(0.9979513516571622, -0.06395543593147533, -0.001673899775370276)",-0.00034635505731200504,10.637694665803648,True,"(0.04218923340434678, 0.18136021444072614, 0.05600167465973458)","(-0.9979513516571623, 0.063955435931475, 0.0016738997753685224)",-2.9795524457402513e-05,0.9530378780230473
49,Move,"(0.0254, 0.0, 0.0083)","(0.0, 0.04296127953784044, 0.0)","(0.01131945783918174, 0.16363735478909833, 0.04828488747468582)","(0.003082872410303925, 5.3871743238073876e-05, -0.07351045346779161)","[0.0037880166789201414, 0.004203795530120569, 0.00034739699691009596]","[-0.026750000193715096, 0.05299999937415123, 0.03999999910593033]","[0.0, -0.0, 0.43638331692553745]","[-0.057181838899850845, 0.11825261265039444, 0.03999999910593033]","[0.0, 0.0, -0.3768520001298564]","[0.026750000193715096, 0.05299999937415123, 0.03999999910593033]","[0.0, 0.0, -0.6240967668179069]","[0.06882425397634506, 0.11142736673355103, 0.03999999910593033]","[0.0, -0.0, 0.19020724416491586]",0.43109277459514495,-1.269715869732069,"(0.0, 0.0, 0.0, 0.0, 0.0, 0.0)",-1.7579733820666026,-0.812937387093078,0.07149115210784664,"(0.0, 0.0, 0.0, 0.0, 0.0, 0.0)",-0.7926079339420439,-0.629351076983784,-1.2610177347446352,"(0.0, 0.0, 0.0, 0.0, 0.0, 0.0)",0.13932025366532372,0.8140714600717663,-0.05582721883261251,"(0.0, 0.0, 0.0, 0.0, 0.0, 0.0)",0.18333281958147982,True,"(-0.019262903897993906, 0.1821545001325606, 0.023999446056192638)","(0.9974950996700113, -0.0707334441544067, -0.0005531838481468971)",-0.0002740177273944904,5.467523179404091,True,"(0.04341750524040948, 0.1812109250216664, 0.05600055394380737)","(-0.9974950996700117, 0.07073344415440057, 0.0005531838481498312)",-2.7541682019643038e-05,1.4304487765250697
50,Move,"(0.027100000000000003, 0.0, 0.008)","(0.0, 0.04296127953784044, 0.0)","(0.012456302398243848, 0.16352068123649396, 0.04831763750079193)","(0.0007236122772827564, -0.000597602415211362, -0.08264613182474508)","[0.00492486123798225, 0.004087121977516206, 0.0003801470230162113]","[-0.026750000193715096, 0.05299999937415123, 0.03999999910593033]","[0.0, -0.0, 0.4263374240833219]","[-0.056524794548749924, 0.11855502426624298, 0.03999999910593033]","[0.0, 0.0, -0.38612513116976926]","[0.026750000193715096, 0.05299999937415123, 0.03999999910593033]","[0.0, 0.0, -0.6340823311626602]","[0.06940556317567825, 0.11100433021783829, 0.03999999910593033]","[0.0, -0.0, 0.17973628925825502]",0.4208935230538905,-1.306519517032656,"(0.0, 0.0, 0.0, 0.0, 0.0, 0.0)",-1.7497636802388157,-0.8119997351322856,0.11106180407434774,"(0.0, 0.0, 0.0, 0.0, 0.0, 0.0)",-0.8501110298544797,-0.639376959024152,-1.2707258150055174,"(0.0, 0.0, 0.0, 0.0, 0.0, 0.0)",0.5092748372651902,0.8134535810027008,-0.08759191251105519,"(0.0, 0.0, 0.0, 0.0, 0.0, 0.0)",0.3182652017413041,True,"(-0.01801474681471424, 0.18210481569517, 0.023999945368297575)","(0.9972993216538206, -0.07344426544438021, -5.387174321059888e-05)",-0.00020861185699497332,10.933208429914389,True,"(0.04473067950060742, 0.18104733204673956, 0.056000054631702434)","(-0.9972993216538204, 0.07344426544438223, 5.3871743214727655e-05)",-5.088342567209291e-06,3.9658125499571644
51,Move,"(0.028399999999999998, 0.0, 0.0086)","(0.0, 0.04296127953784044, 0.0)","(0.013664890482709439, 0.16341285917705628, 0.048307484130653715)","(-0.0020659706632880004, 0.0006244424271295048, -0.08940328630850448)","[0.006133449322447841, 0.003979299918078522, 0.00036999365287799374]","[-0.026750000193715096, 0.05299999937415123, 0.03999999910593033]","[0.0, -0.0, 0.41599443569051375]","[-0.05584517866373062, 0.11885947734117508, 0.03999999910593033]","[0.0, 0.0, -0.39562316766615285]","[0.026750000193715096, 0.05299999937415123, 0.03999999910593033]","[0.0, 0.0, -0.644143112445456]","[0.0699869692325592, 0.11057225614786148, 0.03999999910593033]","[0.0, -0.0, 0.16895420549009482]",0.41044837767199976,-1.331041612623029,"(0.0, 0.0, 0.0, 0.0, 0.0, 0.0)",-3.3707733970995744,-0.8108476054543693,0.18478820532070694,"(0.0, 0.0, 0.0, 0.0, 0.0, 0.0)",-1.6603706509466711,-0.64941522020748,-1.2653253329385183,"(0.0, 0.0, 0.0, 0.0, 0.0, 0.0)",1.001160312270232,0.8126993585309882,-0.09548940021565237,"(0.0, 0.0, 0.0, 0.0, 0.0, 0.0)",0.5452600438454871,True,"(-0.016733280708752733, 0.1820406328946464, 0.023999945368297575)","(0.9972993216538206, -0.07344426544438021, -5.387174321059888e-05)",-0.0001799966919600917,24.36896086757528,True,"(0.04606870755972282, 0.18087722630316133, 0.056000054631702434)","(-0.9972993216538204, 0.07344426544438223, 5.3871743214727655e-05)",-3.5050617742044705e-06,8.994660559668409
52,Move,"(0.0287, 0.0, 0.009300000000000001)","(0.0, 0.05152386484812462, 0.0)","(0.014938988068545617, 0.16326593803406395, 0.048340554839692344)","(0.0005115188155315676, 0.0005309745570860111, -0.09058276612451326)","[0.007407546908284019, 0.003832378775086187, 0.00040306436191662326]","[-0.026750000193715096, 0.05299999937415123, 0.03999999910593033]","[0.0, -0.0, 0.4054391022465243]","[-0.0551484040915966, 0.1191629096865654, 0.03999999910593033]","[0.0, 0.0, -0.4049940510968348]","[0.026750000193715096, 0.05299999937415123, 0.03999999910593033]","[0.0, 0.0, -0.6541478534740132]","[0.07056079059839249, 0.11013680696487427, 0.03999999910593033]","[0.0, -0.0, 0.1582120024581379]",0.4000311002124448,-1.2979114995586891,"(0.0, 0.0, 0.0, 0.0, 0.0, 0.0)",-1.9253563662783364,-0.8099269210665333,0.12148638461707453,"(0.0, 0.0, 0.0, 0.0, 0.0, 0.0)",-0.9431716704123997,-0.6591572297699542,-1.202266862361176,"(0.0, 0.0, 0.0, 0.0, 0.0, 0.0)",0.5278899120240941,0.811978364814538,-0.09153896920994739,"(0.0, 0.0, 0.0, 0.0, 0.0, 0.0)",0.3182497284532546,True,"(-0.015445613365584324, 0.18198069027067906, 0.02399940740971326)","(0.9958867369597061, -0.09060494955913174, -0.0005918303275178648)",-0.00017143340598851524,13.033811918830994,True,"(0.04739824185366949, 0.18068540336352903, 0.05600059259028674)","(-0.9958867369597062, 0.0906049495591297, 0.0005918303275171768)",-1.8784740448712572e-05,4.840095618613528
53,Move,"(0.030100000000000002, 0.0, 0.010199999999999999)","(0.0, 0.05152386484812462, 0.0)","(0.016151524466871132, 0.1631265909244303, 0.0484145575089117)","(-0.00025822389346781186, -0.0008982824050035336, -0.09357053390994931)","[0.008620083306609534, 0.0036930316654525397, 0.00047706703113598037]","[-0.026750000193715096, 0.05299999937415123, 0.03999999910593033]","[0.0, -0.0, 0.39517246988528126]","[-0.05446764826774597, 0.11945097148418427, 0.03999999910593033]","[0.0, 0.0, -0.41420931892178675]","[0.026750000193715096, 0.05299999937415123, 0.03999999910593033]","[0.0, 0.0, -0.663676435209628]","[0.07110323011875153, 0.1097167581319809, 0.03999999910593033]","[0.0, -0.0, 0.14779928357483502]",0.3896769700083499,-1.318909926252474,"(0.0, 0.0, 0.0, 0.0, 0.0, 0.0)",-2.6936823634537177,-0.808569420518508,0.19495226883464428,"(0.0, 0.0, 0.0, 0.0, 0.0, 0.0)",-1.3126350804260636,-0.6687005761076922,-1.2057777137131716,"(0.0, 0.0, 0.0, 0.0, 0.0, 0.0)",0.8236380618471537,0.8108790312800072,-0.14321785240478768,"(0.0, 0.0, 0.0, 0.0, 0.0, 0.0)",0.4918767952822597,True,"(-0.014187179823665436, 0.18190524584135256, 0.023999468265508642)","(0.9959000453312034, -0.09045892866574065, -0.0005309745321388907)",-0.00013464856838502816,15.806308352916291,True,"(0.048675986688166854, 0.1804972006923292, 0.05600053173449136)","(-0.9959000453312034, 0.09045892866574079, 0.0005309745321388187)",-1.6984016430930962e-06,3.589836638435816
54,Move,"(0.0319, 0.0, 0.0108)","(0.0, 0.04296127953784044, 0.0)","(0.017424523802306826, 0.16299930659723488, 0.04847979968641722)","(-0.0006735123944363055, 0.0003238196191449526, -0.0959649186691623)","[0.009893082642045227, 0.0035657473382571248, 0.0005423092086414977]","[-0.026750000193715096, 0.05299999937415123, 0.03999999910593033]","[0.0, -0.0, 0.38471936815588115]","[-0.053771525621414185, 0.11973707377910614, 0.03999999910593033]","[0.0, 0.0, -0.4232922178190374]","[0.026750000193715096, 0.05299999937415123, 0.03999999910593033]","[0.0, 0.0, -0.6732134879616476]","[0.07164211571216583, 0.1092911884188652, 0.03999999910593033]","[0.0, -0.0, 0.13722391777324794]",0.3790111406730536,-1.3699640048641721,"(0.0, 0.0, 0.0, 0.0, 0.0, 0.0)",-3.112948231137402,-0.8071958642241531,0.19576127346419786,"(0.0, 0.0, 0.0, 0.0, 0.0, 0.0)",-1.4836858392745815,-0.6783052573567018,-1.2220164590716787,"(0.0, 0.0, 0.0, 0.0, 0.0, 0.0)",1.091984780941941,0.809852847299147,-0.1403040455861472,"(0.0, 0.0, 0.0, 0.0, 0.0, 0.0)",0.6324090685154418,True,"(-0.012925461507334514, 0.18182291020914781, 0.023999468265508642)","(0.9959000453312034, -0.09045892866574065, -0.0005309745321388907)",-0.00011375489231091366,22.04844748817737,True,"(0.049964637998656324, 0.18030484363892396, 0.05600053173449136)","(-0.9959000453312034, 0.09045892866574079, 0.0005309745321388187)",4.229669829087435e-06,9.957329935919677
55,Move,"(0.0339, 0.0, 0.0108)","(0.0, 0.02580120233223217, 0.0)","(0.018745769148285928, 0.1628124042747241, 0.04847632174222955)","(0.0024989791439055773, -0.00022623459325129847, -0.09656455217161022)","[0.011214327988024329, 0.00337884501574634, 0.0005388312644538304]","[-0.026750000193715096, 0.05299999937415123, 0.03999999910593033]","[0.0, -0.0, 0.3738614156594953]","[-0.053045324981212616, 0.12002652883529663, 0.03999999910593033]","[0.0, 0.0, -0.4328305095263061]","[0.026750000193715096, 0.05299999937415123, 0.03999999910593033]","[0.0, 0.0, -0.6828859531901782]","[0.0721844807267189, 0.10885434597730637, 0.03999999910593033]","[0.0, -0.0, 0.12640236284478618]",0.3679136633940834,-1.427464329810418,"(0.0, 0.0, 0.0, 0.0, 0.0, 0.0)",-3.284270786706781,-0.8057238908945222,0.23232412497422983,"(0.0, 0.0, 0.0, 0.0, 0.0, 0.0)",-1.5588248913722815,-0.6880988007771619,-1.2510765697824437,"(0.0, 0.0, 0.0, 0.0, 0.0, 0.0)",1.0559578269441365,0.8085595304258573,-0.17491661725600663,"(0.0, 0.0, 0.0, 0.0, 0.0, 0.0)",0.644658842947291,True,"(-0.011607003788294573, 0.18173840583721956, 0.02399968319072953)","(0.9954947248831381, -0.09481641652518781, -0.00031604931125383233)",-0.00011680401294760782,19.10931992190729,True,"(0.051274404679171354, 0.18007650317982418, 0.05600031680927047)","(-0.9954947248831377, 0.09481641652519279, 0.00031604931125547587)",-1.1623879783588961e-05,7.993692593079712
56,Move,"(0.0365, 0.0, 0.0108)","(0.0, 0.008604473212332044, 0.0)","(0.02008544659838848, 0.1626656232970529, 0.04853153896955128)","(0.0005183388362575372, -0.0009713877822492997, -0.09942206340480572)","[0.012554005438126882, 0.003232064038075133, 0.0005940484917755576]","[-0.026750000193715096, 0.05299999937415123, 0.03999999910593033]","[0.0, -0.0, 0.3625586096033871]","[-0.05228607356548309, 0.12031945586204529, 0.03999999910593033]","[0.0, 0.0, -0.4423133754954741]","[0.026750000193715096, 0.05299999937415123, 0.03999999910593033]","[0.0, 0.0, -0.6927956248732922]","[0.0727357342839241, 0.10840137302875519, 0.03999999910593033]","[0.0, -0.0, 0.11503296418294394]",0.3562267710584061,-1.5196424425607276,"(0.0, 0.0, 0.0, 0.0, 0.0, 0.0)",-3.374326127816863,-0.8038320691214109,0.24957054377692406,"(0.0, 0.0, 0.0, 0.0, 0.0, 0.0)",-1.599998818730187,-0.6982202908563881,-1.3019260588741404,"(0.0, 0.0, 0.0, 0.0, 0.0, 0.0)",1.705013633284501,0.8068501798965357,-0.23481273139202596,"(0.0, 0.0, 0.0, 0.0, 0.0, 0.0)",0.9592685305437023,True,"(-0.010264418815565848, 0.18163560696003372, 0.02399968319072953)","(0.9954947248831381, -0.09481641652518781, -0.00031604931125383233)",-9.011436467670955e-05,20.760019635642834,True,"(0.052636747211921554, 0.1798566565517616, 0.05600031680927047)","(-0.9954947248831377, 0.09481641652519279, 0.00031604931125547587)",1.3663020379660356e-05,8.393659741245797
57,Move,"(0.037899999999999996, 0.0, 0.0111)","(0.0, 0.004461061568097505, 0.0)","(0.021478336681754747, 0.16249921030095688, 0.04856583552346362)","(-0.00046815446998144247, -0.0004583795022161774, -0.10176700442883102)","[0.013946895521493148, 0.003065651041979117, 0.0006283450456879003]","[-0.026750000193715096, 0.05299999937415123, 0.03999999910593033]","[0.0, -0.0, 0.35052689385965013]","[-0.05147427320480347, 0.12062181532382965, 0.03999999910593033]","[0.0, 0.0, -0.45246816350312796]","[0.026750000193715096, 0.05299999937415123, 0.03999999910593033]","[0.0, 0.0, -0.7031022338196098]","[0.07330428808927536, 0.10792447626590729, 0.03999999910593033]","[0.0, -0.0, 0.10286553691383299]",0.3441493865958562,-1.5306008453149391,"(0.0, 0.0, 0.0, 0.0, 0.0, 0.0)",-3.8320135752001425,-0.8018536715199849,0.27393131803244375,"(0.0, 0.0, 0.0, 0.0, 0.0, 0.0)",-1.8335037976204314,-0.7084458390901044,-1.2824603225642506,"(0.0, 0.0, 0.0, 0.0, 0.0, 0.0)",1.722226277086502,0.8050609078482017,-0.21764699807285226,"(0.0, 0.0, 0.0, 0.0, 0.0, 0.0)",0.983831568899653,True,"(-0.00883214314332266, 0.18150809306166743, 0.02399968319072953)","(0.9954947248831381, -0.09481641652518781, -0.00031604931125383233)",-8.280419185019798e-05,27.762924635804936,True,"(0.05407619253885175, 0.17961902140261976, 0.05600031680927047)","(-0.9954947248831377, 0.09481641652519279, 0.00031604931125547587)",2.3652519656423422e-05,12.436155616915448
58,Move,"(0.0394, 0.0, 0.0114)","(0.0, 0.004461061568097505, 0.0)","(0.022901579902302568, 0.1622812985616519, 0.04854939357408228)","(0.0019561860575513716, -6.311856119079529e-05, -0.10212617897598102)","[0.015370138742040969, 0.0028477393026741515, 0.0006119030963065569]","[-0.026750000193715096, 0.05299999937415123, 0.03999999910593033]","[0.0, -0.0, 0.3384097356119316]","[-0.05065309628844261, 0.12091643363237381, 0.03999999910593033]","[0.0, 0.0, -0.4624397648494021]","[0.026750000193715096, 0.05299999937415123, 0.03999999910593033]","[0.0, 0.0, -0.7132543110831251]","[0.07385946810245514, 0.10744903981685638, 0.03999999910593033]","[0.0, -0.0, 0.09100367973325169]",0.33193857023099554,-1.5530823454740723,"(0.0, 0.0, 0.0, 0.0, 0.0, 0.0)",-3.7640710187621247,-0.7997426345700696,0.2656396280938274,"(0.0, 0.0, 0.0, 0.0, 0.0, 0.0)",-1.7859309937832764,-0.7185682436554898,-1.2753771594164658,"(0.0, 0.0, 0.0, 0.0, 0.0, 0.0)",1.9654273231104606,0.8031510900556742,-0.2656240688123829,"(0.0, 0.0, 0.0, 0.0, 0.0, 0.0)",1.1461173561643334,True,"(-0.007403471089372594, 0.18139633545369765, 0.023999872030844544)","(0.9947441605979721, -0.10239159523152573, -0.0001272091962358629)",-0.00010527530764705372,26.00905665269937,True,"(0.05538790549574589, 0.17844761246182256, 0.05600012796662126)","(-0.9947436679333863, 0.10239638140529077, 0.00012720666203911205)",-9.51596587813087e-06,16.863928782927818
59,Move,"(0.043000000000000003, 0.0, 0.0117)","(0.0, 0.0044209189953016365, 0.0)","(0.024327262126514988, 0.16210743146343434, 0.04859563407852283)","(-0.00032528559188603067, -0.0011757311836963417, -0.10518499847695136)","[0.01679582096625339, 0.0026738722044565844, 0.0006581436007471117]","[-0.026750000193715096, 0.05299999937415123, 0.03999999910593033]","[0.0, -0.0, 0.3261260985985633]","[-0.049817051738500595, 0.1212049201130867, 0.03999999910593033]","[0.0, 0.0, -0.47240154604113543]","[0.026750000193715096, 0.05299999937415123, 0.03999999910593033]","[0.0, 0.0, -0.7233645049710435]","[0.07440754771232605, 0.10696997493505478, 0.03999999910593033]","[0.0, -0.0, 0.07860403468944745]",0.3190741547525458,-1.6924615634561564,"(0.0, 0.0, 0.0, 0.0, 0.0, 0.0)",-4.903447979491636,-0.7969841575269137,0.37042473445565965,"(0.0, 0.0, 0.0, 0.0, 0.0, 0.0)",-2.296447853548031,-0.7290360352903132,-1.3611547857633584,"(0.0, 0.0, 0.0, 0.0, 0.0, 0.0)",2.877192237213675,0.8004221250527955,-0.3711512824504657,"(0.0, 0.0, 0.0, 0.0, 0.0, 0.0)",1.6259687735851487,True,"(-0.005967093242360444, 0.18125098420714775, 0.023999872030844544)","(0.9947441605979721, -0.10239159523152573, -0.0001272091962358629)",-9.459064278610726e-05,29.143776058317954,True,"(0.05681774423069791, 0.1781921199627912, 0.05600012796662126)","(-0.9947436679333863, 0.10239638140529077, 0.00012720666203911205)",8.192314580146006e-06,16.754526893466856
60,Move,"(0.0445, 0.0, 0.0115)","(0.0, 0.01301142957361773, 0.0)","(0.025811468151060123, 0.16189092923370058, 0.048627337044513795)","(-0.0005053874013633118, -8.372555116230693e-05, -0.10729081643584422)","[0.018280026990798524, 0.0024573699747228173, 0.000689846566738074]","[-0.026750000193715096, 0.05299999937415123, 0.03999999910593033]","[0.0, -0.0, 0.31273125987026484]","[-0.04890141636133194, 0.12150777131319046, 0.03999999910593033]","[0.0, 0.0, -0.48286787946373244]","[0.026750000193715096, 0.05299999937415123, 0.03999999910593033]","[0.0, 0.0, -0.7341216872668467]","[0.07498534768819809, 0.10645420104265213, 0.03999999910593033]","[0.0, -0.0, 0.0651879988111508]",0.30567571813535627,-1.6933262653128347,"(0.0, 0.0, 0.0, 0.0, 0.0, 0.0)",-5.225317049001209,-0.7939091665047504,0.40559514534294894,"(0.0, 0.0, 0.0, 0.0, 0.0, 0.0)",-2.4888958124614553,-0.7396584996487164,-1.328824334408077,"(0.0, 0.0, 0.0, 0.0, 0.0, 0.0)",2.7969844156615005,0.7979491419574317,-0.3265419086199808,"(0.0, 0.0, 0.0, 0.0, 0.0, 0.0)",1.5668542825528373,True,"(-0.004425405608871176, 0.1810916045978443, 0.023999872030844544)","(0.9947441605979721, -0.10239159523152573, -0.0001272091962358629)",-0.00010486516000503234,38.37400209959222,True,"(0.05835261286587012, 0.17790591542855222, 0.05600012796662126)","(-0.9947436679333863, 0.10239638140529077, 0.00012720666203911205)",1.260778551106755e-05,21.02363603057284
61,Move,"(0.0469, 0.0, 0.0107)","(0.0, 0.03446676206838401, 0.0)","(0.027341382713364462, 0.16163800702588932, 0.048605421816599464)","(0.0018748672614127386, 0.00023879990395367235, -0.10785337982903158)","[0.019809941553102863, 0.0022044477669115603, 0.0006679313388237434]","[-0.026750000193715096, 0.05299999937415123, 0.03999999910593033]","[0.0, -0.0, 0.29931020114897866]","[-0.04798000305891037, 0.12179888784885406, 0.03999999910593033]","[0.0, 0.0, -0.4933837191859626]","[0.026750000193715096, 0.05299999937415123, 0.03999999910593033]","[0.0, 0.0, -0.7446568045650941]","[0.07554581016302109, 0.10594307631254196, 0.03999999910593033]","[0.0, -0.0, 0.051855446606209124]",0.29199808889823886,-1.7549093594709737,"(0.0, 0.0, 0.0, 0.0, 0.0, 0.0)",-5.958352766191617,-0.7907616418234492,0.46375127612465766,"(0.0, 0.0, 0.0, 0.0, 0.0, 0.0)",-2.789482176025104,-0.7502549936001135,-1.343551558956801,"(0.0, 0.0, 0.0, 0.0, 0.0, 0.0)",3.2616745575409403,0.7949952672259992,-0.3640904168128093,"(0.0, 0.0, 0.0, 0.0, 0.0, 0.0)",1.8260401261904105,True,"(-0.0028798906427457, 0.1809117329156853, 0.023999872030844544)","(0.9947441605979721, -0.10239159523152573, -0.0001272091962358629)",-0.00012807953772914744,43.48222290560167,True,"(0.05986715649548663, 0.17761019258110994, 0.05600012796662126)","(-0.9947436679333863, 0.10239638140529077, 0.00012720666203911205)",4.251763845297943e-06,25.82155069616848
62,Move,"(0.048600000000000004, 0.0, 0.009800000000000001)","(0.0, 0.05170537909033201, 0.0)","(0.0288512303104264, 0.16142179577629404, 0.04862353761252434)","(-0.0014119422332687227, -0.0011831426856709177, -0.1110485185381921)","[0.0213197891501648, 0.0019882365173162775, 0.0006860471347486172]","[-0.026750000193715096, 0.05299999937415123, 0.03999999910593033]","[0.0, -0.0, 0.28540582173549445]","[-0.047021374106407166, 0.12208741903305054, 0.03999999910593033]","[0.0, 0.0, -0.50379397573703]","[0.026750000193715096, 0.05299999937415123, 0.03999999910593033]","[0.0, 0.0, -0.7553185461979655]","[0.07610748708248138, 0.1054198294878006, 0.03999999910593033]","[0.0, -0.0, 0.0379388857291651]",0.2780381398964275,-1.7682372260556651,"(0.0, 0.0, 0.0, 0.0, 0.0, 0.0)",-5.71679171932144,-0.7872274153562288,0.47336697832393415,"(0.0, 0.0, 0.0, 0.0, 0.0, 0.0)",-2.6950069968754757,-0.7608547781197168,-1.3286988293424882,"(0.0, 0.0, 0.0, 0.0, 0.0, 0.0)",4.364234479566557,0.7911780127210204,-0.4990583333158964,"(0.0, 0.0, 0.0, 0.0, 0.0, 0.0)",2.43477138197714,True,"(-0.001304361226181161, 0.18075835049414785, 0.023999760440139094)","(0.9941894316804901, -0.10764440026973483, -0.00023879990168933048)",-0.00013861191244997053,34.2755271416324,True,"(0.06139119505514549, 0.1770606002882827, 0.05600023955986091)","(-0.9941894316804897, 0.10764440026973889, 0.000238799901683979)",3.487017064004792e-06,26.315725523242552
63,Move,"(0.050100000000000006, 0.0, 0.009800000000000001)","(0.0, 0.05170537909033201, 0.0)","(0.03039468033344959, 0.1611360877817904, 0.04861288779582033)","(0.001204697137878349, -0.0012126339900442157, -0.11151921540023368)","[0.022863239173187992, 0.0017025285228126352, 0.0006753973180446057]","[-0.026750000193715096, 0.05299999937415123, 0.03999999910593033]","[0.0, -0.0, 0.2714128501453239]","[-0.046052683144807816, 0.12236430495977402, 0.03999999910593033]","[0.0, 0.0, -0.5139908981919514]","[0.026750000193715096, 0.05299999937415123, 0.03999999910593033]","[0.0, 0.0, -0.7658096405440428]","[0.07665470242500305, 0.10489913821220398, 0.03999999910593033]","[0.0, -0.0, 0.023895892976375958]",0.2639722005005477,-1.7857512299426765,"(0.0, 0.0, 0.0, 0.0, 0.0, 0.0)",-6.125035254346091,-0.7835118272604421,0.45405516980757354,"(0.0, 0.0, 0.0, 0.0, 0.0, 0.0)",-2.86378124747135,-0.7712552807612161,-1.306950202061592,"(0.0, 0.0, 0.0, 0.0, 0.0, 0.0)",3.867266706795809,0.7875182370737104,-0.5249544398960536,"(0.0, 0.0, 0.0, 0.0, 0.0, 0.0)",2.2345132083999837,True,"(0.0002602047106277719, 0.1805660198044614, 0.023999760440139094)","(0.9941894316804901, -0.10764440026973483, -0.00023879990168933048)",-0.00014942031510222439,42.3287119956036,True,"(0.06294588069086464, 0.17673949981332218, 0.05600023955986091)","(-0.9941894316804897, 0.10764440026973889, 0.000238799901683979)",1.5890809812943756e-05,26.513644578452677
64,Move,"(0.0514, 0.0, 0.009800000000000001)","(0.0, 0.05170537909033201, 0.0)","(0.031899821265438486, 0.16088258398057292, 0.048639104157116135)","(-0.00031418132545248887, -0.001177862697472042, -0.11397311386887646)","[0.024368380105176887, 0.0014490247215951657, 0.000701613679340414]","[-0.026750000193715096, 0.05299999937415123, 0.03999999910593033]","[0.0, -0.0, 0.25728658512139585]","[-0.04507093131542206, 0.1226300448179245, 0.03999999910593033]","[0.0, 0.0, -0.5242937634293908]","[0.026750000193715096, 0.05299999937415123, 0.03999999910593033]","[0.0, 0.0, -0.7761390334553426]","[0.07718811184167862, 0.10438089817762375, 0.03999999910593033]","[0.0, -0.0, 0.009762256136124397]",0.24985799781881426,-1.782852602346549,"(0.0, 0.0, 0.0, 0.0, 0.0, 0.0)",-6.192470849595072,-0.7795107941748669,0.4966752727688474,"(0.0, 0.0, 0.0, 0.0, 0.0, 0.0)",-2.907877173569124,-0.7814680777247641,-1.2789696586459802,"(0.0, 0.0, 0.0, 0.0, 0.0, 0.0)",4.677893443751806,0.7836043889364698,-0.5512571869192628,"(0.0, 0.0, 0.0, 0.0, 0.0, 0.0)",2.608883823247068,True,"(0.0018391314630819, 0.1803515306820238, 0.023999760440139094)","(0.9941894316804901, -0.10764440026973483, -0.00023879990168933048)",-0.0001677854583344299,40.797451570793974,True,"(0.06449599582642546, 0.17640782927681586, 0.05600023955986091)","(-0.9941894316804897, 0.10764440026973889, 0.000238799901683979)",1.9297072892815094e-05,30.284456237617267
65,Move,"(0.0522, 0.0, 0.0103)","(0.0, 0.047453757032473835, 0.0)","(0.03340917357933929, 0.1605849673123782, 0.04863404801563002)","(0.002006395084075989, -0.0013453729253537349, -0.11448606661406992)","[0.025877732419077693, 0.0011514080534004434, 0.0006965575378542962]","[-0.026750000193715096, 0.05299999937415123, 0.03999999910593033]","[0.0, -0.0, 0.24318651895327972]","[-0.044087354093790054, 0.1228814423084259, 0.03999999910593033]","[0.0, 0.0, -0.5342828038413169]","[0.026750000193715096, 0.05299999937415123, 0.03999999910593033]","[0.0, 0.0, -0.7862407557762027]","[0.07770457118749619, 0.103868767619133, 0.03999999910593033]","[0.0, 0.0, -0.0043489684102778]",0.23586355663046374,-1.7575090002339997,"(0.0, 0.0, 0.0, 0.0, 0.0, 0.0)",-6.488719268145875,-0.7754188366131508,0.4921246135438088,"(0.0, 0.0, 0.0, 0.0, 0.0, 0.0)",-3.0256224523123207,-0.7913733299590728,-1.231800278089819,"(0.0, 0.0, 0.0, 0.0, 0.0, 0.0)",4.473187402382767,0.7794485472289882,-0.5863952851372827,"(0.0, 0.0, 0.0, 0.0, 0.0, 0.0)",2.5799227221419434,True,"(0.0033969434281173605, 0.1801314642036927, 0.023999760440139094)","(0.9941894316804901, -0.10764440026973483, -0.00023879990168933048)",-0.00018642699189034377,44.88719948053392,True,"(0.0660300707249737, 0.1760676253141957, 0.05600023955986091)","(-0.9941894316804897, 0.10764440026973889, 0.000238799901683979)",1.932362941310497e-05,30.15832391582409
66,Move,"(0.0535, 0.0, 0.0103)","(0.0, 0.047453757032473835, 0.0)","(0.0348664281541109, 0.16032033504684287, 0.04866229022541502)","(0.00043840818766614455, -0.0013766692852671904, -0.11691228177369317)","[0.027334986993849304, 0.0008867757878651128, 0.0007247997476392959]","[-0.026750000193715096, 0.05299999937415123, 0.03999999910593033]","[0.0, -0.0, 0.2292857257928199]","[-0.043114300817251205, 0.12311568856239319, 0.03999999910593033]","[0.0, 0.0, -0.5440214942091596]","[0.026750000193715096, 0.05299999937415123, 0.03999999910593033]","[0.0, 0.0, -0.7959735184316561]","[0.07819724082946777, 0.10337044298648834, 0.03999999910593033]","[0.0, 0.0, -0.018322377610768468]",0.22195317253444885,-1.7598065488661825,"(0.0, 0.0, 0.0, 0.0, 0.0, 0.0)",-6.722493784462225,-0.7710620654141975,0.5388381576304365,"(0.0, 0.0, 0.0, 0.0, 0.0, 0.0)",-3.1340572457552747,-0.8010069452852078,-1.2080171396158783,"(0.0, 0.0, 0.0, 0.0, 0.0, 0.0)",5.133335325733416,0.7751174579322475,-0.6080893793180115,"(0.0, 0.0, 0.0, 0.0, 0.0, 0.0)",2.886473059223306,True,"(0.004925274984208194, 0.17990056627532608, 0.023999760440139094)","(0.9941894316804901, -0.10764440026973483, -0.00023879990168933048)",-0.00020174515617045266,44.326673092235296,True,"(0.06753271169757151, 0.17572537646225755, 0.05600023955986091)","(-0.9941894316804897, 0.10764440026973889, 0.000238799901683979)",2.6520794468737803e-05,32.493326869981594
67,Move,"(0.054700000000000006, 0.0, 0.0097)","(0.0, 0.0561105901223657, 0.0)","(0.03630657344483913, 0.16004648935103458, 0.04868717317665177)","(-0.0007252903529419634, -0.0011482874296791085, -0.11914986840518525)","[0.028775132284577534, 0.0006129300920568181, 0.0007496826988760488]","[-0.026750000193715096, 0.05299999937415123, 0.03999999910593033]","[0.0, -0.0, 0.21535471459702912]","[-0.04213596507906914, 0.12333684414625168, 0.03999999910593033]","[0.0, 0.0, -0.553707372826636]","[0.026750000193715096, 0.05299999937415123, 0.03999999910593033]","[0.0, 0.0, -0.8055372613490351]","[0.07867661118507385, 0.10287611931562424, 0.03999999910593033]","[0.0, 0.0, -0.032703940740997514]",0.20805589566798827,-1.7517140299451528,"(0.0, 0.0, 0.0, 0.0, 0.0, 0.0)",-7.516923660691572,-0.7664610571520466,0.624240520699108,"(0.0, 0.0, 0.0, 0.0, 0.0, 0.0)",-3.491254848413259,-0.8104043668697739,-1.1681113686539244,"(0.0, 0.0, 0.0, 0.0, 0.0, 0.0)",4.692867427225881,0.7706080095662128,-0.534068895823202,"(0.0, 0.0, 0.0, 0.0, 0.0, 0.0)",2.6929093784307985,True,"(0.006451359347122133, 0.17965376671017902, 0.023999760440139094)","(0.9941894316804901, -0.10764440026973483, -0.00023879990168933048)",-0.00019581950296030965,56.05243544507704,True,"(0.06905372316525935, 0.17537693955792077, 0.05600023955986091)","(-0.9941894316804897, 0.10764440026973889, 0.000238799901683979)",4.379590551947914e-05,29.428534022631307
68,Move,"(0.056100000000000004, 0.0, 0.008400000000000001)","(0.0, 0.07341029366813348, 0.0)","(0.03776997939353935, 0.15973010227155665, 0.0486877133748038)","(0.0014606594548940497, -0.0015682559857843148, -0.11968842904491216)","[0.03023853823327775, 0.0002965430125788926, 0.0007502228970280786]","[-0.026750000193715096, 0.05299999937415123, 0.03999999910593033]","[0.0, -0.0, 0.20148520764312478]","[-0.04115897789597511, 0.12354347109794617, 0.03999999910593033]","[0.0, 0.0, -0.5626871951975495]","[0.026750000193715096, 0.05299999937415123, 0.03999999910593033]","[0.0, 0.0, -0.8147819157622117]","[0.0791354700922966, 0.10239394754171371, 0.03999999910593033]","[0.0, 0.0, -0.04614066430337363]",0.19414011759324962,-1.762814075819611,"(0.0, 0.0, 0.0, 0.0, 0.0, 0.0)",-7.534601950694035,-0.7617931452577507,0.5710139355297406,"(0.0, 0.0, 0.0, 0.0, 0.0, 0.0)",-3.4569483329915833,-0.8195615263878356,-1.1471076497359083,"(0.0, 0.0, 0.0, 0.0, 0.0, 0.0)",5.350664204759762,0.765718045220333,-0.7015689740150786,"(0.0, 0.0, 0.0, 0.0, 0.0, 0.0)",3.1177189877340417,True,"(0.007932097844110482, 0.17942181983677438, 0.023999760440139094)","(0.9941894316804901, -0.10764440026973483, -0.00023879990168933048)",-0.00024403704270747802,50.99341137613677,True,"(0.07048759895008362, 0.1750175218838829, 0.05600023955986091)","(-0.9941894316804897, 0.10764440026973889, 0.000238799901683979)",2.3731899827620903e-05,35.717300450935895
69,Move,"(0.0578, 0.0, 0.007200000000000001)","(0.0, 0.08614596121993615, 0.0)","(0.03920252546452587, 0.15944317594079696, 0.0487145441250731)","(1.927373292816278e-05, -0.0017199273177299905, -0.12198147452371827)","[0.031671084304264276, 9.616681819202277e-06, 0.0007770536472973821]","[-0.026750000193715096, 0.05299999937415123, 0.03999999910593033]","[0.0, -0.0, 0.1875446142454451]","[-0.04017419368028641, 0.12373747676610947, 0.03999999910593033]","[0.0, 0.0, -0.5717960615640398]","[0.026750000193715096, 0.05299999937415123, 0.03999999910593033]","[0.0, 0.0, -0.823841755076204]","[0.07958081364631653, 0.1019173264503479, 0.03999999910593033]","[0.0, 0.0, -0.06027772002184083]",0.18010635476155112,-1.7851837260178764,"(0.0, 0.0, 0.0, 0.0, 0.0, 0.0)",-7.8400457014629845,-0.7567489915884005,0.6220180271958983,"(0.0, 0.0, 0.0, 0.0, 0.0, 0.0)",-3.606833761587398,-0.8285647941728088,-1.1335332413641137,"(0.0, 0.0, 0.0, 0.0, 0.0, 0.0)",6.052919367160542,0.7605432600471446,-0.7249826954538336,"(0.0, 0.0, 0.0, 0.0, 0.0, 0.0)",3.4469333495457253,True,"(0.009423829035422715, 0.1791663492934963, 0.023999760440139094)","(0.9941894316804901, -0.10764440026973483, -0.00023879990168933048)",-0.0002530835919585699,51.589072035121205,True,"(0.07196045705551392, 0.17465589226637057, 0.05600023955986091)","(-0.9941894316804897, 0.10764440026973889, 0.000238799901683979)",3.908176705233205e-05,37.338152567687494
70,Move,"(0.0588, 0.0, 0.006900000000000001)","(0.0, 0.08614596121993615, 0.0)","(0.04062456663023144, 0.15914636007208297, 0.04873722514701459)","(-0.0009841445745633237, -0.0015120260539397692, -0.12398980410662566)","[0.03309312546996984, -0.0002871991868947932, 0.000799734669238869]","[-0.026750000193715096, 0.05299999937415123, 0.03999999910593033]","[0.0, -0.0, 0.1734129381235127]","[-0.039173245429992676, 0.12392012029886246, 0.03999999910593033]","[0.0, 0.0, -0.581028241795579]","[0.026750000193715096, 0.05299999937415123, 0.03999999910593033]","[0.0, 0.0, -0.8328068570662917]","[0.08001723140478134, 0.10144173353910446, 0.03999999910593033]","[0.0, 0.0, -0.07499232140002711]",0.1660631733572439,-1.763941256898252,"(0.0, 0.0, 0.0, 0.0, 0.0, 0.0)",-8.526940279605997,-0.7514703869935073,0.7129940553463734,"(0.0, 0.0, 0.0, 0.0, 0.0, 0.0)",-3.9212381819425874,-0.8373432530051319,-1.0887510916760053,"(0.0, 0.0, 0.0, 0.0, 0.0, 0.0)",5.598078324203127,0.7551705748188628,-0.6345368941207494,"(0.0, 0.0, 0.0, 0.0, 0.0, 0.0)",3.2385820746699365,True,"(0.010934383345934127, 0.17888873412770154, 0.023999760440139094)","(0.9941894316804901, -0.10764440026973483, -0.00023879990168933048)",-0.00024520668468447907,63.066216480721025,True,"(0.07346797925868206, 0.17428455379873675, 0.05600023955986091)","(-0.9941894316804897, 0.10764440026973889, 0.000238799901683979)",5.8008324727034925e-05,33.482995406458066
71,Move,"(0.0594, 0.0, 0.0063)","(0.0, 0.09020385173082295, 0.0)","(0.04204472259395101, 0.15881131489687586, 0.04873362416764526)","(0.0010979601742693683, -0.001871368569660425, -0.12448976866454489)","[0.03451328143368942, -0.000622244362101898, 0.0007961336898695409]","[-0.026750000193715096, 0.05299999937415123, 0.03999999910593033]","[0.0, -0.0, 0.1594457132697236]","[-0.03818150982260704, 0.12408671528100967, 0.03999999910593033]","[0.0, 0.0, -0.589404275842038]","[0.026750000193715096, 0.05299999937415123, 0.03999999910593033]","[0.0, 0.0, -0.8414230580646294]","[0.08043263852596283, 0.1009809821844101, 0.03999999910593033]","[0.0, 0.0, -0.08859461961101685]",0.15223010670436807,-1.7317430273754295,"(0.0, 0.0, 0.0, 0.0, 0.0, 0.0)",-8.139822347517304,-0.7462509099228687,0.6237601384760727,"(0.0, 0.0, 0.0, 0.0, 0.0, 0.0)",-3.7057279043474374,-0.8457653167857584,-1.0421439099512175,"(0.0, 0.0, 0.0, 0.0, 0.0, 0.0)",6.139011013845225,0.7495607902047957,-0.7842338175624882,"(0.0, 0.0, 0.0, 0.0, 0.0, 0.0)",3.59821412278495,True,"(0.012384771029797223, 0.17863370739288065, 0.023999760440139094)","(0.9941894316804901, -0.10764440026973483, -0.00023879990168933048)",-0.0002895963630666982,55.86845087322213,True,"(0.07487478918579239, 0.17390614052167647, 0.05600023955986091)","(-0.9941894316804897, 0.10764440026973889, 0.000238799901683979)",4.1105068629150635e-05,38.96159417540985
72,Move,"(0.0599, 0.0, 0.0064)","(0.0, 0.08164301174979079, 0.0)","(0.04339794551522919, 0.1585117166912891, 0.048757489867564834)","(-7.107114180107153e-05, -0.0018968672354668754, -0.12644259059506519)","[0.0358665043549676, -0.0009218425676886521, 0.0008199993897891125]","[-0.026750000193715096, 0.05299999937415123, 0.03999999910593033]","[0.0, -0.0, 0.14575596103166708]","[-0.037207309156656265, 0.12423653900623322, 0.03999999910593033]","[0.0, 0.0, -0.5977810186865369]","[0.026750000193715096, 0.05299999937415123, 0.03999999910593033]","[0.0, 0.0, -0.8496530534103127]","[0.08082569390535355, 0.10053755342960358, 0.03999999910593033]","[0.0, 0.0, -0.10256625409334946]",0.13871318799475363,-1.6902594158189461,"(0.0, 0.0, 0.0, 0.0, 0.0, 0.0)",-8.082466370898626,-0.7408528671824693,0.6441631020181056,"(0.0, 0.0, 0.0, 0.0, 0.0, 0.0)",-3.7077914390292395,-0.8538011278686076,-0.9955526157671197,"(0.0, 0.0, 0.0, 0.0, 0.0, 0.0)",6.5649243941724595,0.7438693950680925,-0.7721609833671952,"(0.0, 0.0, 0.0, 0.0, 0.0, 0.0)",3.7621687124408747,True,"(0.013814118708084515, 0.17835804691415275, 0.023999760440139094)","(0.9941894316804901, -0.10764440026973483, -0.00023879990168933048)",-0.0002977375639630862,54.476623799109376,True,"(0.07628724079072668, 0.1735332477404833, 0.05600023955986091)","(-0.9941894316804897, 0.10764440026973889, 0.000238799901683979)",5.480370497701922e-05,38.95340750751769
73,Move,"(0.06, 0.0, 0.0066)","(0.0, 0.0730751904517506, 0.0)","(0.04467530792832054, 0.15821874273125894, 0.048776732460132005)","(-0.00045691398250667767, -0.0011917012398494694, -0.12828345088411902)","[0.03714386676805895, -0.0012148165277188205, 0.0008392419823562841]","[-0.026750000193715096, 0.05299999937415123, 0.03999999910593033]","[0.0, -0.0, 0.13239948250384823]","[-0.03625493496656418, 0.12436985224485397, 0.03999999910593033]","[0.0, 0.0, -0.6057235622369704]","[0.026750000193715096, 0.05299999937415123, 0.03999999910593033]","[0.0, 0.0, -0.8575089628467475]","[0.08119747042655945, 0.10011127591133118, 0.03999999910593033]","[0.0, 0.0, -0.11615577894114557]",0.1256299330322681,-1.6246913984409657,"(0.0, 0.0, 0.0, 0.0, 0.0, 0.0)",-8.741742335142733,-0.7351312157587842,0.7180303218044382,"(0.0, 0.0, 0.0, 0.0, 0.0, 0.0)",-4.021344016414421,-0.8613721225203999,-0.927177726143485,"(0.0, 0.0, 0.0, 0.0, 0.0, 0.0)",5.796252379711765,0.7385760433536176,-0.6664930936988991,"(0.0, 0.0, 0.0, 0.0, 0.0, 0.0)",3.342902802131201,True,"(0.015194741569410967, 0.17808441650348886, 0.023999760440139094)","(0.9941894316804901, -0.10764440026973483, -0.00023879990168933048)",-0.0003092062360708104,64.61593250573213,True,"(0.07765138342136385, 0.17316190591722225, 0.05600023955986091)","(-0.9941894316804897, 0.10764440026973889, 0.000238799901683979)",5.760328352238402e-05,36.39392197198313
74,Move,"(0.0606, 0.0, 0.0060999999999999995)","(0.0, 0.0730751904517506, 0.0)","(0.045834403942262625, 0.15790664370905197, 0.04876964411969241)","(0.0014432868346853363, -0.0016059967855644951, -0.13306741286221635)","[0.03830296278200103, -0.0015269155499257892, 0.0008321536419166886]","[-0.026750000193715096, 0.05299999937415123, 0.03999999910593033]","[0.0, -0.0, 0.11951635347045976]","[-0.03533470630645752, 0.12448637932538986, 0.03999999910593033]","[0.0, 0.0, -0.613376069076628]","[0.026750000193715096, 0.05299999937415123, 0.03999999910593033]","[0.0, 0.0, -0.8648696114584724]","[0.08154276758432388, 0.09970922768115997, 0.03999999910593033]","[0.0, 0.0, -0.12932530022424085]",0.11289578773241185,-1.5889337403178838,"(0.0, 0.0, 0.0, 0.0, 0.0, 0.0)",-10.572943396474697,-0.7283523188868288,1.0896256508904865,"(0.0, 0.0, 0.0, 0.0, 0.0, 0.0)",-5.229485994623539,-0.868655418758706,-0.9085839593613999,"(0.0, 0.0, 0.0, 0.0, 0.0, 0.0)",8.132824343506375,0.732722335549028,-0.6772872837119048,"(0.0, 0.0, 0.0, 0.0, 0.0, 0.0)",3.475777407708242,True,"(0.01652451544360988, 0.17780565345017726, 0.023999760440139094)","(0.9941894316804901, -0.10764440026973483, -0.00023879990168933048)",-0.00031560160932277707,76.23133412065478,True,"(0.07895900068593764, 0.1728002221197097, 0.05600023955986091)","(-0.9941894316804897, 0.10764440026973889, 0.000238799901683979)",5.944963974584203e-05,30.093473328806912
75,Move,"(0.0594, 0.0, 0.0054)","(0.0, 0.07754497866610804, 0.0)","(0.04679938819048934, 0.157641609622505, 0.04880160010883868)","(0.00025172102467066666, -0.0021802770183486165, -0.1451214093982137)","[0.03926794703022774, -0.0017919496364727505, 0.0008641096310629606]","[-0.026750000193715096, 0.05299999937415123, 0.03999999910593033]","[0.0, -0.0, 0.1069098293430757]","[-0.034432850778102875, 0.12458892166614532, 0.03999999910593033]","[0.0, 0.0, -0.6177287583915281]","[0.026750000193715096, 0.05299999937415123, 0.03999999910593033]","[0.0, 0.0, -0.8720440383696435]","[0.0818764716386795, 0.09931492805480957, 0.03999999910593033]","[0.0, 0.0, -0.14164823158917433]",0.1007719296891253,-1.4730939338943634,"(0.0, 0.0, 0.0, 0.0, 0.0, 0.0)",-8.82241311027477,-0.7208615462963254,0.9064871766234958,"(0.0, 0.0, 0.0, 0.0, 0.0, 0.0)",-4.431360782204303,-0.875373757260194,-0.7991254426291534,"(0.0, 0.0, 0.0, 0.0, 0.0, 0.0)",7.410356749595185,0.7274848572161251,-0.6986363399767216,"(0.0, 0.0, 0.0, 0.0, 0.0, 0.0)",3.3745461373826298,True,"(0.017657957945036655, 0.17768196281054588, 0.023999760440139094)","(0.9941894316804901, -0.10764440026973483, -0.00023879990168933048)",-0.0002595968559979146,56.850659854771756,True,"(0.08019356835150387, 0.17243220656832403, 0.05600023955986091)","(-0.9941894316804897, 0.10764440026973889, 0.000238799901683979)",0.00010711144393050653,26.17025978063336
76,Move,"(0.060200000000000004, 0.0, 0.004)","(0.0, 0.08614596121993615, 0.0)","(0.04773345763023157, 0.1574449599110489, 0.0488216011720753)","(-0.0007670028017295118, -0.0023825111724533354, -0.15671061038996886)","[0.04020201646996997, -0.00198859934792886, 0.0008841106942995766]","[-0.026750000193715096, 0.05299999937415123, 0.03999999910593033]","[0.0, -0.0, 0.09524773846498798]","[-0.03359747305512428, 0.12467364966869354, 0.03999999910593033]","[0.0, 0.0, -0.6221884130903524]","[0.026750000193715096, 0.05299999937415123, 0.03999999910593033]","[0.0, 0.0, -0.8783705973340752]","[0.08216837793588638, 0.09896524250507355, 0.03999999910593033]","[0.0, 0.0, -0.15349048265386697]",0.088978137372616,-1.5047057775524897,"(0.0, 0.0, 0.0, 0.0, 0.0, 0.0)",-10.214549126423124,-0.7133692331923226,0.9760595951791687,"(0.0, 0.0, 0.0, 0.0, 0.0, 0.0)",-5.0431129263808785,-0.8816122508642227,-0.7779911848064294,"(0.0, 0.0, 0.0, 0.0, 0.0, 0.0)",7.016354389882281,0.7221126027020511,-0.6642075887021481,"(0.0, 0.0, 0.0, 0.0, 0.0, 0.0)",3.1109700309879815,True,"(0.018729594437233127, 0.1775338567618648, 0.023999760440139094)","(0.9941894316804901, -0.10764440026973483, -0.00023879990168933048)",-0.0001648944318601344,69.68621661203193,True,"(0.08135144866893587, 0.17209732347807596, 0.05600023955986091)","(-0.9941894316804897, 0.10764440026973889, 0.000238799901683979)",0.00013570610546123827,20.19558789110445
77,Move,"(0.0632, 0.0, 0.0023)","(0.0, 0.1033252370473163, 0.0)","(0.04869771649399747, 0.15716351099360543, 0.048851152216489044)","(-0.000900143590330211, -0.002279771058103894, -0.1689019032974795)","[0.041166275333735874, -0.002270048265372332, 0.0009136617387133228]","[-0.026750000193715096, 0.05299999937415123, 0.03999999910593033]","[0.0, -0.0, 0.08333403878113545]","[-0.03274310752749443, 0.12475013732910156, 0.03999999910593033]","[0.0, 0.0, -0.6264160935749037]","[0.026750000193715096, 0.05299999937415123, 0.03999999910593033]","[0.0, 0.0, -0.88452660759105]","[0.08245028555393219, 0.09862322360277176, 0.03999999910593033]","[0.0, 0.0, -0.16489212193806413]",0.07642906373908476,-1.6571933033661221,"(0.0, 0.0, 0.0, 0.0, 0.0, 0.0)",-11.566512169481326,-0.7052139876683953,1.0886583172772295,"(0.0, 0.0, 0.0, 0.0, 0.0, 0.0)",-5.63638927385912,-0.8880267342349849,-0.8400448461542566,"(0.0, 0.0, 0.0, 0.0, 0.0, 0.0)",7.56085003166625,0.7164633024361498,-0.7610704153655147,"(0.0, 0.0, 0.0, 0.0, 0.0, 0.0)",3.4415630894372087,True,"(0.019806964028221144, 0.1773886562148367, 0.023999760440139094)","(0.9941894316804901, -0.10764440026973483, -0.00023879990168933048)",-0.00011366589500764347,75.74127502013472,True,"(0.0824672155725431, 0.1717598639346169, 0.05600023955986091)","(-0.9941894316804897, 0.10764440026973889, 0.000238799901683979)",0.00013068055795350663,24.828508660465143
78,Move,"(0.06470000000000001, 0.0, 0.001)","(0.0, 0.11190003966236446, 0.0)","(0.049703196280186206, 0.15681503026427424, 0.0488594266823817)","(0.00037509514421827213, -0.002792581492682838, -0.18233904842846013)","[0.04217175511992461, -0.002618528994703523, 0.0009219362046059762]","[-0.026750000193715096, 0.05299999937415123, 0.03999999910593033]","[0.0, -0.0, 0.07021011390282761]","[-0.031800974160432816, 0.12482260912656784, 0.03999999910593033]","[0.0, 0.0, -0.631004790758715]","[0.026750000193715096, 0.05299999937415123, 0.03999999910593033]","[0.0, 0.0, -0.8911720195442016]","[0.08275224268436432, 0.0982520580291748, 0.03999999910593033]","[0.0, 0.0, -0.17753496336844737]",0.06308874285489437,-1.7091283889240334,"(0.0, 0.0, 0.0, 0.0, 0.0, 0.0)",-11.85479950164421,-0.6964119699430281,1.152695354572446,"(0.0, 0.0, 0.0, 0.0, 0.0, 0.0)",-5.883522970333631,-0.8946641493209743,-0.8381004630376406,"(0.0, 0.0, 0.0, 0.0, 0.0, 0.0)",8.821653583235733,0.7100303614930861,-0.8656181864811645,"(0.0, 0.0, 0.0, 0.0, 0.0, 0.0)",3.979892745839352,True,"(0.020990086272564934, 0.1772194367912227, 0.023999760440139094)","(0.9941894316804901, -0.10764440026973483, -0.00023879990168933048)",-4.948414331775794e-05,72.09047893692389,True,"(0.08369380230957423, 0.17138264296168923, 0.05600023955986091)","(-0.9941894316804897, 0.10764440026973889, 0.000238799901683979)",0.00014149314140956046,25.629639225683086
79,Move,"(0.06620000000000001, 0.0, 0.0008)","(0.0, 0.11190003966236446, 0.0)","(0.050743689192809416, 0.15638994896347552, 0.04884887680895971)","(0.00042468590069142883, -0.0015114117777737138, -0.19965728756048587)","[0.04321224803254782, -0.003043610295502236, 0.0009113863311839901]","[-0.026750000193715096, 0.05299999937415123, 0.03999999910593033]","[0.0, -0.0, 0.05660685234297729]","[-0.030823517590761185, 0.12488467246294022, 0.03999999910593033]","[0.0, 0.0, -0.6366336862115488]","[0.026750000193715096, 0.05299999937415123, 0.03999999910593033]","[0.0, 0.0, -0.8977078360917959]","[0.0830468013882637, 0.09788507968187332, 0.03999999910593033]","[0.0, 0.0, -0.18981694295420515]",0.049207459927548804,-1.7758537679609692,"(0.0, 0.0, 0.0, 0.0, 0.0, 0.0)",-11.474925541428991,-0.6885452542531806,1.1268706893727716,"(0.0, 0.0, 0.0, 0.0, 0.0, 0.0)",-5.637904755257594,-0.901172190737753,-0.8314472890615547,"(0.0, 0.0, 0.0, 0.0, 0.0, 0.0)",9.309738792540536,0.7042837790399369,-0.8657133721924024,"(0.0, 0.0, 0.0, 0.0, 0.0, 0.0)",4.248622111505464,True,"(0.02226164596879971, 0.1769835128199784, 0.023999760440139094)","(0.9941894316804901, -0.10764440026973483, -0.00023879990168933048)",6.188566367030645e-05,63.90579432365439,True,"(0.07528238383303809, 0.12107279220698183, 0.02399720753026849)","(-0.9829997175798182, 0.18358584257655783, -0.0027917097722885173)",-0.00014511470600308716,24.89733494748515
80,Move,"(0.0683, 0.0, 0.0011)","(0.0, 0.11190003966236446, 0.0)","(0.05186119411397709, 0.15627377152280236, 0.04890159237952374)","(-0.0006776292829330048, 0.003820731705655339, -0.21471699463716762)","[0.044329752953715496, -0.0031597877361753957, 0.0009641019017480185]","[-0.026750000193715096, 0.05299999937415123, 0.03999999910593033]","[0.0, -0.0, 0.042549284227705625]","[-0.02981262467801571, 0.1249348372220993, 0.03999999910593033]","[0.0, 0.0, -0.6417060767207275]","[0.026750000193715096, 0.05299999937415123, 0.03999999910593033]","[0.0, 0.0, -0.904300011689884]","[0.08334146440029144, 0.09751299023628235, 0.03999999910593033]","[0.0, 0.0, -0.20326667220496483]",0.03478366120079624,-1.8637496343530873,"(0.0, 0.0, 0.0, 0.0, 0.0, 0.0)",-15.318264438191262,-0.678502312099129,1.3807315095219215,"(0.0, 0.0, 0.0, 0.0, 0.0, 0.0)",-7.396329804114854,-0.9078862254733561,-0.8607116380697099,"(0.0, 0.0, 0.0, 0.0, 0.0, 0.0)",11.199200270326722,0.6960814983562048,-1.1884240492447304,"(0.0, 0.0, 0.0, 0.0, 0.0, 0.0)",5.4698399806146085,True,"(0.023547065495570122, 0.17681125614142598, 0.05600151217116156)","(0.9801334872429643, -0.1983332115938307, 0.0015114112023343782)",-0.00011454905000501839,87.11936886346768,True,"(0.0758896072939779, 0.12080303459622167, 0.02399720753026849)","(-0.9829997175798182, 0.18358584257655783, -0.0027917097722885173)",7.535247126780267e-07,22.640594838250546
81,Move,"(0.0676, 0.0, 0.0017)","(0.0, 0.1033252370473163, 0.0)","(0.052961188819757955, 0.156211888226999, 0.04906180003807498)","(-0.0009017605490864918, 0.008814308308544612, -0.22478638367918802)","[0.04542974765949636, -0.0032216710319787623, 0.0011243095602992623]","[-0.026750000193715096, 0.05299999937415123, 0.03999999910593033]","[0.0, -0.0, 0.027837603458924248]","[-0.02875404804944992, 0.12497210502624512, 0.03999999910593033]","[0.0, 0.0, -0.645261006872991]","[0.026750000193715096, 0.05299999937415123, 0.03999999910593033]","[0.0, 0.0, -0.9110686222447292]","[0.08364146202802658, 0.09712892025709152, 0.03999999910593033]","[0.0, 0.0, -0.21948545054521781]",0.02037097417806566,-1.7919913415054116,"(0.0, 0.0, 0.0, 0.0, 0.0, 0.0)",-16.25185072277666,-0.666206837482887,1.6540195598815939,"(0.0, 0.0, 0.0, 0.0, 0.0, 0.0)",-8.265217275831983,-0.9143919485368114,-0.7975967646131709,"(0.0, 0.0, 0.0, 0.0, 0.0, 0.0)",12.005658094662573,0.687505386915347,-0.9786769551947306,"(0.0, 0.0, 0.0, 0.0, 0.0, 0.0)",5.248750469497859,True,"(0.024789719221944662, 0.17665851040342723, 0.05600151217116156)","(0.9801334872429643, -0.1983332115938307, 0.0015114112023343782)",7.720448016110112e-05,79.00168147822315,True,"(0.07656830290940973, 0.12053675852312568, 0.02399720753026849)","(-0.9829997175798182, 0.18358584257655783, -0.0027917097722885173)",0.00011062438982546022,0.0
