OSUrobotics/InHand-Manipulation/AnalyseData/Data/Trial Data/Tries/new_hand_human_sub1_2v2_a_n_1_kpNone_kdNone_dp5_step5_save_data.csv
,Phase,human_cube_pos,human_cube_orn,Cube_Pos,Cube_Orn,Cube_pos_in_start_pos,b'l_prox_pin'_link_pos,b'l_prox_pin'_link_orn,b'l_distal_pin'_link_pos,b'l_distal_pin'_link_orn,b'r_prox_pin'_link_pos,b'r_prox_pin'_link_orn,b'r_distal_pin'_link_pos,b'r_distal_pin'_link_orn,b'l_prox_pin'_joint_angle,b'l_prox_pin'_joint_vel,b'l_prox_pin'_joint_react_forces,b'l_prox_pin'_joint_motor_torque,b'l_distal_pin'_joint_angle,b'l_distal_pin'_joint_vel,b'l_distal_pin'_joint_react_forces,b'l_distal_pin'_joint_motor_torque,b'r_prox_pin'_joint_angle,b'r_prox_pin'_joint_vel,b'r_prox_pin'_joint_react_forces,b'r_prox_pin'_joint_motor_torque,b'r_distal_pin'_joint_angle,b'r_distal_pin'_joint_vel,b'r_distal_pin'_joint_react_forces,b'r_distal_pin'_joint_motor_torque,in_contact_l,contact_point_l_dist,contact_normal_l_dist,contact_distance_l_dist,contact_norm_force_l_dist,in_contact_r,contact_point_r_dist,contact_normal_r_dist,contact_distance_r_dist,contact_norm_force_r_dist
0,Open,,,,,,"[-0.026750000193715096, 0.05299999937415123, 0.03999999910593033]","[0.0, -0.0, 0.4254700097131474]","[-0.056467924267053604, 0.11858082562685013, 0.03999999910593033]","[0.0, -0.0, 0.4254700097131474]","[0.026750000193715096, 0.05299999937415123, 0.03999999910593033]","[0.0, 0.0, -0.4429245237535421]","[0.057608019560575485, 0.1180521547794342, 0.03999999910593033]","[0.0, 0.0, -0.5266622746639338]",0.5399229999999999,27.46872,"(0.0, 0.0, 0.0, 0.0, 0.0, 0.0)",-4.377393708535371,5.294901130302062e-32,0.0,"(0.0, 0.0, 0.0, 0.0, 0.0, 0.0)",-0.30017707799641646,-0.5623038734984663,-28.651050680519948,"(0.0, 0.0, 0.0, 0.0, 0.0, 0.0)",144.45470973647488,-0.10456727132876567,-4.999096204557077,"(0.0, 0.0, 0.0, 0.0, 0.0, 0.0)",33.97911746732963,False,,,,,False,,,,
1,Open,,,,,,"[-0.026750000193715096, 0.05299999937415123, 0.03999999910593033]","[0.0, -0.0, 0.894166469119967]","[-0.08288749307394028, 0.09808415919542313, 0.03999999910593033]","[0.0, -0.0, 0.894166894674561]","[0.026750000193715096, 0.05299999937415123, 0.03999999910593033]","[0.0, 0.0, -0.9122733503889549]","[0.08369457721710205, 0.09706035256385803, 0.03999999910593033]","[0.0, 0.0, -0.9997066729229968]",0.96174983227,16.220004472800003,"(0.0, 0.0, 0.0, 0.0, 0.0, 0.0)",-2.5959652512206968,5.681494863714967e-07,3.553320838026869e-05,"(0.0, 0.0, 0.0, 0.0, 0.0, 0.0)",-0.18114955764248034,-0.9780460127037736,-15.785439661232708,"(0.0, 0.0, 0.0, 0.0, 0.0, 0.0)",2.503992476159733,-0.0786900142246732,2.098357403184359,"(0.0, 0.0, 0.0, 0.0, 0.0, 0.0)",0.15360133560797545,False,,,,,False,,,,
2,Open,,,,,,"[-0.026750000193715096, 0.05299999937415123, 0.03999999910593033]","[0.0, -0.0, 1.170927100750299]","[-0.09307006001472473, 0.08102945238351822, 0.03999999910593033]","[0.0, -0.0, 1.1709279927689973]","[0.026750000193715096, 0.05299999937415123, 0.03999999910593033]","[0.0, 0.0, -1.181618964677462]","[0.09336595237255096, 0.08031877130270004, 0.03999999910593033]","[0.0, 0.0, -1.233247876832181]",1.2108343584571122,9.577750441143678,"(0.0, 0.0, 0.0, 0.0, 0.0, 0.0)",-1.5367816122769582,9.012180617793662e-07,6.275974057005224e-06,"(0.0, 0.0, 0.0, 0.0, 0.0, 0.0)",-0.1083256720668905,-1.2204570900414513,-9.3211442655613,"(0.0, 0.0, 0.0, 0.0, 0.0, 0.0)",1.4819475463743526,-0.046466145575958295,1.239071567699341,"(0.0, 0.0, 0.0, 0.0, 0.0, 0.0)",0.09166748660725833,False,,,,,False,,,,
3,Open,,,,,,"[-0.026750000193715096, 0.05299999937415123, 0.03999999910593033]","[0.0, -0.0, 1.334351465706577]","[-0.09674673527479172, 0.06986585259437561, 0.03999999910593033]","[0.0, -0.0, 1.33435435145599]","[0.026750000193715096, 0.05299999937415123, 0.03999999910593033]","[0.0, 0.0, -1.3406650641721125]","[0.09685182571411133, 0.06942359358072281, 0.03999999910593033]","[0.0, 0.0, -1.3711530696282732]",1.3579162851496,5.655565729344001,"(0.0, 0.0, 0.0, 0.0, 0.0, 0.0)",-0.9088150211252332,3.4316066113876724e-06,0.0001607445165674468,"(0.0, 0.0, 0.0, 0.0, 0.0, 0.0)",-0.06444344013525093,-1.3635984108023202,-5.504042378604797,"(0.0, 0.0, 0.0, 0.0, 0.0, 0.0)",0.8762522980402716,-0.02744024570882781,0.7315266716392431,"(0.0, 0.0, 0.0, 0.0, 0.0, 0.0)",0.05446985052483407,False,,,,,False,,,,
4,Open,,,,,,"[-0.026750000193715096, 0.05299999937415123, 0.03999999910593033]","[0.0, -0.0, 1.4308518944899675]","[-0.09804610908031464, 0.06304314732551575, 0.03999999910593033]","[0.0, -0.0, 1.4308566269594332]","[0.026750000193715096, 0.05299999937415123, 0.03999999910593033]","[0.0, 0.0, -1.4345798203875788]","[0.09808305650949478, 0.06277728080749512, 0.03999999910593033]","[0.0, 0.0, -1.4525855975984745]",1.4447666872179874,3.339555007520341,"(0.0, 0.0, 0.0, 0.0, 0.0, 0.0)",-0.5371183361845069,4.8269553674989e-06,2.0878160072459843e-05,"(0.0, 0.0, 0.0, 0.0, 0.0, 0.0)",-0.03821759960562203,-1.448121925594662,-3.2500819841423465,"(0.0, 0.0, 0.0, 0.0, 0.0, 0.0)",0.5178266556878065,-0.016205556838873442,0.4320218239148067,"(0.0, 0.0, 0.0, 0.0, 0.0, 0.0)",0.0322808466635012,False,,,,,False,,,,
5,Open,,,,,,"[-0.026750000193715096, 0.05299999937415123, 0.03999999910593033]","[0.0, -0.0, 1.487834617901085]","[-0.09850236773490906, 0.05896640568971634, 0.03999999910593033]","[0.0, -0.0, 1.4878390921106803]","[0.026750000193715096, 0.05299999937415123, 0.03999999910593033]","[0.0, 0.0, -1.4900358577435544]","[0.09851532429456711, 0.05880843847990036, 0.03999999910593033]","[0.0, 0.0, -1.5006695807985118]",1.4960509811353493,1.9719738363906854,"(0.0, 0.0, 0.0, 0.0, 0.0, 0.0)",-0.3173274216127963,4.509251873886308e-06,-3.168767150011037e-05,"(0.0, 0.0, 0.0, 0.0, 0.0, 0.0)",-0.022624215793833224,-1.498032215844392,-1.9191409108162163,"(0.0, 0.0, 0.0, 0.0, 0.0, 0.0)",0.30591369390909257,-0.00957062017308593,0.2551417656412126,"(0.0, 0.0, 0.0, 0.0, 0.0, 0.0)",0.019102112305110365,False,,,,,False,,,,
6,Open,,,,,,"[-0.026750000193715096, 0.05299999937415123, 0.03999999910593033]","[0.0, -0.0, 1.5214821319654974]","[-0.09866246581077576, 0.05654918774962425, 0.03999999910593033]","[0.0, -0.0, 1.5214858439169519]","[0.026750000193715096, 0.05299999937415123, 0.03999999910593033]","[0.0, 0.0, -1.5227821585534602]","[0.09866702556610107, 0.05645570904016495, 0.03999999910593033]","[0.0, 0.0, -1.529061933448946]",1.5263338438506127,1.164430830650334,"(0.0, 0.0, 0.0, 0.0, 0.0, 0.0)",-0.18743587261192823,3.6440993970645793e-06,-4.480530101024996e-05,"(0.0, 0.0, 0.0, 0.0, 0.0, 0.0)",-0.013379159967550349,-1.527503743133955,-1.1332335164278682,"(0.0, 0.0, 0.0, 0.0, 0.0, 0.0)",0.18068846528573543,-0.005652184024362593,0.1506807000213291,"(0.0, 0.0, 0.0, 0.0, 0.0, 0.0)",0.011293655891939093,False,,,,,False,,,,
7,Close,,,"(0.010000824637423049, 0.16001319418745247, 0.017848014970055004)","(-0.00026934863811186216, 1.6834304115272585e-05, -2.2671484573282825e-09)",,"[-0.026750000193715096, 0.05299999937415123, 0.03999999910593033]","[0.0, -0.0, 1.2784808254221978]","[-0.09569569677114487, 0.07374827563762665, 0.03999999910593033]","[0.0, -0.0, 1.034582661993943]","[0.026750000193715096, 0.05299999937415123, 0.03999999910593033]","[0.0, 0.0, -1.2792482299640686]","[0.0957116037607193, 0.0736953467130661, 0.03999999910593033]","[0.0, 0.0, -1.0390562259147462]",1.210632571455348,-16.283535238809286,"(0.0, 0.0, 0.0, 0.0, 0.0, 0.0)",2.771136716181199,-0.3095085607892871,-15.746535439217235,"(0.0, 0.0, 0.0, 0.0, 0.0, 0.0)",0.3469037989659341,-1.211323385283169,16.3019569408845,"(0.0, 0.0, 0.0, 0.0, 0.0, 0.0)",-2.7749564531312414,0.30617317599991634,15.835479338328643,"(0.0, 0.0, 0.0, 0.0, 0.0, 0.0)",-0.3479929302165593,False,,,,,False,,,,
8,Close,,,"(0.010001648057231211, 0.16002636889308344, 0.03133184175509247)","(-0.0005384699893107284, 3.3654401557527444e-05, -9.06094284338731e-09)",,"[-0.026750000193715096, 0.05299999937415123, 0.03999999910593033]","[0.0, -0.0, 1.0006360422079206]","[-0.08736064285039902, 0.0918632224202156, 0.03999999910593033]","[0.0, -0.0, 0.4880565025715103]","[0.026750000193715096, 0.05299999937415123, 0.03999999910593033]","[0.0, 0.0, -1.001089448203126]","[0.08737824857234955, 0.09183574467897415, 0.03999999910593033]","[0.0, 0.0, -0.49069812233338583]",0.9605724271186684,-9.615264723164493,"(0.0, 0.0, 0.0, 0.0, 0.0, 0.0)",1.6441783201079794,-0.5513218025251249,-9.298144061583436,"(0.0, 0.0, 0.0, 0.0, 0.0, 0.0)",0.21014173445603831,-0.9609803457758583,9.626142554022893,"(0.0, 0.0, 0.0, 0.0, 0.0, 0.0)",-1.6464751946207798,0.5493522946545342,9.350664461360347,"(0.0, 0.0, 0.0, 0.0, 0.0, 0.0)",-0.2108204377510729,False,,,,,False,,,,
9,Close,,,"(0.010002470404691093, 0.16003952644115657, 0.04045997120998789)","(-0.0008073642479911328, 5.0460303253361964e-05, -2.0369923505779015e-08)",,"[-0.026750000193715096, 0.05299999937415123, 0.03999999910593033]","[0.0, -0.0, 0.8365715799965936]","[-0.0801992267370224, 0.1012408509850502, 0.03999999910593033]","[0.0, -0.0, 0.16533874626364803]","[0.026750000193715096, 0.05299999937415123, 0.03999999910593033]","[0.0, 0.0, -0.8368392086626993]","[0.08021213859319687, 0.10122654587030411, 0.03999999910593033]","[0.0, 0.0, -0.1668985823484083]",0.8129144124893025,-5.677717666381402,"(0.0, 0.0, 0.0, 0.0, 0.0, 0.0)",0.9736078226475493,-0.6941096683608667,-5.490444078796776,"(0.0, 0.0, 0.0, 0.0, 0.0, 0.0)",0.12593397924105265,-0.8131552843771866,5.684140916724979,"(0.0, 0.0, 0.0, 0.0, 0.0, 0.0)",-0.9749785244213759,0.6929466958025952,5.521456795952681,"(0.0, 0.0, 0.0, 0.0, 0.0, 0.0)",-0.12634715317523504,False,,,,,False,,,,
10,Close,,,"(0.010003291824242136, 0.16005266914270105, 0.04523936165140331)","(-0.0010760316083767074, 6.725202012489063e-05, -3.618265319583079e-08)",,"[-0.026750000193715096, 0.05299999937415123, 0.03999999910593033]","[0.0, -0.0, 0.7396932119518481]","[-0.07528240978717804, 0.10618463158607483, 0.03999999910593033]","[0.0, 0.0, -0.025223688738047617]","[0.026750000193715096, 0.05299999937415123, 0.03999999910593033]","[0.0, 0.0, -0.7398511766938903]","[0.07529081404209137, 0.10617695748806, 0.03999999910593033]","[0.0, -0.0, 0.02430263317545323]",0.7257238314308083,-3.352635504821555,"(0.0, 0.0, 0.0, 0.0, 0.0, 0.0)",0.5758654822812497,-0.7784262532781683,-3.242260203768412,"(0.0, 0.0, 0.0, 0.0, 0.0, 0.0)",0.0750123771406224,-0.725866063871885,3.3564283699169333,"(0.0, 0.0, 0.0, 0.0, 0.0, 0.0)",-0.5766799137830688,0.7777395376647703,3.260573592131318,"(0.0, 0.0, 0.0, 0.0, 0.0, 0.0)",-0.0752606958188736,False,,,,,False,,,,
11,Close,,,"(0.009997966950406065, 0.16004795201914346, 0.046616050094935475)","(-0.0009640430328522325, -5.7324486097668704e-05, 4.2980615420070005e-09)",,"[-0.026750000193715096, 0.05299999937415123, 0.03999999910593033]","[0.0, -0.0, 0.682487397988505]","[-0.0721622109413147, 0.10887245088815689, 0.03999999910593033]","[0.0, 0.0, -0.13775029188859572]","[0.026750000193715096, 0.05299999937415123, 0.03999999910593033]","[0.0, 0.0, -0.6825807377410441]","[0.07216742634773254, 0.10886821150779724, 0.03999999910593033]","[0.0, -0.0, 0.1372064129763775]",0.6742386185346878,-1.979696494258342,"(0.0, 0.0, 0.0, 0.0, 0.0, 0.0)",0.34037467823530393,-0.8282145265472606,-1.9144534778819295,"(0.0, 0.0, 0.0, 0.0, 0.0, 0.0)",0.04449932044982575,-0.674322605213594,1.981936139029174,"(0.0, 0.0, 0.0, 0.0, 0.0, 0.0)",-0.3408573424145132,0.8278090365055835,1.9252671252731466,"(0.0, 0.0, 0.0, 0.0, 0.0, 0.0)",-0.04464739446319682,False,,,,,False,,,,
12,Close,,,"(0.009998679410322496, 0.16003066597344334, 0.0474253884764576)","(-0.0006112814540129935, -4.2805404436077314e-05, 1.9447426774393396e-07)",,"[-0.026750000193715096, 0.05299999937415123, 0.03999999910593033]","[0.0, -0.0, 0.6487079580530938]","[-0.07024932652711868, 0.11037428677082062, 0.03999999910593033]","[0.0, 0.0, -0.20419532625251113]","[0.026750000193715096, 0.05299999937415123, 0.03999999910593033]","[0.0, 0.0, -0.6487631098841893]","[0.07025248557329178, 0.11037188768386841, 0.03999999910593033]","[0.0, -0.0, 0.20387417727936794]",0.6438371618585478,-1.1689909828946077,"(0.0, 0.0, 0.0, 0.0, 0.0, 0.0)",0.20110328062585062,-0.8576133287829941,-1.1304144347684295,"(0.0, 0.0, 0.0, 0.0, 0.0, 0.0)",0.026365137971139978,-0.6438867551525752,1.1703134707353389,"(0.0, 0.0, 0.0, 0.0, 0.0, 0.0)",-0.20138889834359572,0.857373897412956,1.136799615752827,"(0.0, 0.0, 0.0, 0.0, 0.0, 0.0)",-0.026453134766811503,False,,,,,False,,,,
13,Close,,,"(0.008562352819313064, 0.15963169911231415, 0.04795936059784778)","(0.002880050037504477, -0.0018080766405500393, 0.027156574699580344)",,"[-0.026750000193715096, 0.05299999937415123, 0.03999999910593033]","[0.0, -0.0, 0.6287615983534538]","[-0.06909634172916412, 0.11123047024011612, 0.03999999910593033]","[0.0, 0.0, -0.24342883421715172]","[0.026750000193715096, 0.05299999937415123, 0.03999999910593033]","[0.0, 0.0, -0.6288059721302652]","[0.06909892708063126, 0.1112285852432251, 0.03999999910593033]","[0.0, -0.0, 0.24295585513718987]",0.6258854057058539,-0.6902774854894381,"(0.0, 0.0, 0.0, 0.0, 0.0, 0.0)",0.11878846609148704,-0.8749713231347032,-0.6674313830745814,"(0.0, 0.0, 0.0, 0.0, 0.0, 0.0)",0.015594191474811038,-0.6259255556368085,0.6912982329409242,"(0.0, 0.0, 0.0, 0.0, 0.0, 0.0)",0.23889456753769728,0.8745816224765113,0.6767593625972839,"(0.0, 0.0, 0.0, 0.0, 0.0, 0.0)",0.18939691443679915,False,,,,,True,"(0.040048198705117485, 0.17954190147604243, 0.02399995236517949)","(-0.9999968496142797, -0.00250969405768167, -4.6874861287478436e-05)",-8.481535683957195e-06,2.863336982423626
14,Move,,,"(0.0021872179113760974, 0.1587702000093447, 0.04795070422976376)","(0.005962162449872379, -0.0033931589555412952, 0.10738858230627975)","[0.0, 0.0, 0.0]","[-0.026750000193715096, 0.05299999937415123, 0.03999999910593033]","[0.0, -0.0, 0.5601465041237582]","[-0.06500434130430222, 0.11399676650762558, 0.03999999910593033]","[0.0, 0.0, -0.31665092698218517]","[0.026750000193715096, 0.05299999937415123, 0.03999999910593033]","[0.0, 0.0, -0.5704791351722326]","[0.06563255190849304, 0.11359824240207672, 0.03999999910593033]","[0.0, -0.0, 0.305956737273258]",0.5441270049833652,-3.8446725897845018,"(0.0, 0.0, 0.0, 0.0, 0.0, 0.0)",-31.016206067854263,-0.862168545717363,3.5109286459519033,"(0.0, 0.0, 0.0, 0.0, 0.0, 0.0)",-15.92332423422567,-0.5571846401428407,3.1906852662822005,"(0.0, 0.0, 0.0, 0.0, 0.0, 0.0)",30.615399196288518,0.8610595255010496,-3.6903265511769647,"(0.0, 0.0, 0.0, 0.0, 0.0, 0.0)",16.541442123431672,True,"(-0.03100426910775894, 0.18018038835621497, 0.05600352127687249)","(0.9944108650409498, 0.10552079154921731, 0.0035205169132651575)",-0.0003255110162118496,255.8309528106214,True,"(0.03234100379217806, 0.17992001197697366, 0.02399647872312752)","(-0.9944108650409488, -0.10552079154922665, -0.003520516913257393)",0.00030258198891258155,195.87528475250997
15,Move,"(0.0021000000000000003, 0.0, -0.0002)","(0.0, 0.0054262286444503715, 0.0)","(0.0026069759750778575, 0.15988603601743306, 0.04785793326952702)","(0.0014640955150843412, 0.0004898848941105341, 0.09346997421383026)","[0.0004197580637017601, 0.0011158360080883722, -9.277096023674325e-05]","[-0.026750000193715096, 0.05299999937415123, 0.03999999910593033]","[0.0, -0.0, 0.5280999106157509]","[-0.06303029507398605, 0.11519115418195724, 0.03999999910593033]","[0.0, 0.0, -0.32397211695142536]","[0.026750000193715096, 0.05299999937415123, 0.03999999910593033]","[0.0, 0.0, -0.5539347432231292]","[0.06462471187114716, 0.11423321068286896, 0.03999999910593033]","[0.0, -0.0, 0.29651661701507637]",0.5276823289925201,-0.10022160263412135,"(0.0, 0.0, 0.0, 0.0, 0.0, 0.0)",-0.9235713220958514,-0.8526363276072935,-0.13543463545753903,"(0.0, 0.0, 0.0, 0.0, 0.0, 0.0)",-0.4880377490396914,-0.5562926555726435,-0.5659036695150347,"(0.0, 0.0, 0.0, 0.0, 0.0, 0.0)",0.9610102714790193,0.8511095209158287,0.15797124588134343,"(0.0, 0.0, 0.0, 0.0, 0.0, 0.0)",0.45689081812141985,True,"(-0.028547168987557825, 0.18112969685364932, 0.05600311533242741)","(0.9940239572680721, 0.10911769707920065, 0.003114572403053239)",-0.0026389552218276545,6.335836415392259,True,"(0.032073828022861045, 0.17976835105408295, 0.02399688466763773)","(-0.9940239572680716, -0.10911769707920535, -0.003114572403051332)",7.673703512973943e-06,4.044045248148232
16,Move,"(0.0013000000000000002, 0.0, 0.004)","(0.0, 0.003220132469929538, 0.0)","(0.0035255684563264057, 0.1599946894009011, 0.048126604261683775)","(-0.0017457388572320255, 0.0021297561424714674, 0.08747773564827936)","[0.0013383505449503083, 0.0012244893915564214, 0.0001759000319200149]","[-0.026750000193715096, 0.05299999937415123, 0.03999999910593033]","[0.0, -0.0, 0.5224616387616435]","[-0.06267906725406647, 0.115394726395607, 0.03999999910593033]","[0.0, 0.0, -0.32803236782421014]","[0.026750000193715096, 0.05299999937415123, 0.03999999910593033]","[0.0, 0.0, -0.5623764351056894]","[0.0651402622461319, 0.11391130834817886, 0.03999999910593033]","[0.0, -0.0, 0.2871936588921255]",0.5211561599955764,-0.3133098517302199,"(0.0, 0.0, 0.0, 0.0, 0.0, 0.0)",-2.051718585481081,-0.8497889097305474,0.16920886404207933,"(0.0, 0.0, 0.0, 0.0, 0.0, 0.0)",-1.0323019576483041,-0.5634405503817459,-0.2554116922502541,"(0.0, 0.0, 0.0, 0.0, 0.0, 0.0)",1.6560244627332776,0.8490139979709015,-0.133429439881605,"(0.0, 0.0, 0.0, 0.0, 0.0, 0.0)",0.7895211366685624,True,"(-0.027927401380064762, 0.1811811037565547, 0.02399822870175504)","(0.9961014806934486, 0.08819696888067152, -0.0017705481018747064)",-0.0021737318619674192,17.207820639635028,True,"(0.03320176693567509, 0.17974706778693073, 0.02399688466763773)","(-0.9940239572680716, -0.10911769707920535, -0.003114572403051332)",6.557126672686313e-05,7.070022535728253
17,Move,"(-0.0006, 0.0, 0.010400000000000001)","(0.0, 0.07666009673534695, 0.0)","(0.004140500620004526, 0.1600769304016275, 0.04827382530658844)","(-0.0034287122864970153, 0.002226692373689481, 0.08531160618890227)","[0.0019532827086284287, 0.0013067303922827955, 0.00032312107682468116]","[-0.026750000193715096, 0.05299999937415123, 0.03999999910593033]","[0.0, -0.0, 0.5173308298805576]","[-0.06235846132040024, 0.11557824909687042, 0.03999999910593033]","[0.0, 0.0, -0.3299439167419533]","[0.026750000193715096, 0.05299999937415123, 0.03999999910593033]","[0.0, 0.0, -0.5666477905746482]","[0.06540008634328842, 0.113746777176857, 0.03999999910593033]","[0.0, -0.0, 0.2803047153170993]",0.5166197463747988,-0.1706416656350544,"(0.0, 0.0, 0.0, 0.0, 0.0, 0.0)",-1.7159442350705323,-0.8467281349563042,0.13116891742434367,"(0.0, 0.0, 0.0, 0.0, 0.0, 0.0)",-0.8858098976896782,-0.5672547149008871,-0.14568574125275768,"(0.0, 0.0, 0.0, 0.0, 0.0, 0.0)",1.3971084533594753,0.8465267230894317,-0.10215688901333111,"(0.0, 0.0, 0.0, 0.0, 0.0, 0.0)",0.7028439301895519,True,"(-0.027481010372413572, 0.18129704562090615, 0.023997624361019217)","(0.9963558605631038, 0.08526053642330549, -0.002374879021568734)",-0.0019014724426118768,13.71669688064684,True,"(0.03391588222658835, 0.17980099238543928, 0.02399688466763773)","(-0.9940239572680716, -0.10911769707920535, -0.003114572403051332)",7.630353133209116e-05,4.620354484531982
18,Move,"(-0.0039, 0.0, 0.018000000000000002)","(0.0, 0.035192819037213656, 0.0)","(0.004410175176418724, 0.16009707879750668, 0.048305060117012306)","(-0.002691289303427254, 0.0014196669422171491, 0.0856141258032681)","[0.0022229572650426265, 0.0013268787881619837, 0.0003543558872485461]","[-0.026750000193715096, 0.05299999937415123, 0.03999999910593033]","[0.0, -0.0, 0.5154272977616181]","[-0.062239278107881546, 0.11564591526985168, 0.03999999910593033]","[0.0, 0.0, -0.3293030658119623]","[0.026750000193715096, 0.05299999937415123, 0.03999999910593033]","[0.0, 0.0, -0.5681426465413734]","[0.06549084931612015, 0.11368893086910248, 0.03999999910593033]","[0.0, -0.0, 0.2767301979961707]",0.5152806892306977,-0.03517699824940114,"(0.0, 0.0, 0.0, 0.0, 0.0, 0.0)",-1.4137103873830097,-0.8442976595338001,0.103832675680272,"(0.0, 0.0, 0.0, 0.0, 0.0, 0.0)",-0.6883626074749324,-0.5682350679576162,-0.0221912610161109,"(0.0, 0.0, 0.0, 0.0, 0.0, 0.0)",1.1117904988320986,0.8445196157625844,-0.0847649172881793,"(0.0, 0.0, 0.0, 0.0, 0.0, 0.0)",0.5709530062450202,True,"(-0.027403905521735744, 0.18138650895704078, 0.02399851825068164)","(0.9963493757719156, 0.08535647643519426, -0.0014809893591453494)",-0.0016305383820138602,11.345782846850078,True,"(0.03424296075844562, 0.1798552636526669, 0.02399688466763773)","(-0.9940239572680716, -0.10911769707920535, -0.003114572403051332)",5.086777927817226e-05,4.86667397832637
19,Move,"(-0.0006, 0.0, 0.023600000000000003)","(0.0, 0.03126582822022642, 0.0)","(0.004912457468559091, 0.16005544509435415, 0.04828527641349079)","(-9.640633629909533e-05, 0.0009346835896038024, 0.08545895602990462)","[0.0027252395571829937, 0.001285245085009462, 0.00033457218372703185]","[-0.026750000193715096, 0.05299999937415123, 0.03999999910593033]","[0.0, -0.0, 0.5125697825360203]","[-0.062060125172138214, 0.11574707180261612, 0.03999999910593033]","[0.0, 0.0, -0.3298514245305389]","[0.026750000193715096, 0.05299999937415123, 0.03999999910593033]","[0.0, 0.0, -0.5706253577819702]","[0.06564140319824219, 0.11359256505966187, 0.03999999910593033]","[0.0, -0.0, 0.27251245007813185]",0.5118778007975491,-0.16608099137806184,"(0.0, 0.0, 0.0, 0.0, 0.0, 0.0)",-1.2732573661230708,-0.8419980181776288,0.10156241755300849,"(0.0, 0.0, 0.0, 0.0, 0.0, 0.0)",-0.6672609236243827,-0.571246569301158,-0.1491034642539537,"(0.0, 0.0, 0.0, 0.0, 0.0, 0.0)",1.0030940474201349,0.8428387685380714,-0.07175283017966018,"(0.0, 0.0, 0.0, 0.0, 0.0, 0.0)",0.47931159913576105,True,"(-0.027188753536986306, 0.18146907816824392, 0.023999032312408262)","(0.9963515724363559, 0.08533820454259798, -0.0009669276325201596)",-0.0014024867202723115,10.128044779325814,True,"(0.03467286478626014, 0.1798901021101725, 0.02399688466763773)","(-0.9940239572680716, -0.10911769707920535, -0.003114572403051332)",3.302024407316347e-05,5.3148529913975375
20,Move,"(-0.0004, 0.0, 0.0296)","(0.0, 0.05227784708498615, 0.0)","(0.005358704453584132, 0.1600917293439403, 0.048376282994489116)","(-0.00033699642324424753, 0.001153096698116475, 0.08420574379823215)","[0.0031714865422080344, 0.001321529334595617, 0.00042557876472535533]","[-0.026750000193715096, 0.05299999937415123, 0.03999999910593033]","[0.0, -0.0, 0.509069675547457]","[-0.06184028834104538, 0.11587027460336685, 0.03999999910593033]","[0.0, 0.0, -0.3312352215602729]","[0.026750000193715096, 0.05299999937415123, 0.03999999910593033]","[0.0, 0.0, -0.5736286005283657]","[0.06582320481538773, 0.1134754866361618, 0.03999999910593033]","[0.0, -0.0, 0.26790841466465243]",0.5084818823319572,-0.14107587753663428,"(0.0, 0.0, 0.0, 0.0, 0.0, 0.0)",-1.1507131934466166,-0.839944692124346,0.08645017789281954,"(0.0, 0.0, 0.0, 0.0, 0.0, 0.0)",-0.5934217803643036,-0.5741189557437454,-0.11768352912103319,"(0.0, 0.0, 0.0, 0.0, 0.0, 0.0)",0.8862053357694385,0.841252417204096,-0.06831095498416521,"(0.0, 0.0, 0.0, 0.0, 0.0, 0.0)",0.45095581349317865,True,"(-0.026878032582006633, 0.1815443157258534, 0.023998860376214758)","(0.9964388653592241, 0.0843106789843825, -0.0011388638260276366)",-0.0012289169687276775,9.257472875936694,True,"(0.03516022762969982, 0.17991490221476564, 0.02399688466763773)","(-0.9940239572680716, -0.10911769707920535, -0.003114572403051332)",3.874024701132239e-05,3.762020882987965
21,Move,"(0.0007, 0.0, 0.033600000000000005)","(0.0, 0.0837496241569479, 0.0)","(0.005818855476678651, 0.16012365284458227, 0.04845885800207507)","(-0.0010742511567894753, 0.0010325208282080294, 0.08294756346760254)","[0.0036316375653025535, 0.0013534528352375785, 0.0005081537723113094]","[-0.026750000193715096, 0.05299999937415123, 0.03999999910593033]","[0.0, -0.0, 0.5054132060891755]","[-0.06161016970872879, 0.11599816381931305, 0.03999999910593033]","[0.0, 0.0, -0.332938592157425]","[0.026750000193715096, 0.05299999937415123, 0.03999999910593033]","[0.0, 0.0, -0.5765929994624136]","[0.06600230932235718, 0.11335939168930054, 0.03999999910593033]","[0.0, -0.0, 0.2634596337058995]",0.5047308994840425,-0.16375135653949704,"(0.0, 0.0, 0.0, 0.0, 0.0, 0.0)",-1.0922875510327095,-0.8380003621278989,0.0843457946951125,"(0.0, 0.0, 0.0, 0.0, 0.0, 0.0)",-0.5741120260866421,-0.5771403984444099,-0.13135982945151659,"(0.0, 0.0, 0.0, 0.0, 0.0, 0.0)",0.8428880361471583,0.8397861182758457,-0.06398412138446008,"(0.0, 0.0, 0.0, 0.0, 0.0, 0.0)",0.42054077364490566,True,"(-0.02653612980331184, 0.18161297740303994, 0.023998976508188656)","(0.9965458693706057, 0.08303784835809616, -0.001022731852125089)",-0.0010869112877187877,8.7396762440842,True,"(0.035635209895958295, 0.1799345608634107, 0.02399688466763773)","(-0.9940239572680716, -0.10911769707920535, -0.003114572403051332)",3.5034577063544786e-05,3.5955521660875673
22,Move,"(0.0004, 0.0, 0.0351)","(0.0, 0.04843637740134663, 0.0)","(0.006239529651234187, 0.16014128760465057, 0.048528002540272425)","(-0.0015098465059135116, 0.0007490581749448291, 0.08183739162699766)","[0.004052311739858089, 0.001371087595305881, 0.0005772983105086643]","[-0.026750000193715096, 0.05299999937415123, 0.03999999910593033]","[0.0, -0.0, 0.5019846805414341]","[-0.06139397621154785, 0.11611731350421906, 0.03999999910593033]","[0.0, 0.0, -0.3346742129098643]","[0.026750000193715096, 0.05299999937415123, 0.03999999910593033]","[0.0, 0.0, -0.5794482725604955]","[0.06617449223995209, 0.11324706673622131, 0.03999999910593033]","[0.0, -0.0, 0.2593266304709437]",0.5014124087252142,-0.13735568298918033,"(0.0, 0.0, 0.0, 0.0, 0.0, 0.0)",-0.9137992446719209,-0.8363690803193881,0.06955295422549686,"(0.0, 0.0, 0.0, 0.0, 0.0, 0.0)",-0.47845042060082754,-0.5799373134916388,-0.11736191037023835,"(0.0, 0.0, 0.0, 0.0, 0.0, 0.0)",0.6955327586785106,0.8385544293596948,-0.05291711576469513,"(0.0, 0.0, 0.0, 0.0, 0.0, 0.0)",0.34708281404966096,True,"(-0.02620616227259094, 0.18167176097717308, 0.023999254574220485)","(0.9966388956763131, 0.08191676933275091, -0.0007446658203003767)",-0.0009558423005939251,7.319311080194005,True,"(0.036082806690668386, 0.17994717972469323, 0.02399688466763773)","(-0.9940239572680716, -0.10911769707920535, -0.003114572403051332)",2.6202918137184672e-05,3.1318212907813243
23,Move,"(-0.002, 0.0, 0.0386)","(0.0, 0.035936329298563253, 0.0)","(0.006406300687449976, 0.16016594804427003, 0.048585707492774986)","(-0.0017777757520524265, 0.000521013105662838, 0.08173282590752488)","[0.004219082776073878, 0.0013957480349253426, 0.000635003263011226]","[-0.026750000193715096, 0.05299999937415123, 0.03999999910593033]","[0.0, -0.0, 0.5004156610663054]","[-0.06129490211606026, 0.11617159098386765, 0.03999999910593033]","[0.0, 0.0, -0.33487665007393447]","[0.026750000193715096, 0.05299999937415123, 0.03999999910593033]","[0.0, 0.0, -0.58062122906893]","[0.06624513119459152, 0.11320079118013382, 0.03999999910593033]","[0.0, -0.0, 0.2570495766886559]",0.5002870454519948,-0.0308787653840622,"(0.0, 0.0, 0.0, 0.0, 0.0, 0.0)",-0.7849081641062264,-0.8350625748141228,0.055145599404387874,"(0.0, 0.0, 0.0, 0.0, 0.0, 0.0)",-0.3867133756825669,-0.5806873189989438,-0.015869198847621807,"(0.0, 0.0, 0.0, 0.0, 0.0, 0.0)",0.5656145501342396,0.8374767716751904,-0.04655336698217835,"(0.0, 0.0, 0.0, 0.0, 0.0, 0.0)",0.29999466738543895,True,"(-0.026093805651535414, 0.1817188050824599, 0.023999485048740058)","(0.9966645355671807, 0.08160599947284428, -0.0005141913007245491)",-0.0008389638605325863,6.295118506133602,True,"(0.03630540122572283, 0.17996924537761283, 0.02399688466763773)","(-0.9940239572680716, -0.10911769707920535, -0.003114572403051332)",1.9634690450756243e-05,2.850949988675608
24,Move,"(-0.0026000000000000003, 0.0, 0.040600000000000004)","(0.0, 0.022656119020138393, 0.0)","(0.00648152472088396, 0.1601880003658188, 0.04863660014929485)","(-0.0019415196764414329, 0.0003780531879388983, 0.08193917613405675)","[0.004294306809507863, 0.001417800356474097, 0.000685895919531089]","[-0.026750000193715096, 0.05299999937415123, 0.03999999910593033]","[0.0, -0.0, 0.499977399596861]","[-0.06126721203327179, 0.11618672311306, 0.03999999910593033]","[0.0, 0.0, -0.3341747306504787]","[0.026750000193715096, 0.05299999937415123, 0.03999999910593033]","[0.0, 0.0, -0.5807400353424519]","[0.06625227630138397, 0.11319609731435776, 0.03999999910593033]","[0.0, -0.0, 0.2559643285185301]",0.4999260111925512,-0.012337467989896989,"(0.0, 0.0, 0.0, 0.0, 0.0, 0.0)",-0.6871701779216232,-0.833953952933052,0.047566091624014685,"(0.0, 0.0, 0.0, 0.0, 0.0, 0.0)",-0.3331067873331608,-0.5807386218658176,0.00031972610461728217,"(0.0, 0.0, 0.0, 0.0, 0.0, 0.0)",0.486000338790993,0.8365344851482047,-0.04075770811277334,"(0.0, 0.0, 0.0, 0.0, 0.0, 0.0)",0.2604240490226372,True,"(-0.026112089131102502, 0.18175811143309836, 0.02399963141711599)","(0.9966499014593616, 0.08178532036582715, -0.00036782292479154024)",-0.0007382617773403545,5.5182345334444385,True,"(0.03638502439435702, 0.17999700566663315, 0.02399688466763773)","(-0.9940239572680716, -0.10911769707920535, -0.003114572403051332)",1.4267740597448987e-05,2.630548482861819
25,Move,"(0.0013000000000000002, 0.0, 0.041600000000000005)","(0.0, 0.001291543646475804, 0.0)","(0.006905882016943553, 0.160126647746271, 0.04862861404342881)","(4.508242755639691e-05, 0.00012847277668424423, 0.08050713818221078)","[0.004718664105567455, 0.0013564477369263084, 0.0006779098136650494]","[-0.026750000193715096, 0.05299999937415123, 0.03999999910593033]","[0.0, -0.0, 0.4972175305656984]","[-0.061092693358659744, 0.11628174781799316, 0.03999999910593033]","[0.0, 0.0, -0.3357985961837691]","[0.026750000193715096, 0.05299999937415123, 0.03999999910593033]","[0.0, 0.0, -0.5831259556623994]","[0.06639578938484192, 0.11310167610645294, 0.03999999910593033]","[0.0, -0.0, 0.252740163187107]",0.49650147262294114,-0.171850980624488,"(0.0, 0.0, 0.0, 0.0, 0.0, 0.0)",-0.5934504704370593,-0.8328021717054447,0.051352293208937624,"(0.0, 0.0, 0.0, 0.0, 0.0, 0.0)",-0.33552816709576166,-0.5837697996135193,-0.15453148516747225,"(0.0, 0.0, 0.0, 0.0, 0.0, 0.0)",0.5181391478883344,0.8357229744300227,-0.03434457787658438,"(0.0, 0.0, 0.0, 0.0, 0.0, 0.0)",0.230369032546155,True,"(-0.025831174191866965, 0.1817964543162177, 0.023999804100634965)","(0.9967415734869223, 0.08066100423021474, -0.00019513940581850647)",-0.0006472248476492714,4.699791127163317,True,"(0.03674407168221678, 0.17999853389861792, 0.02399688466763773)","(-0.9940239572680716, -0.10911769707920535, -0.003114572403051332)",7.258941588567269e-06,3.0622627753147085
26,Move,"(0.0013000000000000002, 0.0, 0.0432)","(0.0, 0.0008464846872172499, 0.0)","(0.007306742779447705, 0.1601398287155597, 0.048691012652429234)","(-0.00040289686634656564, 0.0003149073736875928, 0.07856684252955808)","[0.005119524868071608, 0.0013696287062150148, 0.0007403084226654741]","[-0.026750000193715096, 0.05299999937415123, 0.03999999910593033]","[0.0, -0.0, 0.4936301986150554]","[-0.060865458101034164, 0.11640454083681107, 0.03999999910593033]","[0.0, 0.0, -0.33828263322764157]","[0.026750000193715096, 0.05299999937415123, 0.03999999910593033]","[0.0, 0.0, -0.5862900832870676]","[0.06658576428890228, 0.11297593265771866, 0.03999999910593033]","[0.0, -0.0, 0.24878621140061322]",0.493030758555022,-0.14386553722600187,"(0.0, 0.0, 0.0, 0.0, 0.0, 0.0)",-0.5851467496970746,-0.8317215207857999,0.04591704160923511,"(0.0, 0.0, 0.0, 0.0, 0.0, 0.0)",-0.3202128119998726,-0.5868121508624361,-0.1253023596055014,"(0.0, 0.0, 0.0, 0.0, 0.0, 0.0)",0.4509790129300271,0.8349374381663248,-0.03331962484309057,"(0.0, 0.0, 0.0, 0.0, 0.0, 0.0)",0.21626566975541317,True,"(-0.025441355610380897, 0.18183202176197683, 0.023999680814601396)","(0.9968940355508088, 0.07875392363852342, -0.0003184254393853146)",-0.0005772630944412313,4.684915697306623,True,"(0.037198780645376184, 0.1799895065155908, 0.02399688466763773)","(-0.9940239572680716, -0.10911769707920535, -0.003114572403051332)",1.3401400221125158e-05,1.9094744870430582
27,Move,"(0.0016, 0.0, 0.0443)","(0.0, 0.014041173832294382, 0.0)","(0.007687295815799363, 0.16013335729293768, 0.04873167659651029)","(-0.0006975556910134484, 0.00015823303365316354, 0.07705349542124715)","[0.005500077904423266, 0.0013631572835929862, 0.0007809723667465268]","[-0.026750000193715096, 0.05299999937415123, 0.03999999910593033]","[0.0, -0.0, 0.4903533985665737]","[-0.06065751239657402, 0.11651598662137985, 0.03999999910593033]","[0.0, 0.0, -0.34056999470100396]","[0.026750000193715096, 0.05299999937415123, 0.03999999910593033]","[0.0, 0.0, -0.5891412224154055]","[0.06675660610198975, 0.11286210268735886, 0.03999999910593033]","[0.0, -0.0, 0.24522978448548077]",0.48977887710389495,-0.1378854088832425,"(0.0, 0.0, 0.0, 0.0, 0.0, 0.0)",-0.5304154274100745,-0.8307481387730835,0.042061732083044354,"(0.0, 0.0, 0.0, 0.0, 0.0, 0.0)",-0.2928487293226272,-0.5896417084987337,-0.12010582701062333,"(0.0, 0.0, 0.0, 0.0, 0.0, 0.0)",0.406602170487805,0.8342457304783696,-0.03007835549716548,"(0.0, 0.0, 0.0, 0.0, 0.0, 0.0)",0.19253770814636184,True,"(-0.02508390379579495, 0.18186302273821098, 0.023999837534776244)","(0.997013749747, 0.07722406792467013, -0.00016170526453937359)",-0.0005128654919026078,4.235242527671029,True,"(0.037608136412725535, 0.17997977128061318, 0.02399688466763773)","(-0.9940239572680716, -0.10911769707920535, -0.003114572403051332)",1.0033662148734079e-05,1.793054065353822
28,Move,"(-0.0013000000000000002, 0.0, 0.0455)","(0.0, 0.007356562797156099, 0.0)","(0.0077800723781268, 0.16014738056118735, 0.04875593385264692)","(-0.0009219948482104561, 3.567101625847007e-05, 0.07698664864039396)","[0.005592854466750702, 0.0013771805518426605, 0.0008052296228831593]","[-0.026750000193715096, 0.05299999937415123, 0.03999999910593033]","[0.0, -0.0, 0.4891000994840705]","[-0.0605778805911541, 0.11655843257904053, 0.03999999910593033]","[0.0, 0.0, -0.34099138418724845]","[0.026750000193715096, 0.05299999937415123, 0.03999999910593033]","[0.0, 0.0, -0.5900696854654524]","[0.06681215763092041, 0.1128249391913414, 0.03999999910593033]","[0.0, -0.0, 0.2436484086519406]",0.48905751025539473,-0.010224594997738524,"(0.0, 0.0, 0.0, 0.0, 0.0, 0.0)",-0.5074828288118725,-0.8299454600984015,0.035046937490530145,"(0.0, 0.0, 0.0, 0.0, 0.0, 0.0)",-0.2464635581046975,-0.5900640027637841,0.0013553616262929858,"(0.0, 0.0, 0.0, 0.0, 0.0, 0.0)",0.3468316990715917,0.8335996607398827,-0.02841566783248904,"(0.0, 0.0, 0.0, 0.0, 0.0, 0.0)",0.18685012743473892,True,"(-0.02497675690437677, 0.18189068358407579, 0.02399993949771227)","(0.9970477851542258, 0.07678353046003347, -5.974232851681224e-05)",-0.00045784343450265536,3.6125902330094077,True,"(0.03776986904511018, 0.1799886149210326, 0.02399688466763773)","(-0.9940239572680716, -0.10911769707920535, -0.003114572403051332)",1.109023521694426e-05,1.4267189378246306
29,Move,"(0.0033, 0.0, 0.0451)","(0.0, 0.011859512267301468, 0.0)","(0.008226487601578087, 0.16013464389183585, 0.04878829693575602)","(-0.0010425727142146033, 1.2741631710223562e-05, 0.07461882531756166)","[0.006039269690201989, 0.0013644438824911564, 0.0008375927059922628]","[-0.026750000193715096, 0.05299999937415123, 0.03999999910593033]","[0.0, -0.0, 0.48594724705859216]","[-0.060377322137355804, 0.11666477471590042, 0.03999999910593033]","[0.0, 0.0, -0.3432493743210479]","[0.026750000193715096, 0.05299999937415123, 0.03999999910593033]","[0.0, 0.0, -0.5928081327293762]","[0.06697583943605423, 0.11271500587463379, 0.03999999910593033]","[0.0, -0.0, 0.24027204345095188]",0.48512139668266546,-0.19820623980630997,"(0.0, 0.0, 0.0, 0.0, 0.0, 0.0)",-0.5059828678170463,-0.8290212985706595,0.042073584647270554,"(0.0, 0.0, 0.0, 0.0, 0.0, 0.0)",-0.29266042125228037,-0.5935480665838665,-0.17758832878617753,"(0.0, 0.0, 0.0, 0.0, 0.0, 0.0)",0.4189133840973264,0.83296194138218,-0.028378163363363133,"(0.0, 0.0, 0.0, 0.0, 0.0, 0.0)",0.1861773888421177,True,"(-0.024628770900888497, 0.1819164691182273, 0.02399993949771227)","(0.9970477851542258, 0.07678353046003347, -5.974232851681224e-05)",-0.00040145087491321645,3.594200598995294,True,"(0.038160479692269225, 0.17997635557392283, 0.02399688466763773)","(-0.9940239572680716, -0.10911769707920535, -0.003114572403051332)",9.304038405618036e-06,1.498632647685089
30,Move,"(0.0025, 0.0, 0.0458)","(0.0, 0.009995500626171527, 0.0)","(0.008608717594452791, 0.16011002767390212, 0.048818986784369064)","(-0.0007333519405181177, 0.00012284962282760236, 0.0727176766845205)","[0.006421499683076693, 0.0013398276645574247, 0.0008682825546053041]","[-0.026750000193715096, 0.05299999937415123, 0.03999999910593033]","[0.0, -0.0, 0.4822900880271473]","[-0.06014426797628403, 0.11678732186555862, 0.03999999910593033]","[0.0, 0.0, -0.3460504850416449]","[0.026750000193715096, 0.05299999937415123, 0.03999999910593033]","[0.0, 0.0, -0.5960323022273071]","[0.06716816127300262, 0.11258500069379807, 0.03999999910593033]","[0.0, -0.0, 0.2364597685942183]",0.48172886889218164,-0.1346954899320539,"(0.0, 0.0, 0.0, 0.0, 0.0, 0.0)",-0.4605556080551284,-0.8282015749527499,0.03335567220867068,"(0.0, 0.0, 0.0, 0.0, 0.0, 0.0)",-0.2526603322308251,-0.5965211760857378,-0.11732089912546664,"(0.0, 0.0, 0.0, 0.0, 0.0, 0.0)",0.35061005978062243,0.8324000949532683,-0.022088201259907847,"(0.0, 0.0, 0.0, 0.0, 0.0, 0.0)",0.15157287126169003,True,"(-0.02421307799953802, 0.1819386320558617, 0.02399993949771227)","(0.9970477851542258, 0.07678353046003347, -5.974232851681224e-05)",-0.00035932200863685824,3.4092829320032405,True,"(0.03860943257795136, 0.17995571144029787, 0.02399688466763773)","(-0.9940239572680716, -0.10911769707920535, -0.003114572403051332)",1.3654928495222819e-05,0.6564891224526294
31,Move,"(0.0003, 0.0, 0.047)","(0.0, 0.016334536469414934, 0.0)","(0.008749601497781001, 0.16009726693679374, 0.0488314436149345)","(8.517244277668155e-05, 0.0005424573804675994, 0.07253607461712083)","[0.0065623835864049036, 0.0013270669274490499, 0.000880739385170741]","[-0.026750000193715096, 0.05299999937415123, 0.03999999910593033]","[0.0, -0.0, 0.48067640988646426]","[-0.060041286051273346, 0.11684112995862961, 0.03999999910593033]","[0.0, 0.0, -0.34695471163214664]","[0.026750000193715096, 0.05299999937415123, 0.03999999910593033]","[0.0, 0.0, -0.5973117616047281]","[0.06724436581134796, 0.11253324151039124, 0.03999999910593033]","[0.0, -0.0, 0.23469237737779486]",0.4805291680935297,-0.03532403941389633,"(0.0, 0.0, 0.0, 0.0, 0.0, 0.0)",-0.42678277130531544,-0.8275090215989358,0.02928764552422642,"(0.0, 0.0, 0.0, 0.0, 0.0, 0.0)",-0.21050966660225978,-0.5974061521854351,-0.02266218715059629,"(0.0, 0.0, 0.0, 0.0, 0.0, 0.0)",0.2819750537599004,0.8319166203953009,-0.02099220098932025,"(0.0, 0.0, 0.0, 0.0, 0.0, 0.0)",0.1296532527086481,True,"(-0.024051298585537853, 0.18196129327047278, 0.0239995404622558)","(0.9973727193776329, 0.07243927225068951, -0.00045877778498318626)",-0.00033539010844096256,3.2496704877481344,True,"(0.03880474924510086, 0.17995432246596021, 0.02399688466763773)","(-0.9940239572680716, -0.10911769707920535, -0.003114572403051332)",2.5320343220337637e-05,0.0
32,Move,"(-0.0009000000000000001, 0.0, 0.047200000000000006)","(0.0, 0.011859512267301468, 0.0)","(0.008758472671988433, 0.1601090573745142, 0.04886899691178805)","(-0.0001759892214438251, 0.0004621114407204262, 0.07256790306518038)","[0.006571254760612336, 0.0013388573651695046, 0.0009182926820242923]","[-0.026750000193715096, 0.05299999937415123, 0.03999999910593033]","[0.0, -0.0, 0.48052013554785883]","[-0.060031309723854065, 0.11684633046388626, 0.03999999910593033]","[0.0, 0.0, -0.346621468925167]","[0.026750000193715096, 0.05299999937415123, 0.03999999910593033]","[0.0, 0.0, -0.5972016890185582]","[0.06723780930042267, 0.1125376969575882, 0.03999999910593033]","[0.0, -0.0, 0.2342863858943382]",0.4805536416041436,0.008055042298951674,"(0.0, 0.0, 0.0, 0.0, 0.0, 0.0)",-0.28339673982498115,-0.8270637151954204,0.01867172191690464,"(0.0, 0.0, 0.0, 0.0, 0.0, 0.0)",-0.13051012401518045,-0.5971243204788547,0.01856313448797271,"(0.0, 0.0, 0.0, 0.0, 0.0, 0.0)",0.3023637793579689,0.8313866362685489,-0.02434545348282288,"(0.0, 0.0, 0.0, 0.0, 0.0, 0.0)",0.16020501812438775,True,"(-0.02406300585210308, 0.18197820956271782, 0.023999497158353613)","(0.9973686085288199, 0.07249556286604682, -0.0005020816871684647)",-0.0002980168650679613,2.008119655155645,True,"(0.03882556891334029, 0.1799703184785441, 0.02399688466763773)","(-0.9940239572680716, -0.10911769707920535, -0.003114572403051332)",2.0088854150061425e-05,0.0
33,Move,"(-0.0003, 0.0, 0.047700000000000006)","(0.0, 0.01603957582582789, 0.0)","(0.00878630412143638, 0.16012118375538123, 0.04889341212411152)","(-0.0003529395654837902, 0.0006943992812719856, 0.07276194839600704)","[0.006599086210060282, 0.0013509837460365381, 0.0009427078943477565]","[-0.026750000193715096, 0.05299999937415123, 0.03999999910593033]","[0.0, -0.0, 0.48032043490881154]","[-0.06001856550574303, 0.11685297638177872, 0.03999999910593033]","[0.0, 0.0, -0.3462816885698001]","[0.026750000193715096, 0.05299999937415123, 0.03999999910593033]","[0.0, 0.0, -0.597135565701303]","[0.0672338679432869, 0.11254037916660309, 0.03999999910593033]","[0.0, -0.0, 0.23389016705589252]",0.4802486307427934,-0.017237475144571687,"(0.0, 0.0, 0.0, 0.0, 0.0, 0.0)",-0.35755032488537697,-0.8265031798259577,0.023741006773794898,"(0.0, 0.0, 0.0, 0.0, 0.0, 0.0)",-0.1702094003965221,-0.5971569056352912,-0.00514524832434968,"(0.0, 0.0, 0.0, 0.0, 0.0, 0.0)",0.22256764501096926,0.8309549227420512,-0.016970129364348108,"(0.0, 0.0, 0.0, 0.0, 0.0, 0.0)",0.11456472138455144,True,"(-0.024072379950481643, 0.1819968907039253, 0.02399936184339606)","(0.9973569123380677, 0.0726552347528623, -0.0006373966447215375)",-0.00027880578401869163,2.8092851124773617,True,"(0.03884834946308622, 0.1799842515258121, 0.02399688466763773)","(-0.9940239572680716, -0.10911769707920535, -0.003114572403051332)",3.1334210674818684e-05,0.0
34,Move,"(0.0033, 0.0, 0.048600000000000004)","(0.0, 0.016334536469414934, 0.0)","(0.009127390078269425, 0.16008424430239201, 0.04891700826818979)","(-0.0005149713220606351, 0.0008114761772374924, 0.07066170476193213)","[0.006940172166893327, 0.0013140442930473228, 0.0009663040384260274]","[-0.026750000193715096, 0.05299999937415123, 0.03999999910593033]","[0.0, -0.0, 0.47774012844091696]","[-0.0598536916077137, 0.11693860590457916, 0.03999999910593033]","[0.0, 0.0, -0.34825110199873555]","[0.026750000193715096, 0.05299999937415123, 0.03999999910593033]","[0.0, 0.0, -0.5993132012372039]","[0.0673634335398674, 0.11245207488536835, 0.03999999910593033]","[0.0, -0.0, 0.23130375820023968]",0.4770827860474838,-0.15776039976727985,"(0.0, 0.0, 0.0, 0.0, 0.0, 0.0)",-0.36291752736281424,-0.8258732714263705,0.02830677574035123,"(0.0, 0.0, 0.0, 0.0, 0.0, 0.0)",-0.21003678717802107,-0.5998883356985927,-0.1380420928782547,"(0.0, 0.0, 0.0, 0.0, 0.0, 0.0)",0.28596550975300705,0.830539070063029,-0.018685883875684293,"(0.0, 0.0, 0.0, 0.0, 0.0, 0.0)",0.11982555558418395,True,"(-0.023779304399829296, 0.18201194751177807, 0.023999197233348018)","(0.9974733725858947, 0.07103680572340854, -0.000802006692767796)",-0.00026141486468589647,2.745550311534812,True,"(0.03915244541770053, 0.17996913952550206, 0.02399688466763773)","(-0.9940239572680716, -0.10911769707920535, -0.003114572403051332)",3.659718440375033e-05,0.0
35,Move,"(0.0002, 0.0, 0.048)","(0.0, 0.016334536469414934, 0.0)","(0.009207635233036466, 0.16008467861768916, 0.048928498068001654)","(-0.0006299145587959328, 0.0010344738019064665, 0.07054364183920658)","[0.007020417321660368, 0.001314478608344466, 0.0009777938382378934]","[-0.026750000193715096, 0.05299999937415123, 0.03999999910593033]","[0.0, -0.0, 0.4763388273482197]","[-0.059764061123132706, 0.11698493361473083, 0.03999999910593033]","[0.0, 0.0, -0.3491008734449475]","[0.026750000193715096, 0.05299999937415123, 0.03999999910593033]","[0.0, 0.0, -0.6003741030441939]","[0.06742648035287857, 0.11240895092487335, 0.03999999910593033]","[0.0, -0.0, 0.22984308294386105]",0.4762975521598752,-0.009903398309721576,"(0.0, 0.0, 0.0, 0.0, 0.0, 0.0)",-0.3040069442611482,-0.8253518559256917,0.021079699072402924,"(0.0, 0.0, 0.0, 0.0, 0.0, 0.0)",-0.1455791252603225,-0.600365243525116,0.0021162296980125317,"(0.0, 0.0, 0.0, 0.0, 0.0, 0.0)",0.21215475998881658,0.8301495097403754,-0.01622796238669087,"(0.0, 0.0, 0.0, 0.0, 0.0, 0.0)",0.11066254094691744,True,"(-0.0236344061014334, 0.1820278249133574, 0.023999017797076656)","(0.9975169728611145, 0.07041963947441492, -0.0009814429641275863)",-0.0002504816285450065,2.3684062445170158,True,"(0.03931414771334952, 0.1799671550682721, 0.02399688466763773)","(-0.9940239572680716, -0.10911769707920535, -0.003114572403051332)",4.650961220097739e-05,0.0
36,Move,"(0.0014, 0.0, 0.048299999999999996)","(0.0, 0.016334536469414934, 0.0)","(0.009354381139053864, 0.1600826076746246, 0.04893867548647018)","(-0.0006989607138915415, 0.0011441210431831314, 0.07018148799617743)","[0.007167163227677766, 0.0013124076652799022, 0.0009879712567064172]","[-0.026750000193715096, 0.05299999937415123, 0.03999999910593033]","[0.0, -0.0, 0.47523003331649455]","[-0.059693098068237305, 0.11702150106430054, 0.03999999910593033]","[0.0, 0.0, -0.3496700993163707]","[0.026750000193715096, 0.05299999937415123, 0.03999999910593033]","[0.0, 0.0, -0.6011523382334278]","[0.06747271120548248, 0.11237727850675583, 0.03999999910593033]","[0.0, -0.0, 0.2286895519019468]",0.474953141294223,-0.06645599281853032,"(0.0, 0.0, 0.0, 0.0, 0.0, 0.0)",-0.34168379959400413,-0.8247960659873743,0.024976861483690674,"(0.0, 0.0, 0.0, 0.0, 0.0, 0.0)",-0.18728259030935288,-0.6013663690613228,-0.05136465896761131,"(0.0, 0.0, 0.0, 0.0, 0.0, 0.0)",0.2301258693428553,0.8297730493382115,-0.01652153842918398,"(0.0, 0.0, 0.0, 0.0, 0.0, 0.0)",0.10445520349113131,True,"(-0.02352644668486103, 0.18204415174364272, 0.023998873340050207)","(0.9975330616168344, 0.07018919667980517, -0.0011258999905737529)",-0.00023716767262804564,2.5964590203417357,True,"(0.039438321500459096, 0.17996786238571408, 0.02399688466763773)","(-0.9940239572680716, -0.10911769707920535, -0.003114572403051332)",5.015171301099696e-05,0.0
