OSUrobotics/InHand-Manipulation/AnalyseData/Data/Trial Data/Tries/new_hand_human_sub1_2v2_d_n_1_kpNone_kdNone_dp3_step2_save_data.csv
,Phase,human_cube_pos,human_cube_orn,Cube_Pos,Cube_Orn,Cube_pos_in_start_pos,b'l_prox_pin'_link_pos,b'l_prox_pin'_link_orn,b'l_distal_pin'_link_pos,b'l_distal_pin'_link_orn,b'r_prox_pin'_link_pos,b'r_prox_pin'_link_orn,b'r_distal_pin'_link_pos,b'r_distal_pin'_link_orn,b'l_prox_pin'_joint_angle,b'l_prox_pin'_joint_vel,b'l_prox_pin'_joint_react_forces,b'l_prox_pin'_joint_motor_torque,b'l_distal_pin'_joint_angle,b'l_distal_pin'_joint_vel,b'l_distal_pin'_joint_react_forces,b'l_distal_pin'_joint_motor_torque,b'r_prox_pin'_joint_angle,b'r_prox_pin'_joint_vel,b'r_prox_pin'_joint_react_forces,b'r_prox_pin'_joint_motor_torque,b'r_distal_pin'_joint_angle,b'r_distal_pin'_joint_vel,b'r_distal_pin'_joint_react_forces,b'r_distal_pin'_joint_motor_torque,in_contact_l,contact_point_l_dist,contact_normal_l_dist,contact_distance_l_dist,contact_norm_force_l_dist,in_contact_r,contact_point_r_dist,contact_normal_r_dist,contact_distance_r_dist,contact_norm_force_r_dist
0,Open,,,,,,"[-0.026750000193715096, 0.05299999937415123, 0.03999999910593033]","[0.0, -0.0, 0.0]","[-0.026750000193715096, 0.125, 0.03999999910593033]","[0.0, -0.0, 5.883223447970011e-32]","[0.026750000193715096, 0.05299999937415123, 0.03999999910593033]","[0.0, 0.0, -0.008068665592501188]","[0.02733093686401844, 0.12499765306711197, 0.03999999910593033]","[0.0, 0.0, -0.0780932845685428]",0.157,37.68,"(0.0, 0.0, 0.0, 0.0, 0.0, 0.0)",54.702693795169004,5.294901130302062e-32,-1.4119736347472162e-30,"(0.0, 0.0, 0.0, 0.0, 0.0, 0.0)",3.9113724975844915,-0.1670280316324969,-38.150247946082466,"(0.0, 0.0, 0.0, 0.0, 0.0, 0.0)",-25.93345404555236,-0.0659493391739072,0.9780670797324476,"(0.0, 0.0, 0.0, 0.0, 0.0, 0.0)",-6.754749483880455,False,,,,,False,,,,
1,Open,,,,,,"[-0.026750000193715096, 0.05299999937415123, 0.03999999910593033]","[0.0, -0.0, 0.29830000998707634]","[-0.04791048914194107, 0.12182030081748962, 0.03999999910593033]","[0.0, -0.0, 0.29830000998707634]","[0.026750000193715096, 0.05299999937415123, 0.03999999910593033]","[0.0, 0.0, -0.3122944642903269]","[0.048871491104364395, 0.12151744216680527, 0.03999999910593033]","[0.0, 0.0, -0.3793531994353912]",0.42546999999999996,30.5208,"(0.0, 0.0, 0.0, 0.0, 0.0, 0.0)",-4.858074537215091,5.294901130302062e-32,0.0,"(0.0, 0.0, 0.0, 0.0, 0.0, 0.0)",-0.33154044974508506,-0.44292449566296654,-31.35120824461403,"(0.0, 0.0, 0.0, 0.0, 0.0, 0.0)",100.88457241511576,-0.08373770380977785,-4.0029668326633345,"(0.0, 0.0, 0.0, 0.0, 0.0, 0.0)",24.077304806401806,False,,,,,False,,,,
2,Open,,,,,,"[-0.026750000193715096, 0.05299999937415123, 0.03999999910593033]","[0.0, -0.0, 0.5399230359738098]","[-0.06376303732395172, 0.11475787311792374, 0.03999999910593033]","[0.0, -0.0, 0.5399230359738098]","[0.026750000193715096, 0.05299999937415123, 0.03999999910593033]","[0.0, 0.0, -0.5623038790270362]","[0.06513584405183792, 0.11391409486532211, 0.03999999910593033]","[0.0, 0.0, -0.6668711870723439]",0.6429307,24.721848,"(0.0, 0.0, 0.0, 0.0, 0.0, 0.0)",-3.943806903965684,5.294901130302062e-32,0.0,"(0.0, 0.0, 0.0, 0.0, 0.0, 0.0)",-0.2716098155097054,-0.6673401099248648,-25.208696742335626,"(0.0, 0.0, 0.0, 0.0, 0.0, 0.0)",94.97739775913854,-0.11755295807544866,-3.116564819203918,"(0.0, 0.0, 0.0, 0.0, 0.0, 0.0)",25.79194570087013,False,,,,,False,,,,
3,Open,,,,,,"[-0.026750000193715096, 0.05299999937415123, 0.03999999910593033]","[0.0, -0.0, 0.7356376306875043]","[-0.07506632059812546, 0.10638101398944855, 0.03999999910593033]","[0.0, -0.0, 0.7356376306875043]","[0.026750000193715096, 0.05299999937415123, 0.03999999910593033]","[0.0, 0.0, -0.757991847340814]","[0.076247438788414, 0.10528770089149475, 0.03999999910593033]","[0.0, 0.0, -0.8659334873334429]",0.8190738670000001,20.024696880000004,"(0.0, 0.0, 0.0, 0.0, 0.0, 0.0)",-3.2002295086701533,2.3293280891773424e-07,5.5903874140256216e-05,"(0.0, 0.0, 0.0, 0.0, 0.0, 0.0)",-0.22200715926400075,-0.8391926082762636,-19.488197112632974,"(0.0, 0.0, 0.0, 0.0, 0.0, 0.0)",3.295349739497939,-0.09714776835574307,2.590534961280482,"(0.0, 0.0, 0.0, 0.0, 0.0, 0.0)",0.25803221970863044,False,,,,,False,,,,
4,Open,,,,,,"[-0.026750000193715096, 0.05299999937415123, 0.03999999910593033]","[0.0, -0.0, 0.894166469119967]","[-0.08288749307394028, 0.09808415919542313, 0.03999999910593033]","[0.0, -0.0, 0.894166894674561]","[0.026750000193715096, 0.05299999937415123, 0.03999999910593033]","[0.0, 0.0, -0.9122733503889549]","[0.08369457721710205, 0.09706035256385803, 0.03999999910593033]","[0.0, 0.0, -0.9997066729229968]",0.96174983227,16.220004472800003,"(0.0, 0.0, 0.0, 0.0, 0.0, 0.0)",-2.5959652512206968,5.681494863714967e-07,3.553320838026869e-05,"(0.0, 0.0, 0.0, 0.0, 0.0, 0.0)",-0.18114955764248034,-0.9780460127037736,-15.785439661232708,"(0.0, 0.0, 0.0, 0.0, 0.0, 0.0)",2.503992476159733,-0.0786900142246732,2.098357403184359,"(0.0, 0.0, 0.0, 0.0, 0.0, 0.0)",0.15360133560797545,False,,,,,False,,,,
5,Open,,,,,,"[-0.026750000193715096, 0.05299999937415123, 0.03999999910593033]","[0.0, -0.0, 1.0225748785172661]","[-0.08819860219955444, 0.09052424877882004, 0.03999999910593033]","[0.0, -0.0, 1.0225755149967983]","[0.026750000193715096, 0.05299999937415123, 0.03999999910593033]","[0.0, 0.0, -1.037241417801626]","[0.08874232321977615, 0.08961901068687439, 0.03999999910593033]","[0.0, 0.0, -1.1080626941470386]",1.0773173641387,13.138203622968001,"(0.0, 0.0, 0.0, 0.0, 0.0, 0.0)",-2.105207702642618,7.694903593429899e-07,2.0776129443188934e-05,"(0.0, 0.0, 0.0, 0.0, 0.0, 0.0)",-0.14759587787833617,-1.0905172702900567,-12.78620612559849,"(0.0, 0.0, 0.0, 0.0, 0.0, 0.0)",2.0303755786213302,-0.06373917358809339,1.6996763127328351,"(0.0, 0.0, 0.0, 0.0, 0.0, 0.0)",0.1250328149112744,False,,,,,False,,,,
6,Open,,,,,,"[-0.026750000193715096, 0.05299999937415123, 0.03999999910593033]","[0.0, -0.0, 1.126585512342968]","[-0.09176240861415863, 0.08394166082143784, 0.03999999910593033]","[0.0, -0.0, 1.1265864725026016]","[0.026750000193715096, 0.05299999937415123, 0.03999999910593033]","[0.0, 0.0, -1.13846552283997]","[0.09212540090084076, 0.08316715806722641, 0.03999999910593033]","[0.0, 0.0, -1.1958309904194953]",1.1709270649523469,10.641944934604087,"(0.0, 0.0, 0.0, 0.0, 0.0, 0.0)",-1.7068426281171958,8.750681698751778e-07,1.0273240928962424e-05,"(0.0, 0.0, 0.0, 0.0, 0.0, 0.0)",-0.12011999884119333,-1.181618988934946,-10.356826961734775,"(0.0, 0.0, 0.0, 0.0, 0.0, 0.0)",1.6460093571929852,-0.051628943774705546,1.376743384776279,"(0.0, 0.0, 0.0, 0.0, 0.0, 0.0)",0.10168054944364863,False,,,,,False,,,,
7,Open,,,,,,"[-0.026750000193715096, 0.05299999937415123, 0.03999999910593033]","[0.0, -0.0, 1.2108343955497323]","[-0.09413553774356842, 0.07836118340492249, 0.03999999910593033]","[0.0, -0.0, 1.210835255049739]","[0.026750000193715096, 0.05299999937415123, 0.03999999910593033]","[0.0, 0.0, -1.2204571829136446]","[0.09437645971775055, 0.07771158218383789, 0.03999999910593033]","[0.0, 0.0, -1.2669233179031547]",1.2467509226114009,8.619975397029307,"(0.0, 0.0, 0.0, 0.0, 0.0, 0.0)",-1.3836082777937824,9.135722823677317e-07,2.9650129412077397e-06,"(0.0, 0.0, 0.0, 0.0, 0.0, 0.0)",-0.09766941677677543,-1.2554113810373062,-8.38902983900517,"(0.0, 0.0, 0.0, 0.0, 0.0, 0.0)",1.334189480132575,-0.04181961771093252,1.1151666876061868,"(0.0, 0.0, 0.0, 0.0, 0.0, 0.0)",0.08262627878010878,False,,,,,False,,,,
8,Open,,,,,,"[-0.026750000193715096, 0.05299999937415123, 0.03999999910593033]","[0.0, -0.0, 1.2790758758817962]","[-0.09570803493261337, 0.0737072303891182, 0.03999999910593033]","[0.0, -0.0, 1.2790780932516201]","[0.026750000193715096, 0.05299999937415123, 0.03999999910593033]","[0.0, 0.0, -1.2868702529032277]","[0.0958673357963562, 0.07316911965608597, 0.03999999910593033]","[0.0, 0.0, -1.3245087793274308]",1.3081682532711112,6.982181501004109,"(0.0, 0.0, 0.0, 0.0, 0.0, 0.0)",-1.12145472366965,1.9027582300258812e-06,-5.0740219467356254e-05,"(0.0, 0.0, 0.0, 0.0, 0.0, 0.0)",-0.07939114715284208,-1.315183223212741,-6.795115266999686,"(0.0, 0.0, 0.0, 0.0, 0.0, 0.0)",1.0813262344929835,-0.033874873767778015,0.9033299671407473,"(0.0, 0.0, 0.0, 0.0, 0.0, 0.0)",0.06713055017345074,False,,,,,False,,,,
9,Open,,,,,,"[-0.026750000193715096, 0.05299999937415123, 0.03999999910593033]","[0.0, -0.0, 1.334351465706577]","[-0.09674673527479172, 0.06986585259437561, 0.03999999910593033]","[0.0, -0.0, 1.33435435145599]","[0.026750000193715096, 0.05299999937415123, 0.03999999910593033]","[0.0, 0.0, -1.3406650641721125]","[0.09685182571411133, 0.06942359358072281, 0.03999999910593033]","[0.0, 0.0, -1.3711530696282732]",1.3579162851496,5.655565729344001,"(0.0, 0.0, 0.0, 0.0, 0.0, 0.0)",-0.9088150211252332,3.4316066113876724e-06,0.0001607445165674468,"(0.0, 0.0, 0.0, 0.0, 0.0, 0.0)",-0.06444344013525093,-1.3635984108023202,-5.504042378604797,"(0.0, 0.0, 0.0, 0.0, 0.0, 0.0)",0.8762522980402716,-0.02744024570882781,0.7315266716392431,"(0.0, 0.0, 0.0, 0.0, 0.0, 0.0)",0.05446985052483407,False,,,,,False,,,,
10,Open,,,,,,"[-0.026750000193715096, 0.05299999937415123, 0.03999999910593033]","[0.0, -0.0, 1.3791247702213432]","[-0.0974314734339714, 0.0667160153388977, 0.03999999910593033]","[0.0, -0.0, 1.3791284782568445]","[0.026750000193715096, 0.05299999937415123, 0.03999999910593033]","[0.0, 0.0, -1.3842387704807777]","[0.09750068932771683, 0.06635437905788422, 0.03999999910593033]","[0.0, 0.0, -1.408935619520831]",1.398212190971176,4.581008240768642,"(0.0, 0.0, 0.0, 0.0, 0.0, 0.0)",-0.7364407507487188,4.314390796743166e-06,8.968521101115077e-05,"(0.0, 0.0, 0.0, 0.0, 0.0, 0.0)",-0.05230389643117988,-1.4028147127498793,-4.458274326669883,"(0.0, 0.0, 0.0, 0.0, 0.0, 0.0)",0.7100243788118592,-0.02222789596809768,0.5925708975857369,"(0.0, 0.0, 0.0, 0.0, 0.0, 0.0)",0.04419507766734469,False,,,,,False,,,,
11,Open,,,,,,"[-0.026750000193715096, 0.05299999937415123, 0.03999999910593033]","[0.0, -0.0, 1.415391158105469]","[-0.09788231551647186, 0.06414420157670975, 0.03999999910593033]","[0.0, -0.0, 1.415395709317307]","[0.026750000193715096, 0.05299999937415123, 0.03999999910593033]","[0.0, 0.0, -1.419533200978404]","[0.09792786836624146, 0.06384945660829544, 0.03999999910593033]","[0.0, 0.0, -1.4395389386881268]",1.4308518746866525,3.7106166750225977,"(0.0, 0.0, 0.0, 0.0, 0.0, 0.0)",-0.5967141397561109,4.7399630338636504e-06,3.9705446138709865e-05,"(0.0, 0.0, 0.0, 0.0, 0.0, 0.0)",-0.042434775014060074,-1.4345799173274023,-3.611202204602609,"(0.0, 0.0, 0.0, 0.0, 0.0, 0.0)",0.5752902758042565,-0.018005647771851804,0.4800102903229233,"(0.0, 0.0, 0.0, 0.0, 0.0, 0.0)",0.0358468230863414,False,,,,,False,,,,
12,Open,,,,,,"[-0.026750000193715096, 0.05299999937415123, 0.03999999910593033]","[0.0, -0.0, 1.4447668540021588]","[-0.09817895293235779, 0.06205013021826744, 0.03999999910593033]","[0.0, -0.0, 1.4447715863131299]","[0.026750000193715096, 0.05299999937415123, 0.03999999910593033]","[0.0, 0.0, -1.448121993206969]","[0.09820891171693802, 0.06181041896343231, 0.03999999910593033]","[0.0, 0.0, -1.46432761016298]",1.4572900184961886,3.005599506768304,"(0.0, 0.0, 0.0, 0.0, 0.0, 0.0)",-0.483467731204937,4.849462099751187e-06,5.401615740548756e-06,"(0.0, 0.0, 0.0, 0.0, 0.0, 0.0)",-0.03441712855198442,-1.4603097330351957,-2.925073785728113,"(0.0, 0.0, 0.0, 0.0, 0.0, 0.0)",0.4660969568661882,-0.014585427836986846,0.38883096045278315,"(0.0, 0.0, 0.0, 0.0, 0.0, 0.0)",0.029067900465992856,False,,,,,False,,,,
13,Open,,,,,,"[-0.026750000193715096, 0.05299999937415123, 0.03999999910593033]","[0.0, -0.0, 1.4685611215819594]","[-0.09837405383586884, 0.06034812703728676, 0.03999999910593033]","[0.0, -0.0, 1.468565853091142]","[0.026750000193715096, 0.05299999937415123, 0.03999999910593033]","[0.0, 0.0, -1.4712788457263521]","[0.0983937606215477, 0.06015344336628914, 0.03999999910593033]","[0.0, 0.0, -1.4844061039497418]",1.4787049149819127,2.434535600482329,"(0.0, 0.0, 0.0, 0.0, 0.0, 0.0)",-0.39169363303347604,4.747151892642784e-06,-1.7351748576465223e-05,"(0.0, 0.0, 0.0, 0.0, 0.0, 0.0)",-0.02790732436186781,-1.4811508837585086,-2.3693097664397755,"(0.0, 0.0, 0.0, 0.0, 0.0, 0.0)",0.37761186810531283,-0.011814888241968555,0.3149714411852639,"(0.0, 0.0, 0.0, 0.0, 0.0, 0.0)",0.023565936472848985,False,,,,,False,,,,
14,Open,,,,,,"[-0.026750000193715096, 0.05299999937415123, 0.03999999910593033]","[0.0, -0.0, 1.487834617901085]","[-0.09850236773490906, 0.05896640568971634, 0.03999999910593033]","[0.0, -0.0, 1.4878390921106803]","[0.026750000193715096, 0.05299999937415123, 0.03999999910593033]","[0.0, 0.0, -1.4900358577435544]","[0.09851532429456711, 0.05880843847990036, 0.03999999910593033]","[0.0, 0.0, -1.5006695807985118]",1.4960509811353493,1.9719738363906854,"(0.0, 0.0, 0.0, 0.0, 0.0, 0.0)",-0.3173274216127963,4.509251873886308e-06,-3.168767150011037e-05,"(0.0, 0.0, 0.0, 0.0, 0.0, 0.0)",-0.022624215793833224,-1.498032215844392,-1.9191409108162163,"(0.0, 0.0, 0.0, 0.0, 0.0, 0.0)",0.30591369390909257,-0.00957062017308593,0.2551417656412126,"(0.0, 0.0, 0.0, 0.0, 0.0, 0.0)",0.019102112305110365,False,,,,,False,,,,
15,Close,,,"(0.010000330010418335, 0.1600052801621647, 0.0076635160840755065)","(-0.00010776674212266888, 6.7354271463595154e-06, -3.629275205618536e-10)",,"[-0.026750000193715096, 0.05299999937415123, 0.03999999910593033]","[0.0, -0.0, 1.5034457455162191]","[-0.09858676046133041, 0.05784556642174721, 0.03999999910593033]","[0.0, -0.0, 1.5034503818793725]","[0.026750000193715096, 0.05299999937415123, 0.03999999910593033]","[0.0, 0.0, -1.5052288706440118]","[0.09859529137611389, 0.057717464864254, 0.03999999910593033]","[0.0, 0.0, -1.5138427586332608]",1.413101294719633,-21.682701192523552,"(0.0, 0.0, 0.0, 0.0, 0.0, 0.0)",-36.2964633864193,-0.08999572753671375,-21.600020366059084,"(0.0, 0.0, 0.0, 0.0, 0.0, 0.0)",-4.677104715743802,-1.4147060948339576,21.72549586223887,"(0.0, 0.0, 0.0, 0.0, 0.0, 0.0)",36.28721231316116,0.08224721981037424,21.806647295928226,"(0.0, 0.0, 0.0, 0.0, 0.0, 0.0)",4.674247117033191,False,,,,,False,,,,
16,Close,,,"(0.010000659812012168, 0.16001055698314023, 0.0146278458391823)","(-0.0002154970996661642, 1.346858017578936e-05, -1.4512199879406586e-09)",,"[-0.026750000193715096, 0.05299999937415123, 0.03999999910593033]","[0.0, -0.0, 1.331791174621689]","[-0.09670332819223404, 0.07004500180482864, 0.03999999910593033]","[0.0, -0.0, 1.1607947601674466]","[0.026750000193715096, 0.05299999937415123, 0.03999999910593033]","[0.0, 0.0, -1.333235579802916]","[0.0967278704047203, 0.06994394958019257, 0.03999999910593033]","[0.0, 0.0, -1.1692126917852095]",1.2586120487229027,-17.562987965944075,"(0.0, 0.0, 0.0, 0.0, 0.0, 0.0)",2.9912613024458263,-0.2438973282575851,-17.496176851103186,"(0.0, 0.0, 0.0, 0.0, 0.0, 0.0)",0.3774423078885404,-1.2599119368155056,17.59765164841349,"(0.0, 0.0, 0.0, 0.0, 0.0, 0.0)",-2.998418754928424,0.23762104120869787,17.663545071724318,"(0.0, 0.0, 0.0, 0.0, 0.0, 0.0)",-0.3794651959179023,False,,,,,False,,,,
17,Close,,,"(0.010000989414132393, 0.1600158306125408, 0.020893621515273818)","(-0.00032319108508158773, 2.0199459787849396e-05, -3.2641426920478403e-09)",,"[-0.026750000193715096, 0.05299999937415123, 0.03999999910593033]","[0.0, -0.0, 1.1927509376626115]","[-0.09366592019796371, 0.0795755386352539, 0.03999999910593033]","[0.0, -0.0, 0.8832429263887086]","[0.026750000193715096, 0.05299999937415123, 0.03999999910593033]","[0.0, 0.0, -1.1939208377844814]","[0.0936969667673111, 0.07949723303318024, 0.03999999910593033]","[0.0, 0.0, -0.8900614482005528]",1.1334757594655511,-14.226020252414699,"(0.0, 0.0, 0.0, 0.0, 0.0, 0.0)",2.4288508647123748,-0.36855748390702325,-14.171887099327844,"(0.0, 0.0, 0.0, 0.0, 0.0, 0.0)",0.30976852738726823,-1.1345286688205596,14.254097835214925,"(0.0, 0.0, 0.0, 0.0, 0.0, 0.0)",-2.4347025650831196,0.36347369491056536,14.307455277413446,"(0.0, 0.0, 0.0, 0.0, 0.0, 0.0)",-0.3114537668278207,False,,,,,False,,,,
18,Close,,,"(0.010001318826104761, 0.16002110119957821, 0.02646143576036139)","(-0.0004308487108156613, 2.692806668198511e-05, -5.800961497533997e-09)",,"[-0.026750000193715096, 0.05299999937415123, 0.03999999910593033]","[0.0, -0.0, 1.0801281957344744]","[-0.09025531262159348, 0.08692750334739685, 0.03999999910593033]","[0.0, -0.0, 0.658426092619021]","[0.026750000193715096, 0.05299999937415123, 0.03999999910593033]","[0.0, 0.0, -1.0810758877799864]","[0.09028743207454681, 0.0868673101067543, 0.03999999910593033]","[0.0, 0.0, -0.6639491897248752]",1.0321153651670965,-11.523076404455903,"(0.0, 0.0, 0.0, 0.0, 0.0, 0.0)",1.9712593195403922,-0.46953209273108476,-11.479215138346529,"(0.0, 0.0, 0.0, 0.0, 0.0, 0.0)",0.25356328507457,-1.0329682217446532,11.54581924652409,"(0.0, 0.0, 0.0, 0.0, 0.0, 0.0)",-1.976034733535922,0.46541422655746517,11.589025293474933,"(0.0, 0.0, 0.0, 0.0, 0.0, 0.0)",-0.2549589687679249,False,,,,,False,,,,
19,Close,,,"(0.010001648057231211, 0.16002636889308344, 0.03133184175509247)","(-0.0005384699893107284, 3.3654401557527444e-05, -9.06094284338731e-09)",,"[-0.026750000193715096, 0.05299999937415123, 0.03999999910593033]","[0.0, -0.0, 0.9889039009917453]","[-0.08690053224563599, 0.09257163107395172, 0.03999999910593033]","[0.0, -0.0, 0.4763247177857985]","[0.026750000193715096, 0.05299999937415123, 0.03999999910593033]","[0.0, 0.0, -0.9896714317513632]","[0.08693088591098785, 0.09252544492483139, 0.03999999910593033]","[0.0, 0.0, -0.4807983343348629]",0.9500134457853482,-9.333691887609287,"(0.0, 0.0, 0.0, 0.0, 0.0, 0.0)",1.59927232790674,-0.551321428885197,-9.298153181376478,"(0.0, 0.0, 0.0, 0.0, 0.0, 0.0)",0.20712540820679678,-0.9507042596131691,9.352113589684514,"(0.0, 0.0, 0.0, 0.0, 0.0, 0.0)",-1.6031637286990463,0.5479859596890367,9.387099348535743,"(0.0, 0.0, 0.0, 0.0, 0.0, 0.0)",-0.20827601456628825,False,,,,,False,,,,
20,Close,,,"(0.010001977116791199, 0.1600316338415276, 0.035505353338314005)","(-0.0006460549330047555, 4.037846511369274e-05, -1.3043353742532214e-08)",,"[-0.026750000193715096, 0.05299999937415123, 0.03999999910593033]","[0.0, -0.0, 0.9150121593347216]","[-0.08381503820419312, 0.09690423309803009, 0.03999999910593033]","[0.0, -0.0, 0.3288226039195219]","[0.026750000193715096, 0.05299999937415123, 0.03999999910593033]","[0.0, 0.0, -0.9156338940018686]","[0.08384232223033905, 0.09686874598264694, 0.03999999910593033]","[0.0, 0.0, -0.33244627340343963]",0.883510891086132,-7.560290428963521,"(0.0, 0.0, 0.0, 0.0, 0.0, 0.0)",1.2970851133907606,-0.6175707112805602,-7.53149495926978,"(0.0, 0.0, 0.0, 0.0, 0.0, 0.0)",0.1689126126712179,-0.884070450286667,7.575212007644451,"(0.0, 0.0, 0.0, 0.0, 0.0, 0.0)",-1.3002524451675361,0.6148689832085066,7.603541305643349,"(0.0, 0.0, 0.0, 0.0, 0.0, 0.0)",-0.16985779298155493,False,,,,,False,,,,
21,Close,,,"(0.010002306014043007, 0.16003689619304312, 0.038982445123681576)","(-0.0007536035543313348, 4.7100258049582536e-05, -1.7747461781428295e-08)",,"[-0.026750000193715096, 0.05299999937415123, 0.03999999910593033]","[0.0, -0.0, 0.855159831855573]","[-0.0810866579413414, 0.10023905336856842, 0.03999999910593033]","[0.0, -0.0, 0.20934598049273878]","[0.026750000193715096, 0.05299999937415123, 0.03999999910593033]","[0.0, 0.0, -0.855663319897266]","[0.08111044019460678, 0.10021167993545532, 0.03999999910593033]","[0.0, 0.0, -0.21228117869263835]",0.8296438217797669,-6.123835247460454,"(0.0, 0.0, 0.0, 0.0, 0.0, 0.0)",1.05173758145085,-0.6712325644411228,-6.100503438359898,"(0.0, 0.0, 0.0, 0.0, 0.0, 0.0)",0.13756782929819192,-0.8300970647322002,6.135921726192006,"(0.0, 0.0, 0.0, 0.0, 0.0, 0.0)",-1.0543131565319612,0.6690441663231638,6.158860938132814,"(0.0, 0.0, 0.0, 0.0, 0.0, 0.0)",-0.13834207864853043,False,,,,,False,,,,
22,Close,,,"(0.010002634758225062, 0.1600421560954447, 0.041763552607370504)","(-0.000861115865719684, 5.381978106418352e-05, -2.3172535119669436e-08)",,"[-0.026750000193715096, 0.05299999937415123, 0.03999999910593033]","[0.0, -0.0, 0.8066794434121096]","[-0.07873354107141495, 0.10281677544116974, 0.03999999910593033]","[0.0, -0.0, 0.11257000369976355]","[0.026750000193715096, 0.05299999937415123, 0.03999999910593033]","[0.0, 0.0, -0.807087375168555]","[0.07875385880470276, 0.1027955636382103, 0.03999999910593033]","[0.0, 0.0, -0.11494747853587685]",0.7860114956416112,-4.960306550442966,"(0.0, 0.0, 0.0, 0.0, 0.0, 0.0)",0.8526282438926112,-0.7146986118113532,-4.941401666116088,"(0.0, 0.0, 0.0, 0.0, 0.0, 0.0)",0.11192109221648956,-0.7863786224330822,4.970096598215528,"(0.0, 0.0, 0.0, 0.0, 0.0, 0.0)",-0.8547210444656044,0.7129260106609093,4.988671207184531,"(0.0, 0.0, 0.0, 0.0, 0.0, 0.0)",-0.11255391153308099,False,,,,,False,,,,
23,Close,,,"(0.010002963358557236, 0.16004741369625017, 0.04384907226694074)","(-0.0009685918795946493, 6.053703485636736e-05, -2.9317842489583264e-08)",,"[-0.026750000193715096, 0.05299999937415123, 0.03999999910593033]","[0.0, -0.0, 0.7674103444184671]","[-0.07673770934343338, 0.10481919348239899, 0.03999999910593033]","[0.0, -0.0, 0.03418149097606777]","[0.026750000193715096, 0.05299999937415123, 0.03999999910593033]","[0.0, 0.0, -0.7677407466611278]","[0.07675483077764511, 0.1048026755452156, 0.03999999910593033]","[0.0, 0.0, -0.0361072460378734]",0.7506693114697051,-4.017848305858803,"(0.0, 0.0, 0.0, 0.0, 0.0, 0.0)",0.6911017846597902,-0.7499060663183246,-4.0025303530146505,"(0.0, 0.0, 0.0, 0.0, 0.0, 0.0)",0.09097831684118958,-0.7509666841707966,4.025778244554576,"(0.0, 0.0, 0.0, 0.0, 0.0, 0.0)",-0.6928012733138227,0.7484702604680491,4.040818653480022,"(0.0, 0.0, 0.0, 0.0, 0.0, 0.0)",-0.09149462532289206,False,,,,,False,,,,
24,Close,,,"(0.010003291824242136, 0.16005266914270105, 0.04523936165140331)","(-0.0010760316083767074, 6.725202012489063e-05, -3.618265319583079e-08)",,"[-0.026750000193715096, 0.05299999937415123, 0.03999999910593033]","[0.0, -0.0, 0.7356023986171477]","[-0.07506444305181503, 0.10638272017240524, 0.03999999910593033]","[0.0, 0.0, -0.029314282157410606]","[0.026750000193715096, 0.05299999937415123, 0.03999999910593033]","[0.0, 0.0, -0.7358699744488303]","[0.07507872581481934, 0.10636978596448898, 0.03999999910593033]","[0.0, -0.0, 0.027754427824074522]",0.722042142290461,-3.2544571277456287,"(0.0, 0.0, 0.0, 0.0, 0.0, 0.0)",0.560108160717456,-0.7784260816002104,-3.242260463996204,"(0.0, 0.0, 0.0, 0.0, 0.0, 0.0)",0.0739092939425144,-0.7222830141783452,3.260880378089207,"(0.0, 0.0, 0.0, 0.0, 0.0, 0.0)",-0.5614876113391304,0.7772630911922368,3.2732751882458535,"(0.0, 0.0, 0.0, 0.0, 0.0, 0.0)",-0.07432997801242036,False,,,,,False,,,,
25,Close,,,"(0.010001644182078712, 0.16005595153396976, 0.045940321410535084)","(-0.0011271805217326655, 1.767785898679914e-05, -1.508889111938428e-08)",,"[-0.026750000193715096, 0.05299999937415123, 0.03999999910593033]","[0.0, -0.0, 0.7098379546684608]","[-0.07367318123579025, 0.10760965943336487, 0.03999999910593033]","[0.0, 0.0, -0.08074653118681538]","[0.026750000193715096, 0.05299999937415123, 0.03999999910593033]","[0.0, 0.0, -0.7100547061469626]","[0.07368502020835876, 0.10759948939085007, 0.03999999910593033]","[0.0, -0.0, 0.07948305351710017]",0.6988541352552734,-2.6361102734739577,"(0.0, 0.0, 0.0, 0.0, 0.0, 0.0)",0.4538907146887525,-0.8015268867317584,-2.626184566689172,"(0.0, 0.0, 0.0, 0.0, 0.0, 0.0)",0.06000477197099662,-0.6990492414844596,2.6413131062522566,"(0.0, 0.0, 0.0, 0.0, 0.0, 0.0)",-0.45500992694973624,0.8005848745408953,2.6513062318756173,"(0.0, 0.0, 0.0, 0.0, 0.0, 0.0)",-0.06034712704439637,False,,,,,False,,,,
26,Close,,,"(0.0099979269032565, 0.16005188637635104, 0.04640949954916324)","(-0.0010442772263960227, -5.814874739306873e-05, 7.787963860925158e-09)",,"[-0.026750000193715096, 0.05299999937415123, 0.03999999910593033]","[0.0, -0.0, 0.6889687286552088]","[-0.07252338528633118, 0.1085769459605217, 0.03999999910593033]","[0.0, 0.0, -0.12240626184562299]","[0.026750000193715096, 0.05299999937415123, 0.03999999910593033]","[0.0, 0.0, -0.6891442541658422]","[0.07253314554691315, 0.10856890678405762, 0.03999999910593033]","[0.0, -0.0, 0.12138287899953458]",0.6800717984485459,-2.1352615874880345,"(0.0, 0.0, 0.0, 0.0, 0.0, 0.0)",0.36778464275725675,-0.820237492399504,-2.127000202679893,"(0.0, 0.0, 0.0, 0.0, 0.0, 0.0)",0.04871100820034693,-0.6802298342020312,2.1394759521557623,"(0.0, 0.0, 0.0, 0.0, 0.0, 0.0)",-0.3686924226914724,0.8194744666035607,2.147347557238381,"(0.0, 0.0, 0.0, 0.0, 0.0, 0.0)",-0.04898946018255637,False,,,,,False,,,,
27,Close,,,"(0.009998107600018924, 0.16004411888380865, 0.0468059782297436)","(-0.0008858309445970004, -5.447527859797503e-05, 4.128601528647624e-08)",,"[-0.026750000193715096, 0.05299999937415123, 0.03999999910593033]","[0.0, -0.0, 0.672064613904271]","[-0.07157741487026215, 0.10934273153543472, 0.03999999910593033]","[0.0, 0.0, -0.15614974961002634]","[0.026750000193715096, 0.05299999937415123, 0.03999999910593033]","[0.0, 0.0, -0.6722069192953587]","[0.07158542424440384, 0.10933635383844376, 0.03999999910593033]","[0.0, -0.0, 0.15532080931604164]",0.6648581567433223,-1.7295508464885936,"(0.0, 0.0, 0.0, 0.0, 0.0, 0.0)",0.29799285099320455,-0.8353935278746698,-1.722993881465588,"(0.0, 0.0, 0.0, 0.0, 0.0, 0.0)",0.03950205891705609,-0.6649861657036452,1.732964418763874,"(0.0, 0.0, 0.0, 0.0, 0.0, 0.0)",-0.2987289514022836,0.83477548361327,1.7394759470338683,"(0.0, 0.0, 0.0, 0.0, 0.0, 0.0)",-0.03972821774930672,False,,,,,False,,,,
28,Close,,,"(0.009998390752654573, 0.16003702894197389, 0.04714144752999396)","(-0.0007411380797103218, -4.869650481896534e-05, 1.1687517768299383e-07)",,"[-0.026750000193715096, 0.05299999937415123, 0.03999999910593033]","[0.0, -0.0, 0.6583722791296546]","[-0.07080177217721939, 0.10995122045278549, 0.03999999910593033]","[0.0, 0.0, -0.18348236399010098]","[0.026750000193715096, 0.05299999937415123, 0.03999999910593033]","[0.0, 0.0, -0.6584875609778488]","[0.07080833613872528, 0.10994613915681839, 0.03999999910593033]","[0.0, -0.0, 0.18281091441867092]",0.652535106962091,-1.400936185655761,"(0.0, 0.0, 0.0, 0.0, 0.0, 0.0)",0.24143143710013154,-0.8476696977959799,-1.3956001238249038,"(0.0, 0.0, 0.0, 0.0, 0.0, 0.0)",0.032035576984152714,-0.6526387942199526,1.4037011791987364,"(0.0, 0.0, 0.0, 0.0, 0.0, 0.0)",-0.24202820218879367,0.8471690873323404,1.4089504550195393,"(0.0, 0.0, 0.0, 0.0, 0.0, 0.0)",-0.0322192170145395,False,,,,,False,,,,
29,Close,,,"(0.009998679410322496, 0.16003066597344334, 0.0474253884764576)","(-0.0006112814540129935, -4.2805404436077314e-05, 1.9447426774393396e-07)",,"[-0.026750000193715096, 0.05299999937415123, 0.03999999910593033]","[0.0, -0.0, 0.6472815645892557]","[-0.07016744464635849, 0.11043626815080643, 0.03999999910593033]","[0.0, 0.0, -0.2056215493544759]","[0.026750000193715096, 0.05299999937415123, 0.03999999910593033]","[0.0, 0.0, -0.6473749785824873]","[0.07017280906438828, 0.1104322224855423, 0.03999999910593033]","[0.0, -0.0, 0.20507767878351457]",0.6425534366392937,-1.1347583103811658,"(0.0, 0.0, 0.0, 0.0, 0.0, 0.0)",0.19559696212506814,-0.8576132175808707,-1.130415870269558,"(0.0, 0.0, 0.0, 0.0, 0.0, 0.0)",0.025974296640771184,-0.6426374233181616,1.1369979551509777,"(0.0, 0.0, 0.0, 0.0, 0.0, 0.0)",-0.19608068519888996,0.8572077274788498,1.141229523067934,"(0.0, 0.0, 0.0, 0.0, 0.0, 0.0)",-0.02612334092818916,False,,,,,False,,,,
30,Close,,,"(0.009865465308992205, 0.15999852606453366, 0.04766600164849151)","(-0.0003424815135586742, 0.00015086673503461647, 0.0034152828324375316)",,"[-0.026750000193715096, 0.05299999937415123, 0.03999999910593033]","[0.0, -0.0, 0.6382981045455605]","[-0.06964972615242004, 0.11082398891448975, 0.03999999910593033]","[0.0, 0.0, -0.22355414441709243]","[0.026750000193715096, 0.05299999937415123, 0.03999999910593033]","[0.0, 0.0, -0.6383737252477673]","[0.06965409219264984, 0.11082074791193008, 0.03999999910593033]","[0.0, -0.0, 0.22311363310560886]",0.6344682836778279,-0.9191542314087444,"(0.0, 0.0, 0.0, 0.0, 0.0, 0.0)",0.1584658053641607,-0.8656670151994418,-0.9155462613482186,"(0.0, 0.0, 0.0, 0.0, 0.0, 0.0)",0.021063560793533557,-0.6345419852789147,0.9196069697833984,"(0.0, 0.0, 0.0, 0.0, 0.0, 0.0)",1.5650710318467773,0.8652269258386903,0.8975102038417887,"(0.0, 0.0, 0.0, 0.0, 0.0, 0.0)",0.970263568851588,False,,,,,True,"(0.041964474105275554, 0.17969275438125942, 0.023999959438538113)","(-0.9999999992078928, -2.3394376763778626e-07, -3.980150266267419e-05)",0.0005277146366441324,13.827283024398023
31,Move,,,"(0.007363952190207586, 0.1595176072470861, 0.04786907614534817)","(-0.000283671801070412, 0.00017028703879343212, 0.033932294028324435)","[0.0, 0.0, 0.0]","[-0.026750000193715096, 0.05299999937415123, 0.03999999910593033]","[0.0, -0.0, 0.6310214732486521]","[-0.06922782957553864, 0.1111346185207367, 0.03999999910593033]","[0.0, 0.0, -0.23807887186492363]","[0.026750000193715096, 0.05299999937415123, 0.03999999910593033]","[0.0, 0.0, -0.6310879718519756]","[0.06923169642686844, 0.11113179475069046, 0.03999999910593033]","[0.0, -0.0, 0.2376151439176698]",0.6073010028525442,-5.692908589800243,"(0.0, 0.0, 0.0, 0.0, 0.0, 0.0)",-6.970029188620435,-0.868756983831492,0.08239916352133925,"(0.0, 0.0, 0.0, 0.0, 0.0, 0.0)",-0.4110687045203754,-0.6117280690932336,4.646378695169427,"(0.0, 0.0, 0.0, 0.0, 0.0, 0.0)",6.63722350158353,0.8683562496935296,-0.08325233958591138,"(0.0, 0.0, 0.0, 0.0, 0.0, 0.0)",0.9711507533803067,False,,,,,True,"(0.04054627108315854, 0.179595033909982, 0.023999959438538113)","(-0.9999999992078928, -2.3394376763778626e-07, -3.980150266267419e-05)",-6.660727030056632e-06,5.483947105729632
32,Move,,,"(0.003581798779507854, 0.15888081127638445, 0.0479516006086598)","(0.0007129250223673224, -0.00208967314794087, 0.0775559872120303)","[-0.003782153410699732, -0.0006367959707016535, 8.25244633116326e-05]","[-0.026750000193715096, 0.05299999937415123, 0.03999999910593033]","[0.0, -0.0, 0.5859526299274878]","[-0.06656552106142044, 0.11298936605453491, 0.03999999910593033]","[0.0, 0.0, -0.2824962348735626]","[0.026750000193715096, 0.05299999937415123, 0.03999999910593033]","[0.0, 0.0, -0.5943032042166643]","[0.06706507503986359, 0.11265479773283005, 0.03999999910593033]","[0.0, -0.0, 0.2737407621305699]",0.5651750435041389,-4.9866125127970315,"(0.0, 0.0, 0.0, 0.0, 0.0, 0.0)",0.1879296173067297,-0.8684796473023089,-0.007395640778216972,"(0.0, 0.0, 0.0, 0.0, 0.0, 0.0)",0.0052485587257143,-0.5763335013853139,4.3127362313992865,"(0.0, 0.0, 0.0, 0.0, 0.0, 0.0)",0.20027995465953127,0.8680752302284668,0.0074938524016774505,"(0.0, 0.0, 0.0, 0.0, 0.0, 0.0)",0.02249499703994292,False,,,,,True,"(0.0359258773488902, 0.1800326723866737, 0.023997902681873285)","(-0.9984706073090757, -0.05524536888912827, -0.002096558167493954)",0.00012594863753174636,0.0
33,Move,,,"(0.001122542829286716, 0.1593018964136896, 0.0479227662575371)","(0.004945114300985391, -0.0007111404472231802, 0.10411918620410092)","[-0.006241409360920869, -0.00021571083339649855, 5.3690112188933825e-05]","[-0.026750000193715096, 0.05299999937415123, 0.03999999910593033]","[0.0, -0.0, 0.5464752837415245]","[-0.06416688859462738, 0.11451403051614761, 0.03999999910593033]","[0.0, 0.0, -0.32203216719565797]","[0.026750000193715096, 0.05299999937415123, 0.03999999910593033]","[0.0, 0.0, -0.5601607664550203]","[0.06500521302223206, 0.113996222615242, 0.03999999910593033]","[0.0, -0.0, 0.3079426098360514]",0.5284581628806412,-4.324100182620625,"(0.0, 0.0, 0.0, 0.0, 0.0, 0.0)",-40.57665041993025,-0.8499710773008806,4.448713801084151,"(0.0, 0.0, 0.0, 0.0, 0.0, 0.0)",-20.450246702708142,-0.5432536493593767,4.057701472950861,"(0.0, 0.0, 0.0, 0.0, 0.0, 0.0)",40.51490371176407,0.8490881856801438,-4.5636359590366995,"(0.0, 0.0, 0.0, 0.0, 0.0, 0.0)",20.9314301799772,True,"(-0.029811151186175763, 0.18051363537611448, 0.05600153891941393)","(0.9949795852674637, 0.10006627287285103, 0.001538159394272495)",-0.0021929381795451827,324.8302845382825,True,"(0.031581245564939034, 0.18025917111664624, 0.023998461080646502)","(-0.9949795852674632, -0.10006627287285588, -0.0015381593942749786)",0.00032843032100871104,245.81822951935948
34,Move,"(0.0078, 0.0, -0.0036000000000000003)","(0.0, 0.08563981573685775, 0.0)","(0.0008373204772039943, 0.16029745278959368, 0.04796955631408516)","(0.009453853239593003, 0.00021297172494590244, 0.09499555645021185)","[-0.006526631713003592, 0.0007798455425075679, 0.00010048016873698967]","[-0.026750000193715096, 0.05299999937415123, 0.03999999910593033]","[0.0, -0.0, 0.5122910766505747]","[-0.062042638659477234, 0.11575690656900406, 0.03999999910593033]","[0.0, 0.0, -0.3205952360126725]","[0.026750000193715096, 0.05299999937415123, 0.03999999910593033]","[0.0, 0.0, -0.5280779333918697]","[0.06302893161773682, 0.11519195139408112, 0.03999999910593033]","[0.0, -0.0, 0.3033470937789916]",0.5105675454206008,-0.4136543697950188,"(0.0, 0.0, 0.0, 0.0, 0.0, 0.0)",3.6500346070613783,-0.8345940991454776,-0.40987201953597374,"(0.0, 0.0, 0.0, 0.0, 0.0, 0.0)",-0.5767573487752036,-0.5330553230573655,-1.1945586962903527,"(0.0, 0.0, 0.0, 0.0, 0.0, 0.0)",-6.536520928618165,0.8331914035747173,0.4239141894780385,"(0.0, 0.0, 0.0, 0.0, 0.0, 0.0)",-0.018043231583962736,True,"(-0.027782116061409873, 0.18180915987972746, 0.05600071189642032)","(0.9945842410657634, 0.10393113923646441, 0.000711140387283058)",-0.005767574495913523,6.624438802237836,True,"(0.029910421102272162, 0.18160183909572525, 0.023999288099653494)","(-0.994584241065763, -0.10393113923646692, -0.0007111403872818769)",0.00023400145338051335,0.0
35,Move,"(0.0099, 0.0, -0.0033)","(0.0, 0.11719536861291525, 0.0)","(0.0018239101995060677, 0.16042709119290313, 0.04807704896226877)","(0.0052115877424529005, 0.0013160016259891666, 0.08991139570168598)","[-0.005540041990701518, 0.0009094839458170245, 0.00020797281692060132]","[-0.026750000193715096, 0.05299999937415123, 0.03999999910593033]","[0.0, -0.0, 0.5090747358327937]","[-0.06184060499072075, 0.11587009578943253, 0.03999999910593033]","[0.0, 0.0, -0.32607880869532246]","[0.026750000193715096, 0.05299999937415123, 0.03999999910593033]","[0.0, 0.0, -0.5375942472421207]","[0.06361911445856094, 0.11484390497207642, 0.03999999910593033]","[0.0, -0.0, 0.29647514321323476]",0.5053336997584476,-0.8978492435599916,"(0.0, 0.0, 0.0, 0.0, 0.0, 0.0)",-5.39898141708185,-0.832892036171734,0.5427583853561446,"(0.0, 0.0, 0.0, 0.0, 0.0, 0.0)",-2.444157877138821,-0.5409291722062856,-0.8003823415445999,"(0.0, 0.0, 0.0, 0.0, 0.0, 0.0)",4.569068451708276,0.8322392449012357,-0.4392427626978271,"(0.0, 0.0, 0.0, 0.0, 0.0, 0.0)",1.8917495441282857,True,"(-0.027218397575194335, 0.1817334860975981, 0.05600071189642032)","(0.9945842410657634, 0.10393113923646441, 0.000711140387283058)",-0.004955159452025302,31.876233230868326,True,"(0.030957745644476592, 0.18147980688178872, 0.023999288099653494)","(-0.994584241065763, -0.10393113923646692, -0.0007111403872818769)",1.4785412731987239e-05,23.38657458799673
36,Move,"(0.0121, 0.0, -0.004)","(0.0, 0.107426760789503, 0.0)","(0.002810625879011084, 0.16056522849175517, 0.04816572596244243)","(0.0011720379598214531, 0.0023247687246081227, 0.08576369891339243)","[-0.004553326311196502, 0.0010476212446690614, 0.0002966498170942633]","[-0.026750000193715096, 0.05299999937415123, 0.03999999910593033]","[0.0, -0.0, 0.5019632571991475]","[-0.06139261648058891, 0.11611805856227875, 0.03999999910593033]","[0.0, 0.0, -0.32895299857777704]","[0.026750000193715096, 0.05299999937415123, 0.03999999910593033]","[0.0, 0.0, -0.5439278448722892]","[0.06401006877422333, 0.11460915207862854, 0.03999999910593033]","[0.0, -0.0, 0.28670733005593346]",0.49814408010731454,-0.9165866911089469,"(0.0, 0.0, 0.0, 0.0, 0.0, 0.0)",-4.154519859465512,-0.8291953033881055,0.4130197347616765,"(0.0, 0.0, 0.0, 0.0, 0.0, 0.0)",-2.1552457298579792,-0.5477312212203372,-0.9128193204179316,"(0.0, 0.0, 0.0, 0.0, 0.0, 0.0)",3.2839207422361665,0.8293457849346791,-0.30943938471306126,"(0.0, 0.0, 0.0, 0.0, 0.0, 0.0)",1.568529769105017,True,"(-0.02658124666995125, 0.18188165835860537, 0.05600071189642032)","(0.9945842410657634, 0.10393113923646441, 0.000711140387283058)",-0.0045359806068059946,26.75051742987172,True,"(0.03200113426411684, 0.1815609032603206, 0.023999288099653494)","(-0.994584241065763, -0.10393113923646692, -0.0007111403872818769)",6.807176324433738e-05,16.184000340295626
37,Move,"(0.014199999999999999, 0.0, -0.0039)","(0.0, 0.06861063822514908, 0.0)","(0.0038267354237925214, 0.16065967847134419, 0.0482555948409608)","(-0.0010494792310579745, 0.003264621165950026, 0.08156481427024254)","[-0.0035372167664150644, 0.0011420712242580788, 0.00038651869561263236]","[-0.026750000193715096, 0.05299999937415123, 0.03999999910593033]","[0.0, -0.0, 0.4947099092937832]","[-0.06093389913439751, 0.11636766791343689, 0.03999999910593033]","[0.0, 0.0, -0.33290552084791564]","[0.026750000193715096, 0.05299999937415123, 0.03999999910593033]","[0.0, 0.0, -0.5511570557556317]","[0.06445448100566864, 0.11433818191289902, 0.03999999910593033]","[0.0, -0.0, 0.2769909456090513]",0.4906310158806109,-0.9789339786019831,"(0.0, 0.0, 0.0, 0.0, 0.0, 0.0)",-4.189073264687788,-0.8260272529481322,0.3811595490195397,"(0.0, 0.0, 0.0, 0.0, 0.0, 0.0)",-1.9892369016068085,-0.5552467260918512,-0.9815106522138466,"(0.0, 0.0, 0.0, 0.0, 0.0, 0.0)",2.9041162151691107,0.8269365307080205,-0.29075370024335956,"(0.0, 0.0, 0.0, 0.0, 0.0, 0.0)",1.4369777405699788,True,"(-0.02586286932770015, 0.1819931639155322, 0.05600071189642032)","(0.9945842410657634, 0.10393113923646441, 0.000711140387283058)",-0.004129478953833658,26.76879798140859,True,"(0.033097578080525436, 0.18159777820888134, 0.023999288099653494)","(-0.994584241065763, -0.10393113923646692, -0.0007111403872818769)",8.762207980025397e-05,10.456775090138954
38,Move,"(0.016, 0.0, -0.0039)","(0.0, 0.08188561251581795, 0.0)","(0.004886149778532063, 0.1607301552824298, 0.04834330806656539)","(-0.001839768707094859, 0.004283604555634281, 0.07696898073641537)","[-0.002477802411675523, 0.0012125480353436802, 0.00047423192121721913]","[-0.026750000193715096, 0.05299999937415123, 0.03999999910593033]","[0.0, -0.0, 0.4869549934787794]","[-0.06044146046042442, 0.11663085222244263, 0.03999999910593033]","[0.0, 0.0, -0.3376949079326498]","[0.026750000193715096, 0.05299999937415123, 0.03999999910593033]","[0.0, 0.0, -0.5589240693624938]","[0.06492974609136581, 0.11404348164796829, 0.03999999910593033]","[0.0, -0.0, 0.2669741870115192]",0.4827070653264159,-1.019490734013402,"(0.0, 0.0, 0.0, 0.0, 0.0, 0.0)",-3.716665136501575,-0.8231945978592267,0.3492613070279299,"(0.0, 0.0, 0.0, 0.0, 0.0, 0.0)",-1.8064938220853843,-0.5631090141640922,-1.0043884115276167,"(0.0, 0.0, 0.0, 0.0, 0.0, 0.0)",2.6239652921021395,0.8248310036022488,-0.2561394006740322,"(0.0, 0.0, 0.0, 0.0, 0.0, 0.0)",1.261337178986304,True,"(-0.02505652908396653, 0.18208762952064295, 0.05600071189642032)","(0.9945842410657634, 0.10393113923646441, 0.000711140387283058)",-0.003783851454209969,22.88136227485491,True,"(0.034248129666014274, 0.18161379545410272, 0.023999288099653494)","(-0.994584241065763, -0.10393113923646692, -0.0007111403872818769)",0.0001491849956343885,4.58664086982923
39,Move,"(0.0147, 0.0, -0.0054)","(0.0, 0.05541594908007196, 0.0)","(0.005927797189622681, 0.1607229612862153, 0.048399841531766845)","(-0.003699024306781144, 0.0036422054367268586, 0.07342730490050631)","[-0.0014361550005849051, 0.0012053540391291917, 0.0005307653864186773]","[-0.026750000193715096, 0.05299999937415123, 0.03999999910593033]","[0.0, -0.0, 0.478861287425284]","[-0.05992535874247551, 0.1169014498591423, 0.03999999910593033]","[0.0, 0.0, -0.34323299051457234]","[0.026750000193715096, 0.05299999937415123, 0.03999999910593033]","[0.0, 0.0, -0.5668615805589824]","[0.06541308015584946, 0.11373850703239441, 0.03999999910593033]","[0.0, -0.0, 0.2571360613050157]",0.475116816059243,-0.898673666755332,"(0.0, 0.0, 0.0, 0.0, 0.0, 0.0)",-2.626090177400694,-0.8209205796841762,0.28168644802606113,"(0.0, 0.0, 0.0, 0.0, 0.0, 0.0)",-1.4467783386677118,-0.5705808687473789,-0.8926131748910351,"(0.0, 0.0, 0.0, 0.0, 0.0, 0.0)",2.325504552001423,0.8231091886452684,-0.2132445995796603,"(0.0, 0.0, 0.0, 0.0, 0.0, 0.0)",1.0678645157998052,True,"(-0.024177906058234687, 0.18215408486555484, 0.023996025265116502)","(0.9971659453521258, 0.07512845435462977, -0.00397401261769351)",-0.003632173668560131,20.087354049218362,True,"(0.035397699109511425, 0.18160739545721366, 0.023999288099653494)","(-0.994584241065763, -0.10393113923646692, -0.0007111403872818769)",0.0001313081409144907,6.642241239087062
40,Move,"(0.0171, 0.0, -0.006200000000000001)","(0.0, 0.017205455766160106, 0.0)","(0.0069399168431161186, 0.16069129132144627, 0.048447781682072276)","(-0.005130144676812727, 0.003026683223982925, 0.06978458002161535)","[-0.00042403534709146724, 0.001173684074360165, 0.0005787055367241084]","[-0.026750000193715096, 0.05299999937415123, 0.03999999910593033]","[0.0, -0.0, 0.4717489356534974]","[-0.059470031410455704, 0.11713578552007675, 0.03999999910593033]","[0.0, 0.0, -0.3480684917529823]","[0.026750000193715096, 0.05299999937415123, 0.03999999910593033]","[0.0, 0.0, -0.5739296671638422]","[0.06584140658378601, 0.11346372216939926, 0.03999999910593033]","[0.0, -0.0, 0.24836494083435834]",0.467547458120451,-1.0083592623595128,"(0.0, 0.0, 0.0, 0.0, 0.0, 0.0)",-2.8183930673864372,-0.8187114512449484,0.2654282165409049,"(0.0, 0.0, 0.0, 0.0, 0.0, 0.0)",-1.40679716429025,-0.5780530879908433,-0.9896292023833987,"(0.0, 0.0, 0.0, 0.0, 0.0, 0.0)",1.864794344953211,0.8214660117574417,-0.19885017681976258,"(0.0, 0.0, 0.0, 0.0, 0.0, 0.0)",0.964025958690783,True,"(-0.023407590171781248, 0.18221645134969822, 0.02399658326093828)","(0.9974021033511395, 0.07195397915774229, -0.00341600850264504)",-0.0033472960144508546,18.980101381740585,True,"(0.03642246313776407, 0.18159326555575664, 0.023999288099653494)","(-0.994584241065763, -0.10393113923646692, -0.0007111403872818769)",0.00011542413036114634,6.752774119075599
41,Move,"(0.0152, 0.0, -0.0064)","(0.0, -0.0, 0.0)","(0.007908069155261236, 0.16064386673025796, 0.04848576385130053)","(-0.006106536800975805, 0.0024424301679789252, 0.06633322384255692)","[0.0005441169650536506, 0.0011262594831718542, 0.0006166877059523637]","[-0.026750000193715096, 0.05299999937415123, 0.03999999910593033]","[0.0, -0.0, 0.46376818651775625]","[-0.058957140892744064, 0.11739487946033478, 0.03999999910593033]","[0.0, 0.0, -0.35390374604884933]","[0.026750000193715096, 0.05299999937415123, 0.03999999910593033]","[0.0, 0.0, -0.5817655594866403]","[0.06631399691104889, 0.1131555512547493, 0.03999999910593033]","[0.0, -0.0, 0.23893859081356272]",0.46023677071747143,-0.8475225229236556,"(0.0, 0.0, 0.0, 0.0, 0.0, 0.0)",-2.2750813123684384,-0.8166286295693902,0.2503632867524625,"(0.0, 0.0, 0.0, 0.0, 0.0, 0.0)",-1.2834577220078043,-0.5852364643082891,-0.8329985193135914,"(0.0, 0.0, 0.0, 0.0, 0.0, 0.0)",2.110376584897918,0.8199305649859499,-0.1856737986633709,"(0.0, 0.0, 0.0, 0.0, 0.0, 0.0)",0.9419380591731328,True,"(-0.022515669537091415, 0.1822658038810609, 0.02399725715081683)","(0.9976858267180925, 0.06793726517824283, -0.002742109760268704)",-0.0030868771782303632,17.70839361211625,True,"(0.03753856270777868, 0.18155937433683256, 0.023999288099653494)","(-0.994584241065763, -0.10393113923646692, -0.0007111403872818769)",0.0001003775486507153,6.752227872153157
42,Move,"(0.0148, 0.0, -0.007)","(0.0, 0.021750293138353336, 0.0)","(0.008764901287406812, 0.1606001546140314, 0.04851480135654732)","(-0.006779372118270326, 0.0019553936852788824, 0.06347477487553059)","[0.0014009490971992264, 0.0010825473669452967, 0.0006457252111991552]","[-0.026750000193715096, 0.05299999937415123, 0.03999999910593033]","[0.0, -0.0, 0.45706047231310004]","[-0.0585244745016098, 0.11760946363210678, 0.03999999910593033]","[0.0, 0.0, -0.35859619576008056]","[0.026750000193715096, 0.05299999937415123, 0.03999999910593033]","[0.0, 0.0, -0.5883613118467947]","[0.06670989096164703, 0.11289329826831818, 0.03999999910593033]","[0.0, -0.0, 0.23085814726015758]",0.45379151031770715,-0.784537465339196,"(0.0, 0.0, 0.0, 0.0, 0.0, 0.0)",-2.2641072810887266,-0.8146755392239939,0.2354644484565454,"(0.0, 0.0, 0.0, 0.0, 0.0, 0.0)",-1.2179524282607277,-0.5915493934952087,-0.7651649996936398,"(0.0, 0.0, 0.0, 0.0, 0.0, 0.0)",1.866130892909411,0.8184892744128617,-0.1752131623799304,"(0.0, 0.0, 0.0, 0.0, 0.0, 0.0)",0.8748763073156649,True,"(-0.021779107094296188, 0.18231035336949564, 0.023997763875484645)","(0.9978869838757027, 0.06493512512185191, -0.0022353829342178074)",-0.0028517774352186786,16.73460318150336,True,"(0.03848812613467019, 0.1815274033812861, 0.023999288099653494)","(-0.994584241065763, -0.10393113923646692, -0.0007111403872818769)",9.353224705426161e-05,6.245403003066456
43,Move,"(0.0146, 0.0, -0.0091)","(0.0, 0.08188561251581795, 0.0)","(0.009544526726643233, 0.1605597295059835, 0.04853954407149043)","(-0.007333575181301447, 0.0015397890674137616, 0.060987566152222845)","[0.002180574536435647, 0.0010421222588973822, 0.0006704679261422611]","[-0.026750000193715096, 0.05299999937415123, 0.03999999910593033]","[0.0, -0.0, 0.45085122888615786]","[-0.05812269449234009, 0.11780551075935364, 0.03999999910593033]","[0.0, 0.0, -0.3629120846949385]","[0.026750000193715096, 0.05299999937415123, 0.03999999910593033]","[0.0, 0.0, -0.5944197056813214]","[0.06707201898097992, 0.11265010386705399, 0.03999999910593033]","[0.0, -0.0, 0.22339802188458152]",0.44785684255359814,-0.7186487752191615,"(0.0, 0.0, 0.0, 0.0, 0.0, 0.0)",-2.21079478403352,-0.8127943003316517,0.23255020713117092,"(0.0, 0.0, 0.0, 0.0, 0.0, 0.0)",-1.1905710555758289,-0.5972517451193666,-0.6797041684336472,"(0.0, 0.0, 0.0, 0.0, 0.0, 0.0)",1.8640142133899071,0.8170969001032389,-0.17298894339589857,"(0.0, 0.0, 0.0, 0.0, 0.0, 0.0)",0.8632197960832765,True,"(-0.02109852629160519, 0.18234880294892433, 0.023998237539043298)","(0.998060996362681, 0.06221851745403237, -0.001761710916869511)",-0.0026390028592972793,16.444079441835587,True,"(0.03936304691667425, 0.18149283599805688, 0.023999288099653494)","(-0.994584241065763, -0.10393113923646692, -0.0007111403872818769)",8.923449497651734e-05,6.201515610045003
44,Move,"(0.0155, 0.0, -0.0091)","(0.0, 0.1663263870565556, 0.0)","(0.010263500140180319, 0.16052686406958983, 0.04856103698974042)","(-0.007889433021758515, 0.0012621001612798978, 0.05879909136515042)","[0.002899547949972733, 0.001009256822503718, 0.0006919608443922559]","[-0.026750000193715096, 0.05299999937415123, 0.03999999910593033]","[0.0, -0.0, 0.44516346665678114]","[-0.057753585278987885, 0.1179829016327858, 0.03999999910593033]","[0.0, 0.0, -0.36673620016493996]","[0.026750000193715096, 0.05299999937415123, 0.03999999910593033]","[0.0, 0.0, -0.5998013108817715]","[0.06739245355129242, 0.11243224143981934, 0.03999999910593033]","[0.0, -0.0, 0.21663312649404953]",0.4421044669581405,-0.7341407690501475,"(0.0, 0.0, 0.0, 0.0, 0.0, 0.0)",-2.5569045482164747,-0.8108080116457083,0.26197892989924104,"(0.0, 0.0, 0.0, 0.0, 0.0, 0.0)",-1.326159643555303,-0.6024144688743661,-0.6271551438640343,"(0.0, 0.0, 0.0, 0.0, 0.0, 0.0)",2.0181602717689193,0.8156307180961051,-0.19289667334805335,"(0.0, 0.0, 0.0, 0.0, 0.0, 0.0)",0.9470490360502152,True,"(-0.02048295613870911, 0.18238566853801536, 0.023998610535169197)","(0.9982015227015829, 0.059931557269559295, -0.0013887114484298624)",-0.002455578696486973,18.227948727079962,True,"(0.04014982455939667, 0.18146084516750244, 0.023999288099653494)","(-0.994584241065763, -0.10393113923646692, -0.0007111403872818769)",8.878549631784739e-05,7.56371177847073
45,Move,"(0.0141, 0.0, -0.0096)","(0.0, 0.2294950886739864, 0.0)","(0.010889251739276953, 0.16051790226653015, 0.04857766674782389)","(-0.008511840419310511, 0.001233738558459618, 0.05724764346106023)","[0.003525299549069367, 0.0010002950194440419, 0.0007085906024757241]","[-0.026750000193715096, 0.05299999937415123, 0.03999999910593033]","[0.0, -0.0, 0.43935271259745756]","[-0.0573754645884037, 0.11816196143627167, 0.03999999910593033]","[0.0, 0.0, -0.3704567025401857]","[0.026750000193715096, 0.05299999937415123, 0.03999999910593033]","[0.0, 0.0, -0.6047668188985026]","[0.06768705695867538, 0.11222969740629196, 0.03999999910593033]","[0.0, -0.0, 0.21012708791755788]",0.4367199323030554,-0.6318542376388153,"(0.0, 0.0, 0.0, 0.0, 0.0, 0.0)",-2.658418270866406,-0.8085931182777698,0.2918918080645331,"(0.0, 0.0, 0.0, 0.0, 0.0, 0.0)",-1.448839979488241,-0.6066945098912163,-0.4626567897173487,"(0.0, 0.0, 0.0, 0.0, 0.0, 0.0)",2.4333109656080363,0.8139958067773336,-0.2155343538845017,"(0.0, 0.0, 0.0, 0.0, 0.0, 0.0)",1.0763920821508588,True,"(-0.01986557966735196, 0.18242724693952383, 0.023998810882813526)","(0.9983245692088724, 0.05785017121212226, -0.0011883621702385876)",-0.002322983335441948,20.310132782556465,True,"(0.04089410633962234, 0.18143408462531002, 0.023999288099653494)","(-0.994584241065763, -0.10393113923646692, -0.0007111403872818769)",9.388848461464714e-05,8.780736902977072
46,Move,"(0.011, 0.0, -0.0077)","(0.0, 0.24086590875072947, 0.0)","(0.011354789761630565, 0.16054106758002284, 0.04858547598362827)","(-0.009175619921202987, 0.0014756104791100737, 0.05664767032544845)","[0.003990837571422979, 0.0010234603329367375, 0.0007163998382801046]","[-0.026750000193715096, 0.05299999937415123, 0.03999999910593033]","[0.0, -0.0, 0.4343515149466421]","[-0.05704919621348381, 0.11831431090831757, 0.03999999910593033]","[0.0, 0.0, -0.3731403660070927]","[0.026750000193715096, 0.05299999937415123, 0.03999999910593033]","[0.0, 0.0, -0.6084296755009581]","[0.06790372729301453, 0.11207935959100723, 0.03999999910593033]","[0.0, -0.0, 0.20474310745365132]",0.4325226735847087,-0.43890601840022103,"(0.0, 0.0, 0.0, 0.0, 0.0, 0.0)",-2.4319759526502787,-0.8063597393565103,0.27170926657125827,"(0.0, 0.0, 0.0, 0.0, 0.0, 0.0)",-1.358667156180945,-0.6095856416034463,-0.27744985665025457,"(0.0, 0.0, 0.0, 0.0, 0.0, 0.0)",2.43259900022936,0.8122980515710356,-0.20991753176876776,"(0.0, 0.0, 0.0, 0.0, 0.0, 0.0)",1.0850313527843147,True,"(-0.019367062605580708, 0.18248028337113809, 0.023998688549526182)","(0.9983872009960365, 0.056756312090096656, -0.0013106964680999658)",-0.0022424235238272757,19.935237265794665,True,"(0.04148376136015765, 0.1814269914197993, 0.023999288099653494)","(-0.994584241065763, -0.10393113923646692, -0.0007111403872818769)",0.00010838972636324292,6.967405608663246
47,Move,"(0.014199999999999999, 0.0, -0.008)","(0.0, 0.19686964896645637, 0.0)","(0.011829986370535483, 0.16055043910310976, 0.04860479430194959)","(-0.010059874374188394, 0.0013621210624510825, 0.055601280816689476)","[0.004466034180327897, 0.0010328318560236527, 0.0007357181566014226]","[-0.026750000193715096, 0.05299999937415123, 0.03999999910593033]","[0.0, -0.0, 0.4308769450784155]","[-0.05682208016514778, 0.11841918528079987, 0.03999999910593033]","[0.0, 0.0, -0.3744734190812143]","[0.026750000193715096, 0.05299999937415123, 0.03999999910593033]","[0.0, 0.0, -0.6106257818640554]","[0.0680333748459816, 0.11198883503675461, 0.03999999910593033]","[0.0, -0.0, 0.20086820554409437]",0.428367953216818,-0.6021608058957311,"(0.0, 0.0, 0.0, 0.0, 0.0, 0.0)",-2.541955289469947,-0.8044137519027776,0.22478280858179092,"(0.0, 0.0, 0.0, 0.0, 0.0, 0.0)",-1.21451119079589,-0.6126220332240864,-0.47910550742320746,"(0.0, 0.0, 0.0, 0.0, 0.0, 0.0)",1.5515716996511095,0.8107216510090056,-0.18535606035490465,"(0.0, 0.0, 0.0, 0.0, 0.0, 0.0)",0.8893166981731015,True,"(-0.01905450968268712, 0.1825359721638464, 0.02399837642611982)","(0.9984001030684142, 0.05652079829286923, -0.0016228226385875762)",-0.0021772536177501137,16.86548067583766,True,"(0.041882322520974125, 0.18143832270635146, 0.023999288099653494)","(-0.994584241065763, -0.10393113923646692, -0.0007111403872818769)",0.00012774715264038492,3.419590694952977
48,Move,"(0.0174, 0.0, -0.0064)","(0.0, 0.09041678189956627, 0.0)","(0.01247364185997887, 0.16051448478361527, 0.04865594906338433)","(-0.011540210910498101, 0.0005925357302214515, 0.05312158538043877)","[0.005109689669771284, 0.0009968775365291616, 0.0007868729180361619]","[-0.026750000193715096, 0.05299999937415123, 0.03999999910593033]","[0.0, -0.0, 0.42611147429970825]","[-0.05650997906923294, 0.118561752140522, 0.03999999910593033]","[0.0, 0.0, -0.3774290895023138]","[0.026750000193715096, 0.05299999937415123, 0.03999999910593033]","[0.0, 0.0, -0.6144194739592576]","[0.06825686246156693, 0.11183179914951324, 0.03999999910593033]","[0.0, -0.0, 0.19559671514615293]",0.4230371551930906,-0.7378194998686042,"(0.0, 0.0, 0.0, 0.0, 0.0, 0.0)",-1.9616601507377094,-0.8028666447934987,0.1617227993264909,"(0.0, 0.0, 0.0, 0.0, 0.0, 0.0)",-0.9188109788866383,-0.6172465417788201,-0.6785057062279447,"(0.0, 0.0, 0.0, 0.0, 0.0, 0.0)",1.0715788589355957,0.8094199941750048,-0.14307681634002273,"(0.0, 0.0, 0.0, 0.0, 0.0, 0.0)",0.6718067091425372,True,"(-0.018553137461305602, 0.18256795181081464, 0.023998808953715475)","(0.9984915938076405, 0.05489189646240286, -0.001190293341368389)",-0.002071745717832138,12.532490115167597,True,"(0.0424722736067234, 0.1814181724673103, 0.023999288099653494)","(-0.994584241065763, -0.10393113923646692, -0.0007111403872818769)",0.00012009206635159924,1.4452796330571016
49,Move,"(0.0195, 0.0, -0.006900000000000001)","(0.0, 0.013110913340981403, 0.0)","(0.01323243233981422, 0.1604418360755273, 0.04872146573066029)","(-0.01335848642622076, -0.00034314424606701554, 0.049722956110518225)","[0.005868480149606635, 0.0009242288284412037, 0.0008523895853121202]","[-0.026750000193715096, 0.05299999937415123, 0.03999999910593033]","[0.0, -0.0, 0.4202731241462926]","[-0.05612670257687569, 0.11873438209295273, 0.03999999910593033]","[0.0, 0.0, -0.3819264418116836]","[0.026750000193715096, 0.05299999937415123, 0.03999999910593033]","[0.0, 0.0, -0.619792162887987]","[0.06857234984636307, 0.11160794645547867, 0.03999999910593033]","[0.0, -0.0, 0.18907772602085648]",0.4167964115573009,-0.8343962919117066,"(0.0, 0.0, 0.0, 0.0, 0.0, 0.0)",-1.8614446390563673,-0.80151011815045,0.16545361603069472,"(0.0, 0.0, 0.0, 0.0, 0.0, 0.0)",-0.8883537442792715,-0.6230052835254499,-0.7711535073412268,"(0.0, 0.0, 0.0, 0.0, 0.0, 0.0)",1.143485479456888,0.8082985684938019,-0.13711161491874785,"(0.0, 0.0, 0.0, 0.0, 0.0, 0.0)",0.6442167718830931,True,"(-0.01788245412221129, 0.1825705641571485, 0.0239998269179972)","(0.9986608410065736, 0.05173485232564315, -0.00017232204358065775)",-0.001927163619512466,12.01435068387135,True,"(0.0432419367127088, 0.1813609297976594, 0.023999288099653494)","(-0.994584241065763, -0.10393113923646692, -0.0007111403872818769)",9.638367725075365e-05,2.493757088142981
50,Move,"(0.0192, 0.0, -0.006900000000000001)","(0.0, 0.03446676206838401, 0.0)","(0.013973379752233409, 0.1603618118485552, 0.04866443025254413)","(-0.009317907775373242, -7.649061390054458e-05, 0.04595482298342874)","[0.006609427562025823, 0.000844204601469084, 0.0007953541071959655]","[-0.026750000193715096, 0.05299999937415123, 0.03999999910593033]","[0.0, -0.0, 0.41368353026966465]","[-0.05569290742278099, 0.1189265325665474, 0.03999999910593033]","[0.0, 0.0, -0.38693016106057043]","[0.026750000193715096, 0.05299999937415123, 0.03999999910593033]","[0.0, 0.0, -0.6259104992894761]","[0.06893014907836914, 0.11135096848011017, 0.03999999910593033]","[0.0, -0.0, 0.1817823428576499]",0.4105310824032828,-0.7565770576845645,"(0.0, 0.0, 0.0, 0.0, 0.0, 0.0)",-2.0939625527620493,-0.7997254575067595,0.2131573182450896,"(0.0, 0.0, 0.0, 0.0, 0.0, 0.0)",-1.108361629155036,-0.6288063098762059,-0.6950012793805173,"(0.0, 0.0, 0.0, 0.0, 0.0, 0.0)",1.6938347010451984,0.8070562316612031,-0.15277709258144373,"(0.0, 0.0, 0.0, 0.0, 0.0, 0.0)",0.7607668375992078,True,"(-0.017129721960262134, 0.18257055526276716, 0.0239998269179972)","(0.9986608410065736, 0.05173485232564315, -0.00017232204358065775)",-0.001797708366651722,13.194004558447538,True,"(0.04409700969149183, 0.1801236116449617, 0.023999815650626543)","(-0.9988532293799558, -0.04787684672323738, -0.0001835894142315167)",-3.677802186381793e-05,13.233057137579245
51,Move,"(0.0207, 0.0, -0.008)","(0.0, 0.06864379948093699, 0.0)","(0.014694572917809052, 0.16025949737957465, 0.0485341726224011)","(-0.002418615122601083, -0.00025280146653211696, 0.04161602447593845)","[0.007330620727601466, 0.000741890132488543, 0.0006650964770529358]","[-0.026750000193715096, 0.05299999937415123, 0.03999999910593033]","[0.0, -0.0, 0.4076942037402767]","[-0.05529753491282463, 0.11909870058298111, 0.03999999910593033]","[0.0, 0.0, -0.39126667202943094]","[0.026750000193715096, 0.05299999937415123, 0.03999999910593033]","[0.0, 0.0, -0.6314132875317401]","[0.06925059854984283, 0.11111797392368317, 0.03999999910593033]","[0.0, -0.0, 0.17506231171319717]",0.40434252284604616,-0.8043881928690542,"(0.0, 0.0, 0.0, 0.0, 0.0, 0.0)",-2.1144135659684853,-0.7981810494251542,0.1871492652528223,"(0.0, 0.0, 0.0, 0.0, 0.0, 0.0)",-1.020620165541758,-0.6344111377689567,-0.7195028775917309,"(0.0, 0.0, 0.0, 0.0, 0.0, 0.0)",1.5808527115295723,0.8058108538934923,-0.15952068552328486,"(0.0, 0.0, 0.0, 0.0, 0.0, 0.0)",0.7761146135103012,True,"(-0.016458714961138536, 0.1825748909359906, 0.0239998269179972)","(0.9986608410065736, 0.05173485232564315, -0.00017232204358065775)",-0.0016786459044670148,11.617117751470976,True,"(0.04488023693144574, 0.18005435743911707, 0.02399992274942695)","(-0.9989442600157351, -0.045938649640593285, -7.649061382140647e-05)",-2.57862572600967e-05,13.992420567051012
52,Move,"(0.0206, 0.0, -0.0099)","(0.0, 0.09422683565666987, 0.0)","(0.015387576692689033, 0.16016248929358542, 0.048478459930788365)","(0.0012760790253615788, -0.0003860299362209075, 0.03714739229446902)","[0.008023624502481447, 0.0006448820464993177, 0.0006093837854401971]","[-0.026750000193715096, 0.05299999937415123, 0.03999999910593033]","[0.0, -0.0, 0.401327125321289]","[-0.05487610772252083, 0.11927912384271622, 0.03999999910593033]","[0.0, 0.0, -0.39617765023387597]","[0.026750000193715096, 0.05299999937415123, 0.03999999910593033]","[0.0, 0.0, -0.6371089008540192]","[0.06958092749118805, 0.1108749657869339, 0.03999999910593033]","[0.0, -0.0, 0.168091076905988]",0.3981854691911453,-0.7539988390220435,"(0.0, 0.0, 0.0, 0.0, 0.0, 0.0)",-2.072249262936825,-0.796636488788189,0.20839498762540287,"(0.0, 0.0, 0.0, 0.0, 0.0, 0.0)",-1.046349199507093,-0.6398556705197356,-0.6592306628398008,"(0.0, 0.0, 0.0, 0.0, 0.0, 0.0)",1.6203480453292338,0.8045782524818766,-0.14920456966549148,"(0.0, 0.0, 0.0, 0.0, 0.0, 0.0)",0.7398866914712402,True,"(-0.015726027899915007, 0.18256381129215268, 0.0239998269179972)","(0.9986608410065736, 0.05173485232564315, -0.00017232204358065775)",-0.0015553584689388057,13.321166990392173,True,"(0.04569185792086251, 0.17997609456018945, 0.023999503804709374)","(-0.9992290620907793, -0.03925603160042989, -0.0004954353314003219)",-4.428197823182137e-05,12.691974188725979
53,Move,"(0.0185, 0.0, -0.0112)","(0.0, 0.06450213316595443, 0.0)","(0.015993601875023706, 0.16010422492163867, 0.048513531464132835)","(0.000997899096326786, -0.00014509515782463393, 0.03370726366372816)","[0.00862964968481612, 0.0005866176745525642, 0.0006444553187846674]","[-0.026750000193715096, 0.05299999937415123, 0.03999999910593033]","[0.0, -0.0, 0.3953582383438822]","[-0.054479990154504776, 0.11944582313299179, 0.03999999910593033]","[0.0, 0.0, -0.40048808367986594]","[0.026750000193715096, 0.05299999937415123, 0.03999999910593033]","[0.0, 0.0, -0.6423281765297563]","[0.06988240778446198, 0.11065062880516052, 0.03999999910593033]","[0.0, -0.0, 0.1616821699130339]",0.392812240223827,-0.611025360631236,"(0.0, 0.0, 0.0, 0.0, 0.0, 0.0)",-1.6993749167549301,-0.7950948612723489,0.180334747688499,"(0.0, 0.0, 0.0, 0.0, 0.0, 0.0)",-0.9279324246540925,-0.6445946849703774,-0.5439572597109459,"(0.0, 0.0, 0.0, 0.0, 0.0, 0.0)",1.532535169981109,0.803459611474919,-0.1321840081767669,"(0.0, 0.0, 0.0, 0.0, 0.0, 0.0)",0.6697149411048261,True,"(-0.015057494118519671, 0.18256117282704717, 0.0239998269179972)","(0.9986608410065736, 0.05173485232564315, -0.00017232204358065775)",-0.0014741754024348562,11.639484489172922,True,"(0.0464367736051707, 0.1799009748241891, 0.023999733025053743)","(-0.9993761076909533, -0.03531748159284192, -0.0002662149870314241)",-3.0038453045684856e-05,11.353243806905098
54,Move,"(0.0192, 0.0, -0.0114)","(0.0, 0.03438473159354028, 0.0)","(0.01657402795149908, 0.16008525796606732, 0.048540130933727846)","(-3.268222492797621e-05, -6.909953395964481e-05, 0.030394084633908452)","[0.009210075761291493, 0.0005676507189812108, 0.0006710547883796783]","[-0.026750000193715096, 0.05299999937415123, 0.03999999910593033]","[0.0, -0.0, 0.39051680527023486]","[-0.05415797233581543, 0.11957930028438568, 0.03999999910593033]","[0.0, 0.0, -0.40392402934789984]","[0.026750000193715096, 0.05299999937415123, 0.03999999910593033]","[0.0, 0.0, -0.6466365443810915]","[0.07013038545846939, 0.11046426743268967, 0.03999999910593033]","[0.0, -0.0, 0.1563165144249488]",0.3878231969269821,-0.646442088044236,"(0.0, 0.0, 0.0, 0.0, 0.0, 0.0)",-1.7552018379638665,-0.7937324933612346,0.16999365151906465,"(0.0, 0.0, 0.0, 0.0, 0.0, 0.0)",-0.866718690348737,-0.6490309993158647,-0.574668565042747,"(0.0, 0.0, 0.0, 0.0, 0.0, 0.0)",1.3008639449426174,0.8024120121363068,-0.12984868996970075,"(0.0, 0.0, 0.0, 0.0, 0.0, 0.0)",0.6303883019660572,True,"(-0.014518842359317365, 0.18255881887223452, 0.0239998269179972)","(0.9986608410065736, 0.05173485232564315, -0.00017232204358065775)",-0.0013808591160751852,10.036735216119599,True,"(0.04705673297365394, 0.17983715124000782, 0.023999893585259866)","(-0.9994808423462315, -0.03221854465885911, -0.00010565478090789533)",-2.7046951496894182e-05,11.266718994560252
55,Move,"(0.0217, 0.0, -0.0121)","(0.0, 0.11590207963718746, 0.0)","(0.01717387014202068, 0.16003559208222606, 0.04857856813139976)","(-0.0002912429953605421, 0.00023028691547142454, 0.026980073246151506)","[0.009809917951813095, 0.0005179848351399563, 0.0007094919860515941]","[-0.026750000193715096, 0.05299999937415123, 0.03999999910593033]","[0.0, -0.0, 0.38540296915818917]","[-0.05381714180111885, 0.11971858888864517, 0.03999999910593033]","[0.0, 0.0, -0.4076729344681112]","[0.026750000193715096, 0.05299999937415123, 0.03999999910593033]","[0.0, 0.0, -0.6511846260355074]","[0.07039128243923187, 0.11026638001203537, 0.03999999910593033]","[0.0, -0.0, 0.15074566758051894]",0.38231861527359934,-0.7402347905207067,"(0.0, 0.0, 0.0, 0.0, 0.0, 0.0)",-2.3204489446195105,-0.7921646334114268,0.21868866889245242,"(0.0, 0.0, 0.0, 0.0, 0.0, 0.0)",-1.125515057035438,-0.6537479698930804,-0.6152283006757017,"(0.0, 0.0, 0.0, 0.0, 0.0, 0.0)",1.4543146256070156,0.8013004828585727,-0.15112395414374613,"(0.0, 0.0, 0.0, 0.0, 0.0, 0.0)",0.7168358660773048,True,"(-0.013942269959997852, 0.18255182893403832, 0.02399993304956733)","(0.9995859570955159, 0.02877342517432308, -6.619047345061133e-05)",-0.0013095775830279253,13.548214807961134,True,"(0.04770448161024763, 0.17976562263466647, 0.023999930140506876)","(-0.9995381329808994, -0.030389405099677542, -6.90995339011826e-05)",-2.32974964151173e-05,12.395951691897583
56,Move,"(0.0254, 0.0, -0.0126)","(0.0, 0.11947476861601983, 0.0)","(0.017864803763013557, 0.1599657000785624, 0.04862036032745974)","(-0.0005061720351734191, 0.0005190423516470814, 0.022952280985290324)","[0.010500851572805971, 0.00044809283147628776, 0.0007512841821115737]","[-0.026750000193715096, 0.05299999937415123, 0.03999999910593033]","[0.0, -0.0, 0.37954313630453174]","[-0.05342572182416916, 0.11987604945898056, 0.03999999910593033]","[0.0, 0.0, -0.4117971229562416]","[0.026750000193715096, 0.05299999937415123, 0.03999999910593033]","[0.0, 0.0, -0.6560552367300543]","[0.07066968828439713, 0.11005313694477081, 0.03999999910593033]","[0.0, -0.0, 0.1446743496173418]",0.37573184886881533,-0.9147061790769407,"(0.0, 0.0, 0.0, 0.0, 0.0, 0.0)",-2.5921403151722444,-0.7903802202272832,0.23040048850214168,"(0.0, 0.0, 0.0, 0.0, 0.0, 0.0)",-1.222661273334123,-0.6592064127496582,-0.7562931067536671,"(0.0, 0.0, 0.0, 0.0, 0.0, 0.0)",1.4323035503612949,0.8000547998555254,-0.16194109795961883,"(0.0, 0.0, 0.0, 0.0, 0.0, 0.0)",0.7622586393915475,True,"(-0.013292072462524555, 0.1825450600502131, 0.023999600985650352)","(0.9996771494628993, 0.025405476479933405, -0.0003982543904289283)",-0.0012681575725061386,14.31518637127203,True,"(0.04840525384655138, 0.1796888380820984, 0.023999930140506876)","(-0.9995381329808994, -0.030389405099677542, -6.90995339011826e-05)",-3.929726014645336e-07,12.5790765998394
57,Move,"(0.0277, 0.0, -0.0126)","(0.0, 0.11590207963718746, 0.0)","(0.018650795724870203, 0.15986280542081768, 0.04861769621837888)","(0.0007505979091085714, 0.0006705568605247615, 0.01790059232725579)","[0.011286843534662618, 0.0003451981737315757, 0.0007486200730307119]","[-0.026750000193715096, 0.05299999937415123, 0.03999999910593033]","[0.0, -0.0, 0.372301189949384]","[-0.05294071510434151, 0.12006747722625732, 0.03999999910593033]","[0.0, 0.0, -0.4172198478377519]","[0.026750000193715096, 0.05299999937415123, 0.03999999910593033]","[0.0, 0.0, -0.6620425968314461]","[0.07101050764322281, 0.10978914797306061, 0.03999999910593033]","[0.0, -0.0, 0.13740077420470254]",0.3681491186602481,-0.9964917507887745,"(0.0, 0.0, 0.0, 0.0, 0.0, 0.0)",-2.449775883664137,-0.7885564720868368,0.2314850168189209,"(0.0, 0.0, 0.0, 0.0, 0.0, 0.0)",-1.2128399174571918,-0.6654465564902845,-0.8169304952547187,"(0.0, 0.0, 0.0, 0.0, 0.0, 0.0)",1.639062309925155,0.798734294377584,-0.17019737419521347,"(0.0, 0.0, 0.0, 0.0, 0.0, 0.0)",0.8169206553709008,True,"(-0.012467834118133604, 0.1825186964752349, 0.023999356250092356)","(0.999784577601205, 0.020745721359026057, -0.0006429899484277698)",-0.0012382961809791469,13.730480866343054,True,"(0.04925315569615031, 0.17958494733395713, 0.023999930140506876)","(-0.9995381329808994, -0.030389405099677542, -6.90995339011826e-05)",1.3521818227191495e-05,12.372460724781256
58,Move,"(0.029500000000000002, 0.0, -0.0137)","(0.0, 0.09041678189956627, 0.0)","(0.01948183824413575, 0.1597750675562871, 0.04865387700694358)","(0.000520415575618942, 0.0008765220518633322, 0.01227757703817398)","[0.012117886053928165, 0.0002574603092009853, 0.0007848008615954152]","[-0.026750000193715096, 0.05299999937415123, 0.03999999910593033]","[0.0, -0.0, 0.36441473765111887]","[-0.05241098254919052, 0.1202719435095787, 0.03999999910593033]","[0.0, 0.0, -0.42325038418508115]","[0.026750000193715096, 0.05299999937415123, 0.03999999910593033]","[0.0, 0.0, -0.668509008963028]","[0.07137679308652878, 0.10950176417827606, 0.03999999910593033]","[0.0, -0.0, 0.12960209350642998]",0.3600088220541601,-1.057417843835652,"(0.0, 0.0, 0.0, 0.0, 0.0, 0.0)",-2.487894153694658,-0.7866840515079576,0.23544479796567863,"(0.0, 0.0, 0.0, 0.0, 0.0, 0.0)",-1.2321372852906438,-0.6721335495115576,-0.8698948105498929,"(0.0, 0.0, 0.0, 0.0, 0.0, 0.0)",1.6356241766198634,0.7973992030852066,-0.17085331050558872,"(0.0, 0.0, 0.0, 0.0, 0.0, 0.0)",0.8204402023792732,True,"(-0.011562236612052385, 0.1824786022545667, 0.0239992143892795)","(0.9998816470153283, 0.015364763948619048, -0.000784850761285127)",-0.001212724425128873,14.566914942942276,True,"(0.050164414227090615, 0.17946511413730237, 0.023999930140506876)","(-0.9995381329808994, -0.030389405099677542, -6.90995339011826e-05)",1.7337345838295027e-05,11.771111787286111
59,Move,"(0.0325, 0.0, -0.0158)","(0.0, 0.021750293138353336, 0.0)","(0.020399658102408236, 0.15963510402262807, 0.048682022631113445)","(-0.00023797132214722008, 0.0009330297216161979, 0.005693453143723668)","[0.01303570591220065, 0.0001174967755419587, 0.0008129464857652771]","[-0.026750000193715096, 0.05299999937415123, 0.03999999910593033]","[0.0, -0.0, 0.35604115403957143]","[-0.05184677988290787, 0.12048445641994476, 0.03999999910593033]","[0.0, 0.0, -0.4297871212057457]","[0.026750000193715096, 0.05299999937415123, 0.03999999910593033]","[0.0, 0.0, -0.6753969476772289]","[0.07176491618156433, 0.10919303447008133, 0.03999999910593033]","[0.0, -0.0, 0.12135446563338521]",0.3510153582930255,-1.206180465102951,"(0.0, 0.0, 0.0, 0.0, 0.0, 0.0)",-2.715034586303306,-0.7847974724910225,0.2473853847027503,"(0.0, 0.0, 0.0, 0.0, 0.0, 0.0)",-1.2867597342651216,-0.6795517448988285,-0.9971398144051599,"(0.0, 0.0, 0.0, 0.0, 0.0, 0.0)",1.6053553911313787,0.7960122008426908,-0.1774211486843414,"(0.0, 0.0, 0.0, 0.0, 0.0, 0.0)",0.8528510812135418,True,"(-0.010592282640283085, 0.18242332822966936, 0.023999122671243794)","(0.9999555566964569, 0.009387026101116126, -0.0008765687969888236)",-0.0011881125456504797,15.288070462810728,True,"(0.051130284839610636, 0.17932895712289182, 0.023999930140506876)","(-0.9995381329808994, -0.030389405099677542, -6.90995339011826e-05)",1.6494063386828323e-05,12.35818906245202
60,Move,"(0.032299999999999995, 0.0, -0.0165)","(0.0, 0.008815658051823359, 0.0)","(0.021333801128425898, 0.15948366449710413, 0.048711468983285405)","(-0.00042675803781693075, 0.0010212517833628517, -0.0009769223317419515)","[0.013969848938218312, -3.394274998197444e-05, 0.0008423928379372378]","[-0.026750000193715096, 0.05299999937415123, 0.03999999910593033]","[0.0, -0.0, 0.34649246018258995]","[-0.05120125785470009, 0.1207210123538971, 0.03999999910593033]","[0.0, 0.0, -0.4373645761645079]","[0.026750000193715096, 0.05299999937415123, 0.03999999910593033]","[0.0, 0.0, -0.6832909393562041]","[0.07220709323883057, 0.10883594304323196, 0.03999999910593033]","[0.0, -0.0, 0.11205369965133621]",0.3417358171719688,-1.1415969409663351,"(0.0, 0.0, 0.0, 0.0, 0.0, 0.0)",-2.4132775014005947,-0.7828178125930715,0.24940817396334317,"(0.0, 0.0, 0.0, 0.0, 0.0, 0.0)",-1.2630920821411973,-0.6871540304949668,-0.9271413718250381,"(0.0, 0.0, 0.0, 0.0, 0.0, 0.0)",1.9188929911241381,0.794595644134129,-0.17975966345521335,"(0.0, 0.0, 0.0, 0.0, 0.0, 0.0)",0.8958205608612889,True,"(-0.00947861779513759, 0.18234613394700236, 0.023999013829728123)","(0.9999965551861347, 0.002432813675505998, -0.0009854103126607703)",-0.0011807699078135103,15.278017992827271,True,"(0.0522256628389368, 0.179160746160158, 0.023999930140506876)","(-0.9995381329808994, -0.030389405099677542, -6.90995339011826e-05)",2.4140781066518313e-05,11.881068120902302
61,Move,"(0.0316, 0.0, -0.017)","(0.0, 0.03017674276698196, 0.0)","(0.022201931281692948, 0.15925924997193533, 0.048722805942439176)","(-0.0005315333515794347, 0.0011260665181652334, -0.0068709309731342675)","[0.014837979091485362, -0.0002583572751507779, 0.0008537297970910088]","[-0.026750000193715096, 0.05299999937415123, 0.03999999910593033]","[0.0, -0.0, 0.3374558704158296]","[-0.050588302314281464, 0.12093920260667801, 0.03999999910593033]","[0.0, 0.0, -0.4443932724675403]","[0.026750000193715096, 0.05299999937415123, 0.03999999910593033]","[0.0, 0.0, -0.6906308857492438]","[0.07261569797992706, 0.10850079357624054, 0.03999999910593033]","[0.0, -0.0, 0.10328470834180638]",0.3330631287435285,-1.0542624159569856,"(0.0, 0.0, 0.0, 0.0, 0.0, 0.0)",-2.3804795294545262,-0.7807897192611569,0.2542515068829419,"(0.0, 0.0, 0.0, 0.0, 0.0, 0.0)",-1.2731982619848696,-0.6941267181394114,-0.8390090677656163,"(0.0, 0.0, 0.0, 0.0, 0.0, 0.0)",1.9937364909642172,0.7931582275292409,-0.18175832137782655,"(0.0, 0.0, 0.0, 0.0, 0.0, 0.0)",0.9179067051670279,True,"(-0.008433549998764812, 0.18227023430413136, 0.02399892260547804)","(0.9999917809685777, -0.003908817380024516, -0.0010766345627474055)",-0.0011758726249680976,15.027283425059785,True,"(0.05325170337183378, 0.17899810533798102, 0.023999930140506876)","(-0.9995381329808994, -0.030389405099677542, -6.90995339011826e-05)",3.28518983916866e-05,11.230998963179788
62,Move,"(0.03, 0.0, -0.016)","(0.0, 0.02147976710429422, 0.0)","(0.02298264215527499, 0.15902608528899376, 0.048735804632955376)","(-0.0007776574822369877, 0.0011893179368877862, -0.012005096692128311)","[0.015618689965067403, -0.0004915219580923502, 0.0008667284876072087]","[-0.026750000193715096, 0.05299999937415123, 0.03999999910593033]","[0.0, -0.0, 0.32911027164518647]","[-0.0500204861164093, 0.12113577872514725, 0.03999999910593033]","[0.0, 0.0, -0.4507170187681171]","[0.026750000193715096, 0.05299999937415123, 0.03999999910593033]","[0.0, 0.0, -0.6972729671493672]","[0.07298333197832108, 0.10819491744041443, 0.03999999910593033]","[0.0, -0.0, 0.0951999992197697]",0.3252213487651181,-0.9333420682648238,"(0.0, 0.0, 0.0, 0.0, 0.0, 0.0)",-2.2663534007849275,-0.7788086450012935,0.2444652910351709,"(0.0, 0.0, 0.0, 0.0, 0.0, 0.0)",-1.234652923928727,-0.7002955968893523,-0.7254214756889245,"(0.0, 0.0, 0.0, 0.0, 0.0, 0.0)",2.0110858936298244,0.7917204143036637,-0.18062179192930422,"(0.0, 0.0, 0.0, 0.0, 0.0, 0.0)",0.9081928549673447,True,"(-0.007478727420929761, 0.18219973348306234, 0.023998841546565505)","(0.9999541182583809, -0.009509002256886822, -0.0011576934752793183)",-0.0011718013184255278,14.721756585398689,True,"(0.05418991097317333, 0.1788464825917984, 0.023999930140506876)","(-0.9995381329808994, -0.030389405099677542, -6.90995339011826e-05)",4.5288598933996695e-05,9.748662509814569
63,Move,"(0.0298, 0.0, -0.0172)","(0.0, 0.03498163419772234, 0.0)","(0.023714845800602125, 0.15889649936981526, 0.04878859350939244)","(-0.0034839418669032813, 0.0011720351210179447, -0.015769753727744956)","[0.01635089361039454, -0.0006211078772708489, 0.0009195173640442755]","[-0.026750000193715096, 0.05299999937415123, 0.03999999910593033]","[0.0, -0.0, 0.32172188084070197]","[-0.04951643943786621, 0.12130585312843323, 0.03999999910593033]","[0.0, 0.0, -0.4561627022014638]","[0.026750000193715096, 0.05299999937415123, 0.03999999910593033]","[0.0, 0.0, -0.7030158107797883]","[0.07329954206943512, 0.10792849957942963, 0.03999999910593033]","[0.0, -0.0, 0.08803380463654188]",0.31799646344639954,-0.8940962494983444,"(0.0, 0.0, 0.0, 0.0, 0.0, 0.0)",-2.338326177107815,-0.7768730001170471,0.24277479410566996,"(0.0, 0.0, 0.0, 0.0, 0.0, 0.0)",-1.2081257649151431,-0.7058208115141906,-0.6732002256642213,"(0.0, 0.0, 0.0, 0.0, 0.0, 0.0)",1.9672838011410057,0.7902586800606365,-0.18982646739105907,"(0.0, 0.0, 0.0, 0.0, 0.0, 0.0)",0.9603953578183021,True,"(-0.006642766435671223, 0.18213795830727533, 0.02399878114581611)","(0.9998980742613254, -0.014225235848754023, -0.0012180942246781577)",-0.0011658599820274164,13.522966044159375,True,"(0.05501239190079603, 0.17869220605584202, 0.0560012188541839)","(-0.9998980742613254, 0.01422523584876663, 0.0012180942246792748)",-4.92314668451865e-05,15.941754081001301
64,Move,"(0.0253, 0.0, -0.016300000000000002)","(0.0, 0.10008416062636283, 0.0)","(0.024302271598401037, 0.15885551938175468, 0.04887337296609108)","(-0.0076731058535338655, 0.0010898757174599989, -0.01824261559449628)","[0.01693831940819345, -0.0006620878653314233, 0.0010042968207429129]","[-0.026750000193715096, 0.05299999937415123, 0.03999999910593033]","[0.0, -0.0, 0.3146441172765519]","[-0.04903241991996765, 0.1214652732014656, 0.03999999910593033]","[0.0, 0.0, -0.4613854253761613]","[0.026750000193715096, 0.05299999937415123, 0.03999999910593033]","[0.0, 0.0, -0.7083431103017105]","[0.07359150052070618, 0.10767973959445953, 0.03999999910593033]","[0.0, -0.0, 0.08117285859441577]",0.3122309267387379,-0.5791617673877104,"(0.0, 0.0, 0.0, 0.0, 0.0, 0.0)",-1.6935511046533174,-0.7751623951767278,0.2080980744700875,"(0.0, 0.0, 0.0, 0.0, 0.0, 0.0)",-1.0297660547617835,-0.7099671625642424,-0.3897712669125983,"(0.0, 0.0, 0.0, 0.0, 0.0, 0.0)",2.158481486163042,0.7887707641167704,-0.1788483274275803,"(0.0, 0.0, 0.0, 0.0, 0.0, 0.0)",0.9440135529628736,True,"(-0.005841588569420644, 0.18207474800375195, 0.02399892502386441)","(0.999849126690217, -0.017336952339353638, -0.0010742161763717833)",-0.0011643442724909552,12.978806511949344,True,"(0.055790212451365125, 0.17856349698009427, 0.05600107497613558)","(-0.9998491266902169, 0.017336952339360178, 0.001074216176358499)",-6.065632772813229e-05,14.90674253077707
65,Move,"(0.0195, 0.0, -0.0137)","(0.0, 0.22503053644738494, 0.0)","(0.024595522897961977, 0.1588612984337934, 0.04891177782818586)","(-0.009860136275596735, 0.0010465223257922463, -0.01924358615341467)","[0.01723157070775439, -0.0006563088132927053, 0.0010427016828376892]","[-0.026750000193715096, 0.05299999937415123, 0.03999999910593033]","[0.0, -0.0, 0.310059212568479]","[-0.04871828109025955, 0.12156672030687332, 0.03999999910593033]","[0.0, 0.0, -0.46432722665317616]","[0.026750000193715096, 0.05299999937415123, 0.03999999910593033]","[0.0, 0.0, -0.71142869085353]","[0.07375999540090561, 0.10753494501113892, 0.03999999910593033]","[0.0, -0.0, 0.07666577652853679]",0.3089988749322709,-0.2544736222654773,"(0.0, 0.0, 0.0, 0.0, 0.0, 0.0)",-1.7177693091926125,-0.7735321419570241,0.20502201944480938,"(0.0, 0.0, 0.0, 0.0, 0.0, 0.0)",-1.009630355832706,-0.7115055389647216,-0.018426332666847622,"(0.0, 0.0, 0.0, 0.0, 0.0, 0.0)",2.555538635208694,0.7871921360664412,-0.21657764332664928,"(0.0, 0.0, 0.0, 0.0, 0.0, 0.0)",1.1133758155033895,True,"(-0.005349306031432376, 0.18205013818811697, 0.02399890253051134)","(0.9998187259863724, -0.019008219148432592, -0.0010967095294424731)",-0.0011574821054612106,13.764747743871235,True,"(0.05627831141251501, 0.17849537704972987, 0.05600109746948864)","(-0.9998187259863727, 0.019008219148426413, 0.0010967095294303593)",-6.759956125797407e-05,16.75278803747932
66,Move,"(0.0154, 0.0, -0.0127)","(0.0, 0.3088412471281527, 0.0)","(0.02462615207390435, 0.15891705497255493, 0.04892190456079503)","(-0.010655381315247195, 0.0009174712800283765, -0.019202137217240407)","[0.017262199883696764, -0.0006005522745311798, 0.0010528284154468631]","[-0.026750000193715096, 0.05299999937415123, 0.03999999910593033]","[0.0, -0.0, 0.3080446038952965]","[-0.048580102622509, 0.12161083519458771, 0.03999999910593033]","[0.0, 0.0, -0.4647160425479532]","[0.026750000193715096, 0.05299999937415123, 0.03999999910593033]","[0.0, 0.0, -0.711574577050086]","[0.07376795262098312, 0.10752809047698975, 0.03999999910593033]","[0.0, -0.0, 0.07480341061374064]",0.3077289974312954,-0.0757530917424179,"(0.0, 0.0, 0.0, 0.0, 0.0, 0.0)",-2.213199072958097,-0.7717886588239277,0.23327976589519883,"(0.0, 0.0, 0.0, 0.0, 0.0, 0.0)",-1.127025739642093,-0.7105942119066743,0.23529614936926851,"(0.0, 0.0, 0.0, 0.0, 0.0, 0.0)",2.8219600975249963,0.7852671179288453,-0.26661921136944416,"(0.0, 0.0, 0.0, 0.0, 0.0, 0.0)",1.3635245102250388,True,"(-0.005187618387887866, 0.18207735292881672, 0.023999008308742523)","(0.9998106787553378, -0.019432568074060408, -0.0009909312982618848)",-0.0011666063117215584,16.04035122970654,True,"(0.056418419966130055, 0.1785195165640332, 0.05600099169125746)","(-0.9998106787553378, 0.01943256807406173, 0.0009909312982419463)",-7.559272739357799e-05,19.704770720800063
67,Move,"(0.014199999999999999, 0.0, -0.012)","(0.0, 0.34683182895631326, 0.0)","(0.024529877181232434, 0.1590039229654061, 0.04892036399045097)","(-0.010874597640774926, 0.000759967290896941, -0.018680605815881778)","[0.017165924991024848, -0.0005136842816799991, 0.0010512878451028052]","[-0.026750000193715096, 0.05299999937415123, 0.03999999910593033]","[0.0, -0.0, 0.307444800268945]","[-0.0485389418900013, 0.1216239184141159, 0.03999999910593033]","[0.0, 0.0, -0.4634680754535778]","[0.026750000193715096, 0.05299999937415123, 0.03999999910593033]","[0.0, 0.0, -0.7097117683713035]","[0.0736662894487381, 0.10761558264493942, 0.03999999910593033]","[0.0, -0.0, 0.07455589299709751]",0.3072340166494545,-0.05058054842713926,"(0.0, 0.0, 0.0, 0.0, 0.0, 0.0)",-2.7297946331611294,-0.7698435508855749,0.25663525392235614,"(0.0, 0.0, 0.0, 0.0, 0.0, 0.0)",-1.2837615830454832,-0.7084271680933146,0.30830285964957543,"(0.0, 0.0, 0.0, 0.0, 0.0, 0.0)",2.8755204229023463,0.7830227508406699,-0.2987775757509692,"(0.0, 0.0, 0.0, 0.0, 0.0, 0.0)",1.5133543908806002,True,"(-0.005221963573271808, 0.18214373220957158, 0.0239991535225551)","(0.9998192791334795, -0.018991941315824337, -0.0008457174856833416)",-0.0012075391693965667,18.019981551176507,True,"(0.05633432006368694, 0.17861061341092782, 0.05600084647744491)","(-0.9998192791334797, 0.01899194131581812, 0.000845717485694056)",-8.126549666983704e-05,21.848693188157412
68,Move,"(0.013300000000000001, 0.0, -0.012199999999999999)","(0.0, 0.3603214787449774, 0.0)","(0.024388989904781364, 0.15910472048981636, 0.04891546200535878)","(-0.010953632454144279, 0.0005817332790168247, -0.018051638051026917)","[0.01702503771457378, -0.0004128867572697481, 0.0010463858600106152]","[-0.026750000193715096, 0.05299999937415123, 0.03999999910593033]","[0.0, -0.0, 0.30704414484927717]","[-0.04851144924759865, 0.1216326430439949, 0.03999999910593033]","[0.0, 0.0, -0.46183604604873885]","[0.026750000193715096, 0.05299999937415123, 0.03999999910593033]","[0.0, 0.0, -0.707270883456705]","[0.0735328420996666, 0.10772993415594101, 0.03999999910593033]","[0.0, -0.0, 0.07463160326159109]",0.30698002416958686,-0.015385157251569307,"(0.0, 0.0, 0.0, 0.0, 0.0, 0.0)",-2.810268583252769,-0.7677928861801697,0.2609407972111967,"(0.0, 0.0, 0.0, 0.0, 0.0, 0.0)",-1.317749649196087,-0.7058030381313254,0.3522877656395855,"(0.0, 0.0, 0.0, 0.0, 0.0, 0.0)",2.951711946715734,0.7806056752944875,-0.3112376858513564,"(0.0, 0.0, 0.0, 0.0, 0.0, 0.0)",1.5826201406302403,True,"(-0.005293317905511123, 0.1822220346276791, 0.0239993231419586)","(0.9998305124143576, -0.018398079699421605, -0.000676098082180376)",-0.0012668651279410087,18.6394242951779,True,"(0.05619548732724162, 0.17872313625239228, 0.05600067685804139)","(-0.9998305124143578, 0.018398079699413046, 0.0006760980821672663)",-8.601446284313237e-05,22.66500576970598
69,Move,"(0.0136, 0.0, -0.0119)","(0.0, 0.3815952969975363, 0.0)","(0.0242416829407588, 0.15921112175866586, 0.048910806011835874)","(-0.011060834362322221, 0.00039600116920701124, -0.017388459133894713)","[0.016877730750551215, -0.0003064854884202439, 0.0010417298664877062]","[-0.026750000193715096, 0.05299999937415123, 0.03999999910593033]","[0.0, -0.0, 0.30692215027719627]","[-0.04850307106971741, 0.12163529545068741, 0.03999999910593033]","[0.0, 0.0, -0.4598899120358299]","[0.026750000193715096, 0.05299999937415123, 0.03999999910593033]","[0.0, 0.0, -0.7044819209462483]","[0.0733800157904625, 0.10786020010709763, 0.03999999910593033]","[0.0, -0.0, 0.07495761565812017]",0.30666120810377534,-0.0626124375850234,"(0.0, 0.0, 0.0, 0.0, 0.0, 0.0)",-3.2267482361092594,-0.7655905082969057,0.2931497584203777,"(0.0, 0.0, 0.0, 0.0, 0.0, 0.0)",-1.4805464100769221,-0.7030292407028609,0.34863589877276335,"(0.0, 0.0, 0.0, 0.0, 0.0, 0.0)",3.1541631603654214,0.7780287509798836,-0.33857968090483903,"(0.0, 0.0, 0.0, 0.0, 0.0, 0.0)",1.7093468548618675,True,"(-0.005402961104597308, 0.1823073964893375, 0.023999509492688868)","(0.9998425281025259, -0.017739197983024278, -0.0004897473519156321)",-0.0013265340596589643,20.51150899265589,True,"(0.056019513105376645, 0.17884741228540885, 0.05600049050731113)","(-0.9998425281025259, 0.01773919798302378, 0.0004897473519142548)",-8.895928651605525e-05,24.766616527014484
70,Move,"(0.0125, 0.0, -0.0115)","(0.0, 0.37941014477403934, 0.0)","(0.024080262857569687, 0.1593228190733109, 0.04890507381759478)","(-0.011126774382712007, 0.0002014271598366484, -0.0167029609163154)","[0.0167163106673621, -0.00019478817377521773, 0.0010359976722466094]","[-0.026750000193715096, 0.05299999937415123, 0.03999999910593033]","[0.0, -0.0, 0.3064261989173922]","[-0.04846903309226036, 0.12164607644081116, 0.03999999910593033]","[0.0, 0.0, -0.4580645621588806]","[0.026750000193715096, 0.05299999937415123, 0.03999999910593033]","[0.0, 0.0, -0.7017216736878296]","[0.07322841137647629, 0.10798870027065277, 0.03999999910593033]","[0.0, -0.0, 0.07503684010861206]",0.30644218744878593,0.0038418940466253063,"(0.0, 0.0, 0.0, 0.0, 0.0, 0.0)",-2.9769862737744672,-0.7633359853299925,0.2771397337082173,"(0.0, 0.0, 0.0, 0.0, 0.0, 0.0)",-1.406135369820456,-0.7000997436111825,0.3892627866271671,"(0.0, 0.0, 0.0, 0.0, 0.0, 0.0)",3.173559412149724,0.7753648166917795,-0.3344854872677088,"(0.0, 0.0, 0.0, 0.0, 0.0, 0.0)",1.7097457355346335,True,"(-0.005479757840996191, 0.18239558984132465, 0.023999695159774015)","(0.9998542460474289, -0.01707027229188436, -0.0003040802667691077)",-0.001397593976404095,19.937609243606865,True,"(0.05586227531553192, 0.17897394685055978, 0.05600030484022598)","(-0.9998542460474288, 0.017070272291892945, 0.0003040802667603999)",-9.463627893792413e-05,24.378914790786354
71,Move,"(0.0151, 0.0, -0.0111)","(0.0, 0.37720230327026655, 0.0)","(0.023975465423177116, 0.15942312002495554, 0.04890470292872252)","(-0.011449235002569813, 2.2846881737135638e-05, -0.016142337700117002)","[0.01661151323296953, -9.448722213056815e-05, 0.0010356267833743493]","[-0.026750000193715096, 0.05299999937415123, 0.03999999910593033]","[0.0, -0.0, 0.3064563616606379]","[-0.048471104353666306, 0.12164542078971863, 0.03999999910593033]","[0.0, 0.0, -0.4558368094473968]","[0.026750000193715096, 0.05299999937415123, 0.03999999910593033]","[0.0, 0.0, -0.6986400186314041]","[0.07305873930454254, 0.10813166946172714, 0.03999999910593033]","[0.0, -0.0, 0.07547165886338791]",0.3057853449275114,-0.16104096230967674,"(0.0, 0.0, 0.0, 0.0, 0.0, 0.0)",-3.564435848600489,-0.7609878836218843,0.3132576897078671,"(0.0, 0.0, 0.0, 0.0, 0.0, 0.0)",-1.6091632853051914,-0.6976226037409242,0.24417173017679467,"(0.0, 0.0, 0.0, 0.0, 0.0, 0.0)",3.0397168677960384,0.7727008963645753,-0.3385804210137672,"(0.0, 0.0, 0.0, 0.0, 0.0, 0.0)",1.7034529455128906,True,"(-0.005617295783889836, 0.1824890240081996, 0.023999897672879824)","(0.9998659461842603, -0.016373128753103507, -0.00010156716096344542)",-0.0014545824096272462,21.369168615895326,True,"(0.05566172789608718, 0.1791090970245713, 0.05600010232712014)","(-0.9998659461842604, 0.016373128753100093, 0.00010156716092403527)",-9.651897929020292e-05,25.43320256607173
72,Move,"(0.0128, 0.0, -0.0096)","(0.0, 0.36363585899451467, 0.0)","(0.023864673961550426, 0.15952713627389337, 0.04892435014306585)","(-0.012556161865485199, -0.0008189312405720979, -0.016158020177217215)","[0.01650072177134284, 9.529026807258978e-06, 0.0010552739977176817]","[-0.026750000193715096, 0.05299999937415123, 0.03999999910593033]","[0.0, -0.0, 0.30518432534262463]","[-0.048383764922618866, 0.12167299538850784, 0.03999999910593033]","[0.0, 0.0, -0.4545927796652223]","[0.026750000193715096, 0.05299999937415123, 0.03999999910593033]","[0.0, 0.0, -0.6967091909999603]","[0.07295220345258713, 0.10822097957134247, 0.03999999910593033]","[0.0, -0.0, 0.07467929370491938]",0.3051927814471515,0.002035317686442689,"(0.0, 0.0, 0.0, 0.0, 0.0, 0.0)",-2.8001963729827204,-0.7586175092810264,0.2782904252526692,"(0.0, 0.0, 0.0, 0.0, 0.0, 0.0)",-1.3999238818861526,-0.6952916546173058,0.34020382264581556,"(0.0, 0.0, 0.0, 0.0, 0.0, 0.0)",3.913947896972994,0.7698024263906176,-0.3806485367406604,"(0.0, 0.0, 0.0, 0.0, 0.0, 0.0)",1.9229762985153427,True,"(-0.005605681967732326, 0.18256986278907056, 0.023999897672879824)","(0.9998659461842603, -0.016373128753103507, -0.00010156716096344542)",-0.001512553249906715,17.10672666628873,True,"(0.055611438459494046, 0.17921217042180843, 0.05600010232712014)","(-0.9998659461842604, 0.016373128753100093, 0.00010156716092403527)",-9.649271021462779e-05,23.75770900247157
73,Move,"(0.0154, 0.0, -0.0106)","(0.0, 0.35240641058718314, 0.0)","(0.02376160282871993, 0.1596332131698562, 0.048955657593995824)","(-0.014134510054058235, -0.0019319490462678453, -0.01649822710193949)","[0.016397650638512343, 0.00011560592277010118, 0.0010865814486476569]","[-0.026750000193715096, 0.05299999937415123, 0.03999999910593033]","[0.0, -0.0, 0.3052005056287747]","[-0.048384882509708405, 0.12167264521121979, 0.03999999910593033]","[0.0, 0.0, -0.45236874931136245]","[0.026750000193715096, 0.05299999937415123, 0.03999999910593033]","[0.0, 0.0, -0.694016018886477]","[0.0728033110499382, 0.10834521055221558, 0.03999999910593033]","[0.0, -0.0, 0.0743364339826182]",0.3045321640187253,-0.16041239048255024,"(0.0, 0.0, 0.0, 0.0, 0.0, 0.0)",-3.704512106687071,-0.7561968960992852,0.32937507204292177,"(0.0, 0.0, 0.0, 0.0, 0.0, 0.0)",-1.6744952060878961,-0.6932485219203607,0.1841730264915656,"(0.0, 0.0, 0.0, 0.0, 0.0, 0.0)",3.4034285910921667,0.7669190373797355,-0.34399390962228055,"(0.0, 0.0, 0.0, 0.0, 0.0, 0.0)",1.757767643836515,True,"(-0.005742338601272039, 0.18266449941300344, 0.023999897672879824)","(0.9998659461842603, -0.016373128753103507, -0.00010156716096344542)",-0.0014965122979688783,20.724119897840207,True,"(0.05548688730663333, 0.1793423457868219, 0.05600010232712014)","(-0.9998659461842604, 0.016373128753100093, 0.00010156716092403527)",-5.13800920402058e-05,22.983322034303274
74,Move,"(0.0158, 0.0, -0.0103)","(0.0, 0.34128342726422317, 0.0)","(0.023727841128427067, 0.1597247367448496, 0.04898560036485476)","(-0.0157060633372699, -0.002516013774956672, -0.01655636301054077)","[0.01636388893821948, 0.00020712949776349743, 0.0011165242195065941]","[-0.026750000193715096, 0.05299999937415123, 0.03999999910593033]","[0.0, -0.0, 0.3039310137733007]","[-0.04829767718911171, 0.12170005589723587, 0.03999999910593033]","[0.0, 0.0, -0.4510269044636766]","[0.026750000193715096, 0.05299999937415123, 0.03999999910593033]","[0.0, 0.0, -0.6925570618714909]","[0.07272252440452576, 0.10841234028339386, 0.03999999910593033]","[0.0, -0.0, 0.0730479744890342]",0.30326308760204823,-0.16028803308287384,"(0.0, 0.0, 0.0, 0.0, 0.0, 0.0)",-3.4315208888907676,-0.7536396479811146,0.3163604374423354,"(0.0, 0.0, 0.0, 0.0, 0.0, 0.0)",-1.632161812649976,-0.6918748675075116,0.16372979516180877,"(0.0, 0.0, 0.0, 0.0, 0.0, 0.0)",3.400581058773806,0.7642571581341521,-0.3234930429961547,"(0.0, 0.0, 0.0, 0.0, 0.0, 0.0)",1.6667109024188498,True,"(-0.005737016965586941, 0.18274907788417674, 0.023999897672879824)","(0.9998659461842603, -0.016373128753103507, -0.00010156716096344542)",-0.0015239466808464929,20.537009117645812,True,"(0.05549759048667601, 0.17943172369302424, 0.05600010232712014)","(-0.9998659461842604, 0.016373128753100093, 0.00010156716092403527)",4.4329868386458834e-06,20.721561828200223
75,Move,"(0.014, 0.0, -0.0115)","(0.0, 0.34128342726422317, 0.0)","(0.02368370681633539, 0.15981903037585873, 0.04901170127967877)","(-0.0170746408403862, -0.003347769748889338, -0.016492505343444246)","[0.016319754626127805, 0.00030142312877262656, 0.0011426251343306035]","[-0.026750000193715096, 0.05299999937415123, 0.03999999910593033]","[0.0, -0.0, 0.30266162355546256]","[-0.04821045696735382, 0.1217273473739624, 0.03999999910593033]","[0.0, 0.0, -0.449750660336264]","[0.026750000193715096, 0.05299999937415123, 0.03999999910593033]","[0.0, 0.0, -0.6912595925610547]","[0.07265058159828186, 0.10847194492816925, 0.03999999910593033]","[0.0, -0.0, 0.07178427907648555]",0.3024301925769131,-0.05554805104979922,"(0.0, 0.0, 0.0, 0.0, 0.0, 0.0)",-2.7972180398637287,-0.7513060229017513,0.26551187672641785,"(0.0, 0.0, 0.0, 0.0, 0.0, 0.0)",-1.366444261131576,-0.69021428921019,0.250862415777527,"(0.0, 0.0, 0.0, 0.0, 0.0, 0.0)",3.521656765893019,0.7616793797794006,-0.32746756417449957,"(0.0, 0.0, 0.0, 0.0, 0.0, 0.0)",1.6764391027333767,True,"(-0.005727742181501627, 0.18283063869143001, 0.023999897672879824)","(0.9998659461842603, -0.016373128753103507, -0.00010156716096344542)",-0.0015462719747459848,16.551027499203382,True,"(0.05551541324037498, 0.17951303785579237, 0.05600010232712014)","(-0.9998659461842604, 0.016373128753100093, 0.00010156716092403527)",4.986802280091585e-05,16.482474690363034
76,Move,"(0.0134, 0.0, -0.0117)","(0.0, 0.34683182895631326, 0.0)","(0.023604271995356155, 0.1599195957330079, 0.04904063628183661)","(-0.018451467117891352, -0.004631268036933785, -0.016780533949324473)","[0.01624031980514857, 0.0004019884859217948, 0.0011715601364884407]","[-0.026750000193715096, 0.05299999937415123, 0.03999999910593033]","[0.0, -0.0, 0.30222256900297195]","[-0.04818028211593628, 0.12173676490783691, 0.03999999910593033]","[0.0, 0.0, -0.44807156011940324]","[0.026750000193715096, 0.05299999937415123, 0.03999999910593033]","[0.0, 0.0, -0.6892728128183186]","[0.072540283203125, 0.10856302082538605, 0.03999999910593033]","[0.0, -0.0, 0.07115775685638406]",0.30206967552735603,-0.036701297385011614,"(0.0, 0.0, 0.0, 0.0, 0.0, 0.0)",-2.8338095189598156,-0.7492251494372111,0.25656452050011813,"(0.0, 0.0, 0.0, 0.0, 0.0, 0.0)",-1.324002249563466,-0.688129296940061,0.27445135866599474,"(0.0, 0.0, 0.0, 0.0, 0.0, 0.0)",3.512302609783065,0.7590314197842213,-0.3358034792833822,"(0.0, 0.0, 0.0, 0.0, 0.0, 0.0)",1.7146247607331762,True,"(-0.005800224617524392, 0.18291130111503856, 0.023999897672879824)","(0.9998659461842603, -0.016373128753103507, -0.00010156716096344542)",-0.0015106705852845374,15.596348820655928,True,"(0.05544962851055733, 0.1796148408579602, 0.05600010232712014)","(-0.9998659461842604, 0.016373128753100093, 0.00010156716092403527)",5.912102902774438e-05,15.788966164765053
77,Move,"(0.013800000000000002, 0.0, -0.0111)","(0.0, 0.35800717215683286, 0.0)","(0.023521413265982036, 0.1600231526907844, 0.04907236614799235)","(-0.019904562688078074, -0.005934565892121113, -0.01712632331202991)","[0.01615746107577445, 0.0005055454436982965, 0.0012032900026441792]","[-0.026750000193715096, 0.05299999937415123, 0.03999999910593033]","[0.0, -0.0, 0.30193301809855055]","[-0.0481603741645813, 0.12174297124147415, 0.03999999910593033]","[0.0, 0.0, -0.4463127299092621]","[0.026750000193715096, 0.05299999937415123, 0.03999999910593033]","[0.0, 0.0, -0.6870996458005084]","[0.0724194198846817, 0.10866241157054901, 0.03999999910593033]","[0.0, -0.0, 0.07065061902229144]",0.30162502494164967,-0.07391427036029678,"(0.0, 0.0, 0.0, 0.0, 0.0, 0.0)",-3.1538062116694316,-0.747057136794017,0.28526642014268394,"(0.0, 0.0, 0.0, 0.0, 0.0, 0.0)",-1.4542811231277133,-0.6860078740823404,0.2620030253860607,"(0.0, 0.0, 0.0, 0.0, 0.0, 0.0)",3.6044872348971535,0.7562996990777908,-0.3481146702924684,"(0.0, 0.0, 0.0, 0.0, 0.0, 0.0)",1.7734678229452412,True,"(-0.005887978578310832, 0.18299194880723188, 0.023999897672879824)","(0.9998659461842603, -0.016373128753103507, -0.00010156716096344542)",-0.001467544497824271,16.88710741435846,True,"(0.055364800780021504, 0.17972288327752145, 0.05600010232712014)","(-0.9998659461842604, 0.016373128753100093, 0.00010156716092403527)",6.380176196228462e-05,16.02958391413185
78,Move,"(0.0117, 0.0, -0.0135)","(0.0, 0.37941014477403934, 0.0)","(0.023387244709634845, 0.1601389740500143, 0.04910406788598321)","(-0.021356949030280493, -0.007330227577498419, -0.01738511350258743)","[0.01602329251942726, 0.0006213668029281805, 0.0012349917406350441]","[-0.026750000193715096, 0.05299999937415123, 0.03999999910593033]","[0.0, -0.0, 0.3013485693392098]","[-0.04812019690871239, 0.12175547331571579, 0.03999999910593033]","[0.0, 0.0, -0.4446236751582713]","[0.026750000193715096, 0.05299999937415123, 0.03999999910593033]","[0.0, 0.0, -0.6850243744173439]","[0.07230381667613983, 0.10875706374645233, 0.03999999910593033]","[0.0, -0.0, 0.06995072759189883]",0.301479565879062,0.031436360987829176,"(0.0, 0.0, 0.0, 0.0, 0.0, 0.0)",-2.8718043954028936,-0.7448585510130359,0.26729587203520516,"(0.0, 0.0, 0.0, 0.0, 0.0, 0.0)",-1.3541799147830331,-0.6834017754799996,0.3894285910060196,"(0.0, 0.0, 0.0, 0.0, 0.0, 0.0)",4.021486160706149,0.7534020506544389,-0.3775356098065155,"(0.0, 0.0, 0.0, 0.0, 0.0, 0.0)",1.9370804972923716,True,"(-0.005951312568100768, 0.1830757622144239, 0.023999897672879824)","(0.9998659461842603, -0.016373128753103507, -0.00010156716096344542)",-0.0014442963037389987,15.878379053524132,True,"(0.05529893376782313, 0.1798294538302801, 0.05600010232712014)","(-0.9998659461842604, 0.016373128753100093, 0.00010156716092403527)",7.825046070654236e-05,15.901216762825763
79,Move,"(0.012400000000000001, 0.0, -0.014400000000000001)","(0.0, 0.35800717215683286, 0.0)","(0.023236173944924384, 0.16025609834170626, 0.049137402606956405)","(-0.02280271999929931, -0.008839615464912484, -0.017781390034092997)","[0.0158722217547168, 0.0007384910946201528, 0.001268326461608238]","[-0.026750000193715096, 0.05299999937415123, 0.03999999910593033]","[0.0, -0.0, 0.3015973830285094]","[-0.048137303441762924, 0.12175015360116959, 0.03999999910593033]","[0.0, 0.0, -0.4422474062261978]","[0.026750000193715096, 0.05299999937415123, 0.03999999910593033]","[0.0, 0.0, -0.6819413830494406]","[0.0721317008137703, 0.10889723896980286, 0.03999999910593033]","[0.0, -0.0, 0.07002146300570408]",0.30156753389251334,-0.0071611951757079295,"(0.0, 0.0, 0.0, 0.0, 0.0, 0.0)",-2.9209029977557273,-0.7427816468853046,0.2551436232077629,"(0.0, 0.0, 0.0, 0.0, 0.0, 0.0)",-1.3143312143557426,-0.6806586234298633,0.3078521200274295,"(0.0, 0.0, 0.0, 0.0, 0.0, 0.0)",3.513941845928823,0.7505215091590622,-0.3459111228584313,"(0.0, 0.0, 0.0, 0.0, 0.0, 0.0)",1.786883846573091,True,"(-0.006114253814026666, 0.1831704773101477, 0.023999897672879824)","(0.9998659461842603, -0.016373128753103507, -0.00010156716096344542)",-0.0014197440469447759,14.629704142623067,True,"(0.05512178762257773, 0.17996843032643883, 0.05600010232712014)","(-0.9998659461842604, 0.016373128753100093, 0.00010156716092403527)",9.071542242199674e-05,13.044011899541408
80,Move,"(0.0127, 0.0, -0.014)","(0.0, 0.35240641058718314, 0.0)","(0.02312322087098882, 0.16036224552271494, 0.04917505760714238)","(-0.024270771009199638, -0.010272005643139327, -0.01837843168634378)","[0.015759268680781233, 0.000844638275628834, 0.0013059814617942117]","[-0.026750000193715096, 0.05299999937415123, 0.03999999910593033]","[0.0, -0.0, 0.3015407369049601]","[-0.04813340678811073, 0.12175136059522629, 0.03999999910593033]","[0.0, 0.0, -0.44027479156692945]","[0.026750000193715096, 0.05299999937415123, 0.03999999910593033]","[0.0, 0.0, -0.6795041143616861]","[0.0719953328371048, 0.10900767892599106, 0.03999999910593033]","[0.0, -0.0, 0.06969344106640603]",0.30144695416790795,-0.02250659166647712,"(0.0, 0.0, 0.0, 0.0, 0.0, 0.0)",-2.860602507932022,-0.7407674808785695,0.25153407174700915,"(0.0, 0.0, 0.0, 0.0, 0.0, 0.0)",-1.3043820752462585,-0.6783056934377617,0.28762465662150444,"(0.0, 0.0, 0.0, 0.0, 0.0, 0.0)",3.569917919262763,0.7477490000220889,-0.3476561741282058,"(0.0, 0.0, 0.0, 0.0, 0.0, 0.0)",1.7692788469168714,True,"(-0.006231597008611062, 0.18325446224470057, 0.023999897672879824)","(0.9998659461842603, -0.016373128753103507, -0.00010156716096344542)",-0.0013757248053989932,14.06547140190385,True,"(0.055008733785358734, 0.18008444486809752, 0.05600010232712014)","(-0.9998659461842604, 0.016373128753100093, 0.00010156716092403527)",9.840721697692595e-05,12.026249043941108
81,Move,"(0.0127, 0.0, -0.014)","(0.0, 0.35240641058718314, 0.0)","(0.023019893148777282, 0.16046604324847547, 0.049215195984567105)","(-0.025771041886591458, -0.01175635298651743, -0.019100768762754648)","[0.015655940958569696, 0.0009484360013893578, 0.0013461198392189372]","[-0.026750000193715096, 0.05299999937415123, 0.03999999910593033]","[0.0, -0.0, 0.301363075503162]","[-0.048121191561222076, 0.12175516039133072, 0.03999999910593033]","[0.0, 0.0, -0.4384351014521518]","[0.026750000193715096, 0.05299999937415123, 0.03999999910593033]","[0.0, 0.0, -0.6772272641011627]","[0.0718676894903183, 0.10911054909229279, 0.03999999910593033]","[0.0, -0.0, 0.0692043825127865]",0.30125746028741457,-0.025339835736092477,"(0.0, 0.0, 0.0, 0.0, 0.0, 0.0)",-2.853125166017993,-0.7387483790229741,0.2519428998557594,"(0.0, 0.0, 0.0, 0.0, 0.0, 0.0)",-1.305132014648971,-0.6760410699726894,0.2846840547472903,"(0.0, 0.0, 0.0, 0.0, 0.0, 0.0)",3.604158923120922,0.7449754141575632,-0.34949172219369573,"(0.0, 0.0, 0.0, 0.0, 0.0, 0.0)",1.776051614604681,True,"(-0.006332599025456902, 0.1833352437938806, 0.023999897672879824)","(0.9998659461842603, -0.016373128753103507, -0.00010156716096344542)",-0.0013279678791151177,13.803491692113752,True,"(0.054915857038172956, 0.18019561660389144, 0.05600010232712014)","(-0.9998659461842604, 0.016373128753100093, 0.00010156716092403527)",0.00010645999660647485,11.148136994679495
