OSUrobotics/InHand-Manipulation/AnalyseData/Data/Trial Data/Tries/new_hand_human_sub1_2v2_c_n_1_kpNone_kdNone_dp3_step1_save_data.csv
,Phase,human_cube_pos,human_cube_orn,Cube_Pos,Cube_Orn,Cube_pos_in_start_pos,b'l_prox_pin'_link_pos,b'l_prox_pin'_link_orn,b'l_distal_pin'_link_pos,b'l_distal_pin'_link_orn,b'r_prox_pin'_link_pos,b'r_prox_pin'_link_orn,b'r_distal_pin'_link_pos,b'r_distal_pin'_link_orn,b'l_prox_pin'_joint_angle,b'l_prox_pin'_joint_vel,b'l_prox_pin'_joint_react_forces,b'l_prox_pin'_joint_motor_torque,b'l_distal_pin'_joint_angle,b'l_distal_pin'_joint_vel,b'l_distal_pin'_joint_react_forces,b'l_distal_pin'_joint_motor_torque,b'r_prox_pin'_joint_angle,b'r_prox_pin'_joint_vel,b'r_prox_pin'_joint_react_forces,b'r_prox_pin'_joint_motor_torque,b'r_distal_pin'_joint_angle,b'r_distal_pin'_joint_vel,b'r_distal_pin'_joint_react_forces,b'r_distal_pin'_joint_motor_torque,in_contact_l,contact_point_l_dist,contact_normal_l_dist,contact_distance_l_dist,contact_norm_force_l_dist,in_contact_r,contact_point_r_dist,contact_normal_r_dist,contact_distance_r_dist,contact_norm_force_r_dist
0,Open,,,,,,"[-0.026750000193715096, 0.05299999937415123, 0.03999999910593033]","[0.0, -0.0, 0.0]","[-0.026750000193715096, 0.125, 0.03999999910593033]","[0.0, -0.0, 0.0]","[0.026750000193715096, 0.05299999937415123, 0.03999999910593033]","[0.0, -0.0, 0.0]","[0.026750000193715096, 0.125, 0.03999999910593033]","[0.0, -0.0, 0.0]",0.0,0.0,"(0.0, 0.0, 0.0, 0.0, 0.0, 0.0)",1.3400621000080305e-17,5.883223478113402e-32,1.4119736347472167e-29,"(0.0, 0.0, 0.0, 0.0, 0.0, 0.0)",1.0542555313129702e-18,-0.008068665190486622,-1.9364796457167894,"(0.0, 0.0, 0.0, 0.0, 0.0, 0.0)",193.26378306879909,-0.0700246186727924,-16.805908481470176,"(0.0, 0.0, 0.0, 0.0, 0.0, 0.0)",71.94009191575694,False,,,,,False,,,,
1,Open,,,,,,"[-0.026750000193715096, 0.05299999937415123, 0.03999999910593033]","[0.0, -0.0, 0.0]","[-0.026750000193715096, 0.125, 0.03999999910593033]","[0.0, -0.0, 5.883223447970011e-32]","[0.026750000193715096, 0.05299999937415123, 0.03999999910593033]","[0.0, 0.0, -0.008068665592501188]","[0.02733093686401844, 0.12499765306711197, 0.03999999910593033]","[0.0, 0.0, -0.0780932845685428]",0.157,37.68,"(0.0, 0.0, 0.0, 0.0, 0.0, 0.0)",54.702693795169004,5.294901130302062e-32,-1.4119736347472162e-30,"(0.0, 0.0, 0.0, 0.0, 0.0, 0.0)",3.9113724975844915,-0.1670280316324969,-38.150247946082466,"(0.0, 0.0, 0.0, 0.0, 0.0, 0.0)",-25.93345404555236,-0.0659493391739072,0.9780670797324476,"(0.0, 0.0, 0.0, 0.0, 0.0, 0.0)",-6.754749483880455,False,,,,,False,,,,
2,Open,,,,,,"[-0.026750000193715096, 0.05299999937415123, 0.03999999910593033]","[0.0, -0.0, 0.1569999988554567]","[-0.03800761699676514, 0.12411445379257202, 0.03999999910593033]","[0.0, -0.0, 0.1569999988554567]","[0.026750000193715096, 0.05299999937415123, 0.03999999910593033]","[0.0, 0.0, -0.16702801712980753]","[0.038720179349184036, 0.1239979937672615, 0.03999999910593033]","[0.0, 0.0, -0.23297739431320727]",0.29829999999999995,33.91199999999999,"(0.0, 0.0, 0.0, 0.0, 0.0, 0.0)",-5.390828189440958,5.294901130302062e-32,0.0,"(0.0, 0.0, 0.0, 0.0, 0.0, 0.0)",-0.3659219356209609,-0.3122944613104081,-34.863943122698686,"(0.0, 0.0, 0.0, 0.0, 0.0, 0.0)",95.8006544774165,-0.06705867534034729,-0.2662406799456205,"(0.0, 0.0, 0.0, 0.0, 0.0, 0.0)",9.049911776264722,False,,,,,False,,,,
3,Open,,,,,,"[-0.026750000193715096, 0.05299999937415123, 0.03999999910593033]","[0.0, -0.0, 0.29830000998707634]","[-0.04791048914194107, 0.12182030081748962, 0.03999999910593033]","[0.0, -0.0, 0.29830000998707634]","[0.026750000193715096, 0.05299999937415123, 0.03999999910593033]","[0.0, 0.0, -0.3122944642903269]","[0.048871491104364395, 0.12151744216680527, 0.03999999910593033]","[0.0, 0.0, -0.3793531994353912]",0.42546999999999996,30.5208,"(0.0, 0.0, 0.0, 0.0, 0.0, 0.0)",-4.858074537215091,5.294901130302062e-32,0.0,"(0.0, 0.0, 0.0, 0.0, 0.0, 0.0)",-0.33154044974508506,-0.44292449566296654,-31.35120824461403,"(0.0, 0.0, 0.0, 0.0, 0.0, 0.0)",100.88457241511576,-0.08373770380977785,-4.0029668326633345,"(0.0, 0.0, 0.0, 0.0, 0.0, 0.0)",24.077304806401806,False,,,,,False,,,,
4,Open,,,,,,"[-0.026750000193715096, 0.05299999937415123, 0.03999999910593033]","[0.0, -0.0, 0.4254700097131474]","[-0.056467924267053604, 0.11858082562685013, 0.03999999910593033]","[0.0, -0.0, 0.4254700097131474]","[0.026750000193715096, 0.05299999937415123, 0.03999999910593033]","[0.0, 0.0, -0.4429245237535421]","[0.057608019560575485, 0.1180521547794342, 0.03999999910593033]","[0.0, 0.0, -0.5266622746639338]",0.5399229999999999,27.46872,"(0.0, 0.0, 0.0, 0.0, 0.0, 0.0)",-4.377393708535371,5.294901130302062e-32,0.0,"(0.0, 0.0, 0.0, 0.0, 0.0, 0.0)",-0.30017707799641646,-0.5623038734984663,-28.651050680519948,"(0.0, 0.0, 0.0, 0.0, 0.0, 0.0)",144.45470973647488,-0.10456727132876567,-4.999096204557077,"(0.0, 0.0, 0.0, 0.0, 0.0, 0.0)",33.97911746732963,False,,,,,False,,,,
5,Open,,,,,,"[-0.026750000193715096, 0.05299999937415123, 0.03999999910593033]","[0.0, -0.0, 0.5399230359738098]","[-0.06376303732395172, 0.11475787311792374, 0.03999999910593033]","[0.0, -0.0, 0.5399230359738098]","[0.026750000193715096, 0.05299999937415123, 0.03999999910593033]","[0.0, 0.0, -0.5623038790270362]","[0.06513584405183792, 0.11391409486532211, 0.03999999910593033]","[0.0, 0.0, -0.6668711870723439]",0.6429307,24.721848,"(0.0, 0.0, 0.0, 0.0, 0.0, 0.0)",-3.943806903965684,5.294901130302062e-32,0.0,"(0.0, 0.0, 0.0, 0.0, 0.0, 0.0)",-0.2716098155097054,-0.6673401099248648,-25.208696742335626,"(0.0, 0.0, 0.0, 0.0, 0.0, 0.0)",94.97739775913854,-0.11755295807544866,-3.116564819203918,"(0.0, 0.0, 0.0, 0.0, 0.0, 0.0)",25.79194570087013,False,,,,,False,,,,
6,Open,,,,,,"[-0.026750000193715096, 0.05299999937415123, 0.03999999910593033]","[0.0, -0.0, 0.6429307111289271]","[-0.06991713494062424, 0.11062463372945786, 0.03999999910593033]","[0.0, -0.0, 0.6429307111289271]","[0.026750000193715096, 0.05299999937415123, 0.03999999910593033]","[0.0, 0.0, -0.6673401753977319]","[0.07131072133779526, 0.10955388844013214, 0.03999999910593033]","[0.0, 0.0, -0.7848931559948581]",0.73563763,22.249663200000004,"(0.0, 0.0, 0.0, 0.0, 0.0, 0.0)",-3.552789792259023,5.294901130302062e-32,0.0,"(0.0, 0.0, 0.0, 0.0, 0.0, 0.0)",-0.24562369466220793,-0.7579917869736262,-21.756402491702737,"(0.0, 0.0, 0.0, 0.0, 0.0, 0.0)",34.46450837185191,-0.10794166402774508,2.3067105714488583,"(0.0, 0.0, 0.0, 0.0, 0.0, 0.0)",8.765009015475858,False,,,,,False,,,,
7,Open,,,,,,"[-0.026750000193715096, 0.05299999937415123, 0.03999999910593033]","[0.0, -0.0, 0.7356376306875043]","[-0.07506632059812546, 0.10638101398944855, 0.03999999910593033]","[0.0, -0.0, 0.7356376306875043]","[0.026750000193715096, 0.05299999937415123, 0.03999999910593033]","[0.0, 0.0, -0.757991847340814]","[0.076247438788414, 0.10528770089149475, 0.03999999910593033]","[0.0, 0.0, -0.8659334873334429]",0.8190738670000001,20.024696880000004,"(0.0, 0.0, 0.0, 0.0, 0.0, 0.0)",-3.2002295086701533,2.3293280891773424e-07,5.5903874140256216e-05,"(0.0, 0.0, 0.0, 0.0, 0.0, 0.0)",-0.22200715926400075,-0.8391926082762636,-19.488197112632974,"(0.0, 0.0, 0.0, 0.0, 0.0, 0.0)",3.295349739497939,-0.09714776835574307,2.590534961280482,"(0.0, 0.0, 0.0, 0.0, 0.0, 0.0)",0.25803221970863044,False,,,,,False,,,,
8,Open,,,,,,"[-0.026750000193715096, 0.05299999937415123, 0.03999999910593033]","[0.0, -0.0, 0.8190738875671263]","[-0.07934698462486267, 0.10216865688562393, 0.03999999910593033]","[0.0, -0.0, 0.8190741465287105]","[0.026750000193715096, 0.05299999937415123, 0.03999999910593033]","[0.0, 0.0, -0.839192558822362]","[0.08032548427581787, 0.10110059380531311, 0.03999999910593033]","[0.0, 0.0, -0.9363403253067936]",0.8941664803,18.022227192,"(0.0, 0.0, 0.0, 0.0, 0.0, 0.0)",-2.8824197251771095,4.2009445145371055e-07,4.4918794208634316e-05,"(0.0, 0.0, 0.0, 0.0, 0.0, 0.0)",-0.2005835928406654,-0.9122733474486373,-17.539377401369673,"(0.0, 0.0, 0.0, 0.0, 0.0, 0.0)",2.7804978356880783,-0.0874331700712747,2.33150358827241,"(0.0, 0.0, 0.0, 0.0, 0.0, 0.0)",0.17017621517521792,False,,,,,False,,,,
9,Open,,,,,,"[-0.026750000193715096, 0.05299999937415123, 0.03999999910593033]","[0.0, -0.0, 0.894166469119967]","[-0.08288749307394028, 0.09808415919542313, 0.03999999910593033]","[0.0, -0.0, 0.894166894674561]","[0.026750000193715096, 0.05299999937415123, 0.03999999910593033]","[0.0, 0.0, -0.9122733503889549]","[0.08369457721710205, 0.09706035256385803, 0.03999999910593033]","[0.0, 0.0, -0.9997066729229968]",0.96174983227,16.220004472800003,"(0.0, 0.0, 0.0, 0.0, 0.0, 0.0)",-2.5959652512206968,5.681494863714967e-07,3.553320838026869e-05,"(0.0, 0.0, 0.0, 0.0, 0.0, 0.0)",-0.18114955764248034,-0.9780460127037736,-15.785439661232708,"(0.0, 0.0, 0.0, 0.0, 0.0, 0.0)",2.503992476159733,-0.0786900142246732,2.098357403184359,"(0.0, 0.0, 0.0, 0.0, 0.0, 0.0)",0.15360133560797545,False,,,,,False,,,,
10,Open,,,,,,"[-0.026750000193715096, 0.05299999937415123, 0.03999999910593033]","[0.0, -0.0, 0.9617498658906226]","[-0.08580395579338074, 0.09419016540050507, 0.03999999910593033]","[0.0, -0.0, 0.9617504517765805]","[0.026750000193715096, 0.05299999937415123, 0.03999999910593033]","[0.0, 0.0, -0.9780460255881384]","[0.08646733313798904, 0.09322238713502884, 0.03999999910593033]","[0.0, 0.0, -1.0567360258914282]",1.022574849043,14.598004025520002,"(0.0, 0.0, 0.0, 0.0, 0.0, 0.0)",-2.337816594086846,6.829231533297027e-07,2.7545680069969436e-05,"(0.0, 0.0, 0.0, 0.0, 0.0, 0.0)",-0.16354029854134106,-1.0372414114333963,-14.206895695109438,"(0.0, 0.0, 0.0, 0.0, 0.0, 0.0)",2.2548456713339484,-0.07082115822448021,1.8885254400463192,"(0.0, 0.0, 0.0, 0.0, 0.0, 0.0)",0.13860128234430863,False,,,,,False,,,,
11,Open,,,,,,"[-0.026750000193715096, 0.05299999937415123, 0.03999999910593033]","[0.0, -0.0, 1.0225748785172661]","[-0.08819860219955444, 0.09052424877882004, 0.03999999910593033]","[0.0, -0.0, 1.0225755149967983]","[0.026750000193715096, 0.05299999937415123, 0.03999999910593033]","[0.0, 0.0, -1.037241417801626]","[0.08874232321977615, 0.08961901068687439, 0.03999999910593033]","[0.0, 0.0, -1.1080626941470386]",1.0773173641387,13.138203622968001,"(0.0, 0.0, 0.0, 0.0, 0.0, 0.0)",-2.105207702642618,7.694903593429899e-07,2.0776129443188934e-05,"(0.0, 0.0, 0.0, 0.0, 0.0, 0.0)",-0.14759587787833617,-1.0905172702900567,-12.78620612559849,"(0.0, 0.0, 0.0, 0.0, 0.0, 0.0)",2.0303755786213302,-0.06373917358809339,1.6996763127328351,"(0.0, 0.0, 0.0, 0.0, 0.0, 0.0)",0.1250328149112744,False,,,,,False,,,,
12,Open,,,,,,"[-0.026750000193715096, 0.05299999937415123, 0.03999999910593033]","[0.0, -0.0, 1.0773173786594632]","[-0.09015969932079315, 0.08710587024688721, 0.03999999910593033]","[0.0, -0.0, 1.0773182784199262]","[0.026750000193715096, 0.05299999937415123, 0.03999999910593033]","[0.0, 0.0, -1.090517334189526]","[0.09060435742139816, 0.0862659215927124, 0.03999999910593033]","[0.0, 0.0, -1.1542564269670996]",1.1265856277248298,11.824383260671203,"(0.0, 0.0, 0.0, 0.0, 0.0, 0.0)",-1.895636869852492,8.322629993378343e-07,1.5065433598762668e-05,"(0.0, 0.0, 0.0, 0.0, 0.0, 0.0)",-0.13316806895824274,-1.138465543261051,-11.50758551303864,"(0.0, 0.0, 0.0, 0.0, 0.0, 0.0)",1.828159741200242,-0.05736537454460671,1.5297117704368035,"(0.0, 0.0, 0.0, 0.0, 0.0, 0.0)",0.11276577482950233,False,,,,,False,,,,
13,Open,,,,,,"[-0.026750000193715096, 0.05299999937415123, 0.03999999910593033]","[0.0, -0.0, 1.126585512342968]","[-0.09176240861415863, 0.08394166082143784, 0.03999999910593033]","[0.0, -0.0, 1.1265864725026016]","[0.026750000193715096, 0.05299999937415123, 0.03999999910593033]","[0.0, 0.0, -1.13846552283997]","[0.09212540090084076, 0.08316715806722641, 0.03999999910593033]","[0.0, 0.0, -1.1958309904194953]",1.1709270649523469,10.641944934604087,"(0.0, 0.0, 0.0, 0.0, 0.0, 0.0)",-1.7068426281171958,8.750681698751778e-07,1.0273240928962424e-05,"(0.0, 0.0, 0.0, 0.0, 0.0, 0.0)",-0.12011999884119333,-1.181618988934946,-10.356826961734775,"(0.0, 0.0, 0.0, 0.0, 0.0, 0.0)",1.6460093571929852,-0.051628943774705546,1.376743384776279,"(0.0, 0.0, 0.0, 0.0, 0.0, 0.0)",0.10168054944364863,False,,,,,False,,,,
14,Open,,,,,,"[-0.026750000193715096, 0.05299999937415123, 0.03999999910593033]","[0.0, -0.0, 1.170927100750299]","[-0.09307006001472473, 0.08102945238351822, 0.03999999910593033]","[0.0, -0.0, 1.1709279927689973]","[0.026750000193715096, 0.05299999937415123, 0.03999999910593033]","[0.0, 0.0, -1.181618964677462]","[0.09336595237255096, 0.08031877130270004, 0.03999999910593033]","[0.0, 0.0, -1.233247876832181]",1.2108343584571122,9.577750441143678,"(0.0, 0.0, 0.0, 0.0, 0.0, 0.0)",-1.5367816122769582,9.012180617793662e-07,6.275974057005224e-06,"(0.0, 0.0, 0.0, 0.0, 0.0, 0.0)",-0.1083256720668905,-1.2204570900414513,-9.3211442655613,"(0.0, 0.0, 0.0, 0.0, 0.0, 0.0)",1.4819475463743526,-0.046466145575958295,1.239071567699341,"(0.0, 0.0, 0.0, 0.0, 0.0, 0.0)",0.09166748660725833,False,,,,,False,,,,
15,Open,,,,,,"[-0.026750000193715096, 0.05299999937415123, 0.03999999910593033]","[0.0, -0.0, 1.2108343955497323]","[-0.09413553774356842, 0.07836118340492249, 0.03999999910593033]","[0.0, -0.0, 1.210835255049739]","[0.026750000193715096, 0.05299999937415123, 0.03999999910593033]","[0.0, 0.0, -1.2204571829136446]","[0.09437645971775055, 0.07771158218383789, 0.03999999910593033]","[0.0, 0.0, -1.2669233179031547]",1.2467509226114009,8.619975397029307,"(0.0, 0.0, 0.0, 0.0, 0.0, 0.0)",-1.3836082777937824,9.135722823677317e-07,2.9650129412077397e-06,"(0.0, 0.0, 0.0, 0.0, 0.0, 0.0)",-0.09766941677677543,-1.2554113810373062,-8.38902983900517,"(0.0, 0.0, 0.0, 0.0, 0.0, 0.0)",1.334189480132575,-0.04181961771093252,1.1151666876061868,"(0.0, 0.0, 0.0, 0.0, 0.0, 0.0)",0.08262627878010878,False,,,,,False,,,,
16,Open,,,,,,"[-0.026750000193715096, 0.05299999937415123, 0.03999999910593033]","[0.0, -0.0, 1.2467510110527222]","[-0.09500277042388916, 0.07592508941888809, 0.03999999910593033]","[0.0, -0.0, 1.246751870145374]","[0.026750000193715096, 0.05299999937415123, 0.03999999910593033]","[0.0, 0.0, -1.255411348379259]","[0.09519875049591064, 0.0753331333398819, 0.03999999910593033]","[0.0, 0.0, -1.2972309672073006]",1.2790758303502607,7.757977857326381,"(0.0, 0.0, 0.0, 0.0, 0.0, 0.0)",-1.2456264712746363,2.1141758111398655e-06,0.0002881448469053121,"(0.0, 0.0, 0.0, 0.0, 0.0, 0.0)",-0.088015399348708,-1.2868702429335757,-7.5501268551046525,"(0.0, 0.0, 0.0, 0.0, 0.0, 0.0)",1.2010989712673745,-0.037638748630864464,1.0034085792163332,"(0.0, 0.0, 0.0, 0.0, 0.0, 0.0)",0.07444006052486639,False,,,,,False,,,,
17,Open,,,,,,"[-0.026750000193715096, 0.05299999937415123, 0.03999999910593033]","[0.0, -0.0, 1.2790758758817962]","[-0.09570803493261337, 0.0737072303891182, 0.03999999910593033]","[0.0, -0.0, 1.2790780932516201]","[0.026750000193715096, 0.05299999937415123, 0.03999999910593033]","[0.0, 0.0, -1.2868702529032277]","[0.0958673357963562, 0.07316911965608597, 0.03999999910593033]","[0.0, 0.0, -1.3245087793274308]",1.3081682532711112,6.982181501004109,"(0.0, 0.0, 0.0, 0.0, 0.0, 0.0)",-1.12145472366965,1.9027582300258812e-06,-5.0740219467356254e-05,"(0.0, 0.0, 0.0, 0.0, 0.0, 0.0)",-0.07939114715284208,-1.315183223212741,-6.795115266999686,"(0.0, 0.0, 0.0, 0.0, 0.0, 0.0)",1.0813262344929835,-0.033874873767778015,0.9033299671407473,"(0.0, 0.0, 0.0, 0.0, 0.0, 0.0)",0.06713055017345074,False,,,,,False,,,,
18,Open,,,,,,"[-0.026750000193715096, 0.05299999937415123, 0.03999999910593033]","[0.0, -0.0, 1.3081682459906412]","[-0.09628119319677353, 0.07169260084629059, 0.03999999910593033]","[0.0, -0.0, 1.3081702011658356]","[0.026750000193715096, 0.05299999937415123, 0.03999999910593033]","[0.0, 0.0, -1.3151833180210462]","[0.0964106097817421, 0.07120437920093536, 0.03999999910593033]","[0.0, 0.0, -1.349058153261439]",1.334351427944,6.283961921493333,"(0.0, 0.0, 0.0, 0.0, 0.0, 0.0)",-1.0095234585863413,2.7618377923566443e-06,0.00020617909495938315,"(0.0, 0.0, 0.0, 0.0, 0.0, 0.0)",-0.07148780084672787,-1.3406649008914668,-6.11560264289422,"(0.0, 0.0, 0.0, 0.0, 0.0, 0.0)",0.9733796231570812,-0.030488273507324658,0.8127840625088054,"(0.0, 0.0, 0.0, 0.0, 0.0, 0.0)",0.060435192896783604,False,,,,,False,,,,
19,Open,,,,,,"[-0.026750000193715096, 0.05299999937415123, 0.03999999910593033]","[0.0, -0.0, 1.334351465706577]","[-0.09674673527479172, 0.06986585259437561, 0.03999999910593033]","[0.0, -0.0, 1.33435435145599]","[0.026750000193715096, 0.05299999937415123, 0.03999999910593033]","[0.0, 0.0, -1.3406650641721125]","[0.09685182571411133, 0.06942359358072281, 0.03999999910593033]","[0.0, 0.0, -1.3711530696282732]",1.3579162851496,5.655565729344001,"(0.0, 0.0, 0.0, 0.0, 0.0, 0.0)",-0.9088150211252332,3.4316066113876724e-06,0.0001607445165674468,"(0.0, 0.0, 0.0, 0.0, 0.0, 0.0)",-0.06444344013525093,-1.3635984108023202,-5.504042378604797,"(0.0, 0.0, 0.0, 0.0, 0.0, 0.0)",0.8762522980402716,-0.02744024570882781,0.7315266716392431,"(0.0, 0.0, 0.0, 0.0, 0.0, 0.0)",0.05446985052483407,False,,,,,False,,,,
20,Open,,,,,,"[-0.026750000193715096, 0.05299999937415123, 0.03999999910593033]","[0.0, -0.0, 1.3579163939939654]","[-0.09712471067905426, 0.0682118609547615, 0.03999999910593033]","[0.0, -0.0, 1.3579197824809437]","[0.026750000193715096, 0.05299999937415123, 0.03999999910593033]","[0.0, 0.0, -1.3635984874387626]","[0.09721000492572784, 0.06781173497438431, 0.03999999910593033]","[0.0, 0.0, -1.3910385869420074]",1.37912465663464,5.090009156409601,"(0.0, 0.0, 0.0, 0.0, 0.0, 0.0)",-0.8181093185961676,3.940702417530038e-06,0.0001221829934741677,"(0.0, 0.0, 0.0, 0.0, 0.0, 0.0)",-0.05806034967263589,-1.3842385697220883,-4.953638140744317,"(0.0, 0.0, 0.0, 0.0, 0.0, 0.0)",0.7887791417834831,-0.024696941374704916,0.6583930401894944,"(0.0, 0.0, 0.0, 0.0, 0.0, 0.0)",0.04906644857689494,False,,,,,False,,,,
21,Open,,,,,,"[-0.026750000193715096, 0.05299999937415123, 0.03999999910593033]","[0.0, -0.0, 1.3791247702213432]","[-0.0974314734339714, 0.0667160153388977, 0.03999999910593033]","[0.0, -0.0, 1.3791284782568445]","[0.026750000193715096, 0.05299999937415123, 0.03999999910593033]","[0.0, 0.0, -1.3842387704807777]","[0.09750068932771683, 0.06635437905788422, 0.03999999910593033]","[0.0, 0.0, -1.408935619520831]",1.398212190971176,4.581008240768642,"(0.0, 0.0, 0.0, 0.0, 0.0, 0.0)",-0.7364407507487188,4.314390796743166e-06,8.968521101115077e-05,"(0.0, 0.0, 0.0, 0.0, 0.0, 0.0)",-0.05230389643117988,-1.4028147127498793,-4.458274326669883,"(0.0, 0.0, 0.0, 0.0, 0.0, 0.0)",0.7100243788118592,-0.02222789596809768,0.5925708975857369,"(0.0, 0.0, 0.0, 0.0, 0.0, 0.0)",0.04419507766734469,False,,,,,False,,,,
22,Open,,,,,,"[-0.026750000193715096, 0.05299999937415123, 0.03999999910593033]","[0.0, -0.0, 1.3982120672717784]","[-0.09768038988113403, 0.06536446511745453, 0.03999999910593033]","[0.0, -0.0, 1.3982164487645397]","[0.026750000193715096, 0.05299999937415123, 0.03999999910593033]","[0.0, 0.0, -1.4028147367436141]","[0.09773654490709305, 0.06503787636756897, 0.03999999910593033]","[0.0, 0.0, -1.4250426427007885]",1.4153909718740585,4.122907416691778,"(0.0, 0.0, 0.0, 0.0, 0.0, 0.0)",-0.6629119687698639,4.574523674952359e-06,6.243189077020624e-05,"(0.0, 0.0, 0.0, 0.0, 0.0, 0.0)",-0.04711364623212332,-1.4195332414748913,-4.012446894002898,"(0.0, 0.0, 0.0, 0.0, 0.0, 0.0)",0.6391216750959775,-0.02000569064819732,0.5333292767760867,"(0.0, 0.0, 0.0, 0.0, 0.0, 0.0)",0.039804123486470444,False,,,,,False,,,,
23,Open,,,,,,"[-0.026750000193715096, 0.05299999937415123, 0.03999999910593033]","[0.0, -0.0, 1.415391158105469]","[-0.09788231551647186, 0.06414420157670975, 0.03999999910593033]","[0.0, -0.0, 1.415395709317307]","[0.026750000193715096, 0.05299999937415123, 0.03999999910593033]","[0.0, 0.0, -1.419533200978404]","[0.09792786836624146, 0.06384945660829544, 0.03999999910593033]","[0.0, 0.0, -1.4395389386881268]",1.4308518746866525,3.7106166750225977,"(0.0, 0.0, 0.0, 0.0, 0.0, 0.0)",-0.5967141397561109,4.7399630338636504e-06,3.9705446138709865e-05,"(0.0, 0.0, 0.0, 0.0, 0.0, 0.0)",-0.042434775014060074,-1.4345799173274023,-3.611202204602609,"(0.0, 0.0, 0.0, 0.0, 0.0, 0.0)",0.5752902758042565,-0.018005647771851804,0.4800102903229233,"(0.0, 0.0, 0.0, 0.0, 0.0, 0.0)",0.0358468230863414,False,,,,,False,,,,
24,Open,,,,,,"[-0.026750000193715096, 0.05299999937415123, 0.03999999910593033]","[0.0, -0.0, 1.4308518944899675]","[-0.09804610908031464, 0.06304314732551575, 0.03999999910593033]","[0.0, -0.0, 1.4308566269594332]","[0.026750000193715096, 0.05299999937415123, 0.03999999910593033]","[0.0, 0.0, -1.4345798203875788]","[0.09808305650949478, 0.06277728080749512, 0.03999999910593033]","[0.0, 0.0, -1.4525855975984745]",1.4447666872179874,3.339555007520341,"(0.0, 0.0, 0.0, 0.0, 0.0, 0.0)",-0.5371183361845069,4.8269553674989e-06,2.0878160072459843e-05,"(0.0, 0.0, 0.0, 0.0, 0.0, 0.0)",-0.03821759960562203,-1.448121925594662,-3.2500819841423465,"(0.0, 0.0, 0.0, 0.0, 0.0, 0.0)",0.5178266556878065,-0.016205556838873442,0.4320218239148067,"(0.0, 0.0, 0.0, 0.0, 0.0, 0.0)",0.0322808466635012,False,,,,,False,,,,
25,Open,,,,,,"[-0.026750000193715096, 0.05299999937415123, 0.03999999910593033]","[0.0, -0.0, 1.4447668540021588]","[-0.09817895293235779, 0.06205013021826744, 0.03999999910593033]","[0.0, -0.0, 1.4447715863131299]","[0.026750000193715096, 0.05299999937415123, 0.03999999910593033]","[0.0, 0.0, -1.448121993206969]","[0.09820891171693802, 0.06181041896343231, 0.03999999910593033]","[0.0, 0.0, -1.46432761016298]",1.4572900184961886,3.005599506768304,"(0.0, 0.0, 0.0, 0.0, 0.0, 0.0)",-0.483467731204937,4.849462099751187e-06,5.401615740548756e-06,"(0.0, 0.0, 0.0, 0.0, 0.0, 0.0)",-0.03441712855198442,-1.4603097330351957,-2.925073785728113,"(0.0, 0.0, 0.0, 0.0, 0.0, 0.0)",0.4660969568661882,-0.014585427836986846,0.38883096045278315,"(0.0, 0.0, 0.0, 0.0, 0.0, 0.0)",0.029067900465992856,False,,,,,False,,,,
26,Open,,,,,,"[-0.026750000193715096, 0.05299999937415123, 0.03999999910593033]","[0.0, -0.0, 1.4572900807517244]","[-0.0982866883277893, 0.061154916882514954, 0.03999999910593033]","[0.0, -0.0, 1.4572948921008348]","[0.026750000193715096, 0.05299999937415123, 0.03999999910593033]","[0.0, 0.0, -1.4603097470714805]","[0.09831098467111588, 0.06093886122107506, 0.03999999910593033]","[0.0, 0.0, -1.4748951413427742]",1.4685610166465697,2.705039556091476,"(0.0, 0.0, 0.0, 0.0, 0.0, 0.0)",-0.43517053908893033,4.819450845044722e-06,-7.202701129551542e-06,"(0.0, 0.0, 0.0, 0.0, 0.0, 0.0)",-0.030992645518402973,-1.471278759731676,-2.632566407155304,"(0.0, 0.0, 0.0, 0.0, 0.0, 0.0)",0.4195301522878829,-0.013127269246907155,0.3499580616191257,"(0.0, 0.0, 0.0, 0.0, 0.0, 0.0)",0.02617336062226555,False,,,,,False,,,,
27,Open,,,,,,"[-0.026750000193715096, 0.05299999937415123, 0.03999999910593033]","[0.0, -0.0, 1.4685611215819594]","[-0.09837405383586884, 0.06034812703728676, 0.03999999910593033]","[0.0, -0.0, 1.468565853091142]","[0.026750000193715096, 0.05299999937415123, 0.03999999910593033]","[0.0, 0.0, -1.4712788457263521]","[0.0983937606215477, 0.06015344336628914, 0.03999999910593033]","[0.0, 0.0, -1.4844061039497418]",1.4787049149819127,2.434535600482329,"(0.0, 0.0, 0.0, 0.0, 0.0, 0.0)",-0.39169363303347604,4.747151892642784e-06,-1.7351748576465223e-05,"(0.0, 0.0, 0.0, 0.0, 0.0, 0.0)",-0.02790732436186781,-1.4811508837585086,-2.3693097664397755,"(0.0, 0.0, 0.0, 0.0, 0.0, 0.0)",0.37761186810531283,-0.011814888241968555,0.3149714411852639,"(0.0, 0.0, 0.0, 0.0, 0.0, 0.0)",0.023565936472848985,False,,,,,False,,,,
28,Open,,,,,,"[-0.026750000193715096, 0.05299999937415123, 0.03999999910593033]","[0.0, -0.0, 1.4787049625213984]","[-0.09844490885734558, 0.059621214866638184, 0.03999999910593033]","[0.0, -0.0, 1.4787095898811649]","[0.026750000193715096, 0.05299999937415123, 0.03999999910593033]","[0.0, 0.0, -1.4811508165812142]","[0.09846089035272598, 0.059445831924676895, 0.03999999910593033]","[0.0, 0.0, -1.492965762433775]",1.4878344234837215,2.191082040434097,"(0.0, 0.0, 0.0, 0.0, 0.0, 0.0)",-0.35255677801820895,4.641283838470101e-06,-2.5408333001444004e-05,"(0.0, 0.0, 0.0, 0.0, 0.0, 0.0)",-0.02512787460267613,-1.4900357953826577,-2.132378789795796,"(0.0, 0.0, 0.0, 0.0, 0.0, 0.0)",0.33987880377374147,-0.010633710863257649,0.2834825708906175,"(0.0, 0.0, 0.0, 0.0, 0.0, 0.0)",0.021217361806457186,False,,,,,False,,,,
29,Close,,,"(0.010000165031897679, 0.16000264050809818, 0.003919197399597577)","(-5.388791991209616e-05, 3.3679978815229247e-06, -9.074720008653711e-11)",,"[-0.026750000193715096, 0.05299999937415123, 0.03999999910593033]","[0.0, -0.0, 1.487834617901085]","[-0.09850236773490906, 0.05896640568971634, 0.03999999910593033]","[0.0, -0.0, 1.4878390921106803]","[0.026750000193715096, 0.05299999937415123, 0.03999999910593033]","[0.0, 0.0, -1.4900358577435544]","[0.09851532429456711, 0.05880843847990036, 0.03999999910593033]","[0.0, 0.0, -1.5006695807985118]",1.4960509811353493,1.9719738363906854,"(0.0, 0.0, 0.0, 0.0, 0.0, 0.0)",-0.3173274216127963,4.509251873886308e-06,-3.168767150011037e-05,"(0.0, 0.0, 0.0, 0.0, 0.0, 0.0)",-0.022624215793833224,-1.498032215844392,-1.9191409108162163,"(0.0, 0.0, 0.0, 0.0, 0.0, 0.0)",0.30591369390909257,-0.00957062017308593,0.2551417656412126,"(0.0, 0.0, 0.0, 0.0, 0.0, 0.0)",0.019102112305110365,False,,,,,False,,,,
30,Close,,,"(0.010000330010418335, 0.1600052801621647, 0.0076635160840755065)","(-0.00010776674212266888, 6.7354271463595154e-06, -3.629275205618536e-10)",,"[-0.026750000193715096, 0.05299999937415123, 0.03999999910593033]","[0.0, -0.0, 1.4960509653323988]","[-0.09854896366596222, 0.058376654982566833, 0.03999999910593033]","[0.0, -0.0, 1.4960555203126162]","[0.026750000193715096, 0.05299999937415123, 0.03999999910593033]","[0.0, 0.0, -1.4980320325532246]","[0.09855947643518448, 0.05823439359664917, 0.03999999910593033]","[0.0, 0.0, -1.5076028800413472]",1.4064458830218143,-21.505223547248388,"(0.0, 0.0, 0.0, 0.0, 0.0, 0.0)",-36.32500847077206,-0.08999559064729075,-21.600023975799512,"(0.0, 0.0, 0.0, 0.0, 0.0, 0.0)",-4.679136399120495,-1.4082289942599528,21.552773180265405,"(0.0, 0.0, 0.0, 0.0, 0.0, 0.0)",36.31473208701179,0.08138609105625041,21.82961069504072,"(0.0, 0.0, 0.0, 0.0, 0.0, 0.0)",4.675963213372079,False,,,,,False,,,,
31,Close,,,"(0.010000494936733278, 0.16000791898094055, 0.011233038807318392)","(-0.00016163646818851668, 1.0102287881965475e-05, -8.164490687548302e-10)",,"[-0.026750000193715096, 0.05299999937415123, 0.03999999910593033]","[0.0, -0.0, 1.4064459844712927]","[-0.0977797880768776, 0.06478003412485123, 0.03999999910593033]","[0.0, -0.0, 1.316450240076391]","[0.026750000193715096, 0.05299999937415123, 0.03999999910593033]","[0.0, 0.0, -1.4082291009672807]","[0.09780067950487137, 0.06465335935354233, 0.03999999910593033]","[0.0, 0.0, -1.3268428349863826]",1.325801294719633,-19.354701192523546,"(0.0, 0.0, 0.0, 0.0, 0.0, 0.0)",3.2936342521930255,-0.17099646652613912,-19.44021021092361,"(0.0, 0.0, 0.0, 0.0, 0.0, 0.0)",0.4145426679866387,-1.3274060948339577,19.39749586223887,"(0.0, 0.0, 0.0, 0.0, 0.0, 0.0)",-3.3024243844052092,0.16324791947241268,19.646838819878944,"(0.0, 0.0, 0.0, 0.0, 0.0, 0.0)",-0.41699994760359754,False,,,,,False,,,,
32,Close,,,"(0.010000659812012168, 0.16001055698314023, 0.0146278458391823)","(-0.0002154970996661642, 1.346858017578936e-05, -1.4512199879406586e-09)",,"[-0.026750000193715096, 0.05299999937415123, 0.03999999910593033]","[0.0, -0.0, 1.3258013857525741]","[-0.09659997373819351, 0.07046370953321457, 0.03999999910593033]","[0.0, -0.0, 1.1548048042561467]","[0.026750000193715096, 0.05299999937415123, 0.03999999910593033]","[0.0, 0.0, -1.3274060658778382]","[0.09662791341543198, 0.07035159319639206, 0.03999999910593033]","[0.0, 0.0, -1.1641581075845935]",1.2532211652476697,-17.41923107327119,"(0.0, 0.0, 0.0, 0.0, 0.0, 0.0)",2.9685258329366073,-0.24389721437960032,-17.496179484830687,"(0.0, 0.0, 0.0, 0.0, 0.0, 0.0)",0.3760018756193849,-1.2546654853505619,17.457746276014984,"(0.0, 0.0, 0.0, 0.0, 0.0, 0.0)",-2.976480273609718,0.2369235243908578,17.682145180426822,"(0.0, 0.0, 0.0, 0.0, 0.0, 0.0)",-0.3782508099482112,False,,,,,False,,,,
33,Close,,,"(0.010000824637423049, 0.16001319418745247, 0.017848014970055004)","(-0.00026934863811186216, 1.6834304115272585e-05, -2.2671484573282825e-09)",,"[-0.026750000193715096, 0.05299999937415123, 0.03999999910593033]","[0.0, -0.0, 1.2532212515508983]","[-0.09514966607093811, 0.07548300176858902, 0.03999999910593033]","[0.0, -0.0, 1.0093239867956962]","[0.026750000193715096, 0.05299999937415123, 0.03999999910593033]","[0.0, 0.0, -1.254665405963893]","[0.09518206864595413, 0.07538418471813202, 0.03999999910593033]","[0.0, 0.0, -1.0177419933055243]",1.1878990487229026,-15.677307965944074,"(0.0, 0.0, 0.0, 0.0, 0.0, 0.0)",2.675103284419244,-0.30950785045582774,-15.746552658294572,"(0.0, 0.0, 0.0, 0.0, 0.0, 0.0)",0.34074508229325023,-1.1891989368155058,15.711971648413485,"(0.0, 0.0, 0.0, 0.0, 0.0, 0.0)",-2.6822973218910153,0.30323153162132754,15.913921735312746,"(0.0, 0.0, 0.0, 0.0, 0.0, 0.0)",-0.34279935345822066,False,,,,,False,,,,
34,Close,,,"(0.010000989414132393, 0.1600158306125408, 0.020893621515273818)","(-0.00032319108508158773, 2.0199459787849396e-05, -3.2641426920478403e-09)",,"[-0.026750000193715096, 0.05299999937415123, 0.03999999910593033]","[0.0, -0.0, 1.1878990574339587]","[-0.09353619813919067, 0.07989988476037979, 0.03999999910593033]","[0.0, -0.0, 0.8783912846834516]","[0.026750000193715096, 0.05299999937415123, 0.03999999910593033]","[0.0, 0.0, -1.1891990098250689]","[0.09357111155986786, 0.07981304824352264, 0.03999999910593033]","[0.0, 0.0, -0.8859674697633095]",1.1291091438506125,-14.109577169349663,"(0.0, 0.0, 0.0, 0.0, 0.0, 0.0)",2.4103712722760626,-0.36855738916456426,-14.17188929009676,"(0.0, 0.0, 0.0, 0.0, 0.0, 0.0)",0.3085687115248564,-1.1302790431339553,14.140774483572143,"(0.0, 0.0, 0.0, 0.0, 0.0, 0.0)",-2.4168742890236286,0.36290870417903687,14.322521413850238,"(0.0, 0.0, 0.0, 0.0, 0.0, 0.0)",-0.31044204201279674,False,,,,,False,,,,
35,Close,,,"(0.010001154143305145, 0.16001846627704427, 0.023764738319401603)","(-0.00037702444213104407, 2.3564047280946926e-05, -4.4421109431381166e-09)",,"[-0.026750000193715096, 0.05299999937415123, 0.03999999910593033]","[0.0, -0.0, 1.1291090274464952]","[-0.09184028208255768, 0.08377750217914581, 0.03999999910593033]","[0.0, -0.0, 0.7605517150898052]","[0.026750000193715096, 0.05299999937415123, 0.03999999910593033]","[0.0, 0.0, -1.130279133319625]","[0.09187624603509903, 0.08370133489370346, 0.03999999910593033]","[0.0, 0.0, -0.7673703325611945]",1.0761982294655512,-12.698619452414698,"(0.0, 0.0, 0.0, 0.0, 0.0, 0.0)",2.1715845710489208,-0.42170194324014043,-12.754692978138287,"(0.0, 0.0, 0.0, 0.0, 0.0, 0.0)",0.27924932151422227,-1.07725113882056,12.72669703521493,"(0.0, 0.0, 0.0, 0.0, 0.0, 0.0)",-2.177460276301377,0.41661812854294633,12.890261847338277,"(0.0, 0.0, 0.0, 0.0, 0.0, 0.0)",-0.2809551529003472,False,,,,,False,,,,
36,Close,,,"(0.010001318826104761, 0.16002110119957821, 0.02646143576036139)","(-0.0004308487108156613, 2.692806668198511e-05, -5.800961497533997e-09)",,"[-0.026750000193715096, 0.05299999937415123, 0.03999999910593033]","[0.0, -0.0, 1.076198055145404]","[-0.09012148529291153, 0.08717681467533112, 0.03999999910593033]","[0.0, -0.0, 0.6544962762796218]","[0.026750000193715096, 0.05299999937415123, 0.03999999910593033]","[0.0, 0.0, -1.0772510781061955]","[0.09015743434429169, 0.08711007237434387, 0.03999999910593033]","[0.0, 0.0, -0.6606329452337051]",1.028578406518996,-11.428757507173229,"(0.0, 0.0, 0.0, 0.0, 0.0, 0.0)",1.9562489498726314,-0.46953201391559385,-11.479216962108818,"(0.0, 0.0, 0.0, 0.0, 0.0, 0.0)",0.2525697399559188,-1.0295260249385039,11.454027331693439,"(0.0, 0.0, 0.0, 0.0, 0.0, 0.0)",-1.961555706583625,0.46495658231577774,11.601228905479532,"(0.0, 0.0, 0.0, 0.0, 0.0, 0.0)",-0.25412105363877113,False,,,,,False,,,,
37,Close,,,"(0.010001483463693249, 0.1600237353987347, 0.0289837817534302)","(-0.0004846638926905951, 3.0291518078376737e-05, -7.3406026780539124e-09)",,"[-0.026750000193715096, 0.05299999937415123, 0.03999999910593033]","[0.0, -0.0, 1.028578444789276]","[-0.08842276781797409, 0.09015467017889023, 0.03999999910593033]","[0.0, -0.0, 0.5590464126725148]","[0.026750000193715096, 0.05299999937415123, 0.03999999910593033]","[0.0, 0.0, -1.029526007298545]","[0.08845794945955276, 0.09009620547294617, 0.03999999910593033]","[0.0, 0.0, -0.564569399435659]",0.9857205658670964,-10.285881756455906,"(0.0, 0.0, 0.0, 0.0, 0.0, 0.0)",1.7621005438122825,-0.5125790520819234,-10.331289159919107,"(0.0, 0.0, 0.0, 0.0, 0.0, 0.0)",0.22832149176550065,-0.9865734224446535,10.308624598524094,"(0.0, 0.0, 0.0, 0.0, 0.0, 0.0)",-1.766891708603882,0.508461165120635,10.441099873165749,"(0.0, 0.0, 0.0, 0.0, 0.0, 0.0)",-0.22973068702752517,False,,,,,False,,,,
38,Close,,,"(0.010001648057231211, 0.16002636889308344, 0.03133184175509247)","(-0.0005384699893107284, 3.3654401557527444e-05, -9.06094284338731e-09)",,"[-0.026750000193715096, 0.05299999937415123, 0.03999999910593033]","[0.0, -0.0, 0.9857205423734198]","[-0.08677425980567932, 0.09276290237903595, 0.03999999910593033]","[0.0, -0.0, 0.47314147483112123]","[0.026750000193715096, 0.05299999937415123, 0.03999999910593033]","[0.0, 0.0, -0.9865734261287252]","[0.08680814504623413, 0.09271169453859329, 0.03999999910593033]","[0.0, 0.0, -0.4781122693565934]",0.9471485092803869,-9.257293580810316,"(0.0, 0.0, 0.0, 0.0, 0.0, 0.0)",1.587086438141582,-0.5513213633331018,-9.29815470028281,"(0.0, 0.0, 0.0, 0.0, 0.0, 0.0)",0.206306403170868,-0.9479160802001881,9.277762138671687,"(0.0, 0.0, 0.0, 0.0, 0.0, 0.0)",-1.5914107042435905,0.5476152664096928,9.396984309373877,"(0.0, 0.0, 0.0, 0.0, 0.0, 0.0)",-0.2075852193448244,False,,,,,False,,,,
39,Close,,,"(0.01000181260787789, 0.16002900170117218, 0.03350567876675359)","(-0.00059226700223067, 3.7016717206835695e-05, -1.0961890388082131e-08)",,"[-0.026750000193715096, 0.05299999937415123, 0.03999999910593033]","[0.0, -0.0, 0.9471486716739237]","[-0.08519625663757324, 0.09504801034927368, 0.03999999910593033]","[0.0, -0.0, 0.39582717163487297]","[0.026750000193715096, 0.05299999937415123, 0.03999999910593033]","[0.0, 0.0, -0.9479160840165974]","[0.08522851020097733, 0.09500313550233841, 0.03999999910593033]","[0.0, 0.0, -0.4003008647547732]",0.9124336583523481,-8.331564222729286,"(0.0, 0.0, 0.0, 0.0, 0.0, 0.0)",1.4293465062267445,-0.5861894225076075,-8.368334201881392,"(0.0, 0.0, 0.0, 0.0, 0.0, 0.0)",0.18633757536892917,-0.9131244721801693,8.349985924804516,"(0.0, 0.0, 0.0, 0.0, 0.0, 0.0)",-1.433248242084051,0.5828539364930729,8.45728082001123,"(0.0, 0.0, 0.0, 0.0, 0.0, 0.0)",-0.18749704763631705,False,,,,,False,,,,
40,Close,,,"(0.010001977116791199, 0.1600316338415276, 0.035505353338314005)","(-0.0006460549330047555, 4.037846511369274e-05, -1.3043353742532214e-08)",,"[-0.026750000193715096, 0.05299999937415123, 0.03999999910593033]","[0.0, -0.0, 0.9124336635104583]","[-0.08370164036750793, 0.0970512256026268, 0.03999999910593033]","[0.0, -0.0, 0.3262442150321584]","[0.026750000193715096, 0.05299999937415123, 0.03999999910593033]","[0.0, 0.0, -0.9131245532476111]","[0.08373206108808517, 0.09701187163591385, 0.03999999910593033]","[0.0, 0.0, -0.3302705841133475]",0.8811902925171133,-7.498407800456356,"(0.0, 0.0, 0.0, 0.0, 0.0, 0.0)",1.2871965063691413,-0.6175706567763247,-7.531496224492115,"(0.0, 0.0, 0.0, 0.0, 0.0, 0.0)",0.16823988009592084,-0.8818120249621524,7.514987332324067,"(0.0, 0.0, 0.0, 0.0, 0.0, 0.0)",-1.2907160846573733,0.6145687204653795,7.61154815335357,"(0.0, 0.0, 0.0, 0.0, 0.0, 0.0)",-0.16929032064296096,False,,,,,False,,,,
41,Close,,,"(0.010002141585127773, 0.16003426533265583, 0.03733092357160428)","(-0.0006998337831870475, 4.3739645365482716e-05, -1.5305241372964883e-08)",,"[-0.026750000193715096, 0.05299999937415123, 0.03999999910593033]","[0.0, -0.0, 0.8811903688816151]","[-0.08229776471853256, 0.09880879521369934, 0.03999999910593033]","[0.0, -0.0, 0.2636196251065186]","[0.026750000193715096, 0.05299999937415123, 0.03999999910593033]","[0.0, 0.0, -0.8818121535754343]","[0.08232623338699341, 0.098774254322052, 0.03999999910593033]","[0.0, 0.0, -0.26724331826119446]",0.853071263265402,-6.7485670204107215,"(0.0, 0.0, 0.0, 0.0, 0.0, 0.0)",1.1591124175888132,-0.6458137504217961,-6.77834247491313,"(0.0, 0.0, 0.0, 0.0, 0.0, 0.0)",0.1518500972569631,-0.8536308224659371,6.763488599091658,"(0.0, 0.0, 0.0, 0.0, 0.0, 0.0)",-1.1622865309865396,0.643112008739745,6.850389185847702,"(0.0, 0.0, 0.0, 0.0, 0.0, 0.0)",-0.15280109527428076,False,,,,,False,,,,
42,Close,,,"(0.010002306014043007, 0.16003689619304312, 0.038982445123681576)","(-0.0007536035543313348, 4.7100258049582536e-05, -1.7747461781428295e-08)",,"[-0.026750000193715096, 0.05299999937415123, 0.03999999910593033]","[0.0, -0.0, 0.8530713239495782]","[-0.08098787814378738, 0.10035242885351181, 0.03999999910593033]","[0.0, -0.0, 0.2072574956851119]","[0.026750000193715096, 0.05299999937415123, 0.03999999910593033]","[0.0, 0.0, -0.8536307856313979]","[0.08101436495780945, 0.10032207518815994, 0.03999999910593033]","[0.0, 0.0, -0.21051882644475053]",0.8277641369388617,-6.073710318369648,"(0.0, 0.0, 0.0, 0.0, 0.0, 0.0)",1.043715976216214,-0.6712325191394197,-6.100504492229669,"(0.0, 0.0, 0.0, 0.0, 0.0, 0.0)",0.1370167890019201,-0.8282677402193435,6.0871397391824935,"(0.0, 0.0, 0.0, 0.0, 0.0, 0.0)",-1.0465779375227178,0.6688009525283538,6.165346509266115,"(0.0, 0.0, 0.0, 0.0, 0.0, 0.0)",-0.1378772244212715,False,,,,,False,,,,
43,Close,,,"(0.010002470404691093, 0.16003952644115657, 0.04045997120998789)","(-0.0008073642479911328, 5.0460303253361964e-05, -2.0369923505779015e-08)",,"[-0.026750000193715096, 0.05299999937415123, 0.03999999910593033]","[0.0, -0.0, 0.8277641182932235]","[-0.07977228611707687, 0.10170972347259521, 0.03999999910593033]","[0.0, -0.0, 0.1565316389415725]","[0.026750000193715096, 0.05299999937415123, 0.03999999910593033]","[0.0, 0.0, -0.8282677342123946]","[0.07979680597782135, 0.10168302059173584, 0.03999999910593033]","[0.0, 0.0, -0.1594667900835625]",0.8049877232449756,-5.4663392865326825,"(0.0, 0.0, 0.0, 0.0, 0.0, 0.0)",0.9397613626777375,-0.6941093969081942,-5.49045066450586,"(0.0, 0.0, 0.0, 0.0, 0.0, 0.0)",0.12359998406321729,-0.8054409661974091,5.478425765264244,"(0.0, 0.0, 0.0, 0.0, 0.0, 0.0)",-0.9423413878167864,0.6919209877745929,5.54880845909737,"(0.0, 0.0, 0.0, 0.0, 0.0, 0.0)",-0.12437805104754245,False,,,,,False,,,,
44,Close,,,"(0.010002634758225062, 0.1600421560954447, 0.041763552607370504)","(-0.000861115865719684, 5.381978106418352e-05, -2.3172535119669436e-08)",,"[-0.026750000193715096, 0.05299999937415123, 0.03999999910593033]","[0.0, -0.0, 0.8049877164750058]","[-0.07864919304847717, 0.10290464758872986, 0.03999999910593033]","[0.0, -0.0, 0.11087832859978779]","[0.026750000193715096, 0.05299999937415123, 0.03999999910593033]","[0.0, 0.0, -0.805440964305088]","[0.07867180556058884, 0.10288111865520477, 0.03999999910593033]","[0.0, 0.0, -0.11351997099607207]",0.784488950920478,-4.919705357879415,"(0.0, 0.0, 0.0, 0.0, 0.0, 0.0)",0.8461229797239068,-0.7146985741739192,-4.941402543774016,"(0.0, 0.0, 0.0, 0.0, 0.0, 0.0)",0.11147072977230046,-0.7848968695776682,4.93058318873782,"(0.0, 0.0, 0.0, 0.0, 0.0, 0.0)",-0.8484484528940599,0.7127290066915236,4.993924540063379,"(0.0, 0.0, 0.0, 0.0, 0.0, 0.0)",-0.1121739668696123,False,,,,,False,,,,
45,Close,,,"(0.010002799075796832, 0.16004478517433812, 0.04289323765696492)","(-0.0009148584090699577, 5.7178691569402595e-05, -2.615520523253533e-08)",,"[-0.026750000193715096, 0.05299999937415123, 0.03999999910593033]","[0.0, -0.0, 0.7844889896573499]","[-0.07761538028717041, 0.10395795851945877, 0.03999999910593033]","[0.0, -0.0, 0.06979037514545033]","[0.026750000193715096, 0.05299999937415123, 0.03999999910593033]","[0.0, 0.0, -0.7848969068252226]","[0.07763615995645523, 0.10393720120191574, 0.03999999910593033]","[0.0, 0.0, -0.07216786709232846]",0.7660400558284302,-4.427734822091471,"(0.0, 0.0, 0.0, 0.0, 0.0, 0.0)",0.7617842585328375,-0.7332288222135146,-4.44725952950288,"(0.0, 0.0, 0.0, 0.0, 0.0, 0.0)",0.10051055612556806,-0.7664071826199014,4.437524869864038,"(0.0, 0.0, 0.0, 0.0, 0.0, 0.0)",-0.7638799793048979,0.7314562121459494,4.494529309062177,"(0.0, 0.0, 0.0, 0.0, 0.0, 0.0)",-0.10114588070786824,False,,,,,False,,,,
46,Close,,,"(0.010002963358557236, 0.16004741369625017, 0.04384907226694074)","(-0.0009685918795946493, 6.053703485636736e-05, -2.9317842489583264e-08)",,"[-0.026750000193715096, 0.05299999937415123, 0.03999999910593033]","[0.0, -0.0, 0.7660400058439011]","[-0.07666666060686111, 0.10488764196634293, 0.03999999910593033]","[0.0, -0.0, 0.0328112365488731]","[0.026750000193715096, 0.05299999937415123, 0.03999999910593033]","[0.0, 0.0, -0.7664072421942376]","[0.07668570429086685, 0.1048693135380745, 0.03999999910593033]","[0.0, 0.0, -0.03495097036229706]",0.7494360502455871,-3.984961339882325,"(0.0, 0.0, 0.0, 0.0, 0.0, 0.0)",0.6858274268188955,-0.7499060350622873,-4.002531083705426,"(0.0, 0.0, 0.0, 0.0, 0.0, 0.0)",0.09061088591719418,-0.7497664643579113,3.9937723828776335,"(0.0, 0.0, 0.0, 0.0, 0.0, 0.0)",-0.6877158393779155,0.7483106866034595,4.045073869802414,"(0.0, 0.0, 0.0, 0.0, 0.0, 0.0)",-0.09118463108881669,False,,,,,False,,,,
47,Close,,,"(0.010003127607656072, 0.16005004167957756, 0.04463109991511072)","(-0.0010223162788461832, 6.389481101241881e-05, -3.266035557177819e-08)",,"[-0.026750000193715096, 0.05299999937415123, 0.03999999910593033]","[0.0, -0.0, 0.7494360616149593]","[-0.07579827308654785, 0.1057092696428299, 0.03999999910593033]","[0.0, 0.0, -0.00046998485639781964]","[0.026750000193715096, 0.05299999937415123, 0.03999999910593033]","[0.0, 0.0, -0.7497665229086657]","[0.07581568509340286, 0.10569305717945099, 0.03999999910593033]","[0.0, 0.0, -0.0014557777936095985]",0.7344924452210284,-3.5864652058940925,"(0.0, 0.0, 0.0, 0.0, 0.0, 0.0)",0.6173964503690262,-0.7649166300024903,-3.602542785648727,"(0.0, 0.0, 0.0, 0.0, 0.0, 0.0)",0.08164469448201127,-0.7347898179221202,3.594395144589871,"(0.0, 0.0, 0.0, 0.0, 0.0, 0.0)",-0.61909767957405,0.7634808239898891,3.6408329727431203,"(0.0, 0.0, 0.0, 0.0, 0.0, 0.0)",-0.08216247127692902,False,,,,,False,,,,
48,Close,,,"(0.010003291824242136, 0.16005266914270105, 0.04523936165140331)","(-0.0010760316083767074, 6.725202012489063e-05, -3.618265319583079e-08)",,"[-0.026750000193715096, 0.05299999937415123, 0.03999999910593033]","[0.0, -0.0, 0.7344924171356654]","[-0.07500515878200531, 0.10643631219863892, 0.03999999910593033]","[0.0, 0.0, -0.03042418292779103]","[0.026750000193715096, 0.05299999937415123, 0.03999999910593033]","[0.0, 0.0, -0.7347898072320369]","[0.07502105087041855, 0.10642196238040924, 0.03999999910593033]","[0.0, -0.0, 0.028691003185096618]",0.7210432006989256,-3.227818685304683,"(0.0, 0.0, 0.0, 0.0, 0.0, 0.0)",0.5558325671900768,-0.77842604750784,-3.2422602012839143,"(0.0, 0.0, 0.0, 0.0, 0.0, 0.0)",0.07360992294062317,-0.7213108361299082,3.234955630130884,"(0.0, 0.0, 0.0, 0.0, 0.0, 0.0)",-0.5573653507703412,0.7771338289584356,3.2767211924511668,"(0.0, 0.0, 0.0, 0.0, 0.0, 0.0)",-0.07407739542501454,False,,,,,False,,,,
49,Close,,,"(0.010003456009463264, 0.16005529610398603, 0.04567389610019914)","(-0.0011297378697381003, 7.060866228110946e-05, -3.988464411418517e-08)",,"[-0.026750000193715096, 0.05299999937415123, 0.03999999910593033]","[0.0, -0.0, 0.7210432248946826]","[-0.07428213953971863, 0.10708045959472656, 0.03999999910593033]","[0.0, 0.0, -0.05738284539856889]","[0.026750000193715096, 0.05299999937415123, 0.03999999910593033]","[0.0, 0.0, -0.7213108742429458]","[0.07429660856723785, 0.10706773400306702, 0.03999999910593033]","[0.0, -0.0, 0.0558229905847104]",0.708938880629033,-2.905036816774215,"(0.0, 0.0, 0.0, 0.0, 0.0, 0.0)",0.5003668258645501,-0.7905844163893876,-2.9180085315714246,"(0.0, 0.0, 0.0, 0.0, 0.0, 0.0)",0.06632913423961855,-0.7091797525169173,2.911460067117798,"(0.0, 0.0, 0.0, 0.0, 0.0, 0.0)",-0.5017475327577147,0.7894214258858812,2.9490232625869344,"(0.0, 0.0, 0.0, 0.0, 0.0, 0.0)",-0.06675089596581112,False,,,,,False,,,,
50,Close,,,"(0.010001644182078712, 0.16005595153396976, 0.045940321410535084)","(-0.0011271805217326655, 1.767785898679914e-05, -1.508889111938428e-08)",,"[-0.026750000193715096, 0.05299999937415123, 0.03999999910593033]","[0.0, -0.0, 0.7089389671526269]","[-0.07362406700849533, 0.10765182226896286, 0.03999999910593033]","[0.0, 0.0, -0.08164554069303018]","[0.026750000193715096, 0.05299999937415123, 0.03999999910593033]","[0.0, 0.0, -0.7091797033714331]","[0.0736372321844101, 0.10764053463935852, 0.03999999910593033]","[0.0, -0.0, 0.08024167743029369]",0.6980449925661297,-2.6145331350967917,"(0.0, 0.0, 0.0, 0.0, 0.0, 0.0)",0.4504252929298086,-0.8015268519725993,-2.6261845399708146,"(0.0, 0.0, 0.0, 0.0, 0.0, 0.0)",0.059761147909024356,-0.6982617772652256,2.6203140604060167,"(0.0, 0.0, 0.0, 0.0, 0.0, 0.0)",-0.4516689022418484,0.8004801661036254,2.6540976522586175,"(0.0, 0.0, 0.0, 0.0, 0.0, 0.0)",-0.06014157277442886,False,,,,,False,,,,
51,Close,,,"(0.009998458164918766, 0.16005543218265145, 0.046184544665354044)","(-0.001116587313714928, -4.731063982249702e-05, 3.3486629919706074e-09)",,"[-0.026750000193715096, 0.05299999937415123, 0.03999999910593033]","[0.0, -0.0, 0.6980450466292163]","[-0.07302592694759369, 0.10815921425819397, 0.03999999910593033]","[0.0, 0.0, -0.1034818592301779]","[0.026750000193715096, 0.05299999937415123, 0.03999999910593033]","[0.0, 0.0, -0.6982617371246688]","[0.07303788512945175, 0.10814917832612991, 0.03999999910593033]","[0.0, -0.0, 0.10221840210156648]",0.6882404933095168,-2.3530798215871136,"(0.0, 0.0, 0.0, 0.0, 0.0, 0.0)",0.40545980991383274,-0.8113749570468809,-2.3635452178275753,"(0.0, 0.0, 0.0, 0.0, 0.0, 0.0)",0.0538375991228723,-0.688435599538703,2.358282654365416,"(0.0, 0.0, 0.0, 0.0, 0.0, 0.0)",-0.4065798463491374,0.810432944800545,2.3886668872606847,"(0.0, 0.0, 0.0, 0.0, 0.0, 0.0)",-0.0541806611811555,False,,,,,False,,,,
52,Close,,,"(0.0099979269032565, 0.16005188637635104, 0.04640949954916324)","(-0.0010442772263960227, -5.814874739306873e-05, 7.787963860925158e-09)",,"[-0.026750000193715096, 0.05299999937415123, 0.03999999910593033]","[0.0, -0.0, 0.688240548987758]","[-0.07248289883136749, 0.10861026495695114, 0.03999999910593033]","[0.0, 0.0, -0.12313446206189271]","[0.026750000193715096, 0.05299999937415123, 0.03999999910593033]","[0.0, 0.0, -0.6884356086136862]","[0.07249374687671661, 0.10860133916139603, 0.03999999910593033]","[0.0, -0.0, 0.1219973374555316]",0.679416393078237,-2.117784055507141,"(0.0, 0.0, 0.0, 0.0, 0.0, 0.0)",0.3649762140031281,-0.8202374613421928,-2.12700103087486,"(0.0, 0.0, 0.0, 0.0, 0.0, 0.0)",0.04851286211734207,-0.6795919883598663,2.1224666829208143,"(0.0, 0.0, 0.0, 0.0, 0.0, 0.0)",-0.36598488497268467,0.8193896503204905,2.149609324786922,"(0.0, 0.0, 0.0, 0.0, 0.0, 0.0)",-0.04882227338805697,False,,,,,False,,,,
53,Close,,,"(0.009997966950406065, 0.16004795201914346, 0.046616050094935475)","(-0.0009640430328522325, -5.7324486097668704e-05, 4.2980615420070005e-09)",,"[-0.026750000193715096, 0.05299999937415123, 0.03999999910593033]","[0.0, -0.0, 0.6794163791618646]","[-0.07199041545391083, 0.10901165008544922, 0.03999999910593033]","[0.0, 0.0, -0.1408210743259801]","[0.026750000193715096, 0.05299999937415123, 0.03999999910593033]","[0.0, 0.0, -0.6795920181483843]","[0.07200025022029877, 0.1090037003159523, 0.03999999910593033]","[0.0, -0.0, 0.13979766167419433]",0.6714747537704133,-1.9059934338776885,"(0.0, 0.0, 0.0, 0.0, 0.0, 0.0)",0.3285291326313333,-0.8282143561304102,-1.914454749172182,"(0.0, 0.0, 0.0, 0.0, 0.0, 0.0)",0.043663125146434535,-0.6716327895238797,1.9102077206367922,"(0.0, 0.0, 0.0, 0.0, 0.0, 0.0)",-0.3294374536237565,0.8274513303019508,1.934803195550486,"(0.0, 0.0, 0.0, 0.0, 0.0, 0.0)",-0.043941831288343336,False,,,,,False,,,,
54,Close,,,"(0.009998107600018924, 0.16004411888380865, 0.0468059782297436)","(-0.0008858309445970004, -5.447527859797503e-05, 4.128601528647624e-08)",,"[-0.026750000193715096, 0.05299999937415123, 0.03999999910593033]","[0.0, -0.0, 0.6714747449539094]","[-0.07154417037963867, 0.10936915874481201, 0.03999999910593033]","[0.0, 0.0, -0.15673960659097733]","[0.026750000193715096, 0.05299999937415123, 0.03999999910593033]","[0.0, 0.0, -0.6716327690441329]","[0.07155308127403259, 0.10936208069324493, 0.03999999910593033]","[0.0, -0.0, 0.15581855230220754]",0.664327278393372,-1.7153940904899205,"(0.0, 0.0, 0.0, 0.0, 0.0, 0.0)",0.2957170811345372,-0.8353934979980445,-1.7229940482322428,"(0.0, 0.0, 0.0, 0.0, 0.0, 0.0)",0.03934112702889199,-0.6644695105714917,1.7191869485731137,"(0.0, 0.0, 0.0, 0.0, 0.0, 0.0)",-0.2965349881453131,0.8347067784412298,1.7413075534269409,"(0.0, 0.0, 0.0, 0.0, 0.0, 0.0)",-0.039592428071821256,False,,,,,False,,,,
55,Close,,,"(0.009998248644105466, 0.16004048002584464, 0.0469807018618576)","(-0.0008115684428503489, -5.1596750749095254e-05, 7.881188886077776e-08)",,"[-0.026750000193715096, 0.05299999937415123, 0.03999999910593033]","[0.0, -0.0, 0.6643273336690038]","[-0.07114013284444809, 0.10968788713216782, 0.03999999910593033]","[0.0, 0.0, -0.17106622141763456]","[0.026750000193715096, 0.05299999937415123, 0.03999999910593033]","[0.0, 0.0, -0.6644694779113771]","[0.07114819437265396, 0.10968156903982162, 0.03999999910593033]","[0.0, -0.0, 0.17023725548976373]",0.6578945505540348,-1.543854681440929,"(0.0, 0.0, 0.0, 0.0, 0.0, 0.0)",0.2661784897251144,-0.8418546682622772,-1.5506808634158242,"(0.0, 0.0, 0.0, 0.0, 0.0, 0.0)",0.03542959308904228,-0.6580225595143425,1.547268253715802,"(0.0, 0.0, 0.0, 0.0, 0.0, 0.0)",-0.26691494494593054,0.8412366239853526,1.567162930589489,"(0.0, 0.0, 0.0, 0.0, 0.0, 0.0)",-0.035656056287006674,False,,,,,False,,,,
56,Close,,,"(0.009998390752654573, 0.16003702894197389, 0.04714144752999396)","(-0.0007411380797103218, -4.869650481896534e-05, 1.1687517768299383e-07)",,"[-0.026750000193715096, 0.05299999937415123, 0.03999999910593033]","[0.0, -0.0, 0.6578945475257985]","[-0.07077455520629883, 0.1099722608923912, 0.03999999910593033]","[0.0, 0.0, -0.18396012465064338]","[0.026750000193715096, 0.05299999937415123, 0.03999999910593033]","[0.0, 0.0, -0.6580225896942233]","[0.07078184932470322, 0.10996662080287933, 0.03999999910593033]","[0.0, -0.0, 0.18321406389742323]",0.6521050954986313,-1.3894692132968354,"(0.0, 0.0, 0.0, 0.0, 0.0, 0.0)",0.23958744527110798,-0.8476696697618468,-1.395600359896693,"(0.0, 0.0, 0.0, 0.0, 0.0, 0.0)",0.031904902566438624,-0.6522203035629083,1.392541428344221,"(0.0, 0.0, 0.0, 0.0, 0.0, 0.0)",-0.24025052935853647,0.8471134329078756,1.410434141405507,"(0.0, 0.0, 0.0, 0.0, 0.0, 0.0)",-0.032108956045352514,False,,,,,False,,,,
57,Close,,,"(0.009998534235924597, 0.16003375955333046, 0.04728933347451534)","(-0.0006744157946989166, -4.576820860538318e-05, 1.554405829918684e-07)",,"[-0.026750000193715096, 0.05299999937415123, 0.03999999910593033]","[0.0, -0.0, 0.6521051450040646]","[-0.07044398784637451, 0.11022617667913437, 0.03999999910593033]","[0.0, 0.0, -0.19556454293122102]","[0.026750000193715096, 0.05299999937415123, 0.03999999910593033]","[0.0, 0.0, -0.6522203497730787]","[0.07045057415962219, 0.11022114753723145, 0.03999999910593033]","[0.0, -0.0, 0.19489313608724637]",0.6468945859487681,-1.250522291967151,"(0.0, 0.0, 0.0, 0.0, 0.0, 0.0)",0.2156503992603495,-0.8529031244958994,-1.2560291361726517,"(0.0, 0.0, 0.0, 0.0, 0.0, 0.0)",0.02872919688306315,-0.6469982732066174,1.253287285509799,"(0.0, 0.0, 0.0, 0.0, 0.0, 0.0)",-0.2162473971085442,0.8524025140258721,1.2693794683191757,"(0.0, 0.0, 0.0, 0.0, 0.0, 0.0)",-0.02891303657535659,False,,,,,False,,,,
58,Close,,,"(0.009998679410322496, 0.16003066597344334, 0.0474253884764576)","(-0.0006112814540129935, -4.2805404436077314e-05, 1.9447426774393396e-07)",,"[-0.026750000193715096, 0.05299999937415123, 0.03999999910593033]","[0.0, -0.0, 0.6468945636476681]","[-0.07014521211385727, 0.11045306921005249, 0.03999999910593033]","[0.0, 0.0, -0.20600854729134555]","[0.026750000193715096, 0.05299999937415123, 0.03999999910593033]","[0.0, 0.0, -0.6469982503054421]","[0.07015117257833481, 0.11044856905937195, 0.03999999910593033]","[0.0, -0.0, 0.20540423443750838]",0.6422051273538913,-1.125470062770436,"(0.0, 0.0, 0.0, 0.0, 0.0, 0.0)",0.1941029233168818,-0.8576131917611358,-1.1304161436567226,"(0.0, 0.0, 0.0, 0.0, 0.0, 0.0)",0.025868240883426936,-0.6422984458859556,1.1279585569588184,"(0.0, 0.0, 0.0, 0.0, 0.0, 0.0)",-0.19464040126091972,0.8571626447690798,1.1424313783698345,"(0.0, 0.0, 0.0, 0.0, 0.0, 0.0)",-0.026033851694478666,False,,,,,False,,,,
59,Move,,,"(0.009998826598722164, 0.16002774252192944, 0.04755055901421763)","(-0.0005516191299448554, -3.980150267197137e-05, 2.339437659612592e-07)","[0.0, 0.0, 0.0]","[-0.026750000193715096, 0.05299999937415123, 0.03999999910593033]","[0.0, -0.0, 0.6422051137296667]","[-0.0698753148317337, 0.11065594106912613, 0.03999999910593033]","[0.0, 0.0, -0.2154080556264429]","[0.026750000193715096, 0.05299999937415123, 0.03999999910593033]","[0.0, 0.0, -0.6422983956794274]","[0.06988069415092468, 0.1106519103050232, 0.03999999910593033]","[0.0, -0.0, 0.21486417441436167]",0.6379846146185022,-1.0129230564933929,"(0.0, 0.0, 0.0, 0.0, 0.0, 0.0)",0.17470684718642912,-0.8618522144704561,-1.0173654502368856,"(0.0, 0.0, 0.0, 0.0, 0.0, 0.0)",0.023291096758263134,-0.6380686012973601,1.0151627012629356,"(0.0, 0.0, 0.0, 0.0, 0.0, 0.0)",-0.1751907229705418,0.8614467243673204,1.02817910357775,"(0.0, 0.0, 0.0, 0.0, 0.0, 0.0)",-0.023440272040621463,False,,,,,True,"(0.04276013174954747, 0.17974174897294792, 0.02399995643463635)","(-0.9999999990838299, -1.9447426661030803e-07, -4.2805404423670755e-05)",0.0013234533115717422,0.0
60,Move,,,"(0.008699259039732246, 0.1597652061907072, 0.04782485533738502)","(0.0040480273580015685, 0.009650479713711625, 0.017575803187450934)","[-0.0012995675589899183, -0.00026253633122225173, 0.00027429632316738894]","[-0.026750000193715096, 0.05299999937415123, 0.03999999910593033]","[0.0, -0.0, 0.6379846501970732]","[-0.06963159143924713, 0.1108374372124672, 0.03999999910593033]","[0.0, 0.0, -0.22386762157269943]","[0.026750000193715096, 0.05299999937415123, 0.03999999910593033]","[0.0, 0.0, -0.638068602671057]","[0.06963644921779633, 0.11083383113145828, 0.03999999910593033]","[0.0, -0.0, 0.22337816170537766]",0.6141590059460926,-5.718146081378296,"(0.0, 0.0, 0.0, 0.0, 0.0, 0.0)",-6.715100343954984,-0.8614283121995241,0.10173654502368734,"(0.0, 0.0, 0.0, 0.0, 0.0, 0.0)",-0.3723637437215536,-0.6186765363685498,4.654095582914465,"(0.0, 0.0, 0.0, 0.0, 0.0, 0.0)",16.91452213543579,0.8602423878670417,-0.28904076006690205,"(0.0, 0.0, 0.0, 0.0, 0.0, 0.0)",7.026754130549747,False,,,,,True,"(0.041928616181162004, 0.17969877893574898, 0.023999959438538117)","(-0.9999999992078928, -2.3394376620903917e-07, -3.980150265941498e-05)",0.0004918567139684023,94.17969713248019
61,Move,,,"(0.006953428279101256, 0.15936555806379668, 0.04799883027777207)","(0.0036027003309908674, 0.011726089522938334, 0.045571805054608026)","[-0.0030453983196209082, -0.000662184458132764, 0.0004482712635544353]","[-0.026750000193715096, 0.05299999937415123, 0.03999999910593033]","[0.0, -0.0, 0.6141590305095613]","[-0.06824154406785965, 0.11184260249137878, 0.03999999910593033]","[0.0, 0.0, -0.24726930604170874]","[0.026750000193715096, 0.05299999937415123, 0.03999999910593033]","[0.0, 0.0, -0.6186765449450942]","[0.06850694119930267, 0.11165456473827362, 0.03999999910593033]","[0.0, -0.0, 0.24156588090171732]",0.5923752537221402,-5.228100533748595,"(0.0, 0.0, 0.0, 0.0, 0.0, 0.0)",0.6968351830029371,-0.8614707024266173,-0.010173654502368734,"(0.0, 0.0, 0.0, 0.0, 0.0, 0.0)",0.03860943376531379,-0.6008618977467228,4.275513269238477,"(0.0, 0.0, 0.0, 0.0, 0.0, 0.0)",3.1840553339598543,0.8603207379647874,0.018804023458970476,"(0.0, 0.0, 0.0, 0.0, 0.0, 0.0)",2.2071937117843152,False,,,,,True,"(0.03955126028332891, 0.18000420521160232, 0.023999959438538117)","(-0.9999999992078928, -2.3394376620903917e-07, -3.980150265941498e-05)",-4.69285261207243e-06,0.0
62,Move,,,"(0.005232479171843643, 0.15895611509417099, 0.04805192961782931)","(0.0015613319654504138, 0.011710638263295036, 0.07400765980182708)","[-0.004766347426878521, -0.0010716274277584592, 0.0005013706036116755]","[-0.026750000193715096, 0.05299999937415123, 0.03999999910593033]","[0.0, -0.0, 0.5923752994005711]","[-0.0669499859213829, 0.1127324104309082, 0.03999999910593033]","[0.0, 0.0, -0.2690954538189607]","[0.026750000193715096, 0.05299999937415123, 0.03999999910593033]","[0.0, 0.0, -0.6008619062673114]","[0.0674554631114006, 0.11238910257816315, 0.03999999910593033]","[0.0, -0.0, 0.2594588653702835]",0.5711748754471921,-5.088090785987531,"(0.0, 0.0, 0.0, 0.0, 0.0, 0.0)",0.20179723839696584,-0.8614666854136499,0.0009640831121563087,"(0.0, 0.0, 0.0, 0.0, 0.0, 0.0)",0.015124512099487388,-0.5830478441846109,4.27537285490686,"(0.0, 0.0, 0.0, 0.0, 0.0, 0.0)",-0.00040728805220429705,0.8603129289032243,-0.001874174775147154,"(0.0, 0.0, 0.0, 0.0, 0.0, 0.0)",-0.0017677334094061982,False,,,,,True,"(0.03728150083157586, 0.18020972647077313, 0.023999959438538117)","(-0.9999999992078928, -2.3394376620903917e-07, -3.980150265941498e-05)",0.00010136561290409651,0.0
63,Move,,,"(0.003536438132730313, 0.15853702184869162, 0.04798413986117641)","(-0.002178499075898401, 0.009685758062407228, 0.10285468498251224)","[-0.006462388465991851, -0.0014907206732378275, 0.0004335808469587768]","[-0.026750000193715096, 0.05299999937415123, 0.03999999910593033]","[0.0, -0.0, 0.5711748797881039]","[-0.06567469984292984, 0.1135711818933487, 0.03999999910593033]","[0.0, 0.0, -0.2902918330000066]","[0.026750000193715096, 0.05299999937415123, 0.03999999910593033]","[0.0, 0.0, -0.5830479010023177]","[0.06639109551906586, 0.11310476809740067, 0.03999999910593033]","[0.0, -0.0, 0.2772650915613622]",0.5507922484404775,-4.891830481611522,"(0.0, 0.0, 0.0, 0.0, 0.0, 0.0)",0.282294284049585,-0.8614673765775518,-0.00016587933645189224,"(0.0, 0.0, 0.0, 0.0, 0.0, 0.0)",0.019719768305812027,-0.565275293151566,4.265412247930778,"(0.0, 0.0, 0.0, 0.0, 0.0, 0.0)",-0.012306804327906049,0.8603137161198487,0.00018893198985979812,"(0.0, 0.0, 0.0, 0.0, 0.0, 0.0)",-0.0004299034376783175,False,,,,,True,"(0.035014354147368115, 0.18037738642755824, 0.023999959438538117)","(-0.9999999992078928, -2.3394376620903917e-07, -3.980150265941498e-05)",0.0001657852207818292,0.0
64,Move,,,"(0.0033070809685918903, 0.15939336139403074, 0.0480245948749005)","(-0.003221721649284341, 0.008758192496794307, 0.10007245081902345)","[-0.006691745630130274, -0.0006343811278987088, 0.00047403586068286985]","[-0.026750000193715096, 0.05299999937415123, 0.03999999910593033]","[0.0, -0.0, 0.5507922756468575]","[-0.06443209946155548, 0.11435192823410034, 0.03999999910593033]","[0.0, 0.0, -0.31067510738133]","[0.026750000193715096, 0.05299999937415123, 0.03999999910593033]","[0.0, 0.0, -0.5652752430676895]","[0.06531667709350586, 0.11379976570606232, 0.03999999910593033]","[0.0, -0.0, 0.2950384296353975]",0.5330621314256022,-4.255228083570051,"(0.0, 0.0, 0.0, 0.0, 0.0, 0.0)",-63.6841566907319,-0.833899768100212,6.616226034561552,"(0.0, 0.0, 0.0, 0.0, 0.0, 0.0)",-32.0033096547166,-0.5494184347075574,3.805646026562078,"(0.0, 0.0, 0.0, 0.0, 0.0, 0.0)",54.08522476914028,0.834294882877888,-6.244519978070589,"(0.0, 0.0, 0.0, 0.0, 0.0, 0.0)",25.974823871813367,True,"(-0.030827226021807298, 0.18072875671023755, 0.023990313633420805)","(0.9946684597633704, 0.10266861339458756, -0.009685606619977753)",0.00023266339136997558,510.2877732171601,True,"(0.03274929454054999, 0.18050411530517568, 0.023999959438538117)","(-0.9999999992078928, -2.3394376620903917e-07, -3.980150265941498e-05)",0.00018643181396489492,418.4587664295024
65,Move,"(-0.0031000000000000003, 0.0, -0.0002)","(0.0, 0.02079385270826044, 0.0)","(0.0031969503873777684, 0.16028143882127593, 0.048054583489053525)","(-0.004372781608329888, 0.007939463136719069, 0.09861198334618497)","[-0.006801876211344396, 0.00025369629934648974, 0.0005040244748358916]","[-0.026750000193715096, 0.05299999937415123, 0.03999999910593033]","[0.0, -0.0, 0.5330621158171134]","[-0.06333845853805542, 0.11501035839319229, 0.03999999910593033]","[0.0, 0.0, -0.30083767855036603]","[0.026750000193715096, 0.05299999937415123, 0.03999999910593033]","[0.0, 0.0, -0.549418426545043]","[0.0643477737903595, 0.11440364271402359, 0.03999999910593033]","[0.0, -0.0, 0.2848764361199625]",0.5161701590322703,-4.054073374399667,"(0.0, 0.0, 0.0, 0.0, 0.0, 0.0)",-68.88180562685734,-0.8061093417891989,6.669702314643141,"(0.0, 0.0, 0.0, 0.0, 0.0, 0.0)",-35.756361121383094,-0.5337544439677235,3.7593577775601132,"(0.0, 0.0, 0.0, 0.0, 0.0, 0.0)",68.77952387616044,0.8075007011486295,-6.430603615022057,"(0.0, 0.0, 0.0, 0.0, 0.0, 0.0)",33.85011913137436,True,"(-0.030386831991674287, 0.18170201039644102, 0.02399124115951112)","(0.9949587688124035, 0.09990167360330966, -0.008758080529661552)",-0.0003521033588324185,534.8399967547618,True,"(0.03245991098360225, 0.1814354915724969, 0.023999959438538117)","(-0.9999999992078928, -2.3394376620903917e-07, -3.980150265941498e-05)",3.895377007335016e-05,524.277520594291
66,Move,"(0.0029, 0.0, 0.0009000000000000001)","(0.0, 0.021265091606298914, 0.0)","(0.0030717640429489502, 0.16109408864413788, 0.048064442080068256)","(-0.00473925908595163, 0.004411362958928387, 0.09522247386406742)","[-0.006927062555773214, 0.0010663461222084336, 0.0005138830658506233]","[-0.026750000193715096, 0.05299999937415123, 0.03999999910593033]","[0.0, -0.0, 0.5161702079325045]","[-0.062285806983709335, 0.11561953276395798, 0.03999999910593033]","[0.0, 0.0, -0.28993919682770425]","[0.026750000193715096, 0.05299999937415123, 0.03999999910593033]","[0.0, 0.0, -0.5337544427276155]","[0.0633813738822937, 0.11498501896858215, 0.03999999910593033]","[0.0, -0.0, 0.27374624928461355]",0.5173386811676617,0.2804453124939448,"(0.0, 0.0, 0.0, 0.0, 0.0, 0.0)",5.529872141473847,-0.808888057625236,-0.6668918006489069,"(0.0, 0.0, 0.0, 0.0, 0.0, 0.0)",-0.3114668311524684,-0.5360388244516783,-0.5482513161491451,"(0.0, 0.0, 0.0, 0.0, 0.0, 0.0)",-5.518253045158648,0.8101798182465467,0.6429881035001408,"(0.0, 0.0, 0.0, 0.0, 0.0, 0.0)",0.2869531677165395,True,"(-0.03006166347399304, 0.18265404950541297, 0.023992059860314583)","(0.9951104129424696, 0.09844913561342714, -0.007939379726199769)",-0.0007346128178897825,0.0,True,"(0.032241548852435555, 0.18236762460912842, 0.023999959438538117)","(-0.9999999992078928, -2.3394376620903917e-07, -3.980150265941498e-05)",-0.00012424112725224057,0.0
67,Move,"(0.0047, 0.0, 0.0012)","(0.0, 0.008604473212332044, 0.0)","(0.003001099665469344, 0.16186518174398878, 0.047987542413127436)","(-0.004589511998003849, -0.0011827238446122613, 0.08976699647383435)","[-0.006997726933252821, 0.0018374392220593394, 0.0004369833989098029]","[-0.026750000193715096, 0.05299999937415123, 0.03999999910593033]","[0.0, -0.0, 0.5173386933435103]","[-0.062358956784009933, 0.11557796597480774, 0.03999999910593033]","[0.0, 0.0, -0.29154941864895906]","[0.026750000193715096, 0.05299999937415123, 0.03999999910593033]","[0.0, 0.0, -0.5360388172642501]","[0.06352288275957108, 0.11490117758512497, 0.03999999910593033]","[0.0, -0.0, 0.2741410100024695]",0.5154794116525393,-0.4462246836293657,"(0.0, 0.0, 0.0, 0.0, 0.0, 0.0)",-1.5165228320708073,-0.808605186429155,0.06788908705942542,"(0.0, 0.0, 0.0, 0.0, 0.0, 0.0)",-0.2919006323406892,-0.5379699990954634,-0.46348191450843057,"(0.0, 0.0, 0.0, 0.0, 0.0, 0.0)",0.049514690537561135,0.809911906536755,-0.06429881035001372,"(0.0, 0.0, 0.0, 0.0, 0.0, 0.0)",-0.0646186376657394,True,"(-0.030026722346663932, 0.1825587394148045, 0.023995587891389444)","(0.9954600789124531, 0.09507771187133542, -0.004411348651337665)",-0.0006357642114140285,4.100204137006942,True,"(0.03235645455516948, 0.1822714856672124, 0.023999959438538117)","(-0.9999999992078928, -2.3394376620903917e-07, -3.980150265941498e-05)",-4.491338288971396e-05,0.0
68,Move,"(0.0128, 0.0, 0.0023)","(0.0, 0.029272662214448894, 0.0)","(0.0031817717612577165, 0.16241516192606667, 0.04805451598470521)","(-0.0037782294067405984, -0.0011101263353226183, 0.08635478026848702)","[-0.006817054837464448, 0.0023874194041372254, 0.000503956970487579]","[-0.026750000193715096, 0.05299999937415123, 0.03999999910593033]","[0.0, -0.0, 0.5154794001198756]","[-0.0622425451874733, 0.11564406752586365, 0.03999999910593033]","[0.0, 0.0, -0.2931257842465021]","[0.026750000193715096, 0.05299999937415123, 0.03999999910593033]","[0.0, 0.0, -0.5379699877717327]","[0.06364235281944275, 0.11483004689216614, 0.03999999910593033]","[0.0, -0.0, 0.27194191659421724]",0.5132784060542033,-0.5282413436006437,"(0.0, 0.0, 0.0, 0.0, 0.0, 0.0)",-2.735805195964476,-0.808243958254278,0.0866947619704897,"(0.0, 0.0, 0.0, 0.0, 0.0, 0.0)",-1.4532067368487263,-0.5401687325404145,-0.5276960267882798,"(0.0, 0.0, 0.0, 0.0, 0.0, 0.0)",0.13934116729657706,0.809607647453177,-0.07302218005872327,"(0.0, 0.0, 0.0, 0.0, 0.0, 0.0)",0.13461673508278996,True,"(-0.02980476339871993, 0.18257378617844527, 0.023995587891389444)","(0.9954600789124531, 0.09507771187133542, -0.004411348651337665)",-0.0005847385587192917,16.08521788918826,True,"(0.03271278010843828, 0.18113217716176055, 0.05600441210861054)","(-0.9954600789124538, -0.09507771187133109, 0.004411348651325632)",-0.00011114585475411641,1.9028001502503264
69,Move,"(0.0181, 0.0, 0.0054)","(0.0, 0.06476916854150959, 0.0)","(0.003526342816821019, 0.1628911826090047, 0.048062627767919794)","(-0.0012706218886280253, -0.0010120792240851941, 0.07953420161631565)","[-0.006472483781901146, 0.0028634400870752585, 0.0005120687537021607]","[-0.026750000193715096, 0.05299999937415123, 0.03999999910593033]","[0.0, -0.0, 0.5132785049035902]","[-0.06210457906126976, 0.11572203785181046, 0.03999999910593033]","[0.0, 0.0, -0.2949656028044219]","[0.026750000193715096, 0.05299999937415123, 0.03999999910593033]","[0.0, 0.0, -0.5401686966849002]","[0.06377821415662766, 0.11474877595901489, 0.03999999910593033]","[0.0, -0.0, 0.26943893839587535]",0.5094412009152578,-0.9209292333469274,"(0.0, 0.0, 0.0, 0.0, 0.0, 0.0)",-2.17931507010599,-0.8082326705619882,0.0027090461495367785,"(0.0, 0.0, 0.0, 0.0, 0.0, 0.0)",-0.9390218848143033,-0.5441912238097184,-0.9653979046329235,"(0.0, 0.0, 0.0, 0.0, 0.0, 0.0)",-0.6173043207930027,0.8096014726876261,-0.001481943732223684,"(0.0, 0.0, 0.0, 0.0, 0.0, 0.0)",-0.03140805541948683,True,"(-0.029543222720996264, 0.18258653307609965, 0.056001110886066525)","(0.9962731285364816, 0.08624744040351091, 0.0011101261073038098)",-0.0005825183152538071,12.181406266752523,True,"(0.03301468906492545, 0.18112812003877865, 0.05600441210861054)","(-0.9954600789124538, -0.09507771187133109, 0.004411348651325632)",-0.00010107478137382594,0.08851371276713059
70,Move,"(0.0254, 0.0, 0.0083)","(0.0, 0.04296127953784044, 0.0)","(0.003966212714569892, 0.16332081958986988, 0.04795724228507167)","(0.0018454157461658947, 0.0019659816983662276, 0.07245200149595594)","[-0.006032613884152272, 0.0032930770679404364, 0.00040668327085403855]","[-0.026750000193715096, 0.05299999937415123, 0.03999999910593033]","[0.0, -0.0, 0.509441159514251]","[-0.06186364218592644, 0.11585723608732224, 0.03999999910593033]","[0.0, 0.0, -0.2987914714564369]","[0.026750000193715096, 0.05299999937415123, 0.03999999910593033]","[0.0, 0.0, -0.5441912197272948]","[0.06402629613876343, 0.1145993322134018, 0.03999999910593033]","[0.0, -0.0, 0.2654102623301068]",0.5047072778286551,-1.1361415407846591,"(0.0, 0.0, 0.0, 0.0, 0.0, 0.0)",-1.1632210085151369,-0.8082143466237448,0.004397745178430472,"(0.0, 0.0, 0.0, 0.0, 0.0, 0.0)",-0.4960618818870644,-0.5491307301756984,-1.1854815278351816,"(0.0, 0.0, 0.0, 0.0, 0.0, 0.0)",-0.3151802466693338,0.8095869101414368,-0.003495011085411077,"(0.0, 0.0, 0.0, 0.0, 0.0, 0.0)",-0.020256574996723432,True,"(-0.029046464098814895, 0.1825936828022078, 0.05600101283901053)","(0.9968383117663251, 0.07945033600216252, 0.0010120790513079366)",-0.0005405827742355777,6.478131632907261,True,"(0.033530441874858936, 0.18110207217264973, 0.05600441210861054)","(-0.9954600789124538, -0.09507771187133109, 0.004411348651325632)",-9.295526885861366e-05,0.03891479982924519
71,Move,"(0.0287, 0.0, 0.009300000000000001)","(0.0, 0.05152386484812462, 0.0)","(0.004532005608854975, 0.16371084402712302, 0.04804007390889449)","(0.0006169788130711042, 0.002827084323472758, 0.060288302073708624)","[-0.00546682098986719, 0.0036831015051935756, 0.0004895148946768568]","[-0.026750000193715096, 0.05299999937415123, 0.03999999910593033]","[0.0, -0.0, 0.5047072580218986]","[-0.061565689742565155, 0.1160227581858635, 0.03999999910593033]","[0.0, 0.0, -0.3035070658592134]","[0.026750000193715096, 0.05299999937415123, 0.03999999910593033]","[0.0, 0.0, -0.549130705743866]","[0.06433010846376419, 0.11441445350646973, 0.03999999910593033]","[0.0, -0.0, 0.26045618740420173]",0.49851234906905806,-1.4867829023032917,"(0.0, 0.0, 0.0, 0.0, 0.0, 0.0)",-2.7389829213473584,-0.8080620271573223,0.03655667194139505,"(0.0, 0.0, 0.0, 0.0, 0.0, 0.0)",-1.2748957258644522,-0.5555715725223669,-1.545802163200455,"(0.0, 0.0, 0.0, 0.0, 0.0, 0.0)",-0.5230602662251508,0.8095883663960557,0.00034950110854214955,"(0.0, 0.0, 0.0, 0.0, 0.0, 0.0)",-0.03704903276025173,True,"(-0.028434174151134438, 0.1826037090607243, 0.05600101283901053)","(0.9968383117663251, 0.07945033600216252, 0.0010120790513079366)",-0.0004971123853386543,2.4535023612151945,True,"(0.03416353648863349, 0.18107439238686063, 0.023998987160989468)","(-0.9968383117663248, -0.07945033600216868, -0.0010120790513067311)",1.1403923041478367e-05,0.0
72,Move,"(0.0339, 0.0, 0.0108)","(0.0, 0.02580120233223217, 0.0)","(0.005118775620393942, 0.16411063834476763, 0.048030800627008)","(-0.0018066680585783529, 0.002156981848695326, 0.04679852665273133)","[-0.004880050978328223, 0.0040828958228381895, 0.00048024161279036637]","[-0.026750000193715096, 0.05299999937415123, 0.03999999910593033]","[0.0, -0.0, 0.4985123585199474]","[-0.061174601316452026, 0.11623722314834595, 0.03999999910593033]","[0.0, 0.0, -0.30954971009807647]","[0.026750000193715096, 0.05299999937415123, 0.03999999910593033]","[0.0, 0.0, -0.5555716119033453]","[0.0647248849272728, 0.11417113989591599, 0.03999999910593033]","[0.0, -0.0, 0.25401684224100085]",0.49183821780403636,-1.6017915036052037,"(0.0, 0.0, 0.0, 0.0, 0.0, 0.0)",-0.5796698015535416,-0.8080753381380409,-0.003194635372440739,"(0.0, 0.0, 0.0, 0.0, 0.0, 0.0)",-0.24401987592151894,-0.5625089063019431,-1.6649601070982785,"(0.0, 0.0, 0.0, 0.0, 0.0, 0.0)",-0.17352219285197232,0.8095882207705938,-3.4950110853415595e-05,"(0.0, 0.0, 0.0, 0.0, 0.0, 0.0)",-0.012477157978200142,True,"(-0.027641371731859828, 0.18261676396459767, 0.05600101283901053)","(0.9968383117663251, 0.07945033600216252, 0.0010120790513079366)",-0.0004111928469895447,0.0,True,"(0.034988186627734265, 0.1810239434544228, 0.023998987160989468)","(-0.9968383117663248, -0.07945033600216868, -0.0010120790513067311)",6.80327814578635e-05,0.0
73,Move,"(0.0394, 0.0, 0.0114)","(0.0, 0.004461061568097505, 0.0)","(0.005784356168299799, 0.1644848109096612, 0.04800223948963581)","(-0.0016374590103789169, -0.0014864625614828162, 0.03334347345614271)","[-0.004214470430422366, 0.004457068387731744, 0.00045168047541817996]","[-0.026750000193715096, 0.05299999937415123, 0.03999999910593033]","[0.0, -0.0, 0.49183828692131343]","[-0.0607517845928669, 0.11646556854248047, 0.03999999910593033]","[0.0, 0.0, -0.31623712648649765]","[0.026750000193715096, 0.05299999937415123, 0.03999999910593033]","[0.0, 0.0, -0.5625089722861043]","[0.06514833122491837, 0.11390621960163116, 0.03999999910593033]","[0.0, -0.0, 0.24707928995995385]",0.48411099885901254,-1.8545325468057101,"(0.0, 0.0, 0.0, 0.0, 0.0, 0.0)",-1.4718464487774057,-0.8080693519614426,0.0014366823835934525,"(0.0, 0.0, 0.0, 0.0, 0.0, 0.0)",-0.6402997537146975,-0.5704618121548505,-1.9086974046977891,"(0.0, 0.0, 0.0, 0.0, 0.0, 0.0)",-0.3543866722578955,0.80958823533314,3.4950110858744665e-06,"(0.0, 0.0, 0.0, 0.0, 0.0, 0.0)",-0.025373927332680863,True,"(-0.026774568218594044, 0.1826041066859066, 0.02399784225986467)","(0.9989028250555996, 0.04678133743772283, -0.0021569801761157237)",-0.0004956366322413659,8.444356003049043,True,"(0.035876135859491017, 0.1809637164590378, 0.023998987160989468)","(-0.9968383117663248, -0.07945033600216868, -0.0010120790513067311)",0.00011519754128730827,0.0
74,Move,"(0.0469, 0.0, 0.0107)","(0.0, 0.03446676206838401, 0.0)","(0.006672955985368919, 0.1647595918937986, 0.04808147957703847)","(-0.0012977753801006215, -0.001549118442711526, 0.01834115897092564)","[-0.0033258706133532457, 0.004731849371869157, 0.0005309205628208358]","[-0.026750000193715096, 0.05299999937415123, 0.03999999910593033]","[0.0, -0.0, 0.48411097946114795]","[-0.060260362923145294, 0.11672641336917877, 0.03999999910593033]","[0.0, 0.0, -0.3239583781573349]","[0.026750000193715096, 0.05299999937415123, 0.03999999910593033]","[0.0, 0.0, -0.5704618593051868]","[0.06563149392604828, 0.11359892040491104, 0.03999999910593033]","[0.0, -0.0, 0.23912642123900965]",0.47527095387374574,-2.121610796464029,"(0.0, 0.0, 0.0, 0.0, 0.0, 0.0)",-3.0889101960076917,-0.8080554195582093,0.0033437767759869653,"(0.0, 0.0, 0.0, 0.0, 0.0, 0.0)",-1.5383917313907436,-0.5794177937344488,-2.149435579103593,"(0.0, 0.0, 0.0, 0.0, 0.0, 0.0)",-0.3501391408884417,0.8095882338768854,-3.495011080545396e-07,"(0.0, 0.0, 0.0, 0.0, 0.0, 0.0)",-0.025086276773881165,True,"(-0.02577349247702697, 0.1826006336680048, 0.02399784225986467)","(0.9989028250555996, 0.04678133743772283, -0.0021569801761157237)",-0.0004535112656483696,12.498847504173012,True,"(0.036843069266384795, 0.1820014044075606, 0.023998512778026705)","(-0.9994430537187986, -0.03333725849441644, -0.0014864620140730546)",0.00015268954490988296,0.0
75,Move,"(0.0514, 0.0, 0.009800000000000001)","(0.0, 0.05170537909033201, 0.0)","(0.007708242135614578, 0.1650207521378582, 0.04815417001804081)","(-0.002145753674802815, -0.0004900238204239362, 0.0006096172555262675)","[-0.002290584463107586, 0.004993009615928745, 0.0006036110038231748]","[-0.026750000193715096, 0.05299999937415123, 0.03999999910593033]","[0.0, -0.0, 0.47527094541713255]","[-0.05969571694731712, 0.1170201525092125, 0.03999999910593033]","[0.0, 0.0, -0.3327845036683776]","[0.026750000193715096, 0.05299999937415123, 0.03999999910593033]","[0.0, 0.0, -0.5794178885622998]","[0.06617265194654465, 0.11324827373027802, 0.03999999910593033]","[0.0, -0.0, 0.2301704330217246]",0.46492871392925195,-2.482137586678507,"(0.0, 0.0, 0.0, 0.0, 0.0, 0.0)",-2.188763052177189,-0.8080131251885617,0.01015064871541083,"(0.0, 0.0, 0.0, 0.0, 0.0, 0.0)",-0.9754470347883761,-0.5896284812913786,-2.4505650136631436,"(0.0, 0.0, 0.0, 0.0, 0.0, 0.0)",-0.4379195614600566,0.8095882340225109,3.495010947318633e-08,"(0.0, 0.0, 0.0, 0.0, 0.0, 0.0)",-0.03137582000372746,True,"(-0.02462849316499767, 0.1825755197162979, 0.05600154987778234)","(0.9998306059769813, 0.01834010866032074, 0.0015491178231144232)",-0.0004798683980879349,12.750575977262368,True,"(0.037997854274840016, 0.18191188371070593, 0.02399845012221765)","(-0.9998306059769811, -0.01834010866032416, -0.0015491178231243825)",0.00015985938861724354,0.0
76,Move,"(0.054700000000000006, 0.0, 0.0097)","(0.0, 0.0561105901223657, 0.0)","(0.00883974367850777, 0.16523881571222912, 0.04810439832573118)","(-0.0021027595968303972, 0.003477953715342618, -0.017123332940286173)","[-0.0011590829202143948, 0.005211073190299675, 0.0005538393115135445]","[-0.026750000193715096, 0.05299999937415123, 0.03999999910593033]","[0.0, -0.0, 0.4649287121684594]","[-0.059031855314970016, 0.11735745519399643, 0.03999999910593033]","[0.0, 0.0, -0.34308442472749995]","[0.026750000193715096, 0.05299999937415123, 0.03999999910593033]","[0.0, 0.0, -0.5896285294810827]","[0.06678576022386551, 0.1128426045179367, 0.03999999910593033]","[0.0, -0.0, 0.2199597794953515]",0.45381573453554513,-2.6671150544896416,"(0.0, 0.0, 0.0, 0.0, 0.0, 0.0)",-1.190065488303251,-0.8079943226662532,0.004512605354064431,"(0.0, 0.0, 0.0, 0.0, 0.0, 0.0)",-0.5408415453099346,-0.6003944261571431,-2.583826767783479,"(0.0, 0.0, 0.0, 0.0, 0.0, 0.0)",-0.1943558147354278,0.8095882340079483,-3.4950122795862626e-09,"(0.0, 0.0, 0.0, 0.0, 0.0, 0.0)",-0.013979533692189065,True,"(-0.02329125334174916, 0.18254072939596488, 0.05600049078376003)","(0.999999694121759, 0.0006096171445825128, 0.0004900238008090479)",-0.0004520394629847983,7.055483361132844,True,"(0.03931349007857264, 0.18179783813348724, 0.023999509216239962)","(-0.9999996941217592, -0.0006096171445786463, -0.0004900238008109731)",0.00016662942032166198,0.0
77,Move,"(0.0588, 0.0, 0.006900000000000001)","(0.0, 0.08614596121993615, 0.0)","(0.010114275510535356, 0.16540335557862465, 0.048061373477184824)","(0.0013840546952114878, 0.0027774324529162373, -0.033767779557392776)","[0.00011544891181319156, 0.005375613056695205, 0.0005108144629671907]","[-0.026750000193715096, 0.05299999937415123, 0.03999999910593033]","[0.0, -0.0, 0.4538157754373808]","[-0.058314673602581024, 0.11771222203969955, 0.03999999910593033]","[0.0, 0.0, -0.35417858228399157]","[0.026750000193715096, 0.05299999937415123, 0.03999999910593033]","[0.0, 0.0, -0.6003944494134416]","[0.06742769479751587, 0.1124081239104271, 0.03999999910593033]","[0.0, -0.0, 0.20919380359619105]",0.44212404049943044,-2.8060065686675255,"(0.0, 0.0, 0.0, 0.0, 0.0, 0.0)",-1.9604301994156972,-0.8081716337426375,-0.04255465833223462,"(0.0, 0.0, 0.0, 0.0, 0.0, 0.0)",-1.017968673777687,-0.6115145329879426,-2.6688256393918715,"(0.0, 0.0, 0.0, 0.0, 0.0, 0.0)",-0.12404550291858618,0.8096006441696204,0.00297843880130892,"(0.0, 0.0, 0.0, 0.0, 0.0, 0.0)",-0.00867433637893611,True,"(-0.021853131161486426, 0.18249497983883972, 0.05600049078376003)","(0.999999694121759, 0.0006096171445825128, 0.0004900238008090479)",-0.00041114694906758167,0.9964557789757597,True,"(0.040699365635346665, 0.18165511878395696, 0.023999509216239962)","(-0.9999996941217592, -0.0006096171445786463, -0.0004900238008109731)",0.00022471988895875143,0.0
78,Move,"(0.06, 0.0, 0.0066)","(0.0, 0.0730751904517506, 0.0)","(0.011372813896981613, 0.16558096368530853, 0.048038010087340384)","(0.0011428437346169644, -0.0005074929324713692, -0.0513506926245778)","[0.0013739872982594485, 0.005553221163379085, 0.00048745107312275077]","[-0.026750000193715096, 0.05299999937415123, 0.03999999910593033]","[0.0, -0.0, 0.4421240362960872]","[-0.05755593627691269, 0.11807683110237122, 0.03999999910593033]","[0.0, 0.0, -0.36604763445898575]","[0.026750000193715096, 0.05299999937415123, 0.03999999910593033]","[0.0, 0.0, -0.611514479322512]","[0.06808578968048096, 0.11195211857557297, 0.03999999910593033]","[0.0, -0.0, 0.19808611082378305]",0.42968107163160363,-2.9863125282784275,"(0.0, 0.0, 0.0, 0.0, 0.0, 0.0)",-1.6495902758205425,-0.8075994433555913,0.1373256928910691,"(0.0, 0.0, 0.0, 0.0, 0.0, 0.0)",-0.7937113852889259,-0.6231076917707875,-2.7823581078827986,"(0.0, 0.0, 0.0, 0.0, 0.0, 0.0)",0.6907794890804524,0.8091965085353019,-0.09699255223643197,"(0.0, 0.0, 0.0, 0.0, 0.0, 0.0)",0.3993164015040833,True,"(-0.020328398894118346, 0.18241086841516252, 0.023997221811158778)","(0.9994260678405926, -0.03376123234564419, -0.002777428882008867)",-0.000504439598412097,10.806613348960827,True,"(0.04212826935796898, 0.18149172695646337, 0.023999509216239962)","(-0.9999996941217592, -0.0006096171445786463, -0.0004900238008109731)",9.357905575494659e-05,3.9779571620677068
79,Move,"(0.060200000000000004, 0.0, 0.004)","(0.0, 0.08614596121993615, 0.0)","(0.012717922431267504, 0.16570422645508218, 0.04803692747676942)","(-0.0014973602121910322, -0.0004894045359712985, -0.06485882491139215)","[0.0027190958325453395, 0.005676483933152732, 0.00048636846255178945]","[-0.026750000193715096, 0.05299999937415123, 0.03999999910593033]","[0.0, -0.0, 0.4296810811518124]","[-0.05674382299184799, 0.11845510452985764, 0.03999999910593033]","[0.0, 0.0, -0.3779183467183837]","[0.026750000193715096, 0.05299999937415123, 0.03999999910593033]","[0.0, 0.0, -0.6231076914675115]","[0.06876643747091293, 0.11146895587444305, 0.03999999910593033]","[0.0, -0.0, 0.18608880651670157]",0.41722433326978287,-2.9896172068369813,"(0.0, 0.0, 0.0, 0.0, 0.0, 0.0)",-3.6607607406388247,-0.805910985023226,0.40522999976766505,"(0.0, 0.0, 0.0, 0.0, 0.0, 0.0)",-2.0627393194402543,-0.6346771259828436,-2.77666421089348,"(0.0, 0.0, 0.0, 0.0, 0.0, 0.0)",2.599381105130981,0.8081028100617015,-0.2624876336641114,"(0.0, 0.0, 0.0, 0.0, 0.0, 0.0)",1.2207398248981494,True,"(-0.018755231798225386, 0.18234269580913504, 0.023997221811158778)","(0.9994260678405926, -0.03376123234564419, -0.002777428882008867)",-0.0004620679500211296,20.8396284516045,True,"(0.04364581783496907, 0.18133304468820094, 0.023999491747130085)","(-0.9986817142702349, 0.05132812127100011, -0.0005074929106920243)",-2.7265300033014435e-05,19.87725960940759
80,Move,"(0.06620000000000001, 0.0, 0.0008)","(0.0, 0.11190003966236446, 0.0)","(0.014152124404348302, 0.1657253089968819, 0.04807445294256417)","(-0.0014933339324917395, 0.0007653878609290828, -0.07090983444582762)","[0.004153297805626137, 0.0056975664749524535, 0.000523893928346536]","[-0.026750000193715096, 0.05299999937415123, 0.03999999910593033]","[0.0, -0.0, 0.4172243604617509]","[-0.055926159024238586, 0.11882364004850388, 0.03999999910593033]","[0.0, 0.0, -0.38868663177410684]","[0.026750000193715096, 0.05299999937415123, 0.03999999910593033]","[0.0, 0.0, -0.6346771064031108]","[0.06944006681442261, 0.11097894608974457, 0.03999999910593033]","[0.0, -0.0, 0.17342568493119356]",0.4048970207195265,-2.9585550120615287,"(0.0, 0.0, 0.0, 0.0, 0.0, 0.0)",-4.625285799165205,-0.8041937668519562,0.4121323611047614,"(0.0, 0.0, 0.0, 0.0, 0.0, 0.0)",-2.5580695218828606,-0.645943138473649,-2.7038429977933034,"(0.0, 0.0, 0.0, 0.0, 0.0, 0.0)",2.9234361061611316,0.8068795639324094,-0.29357907103009157,"(0.0, 0.0, 0.0, 0.0, 0.0, 0.0)",1.437685166397645,True,"(-0.017251825030262048, 0.18229846515750275, 0.023997221811158778)","(0.9994260678405926, -0.03376123234564419, -0.002777428882008867)",-0.00040230245871280634,35.79983111051921,True,"(0.04520618658971426, 0.18115637511328136, 0.023999509835524336)","(-0.9978972841409408, 0.06481335346480571, -0.0004894045164381867)",-3.031911920837363e-05,11.541743740268847
81,Move,"(0.0678, 0.0, 0.0021000000000000003)","(0.0, 0.1033252370473163, 0.0)","(0.015763046999476588, 0.16563687769541033, 0.04806494511767267)","(0.0024934523756959415, 0.002189015422522331, -0.07431900199298389)","[0.005764220400754423, 0.005609135173480884, 0.0005143861034550348]","[-0.026750000193715096, 0.05299999937415123, 0.03999999910593033]","[0.0, -0.0, 0.4048969923219913]","[-0.05511253699660301, 0.11917829513549805, 0.03999999910593033]","[0.0, 0.0, -0.39929675118384705]","[0.026750000193715096, 0.05299999937415123, 0.03999999910593033]","[0.0, 0.0, -0.6459431586277318]","[0.07009053230285645, 0.11049433052539825, 0.03999999910593033]","[0.0, -0.0, 0.16093642584718382]",0.39127718521248445,-3.2687605216900915,"(0.0, 0.0, 0.0, 0.0, 0.0, 0.0)",-6.764337135935974,-0.8019533072586883,0.5377103023842879,"(0.0, 0.0, 0.0, 0.0, 0.0, 0.0)",-3.3251931692326746,-0.6580028135005327,-2.8943220064520783,"(0.0, 0.0, 0.0, 0.0, 0.0, 0.0)",3.1338667630296735,0.804964764478923,-0.4595518688367694,"(0.0, 0.0, 0.0, 0.0, 0.0, 0.0)",1.846411218163937,True,"(-0.015767513680345895, 0.18223078419615601, 0.056000490164475655)","(0.9978972841409407, -0.06481335346480623, 0.0004894045164315532)",-0.0004153713103975524,39.22304172809922,True,"(0.04673498642218365, 0.1809689412711088, 0.023999509835524336)","(-0.9978972841409408, 0.06481335346480571, -0.0004894045164381867)",2.3113289092893227e-06,16.021037529197933
82,Move,"(0.0673, 0.0, 0.0009000000000000001)","(0.0, 0.11190003966236446, 0.0)","(0.01737754224560166, 0.16550925431966418, 0.048106682755830805)","(0.0006933201788735671, 0.002548769418396683, -0.07752186920413114)","[0.007378715646879495, 0.005481511797734734, 0.0005561237416131723]","[-0.026750000193715096, 0.05299999937415123, 0.03999999910593033]","[0.0, -0.0, 0.3912771929957149]","[-0.05420859530568123, 0.1195584386587143, 0.03999999910593033]","[0.0, 0.0, -0.41067612685611715]","[0.026750000193715096, 0.05299999937415123, 0.03999999910593033]","[0.0, 0.0, -0.6580027977718094]","[0.07078072428703308, 0.10996749252080917, 0.03999999910593033]","[0.0, -0.0, 0.1469619748988869]",0.37758304323742237,-3.286594074014904,"(0.0, 0.0, 0.0, 0.0, 0.0, 0.0)",-5.702795651772037,-0.7998436664663823,0.5063137901534467,"(0.0, 0.0, 0.0, 0.0, 0.0, 0.0)",-3.0785173691776566,-0.6699664685281765,-2.8712772066345322,"(0.0, 0.0, 0.0, 0.0, 0.0, 0.0)",4.450523759784448,0.8030557955108062,-0.4581525523480281,"(0.0, 0.0, 0.0, 0.0, 0.0, 0.0)",2.269228501137385,True,"(-0.014148638351604126, 0.18215913295645314, 0.056000490164475655)","(0.9978972841409407, -0.06481335346480623, 0.0004894045164315532)",-0.0003602922445398632,36.87370889711117,True,"(0.04841227502310581, 0.18076159000817954, 0.023999509835524336)","(-0.9978972841409408, 0.06481335346480571, -0.0004894045164381867)",5.057049868655748e-05,15.816242238929215
83,Move,"(0.0695, 0.0, 0.0002)","(0.0, 0.1251278900632295, 0.0)","(0.018958262987459448, 0.16533935399566038, 0.04813189509903791)","(-0.0012700430071883786, 0.0027238196319712728, -0.07900736593733516)","[0.008959436388737283, 0.005311611473730937, 0.0005813360848202775]","[-0.026750000193715096, 0.05299999937415123, 0.03999999910593033]","[0.0, -0.0, 0.37758303371446766]","[-0.053294587880373, 0.11992820352315903, 0.03999999910593033]","[0.0, 0.0, -0.4222607006863956]","[0.026750000193715096, 0.05299999937415123, 0.03999999910593033]","[0.0, 0.0, -0.6699663391048559]","[0.071459099650383, 0.10943666100502014, 0.03999999910593033]","[0.0, -0.0, 0.13308934714954976]",0.3643252365016532,-3.1818736165846015,"(0.0, 0.0, 0.0, 0.0, 0.0, 0.0)",-4.962322649829653,-0.79791707625668,0.4623816503285546,"(0.0, 0.0, 0.0, 0.0, 0.0, 0.0)",-2.662853285093693,-0.6814092938256979,-2.7462780714051234,"(0.0, 0.0, 0.0, 0.0, 0.0, 0.0)",4.965949813683564,0.8010676789748306,-0.4771479686341448,"(0.0, 0.0, 0.0, 0.0, 0.0, 0.0)",2.5798408870904543,True,"(-0.01251213793514936, 0.18206063764939823, 0.056000490164475655)","(0.9978972841409407, -0.06481335346480623, 0.0004894045164315532)",-0.00032951944208849674,34.03512633498283,True,"(0.05007486795603115, 0.1805342444705708, 0.023999509835524336)","(-0.9978972841409408, 0.06481335346480571, -0.0004894045164381867)",5.8989753821977476e-05,18.181522570506377
84,Move,"(0.0702, 0.0, 0.0011)","(0.0, 0.10792941561407735, 0.0)","(0.020560838126407098, 0.16515345920959626, 0.048130750815259526)","(0.0019862582504597526, 0.0038400774639065346, -0.07957882142142325)","[0.010562011527684934, 0.005125716687666815, 0.0005801918010418933]","[-0.026750000193715096, 0.05299999937415123, 0.03999999910593033]","[0.0, -0.0, 0.36432522892662794]","[-0.05240496248006821, 0.12027423828840256, 0.03999999910593033]","[0.0, 0.0, -0.43359188889820355]","[0.026750000193715096, 0.05299999937415123, 0.03999999910593033]","[0.0, 0.0, -0.6814093606025997]","[0.07210195064544678, 0.10892137885093689, 0.03999999910593033]","[0.0, -0.0, 0.11965839042497908]",0.350797858806792,-3.2465706467666986,"(0.0, 0.0, 0.0, 0.0, 0.0, 0.0)",-6.743095489497093,-0.7954586529266945,0.5900215991965244,"(0.0, 0.0, 0.0, 0.0, 0.0, 0.0)",-3.18691706383526,-0.6928519379171788,-2.7462345819553993,"(0.0, 0.0, 0.0, 0.0, 0.0, 0.0)",4.593744554893249,0.7987776719241344,-0.5496016921670642,"(0.0, 0.0, 0.0, 0.0, 0.0, 0.0)",2.609069887425393,True,"(-0.010921107041277842, 0.18194057484585696, 0.056000490164475655)","(0.9978972841409407, -0.06481335346480623, 0.0004894045164315532)",-0.00031271761917200496,44.40529062466863,True,"(0.05167452920801595, 0.18029975157807115, 0.023999509835524336)","(-0.9978972841409408, 0.06481335346480571, -0.0004894045164381867)",6.157843477235513e-05,15.444842467288492
85,Move,"(0.0698, 0.0, 0.0009000000000000001)","(0.0, 0.1033252370473163, 0.0)","(0.02212091465024292, 0.16494862941994423, 0.048159071364420276)","(0.00017449920191214962, 0.0038327657711709506, -0.08145487859167176)","[0.012122088051520756, 0.004920886898014787, 0.0006085123502026432]","[-0.026750000193715096, 0.05299999937415123, 0.03999999910593033]","[0.0, -0.0, 0.35079788723426725]","[-0.0514925979077816, 0.12061511725187302, 0.03999999910593033]","[0.0, 0.0, -0.4446608074571604]","[0.026750000193715096, 0.05299999937415123, 0.03999999910593033]","[0.0, 0.0, -0.6928518855894988]","[0.07273885607719421, 0.10839878022670746, 0.03999999910593033]","[0.0, -0.0, 0.10592573614911381]",0.33738141565041424,-3.2199463575306555,"(0.0, 0.0, 0.0, 0.0, 0.0, 0.0)",-6.40761996578611,-0.7931249208756176,0.560095692258461,"(0.0, 0.0, 0.0, 0.0, 0.0, 0.0)",-3.326764669584877,-0.7040807971978568,-2.6949262273627226,"(0.0, 0.0, 0.0, 0.0, 0.0, 0.0)",5.601425586263173,0.7963795792899181,-0.5755422322119074,"(0.0, 0.0, 0.0, 0.0, 0.0, 0.0)",2.949535679787515,True,"(-0.00932871688849185, 0.1818185022427921, 0.056000490164475655)","(0.9978972841409407, -0.06481335346480623, 0.0004894045164315532)",-0.0002809494672633093,44.69879767087184,True,"(0.05329354427010505, 0.1800509391792538, 0.023999509835524336)","(-0.9978972841409408, 0.06481335346480571, -0.0004894045164381867)",9.787889097144175e-05,14.193815036016307
86,Move,"(0.0693, 0.0, 0.001)","(0.0, 0.11257024609513026, 0.0)","(0.023628155559221882, 0.16473614419015567, 0.04818504514325384)","(-0.0014838890547937166, 0.003827024651769622, -0.08324573142090451)","[0.013629328960499718, 0.004708401668226225, 0.0006344861290362089]","[-0.026750000193715096, 0.05299999937415123, 0.03999999910593033]","[0.0, -0.0, 0.33738140772503744]","[-0.05058324337005615, 0.12094097584486008, 0.03999999910593033]","[0.0, 0.0, -0.45574352453597416]","[0.026750000193715096, 0.05299999937415123, 0.03999999910593033]","[0.0, 0.0, -0.7040808083200062]","[0.07335801422595978, 0.10787889361381531, 0.03999999910593033]","[0.0, -0.0, 0.09229878626396931]",0.3243656146025,-3.1237922514994065,"(0.0, 0.0, 0.0, 0.0, 0.0, 0.0)",-5.938680749244492,-0.7907796693326175,0.5628603703200243,"(0.0, 0.0, 0.0, 0.0, 0.0, 0.0)",-3.0130963859711994,-0.7148663116429049,-2.588523466811546,"(0.0, 0.0, 0.0, 0.0, 0.0, 0.0)",6.038333821214078,0.7939205064750267,-0.5901774755739364,"(0.0, 0.0, 0.0, 0.0, 0.0, 0.0)",3.2227681241997415,True,"(-0.007743666762370718, 0.18167332543345396, 0.056000490164475655)","(0.9978972841409407, -0.06481335346480623, 0.0004894045164315532)",-0.00027365012737037413,42.47856371489508,True,"(0.05489087274407089, 0.17978937468751627, 0.023999509835524336)","(-0.9978972841409408, 0.06481335346480571, -0.0004894045164381867)",0.00010728821776636655,15.356651363828645
87,Move,"(0.07100000000000001, 0.0, -0.0002)","(0.0, 0.11257024609513026, 0.0)","(0.02508005728406765, 0.16454032762013937, 0.04815495095292144)","(0.0019229212800291608, 0.004231154820703571, -0.08410968630509116)","[0.015081230685345486, 0.004512585098209926, 0.0006043919387038049]","[-0.026750000193715096, 0.05299999937415123, 0.03999999910593033]","[0.0, -0.0, 0.3243656242752192]","[-0.049696944653987885, 0.12124542146921158, 0.03999999910593033]","[0.0, 0.0, -0.46641405535104075]","[0.026750000193715096, 0.05299999937415123, 0.03999999910593033]","[0.0, 0.0, -0.7148663034409831]","[0.07394718378782272, 0.10737302154302597, 0.03999999910593033]","[0.0, -0.0, 0.07905419718248977]",0.31176609913902187,-3.02388371123476,"(0.0, 0.0, 0.0, 0.0, 0.0, 0.0)",-6.789489582406122,-0.7882169395262475,0.6150551535287853,"(0.0, 0.0, 0.0, 0.0, 0.0, 0.0)",-3.209380948559266,-0.7251615421073442,-2.4708553114654173,"(0.0, 0.0, 0.0, 0.0, 0.0, 0.0)",5.594633315680796,0.7914396957550325,-0.5953945727986154,"(0.0, 0.0, 0.0, 0.0, 0.0, 0.0)",3.103420290062564,True,"(-0.006211770323837344, 0.18151719990579057, 0.056000490164475655)","(0.9978972841409407, -0.06481335346480623, 0.0004894045164315532)",-0.0002673784133674349,49.36973477237677,True,"(0.05643406401018619, 0.17952177646011117, 0.023999509835524336)","(-0.9978972841409408, 0.06481335346480571, -0.0004894045164381867)",0.00011697153894558791,10.553869725790369
88,Move,"(0.073, 0.0, 0.0004)","(0.0, 0.10792941561407735, 0.0)","(0.02654374261421886, 0.16430837788936745, 0.04818243919353226)","(0.0001427839762919926, 0.004219154031149209, -0.08583481678891469)","[0.016544916015496694, 0.0042806353674380015, 0.000631880179314627]","[-0.026750000193715096, 0.05299999937415123, 0.03999999910593033]","[0.0, -0.0, 0.3117660835620164]","[-0.048835285007953644, 0.12152911722660065, 0.03999999910593033]","[0.0, 0.0, -0.4764508937837649]","[0.026750000193715096, 0.05299999937415123, 0.03999999910593033]","[0.0, 0.0, -0.7251615137551684]","[0.07450445741415024, 0.10688424110412598, 0.03999999910593033]","[0.0, -0.0, 0.0662781545214102]",0.29895066389865427,-3.0757044576882273,"(0.0, 0.0, 0.0, 0.0, 0.0, 0.0)",-7.517360752307283,-0.7856300182972271,0.6208610949648776,"(0.0, 0.0, 0.0, 0.0, 0.0, 0.0)",-3.820040431309706,-0.735446604603349,-2.4684149990411464,"(0.0, 0.0, 0.0, 0.0, 0.0, 0.0)",6.04719751316356,0.7886650196370334,-0.6659222683197902,"(0.0, 0.0, 0.0, 0.0, 0.0, 0.0)",3.2477430624170815,True,"(-0.0047473779631219196, 0.18136141598171915, 0.056000490164475655)","(0.9978972841409407, -0.06481335346480623, 0.0004894045164315532)",-0.000261142479157758,52.42778197262256,True,"(0.05791451534744292, 0.17925085165450516, 0.023999509835524336)","(-0.9978972841409408, 0.06481335346480571, -0.0004894045164381867)",0.00014363275928931234,9.872871938563652
89,Move,"(0.0719, 0.0, 0.0007)","(0.0, 0.09117600012418381, 0.0)","(0.028021347948898812, 0.1640627835172114, 0.04820785627000443)","(-0.0014924469243250851, 0.004214284014260492, -0.08756091227461216)","[0.018022521350176648, 0.004035040995281958, 0.0006572972557867957]","[-0.026750000193715096, 0.05299999937415123, 0.03999999910593033]","[0.0, -0.0, 0.29895064134946836]","[-0.04795526713132858, 0.12180651724338531, 0.03999999910593033]","[0.0, 0.0, -0.48667937044511755]","[0.026750000193715096, 0.05299999937415123, 0.03999999910593033]","[0.0, 0.0, -0.7354466298690341]","[0.07505612075328827, 0.10639024525880814, 0.03999999910593033]","[0.0, -0.0, 0.05321841593233056]",0.28592487292622143,-3.1261898333838793,"(0.0, 0.0, 0.0, 0.0, 0.0, 0.0)",-7.5462846410448625,-0.7828762778592944,0.6608977051038526,"(0.0, 0.0, 0.0, 0.0, 0.0, 0.0)",-3.678714211590261,-0.7457484226395007,-2.4724363286764204,"(0.0, 0.0, 0.0, 0.0, 0.0, 0.0)",6.7538788964005345,0.7856901484333898,-0.7139690888744715,"(0.0, 0.0, 0.0, 0.0, 0.0, 0.0)",3.7157569917267996,True,"(-0.0032576794043650617, 0.1811847376127788, 0.056000490164475655)","(0.9978972841409407, -0.06481335346480623, 0.0004894045164315532)",-0.00025718758752199815,52.9263920028411,True,"(0.059412659479529756, 0.17896733568213002, 0.023999509835524336)","(-0.9978972841409408, 0.06481335346480571, -0.0004894045164381867)",0.00015282009977101344,13.299245773755406
90,Move,"(0.0725, 0.0, 0.0006)","(0.0, 0.09931272509698134, 0.0)","(0.029419244032129636, 0.16384773026068103, 0.04816373706825311)","(0.0020695122775093843, 0.0044132157244164, -0.0886885749630962)","[0.019420417433407472, 0.0038199877387515846, 0.0006131780540354764]","[-0.026750000193715096, 0.05299999937415123, 0.03999999910593033]","[0.0, -0.0, 0.28592491508788237]","[-0.04705723375082016, 0.12207688391208649, 0.03999999910593033]","[0.0, 0.0, -0.4969514191626134]","[0.026750000193715096, 0.05299999937415123, 0.03999999910593033]","[0.0, 0.0, -0.7457484176151118]","[0.07560356706380844, 0.10588978230953217, 0.03999999910593033]","[0.0, -0.0, 0.03994172934459387]",0.27351543548649493,-2.978264985534366,"(0.0, 0.0, 0.0, 0.0, 0.0, 0.0)",-7.497541329649513,-0.7800451388251116,0.6794733682038514,"(0.0, 0.0, 0.0, 0.0, 0.0, 0.0)",-3.4896001501288167,-0.7554847512342558,-2.336718862741243,"(0.0, 0.0, 0.0, 0.0, 0.0, 0.0)",6.459317897101248,0.7828553855364405,-0.6803430952678228,"(0.0, 0.0, 0.0, 0.0, 0.0, 0.0)",3.6321293925757576,True,"(-0.001752079262072992, 0.18099284758839757, 0.056000490164475655)","(0.9978972841409407, -0.06481335346480623, 0.0004894045164315532)",-0.00025511505115225646,56.171979723931834,True,"(0.06092503694787832, 0.17866816133573526, 0.023999509835524336)","(-0.9978972841409408, 0.06481335346480571, -0.0004894045164381867)",0.00016275882941025284,9.157475626280034
91,Move,"(0.0735, 0.0, -0.0007)","(0.0, 0.1033252370473163, 0.0)","(0.030806480253898816, 0.16359059335648818, 0.04819092742406086)","(0.0002897877346925258, 0.004399022277400161, -0.09028873846443271)","[0.02080765365517665, 0.003562850834558734, 0.0006403684098432241]","[-0.026750000193715096, 0.05299999937415123, 0.03999999910593033]","[0.0, -0.0, 0.27351543386020594]","[-0.046198487281799316, 0.12232356518507004, 0.03999999910593033]","[0.0, 0.0, -0.5065296411536871]","[0.026750000193715096, 0.05299999937415123, 0.03999999910593033]","[0.0, 0.0, -0.7554847600168201]","[0.07611619681119919, 0.10541162639856339, 0.03999999910593033]","[0.0, -0.0, 0.02737063495543593]",0.26116736090926784,-2.963537898534498,"(0.0, 0.0, 0.0, 0.0, 0.0, 0.0)",-8.097810505660814,-0.7772375542116323,0.6738203072350336,"(0.0, 0.0, 0.0, 0.0, 0.0, 0.0)",-4.095822145874828,-0.7650059995336198,-2.285099591847344,"(0.0, 0.0, 0.0, 0.0, 0.0, 0.0)",6.854515182822609,0.7797400704226785,-0.7476756273029006,"(0.0, 0.0, 0.0, 0.0, 0.0, 0.0)",3.718276901240104,True,"(-0.00033110457270357774, 0.18080288159427307, 0.056000490164475655)","(0.9978972841409407, -0.06481335346480623, 0.0004894045164315532)",-0.00025805580601917315,57.12891640867893,True,"(0.062353704961278025, 0.17836877731045475, 0.023999509835524336)","(-0.9978972841409408, 0.06481335346480571, -0.0004894045164381867)",0.0001824859931957071,8.298387599792932
92,Move,"(0.0694, 0.0, 0.0)","(0.0, 0.07754497866610804, 0.0)","(0.03218393790105479, 0.1633251398139334, 0.04821599656195615)","(-0.0013416166803912678, 0.0043889567194625905, -0.09185601910601929)","[0.022185111302332625, 0.0032973972920039563, 0.0006654375477385191]","[-0.026750000193715096, 0.05299999937415123, 0.03999999910593033]","[0.0, -0.0, 0.2611673680213857]","[-0.04534101113677025, 0.12255842238664627, 0.03999999910593033]","[0.0, 0.0, -0.5160701896189896]","[0.026750000193715096, 0.05299999937415123, 0.03999999910593033]","[0.0, 0.0, -0.7650059575263615]","[0.07661297917366028, 0.10493922978639603, 0.03999999910593033]","[0.0, -0.0, 0.01473407065805782]",0.24882959549992154,-2.9610636982431155,"(0.0, 0.0, 0.0, 0.0, 0.0, 0.0)",-7.921179999702279,-0.774321726608638,0.699798624718639,"(0.0, 0.0, 0.0, 0.0, 0.0, 0.0)",-3.8167133463485086,-0.7743823072519775,-2.250313852405849,"(0.0, 0.0, 0.0, 0.0, 0.0, 0.0)",7.428913395835934,0.7764812055330435,-0.7821275735124132,"(0.0, 0.0, 0.0, 0.0, 0.0, 0.0)",4.1270639225244095,True,"(0.001082194342872947, 0.1805974898047447, 0.056000490164475655)","(0.9978972841409407, -0.06481335346480623, 0.0004894045164315532)",-0.00025601618221185663,56.38385123738533,True,"(0.06377348584936988, 0.1780644619969789, 0.023999509835524336)","(-0.9978972841409408, 0.06481335346480571, -0.0004894045164381867)",0.00019196619620871327,11.025358937834062
