OSUrobotics/InHand-Manipulation/AnalyseData/Data/Trial Data/Tries/new_hand_human_sub1_2v2_e_n_1_kpNone_kdNone_dp10_step5_save_data.csv
,Phase,human_cube_pos,human_cube_orn,Cube_Pos,Cube_Orn,Cube_pos_in_start_pos,b'l_prox_pin'_link_pos,b'l_prox_pin'_link_orn,b'l_distal_pin'_link_pos,b'l_distal_pin'_link_orn,b'r_prox_pin'_link_pos,b'r_prox_pin'_link_orn,b'r_distal_pin'_link_pos,b'r_distal_pin'_link_orn,b'l_prox_pin'_joint_angle,b'l_prox_pin'_joint_vel,b'l_prox_pin'_joint_react_forces,b'l_prox_pin'_joint_motor_torque,b'l_distal_pin'_joint_angle,b'l_distal_pin'_joint_vel,b'l_distal_pin'_joint_react_forces,b'l_distal_pin'_joint_motor_torque,b'r_prox_pin'_joint_angle,b'r_prox_pin'_joint_vel,b'r_prox_pin'_joint_react_forces,b'r_prox_pin'_joint_motor_torque,b'r_distal_pin'_joint_angle,b'r_distal_pin'_joint_vel,b'r_distal_pin'_joint_react_forces,b'r_distal_pin'_joint_motor_torque,in_contact_l,contact_point_l_dist,contact_normal_l_dist,contact_distance_l_dist,contact_norm_force_l_dist,in_contact_r,contact_point_r_dist,contact_normal_r_dist,contact_distance_r_dist,contact_norm_force_r_dist
0,Open,,,,,,"[-0.026750000193715096, 0.05299999937415123, 0.03999999910593033]","[0.0, -0.0, 0.4254700097131474]","[-0.056467924267053604, 0.11858082562685013, 0.03999999910593033]","[0.0, -0.0, 0.4254700097131474]","[0.026750000193715096, 0.05299999937415123, 0.03999999910593033]","[0.0, 0.0, -0.4429245237535421]","[0.057608019560575485, 0.1180521547794342, 0.03999999910593033]","[0.0, 0.0, -0.5266622746639338]",0.5399229999999999,27.46872,"(0.0, 0.0, 0.0, 0.0, 0.0, 0.0)",-4.377393708535371,5.294901130302062e-32,0.0,"(0.0, 0.0, 0.0, 0.0, 0.0, 0.0)",-0.30017707799641646,-0.5623038734984663,-28.651050680519948,"(0.0, 0.0, 0.0, 0.0, 0.0, 0.0)",144.45470973647488,-0.10456727132876567,-4.999096204557077,"(0.0, 0.0, 0.0, 0.0, 0.0, 0.0)",33.97911746732963,False,,,,,False,,,,
1,Open,,,,,,"[-0.026750000193715096, 0.05299999937415123, 0.03999999910593033]","[0.0, -0.0, 0.894166469119967]","[-0.08288749307394028, 0.09808415919542313, 0.03999999910593033]","[0.0, -0.0, 0.894166894674561]","[0.026750000193715096, 0.05299999937415123, 0.03999999910593033]","[0.0, 0.0, -0.9122733503889549]","[0.08369457721710205, 0.09706035256385803, 0.03999999910593033]","[0.0, 0.0, -0.9997066729229968]",0.96174983227,16.220004472800003,"(0.0, 0.0, 0.0, 0.0, 0.0, 0.0)",-2.5959652512206968,5.681494863714967e-07,3.553320838026869e-05,"(0.0, 0.0, 0.0, 0.0, 0.0, 0.0)",-0.18114955764248034,-0.9780460127037736,-15.785439661232708,"(0.0, 0.0, 0.0, 0.0, 0.0, 0.0)",2.503992476159733,-0.0786900142246732,2.098357403184359,"(0.0, 0.0, 0.0, 0.0, 0.0, 0.0)",0.15360133560797545,False,,,,,False,,,,
2,Open,,,,,,"[-0.026750000193715096, 0.05299999937415123, 0.03999999910593033]","[0.0, -0.0, 1.170927100750299]","[-0.09307006001472473, 0.08102945238351822, 0.03999999910593033]","[0.0, -0.0, 1.1709279927689973]","[0.026750000193715096, 0.05299999937415123, 0.03999999910593033]","[0.0, 0.0, -1.181618964677462]","[0.09336595237255096, 0.08031877130270004, 0.03999999910593033]","[0.0, 0.0, -1.233247876832181]",1.2108343584571122,9.577750441143678,"(0.0, 0.0, 0.0, 0.0, 0.0, 0.0)",-1.5367816122769582,9.012180617793662e-07,6.275974057005224e-06,"(0.0, 0.0, 0.0, 0.0, 0.0, 0.0)",-0.1083256720668905,-1.2204570900414513,-9.3211442655613,"(0.0, 0.0, 0.0, 0.0, 0.0, 0.0)",1.4819475463743526,-0.046466145575958295,1.239071567699341,"(0.0, 0.0, 0.0, 0.0, 0.0, 0.0)",0.09166748660725833,False,,,,,False,,,,
3,Open,,,,,,"[-0.026750000193715096, 0.05299999937415123, 0.03999999910593033]","[0.0, -0.0, 1.334351465706577]","[-0.09674673527479172, 0.06986585259437561, 0.03999999910593033]","[0.0, -0.0, 1.33435435145599]","[0.026750000193715096, 0.05299999937415123, 0.03999999910593033]","[0.0, 0.0, -1.3406650641721125]","[0.09685182571411133, 0.06942359358072281, 0.03999999910593033]","[0.0, 0.0, -1.3711530696282732]",1.3579162851496,5.655565729344001,"(0.0, 0.0, 0.0, 0.0, 0.0, 0.0)",-0.9088150211252332,3.4316066113876724e-06,0.0001607445165674468,"(0.0, 0.0, 0.0, 0.0, 0.0, 0.0)",-0.06444344013525093,-1.3635984108023202,-5.504042378604797,"(0.0, 0.0, 0.0, 0.0, 0.0, 0.0)",0.8762522980402716,-0.02744024570882781,0.7315266716392431,"(0.0, 0.0, 0.0, 0.0, 0.0, 0.0)",0.05446985052483407,False,,,,,False,,,,
4,Open,,,,,,"[-0.026750000193715096, 0.05299999937415123, 0.03999999910593033]","[0.0, -0.0, 1.4308518944899675]","[-0.09804610908031464, 0.06304314732551575, 0.03999999910593033]","[0.0, -0.0, 1.4308566269594332]","[0.026750000193715096, 0.05299999937415123, 0.03999999910593033]","[0.0, 0.0, -1.4345798203875788]","[0.09808305650949478, 0.06277728080749512, 0.03999999910593033]","[0.0, 0.0, -1.4525855975984745]",1.4447666872179874,3.339555007520341,"(0.0, 0.0, 0.0, 0.0, 0.0, 0.0)",-0.5371183361845069,4.8269553674989e-06,2.0878160072459843e-05,"(0.0, 0.0, 0.0, 0.0, 0.0, 0.0)",-0.03821759960562203,-1.448121925594662,-3.2500819841423465,"(0.0, 0.0, 0.0, 0.0, 0.0, 0.0)",0.5178266556878065,-0.016205556838873442,0.4320218239148067,"(0.0, 0.0, 0.0, 0.0, 0.0, 0.0)",0.0322808466635012,False,,,,,False,,,,
5,Open,,,,,,"[-0.026750000193715096, 0.05299999937415123, 0.03999999910593033]","[0.0, -0.0, 1.487834617901085]","[-0.09850236773490906, 0.05896640568971634, 0.03999999910593033]","[0.0, -0.0, 1.4878390921106803]","[0.026750000193715096, 0.05299999937415123, 0.03999999910593033]","[0.0, 0.0, -1.4900358577435544]","[0.09851532429456711, 0.05880843847990036, 0.03999999910593033]","[0.0, 0.0, -1.5006695807985118]",1.4960509811353493,1.9719738363906854,"(0.0, 0.0, 0.0, 0.0, 0.0, 0.0)",-0.3173274216127963,4.509251873886308e-06,-3.168767150011037e-05,"(0.0, 0.0, 0.0, 0.0, 0.0, 0.0)",-0.022624215793833224,-1.498032215844392,-1.9191409108162163,"(0.0, 0.0, 0.0, 0.0, 0.0, 0.0)",0.30591369390909257,-0.00957062017308593,0.2551417656412126,"(0.0, 0.0, 0.0, 0.0, 0.0, 0.0)",0.019102112305110365,False,,,,,False,,,,
6,Open,,,,,,"[-0.026750000193715096, 0.05299999937415123, 0.03999999910593033]","[0.0, -0.0, 1.5214821319654974]","[-0.09866246581077576, 0.05654918774962425, 0.03999999910593033]","[0.0, -0.0, 1.5214858439169519]","[0.026750000193715096, 0.05299999937415123, 0.03999999910593033]","[0.0, 0.0, -1.5227821585534602]","[0.09866702556610107, 0.05645570904016495, 0.03999999910593033]","[0.0, 0.0, -1.529061933448946]",1.5263338438506127,1.164430830650334,"(0.0, 0.0, 0.0, 0.0, 0.0, 0.0)",-0.18743587261192823,3.6440993970645793e-06,-4.480530101024996e-05,"(0.0, 0.0, 0.0, 0.0, 0.0, 0.0)",-0.013379159967550349,-1.527503743133955,-1.1332335164278682,"(0.0, 0.0, 0.0, 0.0, 0.0, 0.0)",0.18068846528573543,-0.005652184024362593,0.1506807000213291,"(0.0, 0.0, 0.0, 0.0, 0.0, 0.0)",0.011293655891939093,False,,,,,False,,,,
7,Close,,,"(0.010000824637423049, 0.16001319418745247, 0.017848014970055004)","(-0.00026934863811186216, 1.6834304115272585e-05, -2.2671484573282825e-09)",,"[-0.026750000193715096, 0.05299999937415123, 0.03999999910593033]","[0.0, -0.0, 1.2784808254221978]","[-0.09569569677114487, 0.07374827563762665, 0.03999999910593033]","[0.0, -0.0, 1.034582661993943]","[0.026750000193715096, 0.05299999937415123, 0.03999999910593033]","[0.0, 0.0, -1.2792482299640686]","[0.0957116037607193, 0.0736953467130661, 0.03999999910593033]","[0.0, 0.0, -1.0390562259147462]",1.210632571455348,-16.283535238809286,"(0.0, 0.0, 0.0, 0.0, 0.0, 0.0)",2.771136716181199,-0.3095085607892871,-15.746535439217235,"(0.0, 0.0, 0.0, 0.0, 0.0, 0.0)",0.3469037989659341,-1.211323385283169,16.3019569408845,"(0.0, 0.0, 0.0, 0.0, 0.0, 0.0)",-2.7749564531312414,0.30617317599991634,15.835479338328643,"(0.0, 0.0, 0.0, 0.0, 0.0, 0.0)",-0.3479929302165593,False,,,,,False,,,,
8,Close,,,"(0.010001648057231211, 0.16002636889308344, 0.03133184175509247)","(-0.0005384699893107284, 3.3654401557527444e-05, -9.06094284338731e-09)",,"[-0.026750000193715096, 0.05299999937415123, 0.03999999910593033]","[0.0, -0.0, 1.0006360422079206]","[-0.08736064285039902, 0.0918632224202156, 0.03999999910593033]","[0.0, -0.0, 0.4880565025715103]","[0.026750000193715096, 0.05299999937415123, 0.03999999910593033]","[0.0, 0.0, -1.001089448203126]","[0.08737824857234955, 0.09183574467897415, 0.03999999910593033]","[0.0, 0.0, -0.49069812233338583]",0.9605724271186684,-9.615264723164493,"(0.0, 0.0, 0.0, 0.0, 0.0, 0.0)",1.6441783201079794,-0.5513218025251249,-9.298144061583436,"(0.0, 0.0, 0.0, 0.0, 0.0, 0.0)",0.21014173445603831,-0.9609803457758583,9.626142554022893,"(0.0, 0.0, 0.0, 0.0, 0.0, 0.0)",-1.6464751946207798,0.5493522946545342,9.350664461360347,"(0.0, 0.0, 0.0, 0.0, 0.0, 0.0)",-0.2108204377510729,False,,,,,False,,,,
9,Close,,,"(0.010002470404691093, 0.16003952644115657, 0.04045997120998789)","(-0.0008073642479911328, 5.0460303253361964e-05, -2.0369923505779015e-08)",,"[-0.026750000193715096, 0.05299999937415123, 0.03999999910593033]","[0.0, -0.0, 0.8365715799965936]","[-0.0801992267370224, 0.1012408509850502, 0.03999999910593033]","[0.0, -0.0, 0.16533874626364803]","[0.026750000193715096, 0.05299999937415123, 0.03999999910593033]","[0.0, 0.0, -0.8368392086626993]","[0.08021213859319687, 0.10122654587030411, 0.03999999910593033]","[0.0, 0.0, -0.1668985823484083]",0.8129144124893025,-5.677717666381402,"(0.0, 0.0, 0.0, 0.0, 0.0, 0.0)",0.9736078226475493,-0.6941096683608667,-5.490444078796776,"(0.0, 0.0, 0.0, 0.0, 0.0, 0.0)",0.12593397924105265,-0.8131552843771866,5.684140916724979,"(0.0, 0.0, 0.0, 0.0, 0.0, 0.0)",-0.9749785244213759,0.6929466958025952,5.521456795952681,"(0.0, 0.0, 0.0, 0.0, 0.0, 0.0)",-0.12634715317523504,False,,,,,False,,,,
10,Close,,,"(0.010003291824242136, 0.16005266914270105, 0.04523936165140331)","(-0.0010760316083767074, 6.725202012489063e-05, -3.618265319583079e-08)",,"[-0.026750000193715096, 0.05299999937415123, 0.03999999910593033]","[0.0, -0.0, 0.7396932119518481]","[-0.07528240978717804, 0.10618463158607483, 0.03999999910593033]","[0.0, 0.0, -0.025223688738047617]","[0.026750000193715096, 0.05299999937415123, 0.03999999910593033]","[0.0, 0.0, -0.7398511766938903]","[0.07529081404209137, 0.10617695748806, 0.03999999910593033]","[0.0, -0.0, 0.02430263317545323]",0.7257238314308083,-3.352635504821555,"(0.0, 0.0, 0.0, 0.0, 0.0, 0.0)",0.5758654822812497,-0.7784262532781683,-3.242260203768412,"(0.0, 0.0, 0.0, 0.0, 0.0, 0.0)",0.0750123771406224,-0.725866063871885,3.3564283699169333,"(0.0, 0.0, 0.0, 0.0, 0.0, 0.0)",-0.5766799137830688,0.7777395376647703,3.260573592131318,"(0.0, 0.0, 0.0, 0.0, 0.0, 0.0)",-0.0752606958188736,False,,,,,False,,,,
11,Close,,,"(0.009997966950406065, 0.16004795201914346, 0.046616050094935475)","(-0.0009640430328522325, -5.7324486097668704e-05, 4.2980615420070005e-09)",,"[-0.026750000193715096, 0.05299999937415123, 0.03999999910593033]","[0.0, -0.0, 0.682487397988505]","[-0.0721622109413147, 0.10887245088815689, 0.03999999910593033]","[0.0, 0.0, -0.13775029188859572]","[0.026750000193715096, 0.05299999937415123, 0.03999999910593033]","[0.0, 0.0, -0.6825807377410441]","[0.07216742634773254, 0.10886821150779724, 0.03999999910593033]","[0.0, -0.0, 0.1372064129763775]",0.6742386185346878,-1.979696494258342,"(0.0, 0.0, 0.0, 0.0, 0.0, 0.0)",0.34037467823530393,-0.8282145265472606,-1.9144534778819295,"(0.0, 0.0, 0.0, 0.0, 0.0, 0.0)",0.04449932044982575,-0.674322605213594,1.981936139029174,"(0.0, 0.0, 0.0, 0.0, 0.0, 0.0)",-0.3408573424145132,0.8278090365055835,1.9252671252731466,"(0.0, 0.0, 0.0, 0.0, 0.0, 0.0)",-0.04464739446319682,False,,,,,False,,,,
12,Close,,,"(0.009998679410322496, 0.16003066597344334, 0.0474253884764576)","(-0.0006112814540129935, -4.2805404436077314e-05, 1.9447426774393396e-07)",,"[-0.026750000193715096, 0.05299999937415123, 0.03999999910593033]","[0.0, -0.0, 0.6487079580530938]","[-0.07024932652711868, 0.11037428677082062, 0.03999999910593033]","[0.0, 0.0, -0.20419532625251113]","[0.026750000193715096, 0.05299999937415123, 0.03999999910593033]","[0.0, 0.0, -0.6487631098841893]","[0.07025248557329178, 0.11037188768386841, 0.03999999910593033]","[0.0, -0.0, 0.20387417727936794]",0.6438371618585478,-1.1689909828946077,"(0.0, 0.0, 0.0, 0.0, 0.0, 0.0)",0.20110328062585062,-0.8576133287829941,-1.1304144347684295,"(0.0, 0.0, 0.0, 0.0, 0.0, 0.0)",0.026365137971139978,-0.6438867551525752,1.1703134707353389,"(0.0, 0.0, 0.0, 0.0, 0.0, 0.0)",-0.20138889834359572,0.857373897412956,1.136799615752827,"(0.0, 0.0, 0.0, 0.0, 0.0, 0.0)",-0.026453134766811503,False,,,,,False,,,,
13,Close,,,"(0.008562352819313064, 0.15963169911231415, 0.04795936059784778)","(0.002880050037504477, -0.0018080766405500393, 0.027156574699580344)",,"[-0.026750000193715096, 0.05299999937415123, 0.03999999910593033]","[0.0, -0.0, 0.6287615983534538]","[-0.06909634172916412, 0.11123047024011612, 0.03999999910593033]","[0.0, 0.0, -0.24342883421715172]","[0.026750000193715096, 0.05299999937415123, 0.03999999910593033]","[0.0, 0.0, -0.6288059721302652]","[0.06909892708063126, 0.1112285852432251, 0.03999999910593033]","[0.0, -0.0, 0.24295585513718987]",0.6258854057058539,-0.6902774854894381,"(0.0, 0.0, 0.0, 0.0, 0.0, 0.0)",0.11878846609148704,-0.8749713231347032,-0.6674313830745814,"(0.0, 0.0, 0.0, 0.0, 0.0, 0.0)",0.015594191474811038,-0.6259255556368085,0.6912982329409242,"(0.0, 0.0, 0.0, 0.0, 0.0, 0.0)",0.23889456753769728,0.8745816224765113,0.6767593625972839,"(0.0, 0.0, 0.0, 0.0, 0.0, 0.0)",0.18939691443679915,False,,,,,True,"(0.040048198705117485, 0.17954190147604243, 0.02399995236517949)","(-0.9999968496142797, -0.00250969405768167, -4.6874861287478436e-05)",-8.481535683957195e-06,2.863336982423626
14,Move,,,"(0.0021872179113760974, 0.1587702000093447, 0.04795070422976376)","(0.005962162449872379, -0.0033931589555412952, 0.10738858230627975)","[0.0, 0.0, 0.0]","[-0.026750000193715096, 0.05299999937415123, 0.03999999910593033]","[0.0, -0.0, 0.5601465041237582]","[-0.06500434130430222, 0.11399676650762558, 0.03999999910593033]","[0.0, 0.0, -0.31665092698218517]","[0.026750000193715096, 0.05299999937415123, 0.03999999910593033]","[0.0, 0.0, -0.5704791351722326]","[0.06563255190849304, 0.11359824240207672, 0.03999999910593033]","[0.0, -0.0, 0.305956737273258]",0.5441270049833652,-3.8446725897845018,"(0.0, 0.0, 0.0, 0.0, 0.0, 0.0)",-31.016206067854263,-0.862168545717363,3.5109286459519033,"(0.0, 0.0, 0.0, 0.0, 0.0, 0.0)",-15.92332423422567,-0.5571846401428407,3.1906852662822005,"(0.0, 0.0, 0.0, 0.0, 0.0, 0.0)",30.615399196288518,0.8610595255010496,-3.6903265511769647,"(0.0, 0.0, 0.0, 0.0, 0.0, 0.0)",16.541442123431672,True,"(-0.03100426910775894, 0.18018038835621497, 0.05600352127687249)","(0.9944108650409498, 0.10552079154921731, 0.0035205169132651575)",-0.0003255110162118496,255.8309528106214,True,"(0.03234100379217806, 0.17992001197697366, 0.02399647872312752)","(-0.9944108650409488, -0.10552079154922665, -0.003520516913257393)",0.00030258198891258155,195.87528475250997
15,Move,"(0.0028, 0.0, -0.0019)","(0.0, 0.03882310388136187, 0.0)","(0.0026621294129409046, 0.15983821253006075, 0.04788062747642655)","(0.0022266594044104905, 0.0005593827202418546, 0.09392114078067418)","[0.0004749115015648072, 0.0010680125207160607, -7.007675333720736e-05]","[-0.026750000193715096, 0.05299999937415123, 0.03999999910593033]","[0.0, -0.0, 0.527801681604151]","[-0.06301175057888031, 0.11520197242498398, 0.03999999910593033]","[0.0, 0.0, -0.32420924194507134]","[0.026750000193715096, 0.05299999937415123, 0.03999999910593033]","[0.0, 0.0, -0.5541716274398163]","[0.06463921815156937, 0.11422424018383026, 0.03999999910593033]","[0.0, -0.0, 0.2962083452650297]",0.5273027839602158,-0.11974112219592603,"(0.0, 0.0, 0.0, 0.0, 0.0, 0.0)",-0.9460996297710429,-0.8525657930338189,-0.13316367357057285,"(0.0, 0.0, 0.0, 0.0, 0.0, 0.0)",-0.49483767824058894,-0.5565933961969357,-0.5812152108082133,"(0.0, 0.0, 0.0, 0.0, 0.0, 0.0)",0.9876118425797147,0.8510482808290435,0.160384190496513,"(0.0, 0.0, 0.0, 0.0, 0.0, 0.0)",0.4664896897060946,True,"(-0.028512985327101448, 0.1811323341362026, 0.05600311533242741)","(0.9940239572680721, 0.10911769707920065, 0.003114572403053239)",-0.0026445327578124463,6.44634187695285,True,"(0.032108537583669154, 0.17976940546382164, 0.02399688466763773)","(-0.9940239572680716, -0.10911769707920535, -0.003114572403051332)",1.2289879362240159e-05,3.820806003010765
16,Move,"(0.004527300000000001, 0.0, -0.0048545)","(0.0, 0.014522884705844815, 0.0)","(0.0038628174918454617, 0.15995888441142964, 0.04813139272693642)","(-0.00245998437271096, 0.002143442829525557, 0.08656580276587374)","[0.0016755995804693643, 0.001188684402084944, 0.00018068849717266244]","[-0.026750000193715096, 0.05299999937415123, 0.03999999910593033]","[0.0, -0.0, 0.5201378016501245]","[-0.06253398209810257, 0.11547805368900299, 0.03999999910593033]","[0.0, 0.0, -0.33004010317859445]","[0.026750000193715096, 0.05299999937415123, 0.03999999910593033]","[0.0, 0.0, -0.5645447470018099]","[0.0652722492814064, 0.11382792890071869, 0.03999999910593033]","[0.0, -0.0, 0.28484036683858704]",0.5183279378892879,-0.4343656165871885,"(0.0, 0.0, 0.0, 0.0, 0.0, 0.0)",-2.0737201110370087,-0.8494606060751176,0.17214931962265345,"(0.0, 0.0, 0.0, 0.0, 0.0, 0.0)",-1.072754322911115,-0.5660900871251594,-0.3708971161370105,"(0.0, 0.0, 0.0, 0.0, 0.0, 0.0)",1.716058551250401,0.848827441889847,-0.1338224187783787,"(0.0, 0.0, 0.0, 0.0, 0.0, 0.0)",0.7961570512741581,True,"(-0.027650421198623, 0.1811959527152061, 0.02399819523729072)","(0.9961516782000646, 0.08762750451005834, -0.0018040156692403146)",-0.0021591710597863704,17.377550507037153,True,"(0.03348877081934142, 0.17973865864508928, 0.02399688466763773)","(-0.9940239572680716, -0.10911769707920535, -0.003114572403051332)",6.421298796224545e-05,7.388826067459417
17,Move,"(0.0077267, 0.0, -0.0067)","(0.0, 0.021205750411731106, 0.0)","(0.0052756594096530565, 0.15990347834291826, 0.048217999551590694)","(-0.002153342378075744, 0.0012954006513921253, 0.08163042725808507)","[0.003088441498276959, 0.001133278333573573, 0.0002672953218269339]","[-0.026750000193715096, 0.05299999937415123, 0.03999999910593033]","[0.0, -0.0, 0.5091187415466514]","[-0.06184336915612221, 0.11586855351924896, 0.03999999910593033]","[0.0, 0.0, -0.33765267354524303]","[0.026750000193715096, 0.05299999937415123, 0.03999999910593033]","[0.0, 0.0, -0.5746524899016873]","[0.06588511168956757, 0.11343544721603394, 0.03999999910593033]","[0.0, -0.0, 0.2722877580998356]",0.5070828332135073,-0.4886142902382147,"(0.0, 0.0, 0.0, 0.0, 0.0, 0.0)",-1.6786435920015785,-0.8461830808556593,0.14119109293135687,"(0.0, 0.0, 0.0, 0.0, 0.0, 0.0)",-0.9547625646043424,-0.5765836833339681,-0.4634730294935598,"(0.0, 0.0, 0.0, 0.0, 0.0, 0.0)",1.4420314772908631,0.8465487768118525,-0.09396611619973337,"(0.0, 0.0, 0.0, 0.0, 0.0, 0.0)",0.6443087613430393,True,"(-0.026460724206082004, 0.18132118177340062, 0.02399858882944694)","(0.9966131910489539, 0.08222018103347876, -0.0014104105938443886)",-0.0018611770088943463,13.309956569243715,True,"(0.03493146591630765, 0.17973994237007312, 0.02399688466763773)","(-0.9940239572680716, -0.10911769707920535, -0.003114572403051332)",4.939242712908574e-05,7.0252468056507285
18,Move,"(0.00904, 0.0, -0.008060000000000001)","(0.0, 0.031808625617596654, 0.0)","(0.00665547222857258, 0.15978972547857462, 0.04823690023462203)","(0.0004306212427013111, 0.0010560172013683302, 0.07628305594720348)","[0.004468254317196482, 0.001019525469229926, 0.000286196004858269]","[-0.026750000193715096, 0.05299999937415123, 0.03999999910593033]","[0.0, -0.0, 0.4977769916606569]","[-0.06112808734178543, 0.1162625253200531, 0.03999999910593033]","[0.0, 0.0, -0.34594182018115394]","[0.026750000193715096, 0.05299999937415123, 0.03999999910593033]","[0.0, 0.0, -0.5852189426431843]","[0.06652149558067322, 0.11301856487989426, 0.03999999910593033]","[0.0, -0.0, 0.2596749225800372]",0.4957701956058208,-0.48162414496153544,"(0.0, 0.0, 0.0, 0.0, 0.0, 0.0)",-1.5646184851329141,-0.8431918561479284,0.12646795349742465,"(0.0, 0.0, 0.0, 0.0, 0.0, 0.0)",-0.8548782957403519,-0.587075350044017,-0.4455405612097469,"(0.0, 0.0, 0.0, 0.0, 0.0, 0.0)",1.3298563964643724,0.8445094078568655,-0.09227336232085503,"(0.0, 0.0, 0.0, 0.0, 0.0, 0.0)",0.6048585584678401,True,"(-0.025204379839179884, 0.1814231146965435, 0.02399917042001614)","(0.9969951594978396, 0.07745944096908994, -0.0008288200246450493)",-0.0016031748381229102,12.853077579406358,True,"(0.03640657930975692, 0.17970818779251457, 0.02399688466763773)","(-0.9940239572680716, -0.10911769707920535, -0.003114572403051332)",3.6744728747630694e-05,6.228987256828433
19,Move,"(0.0108867, 0.0, -0.0114733)","(0.0, 0.07493222077587257, 0.0)","(0.00799914663141438, 0.1597558102726283, 0.048348720801692356)","(-0.0006859889302739642, 0.0008681103566695479, 0.07019191499276985)","[0.005811928720038282, 0.000985610263283615, 0.0003980165719285958]","[-0.026750000193715096, 0.05299999937415123, 0.03999999910593033]","[0.0, -0.0, 0.48623087862791636]","[-0.06039537861943245, 0.11665523052215576, 0.03999999910593033]","[0.0, 0.0, -0.35459195387189707]","[0.026750000193715096, 0.05299999937415123, 0.03999999910593033]","[0.0, 0.0, -0.5956103818140271]","[0.067143015563488, 0.11260204762220383, 0.03999999910593033]","[0.0, -0.0, 0.24725848260201194]",0.4841521997359866,-0.49887825452107426,"(0.0, 0.0, 0.0, 0.0, 0.0, 0.0)",-1.4878669899564951,-0.8402945730594454,0.12677495930971508,"(0.0, 0.0, 0.0, 0.0, 0.0, 0.0)",-0.8454756774472028,-0.5974576703785602,-0.4433528803196079,"(0.0, 0.0, 0.0, 0.0, 0.0, 0.0)",1.2901377591599617,0.8425050824437965,-0.08729612394150346,"(0.0, 0.0, 0.0, 0.0, 0.0, 0.0)",0.5868710788476237,True,"(-0.02390953254156155, 0.18150489991829877, 0.0239990966428731)","(0.9974696412450109, 0.07108797446053862, -0.0009025971676814842)",-0.0014170911830215312,11.901502998017436,True,"(0.03785845162887737, 0.17966044341462323, 0.02399688466763773)","(-0.9940239572680716, -0.10911769707920535, -0.003114572403051332)",4.8166162427862744e-05,5.164931269271466
20,Move,"(0.0129733, 0.0, -0.014066700000000001)","(0.0, 0.17329025077201304, 0.0)","(0.009317781539766302, 0.15967916700514967, 0.04840398200615451)","(-0.001347785651852983, 0.0007637993538865202, 0.06525030207124492)","[0.007130563628390204, 0.0009089669958049773, 0.00045327777639075223]","[-0.026750000193715096, 0.05299999937415123, 0.03999999910593033]","[0.0, -0.0, 0.474051785790716]","[-0.05961763858795166, 0.11706027388572693, 0.03999999910593033]","[0.0, 0.0, -0.363418501363086]","[0.026750000193715096, 0.05299999937415123, 0.03999999910593033]","[0.0, 0.0, -0.6055489339574246]","[0.06773337721824646, 0.11219765990972519, 0.03999999910593033]","[0.0, -0.0, 0.23502572273249545]",0.47183947497384515,-0.5309520179366474,"(0.0, 0.0, 0.0, 0.0, 0.0, 0.0)",-1.7683936104686484,-0.8368189380256569,0.1563230183762599,"(0.0, 0.0, 0.0, 0.0, 0.0, 0.0)",-1.0173549064213125,-0.607278317495716,-0.4150429774961569,"(0.0, 0.0, 0.0, 0.0, 0.0, 0.0)",1.5726843258966796,0.8401301688258713,-0.10668389074702943,"(0.0, 0.0, 0.0, 0.0, 0.0, 0.0)",0.7096620229569167,True,"(-0.022561052338469834, 0.18158894863315683, 0.023999233079863624)","(0.9978287331877603, 0.06585766639877572, -0.000766160177161122)",-0.0013245976413008235,13.852987491390934,True,"(0.03927128643082819, 0.17960926037359354, 0.02399688466763773)","(-0.9940239572680716, -0.10911769707920535, -0.003114572403051332)",5.441968852668096e-05,6.792173876499915
21,Move,"(0.0123067, 0.0, -0.0152333)","(0.0, 0.16849408598753257, 0.0)","(0.010474848280561659, 0.159598473547231, 0.04843306442306762)","(-0.0017190866550755534, 0.0005948517084055622, 0.062003195006786575)","[0.008287630369185561, 0.0008282735378863093, 0.00048236019330386015]","[-0.026750000193715096, 0.05299999937415123, 0.03999999910593033]","[0.0, -0.0, 0.46284966891376533]","[-0.05889798328280449, 0.11742442846298218, 0.03999999910593033]","[0.0, 0.0, -0.3711763453031431]","[0.026750000193715096, 0.05299999937415123, 0.03999999910593033]","[0.0, 0.0, -0.6141546209545932]","[0.06824128329753876, 0.11184278875589371, 0.03999999910593033]","[0.0, -0.0, 0.2240293488554665]",0.4609681819210275,-0.4515597899349224,"(0.0, 0.0, 0.0, 0.0, 0.0, 0.0)",-1.709179390590799,-0.8334196143017961,0.14553951771204882,"(0.0, 0.0, 0.0, 0.0, 0.0, 0.0)",-0.969390283503024,-0.6155858588311394,-0.3435047680748371,"(0.0, 0.0, 0.0, 0.0, 0.0, 0.0)",1.5031537901198198,0.8377567562857089,-0.1025212157427407,"(0.0, 0.0, 0.0, 0.0, 0.0, 0.0)",0.6894035234312593,True,"(-0.021342171541856025, 0.18166797500220278, 0.023999411080949704)","(0.9980510656824131, 0.06239971441507708, -0.0005881590910775122)",-0.0012742681257607857,13.332338725401664,True,"(0.040522184055052236, 0.17956328330649735, 0.02399688466763773)","(-0.9940239572680716, -0.10911769707920535, -0.003114572403051332)",5.8928666303117514e-05,5.895945936768769
22,Move,"(0.0132267, 0.0, -0.019313300000000002)","(0.0, 0.09223192432164036, 0.0)","(0.011634563564998049, 0.1594836187976309, 0.04848964843689376)","(-0.002062946365715455, 0.0002524715542606836, 0.05766150931057261)","[0.009447345653621951, 0.0007134187882862075, 0.0005389442071300002]","[-0.026750000193715096, 0.05299999937415123, 0.03999999910593033]","[0.0, -0.0, 0.45228691259246606]","[-0.058215703815221786, 0.11776039749383926, 0.03999999910593033]","[0.0, 0.0, -0.3788473533305106]","[0.026750000193715096, 0.05299999937415123, 0.03999999910593033]","[0.0, 0.0, -0.6227431959425691]","[0.06874512135982513, 0.11148426681756973, 0.03999999910593033]","[0.0, -0.0, 0.21336719897718676]",0.45041941534311347,-0.44821038778188854,"(0.0, 0.0, 0.0, 0.0, 0.0, 0.0)",-1.6559274530293797,-0.8306032845433295,0.12744815383147318,"(0.0, 0.0, 0.0, 0.0, 0.0, 0.0)",-0.8826870356172827,-0.6243258946137562,-0.3798548587148415,"(0.0, 0.0, 0.0, 0.0, 0.0, 0.0)",1.3575476073172108,0.835717356010625,-0.09432053339506055,"(0.0, 0.0, 0.0, 0.0, 0.0, 0.0)",0.6122891772306359,True,"(-0.02016837042470536, 0.18171716243799568, 0.02399987162342579)","(0.9982293640656142, 0.059482101771531556, -0.00012761661499642506)",-0.001185808428144911,12.476617821888865,True,"(0.041749631143649546, 0.17949645664842587, 0.02399688466763773)","(-0.9940239572680716, -0.10911769707920535, -0.003114572403051332)",5.088340742998523e-05,4.031230780895589
23,Move,"(0.008746700000000001, 0.0, -0.01902)","(0.0, 0.0642665137169352, 0.0)","(0.012316103634370888, 0.15947811273277948, 0.048648507655737104)","(-0.0037300770178819325, 0.0013375719749361018, 0.05444666588309787)","[0.01012888572299479, 0.0007079127234347893, 0.0006978034259733437]","[-0.026750000193715096, 0.05299999937415123, 0.03999999910593033]","[0.0, -0.0, 0.445204067755519]","[-0.057756226509809494, 0.11798164248466492, 0.03999999910593033]","[0.0, 0.0, -0.3835378243990312]","[0.026750000193715096, 0.05299999937415123, 0.03999999910593033]","[0.0, 0.0, -0.6285089826197782]","[0.0690816342830658, 0.1112411618232727, 0.03999999910593033]","[0.0, -0.0, 0.2058082219909948]",0.44425529515941725,-0.2277018299737718,"(0.0, 0.0, 0.0, 0.0, 0.0, 0.0)",-1.3670355120421478,-0.8283399034310343,0.09647589444559079,"(0.0, 0.0, 0.0, 0.0, 0.0, 0.0)",-0.6916965293478045,-0.6292525789317023,-0.1784450789609411,"(0.0, 0.0, 0.0, 0.0, 0.0, 0.0)",1.0375336410287874,0.8340149391456387,-0.072558970406061,"(0.0, 0.0, 0.0, 0.0, 0.0, 0.0)",0.48919830080060656,True,"(-0.01940941352477333, 0.1817608601636188, 0.02399888369698743)","(0.9984927266902854, 0.054872855860569975, -0.0011155430533519657)",-0.0011140924101047981,10.534893772456021,True,"(0.0426010143894165, 0.17945545993766082, 0.02399688466763773)","(-0.9940239572680716, -0.10911769707920535, -0.003114572403051332)",9.970522985563742e-05,0.0
24,Move,"(0.0029933, 0.0, -0.0167067)","(0.0, 0.11713951807685141, 0.0)","(0.012376099204373908, 0.159526891519984, 0.048764079973841544)","(-0.005139879481875456, 0.0012191541835555528, 0.0536943055933972)","[0.01018888129299781, 0.0007566915106393124, 0.0008133757440777836]","[-0.026750000193715096, 0.05299999937415123, 0.03999999910593033]","[0.0, -0.0, 0.44370642036149777]","[-0.05765887722373009, 0.11802800744771957, 0.03999999910593033]","[0.0, 0.0, -0.3832943235912339]","[0.026750000193715096, 0.05299999937415123, 0.03999999910593033]","[0.0, 0.0, -0.6288625363554029]","[0.0691022202372551, 0.11122619360685349, 0.03999999910593033]","[0.0, -0.0, 0.20354744375695136]",0.44378927376784155,0.019876652892437972,"(0.0, 0.0, 0.0, 0.0, 0.0, 0.0)",-1.0001688869624574,-0.8267294996612202,0.06510978445930114,"(0.0, 0.0, 0.0, 0.0, 0.0, 0.0)",-0.44717847795814736,-0.6285784118043727,0.06818352342102608,"(0.0, 0.0, 0.0, 0.0, 0.0, 0.0)",1.1039569634474866,0.8320394412975899,-0.08892090094545335,"(0.0, 0.0, 0.0, 0.0, 0.0, 0.0)",0.5877564014591983,True,"(-0.019327519276057706, 0.18181518986083278, 0.02399869142318921)","(0.9985536627264275, 0.05374823039616211, -0.0013078168515732046)",-0.001001628681946267,7.347768254776006,True,"(0.042777007396656234, 0.17946279611783755, 0.03727072863217284)","(-0.9982749940141459, -0.05871146665804935, -2.986233680204631e-06)",-8.806440735399229e-07,8.549669679989956
25,Move,"(0.0003133, 0.0, -0.017)","(0.0, 0.1209966957237589, 0.0)","(0.012119176430381002, 0.15958236778759702, 0.04882223017468699)","(-0.0053617069341737236, 0.0003067049983343142, 0.05360782305334375)","[0.009931958519004904, 0.0008121677782523262, 0.0008715259449232279]","[-0.026750000193715096, 0.05299999937415123, 0.03999999910593033]","[0.0, -0.0, 0.4455993428196453]","[-0.05778190866112709, 0.11796937882900238, 0.03999999910593033]","[0.0, 0.0, -0.3801266364953331]","[0.026750000193715096, 0.05299999937415123, 0.03999999910593033]","[0.0, 0.0, -0.6259597707221026]","[0.06893302500247955, 0.11134888231754303, 0.03999999910593033]","[0.0, -0.0, 0.20433158292738826]",0.4460662511469941,0.11206710319727853,"(0.0, 0.0, 0.0, 0.0, 0.0, 0.0)",-0.7841498082655781,-0.8255178408714008,0.04994651827386128,"(0.0, 0.0, 0.0, 0.0, 0.0, 0.0)",-0.3299093550801579,-0.6253245292035204,0.15245710571646948,"(0.0, 0.0, 0.0, 0.0, 0.0, 0.0)",1.085381884212017,0.8299098354459747,-0.09156212396542739,"(0.0, 0.0, 0.0, 0.0, 0.0, 0.0)",0.6101051811833884,True,"(-0.01965261955458314, 0.1818743843785325, 0.023999482178018224)","(0.9985609401389607, 0.05362631327678336, -0.0005170620225592048)",-0.0008660597539902549,5.331072963149203,True,"(0.042554314467775314, 0.17956482455434195, 0.03727072863217284)","(-0.9982749940141459, -0.05871146665804935, -2.986233680204631e-06)",-2.0250297919699924e-05,8.719402791575542
26,Move,"(-0.0014533, 0.0, -0.0169467)","(0.0, 0.11909952282684107, 0.0)","(0.0116981374842479, 0.15960923151973525, 0.0488042010740694)","(-0.0035474224365832268, -0.0005455489828453966, 0.054263130655724835)","[0.009510919572871802, 0.0008390315103905532, 0.0008534968443056415]","[-0.026750000193715096, 0.05299999937415123, 0.03999999910593033]","[0.0, -0.0, 0.4490678398622817]","[-0.05800706893205643, 0.11786135286092758, 0.03999999910593033]","[0.0, 0.0, -0.37560438087886744]","[0.026750000193715096, 0.05299999937415123, 0.03999999910593033]","[0.0, 0.0, -0.6216341369550558]","[0.06868023425340652, 0.11153081059455872, 0.03999999910593033]","[0.0, -0.0, 0.20658965036529864]",0.4497633640205809,0.16692686220051323,"(0.0, 0.0, 0.0, 0.0, 0.0, 0.0)",-0.7843499258291582,-0.8244774517941823,0.046745523237291545,"(0.0, 0.0, 0.0, 0.0, 0.0, 0.0)",-0.311968075791316,-0.6207970353526023,0.20090599300726403,"(0.0, 0.0, 0.0, 0.0, 0.0, 0.0)",1.0601325085551905,0.8278278082418861,-0.09504245858162212,"(0.0, 0.0, 0.0, 0.0, 0.0, 0.0)",0.6190007738795948,True,"(-0.020167084259773066, 0.18193674327856643, 0.02399990415598344)","(0.9985669425766722, 0.053516839892682556, -9.50840573422461e-05)",-0.0007398425532680883,4.478932601587947,True,"(0.04214771469535747, 0.17968401186054261, 0.037448733477431384)","(-0.9985498577450905, -0.0538347543339694, -2.86890312988121e-05)",-2.8016272397068037e-05,8.103607896101236
27,Move,"(-0.0007933, 0.0, -0.015846700000000002)","(0.0, 0.15031299116950766, 0.0)","(0.011314398717177668, 0.15967081566647884, 0.048813370175572794)","(-0.003458186517153499, -0.001521174749802655, 0.05429600598923631)","[0.00912718080580157, 0.0009006156571341462, 0.0008626659458090338]","[-0.026750000193715096, 0.05299999937415123, 0.03999999910593033]","[0.0, -0.0, 0.45221959322917404]","[-0.05821134150028229, 0.11776252090930939, 0.03999999910593033]","[0.0, 0.0, -0.3712804632995834]","[0.026750000193715096, 0.05299999937415123, 0.03999999910593033]","[0.0, 0.0, -0.6173297363907898]","[0.0684279054403305, 0.11171074956655502, 0.03999999910593033]","[0.0, -0.0, 0.20862436701422876]",0.4527120753027262,0.11819955546908771,"(0.0, 0.0, 0.0, 0.0, 0.0, 0.0)",-0.8394759561155434,-0.823278575415647,0.05314838667540174,"(0.0, 0.0, 0.0, 0.0, 0.0, 0.0)",-0.34688174030750607,-0.6166001487881344,0.17510466572548014,"(0.0, 0.0, 0.0, 0.0, 0.0, 0.0)",1.1596647944425713,0.8255460154694554,-0.09794595782090226,"(0.0, 0.0, 0.0, 0.0, 0.0, 0.0)",0.6614581031481519,True,"(-0.020648765889021273, 0.1820009253906562, 0.02399990415598344)","(0.9985669425766722, 0.053516839892682556, -9.50840573422461e-05)",-0.0006346426272448397,4.611021163494239,True,"(0.04175677137392461, 0.17980982656807915, 0.037448733477431384)","(-0.9985498577450905, -0.0538347543339694, -2.86890312988121e-05)",-2.715885694996078e-05,8.798229355869736
28,Move,"(-0.00202, 0.0, -0.015353300000000002)","(0.0, 0.17852623852799598, 0.0)","(0.010822066852492738, 0.1597298089669239, 0.04880622811825043)","(-0.00273122251874002, -0.0025793313554056244, 0.05471993492718611)","[0.00863484894111664, 0.000959608957579211, 0.00085552388848667]","[-0.026750000193715096, 0.05299999937415123, 0.03999999910593033]","[0.0, -0.0, 0.4555444612712736]","[-0.058426495641469955, 0.11765755712985992, 0.03999999910593033]","[0.0, 0.0, -0.36668683581738143]","[0.026750000193715096, 0.05299999937415123, 0.03999999910593033]","[0.0, 0.0, -0.6124219302638317]","[0.06813926249742508, 0.11191459000110626, 0.03999999910593033]","[0.0, -0.0, 0.21105786546444064]",0.45618712354439295,0.15423911888400846,"(0.0, 0.0, 0.0, 0.0, 0.0, 0.0)",-0.936281329435716,-0.8219961972828085,0.056420620844584435,"(0.0, 0.0, 0.0, 0.0, 0.0, 0.0)",-0.374572611732996,-0.6114751473649219,0.22721645470486046,"(0.0, 0.0, 0.0, 0.0, 0.0, 0.0)",1.236485744524904,0.8230248167271643,-0.10918704909089086,"(0.0, 0.0, 0.0, 0.0, 0.0, 0.0)",0.7279705016045906,True,"(-0.021159401980074807, 0.18206783242508776, 0.02399990415598344)","(0.9985669425766722, 0.053516839892682556, -9.50840573422461e-05)",-0.0005732847922476517,5.005410942563917,True,"(0.041302485397252106, 0.1799485623685852, 0.037448733477431384)","(-0.9985498577450905, -0.0538347543339694, -2.86890312988121e-05)",-1.6179428811242142e-05,9.27926918050406
29,Move,"(-0.0012667, 0.0, -0.01676)","(0.0, 0.14460401918623425, 0.0)","(0.01046091742128442, 0.15978179424658334, 0.04880863442481646)","(-0.0023708766218176196, -0.003533928737043575, 0.054751149837924055)","[0.008273699509908323, 0.00101159423723865, 0.000857930195052703]","[-0.026750000193715096, 0.05299999937415123, 0.03999999910593033]","[0.0, -0.0, 0.45838804563619523]","[-0.0586102232336998, 0.11756721884012222, 0.03999999910593033]","[0.0, 0.0, -0.36268994110848995]","[0.026750000193715096, 0.05299999937415123, 0.03999999910593033]","[0.0, 0.0, -0.6082276967203321]","[0.06789179891347885, 0.1120876669883728, 0.03999999910593033]","[0.0, -0.0, 0.2130481286869589]",0.4588249519142832,0.10486510288208122,"(0.0, 0.0, 0.0, 0.0, 0.0, 0.0)",-0.7645734473226843,-0.8208766908587958,0.048294666222065824,"(0.0, 0.0, 0.0, 0.0, 0.0, 0.0)",-0.31752660784030723,-0.6075835188169187,0.15459081109355483,"(0.0, 0.0, 0.0, 0.0, 0.0, 0.0)",1.030493201513039,0.820911235160416,-0.08748254555358644,"(0.0, 0.0, 0.0, 0.0, 0.0, 0.0)",0.5855933553625435,True,"(-0.02160087046712629, 0.18212593596697052, 0.02399990415598344)","(0.9985669425766722, 0.053516839892682556, -9.50840573422461e-05)",-0.0005038659853129317,3.811998071908383,True,"(0.04091967118680977, 0.18006809421664954, 0.037448733477431384)","(-0.9985498577450905, -0.0538347543339694, -2.86890312988121e-05)",-1.0935979606055734e-05,7.6871416743267265
30,Move,"(0.0033533, 0.0, -0.0170733)","(0.0, 0.09447467241045306, 0.0)","(0.0105745506647393, 0.15980896414413864, 0.04881606593050732)","(-0.0024279646716144853, -0.00302578447864444, 0.05491567479344365)","[0.008387332753363202, 0.0010387641347939514, 0.0008653617007435624]","[-0.026750000193715096, 0.05299999937415123, 0.03999999910593033]","[0.0, -0.0, 0.45780622503140295]","[-0.05857264995574951, 0.11758574843406677, 0.03999999910593033]","[0.0, 0.0, -0.3617888634695326]","[0.026750000193715096, 0.05299999937415123, 0.03999999910593033]","[0.0, 0.0, -0.6078482373714162]","[0.06786937266588211, 0.11210327595472336, 0.03999999910593033]","[0.0, -0.0, 0.21202678595579916]",0.4574256664749567,-0.09132417628487415,"(0.0, 0.0, 0.0, 0.0, 0.0, 0.0)",-0.8891803103669733,-0.8193020905796018,0.07030907247848482,"(0.0, 0.0, 0.0, 0.0, 0.0, 0.0)",-0.45177863267615115,-0.6080749362233303,-0.054420487038735976,"(0.0, 0.0, 0.0, 0.0, 0.0, 0.0)",0.6779887609982617,0.8196810442307854,-0.04654355099909342,"(0.0, 0.0, 0.0, 0.0, 0.0, 0.0)",0.3204629664893546,True,"(-0.021621483146549603, 0.18217778309935534, 0.02399990415598344)","(0.9985669425766722, 0.053516839892682556, -9.50840573422461e-05)",-0.0004738390961668282,5.704949549615118,True,"(0.04096668958643321, 0.18011121311678285, 0.037448733477431384)","(-0.9985498577450905, -0.0538347543339694, -2.86890312988121e-05)",2.3776237202961646e-05,2.1956771805114146
31,Move,"(0.0065333, 0.0, -0.01694)","(0.0, 0.14741050862344107, 0.0)","(0.01098150473718387, 0.1597911959229141, 0.048800171483225824)","(-0.0013086008361882452, -0.002469439978086221, 0.05365987212400478)","[0.008794286825807773, 0.0010209959135694113, 0.0008494672534620634]","[-0.026750000193715096, 0.05299999937415123, 0.03999999910593033]","[0.0, -0.0, 0.45400333020987776]","[-0.05832681059837341, 0.117706298828125, 0.03999999910593033]","[0.0, 0.0, -0.3636844945354789]","[0.026750000193715096, 0.05299999937415123, 0.03999999910593033]","[0.0, 0.0, -0.6101855898488824]","[0.06800740957260132, 0.11200699955224991, 0.03999999910593033]","[0.0, -0.0, 0.20845486703150928]",0.4531747489228335,-0.1988520883013905,"(0.0, 0.0, 0.0, 0.0, 0.0, 0.0)",-1.0550273623616668,-0.8173101280755602,0.09063570734442594,"(0.0, 0.0, 0.0, 0.0, 0.0, 0.0)",-0.585161570106565,-0.610698497903606,-0.12309936348628715,"(0.0, 0.0, 0.0, 0.0, 0.0, 0.0)",0.8718941538249616,0.8183979806011694,-0.0581918199983948,"(0.0, 0.0, 0.0, 0.0, 0.0, 0.0)",0.3883912800210784,True,"(-0.021253266226541966, 0.18222817241130476, 0.02399990415598344)","(0.9985669425766722, 0.053516839892682556, -9.50840573422461e-05)",-0.000473030416282784,6.536161742592777,True,"(0.041347815732798186, 0.180110599763101, 0.037448733477431384)","(-0.9985498577450905, -0.0538347543339694, -2.86890312988121e-05)",3.0285970748800794e-05,3.4316834139482046
32,Move,"(0.006980000000000001, 0.0, -0.0164733)","(0.0, 0.18035708891333804, 0.0)","(0.011390750196088208, 0.15979515950725007, 0.04879497403535006)","(-0.0008521625348814053, -0.0018437395949997657, 0.052935003364030446)","[0.00920353228471211, 0.0010249594979053755, 0.0008442698055863007]","[-0.026750000193715096, 0.05299999937415123, 0.03999999910593033]","[0.0, -0.0, 0.4493916086657615]","[-0.05802806839346886, 0.11785123497247696, 0.03999999910593033]","[0.0, 0.0, -0.365995977855208]","[0.026750000193715096, 0.05299999937415123, 0.03999999910593033]","[0.0, 0.0, -0.6127602657331491]","[0.06815920025110245, 0.11190058290958405, 0.03999999910593033]","[0.0, -0.0, 0.2045240408154542]",0.4485745074876127,-0.1961021427968546,"(0.0, 0.0, 0.0, 0.0, 0.0, 0.0)",-1.2223882057384918,-0.8149393188773197,0.10758253627961788,"(0.0, 0.0, 0.0, 0.0, 0.0, 0.0)",-0.6793661804549886,-0.6131998329352445,-0.10549188333287747,"(0.0, 0.0, 0.0, 0.0, 0.0, 0.0)",1.0097759306824647,0.8170616442420614,-0.05344013115182591,"(0.0, 0.0, 0.0, 0.0, 0.0, 0.0)",0.4577838783940069,True,"(-0.020805482219387064, 0.1822872387053405, 0.02399990415598344)","(0.9985669425766722, 0.053516839892682556, -9.50840573422461e-05)",-0.000501845739585072,7.696454462720666,True,"(0.04176751337002413, 0.18010844689963218, 0.037448733477431384)","(-0.9985498577450905, -0.0538347543339694, -2.86890312988121e-05)",2.471047998432241e-05,5.236870156529316
33,Move,"(0.010566700000000002, 0.0, -0.020300000000000002)","(0.0, 0.1100953692158023, 0.0)","(0.012109141092770753, 0.15969888505092666, 0.048803477661889534)","(-2.327917965715166e-05, -0.0015415829997068046, 0.04880640082800957)","[0.009921923181394655, 0.0009286850415819725, 0.0008527734321257738]","[-0.026750000193715096, 0.05299999937415123, 0.03999999910593033]","[0.0, -0.0, 0.44284060038987916]","[-0.05760256573557854, 0.11805474013090134, 0.03999999910593033]","[0.0, 0.0, -0.37053236346246143]","[0.026750000193715096, 0.05299999937415123, 0.03999999910593033]","[0.0, 0.0, -0.6177083986879096]","[0.06845013797283173, 0.11169496178627014, 0.03999999910593033]","[0.0, -0.0, 0.19850554892972905]",0.4414960252983875,-0.32271238072853975,"(0.0, 0.0, 0.0, 0.0, 0.0, 0.0)",-0.9295799638192171,-0.8130573929956678,0.07574734231729197,"(0.0, 0.0, 0.0, 0.0, 0.0, 0.0)",-0.5204675390409077,-0.6188150541085476,-0.26560089051493885,"(0.0, 0.0, 0.0, 0.0, 0.0, 0.0)",0.8099959376073703,0.8160327257891771,-0.04348857593575535,"(0.0, 0.0, 0.0, 0.0, 0.0, 0.0)",0.35578368212460804,True,"(-0.0200880562347351, 0.1823212287072207, 0.02399990415598344)","(0.9985669425766722, 0.053516839892682556, -9.50840573422461e-05)",-0.0005001137466758256,6.2213414262899915,True,"(0.042469434662802334, 0.18006043146639011, 0.037448733477431384)","(-0.9985498577450905, -0.0538347543339694, -2.86890312988121e-05)",1.7305362547268297e-05,3.920767176384736
34,Move,"(0.007586700000000001, 0.0, -0.02264)","(0.0, 0.09527054254936247, 0.0)","(0.012569249861127944, 0.15967259564750927, 0.04883985672195582)","(-0.0006043480285461642, -0.001194799811854718, 0.04667437557539719)","[0.010382031949751847, 0.000902395638164577, 0.0008891524921920621]","[-0.026750000193715096, 0.05299999937415123, 0.03999999910593033]","[0.0, -0.0, 0.4377201464376966]","[-0.05726904422044754, 0.11821187287569046, 0.03999999910593033]","[0.0, 0.0, -0.3740454055127369]","[0.026750000193715096, 0.05299999937415123, 0.03999999910593033]","[0.0, 0.0, -0.6216612976700566]","[0.06868182122707367, 0.11152967065572739, 0.03999999910593033]","[0.0, -0.0, 0.19356419833382232]",0.43702994270563533,-0.1656315964399532,"(0.0, 0.0, 0.0, 0.0, 0.0, 0.0)",-0.8337940972026194,-0.8114860402442448,0.06706470572894227,"(0.0, 0.0, 0.0, 0.0, 0.0, 0.0)",-0.4537506572750321,-0.6221522894704915,-0.11786172172466412,"(0.0, 0.0, 0.0, 0.0, 0.0, 0.0)",0.6700945478817678,0.8150317510748305,-0.046468146875046794,"(0.0, 0.0, 0.0, 0.0, 0.0, 0.0)",0.301073128673244,True,"(-0.019528995044231313, 0.1823461714921964, 0.02399990415598344)","(0.9985669425766722, 0.053516839892682556, -9.50840573422461e-05)",-0.00047864401654834475,5.572607457047194,True,"(0.043039253858906903, 0.18002268563815937, 0.037448733477431384)","(-0.9985498577450905, -0.0538347543339694, -2.86890312988121e-05)",1.5078983569659255e-05,3.317434486138787
35,Move,"(0.0039933, 0.0, -0.0186333)","(0.0, 0.1737370550605236, 0.0)","(0.012590667320103091, 0.1597254627616723, 0.04885684825699734)","(-0.0014387413719702464, -0.0019061935179051947, 0.046410716234595084)","[0.010403449408726994, 0.0009552627523276014, 0.0009061440272335811]","[-0.026750000193715096, 0.05299999937415123, 0.03999999910593033]","[0.0, -0.0, 0.43617093742004687]","[-0.057167984545230865, 0.11825907230377197, 0.03999999910593033]","[0.0, 0.0, -0.37414112411025696]","[0.026750000193715096, 0.05299999937415123, 0.03999999910593033]","[0.0, 0.0, -0.6215933816153666]","[0.06867785006761551, 0.11153251677751541, 0.03999999910593033]","[0.0, -0.0, 0.19205946573898558]",0.43610770401302257,-0.015179000588675893,"(0.0, 0.0, 0.0, 0.0, 0.0, 0.0)",-0.8794073455260366,-0.8100618526460596,0.06005383477890633,"(0.0, 0.0, 0.0, 0.0, 0.0, 0.0)",-0.41748104611727815,-0.621324391473924,0.06456459636871612,"(0.0, 0.0, 0.0, 0.0, 0.0, 0.0)",1.0575360671121423,0.8133087910715008,-0.08257968689432549,"(0.0, 0.0, 0.0, 0.0, 0.0, 0.0)",0.5397959010221562,True,"(-0.019421798078731747, 0.18238975806512478, 0.02399990415598344)","(0.9985669425766722, 0.053516839892682556, -9.50840573422461e-05)",-0.0004586911563827603,4.975894360048078,True,"(0.043138377034077385, 0.18006403498324625, 0.037448733477431384)","(-0.9985498577450905, -0.0538347543339694, -2.86890312988121e-05)",-4.38372459281281e-06,7.665622657230496
36,Move,"(0.0071867, 0.0, -0.0165733)","(0.0, 0.08063421144213805, 0.0)","(0.012892026042041574, 0.15972119871608362, 0.04887589484963994)","(-0.0017668293318752193, -0.0017591884780045364, 0.04523180811707181)","[0.010704808130665476, 0.0009509987067389258, 0.0009251906198761775]","[-0.026750000193715096, 0.05299999937415123, 0.03999999910593033]","[0.0, -0.0, 0.43364962176643324]","[-0.05700334906578064, 0.1183355525135994, 0.03999999910593033]","[0.0, 0.0, -0.3751932095979241]","[0.026750000193715096, 0.05299999937415123, 0.03999999910593033]","[0.0, 0.0, -0.6229329928661909]","[0.06875622272491455, 0.11147629469633102, 0.03999999910593033]","[0.0, -0.0, 0.18942322211106485]",0.4330033738828399,-0.15510355047981292,"(0.0, 0.0, 0.0, 0.0, 0.0, 0.0)",-0.8003256115986004,-0.8085744989143513,0.06440362667215208,"(0.0, 0.0, 0.0, 0.0, 0.0, 0.0)",-0.43659049590730536,-0.6234308423352201,-0.1194834096400463,"(0.0, 0.0, 0.0, 0.0, 0.0, 0.0)",0.6393317691887482,0.8121927725584177,-0.03922504023817294,"(0.0, 0.0, 0.0, 0.0, 0.0, 0.0)",0.2837199916808485,True,"(-0.019189713334721956, 0.18242649621012252, 0.02399990415598344)","(0.9985669425766722, 0.053516839892682556, -9.50840573422461e-05)",-0.00044243417480864235,5.24582091311868,True,"(0.04339750317649872, 0.18007490674157162, 0.037448733477431384)","(-0.9985498577450905, -0.0538347543339694, -2.86890312988121e-05)",1.2911449634440665e-05,2.8552028004032985
37,Move,"(0.0127333, 0.0, -0.015273300000000002)","(0.0, 0.03048043005682897, 0.0)","(0.013714209301716969, 0.15957171434371709, 0.04890080271657004)","(-0.0016173708272119315, -0.0015366758007692141, 0.03962317118203177)","[0.011526991390340871, 0.0008015143343723941, 0.0009500984868062792]","[-0.026750000193715096, 0.05299999937415123, 0.03999999910593033]","[0.0, -0.0, 0.42668234784240233]","[-0.05654740706086159, 0.11854474991559982, 0.03999999910593033]","[0.0, 0.0, -0.3806471448739956]","[0.026750000193715096, 0.05299999937415123, 0.03999999910593033]","[0.0, 0.0, -0.6288201635300852]","[0.06909975409507751, 0.11122798174619675, 0.03999999910593033]","[0.0, -0.0, 0.18253134965059165]",0.42513877742945394,-0.37045941148425443,"(0.0, 0.0, 0.0, 0.0, 0.0, 0.0)",-0.758930655714238,-0.8070498381342877,0.06711255414082384,"(0.0, 0.0, 0.0, 0.0, 0.0, 0.0)",-0.4395504134637007,-0.6301496232806798,-0.31905356340872987,"(0.0, 0.0, 0.0, 0.0, 0.0, 0.0)",0.7023482723104932,0.8111589348692444,-0.04623731075972403,"(0.0, 0.0, 0.0, 0.0, 0.0, 0.0)",0.30256816574185846,True,"(-0.018384789693702747, 0.18242850807025324, 0.02399990415598344)","(0.9985669425766722, 0.053516839892682556, -9.50840573422461e-05)",-0.0004174142654008513,5.0954961554739295,True,"(0.04421440755606784, 0.1799997323256852, 0.037448733477431384)","(-0.9985498577450905, -0.0538347543339694, -2.86890312988121e-05)",2.2078269331173213e-05,2.2234596698816613
38,Move,"(0.012220000000000002, 0.0, -0.012400000000000001)","(0.0, 0.05569869241889504, 0.0)","(0.014447272331775179, 0.15944959105070533, 0.04886347570773874)","(0.0011002550725183215, -0.0015120757031909155, 0.03436123398984116)","[0.012260054420399081, 0.0006793910413606385, 0.0009127714779749788]","[-0.026750000193715096, 0.05299999937415123, 0.03999999910593033]","[0.0, -0.0, 0.41914721508481106]","[-0.05605267733335495, 0.11876741796731949, 0.03999999910593033]","[0.0, 0.0, -0.38664674756328477]","[0.026750000193715096, 0.05299999937415123, 0.03999999910593033]","[0.0, 0.0, -0.6350868041980493]","[0.069463811814785, 0.11096145212650299, 0.03999999910593033]","[0.0, -0.0, 0.17515355903228497]",0.41790950294978163,-0.29705438068010454,"(0.0, 0.0, 0.0, 0.0, 0.0, 0.0)",-0.7924363028829837,-0.8055146236331152,0.06704302080234209,"(0.0, 0.0, 0.0, 0.0, 0.0, 0.0)",-0.443154602709338,-0.6360924130769785,-0.24134565660837282,"(0.0, 0.0, 0.0, 0.0, 0.0, 0.0)",0.7161129466399682,0.8100420235150284,-0.047594636784981964,"(0.0, 0.0, 0.0, 0.0, 0.0, 0.0)",0.31767137057496714,True,"(-0.01750747089115412, 0.18242106273725062, 0.02399990415598344)","(0.9985669425766722, 0.053516839892682556, -9.50840573422461e-05)",-0.0003943192968510805,5.281444634858451,True,"(0.04508652237951501, 0.17991492940950338, 0.037448733477431384)","(-0.9985498577450905, -0.0538347543339694, -2.86890312988121e-05)",2.6808794856115312e-05,1.791440145763303
39,Move,"(0.008960000000000001, 0.0, -0.011859999999999999)","(0.0, 0.07634070148223197, 0.0)","(0.014824764587045952, 0.15942231208611063, 0.04888560452962293)","(0.0007292969517980771, -0.0012237483446865534, 0.03232470953675746)","[0.012637546675669855, 0.0006521120767659372, 0.0009349002998591677]","[-0.026750000193715096, 0.05299999937415123, 0.03999999910593033]","[0.0, -0.0, 0.4146499727080603]","[-0.05575660988688469, 0.11889853328466415, 0.03999999910593033]","[0.0, 0.0, -0.38971938489664204]","[0.026750000193715096, 0.05299999937415123, 0.03999999910593033]","[0.0, 0.0, -0.6384174549200672]","[0.0696566253900528, 0.11081887036561966, 0.03999999910593033]","[0.0, -0.0, 0.17081575635138463]",0.41407267916557694,-0.13854991621480142,"(0.0, 0.0, 0.0, 0.0, 0.0, 0.0)",-0.7340875460431975,-0.8041228840081569,0.05914851767236487,"(0.0, 0.0, 0.0, 0.0, 0.0, 0.0)",-0.39992641525494743,-0.6387993454180546,-0.09166035681874896,"(0.0, 0.0, 0.0, 0.0, 0.0, 0.0)",0.6126569060145661,0.8090581268359042,-0.04201169647337669,"(0.0, 0.0, 0.0, 0.0, 0.0, 0.0)",0.2794459534620822,True,"(-0.017016000885464594, 0.1824334436610457, 0.02399990415598344)","(0.9985669425766722, 0.053516839892682556, -9.50840573422461e-05)",-0.0003854215777182474,4.821999896322513,True,"(0.0455786661656878, 0.17987743892948288, 0.037448733477431384)","(-0.9985498577450905, -0.0538347543339694, -2.86890312988121e-05)",3.0593481869106964e-05,1.0281443347327217
40,Move,"(0.00556, 0.0, -0.0136667)","(0.0, 0.061377993804884595, 0.0)","(0.014868163820486256, 0.15944661186732237, 0.048893821008344565)","(0.0002558271940174288, -0.0012781603985845774, 0.03226559893832854)","[0.012680945909110158, 0.0006764118579776768, 0.0009431167785808048]","[-0.026750000193715096, 0.05299999937415123, 0.03999999910593033]","[0.0, -0.0, 0.4135676380736308]","[-0.055685266852378845, 0.1189298927783966, 0.03999999910593033]","[0.0, 0.0, -0.3898210248709745]","[0.026750000193715096, 0.05299999937415123, 0.03999999910593033]","[0.0, 0.0, -0.6387066880837461]","[0.06967335194349289, 0.11080645769834518, 0.03999999910593033]","[0.0, -0.0, 0.16960322225666838]",0.41357171387418573,0.0009897357434145825,"(0.0, 0.0, 0.0, 0.0, 0.0, 0.0)",-0.48371266854092226,-0.8032460248928063,0.034214475580229275,"(0.0, 0.0, 0.0, 0.0, 0.0, 0.0)",-0.22649195457010873,-0.6385896132283052,0.028109023029819345,"(0.0, 0.0, 0.0, 0.0, 0.0, 0.0)",0.5221385554122866,0.80814207112401,-0.04028846187641735,"(0.0, 0.0, 0.0, 0.0, 0.0, 0.0)",0.2694038767705664,True,"(-0.016938199796836424, 0.18246086372408252, 0.02399990415598344)","(0.9985669425766722, 0.053516839892682556, -9.50840573422461e-05)",-0.0003544159278575934,2.8744414543091703,True,"(0.0456791459145853, 0.17989416810597375, 0.037448733477431384)","(-0.9985498577450905, -0.0538347543339694, -2.86890312988121e-05)",2.3080355298425374e-05,0.9428948483556533
41,Move,"(0.0069667, 0.0, -0.020120000000000002)","(0.0, 0.05560618996853933, 0.0)","(0.014991791898665157, 0.15946456928344308, 0.04890253081607358)","(-8.336034787528893e-05, -0.0010596238540721609, 0.03222849608950538)","[0.01280457398728906, 0.0006943692740983831, 0.000951826586309823]","[-0.026750000193715096, 0.05299999937415123, 0.03999999910593033]","[0.0, -0.0, 0.41254015531933463]","[-0.05561751127243042, 0.11895958334207535, 0.03999999910593033]","[0.0, 0.0, -0.38982643703272785]","[0.026750000193715096, 0.05299999937415123, 0.03999999910593033]","[0.0, 0.0, -0.6390115843128346]","[0.06969096511602402, 0.11079336702823639, 0.03999999910593033]","[0.0, -0.0, 0.16847773334738328]",0.4122614764448315,-0.06687829266600792,"(0.0, 0.0, 0.0, 0.0, 0.0, 0.0)",-0.5930287788314208,-0.8021666113313843,0.048009484620917114,"(0.0, 0.0, 0.0, 0.0, 0.0, 0.0)",-0.3096039560456054,-0.6391533364407745,-0.03402664344435941,"(0.0, 0.0, 0.0, 0.0, 0.0, 0.0)",0.47812553615275816,0.8073497383293339,-0.03349110605869564,"(0.0, 0.0, 0.0, 0.0, 0.0, 0.0)",0.22698552325539487,True,"(-0.016870093941964287, 0.1824903447031718, 0.02399990415598344)","(0.9985669425766722, 0.053516839892682556, -9.50840573422461e-05)",-0.00033200968753117823,3.952621472458218,True,"(0.04577453675031096, 0.17990804255365717, 0.037448733477431384)","(-0.9985498577450905, -0.0538347543339694, -2.86890312988121e-05)",2.5452832048571612e-05,0.424170461073857
42,Move,"(0.0088733, 0.0, -0.023813300000000003)","(0.0, 0.04988151002199794, 0.0)","(0.015285075712443691, 0.1594411148141141, 0.04891516994431353)","(-0.0003197760800674778, -0.0008721214458971459, 0.030933381762039778)","[0.013097857801067593, 0.0006709148047694125, 0.0009644657145497712]","[-0.026750000193715096, 0.05299999937415123, 0.03999999910593033]","[0.0, -0.0, 0.40990138051692926]","[-0.05544336140155792, 0.11903552711009979, 0.03999999910593033]","[0.0, 0.0, -0.3913161709497435]","[0.026750000193715096, 0.05299999937415123, 0.03999999910593033]","[0.0, 0.0, -0.6407809469787701]","[0.06979315727949142, 0.1107172966003418, 0.03999999910593033]","[0.0, -0.0, 0.16591172645249228]",0.40933403878519925,-0.13616436608156007,"(0.0, 0.0, 0.0, 0.0, 0.0, 0.0)",-0.615420332261402,-0.8010010279098394,0.05196147499487765,"(0.0, 0.0, 0.0, 0.0, 0.0, 0.0)",-0.34199188689414733,-0.6411845545346788,-0.0968748945230267,"(0.0, 0.0, 0.0, 0.0, 0.0, 0.0)",0.5171837683130767,0.8065433211970969,-0.03583227114113306,"(0.0, 0.0, 0.0, 0.0, 0.0, 0.0)",0.2335318492762725,True,"(-0.01660134884191422, 0.18250849925954238, 0.02399990415598344)","(0.9985669425766722, 0.053516839892682556, -9.50840573422461e-05)",-0.0003185272059729595,4.046171490744832,True,"(0.04605415387269173, 0.17989311676884323, 0.037448733477431384)","(-0.9985498577450905, -0.0538347543339694, -2.86890312988121e-05)",2.5649381012385482e-05,0.6370262346280301
43,Move,"(0.0094867, 0.0, -0.0264933)","(0.0, 0.026261969254758672, 0.0)","(0.01563774684583346, 0.1593985797828352, 0.04892621705074603)","(-0.0004933860211233035, -0.0007269043790690473, 0.0291462146734664)","[0.013450528934457362, 0.0006283797734905061, 0.000975512820982273]","[-0.026750000193715096, 0.05299999937415123, 0.03999999910593033]","[0.0, -0.0, 0.4064854108043333]","[-0.05521761626005173, 0.11913315951824188, 0.03999999910593033]","[0.0, 0.0, -0.39357070783339115]","[0.026750000193715096, 0.05299999937415123, 0.03999999910593033]","[0.0, 0.0, -0.6432889673182397]","[0.06993778049945831, 0.11060916632413864, 0.03999999910593033]","[0.0, -0.0, 0.16260251578648155]",0.4058565027238748,-0.15093748736175752,"(0.0, 0.0, 0.0, 0.0, 0.0, 0.0)",-0.5894112215189033,-0.7998483556513293,0.04986014979689469,"(0.0, 0.0, 0.0, 0.0, 0.0, 0.0)",-0.3309813376178937,-0.6437572963950199,-0.11240943386475713,"(0.0, 0.0, 0.0, 0.0, 0.0, 0.0)",0.5056240856324697,0.8057466093999864,-0.03475610190537219,"(0.0, 0.0, 0.0, 0.0, 0.0, 0.0)",0.22768815068097523,True,"(-0.01623260135649962, 0.18251839713199788, 0.02399990415598344)","(0.9985669425766722, 0.053516839892682556, -9.50840573422461e-05)",-0.00030517765942727473,3.894162395584907,True,"(0.04642782107878654, 0.17986316093671895, 0.037448733477431384)","(-0.9985498577450905, -0.0538347543339694, -2.86890312988121e-05)",2.528445002041265e-05,0.5405822089944949
44,Move,"(0.009086700000000001, 0.0, -0.0282267)","(0.0, 0.01647590813882647, 0.0)","(0.01593924170463216, 0.15936686462979424, 0.04893283066842274)","(-0.0005984727355640475, -0.0005639759370129385, 0.027790484901144167)","[0.013752023793256064, 0.0005966646204495496, 0.000982126438658977]","[-0.026750000193715096, 0.05299999937415123, 0.03999999910593033]","[0.0, -0.0, 0.4033855267116055]","[-0.055012475699186325, 0.11922109127044678, 0.03999999910593033]","[0.0, 0.0, -0.3955629320307883]","[0.026750000193715096, 0.05299999937415123, 0.03999999910593033]","[0.0, 0.0, -0.6455204962271823]","[0.07006622850894928, 0.1105126440525055, 0.03999999910593033]","[0.0, -0.0, 0.1596050560883469]",0.40287309326118914,-0.12298104325858042,"(0.0, 0.0, 0.0, 0.0, 0.0, 0.0)",-0.5641375980180734,-0.7987507878035668,0.04744107260618129,"(0.0, 0.0, 0.0, 0.0, 0.0, 0.0)",-0.315222746229562,-0.64588142781349,-0.08662656844821688,"(0.0, 0.0, 0.0, 0.0, 0.0, 0.0)",0.4795312350283753,0.8049881614869638,-0.032973615642999214,"(0.0, 0.0, 0.0, 0.0, 0.0, 0.0)",0.21734872789200016,True,"(-0.015901257461271488, 0.18252853232540414, 0.02399990415598344)","(0.9985669425766722, 0.053516839892682556, -9.50840573422461e-05)",-0.00029295575770131685,3.7194489031559397,True,"(0.04676396139898972, 0.17983679980569642, 0.037448733477431384)","(-0.9985498577450905, -0.0538347543339694, -2.86890312988121e-05)",2.428719930706417e-05,0.45348077040430074
45,Move,"(0.0101533, 0.0, -0.0282067)","(0.0, 0.025106561289938427, 0.0)","(0.01628733628869143, 0.15931865305479512, 0.04893775160491508)","(-0.0006359006623362915, -0.000413516748055091, 0.025999130407274716)","[0.014100118377315334, 0.0005484530454504255, 0.0009870473751513176]","[-0.026750000193715096, 0.05299999937415123, 0.03999999910593033]","[0.0, -0.0, 0.40000658242855314]","[-0.054788559675216675, 0.1193162053823471, 0.03999999910593033]","[0.0, 0.0, -0.3978029324166802]","[0.026750000193715096, 0.05299999937415123, 0.03999999910593033]","[0.0, 0.0, -0.64795237053819]","[0.07020595669746399, 0.11040713638067245, 0.03999999910593033]","[0.0, -0.0, 0.15637619611723527]",0.399359544538871,-0.15529383125784427,"(0.0, 0.0, 0.0, 0.0, 0.0, 0.0)",-0.5891672204377648,-0.7975990853192008,0.050516279358826424,"(0.0, 0.0, 0.0, 0.0, 0.0, 0.0)",-0.3329583731224213,-0.6484219387506693,-0.11272086000758078,"(0.0, 0.0, 0.0, 0.0, 0.0, 0.0)",0.5164584448503299,0.8041791830519635,-0.03582895346360761,"(0.0, 0.0, 0.0, 0.0, 0.0, 0.0)",0.23421174563972852,True,"(-0.015535629426544378, 0.18253588175608498, 0.02399990415598344)","(0.9985669425766722, 0.053516839892682556, -9.50840573422461e-05)",-0.00028743784767269894,3.90402914183922,True,"(0.047127651036602866, 0.17980617250715508, 0.037448733477431384)","(-0.9985498577450905, -0.0538347543339694, -2.86890312988121e-05)",2.503723479883028e-05,0.5704269966835529
46,Move,"(0.0096933, 0.0, -0.025833300000000003)","(0.0, 0.024918065730723048, 0.0)","(0.016576657675237288, 0.15928675480327187, 0.048940146998463906)","(-0.0006288776346424957, -0.0002602510925665911, 0.024722927437986292)","[0.01438943976386119, 0.0005165547939271764, 0.0009894427687001453]","[-0.026750000193715096, 0.05299999937415123, 0.03999999910593033]","[0.0, -0.0, 0.39690794191974765]","[-0.054582931101322174, 0.11940277367830276, 0.03999999910593033]","[0.0, 0.0, -0.3997709748546225]","[0.026750000193715096, 0.05299999937415123, 0.03999999910593033]","[0.0, 0.0, -0.6500931885279053]","[0.07032876461744308, 0.11031397432088852, 0.03999999910593033]","[0.0, -0.0, 0.15343963650536252]",0.39640506060908326,-0.12067941510537962,"(0.0, 0.0, 0.0, 0.0, 0.0, 0.0)",-0.5737392845976086,-0.7964766034308871,0.04854840647596371,"(0.0, 0.0, 0.0, 0.0, 0.0, 0.0)",-0.32132730557968053,-0.650429079022286,-0.08061794177094789,"(0.0, 0.0, 0.0, 0.0, 0.0, 0.0)",0.4972198769411708,0.8033898052344428,-0.03431589963837609,"(0.0, 0.0, 0.0, 0.0, 0.0, 0.0)",0.22737870354355874,True,"(-0.015205658328833721, 0.18254507331900066, 0.02399990415598344)","(0.9985669425766722, 0.053516839892682556, -9.50840573422461e-05)",-0.00028435026159589257,3.771693948911537,True,"(0.047454349787098005, 0.17978047812263998, 0.037448733477431384)","(-0.9985498577450905, -0.0538347543339694, -2.86890312988121e-05)",2.5217034529701018e-05,0.4368470236014505
47,Move,"(0.00768, 0.0, -0.02208)","(0.0, 0.02792701336116127, 0.0)","(0.016660852774019103, 0.1592777280003528, 0.048921955681935185)","(0.0003149759653397305, -0.0002367380033915441, 0.024602178719920664)","[0.014473634862643005, 0.0005075279910081165, 0.0009712514521714247]","[-0.026750000193715096, 0.05299999937415123, 0.03999999910593033]","[0.0, -0.0, 0.39552214760795334]","[-0.05449088662862778, 0.11944127827882767, 0.03999999910593033]","[0.0, 0.0, -0.4002684261566626]","[0.026750000193715096, 0.05299999937415123, 0.03999999910593033]","[0.0, 0.0, -0.6506987989712453]","[0.07036346197128296, 0.11028756946325302, 0.03999999910593033]","[0.0, -0.0, 0.15211307423996737]",0.39540620489519124,-0.02782825977550468,"(0.0, 0.0, 0.0, 0.0, 0.0, 0.0)",-0.4346775865258224,-0.7956699867341498,0.028948333688480307,"(0.0, 0.0, 0.0, 0.0, 0.0, 0.0)",-0.20547654273130297,-0.6506903552635601,0.0020228486441970436,"(0.0, 0.0, 0.0, 0.0, 0.0, 0.0)",0.42389128477378635,0.8026703109935768,-0.03397281615334713,"(0.0, 0.0, 0.0, 0.0, 0.0, 0.0)",0.2189601931456412,True,"(-0.015082209573433467, 0.1825639825219228, 0.02399990415598344)","(0.9985669425766722, 0.053516839892682556, -9.50840573422461e-05)",-0.000279679932947999,2.845234787155937,True,"(0.04758122183473747, 0.17978435837091036, 0.037448733477431384)","(-0.9985498577450905, -0.0538347543339694, -2.86890312988121e-05)",2.326297253700882e-05,0.16917737477883968
48,Move,"(0.0096467, 0.0, -0.023739999999999997)","(0.0, 0.055337409263732214, 0.0)","(0.016855679680898822, 0.15927166160432016, 0.048928289034376175)","(0.0001441363911199729, -6.583195964578128e-05, 0.023829643988829242)","[0.014668461769522724, 0.0005014615949754664, 0.000977584804612415]","[-0.026750000193715096, 0.05299999937415123, 0.03999999910593033]","[0.0, -0.0, 0.39365175652177137]","[-0.054366566240787506, 0.1194930449128151, 0.03999999910593033]","[0.0, 0.0, -0.4011263822667906]","[0.026750000193715096, 0.05299999937415123, 0.03999999910593033]","[0.0, 0.0, -0.6516435752767171]","[0.07041756808757782, 0.11024633795022964, 0.03999999910593033]","[0.0, -0.0, 0.15037321600676745]",0.3932075294981659,-0.10661463522764776,"(0.0, 0.0, 0.0, 0.0, 0.0, 0.0)",-0.594699837965504,-0.7945647921808758,0.05119603225817901,"(0.0, 0.0, 0.0, 0.0, 0.0, 0.0)",-0.3288649964457742,-0.6519024190189417,-0.062114862612754576,"(0.0, 0.0, 0.0, 0.0, 0.0, 0.0)",0.5130540744647915,0.801866159322394,-0.03615530054003041,"(0.0, 0.0, 0.0, 0.0, 0.0, 0.0)",0.2363946929356746,True,"(-0.014903750784178438, 0.18258192074618482, 0.02399990415598344)","(0.9985669425766722, 0.053516839892682556, -9.50840573422461e-05)",-0.00028230515913332474,3.926149258357356,True,"(0.04775627957260958, 0.17978265897672085, 0.037448733477431384)","(-0.9985498577450905, -0.0538347543339694, -2.86890312988121e-05)",2.6158389313383085e-05,0.48416478517400047
49,Move,"(0.0104467, 0.0, -0.025706700000000002)","(0.0, 0.0207153128919207, 0.0)","(0.01714243092290851, 0.15925755311931908, 0.04894082125851917)","(-0.00017266168366011399, 7.538669168632941e-05, 0.022563574964414863)","[0.014955213011532412, 0.00048735310997438663, 0.0009901170287554065]","[-0.026750000193715096, 0.05299999937415123, 0.03999999910593033]","[0.0, -0.0, 0.39071958208064883]","[-0.05417148023843765, 0.11957373470067978, 0.03999999910593033]","[0.0, 0.0, -0.4028723093592059]","[0.026750000193715096, 0.05299999937415123, 0.03999999910593033]","[0.0, 0.0, -0.6535660635926832]","[0.07052753865718842, 0.11016228795051575, 0.03999999910593033]","[0.0, -0.0, 0.14762279209595072]",0.39015712183786505,-0.1349952067853079,"(0.0, 0.0, 0.0, 0.0, 0.0, 0.0)",-0.623237945725579,-0.7933868383815174,0.04922118850788098,"(0.0, 0.0, 0.0, 0.0, 0.0, 0.0)",-0.3475887922859385,-0.6539501765911684,-0.09220066019895794,"(0.0, 0.0, 0.0, 0.0, 0.0, 0.0)",0.513921199654594,0.8010419292253693,-0.03524813343945045,"(0.0, 0.0, 0.0, 0.0, 0.0, 0.0)",0.23124198718166716,True,"(-0.014598573145525803, 0.182593613717783, 0.02399990415598344)","(0.9985669425766722, 0.053516839892682556, -9.50840573422461e-05)",-0.0002900091723023077,4.083655901492427,True,"(0.04805782524838273, 0.17973452743676457, 0.03802008063171763)","(-0.9997264265535175, -0.023389568339064987, -1.1976913178299513e-05)",-7.744490168235498e-06,3.9548027241539137
50,Move,"(0.011513299999999999, 0.0, -0.0274133)","(0.0, 0.01846383815684801, 0.0)","(0.017505367738608512, 0.15919118865650947, 0.04895164494596592)","(-0.00043488285796751804, 0.00014080917918105372, 0.020571889094405122)","[0.015318149827232414, 0.00042098864716477724, 0.0010009407162021589]","[-0.026750000193715096, 0.05299999937415123, 0.03999999910593033]","[0.0, -0.0, 0.3870698612778841]","[-0.05392831936478615, 0.11967337131500244, 0.03999999910593033]","[0.0, 0.0, -0.40531312458972096]","[0.026750000193715096, 0.05299999937415123, 0.03999999910593033]","[0.0, 0.0, -0.6561327427155572]","[0.0706741139292717, 0.11004973202943802, 0.03999999910593033]","[0.0, -0.0, 0.14420300681888662]",0.3863756068826698,-0.16662110730338248,"(0.0, 0.0, 0.0, 0.0, 0.0, 0.0)",-0.6635208957501384,-0.7921574447274949,0.05412017086661633,"(0.0, 0.0, 0.0, 0.0, 0.0, 0.0)",-0.3756542654214126,-0.6566268017769502,-0.11858831795481198,"(0.0, 0.0, 0.0, 0.0, 0.0, 0.0)",0.5648705925219581,0.8001749952396072,-0.03856182301123846,"(0.0, 0.0, 0.0, 0.0, 0.0, 0.0)",0.25272512463404556,True,"(-0.014201568089177309, 0.18259031656388805, 0.023999871303807502)","(0.9997813757228032, 0.020908954783517595, -0.00012793623328133952)",-0.00029647407689917075,4.374987155908094,True,"(0.04844245231742787, 0.17969841152015786, 0.03802008063171763)","(-0.9997264265535175, -0.023389568339064987, -1.1976913178299513e-05)",-9.222688942865026e-06,4.355477865988583
51,Move,"(0.010773300000000001, 0.0, -0.0290667)","(0.0, 0.01414938424591803, 0.0)","(0.017790360150021393, 0.15915051816942719, 0.04896002767019847)","(-0.0006612911065011642, 0.0002085471067590114, 0.019346139038267488)","[0.015603142238645295, 0.0003803181600824934, 0.001009323440434709]","[-0.026750000193715096, 0.05299999937415123, 0.03999999910593033]","[0.0, -0.0, 0.3838723811969148]","[-0.053714994341135025, 0.1197599396109581, 0.03999999910593033]","[0.0, 0.0, -0.40729449340245955]","[0.026750000193715096, 0.05299999937415123, 0.03999999910593033]","[0.0, 0.0, -0.6582637826136679]","[0.07079558819532394, 0.10995600372552872, 0.03999999910593033]","[0.0, -0.0, 0.14121123584065418]",0.38336696867641873,-0.12129113612902745,"(0.0, 0.0, 0.0, 0.0, 0.0, 0.0)",-0.6486081774462206,-0.7909497765827915,0.05209519074652378,"(0.0, 0.0, 0.0, 0.0, 0.0, 0.0)",-0.36348343720308013,-0.6585843900735687,-0.07695744891129504,"(0.0, 0.0, 0.0, 0.0, 0.0, 0.0)",0.539275335867451,0.79932062885355,-0.037038240441441245,"(0.0, 0.0, 0.0, 0.0, 0.0, 0.0)",0.2431339035018734,True,"(-0.013863665475226258, 0.18259861134231273, 0.0239998053578979)","(0.9998098574636431, 0.019499008391300022, -0.00019388214288181536)",-0.00029957998566502054,4.2782278958856885,True,"(0.04877239998799258, 0.17967087765923895, 0.03802008063171763)","(-0.9997264265535175, -0.023389568339064987, -1.1976913178299513e-05)",-9.438097738209726e-06,4.226170700039553
52,Move,"(0.0101667, 0.0, -0.0304333)","(0.0, 0.003399901382884954, 0.0)","(0.018003371126583432, 0.15913726050826155, 0.04896426110114891)","(-0.0007487796355162748, 0.000254174331326381, 0.018794356043118278)","[0.015816153215207334, 0.00036706049891685466, 0.0010135568713851503]","[-0.026750000193715096, 0.05299999937415123, 0.03999999910593033]","[0.0, -0.0, 0.38147987284241164]","[-0.0535551942884922, 0.11982426047325134, 0.03999999910593033]","[0.0, 0.0, -0.40851387213344875]","[0.026750000193715096, 0.05299999937415123, 0.03999999910593033]","[0.0, 0.0, -0.6596627894429106]","[0.07087523490190506, 0.10989432036876678, 0.03999999910593033]","[0.0, -0.0, 0.13897678165629102]",0.3810941397824425,-0.09257680101770592,"(0.0, 0.0, 0.0, 0.0, 0.0, 0.0)",-0.6090779384539511,-0.7897853033333263,0.050026339309221186,"(0.0, 0.0, 0.0, 0.0, 0.0, 0.0)",-0.3382904974557127,-0.6598756138872635,-0.05106712042363446,"(0.0, 0.0, 0.0, 0.0, 0.0, 0.0)",0.5281045828571966,0.7984850552640068,-0.03709486592677263,"(0.0, 0.0, 0.0, 0.0, 0.0, 0.0)",0.23975227373254135,True,"(-0.013627283604021309, 0.18261487903449444, 0.02399973930065408)","(0.9998219830071227, 0.018866232459612973, -0.00025993938670035554)",-0.00029839576625461756,3.984227042148101,True,"(0.04900787240986855, 0.17965823311528634, 0.03802008063171763)","(-0.9997264265535175, -0.023389568339064987, -1.1976913178299513e-05)",-1.0169938883168352e-05,4.179587059215487
53,Move,"(0.01226, 0.0, -0.03128)","(0.0, 0.011721631256393916, 0.0)","(0.018353841334850227, 0.15908286661090806, 0.04896512065952364)","(-0.0007759001894191873, 0.00023657998070658416, 0.016970983482726326)","[0.01616662342347413, 0.00031266660156337167, 0.0010144164297598776]","[-0.026750000193715096, 0.05299999937415123, 0.03999999910593033]","[0.0, -0.0, 0.37809956227405433]","[-0.05332915484905243, 0.11991448700428009, 0.03999999910593033]","[0.0, 0.0, -0.4106182273015097]","[0.026750000193715096, 0.05299999937415123, 0.03999999910593033]","[0.0, 0.0, -0.6618876536640532]","[0.07100170105695724, 0.10979600995779037, 0.03999999910593033]","[0.0, -0.0, 0.13581166484430343]",0.3773875374936743,-0.1708886391872514,"(0.0, 0.0, 0.0, 0.0, 0.0, 0.0)",-0.6894999504287341,-0.7884757206593931,0.05808711612379884,"(0.0, 0.0, 0.0, 0.0, 0.0, 0.0)",-0.39477466909561837,-0.6623772723979153,-0.11751951154385953,"(0.0, 0.0, 0.0, 0.0, 0.0, 0.0)",0.6296093352421764,0.7975192882792176,-0.043196548859737095,"(0.0, 0.0, 0.0, 0.0, 0.0, 0.0)",0.2841273336891391,True,"(-0.013269211667093661, 0.1826214904777285, 0.023999762204902766)","(0.999850220262635, 0.01730551516435499, -0.00023703513801817073)",-0.00029973192749622085,4.443751184670113,True,"(0.04935526018242242, 0.17962878693270962, 0.03802008063171763)","(-0.9997264265535175, -0.023389568339064987, -1.1976913178299513e-05)",-1.2755631408648887e-05,4.818935646405032
54,Move,"(0.0109733, 0.0, -0.030866700000000004)","(0.0, 0.013583897568271868, 0.0)","(0.01858758287976002, 0.15906438610299536, 0.04896641070504666)","(-0.0007396154694553076, 0.00020989386877560918, 0.016161313172641602)","[0.016400364968383922, 0.0002941860936506724, 0.0010157064752829015]","[-0.026750000193715096, 0.05299999937415123, 0.03999999910593033]","[0.0, -0.0, 0.3752447046864705]","[-0.05313801392912865, 0.11999009549617767, 0.03999999910593033]","[0.0, 0.0, -0.41221149361483234]","[0.026750000193715096, 0.05299999937415123, 0.03999999910593033]","[0.0, 0.0, -0.6636212621453853]","[0.07110009342432022, 0.10971920937299728, 0.03999999910593033]","[0.0, -0.0, 0.13314017344837376]",0.374840682732517,-0.09696508803372421,"(0.0, 0.0, 0.0, 0.0, 0.0, 0.0)",-0.6467821569965644,-0.7872356215115601,0.052942926479392124,"(0.0, 0.0, 0.0, 0.0, 0.0, 0.0)",-0.3595317834003359,-0.6638375562519666,-0.05192182799523999,"(0.0, 0.0, 0.0, 0.0, 0.0, 0.0)",0.576020467536362,0.7965953204711087,-0.03985589219024198,"(0.0, 0.0, 0.0, 0.0, 0.0, 0.0)",0.26336968427283913,True,"(-0.012978217309148637, 0.18263370767893225, 0.02399977881503123)","(0.9998682460208813, 0.016230896831080383, -0.00022042500955455472)",-0.00030060319175114576,4.168556755165378,True,"(0.04964029054401903, 0.1796095656314149, 0.03802008063171763)","(-0.9997264265535175, -0.023389568339064987, -1.1976913178299513e-05)",-1.3201375523040446e-05,4.451746879204895
55,Move,"(0.0103067, 0.0, -0.0316667)","(0.0, 0.016095426361891707, 0.0)","(0.01872263452456462, 0.1590616898869161, 0.04893806867953529)","(0.0006535774562537236, 8.773955592382319e-05, 0.01584173908861434)","[0.01653541661318852, 0.0002914898775714103, 0.00098736444977153]","[-0.026750000193715096, 0.05299999937415123, 0.03999999910593033]","[0.0, -0.0, 0.3734757364305315]","[-0.05301947146654129, 0.12003666907548904, 0.03999999910593033]","[0.0, 0.0, -0.4128697212935132]","[0.026750000193715096, 0.05299999937415123, 0.03999999910593033]","[0.0, 0.0, -0.6643968309331689]","[0.07114407420158386, 0.10968479514122009, 0.03999999910593033]","[0.0, -0.0, 0.13146468147443538]",0.3732058933124543,-0.06476510908811048,"(0.0, 0.0, 0.0, 0.0, 0.0, 0.0)",-0.6035535151645253,-0.786155810738624,0.0455105033207248,"(0.0, 0.0, 0.0, 0.0, 0.0, 0.0)",-0.3113453375841736,-0.6644942425934816,-0.023386713497153648,"(0.0, 0.0, 0.0, 0.0, 0.0, 0.0)",0.5279576828503536,0.7957063211171512,-0.03723754163419315,"(0.0, 0.0, 0.0, 0.0, 0.0, 0.0)",0.25446796905850116,True,"(-0.012818456427423991, 0.1826541391023141, 0.023999902944399208)","(0.9998739694599774, 0.01587563930988431, -9.629564157589525e-05)",-0.00029980972891451756,3.949155967668341,True,"(0.04980139841922106, 0.17961100902145039, 0.03802008063171763)","(-0.9997264265535175, -0.023389568339064987, -1.1976913178299513e-05)",-9.653672291791882e-06,4.167619232864493
56,Move,"(0.01108, 0.0, -0.0334467)","(0.0, 0.029581585492051896, 0.0)","(0.018898410852471712, 0.15906762475217318, 0.04894878981975403)","(0.00026965176577884196, -1.1964714451278003e-05, 0.01539089102227909)","[0.016711192941095614, 0.00029742474282848375, 0.0009980855899902677]","[-0.026750000193715096, 0.05299999937415123, 0.03999999910593033]","[0.0, -0.0, 0.37157158056821377]","[-0.052891772240400314, 0.12008656561374664, 0.03999999910593033]","[0.0, 0.0, -0.4136019444148327]","[0.026750000193715096, 0.05299999937415123, 0.03999999910593033]","[0.0, 0.0, -0.6652672170576518]","[0.0711933970451355, 0.10964613407850266, 0.03999999910593033]","[0.0, -0.0, 0.12968845659221487]",0.3711975431968058,-0.08976066582274109,"(0.0, 0.0, 0.0, 0.0, 0.0, 0.0)",-0.6478300889720681,-0.7849553655773697,0.05234719874398825,"(0.0, 0.0, 0.0, 0.0, 0.0, 0.0)",-0.34909473532475954,-0.6654514555407162,-0.04422251122149939,"(0.0, 0.0, 0.0, 0.0, 0.0, 0.0)",0.5660042657059641,0.7947860475941128,-0.040705370364181856,"(0.0, 0.0, 0.0, 0.0, 0.0, 0.0)",0.2639485559432186,True,"(-0.012644918490877406, 0.18267467799424997, 0.023999920345135487)","(0.9998749282884053, 0.0158152317671946, -7.889490529581252e-05)",-0.00029510910829745504,4.27371010490109,True,"(0.049974957914335615, 0.17961014606845627, 0.03802008063171763)","(-0.9997264265535175, -0.023389568339064987, -1.1976913178299513e-05)",-1.1339545571097447e-05,4.365294856852139
57,Move,"(0.0094133, 0.0, -0.0355933)","(0.0, 0.03845309407993906, 0.0)","(0.018917006817498104, 0.15909713115562424, 0.04895915655470111)","(-0.0002671128290212309, -0.00028819624478032817, 0.015517918389991694)","[0.016729788906122006, 0.00032693114627954656, 0.0010084523249373478]","[-0.026750000193715096, 0.05299999937415123, 0.03999999910593033]","[0.0, -0.0, 0.37073438951231613]","[-0.052835602313280106, 0.12010843306779861, 0.03999999910593033]","[0.0, 0.0, -0.41351460117998295]","[0.026750000193715096, 0.05299999937415123, 0.03999999910593033]","[0.0, 0.0, -0.6651994530144394]","[0.07118955254554749, 0.10964914411306381, 0.03999999910593033]","[0.0, -0.0, 0.1288451370940201]",0.37070039901129753,-0.008154628198632673,"(0.0, 0.0, 0.0, 0.0, 0.0, 0.0)",-0.482011441136917,-0.7841088132785924,0.033639268070888385,"(0.0, 0.0, 0.0, 0.0, 0.0, 0.0)",-0.22966345123238124,-0.6650871435808517,0.02694965981432355,"(0.0, 0.0, 0.0, 0.0, 0.0, 0.0)",0.5241223097481411,0.7938799239954377,-0.03951091302425713,"(0.0, 0.0, 0.0, 0.0, 0.0, 0.0)",0.26756664767427474,True,"(-0.012594212658059309, 0.18270005420016197, 0.023999920345135487)","(0.9998749282884053, 0.0158152317671946, -7.889490529581252e-05)",-0.0002872956680912609,2.8954149854303646,True,"(0.05003024213914385, 0.1796190671625189, 0.03814171458136128)","(-0.9998808254451513, -0.01543804968599389, -3.910263385429305e-05)",-1.4478658544902339e-05,4.139040922728682
58,Move,"(0.0094667, 0.0, -0.036286700000000005)","(0.0, 0.039093629915420994, 0.0)","(0.018910569983300773, 0.15912444856940905, 0.048965371561813235)","(-0.0006638896707920873, -0.0004949152463051309, 0.015636488856202366)","[0.016723352071924675, 0.00035424856006435745, 0.001014667332049475]","[-0.026750000193715096, 0.05299999937415123, 0.03999999910593033]","[0.0, -0.0, 0.37043480686625574]","[-0.05281549692153931, 0.12011624127626419, 0.03999999910593033]","[0.0, 0.0, -0.413006055511027]","[0.026750000193715096, 0.05299999937415123, 0.03999999910593033]","[0.0, 0.0, -0.6646776919065062]","[0.07115999609231949, 0.10967232286930084, 0.03999999910593033]","[0.0, -0.0, 0.12849821379344661]",0.3703716366718426,-0.015159745252077575,"(0.0, 0.0, 0.0, 0.0, 0.0, 0.0)",-0.4964220627966382,-0.783292841999393,0.03552358379536573,"(0.0, 0.0, 0.0, 0.0, 0.0, 0.0)",-0.2340305046127801,-0.6645945131939955,0.01995777454349137,"(0.0, 0.0, 0.0, 0.0, 0.0, 0.0)",0.5048005091413126,0.7930203679267042,-0.03732323491352546,"(0.0, 0.0, 0.0, 0.0, 0.0, 0.0)",0.25366132753645226,True,"(-0.012605943421206495, 0.1827283222526311, 0.023999920345135487)","(0.9998749282884053, 0.0158152317671946, -7.889490529581252e-05)",-0.00028046547993710474,3.0979836491667307,True,"(0.05002495305734771, 0.17964958250551097, 0.03814171458136128)","(-0.9998808254451513, -0.01543804968599389, -3.910263385429305e-05)",-1.1802051625249744e-05,3.967808003823203
59,Move,"(0.0096267, 0.0, -0.0353267)","(0.0, 0.043622759324346276, 0.0)","(0.018910648049412015, 0.15914755199731773, 0.0489711448324678)","(-0.001126647414351223, -0.0004885190917227049, 0.015650143735513992)","[0.016723430138035917, 0.0003773519879730347, 0.001020440602704037]","[-0.026750000193715096, 0.05299999937415123, 0.03999999910593033]","[0.0, -0.0, 0.37000836844451984]","[-0.052786871790885925, 0.1201273500919342, 0.03999999910593033]","[0.0, 0.0, -0.4126015559519047]","[0.026750000193715096, 0.05299999937415123, 0.03999999910593033]","[0.0, 0.0, -0.6642740453562365]","[0.07113711535930634, 0.10969024896621704, 0.03999999910593033]","[0.0, -0.0, 0.12807438723662048]",0.3699257722008376,-0.0198219883238218,"(0.0, 0.0, 0.0, 0.0, 0.0, 0.0)",-0.5099856866453402,-0.7824609556012836,0.03575217998076208,"(0.0, 0.0, 0.0, 0.0, 0.0, 0.0)",-0.24141534236253004,-0.6642076181334947,0.015939717760745358,"(0.0, 0.0, 0.0, 0.0, 0.0, 0.0)",0.48829196376692857,0.7922008923044797,-0.03540004697022534,"(0.0, 0.0, 0.0, 0.0, 0.0, 0.0)",0.24291025276825653,True,"(-0.012602649696127309, 0.18275569093823502, 0.023999920345135487)","(0.9998749282884053, 0.0158152317671946, -7.889490529581252e-05)",-0.00028497336114820726,3.2931116061333596,True,"(0.05003173628818023, 0.17967645524463244, 0.03814171458136128)","(-0.9998808254451513, -0.01543804968599389, -3.910263385429305e-05)",-3.4313559573432034e-06,3.264860350978999
60,Move,"(0.0072267, 0.0, -0.035786700000000005)","(0.0, 0.04421617127002434, 0.0)","(0.018716103597835803, 0.15918948259626053, 0.04897390535028083)","(-0.0012484744312549415, -0.0006584592971919276, 0.01614358817209348)","[0.016528885686459705, 0.0004192825869158423, 0.00102320112051707]","[-0.026750000193715096, 0.05299999937415123, 0.03999999910593033]","[0.0, -0.0, 0.37111080472076957]","[-0.05286085978150368, 0.12009860575199127, 0.03999999910593033]","[0.0, 0.0, -0.4109610245571649]","[0.026750000193715096, 0.05299999937415123, 0.03999999910593033]","[0.0, 0.0, -0.6625544155492077]","[0.07103955745697021, 0.10976649820804596, 0.03999999910593033]","[0.0, -0.0, 0.12892166945577133]",0.3714497508952664,0.08134583948106197,"(0.0, 0.0, 0.0, 0.0, 0.0, 0.0)",-0.3077460424940956,-0.7819986811303156,0.01757035982845559,"(0.0, 0.0, 0.0, 0.0, 0.0, 0.0)",-0.11242768648568421,-0.6621262949611907,0.10272440227877445,"(0.0, 0.0, 0.0, 0.0, 0.0, 0.0)",0.4231534882856217,0.7913110580624684,-0.03958092779975399,"(0.0, 0.0, 0.0, 0.0, 0.0, 0.0)",0.26130994626822696,True,"(-0.01277943259087707, 0.1827927829407895, 0.023999920345135487)","(0.9998749282884053, 0.0158152317671946, -7.889490529581252e-05)",-0.0002675895054711748,1.641319985299513,True,"(0.049874887150412606, 0.17973479695770123, 0.03814171458136128)","(-0.9998808254451513, -0.01543804968599389, -3.910263385429305e-05)",-8.168050705247669e-07,2.49634058385824
61,Move,"(0.0068133, 0.0, -0.0375933)","(0.0, 0.030185469413241937, 0.0)","(0.01848823019177758, 0.15922943171918497, 0.048976849895952024)","(-0.0013386067410481848, -0.0008437063331415715, 0.016673340396583816)","[0.016301012280401483, 0.0004592317098402743, 0.0010261456661882634]","[-0.026750000193715096, 0.05299999937415123, 0.03999999910593033]","[0.0, -0.0, 0.37298438648593457]","[-0.05298652872443199, 0.12004956603050232, 0.03999999910593033]","[0.0, 0.0, -0.4087052563125623]","[0.026750000193715096, 0.05299999937415123, 0.03999999910593033]","[0.0, 0.0, -0.6602276851792142]","[0.070907361805439, 0.10986939072608948, 0.03999999910593033]","[0.0, -0.0, 0.13040609967115963]",0.37331515548914496,0.07938896665526643,"(0.0, 0.0, 0.0, 0.0, 0.0, 0.0)",-0.26864846761923955,-0.7816224028986449,0.016134209302960282,"(0.0, 0.0, 0.0, 0.0, 0.0, 0.0)",-0.09727074716359482,-0.6598207842705959,0.09764293339340327,"(0.0, 0.0, 0.0, 0.0, 0.0, 0.0)",0.3802675950502269,0.7904869201623961,-0.03523408780608754,"(0.0, 0.0, 0.0, 0.0, 0.0, 0.0)",0.23647500345955064,True,"(-0.01304662850185477, 0.1828340018968838, 0.023999920345135487)","(0.9998749282884053, 0.0158152317671946, -7.889490529581252e-05)",-0.00023759023399998083,1.3872443118648004,True,"(0.049638849770848044, 0.17980619636624956, 0.03814171458136128)","(-0.9998808254451513, -0.01543804968599389, -3.910263385429305e-05)",1.5048993819882945e-06,1.8983106732862476
62,Move,"(0.007546700000000001, 0.0, -0.0391)","(0.0, 0.04073423941229566, 0.0)","(0.01833178047950846, 0.159267134483184, 0.04897925490638083)","(-0.0015275846470709817, -0.0011370571378275989, 0.0167595763318884)","[0.016144562568132362, 0.0004969344738393056, 0.001028550676617071]","[-0.026750000193715096, 0.05299999937415123, 0.03999999910593033]","[0.0, -0.0, 0.37427696496107127]","[-0.05307317152619362, 0.12001559883356094, 0.03999999910593033]","[0.0, 0.0, -0.40700011807226455]","[0.026750000193715096, 0.05299999937415123, 0.03999999910593033]","[0.0, 0.0, -0.6584213049157902]","[0.07080455869436264, 0.10994905978441238, 0.03999999910593033]","[0.0, -0.0, 0.13139712369712916]",0.37445562949259337,0.042886587223174746,"(0.0, 0.0, 0.0, 0.0, 0.0, 0.0)",-0.2846191223661323,-0.7811997448308533,0.01855749930021116,"(0.0, 0.0, 0.0, 0.0, 0.0, 0.0)",-0.11354991726342224,-0.6581435125699241,0.06666540147774107,"(0.0, 0.0, 0.0, 0.0, 0.0, 0.0)",0.4113232355659216,0.7896738826918022,-0.03468441921384801,"(0.0, 0.0, 0.0, 0.0, 0.0, 0.0)",0.23608331089796955,True,"(-0.013240386159984983, 0.1828680447660444, 0.023999920345135487)","(0.9998749282884053, 0.0158152317671946, -7.889490529581252e-05)",-0.00021246519177019522,1.3044110884913487,True,"(0.04946675395383347, 0.17986475516440273, 0.03814171458136128)","(-0.9998808254451513, -0.01543804968599389, -3.910263385429305e-05)",1.6789628914112623e-06,2.0736734447252343
63,Move,"(0.0058133, 0.0, -0.0397133)","(0.0, 0.06683563837587088, 0.0)","(0.0180347316342703, 0.1592973656541468, 0.04898232290769719)","(-0.0014619454588139032, -0.0012440480081716547, 0.018081142472731508)","[0.015847513722894203, 0.0005271656448020967, 0.0010316186779334297]","[-0.026750000193715096, 0.05299999937415123, 0.03999999910593033]","[0.0, -0.0, 0.37644359612896855]","[-0.053218308836221695, 0.11995840817689896, 0.03999999910593033]","[0.0, 0.0, -0.40445905483391265]","[0.026750000193715096, 0.05299999937415123, 0.03999999910593033]","[0.0, 0.0, -0.6557745368949153]","[0.07065367698669434, 0.11006546765565872, 0.03999999910593033]","[0.0, -0.0, 0.13326354644625937]",0.37693504124926036,0.11795546270142565,"(0.0, 0.0, 0.0, 0.0, 0.0, 0.0)",-0.2547380689869399,-0.7808403269118958,0.014948133826998325,"(0.0, 0.0, 0.0, 0.0, 0.0, 0.0)",-0.08875957671820922,-0.6552045608934344,0.13678554894226264,"(0.0, 0.0, 0.0, 0.0, 0.0, 0.0)",0.3470433399784625,0.7889024225879109,-0.032551418532349406,"(0.0, 0.0, 0.0, 0.0, 0.0, 0.0)",0.22751430641338105,True,"(-0.013545363550299838, 0.1829118704126988, 0.023999920345135487)","(0.9998749282884053, 0.0158152317671946, -7.889490529581252e-05)",-0.00019330155983069848,1.2852742758458007,True,"(0.0491854119504747, 0.17994121105273386, 0.03814171458136128)","(-0.9998808254451513, -0.01543804968599389, -3.910263385429305e-05)",4.753997577212022e-06,1.3332337099257108
