OSUrobotics/InHand-Manipulation/AnalyseData/Data/Trial Data/Tries/new_hand_human_sub1_2v2_c_n_1_kpNone_kdNone_dp2_step5_save_data.csv
,Phase,human_cube_pos,human_cube_orn,Cube_Pos,Cube_Orn,Cube_pos_in_start_pos,b'l_prox_pin'_link_pos,b'l_prox_pin'_link_orn,b'l_distal_pin'_link_pos,b'l_distal_pin'_link_orn,b'r_prox_pin'_link_pos,b'r_prox_pin'_link_orn,b'r_distal_pin'_link_pos,b'r_distal_pin'_link_orn,b'l_prox_pin'_joint_angle,b'l_prox_pin'_joint_vel,b'l_prox_pin'_joint_react_forces,b'l_prox_pin'_joint_motor_torque,b'l_distal_pin'_joint_angle,b'l_distal_pin'_joint_vel,b'l_distal_pin'_joint_react_forces,b'l_distal_pin'_joint_motor_torque,b'r_prox_pin'_joint_angle,b'r_prox_pin'_joint_vel,b'r_prox_pin'_joint_react_forces,b'r_prox_pin'_joint_motor_torque,b'r_distal_pin'_joint_angle,b'r_distal_pin'_joint_vel,b'r_distal_pin'_joint_react_forces,b'r_distal_pin'_joint_motor_torque,in_contact_l,contact_point_l_dist,contact_normal_l_dist,contact_distance_l_dist,contact_norm_force_l_dist,in_contact_r,contact_point_r_dist,contact_normal_r_dist,contact_distance_r_dist,contact_norm_force_r_dist
0,Open,,,,,,"[-0.026750000193715096, 0.05299999937415123, 0.03999999910593033]","[0.0, -0.0, 0.4254700097131474]","[-0.056467924267053604, 0.11858082562685013, 0.03999999910593033]","[0.0, -0.0, 0.4254700097131474]","[0.026750000193715096, 0.05299999937415123, 0.03999999910593033]","[0.0, 0.0, -0.4429245237535421]","[0.057608019560575485, 0.1180521547794342, 0.03999999910593033]","[0.0, 0.0, -0.5266622746639338]",0.5399229999999999,27.46872,"(0.0, 0.0, 0.0, 0.0, 0.0, 0.0)",-4.377393708535371,5.294901130302062e-32,0.0,"(0.0, 0.0, 0.0, 0.0, 0.0, 0.0)",-0.30017707799641646,-0.5623038734984663,-28.651050680519948,"(0.0, 0.0, 0.0, 0.0, 0.0, 0.0)",144.45470973647488,-0.10456727132876567,-4.999096204557077,"(0.0, 0.0, 0.0, 0.0, 0.0, 0.0)",33.97911746732963,False,,,,,False,,,,
1,Open,,,,,,"[-0.026750000193715096, 0.05299999937415123, 0.03999999910593033]","[0.0, -0.0, 0.894166469119967]","[-0.08288749307394028, 0.09808415919542313, 0.03999999910593033]","[0.0, -0.0, 0.894166894674561]","[0.026750000193715096, 0.05299999937415123, 0.03999999910593033]","[0.0, 0.0, -0.9122733503889549]","[0.08369457721710205, 0.09706035256385803, 0.03999999910593033]","[0.0, 0.0, -0.9997066729229968]",0.96174983227,16.220004472800003,"(0.0, 0.0, 0.0, 0.0, 0.0, 0.0)",-2.5959652512206968,5.681494863714967e-07,3.553320838026869e-05,"(0.0, 0.0, 0.0, 0.0, 0.0, 0.0)",-0.18114955764248034,-0.9780460127037736,-15.785439661232708,"(0.0, 0.0, 0.0, 0.0, 0.0, 0.0)",2.503992476159733,-0.0786900142246732,2.098357403184359,"(0.0, 0.0, 0.0, 0.0, 0.0, 0.0)",0.15360133560797545,False,,,,,False,,,,
2,Open,,,,,,"[-0.026750000193715096, 0.05299999937415123, 0.03999999910593033]","[0.0, -0.0, 1.170927100750299]","[-0.09307006001472473, 0.08102945238351822, 0.03999999910593033]","[0.0, -0.0, 1.1709279927689973]","[0.026750000193715096, 0.05299999937415123, 0.03999999910593033]","[0.0, 0.0, -1.181618964677462]","[0.09336595237255096, 0.08031877130270004, 0.03999999910593033]","[0.0, 0.0, -1.233247876832181]",1.2108343584571122,9.577750441143678,"(0.0, 0.0, 0.0, 0.0, 0.0, 0.0)",-1.5367816122769582,9.012180617793662e-07,6.275974057005224e-06,"(0.0, 0.0, 0.0, 0.0, 0.0, 0.0)",-0.1083256720668905,-1.2204570900414513,-9.3211442655613,"(0.0, 0.0, 0.0, 0.0, 0.0, 0.0)",1.4819475463743526,-0.046466145575958295,1.239071567699341,"(0.0, 0.0, 0.0, 0.0, 0.0, 0.0)",0.09166748660725833,False,,,,,False,,,,
3,Open,,,,,,"[-0.026750000193715096, 0.05299999937415123, 0.03999999910593033]","[0.0, -0.0, 1.334351465706577]","[-0.09674673527479172, 0.06986585259437561, 0.03999999910593033]","[0.0, -0.0, 1.33435435145599]","[0.026750000193715096, 0.05299999937415123, 0.03999999910593033]","[0.0, 0.0, -1.3406650641721125]","[0.09685182571411133, 0.06942359358072281, 0.03999999910593033]","[0.0, 0.0, -1.3711530696282732]",1.3579162851496,5.655565729344001,"(0.0, 0.0, 0.0, 0.0, 0.0, 0.0)",-0.9088150211252332,3.4316066113876724e-06,0.0001607445165674468,"(0.0, 0.0, 0.0, 0.0, 0.0, 0.0)",-0.06444344013525093,-1.3635984108023202,-5.504042378604797,"(0.0, 0.0, 0.0, 0.0, 0.0, 0.0)",0.8762522980402716,-0.02744024570882781,0.7315266716392431,"(0.0, 0.0, 0.0, 0.0, 0.0, 0.0)",0.05446985052483407,False,,,,,False,,,,
4,Open,,,,,,"[-0.026750000193715096, 0.05299999937415123, 0.03999999910593033]","[0.0, -0.0, 1.4308518944899675]","[-0.09804610908031464, 0.06304314732551575, 0.03999999910593033]","[0.0, -0.0, 1.4308566269594332]","[0.026750000193715096, 0.05299999937415123, 0.03999999910593033]","[0.0, 0.0, -1.4345798203875788]","[0.09808305650949478, 0.06277728080749512, 0.03999999910593033]","[0.0, 0.0, -1.4525855975984745]",1.4447666872179874,3.339555007520341,"(0.0, 0.0, 0.0, 0.0, 0.0, 0.0)",-0.5371183361845069,4.8269553674989e-06,2.0878160072459843e-05,"(0.0, 0.0, 0.0, 0.0, 0.0, 0.0)",-0.03821759960562203,-1.448121925594662,-3.2500819841423465,"(0.0, 0.0, 0.0, 0.0, 0.0, 0.0)",0.5178266556878065,-0.016205556838873442,0.4320218239148067,"(0.0, 0.0, 0.0, 0.0, 0.0, 0.0)",0.0322808466635012,False,,,,,False,,,,
5,Open,,,,,,"[-0.026750000193715096, 0.05299999937415123, 0.03999999910593033]","[0.0, -0.0, 1.487834617901085]","[-0.09850236773490906, 0.05896640568971634, 0.03999999910593033]","[0.0, -0.0, 1.4878390921106803]","[0.026750000193715096, 0.05299999937415123, 0.03999999910593033]","[0.0, 0.0, -1.4900358577435544]","[0.09851532429456711, 0.05880843847990036, 0.03999999910593033]","[0.0, 0.0, -1.5006695807985118]",1.4960509811353493,1.9719738363906854,"(0.0, 0.0, 0.0, 0.0, 0.0, 0.0)",-0.3173274216127963,4.509251873886308e-06,-3.168767150011037e-05,"(0.0, 0.0, 0.0, 0.0, 0.0, 0.0)",-0.022624215793833224,-1.498032215844392,-1.9191409108162163,"(0.0, 0.0, 0.0, 0.0, 0.0, 0.0)",0.30591369390909257,-0.00957062017308593,0.2551417656412126,"(0.0, 0.0, 0.0, 0.0, 0.0, 0.0)",0.019102112305110365,False,,,,,False,,,,
6,Open,,,,,,"[-0.026750000193715096, 0.05299999937415123, 0.03999999910593033]","[0.0, -0.0, 1.5214821319654974]","[-0.09866246581077576, 0.05654918774962425, 0.03999999910593033]","[0.0, -0.0, 1.5214858439169519]","[0.026750000193715096, 0.05299999937415123, 0.03999999910593033]","[0.0, 0.0, -1.5227821585534602]","[0.09866702556610107, 0.05645570904016495, 0.03999999910593033]","[0.0, 0.0, -1.529061933448946]",1.5263338438506127,1.164430830650334,"(0.0, 0.0, 0.0, 0.0, 0.0, 0.0)",-0.18743587261192823,3.6440993970645793e-06,-4.480530101024996e-05,"(0.0, 0.0, 0.0, 0.0, 0.0, 0.0)",-0.013379159967550349,-1.527503743133955,-1.1332335164278682,"(0.0, 0.0, 0.0, 0.0, 0.0, 0.0)",0.18068846528573543,-0.005652184024362593,0.1506807000213291,"(0.0, 0.0, 0.0, 0.0, 0.0, 0.0)",0.011293655891939093,False,,,,,False,,,,
7,Close,,,"(0.010000824637423049, 0.16001319418745247, 0.017848014970055004)","(-0.00026934863811186216, 1.6834304115272585e-05, -2.2671484573282825e-09)",,"[-0.026750000193715096, 0.05299999937415123, 0.03999999910593033]","[0.0, -0.0, 1.2784808254221978]","[-0.09569569677114487, 0.07374827563762665, 0.03999999910593033]","[0.0, -0.0, 1.034582661993943]","[0.026750000193715096, 0.05299999937415123, 0.03999999910593033]","[0.0, 0.0, -1.2792482299640686]","[0.0957116037607193, 0.0736953467130661, 0.03999999910593033]","[0.0, 0.0, -1.0390562259147462]",1.210632571455348,-16.283535238809286,"(0.0, 0.0, 0.0, 0.0, 0.0, 0.0)",2.771136716181199,-0.3095085607892871,-15.746535439217235,"(0.0, 0.0, 0.0, 0.0, 0.0, 0.0)",0.3469037989659341,-1.211323385283169,16.3019569408845,"(0.0, 0.0, 0.0, 0.0, 0.0, 0.0)",-2.7749564531312414,0.30617317599991634,15.835479338328643,"(0.0, 0.0, 0.0, 0.0, 0.0, 0.0)",-0.3479929302165593,False,,,,,False,,,,
8,Close,,,"(0.010001648057231211, 0.16002636889308344, 0.03133184175509247)","(-0.0005384699893107284, 3.3654401557527444e-05, -9.06094284338731e-09)",,"[-0.026750000193715096, 0.05299999937415123, 0.03999999910593033]","[0.0, -0.0, 1.0006360422079206]","[-0.08736064285039902, 0.0918632224202156, 0.03999999910593033]","[0.0, -0.0, 0.4880565025715103]","[0.026750000193715096, 0.05299999937415123, 0.03999999910593033]","[0.0, 0.0, -1.001089448203126]","[0.08737824857234955, 0.09183574467897415, 0.03999999910593033]","[0.0, 0.0, -0.49069812233338583]",0.9605724271186684,-9.615264723164493,"(0.0, 0.0, 0.0, 0.0, 0.0, 0.0)",1.6441783201079794,-0.5513218025251249,-9.298144061583436,"(0.0, 0.0, 0.0, 0.0, 0.0, 0.0)",0.21014173445603831,-0.9609803457758583,9.626142554022893,"(0.0, 0.0, 0.0, 0.0, 0.0, 0.0)",-1.6464751946207798,0.5493522946545342,9.350664461360347,"(0.0, 0.0, 0.0, 0.0, 0.0, 0.0)",-0.2108204377510729,False,,,,,False,,,,
9,Close,,,"(0.010002470404691093, 0.16003952644115657, 0.04045997120998789)","(-0.0008073642479911328, 5.0460303253361964e-05, -2.0369923505779015e-08)",,"[-0.026750000193715096, 0.05299999937415123, 0.03999999910593033]","[0.0, -0.0, 0.8365715799965936]","[-0.0801992267370224, 0.1012408509850502, 0.03999999910593033]","[0.0, -0.0, 0.16533874626364803]","[0.026750000193715096, 0.05299999937415123, 0.03999999910593033]","[0.0, 0.0, -0.8368392086626993]","[0.08021213859319687, 0.10122654587030411, 0.03999999910593033]","[0.0, 0.0, -0.1668985823484083]",0.8129144124893025,-5.677717666381402,"(0.0, 0.0, 0.0, 0.0, 0.0, 0.0)",0.9736078226475493,-0.6941096683608667,-5.490444078796776,"(0.0, 0.0, 0.0, 0.0, 0.0, 0.0)",0.12593397924105265,-0.8131552843771866,5.684140916724979,"(0.0, 0.0, 0.0, 0.0, 0.0, 0.0)",-0.9749785244213759,0.6929466958025952,5.521456795952681,"(0.0, 0.0, 0.0, 0.0, 0.0, 0.0)",-0.12634715317523504,False,,,,,False,,,,
10,Close,,,"(0.010003291824242136, 0.16005266914270105, 0.04523936165140331)","(-0.0010760316083767074, 6.725202012489063e-05, -3.618265319583079e-08)",,"[-0.026750000193715096, 0.05299999937415123, 0.03999999910593033]","[0.0, -0.0, 0.7396932119518481]","[-0.07528240978717804, 0.10618463158607483, 0.03999999910593033]","[0.0, 0.0, -0.025223688738047617]","[0.026750000193715096, 0.05299999937415123, 0.03999999910593033]","[0.0, 0.0, -0.7398511766938903]","[0.07529081404209137, 0.10617695748806, 0.03999999910593033]","[0.0, -0.0, 0.02430263317545323]",0.7257238314308083,-3.352635504821555,"(0.0, 0.0, 0.0, 0.0, 0.0, 0.0)",0.5758654822812497,-0.7784262532781683,-3.242260203768412,"(0.0, 0.0, 0.0, 0.0, 0.0, 0.0)",0.0750123771406224,-0.725866063871885,3.3564283699169333,"(0.0, 0.0, 0.0, 0.0, 0.0, 0.0)",-0.5766799137830688,0.7777395376647703,3.260573592131318,"(0.0, 0.0, 0.0, 0.0, 0.0, 0.0)",-0.0752606958188736,False,,,,,False,,,,
11,Close,,,"(0.009997966950406065, 0.16004795201914346, 0.046616050094935475)","(-0.0009640430328522325, -5.7324486097668704e-05, 4.2980615420070005e-09)",,"[-0.026750000193715096, 0.05299999937415123, 0.03999999910593033]","[0.0, -0.0, 0.682487397988505]","[-0.0721622109413147, 0.10887245088815689, 0.03999999910593033]","[0.0, 0.0, -0.13775029188859572]","[0.026750000193715096, 0.05299999937415123, 0.03999999910593033]","[0.0, 0.0, -0.6825807377410441]","[0.07216742634773254, 0.10886821150779724, 0.03999999910593033]","[0.0, -0.0, 0.1372064129763775]",0.6742386185346878,-1.979696494258342,"(0.0, 0.0, 0.0, 0.0, 0.0, 0.0)",0.34037467823530393,-0.8282145265472606,-1.9144534778819295,"(0.0, 0.0, 0.0, 0.0, 0.0, 0.0)",0.04449932044982575,-0.674322605213594,1.981936139029174,"(0.0, 0.0, 0.0, 0.0, 0.0, 0.0)",-0.3408573424145132,0.8278090365055835,1.9252671252731466,"(0.0, 0.0, 0.0, 0.0, 0.0, 0.0)",-0.04464739446319682,False,,,,,False,,,,
12,Close,,,"(0.009998679410322496, 0.16003066597344334, 0.0474253884764576)","(-0.0006112814540129935, -4.2805404436077314e-05, 1.9447426774393396e-07)",,"[-0.026750000193715096, 0.05299999937415123, 0.03999999910593033]","[0.0, -0.0, 0.6487079580530938]","[-0.07024932652711868, 0.11037428677082062, 0.03999999910593033]","[0.0, 0.0, -0.20419532625251113]","[0.026750000193715096, 0.05299999937415123, 0.03999999910593033]","[0.0, 0.0, -0.6487631098841893]","[0.07025248557329178, 0.11037188768386841, 0.03999999910593033]","[0.0, -0.0, 0.20387417727936794]",0.6438371618585478,-1.1689909828946077,"(0.0, 0.0, 0.0, 0.0, 0.0, 0.0)",0.20110328062585062,-0.8576133287829941,-1.1304144347684295,"(0.0, 0.0, 0.0, 0.0, 0.0, 0.0)",0.026365137971139978,-0.6438867551525752,1.1703134707353389,"(0.0, 0.0, 0.0, 0.0, 0.0, 0.0)",-0.20138889834359572,0.857373897412956,1.136799615752827,"(0.0, 0.0, 0.0, 0.0, 0.0, 0.0)",-0.026453134766811503,False,,,,,False,,,,
13,Close,,,"(0.008562352819313064, 0.15963169911231415, 0.04795936059784778)","(0.002880050037504477, -0.0018080766405500393, 0.027156574699580344)",,"[-0.026750000193715096, 0.05299999937415123, 0.03999999910593033]","[0.0, -0.0, 0.6287615983534538]","[-0.06909634172916412, 0.11123047024011612, 0.03999999910593033]","[0.0, 0.0, -0.24342883421715172]","[0.026750000193715096, 0.05299999937415123, 0.03999999910593033]","[0.0, 0.0, -0.6288059721302652]","[0.06909892708063126, 0.1112285852432251, 0.03999999910593033]","[0.0, -0.0, 0.24295585513718987]",0.6258854057058539,-0.6902774854894381,"(0.0, 0.0, 0.0, 0.0, 0.0, 0.0)",0.11878846609148704,-0.8749713231347032,-0.6674313830745814,"(0.0, 0.0, 0.0, 0.0, 0.0, 0.0)",0.015594191474811038,-0.6259255556368085,0.6912982329409242,"(0.0, 0.0, 0.0, 0.0, 0.0, 0.0)",0.23889456753769728,0.8745816224765113,0.6767593625972839,"(0.0, 0.0, 0.0, 0.0, 0.0, 0.0)",0.18939691443679915,False,,,,,True,"(0.040048198705117485, 0.17954190147604243, 0.02399995236517949)","(-0.9999968496142797, -0.00250969405768167, -4.6874861287478436e-05)",-8.481535683957195e-06,2.863336982423626
14,Move,,,"(0.003226703519616097, 0.15887842572556865, 0.048057042824217085)","(0.00733137607255103, 0.004060605831319912, 0.12411081910370701)","[0.0, 0.0, 0.0]","[-0.026750000193715096, 0.05299999937415123, 0.03999999910593033]","[0.0, -0.0, 0.5601465041237582]","[-0.06500434130430222, 0.11399676650762558, 0.03999999910593033]","[0.0, 0.0, -0.31665092698218517]","[0.026750000193715096, 0.05299999937415123, 0.03999999910593033]","[0.0, 0.0, -0.5704848668453074]","[0.0656328946352005, 0.11359802633523941, 0.03999999910593033]","[0.0, -0.0, 0.3056114929739557]",0.5446837312064112,-3.7110582962534506,"(0.0, 0.0, 0.0, 0.0, 0.0, 0.0)",-53.09089974488294,-0.8536776571297426,5.5487419201507295,"(0.0, 0.0, 0.0, 0.0, 0.0, 0.0)",-27.521806933097807,-0.5577558572400253,3.0549589579805563,"(0.0, 0.0, 0.0, 0.0, 0.0, 0.0)",39.845640952717,0.8551826533669656,-5.0192908628628805,"(0.0, 0.0, 0.0, 0.0, 0.0, 0.0)",19.520428399002,True,"(-0.031006456029053206, 0.18019920383377602, 0.023994329638221932)","(0.9922239401206523, 0.12433627092149606, -0.005669601818851313)",-0.0005148038489068186,428.5206410406488,True,"(0.03236246380961459, 0.17994971919477992, 0.023997959838382148)","(-0.9993845697424365, -0.035018889211399305, -0.00203940165862912)",0.0005577664042068458,310.72647358115125
15,Move,"(-0.0031000000000000003, 0.0, -0.0002)","(0.0, 0.02079385270826044, 0.0)","(0.003263008606544455, 0.16130558235884088, 0.04819236844559784)","(-0.010990109020328296, 0.0006697204406797765, 0.12032536991973942)","[3.630508692835767e-05, 0.002427156633272226, 0.000135325621380758]","[-0.026750000193715096, 0.05299999937415123, 0.03999999910593033]","[0.0, -0.0, 0.5327906793337871]","[-0.06332162022590637, 0.11502029001712799, 0.03999999910593033]","[0.0, 0.0, -0.30421938128079257]","[0.026750000193715096, 0.05299999937415123, 0.03999999910593033]","[0.0, 0.0, -0.551101438372152]","[0.06445106863975525, 0.11434027552604675, 0.03999999910593033]","[0.0, -0.0, 0.28828574479021635]",0.5333167022270282,0.1262461655024376,"(0.0, 0.0, 0.0, 0.0, 0.0, 0.0)",-1.356620921366907,-0.838160059406048,-0.2760068342670233,"(0.0, 0.0, 0.0, 0.0, 0.0, 0.0)",-0.6824863277341972,-0.5523361695728845,-0.29632362304588855,"(0.0, 0.0, 0.0, 0.0, 0.0, 0.0)",0.8909572347182195,0.8405049698789832,0.268257356938442,"(0.0, 0.0, 0.0, 0.0, 0.0, 0.0)",0.507004343843981,True,"(-0.03014714054785425, 0.18162333381669152, 0.023999284576372123)","(0.9928045145054668, 0.11974424927070577, -0.0007146636686612093)",-0.0007853425874461722,9.901465623725903,True,"(0.032443255688119496, 0.18011747231412575, 0.056000715423627875)","(-0.9928045145054653, -0.1197442492707183, 0.0007146636686617731)",-0.0001518181715837807,6.4636475702263505
16,Move,"(0.004200000000000001, 0.0, 0.0009000000000000001)","(0.0, 0.02528982086139784, 0.0)","(0.004106567348117902, 0.16149741352546348, 0.048513785072260306)","(-0.009160237443857137, 0.0004959263442110539, 0.110993345366866)","[0.0008798638285018047, 0.002618987799894834, 0.00045674224804322094]","[-0.026750000193715096, 0.05299999937415123, 0.03999999910593033]","[0.0, -0.0, 0.5277781150222615]","[-0.06301028281450272, 0.11520282924175262, 0.03999999910593033]","[0.0, 0.0, -0.30994625398131204]","[0.026750000193715096, 0.05299999937415123, 0.03999999910593033]","[0.0, 0.0, -0.5589645392574194]","[0.06493221968412399, 0.11404193937778473, 0.03999999910593033]","[0.0, -0.0, 0.28134357293593015]",0.5261606321723009,-0.3881842911471219,"(0.0, 0.0, 0.0, 0.0, 0.0, 0.0)",-1.1542426869598021,-0.8373298300822221,0.09467291533005849,"(0.0, 0.0, 0.0, 0.0, 0.0, 0.0)",-0.6221959802390636,-0.5604485915607235,-0.35616848182592586,"(0.0, 0.0, 0.0, 0.0, 0.0, 0.0)",0.6446495743630523,0.8399941536221102,-0.07535839886131034,"(0.0, 0.0, 0.0, 0.0, 0.0, 0.0)",0.30803921909775756,True,"(-0.029454801026993813, 0.18161377872118994, 0.023999473073439536)","(0.9935903416459124, 0.11303962197683849, -0.0005261666012481768)",-0.0005425842093103618,9.397003541966754,True,"(0.03338183247888877, 0.1800395589446055, 0.05600052692656046)","(-0.9935903416459123, -0.11303962197683981, 0.0005261666012453974)",-9.233092358517164e-05,3.9535171742598685
17,Move,"(0.0024, 0.0, 0.0009000000000000001)","(0.0, 0.021750293138353336, 0.0)","(0.004727867118271659, 0.16157530972767387, 0.04866291067211374)","(-0.006060944245642036, -3.054174101738979e-05, 0.09905682717630442)","[0.001501163598655562, 0.0026968840021052154, 0.0006058678478966587]","[-0.026750000193715096, 0.05299999937415123, 0.03999999910593033]","[0.0, -0.0, 0.5209429045933955]","[-0.06258426606655121, 0.1154492199420929, 0.03999999910593033]","[0.0, 0.0, -0.31569052791728186]","[0.026750000193715096, 0.05299999937415123, 0.03999999910593033]","[0.0, 0.0, -0.5657908376646561]","[0.06534801423549652, 0.11377987265586853, 0.03999999910593033]","[0.0, -0.0, 0.27368557485674333]",0.5199299630016962,-0.24309257279609847,"(0.0, 0.0, 0.0, 0.0, 0.0, 0.0)",-0.6412877615657648,-0.8365550659408291,0.018797557999716108,"(0.0, 0.0, 0.0, 0.0, 0.0, 0.0)",-0.35563610220469044,-0.5668682070831217,-0.2585739677548871,"(0.0, 0.0, 0.0, 0.0, 0.0, 0.0)",0.17659093146842425,0.8394194870624455,-0.013653615922805269,"(0.0, 0.0, 0.0, 0.0, 0.0, 0.0)",0.07363303472890799,True,"(-0.028647632796205594, 0.1816642138689168, 0.02399953127101568)","(0.9940829552346958, 0.10862255344469278, -0.0004679690251039761)",-0.00036063624655495924,4.729776935826826,True,"(0.03430385170597137, 0.1800181961043239, 0.05600046872898432)","(-0.9940829552346961, -0.10862255344469045, 0.00046796902510870265)",-4.508270694028795e-05,0.7755913323758531
18,Move,"(0.0047, 0.0, 0.0012)","(0.0, 0.008604473212332044, 0.0)","(0.005452459545889555, 0.16169416423587113, 0.048774256266921785)","(-0.004343915387700806, 0.0003285248105535206, 0.08573592338825803)","[0.0022257560262734575, 0.002815738510302479, 0.0007172134427047006]","[-0.026750000193715096, 0.05299999937415123, 0.03999999910593033]","[0.0, -0.0, 0.5140129326163819]","[-0.06215064227581024, 0.11569605022668839, 0.03999999910593033]","[0.0, 0.0, -0.32244958681334746]","[0.026750000193715096, 0.05299999937415123, 0.03999999910593033]","[0.0, 0.0, -0.5731717649980159]","[0.06579557061195374, 0.11349333077669144, 0.03999999910593033]","[0.0, -0.0, 0.2662080594926572]",0.5126665998757081,-0.3231208348612246,"(0.0, 0.0, 0.0, 0.0, 0.0, 0.0)",-0.4291541468088189,-0.8364549923384619,0.0018134423824578906,"(0.0, 0.0, 0.0, 0.0, 0.0, 0.0)",-0.2583584913295939,-0.5746064957399015,-0.34434556085167417,"(0.0, 0.0, 0.0, 0.0, 0.0, 0.0)",0.055434828564571915,0.8393837413023876,0.000953220268211652,"(0.0, 0.0, 0.0, 0.0, 0.0, 0.0)",0.003951529495270433,True,"(-0.02776625620468376, 0.1816697028626036, 0.02399964200601547)","(0.9961159685867337, 0.0880502669522606, -0.0003572340253148477)",-0.00025024716637020656,3.69284367918895,True,"(0.035246739865605475, 0.17997084879726932, 0.05600035799398453)","(-0.9961159685867332, -0.08805026695226756, 0.0003572340253133038)",-1.6517709761052924e-05,0.0
19,Move,"(0.009800000000000001, 0.0, 0.0016)","(0.0, 0.01676912345316152, 0.0)","(0.006547246116698251, 0.16162930247468266, 0.04868837175137251)","(0.0016599139076233988, -0.0015582528057630665, 0.07031170881990133)","[0.0033205425970821542, 0.0027508767491140063, 0.0006313289271554223]","[-0.026750000193715096, 0.05299999937415123, 0.03999999910593033]","[0.0, -0.0, 0.5039276410189195]","[-0.06151654198765755, 0.1160498782992363, 0.03999999910593033]","[0.0, 0.0, -0.3324808440991387]","[0.026750000193715096, 0.05299999937415123, 0.03999999910593033]","[0.0, 0.0, -0.5838075982048612]","[0.06643674522638321, 0.1130746379494667, 0.03999999910593033]","[0.0, -0.0, 0.2555788224460417]",0.5019032105775867,-0.4858549857912369,"(0.0, 0.0, 0.0, 0.0, 0.0, 0.0)",-0.6352690515934195,-0.8363979235959983,0.0025282108975584303,"(0.0, 0.0, 0.0, 0.0, 0.0, 0.0)",-0.3822026511528945,-0.5859353124886482,-0.5106614294521394,"(0.0, 0.0, 0.0, 0.0, 0.0, 0.0)",0.0822211435911738,0.8393860865817049,-6.254078179601663e-05,"(0.0, 0.0, 0.0, 0.0, 0.0, 0.0)",0.005875244676357629,True,"(-0.026471903735869162, 0.18167275930339305, 0.02399973871995433)","(0.9969723128444149, 0.07775692606412832, -0.00026052008645254237)",-0.00014085407238076869,4.445704355237812,True,"(0.03659607753067611, 0.17987516095732764, 0.05600026128004568)","(-0.9969723128444155, -0.07775692606412221, 0.00026052008645773255)",8.253295778248005e-05,0.0
20,Move,"(0.0143, 0.0, 0.0024)","(0.0, 0.04689525167183564, 0.0)","(0.007946853522569387, 0.16158100730174377, 0.04874319366721494)","(-0.003045987517492776, 0.0010615536227659079, 0.0490556290606125)","[0.00472015000295329, 0.002702581576175117, 0.0006861508429978555]","[-0.026750000193715096, 0.05299999937415123, 0.03999999910593033]","[0.0, -0.0, 0.49068548760351205]","[-0.06067860126495361, 0.1165047213435173, 0.03999999910593033]","[0.0, 0.0, -0.34563589919175636]","[0.026750000193715096, 0.05299999937415123, 0.03999999910593033]","[0.0, 0.0, -0.5974227282411126]","[0.06725097447633743, 0.1125287413597107, 0.03999999910593033]","[0.0, -0.0, 0.24196318597878683]",0.4881568951482956,-0.6068524891759117,"(0.0, 0.0, 0.0, 0.0, 0.0, 0.0)",-0.2671472943561044,-0.8363215110431386,-3.889351308868777e-05,"(0.0, 0.0, 0.0, 0.0, 0.0, 0.0)",-0.18805328568023064,-0.5999977691290709,-0.6180059464800296,"(0.0, 0.0, 0.0, 0.0, 0.0, 0.0)",0.09949961518322,0.839385932174841,4.117516370527596e-06,"(0.0, 0.0, 0.0, 0.0, 0.0, 0.0)",0.00710792708203329,True,"(-0.024773748300331737, 0.18166092316582155, 0.02399973871995433)","(0.9969723128444149, 0.07775692606412832, -0.00026052008645254237)",-7.431705846824346e-05,2.796243897008879,True,"(0.03832256976203705, 0.1797293619510984, 0.05600026128004568)","(-0.9969723128444155, -0.07775692606412221, 0.00026052008645773255)",0.0001504996995277916,0.0
21,Move,"(0.0181, 0.0, 0.0054)","(0.0, 0.06476916854150959, 0.0)","(0.009705621498657084, 0.16146160485956867, 0.04883029676925773)","(8.628695238772056e-05, 0.0028988623793140362, 0.03093263387253859)","[0.006478917979040986, 0.0025831791340000243, 0.0007732539450406445]","[-0.026750000193715096, 0.05299999937415123, 0.03999999910593033]","[0.0, -0.0, 0.47500997384164767]","[-0.05967900529503822, 0.11702875047922134, 0.03999999910593033]","[0.0, 0.0, -0.3612549113597342]","[0.026750000193715096, 0.05299999937415123, 0.03999999910593033]","[0.0, 0.0, -0.6130494601591396]","[0.06817623227834702, 0.11188860237598419, 0.03999999910593033]","[0.0, -0.0, 0.22633647970523474]",0.472084373040125,-0.7021320329072859,"(0.0, 0.0, 0.0, 0.0, 0.0, 0.0)",0.11286749204584975,-0.8362707373771254,-0.0014115401021984198,"(0.0, 0.0, 0.0, 0.0, 0.0, 0.0)",0.007975034635881173,-0.6159370218123442,-0.6930089991218206,"(0.0, 0.0, 0.0, 0.0, 0.0, 0.0)",0.11157206419036801,0.8393859423054759,-2.7015010941609026e-07,"(0.0, 0.0, 0.0, 0.0, 0.0, 0.0)",0.007969512351785897,True,"(-0.022760407696181623, 0.18160416623917996, 0.023996948683440485)","(0.9993920129117774, 0.03473181009642898, -0.003050556600300194)",-6.874090177345235e-05,0.0,True,"(0.04030098067067488, 0.1795445343846569, 0.05600305131655952)","(-0.9993920129117774, -0.03473181009642354, 0.0030505566002992715)",4.8617396971768756e-05,0.0
22,Move,"(0.0228, 0.0, 0.0083)","(0.0, 0.056189129938705444, 0.0)","(0.011521628832291393, 0.16159098017939869, 0.048756467591853564)","(-0.004101152788588727, 0.0018592003242421794, 0.0014431459609765434)","[0.008294925312675295, 0.002712554453830035, 0.0006994247676364793]","[-0.026750000193715096, 0.05299999937415123, 0.03999999910593033]","[0.0, -0.0, 0.45657302766751157]","[-0.05849297717213631, 0.11762494593858719, 0.03999999910593033]","[0.0, 0.0, -0.3796069498271849]","[0.026750000193715096, 0.05299999937415123, 0.03999999910593033]","[0.0, 0.0, -0.6308495699100864]","[0.06921783089637756, 0.11114192754030228, 0.03999999910593033]","[0.0, -0.0, 0.20853642929760186]",0.45310722917581725,-0.8317770191276503,"(0.0, 0.0, 0.0, 0.0, 0.0, 0.0)",-0.13933709573242647,-0.8361878339249755,-0.001899746722658002,"(0.0, 0.0, 0.0, 0.0, 0.0, 0.0)",-0.14180682175509132,-0.6341619602957977,-0.7949845980637313,"(0.0, 0.0, 0.0, 0.0, 0.0, 0.0)",0.1279848235757822,0.8393859416408049,1.7724560485987695e-08,"(0.0, 0.0, 0.0, 0.0, 0.0, 0.0)",0.009140483008210546,True,"(-0.020395457161731127, 0.1815015477456788, 0.023998275603332276)","(0.9999808707301467, 0.005940307254219319, -0.0017236367085073855)",-4.25659610692492e-05,2.0917695392594484,True,"(0.04253499179416198, 0.18038972053444927, 0.056001724396667715)","(-0.9999808707301467, -0.0059403072542098985, 0.0017236367084978168)",3.604399734651947e-05,0.0
23,Move,"(0.027100000000000003, 0.0, 0.008)","(0.0, 0.04296127953784044, 0.0)","(0.013788127710688554, 0.16146815161940276, 0.04869614116807799)","(0.00034628916348953913, -0.00038612424513551183, -0.0198751112903691)","[0.010561424191072456, 0.002589725893834105, 0.0006390983438609027]","[-0.026750000193715096, 0.05299999937415123, 0.03999999910593033]","[0.0, -0.0, 0.4353465064703051]","[-0.05711417272686958, 0.11828412860631943, 0.03999999910593033]","[0.0, 0.0, -0.4001824385032162]","[0.026750000193715096, 0.05299999937415123, 0.03999999910593033]","[0.0, 0.0, -0.6507916480050705]","[0.07036878168582916, 0.11028352379798889, 0.03999999910593033]","[0.0, -0.0, 0.18818587528593944]",0.4314163594233208,-0.9432384709556609,"(0.0, 0.0, 0.0, 0.0, 0.0, 0.0)",-0.7394808647430506,-0.8352349097937498,0.07057272091386182,"(0.0, 0.0, 0.0, 0.0, 0.0, 0.0)",-0.4726400897554821,-0.6544728478189049,-0.883504752694542,"(0.0, 0.0, 0.0, 0.0, 0.0, 0.0)",0.7406604946066062,0.8387064265144816,-0.06504603199839472,"(0.0, 0.0, 0.0, 0.0, 0.0, 0.0)",0.31469505768484923,True,"(-0.017710588585538693, 0.18135897258591166, 0.023999716420579006)","(0.9999450651025067, -0.010477919177766349, -0.00028281946177981823)",-2.3855227982721685e-05,6.190288171810472,True,"(0.045100683310460896, 0.18006505275051124, 0.056000283579421)","(-0.9999450651025067, 0.010477919177771933, 0.0002828194617814683)",-8.135717288271955e-06,3.747973649788405
24,Move,"(0.0287, 0.0, 0.009300000000000001)","(0.0, 0.05152386484812462, 0.0)","(0.016202700290748273, 0.16110497271359922, 0.04872398789986325)","(-0.0013867165161501412, -0.00018978376715562796, -0.032115201264007034)","[0.012975996771132176, 0.00222654698803057, 0.0006669450756461651]","[-0.026750000193715096, 0.05299999937415123, 0.03999999910593033]","[0.0, -0.0, 0.41353169366459397]","[-0.05568290129303932, 0.11893092840909958, 0.03999999910593033]","[0.0, 0.0, -0.41977644826324767]","[0.026750000193715096, 0.05299999937415123, 0.03999999910593033]","[0.0, 0.0, -0.6707970732949695]","[0.07150595635175705, 0.10939950495958328, 0.03999999910593033]","[0.0, -0.0, 0.16639379189428824]",0.40967298789854845,-0.9260902469664787,"(0.0, 0.0, 0.0, 0.0, 0.0, 0.0)",-1.3879866997251658,-0.832925693216848,0.09178921700339288,"(0.0, 0.0, 0.0, 0.0, 0.0, 0.0)",-0.7657303119420412,-0.6742969714970297,-0.8399959560165334,"(0.0, 0.0, 0.0, 0.0, 0.0, 0.0)",1.4409707844655697,0.8367418580785791,-0.10774099925047718,"(0.0, 0.0, 0.0, 0.0, 0.0, 0.0)",0.6900256235942022,True,"(-0.015050810177503364, 0.18122904912058904, 0.023999800830508695)","(0.9995121773563165, -0.031230881353122478, -0.00019840953208887196)",-2.5969024597604615e-05,7.28006794570642,True,"(0.04776405820490022, 0.17970500999225286, 0.0560001991694913)","(-0.9995121773563167, 0.031230881353123144, 0.00019840953208708566)",-2.2557398710796703e-05,6.297269197141149
25,Move,"(0.0319, 0.0, 0.0108)","(0.0, 0.04296127953784044, 0.0)","(0.018808514500911706, 0.16079960240622504, 0.048744513425075006)","(-0.000394014771070108, -2.268335077992021e-06, -0.03674344638406283)","[0.015581810981295609, 0.001921176680656389, 0.0006874706008579215]","[-0.026750000193715096, 0.05299999937415123, 0.03999999910593033]","[0.0, -0.0, 0.3909477545742983]","[-0.05418666452169418, 0.11956748366355896, 0.03999999910593033]","[0.0, 0.0, -0.4392266994185417]","[0.026750000193715096, 0.05299999937415123, 0.03999999910593033]","[0.0, 0.0, -0.6906491368293118]","[0.07261671870946884, 0.10849995166063309, 0.03999999910593033]","[0.0, -0.0, 0.14399144049850754]",0.3868380911124494,-0.9863033589433653,"(0.0, 0.0, 0.0, 0.0, 0.0, 0.0)",-1.6780088961449973,-0.8296063054161698,0.13633596033359124,"(0.0, 0.0, 0.0, 0.0, 0.0, 0.0)",-0.9140189632988809,-0.6942111786907394,-0.854875807976712,"(0.0, 0.0, 0.0, 0.0, 0.0, 0.0)",2.065666979863024,0.8339956578583546,-0.1548004271890987,"(0.0, 0.0, 0.0, 0.0, 0.0, 0.0)",1.0266588087261124,True,"(-0.012349975217308629, 0.18107855542247245, 0.023999739505868277)","(0.9993634762409749, -0.035673167699461335, -0.00025973417250805755)",-4.897926971721463e-05,12.75937371583499,True,"(0.05040025434236689, 0.17820751174607619, 0.056000260494131725)","(-0.9993634762409752, 0.035673167699456755, 0.00025973417250644345)",-2.0625780593004138e-05,13.81222534665313
26,Move,"(0.0365, 0.0, 0.0108)","(0.0, 0.008604473212332044, 0.0)","(0.021627172703342436, 0.16044459860156637, 0.04876138835716313)","(0.0005987757350299607, -0.0008988147764418229, -0.04176348312838907)","[0.01840046918372634, 0.0015661728759977234, 0.0007043455329460435]","[-0.026750000193715096, 0.05299999937415123, 0.03999999910593033]","[0.0, -0.0, 0.3662205372496815]","[-0.05253241956233978, 0.12022548913955688, 0.03999999910593033]","[0.0, 0.0, -0.4597126005282485]","[0.026750000193715096, 0.05299999937415123, 0.03999999910593033]","[0.0, 0.0, -0.711517037076743]","[0.07376480847597122, 0.10753080248832703, 0.03999999910593033]","[0.0, -0.0, 0.11915716021865805]",0.361664054577001,-1.0935573980396958,"(0.0, 0.0, 0.0, 0.0, 0.0, 0.0)",-2.7929180843937744,-0.825138464052927,0.1907213423424127,"(0.0, 0.0, 0.0, 0.0, 0.0, 0.0)",-1.4880003212487067,-0.7153201097906947,-0.9127603475908149,"(0.0, 0.0, 0.0, 0.0, 0.0, 0.0)",2.421548552562585,0.8298049779915022,-0.20859175466383217,"(0.0, 0.0, 0.0, 0.0, 0.0, 0.0)",1.2376517560187072,True,"(-0.009443885012335625, 0.18087867489294915, 0.02399991105295844)","(0.9992013542883436, -0.03995805064537609, -8.818708234312006e-05)",-5.779682406347103e-05,20.45436221996046,True,"(0.053285345981108706, 0.17775328122321543, 0.056000088947041574)","(-0.9992013542883437, 0.03995805064537307, 8.818708235032892e-05)",6.651713601313242e-06,12.668115475684804
27,Move,"(0.0394, 0.0, 0.0114)","(0.0, 0.004461061568097505, 0.0)","(0.02448420854906406, 0.16010785807561298, 0.048755107210710316)","(0.0008326825216698548, -0.0008830794276302973, -0.04659763891311413)","[0.02125750502944796, 0.0012294323500443294, 0.0006980643864932315]","[-0.026750000193715096, 0.05299999937415123, 0.03999999910593033]","[0.0, -0.0, 0.3404078191610941]","[-0.050788749009370804, 0.12086854130029678, 0.03999999910593033]","[0.0, 0.0, -0.4801724009707806]","[0.026750000193715096, 0.05299999937415123, 0.03999999910593033]","[0.0, 0.0, -0.7324512971786827]","[0.07489599287509918, 0.1065346971154213, 0.03999999910593033]","[0.0, -0.0, 0.09336054638069151]",0.335788062680943,-1.1087380344073854,"(0.0, 0.0, 0.0, 0.0, 0.0, 0.0)",-3.0841444944961913,-0.8197398351803619,0.20168148836078348,"(0.0, 0.0, 0.0, 0.0, 0.0, 0.0)",-1.58005509719532,-0.7361455672469719,-0.8866112692018983,"(0.0, 0.0, 0.0, 0.0, 0.0, 0.0)",3.0406425300565423,0.8248199613394295,-0.23806568927969113,"(0.0, 0.0, 0.0, 0.0, 0.0, 0.0)",1.6412988017558512,True,"(-0.0064683688157302355, 0.18062750634454233, 0.02399991105295844)","(0.9992013542883436, -0.03995805064537609, -8.818708234312006e-05)",-7.310364751843637e-05,23.91003860760144,True,"(0.05623464670565745, 0.17726205541671994, 0.056000088947041574)","(-0.9992013542883437, 0.03995805064537307, 8.818708235032892e-05)",1.944760269191882e-05,17.932114740549903
28,Move,"(0.0445, 0.0, 0.0115)","(0.0, 0.01301142957361773, 0.0)","(0.027492321068221817, 0.1596953281602445, 0.04880659570079257)","(-0.0005582133542918016, -0.00047364372840496654, -0.052767705548258735)","[0.02426561754860572, 0.0008169024346758591, 0.0007495528765754864]","[-0.026750000193715096, 0.05299999937415123, 0.03999999910593033]","[0.0, -0.0, 0.31277098514837864]","[-0.048904139548540115, 0.12150689214468002, 0.03999999910593033]","[0.0, 0.0, -0.5012934570276769]","[0.026750000193715096, 0.05299999937415123, 0.03999999910593033]","[0.0, 0.0, -0.7539195496664086]","[0.07603409886360168, 0.1054888367652893, 0.03999999910593033]","[0.0, -0.0, 0.06593853649698428]",0.3076971784233284,-1.2177141899008157,"(0.0, 0.0, 0.0, 0.0, 0.0, 0.0)",-4.217093153608808,-0.8128010436306601,0.3032156261450327,"(0.0, 0.0, 0.0, 0.0, 0.0, 0.0)",-2.1352223061941564,-0.7578021128778579,-0.9318276520686077,"(0.0, 0.0, 0.0, 0.0, 0.0, 0.0)",3.6102342627760238,0.8188150001699624,-0.2503272940031381,"(0.0, 0.0, 0.0, 0.0, 0.0, 0.0)",1.9204083407414023,True,"(-0.0033315624061376614, 0.1803165055195038, 0.02399991105295844)","(0.9992013542883436, -0.03995805064537609, -8.818708234312006e-05)",-0.00011280269879761143,34.08802503634351,True,"(0.059319014210050855, 0.17670127052846377, 0.056000088947041574)","(-0.9992013542883437, 0.03995805064537307, 8.818708235032892e-05)",1.8646211685160307e-05,23.92473745711894
29,Move,"(0.048600000000000004, 0.0, 0.009800000000000001)","(0.0, 0.05170537909033201, 0.0)","(0.03061731270833165, 0.15921359073674063, 0.04880399076345127)","(-0.00039701184289686077, -0.0005634004564632895, -0.05763132073356189)","[0.027390609188715553, 0.0003351650111719784, 0.0007469479392341882]","[-0.026750000193715096, 0.05299999937415123, 0.03999999910593033]","[0.0, -0.0, 0.2835189619405992]","[-0.0468909814953804, 0.122125543653965, 0.03999999910593033]","[0.0, 0.0, -0.5226475154588718]","[0.026750000193715096, 0.05299999937415123, 0.03999999910593033]","[0.0, 0.0, -0.7755892201463681]","[0.07715985924005508, 0.1044086217880249, 0.03999999910593033]","[0.0, -0.0, 0.036884658874122615]",0.2782505518809117,-1.2644174832726154,"(0.0, 0.0, 0.0, 0.0, 0.0, 0.0)",-5.110115788121282,-0.8045948926408502,0.3771772855041751,"(0.0, 0.0, 0.0, 0.0, 0.0, 0.0)",-2.5454156916306587,-0.7794271529870047,-0.9210917662231485,"(0.0, 0.0, 0.0, 0.0, 0.0, 0.0)",4.330863075305119,0.8111866824296992,-0.30893913351182084,"(0.0, 0.0, 0.0, 0.0, 0.0, 0.0)",2.367558317145276,True,"(-7.306674367689447e-05, 0.17994866551649286, 0.02399991105295844)","(0.9992013542883436, -0.03995805064537609, -8.818708234312006e-05)",-0.0001504268600193656,40.70726342194266,True,"(0.0625205358515152, 0.17607657110413244, 0.056000088947041574)","(-0.9992013542883437, 0.03995805064537307, 8.818708235032892e-05)",1.9328425908031833e-05,28.4628852170614
30,Move,"(0.0514, 0.0, 0.009800000000000001)","(0.0, 0.05170537909033201, 0.0)","(0.03371015397686383, 0.15868596795547463, 0.04882723647322335)","(-0.00033728588315104757, -0.0009653831408463509, -0.06241964990896791)","[0.030483450457247735, -0.00019245777009402332, 0.0007701936490062677]","[-0.026750000193715096, 0.05299999937415123, 0.03999999910593033]","[0.0, -0.0, 0.253881416221612]","[-0.044833723455667496, 0.12269202619791031, 0.03999999910593033]","[0.0, 0.0, -0.543239136018423]","[0.026750000193715096, 0.05299999937415123, 0.03999999910593033]","[0.0, 0.0, -0.796549660675428]","[0.0782262533903122, 0.10334079712629318, 0.03999999910593033]","[0.0, -0.0, 0.007269960176072064]",0.24861022501972752,-1.265087536592485,"(0.0, 0.0, 0.0, 0.0, 0.0, 0.0)",-5.719627544338027,-0.7953687817215375,0.42042012192140193,"(0.0, 0.0, 0.0, 0.0, 0.0, 0.0)",-2.8088569695411216,-0.8002162634368278,-0.8799886216098967,"(0.0, 0.0, 0.0, 0.0, 0.0, 0.0)",4.894315919091556,0.8023306510615577,-0.3573487185431935,"(0.0, 0.0, 0.0, 0.0, 0.0, 0.0)",2.701969555413256,True,"(0.0031648503974970946, 0.1795389037818989, 0.02399991105295844)","(0.9992013542883436, -0.03995805064537609, -8.818708234312006e-05)",-0.0001781339411198732,44.81275481190661,True,"(0.06571546140901383, 0.17541079713633134, 0.056000088947041574)","(-0.9992013542883437, 0.03995805064537307, 8.818708235032892e-05)",3.4746663968096394e-05,30.106407520310924
31,Move,"(0.0535, 0.0, 0.0103)","(0.0, 0.047453757032473835, 0.0)","(0.03671095993016501, 0.15813347865298763, 0.04884495251046498)","(-0.00022010246660595446, -0.0011752456600424169, -0.06678813563384747)","[0.03348425641054891, -0.0007449470725810203, 0.0007879096862478951]","[-0.026750000193715096, 0.05299999937415123, 0.03999999910593033]","[0.0, -0.0, 0.22462499209024142]","[-0.0427873358130455, 0.12319119274616241, 0.03999999910593033]","[0.0, 0.0, -0.5626795804701921]","[0.026750000193715096, 0.05299999937415123, 0.03999999910593033]","[0.0, 0.0, -0.816272661578335]","[0.07920904457569122, 0.10231580585241318, 0.03999999910593033]","[0.0, 0.0, -0.02206517678351155]",0.2194599861100637,-1.239596432746216,"(0.0, 0.0, 0.0, 0.0, 0.0, 0.0)",-6.222278084201287,-0.7854123734969849,0.4541152120999814,"(0.0, 0.0, 0.0, 0.0, 0.0, 0.0)",-3.018739315381884,-0.8196947229022891,-0.8213152780366029,"(0.0, 0.0, 0.0, 0.0, 0.0, 0.0)",5.311974149985541,0.7925550977078948,-0.39655230312326584,"(0.0, 0.0, 0.0, 0.0, 0.0, 0.0)",2.9612935440317063,True,"(0.006307228627916231, 0.17909427357539132, 0.02399991105295844)","(0.9992013542883436, -0.03995805064537609, -8.818708234312006e-05)",-0.00020383318146717755,48.130219348381395,True,"(0.06881751631733943, 0.17472175494477216, 0.056000088947041574)","(-0.9992013542883437, 0.03995805064537307, 8.818708235032892e-05)",4.485013490860746e-05,31.668922391981983
32,Move,"(0.056100000000000004, 0.0, 0.008400000000000001)","(0.0, 0.07341029366813348, 0.0)","(0.039663483538720234, 0.15755586417512565, 0.04886162081691647)","(-0.0005720500795169623, -0.0017169632404544532, -0.07093727216886148)","[0.03643678001910414, -0.0013225615504429966, 0.0008045779926993887]","[-0.026750000193715096, 0.05299999937415123, 0.03999999910593033]","[0.0, -0.0, 0.19565354509514202]","[-0.040747351944446564, 0.12362629920244217, 0.03999999910593033]","[0.0, 0.0, -0.5809870564100169]","[0.026750000193715096, 0.05299999937415123, 0.03999999910593033]","[0.0, 0.0, -0.8347765396323186]","[0.08011254668235779, 0.10133671760559082, 0.03999999910593033]","[0.0, 0.0, -0.05123709533513614]",0.19049059459271403,-1.239105126393437,"(0.0, 0.0, 0.0, 0.0, 0.0, 0.0)",-6.2485971966496665,-0.7748147559302533,0.43818254626268205,"(0.0, 0.0, 0.0, 0.0, 0.0, 0.0)",-3.000950473093165,-0.8380167197237379,-0.7776528825369035,"(0.0, 0.0, 0.0, 0.0, 0.0, 0.0)",6.460422255968947,0.7813679862630626,-0.5211408419285517,"(0.0, 0.0, 0.0, 0.0, 0.0, 0.0)",3.6243859431078946,True,"(0.00936237173287803, 0.17862126466447104, 0.02399991105295844)","(0.9992013542883436, -0.03995805064537609, -8.818708234312006e-05)",-0.00022534245755350752,44.062295953531624,True,"(0.07183736151103275, 0.1740149609000567, 0.056000088947041574)","(-0.9992013542883437, 0.03995805064537307, 8.818708235032892e-05)",5.482182127159127e-05,35.48230605964557
33,Move,"(0.0588, 0.0, 0.006900000000000001)","(0.0, 0.08614596121993615, 0.0)","(0.042352097979324196, 0.15693866361764236, 0.04886881497297989)","(0.0005127943677254006, -0.0014922539302569138, -0.08257087037435396)","[0.0391253944597081, -0.0019397621079262906, 0.000811772148762803]","[-0.026750000193715096, 0.05299999937415123, 0.03999999910593033]","[0.0, -0.0, 0.1667270436508654]","[-0.03869880735874176, 0.12400159239768982, 0.03999999910593033]","[0.0, 0.0, -0.5974086262496561]","[0.026750000193715096, 0.05299999937415123, 0.03999999910593033]","[0.0, 0.0, -0.8523015966603251]","[0.08095141500234604, 0.10039416700601578, 0.03999999910593033]","[0.0, 0.0, -0.08052406075921097]",0.16157529516486982,-1.2364173593198333,"(0.0, 0.0, 0.0, 0.0, 0.0, 0.0)",-8.155001765359264,-0.7613655038450332,0.6648529406369449,"(0.0, 0.0, 0.0, 0.0, 0.0, 0.0)",-4.186518804225678,-0.8553829054893876,-0.7395254986089711,"(0.0, 0.0, 0.0, 0.0, 0.0, 0.0)",6.654781500567842,0.7698967352029521,-0.4513814017208418,"(0.0, 0.0, 0.0, 0.0, 0.0, 0.0)",3.054194651806002,True,"(0.01230722818639575, 0.1781662912819027, 0.02399991105295844)","(0.9992013542883436, -0.03995805064537609, -8.818708234312006e-05)",-0.000216300213599652,58.631627051028495,True,"(0.07480799674403242, 0.17328355852913285, 0.056000088947041574)","(-0.9992013542883437, 0.03995805064537307, 8.818708235032892e-05)",9.918223157557881e-05,26.143373506270965
34,Move,"(0.0599, 0.0, 0.0064)","(0.0, 0.08164301174979079, 0.0)","(0.04460365043055225, 0.1563005763631519, 0.048917161095665025)","(-0.0005125345640005066, -0.0017974022382115603, -0.110530951181747)","[0.04137694691093615, -0.0025778493624167564, 0.0008601182714479405]","[-0.026750000193715096, 0.05299999937415123, 0.03999999910593033]","[0.0, -0.0, 0.13851649887091272]","[-0.0366913266479969, 0.12431038171052933, 0.03999999910593033]","[0.0, 0.0, -0.6105504777727927]","[0.026750000193715096, 0.05299999937415123, 0.03999999910593033]","[0.0, 0.0, -0.8684644954201105]","[0.0817103311419487, 0.09951195865869522, 0.03999999910593033]","[0.0, 0.0, -0.10816914618193683]",0.13356072127050506,-1.1893870194873266,"(0.0, 0.0, 0.0, 0.0, 0.0, 0.0)",-8.072043669325794,-0.746449403446404,0.6282042913134982,"(0.0, 0.0, 0.0, 0.0, 0.0, 0.0)",-4.1121995019390045,-0.871229272580713,-0.6635488105818277,"(0.0, 0.0, 0.0, 0.0, 0.0, 0.0)",6.907696378379697,0.75823939719892,-0.49342904253414294,"(0.0, 0.0, 0.0, 0.0, 0.0, 0.0)",3.2505736373593828,True,"(0.01502210259006357, 0.17780011246443078, 0.02399991105295844)","(0.9992013542883436, -0.03995805064537609, -8.818708234312006e-05)",-5.706488163549902e-05,56.55797894146722,True,"(0.07758403621098814, 0.1725433146451284, 0.056000088947041574)","(-0.9992013542883437, 0.03995805064537307, 8.818708235032892e-05)",0.00013561108214900827,21.803797169221394
35,Move,"(0.0606, 0.0, 0.0060999999999999995)","(0.0, 0.0730751904517506, 0.0)","(0.04681173892592806, 0.15572808830129262, 0.04887512451089113)","(-0.00046993645243756827, 0.002261130787114523, -0.14413706775486124)","[0.043585035406311964, -0.003150337424276034, 0.0008180816866740423]","[-0.026750000193715096, 0.05299999937415123, 0.03999999910593033]","[0.0, -0.0, 0.11075087019439998]","[-0.03470776975154877, 0.12455888092517853, 0.03999999910593033]","[0.0, 0.0, -0.6263056181345125]","[0.026750000193715096, 0.05299999937415123, 0.03999999910593033]","[0.0, 0.0, -0.8827687578746094]","[0.08236999064683914, 0.09872107207775116, 0.03999999910593033]","[0.0, 0.0, -0.131872224813721]",0.1059455609556603,-1.1532711350917886,"(0.0, 0.0, 0.0, 0.0, 0.0, 0.0)",-10.015835722446718,-0.7334584784470776,0.8635161554846988,"(0.0, 0.0, 0.0, 0.0, 0.0, 0.0)",-5.111461111309325,-0.8852707863936523,-0.6005348113056155,"(0.0, 0.0, 0.0, 0.0, 0.0, 0.0)",7.623163333886999,0.7484119322480824,-0.5962586343004583,"(0.0, 0.0, 0.0, 0.0, 0.0, 0.0)",3.5540535330535534,True,"(0.01785558231856449, 0.17730645303680262, 0.056001845914687404)","(0.9925698522159367, -0.12166217109710983, 0.0018451547281794376)",-8.50304753424301e-05,66.7336420746575,True,"(0.07331845147895315, 0.12174212787807723, 0.023998155146366017)","(-0.9923284103671188, 0.12361603980384556, -0.00184409367475773)",-7.598631669078403e-05,17.514106031296503
36,Move,"(0.060200000000000004, 0.0, 0.004)","(0.0, 0.08614596121993615, 0.0)","(0.04865111349967916, 0.155874298834612, 0.04881433605011604)","(-0.0003126500580243106, -0.0017693473717352373, -0.16950795227809642)","[0.045424409980063064, -0.0030041268909566377, 0.0007572932258989584]","[-0.026750000193715096, 0.05299999937415123, 0.03999999910593033]","[0.0, -0.0, 0.08457022458241562]","[-0.03283179923892021, 0.12474267929792404, 0.03999999910593033]","[0.0, 0.0, -0.6323752430491197]","[0.026750000193715096, 0.05299999937415123, 0.03999999910593033]","[0.0, 0.0, -0.8953230669352203]","[0.08293960243463516, 0.09801920503377914, 0.03999999910593033]","[0.0, 0.0, -0.15831796043589472]",0.07984200401077006,-1.13477040691883,"(0.0, 0.0, 0.0, 0.0, 0.0, 0.0)",-7.825541014433282,-0.7159248833902839,0.24494246562858113,"(0.0, 0.0, 0.0, 0.0, 0.0, 0.0)",-3.8755678400334155,-0.8973267941699882,-0.4808985248519282,"(0.0, 0.0, 0.0, 0.0, 0.0, 0.0)",7.822670817507063,0.7352228716508075,-0.42773334799667495,"(0.0, 0.0, 0.0, 0.0, 0.0, 0.0)",3.733879515890603,True,"(0.020046920358531756, 0.17714487420365457, 0.023995395688421753)","(0.9868860076378078, -0.16135307633013943, -0.004603551619030983)",-0.00014185598291272902,59.51924264318608,True,"(0.07449996101307477, 0.12127155942905157, 0.023998155146366017)","(-0.9923284103671188, 0.12361603980384556, -0.00184409367475773)",4.5964461569029534e-05,18.986509058555715
37,Move,"(0.06470000000000001, 0.0, 0.001)","(0.0, 0.11190003966236446, 0.0)","(0.05058897631803041, 0.15514223693505919, 0.04897093966311325)","(-0.0007256434446198472, -0.006469769544324175, -0.1944085471050205)","[0.04736227279841431, -0.003736188790509465, 0.0009138968388961652]","[-0.026750000193715096, 0.05299999937415123, 0.03999999910593033]","[0.0, -0.0, 0.05604833629240481]","[-0.03078336827456951, 0.12488693743944168, 0.03999999910593033]","[0.0, 0.0, -0.6407286043694828]","[0.026750000193715096, 0.05299999937415123, 0.03999999910593033]","[0.0, 0.0, -0.9082148245834578]","[0.08351529389619827, 0.09729109704494476, 0.03999999910593033]","[0.0, 0.0, -0.1864421432089955]",0.05075674323084136,-1.2699824885869868,"(0.0, 0.0, 0.0, 0.0, 0.0, 0.0)",-13.24911615186056,-0.692588112962756,1.0053121262544946,"(0.0, 0.0, 0.0, 0.0, 0.0, 0.0)",-6.757643692847555,-0.9106039190690698,-0.5733789055049777,"(0.0, 0.0, 0.0, 0.0, 0.0, 0.0)",10.134024658991622,0.7190235155479798,-0.6598043296358496,"(0.0, 0.0, 0.0, 0.0, 0.0, 0.0)",4.584048623987817,True,"(0.02253123437469419, 0.17684560012492137, 0.023995395688421753)","(0.9868860076378078, -0.16135307633013943, -0.004603551619030983)",1.7102720828590553e-05,83.22453436145375,True,"(0.07573285863976026, 0.12077158529069609, 0.023998155146366017)","(-0.9923284103671188, 0.12361603980384556, -0.00184409367475773)",7.7533528416994e-05,27.804289783150438
38,Move,"(0.0683, 0.0, 0.0011)","(0.0, 0.11190003966236446, 0.0)","(0.052940414169626505, 0.15459681192617633, 0.048906412609828274)","(0.0006807913843861793, -0.003868365622749901, -0.21671120644548408)","[0.04971371065001041, -0.00428161379939232, 0.0008493697856111898]","[-0.026750000193715096, 0.05299999937415123, 0.03999999910593033]","[0.0, -0.0, 0.024493894701693258]","[-0.028513384982943535, 0.12497840076684952, 0.03999999910593033]","[0.0, 0.0, -0.6480927929987746]","[0.026750000193715096, 0.05299999937415123, 0.03999999910593033]","[0.0, 0.0, -0.9219001954829725]","[0.08411610126495361, 0.09651011973619461, 0.03999999910593033]","[0.0, 0.0, -0.21827235247622956]",0.018685596552790885,-1.3939916977702227,"(0.0, 0.0, 0.0, 0.0, 0.0, 0.0)",-12.886420758283316,-0.6684042691584271,1.0037830585414926,"(0.0, 0.0, 0.0, 0.0, 0.0, 0.0)",-6.688628600981342,-0.9243275045082194,-0.5825520256263987,"(0.0, 0.0, 0.0, 0.0, 0.0, 0.0)",10.999009892053165,0.7006646634349767,-0.7111631006343505,"(0.0, 0.0, 0.0, 0.0, 0.0, 0.0)",4.873273953650607,True,"(0.02518240422421429, 0.17654303817921993, 0.023995395688421753)","(0.9868860076378078, -0.16135307633013943, -0.004603551619030983)",3.750023323450468e-05,84.07100273365236,True,"(0.08799158038910351, 0.16939856382665638, 0.02399352951563154)","(-0.9811415670978606, 0.19318221444745548, -0.00646972440923789)",5.227715857221974e-05,61.019859783470274
39,Move,"(0.0678, 0.0, 0.0021000000000000003)","(0.0, 0.1033252370473163, 0.0)","(0.05548751532565874, 0.15394298882732926, 0.04857896950556524)","(-0.0018524766324533833, 0.011745918378924821, -0.259456636780711)","[0.05226081180604264, -0.004935436898239387, 0.0005219266813481574]","[-0.026750000193715096, 0.05299999937415123, 0.03999999910593033]","[0.0, 0.0, -0.0070584943170358995]","[-0.026241792365908623, 0.12499820441007614, 0.03999999910593033]","[0.0, 0.0, -0.6602503027594963]","[0.026750000193715096, 0.05299999937415123, 0.03999999910593033]","[0.0, 0.0, -0.9337109565567792]","[0.0846259742975235, 0.0958295688033104, 0.03999999910593033]","[0.0, 0.0, -0.24476884213184874]",-0.012881877602896871,-1.3976120541161743,"(0.0, 0.0, 0.0, 0.0, 0.0, 0.0)",-4.41620836090184,-0.6547073489329223,-0.3637191872444798,"(0.0, 0.0, 0.0, 0.0, 0.0, 0.0)",-2.4024647985849397,-0.9353386223718044,-0.39063443804145126,"(0.0, 0.0, 0.0, 0.0, 0.0, 0.0)",2.8348372538155164,0.6901373957090431,0.2868708844302788,"(0.0, 0.0, 0.0, 0.0, 0.0, 0.0)",0.6094463643830503,True,"(0.02806603118094244, 0.1758564656039402, 0.056000638237571725)","(0.9724603474936504, -0.23306751419883145, 0.0006374776124968163)",-0.00010867962768648728,17.488578927064477,True,"(0.0778287488155075, 0.118135139691542, 0.02399936176242828)","(-0.9724603474936517, 0.23306751419882452, -0.000637477612496433)",-0.0003043977923841129,0.0
40,Move,"(0.0684, 0.0, 0.0012)","(0.0, 0.11190003966236446, 0.0)","(0.05698695224864528, 0.15414909044005076, 0.04853295423129048)","(-0.00897463880599402, -0.010850546739690483, -0.29635419627543563)","[0.05376024872902918, -0.004729335285517888, 0.0004759114070733983]","[-0.026750000193715096, 0.05299999937415123, 0.03999999910593033]","[0.0, 0.0, -0.03829834217501205]","[-0.023993194103240967, 0.1249472051858902, 0.03999999910593033]","[0.0, 0.0, -0.6724025520356139]","[0.026750000193715096, 0.05299999937415123, 0.03999999910593033]","[0.0, 0.0, -0.943548258893527]","[0.0850444957613945, 0.09525816142559052, 0.03999999910593033]","[0.0, 0.0, -0.2683754841879069]",-0.043649006656843646,-1.284159449198798,"(0.0, 0.0, 0.0, 0.0, 0.0, 0.0)",-20.307178679810384,-0.6277409264358201,1.527183739651647,"(0.0, 0.0, 0.0, 0.0, 0.0, 0.0)",-10.03219543483225,-0.9453680792319702,-0.43675648038681936,"(0.0, 0.0, 0.0, 0.0, 0.0, 0.0)",12.839916812107012,0.6717045243505967,-0.8323874744052528,"(0.0, 0.0, 0.0, 0.0, 0.0, 0.0)",5.486601917585579,True,"(0.03091964627619384, 0.1751092770949073, 0.023995450399553933)","(0.9602933483257481, -0.2789551813670948, -0.004548840486847362)",-0.00043653242793503273,134.39395640279838,True,"(0.07877567134962951, 0.11771796375521536, 0.02399936176242828)","(-0.9724603474936517, 0.23306751419882452, -0.000637477612496433)",6.565682013375104e-05,49.226981900363235
41,Move,"(0.0689, 0.0, 0.0008)","(0.0, 0.12046437030190062, 0.0)","(0.058876824548869555, 0.15352347793672796, 0.048479271644183274)","(0.001155027310741834, -0.01005389782657044, -0.3079928466444499)","[0.05565012102925346, -0.005354947788840686, 0.0004222288199661889]","[-0.026750000193715096, 0.05299999937415123, 0.03999999910593033]","[0.0, 0.0, -0.06959125336873133]","[-0.021743472665548325, 0.12482572346925735, 0.03999999910593033]","[0.0, 0.0, -0.6716488870168505]","[0.026750000193715096, 0.05299999937415123, 0.03999999910593033]","[0.0, 0.0, -0.9529747205735749]","[0.0854402408003807, 0.09470677375793457, 0.03999999910593033]","[0.0, 0.0, -0.30047395092767953]",-0.07522230323662245,-1.3514524665783403,"(0.0, 0.0, 0.0, 0.0, 0.0, 0.0)",-21.033139173817585,-0.5955201666437214,1.568996459039214,"(0.0, 0.0, 0.0, 0.0, 0.0, 0.0)",-10.340910320636388,-0.9546934539529007,-0.4124845756004765,"(0.0, 0.0, 0.0, 0.0, 0.0, 0.0)",15.367000804754772,0.6488351324504403,-0.8797647996459956,"(0.0, 0.0, 0.0, 0.0, 0.0, 0.0)",6.529429051247492,True,"(0.03313154714197469, 0.17502916831546816, 0.023995450399553933)","(0.9602933483257481, -0.2789551813670948, -0.004548840486847362)",-0.0004246194774768829,151.4954780420714,True,"(0.0952881421958966, 0.16703298710395048, 0.0239889058738281)","(-0.9536333750187438, 0.3007662269544755, -0.011093366212676894)",-0.0007496943305421313,79.61283510532864
42,Move,"(0.0695, 0.0, 0.0002)","(0.0, 0.1251278900632295, 0.0)","(0.060643047334000354, 0.15342544096559405, 0.04856211912944299)","(-0.0006283776586451913, -0.006328690836612791, -0.32655720126995474)","[0.057416343814384256, -0.005452984759974605, 0.0005050763052259072]","[-0.026750000193715096, 0.05299999937415123, 0.03999999910593033]","[0.0, 0.0, -0.10099626743351908]","[-0.019490623846650124, 0.12463310360908508, 0.03999999910593033]","[0.0, 0.0, -0.6656148454287343]","[0.026750000193715096, 0.05299999937415123, 0.03999999910593033]","[0.0, 0.0, -0.961810278730152]","[0.0858064517378807, 0.09418659657239914, 0.03999999910593033]","[0.0, 0.0, -0.33129013479000846]",-0.10657318301246982,-1.3384580992880986,"(0.0, 0.0, 0.0, 0.0, 0.0, 0.0)",-20.982400238405884,-0.5580970222872514,1.565169022303874,"(0.0, 0.0, 0.0, 0.0, 0.0, 0.0)",-10.731346771304771,-0.9633088089112014,-0.35965129270716234,"(0.0, 0.0, 0.0, 0.0, 0.0, 0.0)",16.38500275924949,0.626463975291868,-0.9734781687037307,"(0.0, 0.0, 0.0, 0.0, 0.0, 0.0)",6.794701544058787,True,"(0.03508046798887597, 0.175166750709274, 0.023995450399553933)","(0.9602933483257481, -0.2789551813670948, -0.004548840486847362)",-0.0004072281032475864,145.76571010326273,True,"(0.09787716987641544, 0.16617230131640354, 0.02398994551158946)","(-0.9528957888326826, 0.3031312226893939, -0.010053728451315217)",-3.097502786584432e-05,80.40004420680971
43,Move,"(0.0695, 0.0, 0.0009000000000000001)","(0.0, 0.11257024609513026, 0.0)","(0.06269940379733661, 0.15325314758515937, 0.048412474139364677)","(0.0008427019491887392, 0.00820351578228021, -0.3534607433960251)","[0.05947270027772052, -0.005625278140409279, 0.00035543131514759185]","[-0.026750000193715096, 0.05299999937415123, 0.03999999910593033]","[0.0, 0.0, -0.13234369014481476]","[-0.01724904775619507, 0.12437038868665695, 0.03999999910593033]","[0.0, 0.0, -0.6620674583462238]","[0.026750000193715096, 0.05299999937415123, 0.03999999910593033]","[0.0, 0.0, -0.9694864918306304]","[0.0861208587884903, 0.09373205900192261, 0.03999999910593033]","[0.0, 0.0, -0.3600233477535834]",-0.13809012306439572,-1.379148327582565,"(0.0, 0.0, 0.0, 0.0, 0.0, 0.0)",-13.373699978601175,-0.527222934014868,0.6002155089322263,"(0.0, 0.0, 0.0, 0.0, 0.0, 0.0)",-6.777238309919865,-0.9705673351374039,-0.25941613327799096,"(0.0, 0.0, 0.0, 0.0, 0.0, 0.0)",10.923274442395972,0.6063297641136184,-0.7520130955803171,"(0.0, 0.0, 0.0, 0.0, 0.0, 0.0)",5.47247494607107,True,"(0.03711991961172535, 0.17502769301940746, 0.056003647348164834)","(0.9395053022340787, -0.3425149478030283, 0.0036465882056038565)",-0.0004472328883003784,97.31400217256014,True,"(0.10025469165426046, 0.16534126920427544, 0.02398994551158946)","(-0.9528957888326826, 0.3031312226893939, -0.010053728451315217)",0.00010525958116275521,47.19144998943187
44,Move,"(0.0704, 0.0, 0.0009000000000000001)","(0.0, 0.10792941561407735, 0.0)","(0.06469442445886063, 0.1535806585518217, 0.04876516900739542)","(-0.0015030746938083013, 0.01374173642318827, -0.3899444522691467)","[0.06146772093924453, -0.005297767173746942, 0.000708126183178337]","[-0.026750000193715096, 0.05299999937415123, 0.03999999910593033]","[0.0, 0.0, -0.1642188763680502]","[-0.014979313127696514, 0.12403133511543274, 0.03999999910593033]","[0.0, 0.0, -0.6596811863360086]","[0.026750000193715096, 0.05299999937415123, 0.03999999910593033]","[0.0, 0.0, -0.976374601000849]","[0.08640000969171524, 0.09332215785980225, 0.03999999910593033]","[0.0, 0.0, -0.3899215137652395]",-0.17005843903098078,-1.4014974570456098,"(0.0, 0.0, 0.0, 0.0, 0.0, 0.0)",-18.19275795233532,-0.4908448024035125,1.1082064099434463,"(0.0, 0.0, 0.0, 0.0, 0.0, 0.0)",-9.453459241801088,-0.9775193440102243,-0.2747998232007388,"(0.0, 0.0, 0.0, 0.0, 0.0, 0.0)",15.115910998557185,0.5828023610135931,-0.8761258286723118,"(0.0, 0.0, 0.0, 0.0, 0.0, 0.0)",6.53745296185106,True,"(0.03925600756862356, 0.17478563747775708, 0.023982354139924857)","(0.9277130731809935, -0.3728767950556529, -0.017645100115926505)",-0.0006765413918309007,130.2415758363633,True,"(0.10266818897403324, 0.16447684884308833, 0.02398994551158946)","(-0.9528957888326826, 0.3031312226893939, -0.010053728451315217)",0.000531804214667251,13.237476646672718
45,Move,"(0.0698, 0.0, 0.0009000000000000001)","(0.0, 0.1033252370473163, 0.0)","(0.06649934345446858, 0.15255040428565778, 0.048395876979523175)","(-0.005714437953839997, -0.015988968374340166, -0.4388639005361472)","[0.06327263993485248, -0.006328021439910875, 0.00033883415530609057]","[-0.026750000193715096, 0.05299999937415123, 0.03999999910593033]","[0.0, 0.0, -0.19760210598473776]","[-0.012615055777132511, 0.12359888851642609, 0.03999999910593033]","[0.0, 0.0, -0.6683268435068953]","[0.026750000193715096, 0.05299999937415123, 0.03999999910593033]","[0.0, 0.0, -0.9818897684010909]","[0.08662149310112, 0.09299255907535553, 0.03999999910593033]","[0.0, 0.0, -0.4105182026396075]",-0.20372743528017048,-1.4700796685991562,"(0.0, 0.0, 0.0, 0.0, 0.0, 0.0)",-9.681702030521977,-0.4692128818841029,0.36283602594446795,"(0.0, 0.0, 0.0, 0.0, 0.0, 0.0)",-4.886013737671158,-0.9826170669158938,-0.17457089784930713,"(0.0, 0.0, 0.0, 0.0, 0.0, 0.0)",12.54185231302986,0.5692647138019228,-0.505621959884198,"(0.0, 0.0, 0.0, 0.0, 0.0, 0.0)",6.1032489924421185,True,"(0.042038547325609264, 0.17383996863237236, 0.023994993805157384)","(0.9059678334380697, -0.4233169384718243, -0.005005434883397051)",-0.0006089730682089064,72.51083183949481,True,"(0.0836000565198743, 0.11611937827042476, 0.05600966968187372)","(-0.9168480754882629, 0.39911917821933834, 0.00966892191450188)",-0.0003122024162824962,20.012710137819486
46,Move,"(0.0699, 0.0, 0.0007)","(0.0, 0.10792941561407735, 0.0)","(0.06823143804385637, 0.15198929887019777, 0.04864802508539304)","(8.474611216096266e-05, -0.020126214840274152, -0.4395768291934171)","[0.06500473452424027, -0.006889126855370881, 0.0005909822611759527]","[-0.026750000193715096, 0.05299999937415123, 0.03999999910593033]","[0.0, 0.0, -0.23132197393006826]","[-0.01024295762181282, 0.1230822205543518, 0.03999999910593033]","[0.0, 0.0, -0.6682228664842912]","[0.026750000193715096, 0.05299999937415123, 0.03999999910593033]","[0.0, 0.0, -0.9859567637662954]","[0.08678364753723145, 0.0927487313747406, 0.03999999910593033]","[0.0, 0.0, -0.44346146275477033]",-0.23725775388839607,-1.4245891757390472,"(0.0, 0.0, 0.0, 0.0, 0.0, 0.0)",-27.415803998941346,-0.4271552180290549,2.3389750548018897,"(0.0, 0.0, 0.0, 0.0, 0.0, 0.0)",-14.01993977421835,-0.9869092920706941,-0.22862169322362824,"(0.0, 0.0, 0.0, 0.0, 0.0, 0.0)",24.109592782326924,0.5375773164226771,-1.1803081565713849,"(0.0, 0.0, 0.0, 0.0, 0.0, 0.0)",9.338673417611032,True,"(0.04440542614750066, 0.1733289755303647, 0.023994993805157384)","(0.9059678334380697, -0.4233169384718243, -0.005005434883397051)",-0.00043736890441699886,187.0533325543666,True,"(0.10683841675064458, 0.16293475772303373, 0.02397698952591588)","(-0.9033825650558517, 0.42821781164379474, -0.02300971412489519)",-0.0014642899833136407,100.65055394556147
47,Move,"(0.0693, 0.0, 0.0003)","(0.0, 0.11257024609513026, 0.0)","(0.06932224282558555, 0.15222047910102138, 0.0487199625055062)","(-0.0016724777911153507, -0.01594600736177723, -0.4536512274059758)","[0.06609553930596945, -0.006657946624547273, 0.0006629196812891133]","[-0.026750000193715096, 0.05299999937415123, 0.03999999910593033]","[0.0, 0.0, -0.26329004728310396]","[-0.008011378347873688, 0.12251880019903183, 0.03999999910593033]","[0.0, 0.0, -0.6487486904732684]","[0.026750000193715096, 0.05299999937415123, 0.03999999910593033]","[0.0, 0.0, -0.9900022870425854]","[0.08694396167993546, 0.09250553697347641, 0.03999999910593033]","[0.0, 0.0, -0.473429596492189]",-0.2688563600338117,-1.3359111123938163,"(0.0, 0.0, 0.0, 0.0, 0.0, 0.0)",-28.638486197010575,-0.3765652750936457,2.1343849792069407,"(0.0, 0.0, 0.0, 0.0, 0.0, 0.0)",-14.693676912323625,-0.9906029630879171,-0.14417563976205894,"(0.0, 0.0, 0.0, 0.0, 0.0, 0.0)",20.97075876870619,0.512031513968581,-1.0898652077559172,"(0.0, 0.0, 0.0, 0.0, 0.0, 0.0)",7.70264363938306,True,"(0.04564818475369073, 0.17382020336108384, 0.023994993805157384)","(0.9059678334380697, -0.4233169384718243, -0.005005434883397051)",-0.00045353926838325007,192.72866567391296,True,"(0.10909275744944333, 0.1620591358540733, 0.02397698952591588)","(-0.9033825650558517, 0.42821781164379474, -0.02300971412489519)",-0.00019425266415608788,80.37821685428938
48,Move,"(0.07100000000000001, 0.0, -0.0002)","(0.0, 0.11257024609513026, 0.0)","(0.07067576772933114, 0.1518584885691846, 0.04870875666240124)","(6.829920208398785e-06, -0.0110237090236903, -0.4825049295760771)","[0.06744906420971504, -0.0070199371563840485, 0.0006517138381841522]","[-0.026750000193715096, 0.05299999937415123, 0.03999999910593033]","[0.0, 0.0, -0.29643364567173736]","[-0.0057179881259799, 0.12185966968536377, 0.03999999910593033]","[0.0, 0.0, -0.6331989041059435]","[0.026750000193715096, 0.05299999937415123, 0.03999999910593033]","[0.0, 0.0, -0.9937799227093078]","[0.08709276467561722, 0.09227786213159561, 0.03999999910593033]","[0.0, 0.0, -0.5006539906981863]",-0.3025118293184397,-1.4587612617316568,"(0.0, 0.0, 0.0, 0.0, 0.0, 0.0)",-25.700908043698373,-0.32845425324634897,1.9946345661595426,"(0.0, 0.0, 0.0, 0.0, 0.0, 0.0)",-13.44158320788254,-0.9944721358744443,-0.16613536614185384,"(0.0, 0.0, 0.0, 0.0, 0.0, 0.0)",18.61754799140077,0.4891806764523627,-0.9468658384624171,"(0.0, 0.0, 0.0, 0.0, 0.0, 0.0)",6.454773658802328,True,"(0.04713739720368082, 0.1739892277345483, 0.023994993805157384)","(0.9059678334380697, -0.4233169384718243, -0.005005434883397051)",-0.00032550303177526795,174.19091439652573,True,"(0.1111266762828543, 0.16120277561550792, 0.02397698952591588)","(-0.9033825650558517, 0.42821781164379474, -0.02300971412489519)",0.00019790326886699345,64.42091261518632
49,Move,"(0.0727, 0.0, 0.0004)","(0.0, 0.10792941561407735, 0.0)","(0.07234539730742749, 0.1515762731276161, 0.04871447106342264)","(-5.47088528030098e-05, -0.005991975889147416, -0.5155242068837814)","[0.0691186937878114, -0.007302152597952555, 0.0006574282392055528]","[-0.026750000193715096, 0.05299999937415123, 0.03999999910593033]","[0.0, 0.0, -0.33224926546053524]","[-0.0032657496631145477, 0.12106239795684814, 0.03999999910593033]","[0.0, 0.0, -0.6202611875951952]","[0.026750000193715096, 0.05299999937415123, 0.03999999910593033]","[0.0, 0.0, -0.9978145934277389]","[0.08725074678659439, 0.09203407913446426, 0.03999999910593033]","[0.0, 0.0, -0.5284233266569348]",-0.3387811119129313,-1.5676340772956525,"(0.0, 0.0, 0.0, 0.0, 0.0, 0.0)",-26.714011356614453,-0.2791907207182008,2.117066375170485,"(0.0, 0.0, 0.0, 0.0, 0.0, 0.0)",-14.047601426317625,-0.9985587776366569,-0.17861669363103666,"(0.0, 0.0, 0.0, 0.0, 0.0, 0.0)",20.345940601383653,0.464797487861429,-1.1024974439086734,"(0.0, 0.0, 0.0, 0.0, 0.0, 0.0)",7.211288776484033,True,"(0.048910791425888146, 0.17387140126144873, 0.023994993805157384)","(0.9059678334380697, -0.4233169384718243, -0.005005434883397051)",-0.00017736816858734828,172.84746956682233,True,"(0.11318914523531473, 0.16026510141206401, 0.02397698952591588)","(-0.9033825650558517, 0.42821781164379474, -0.02300971412489519)",0.00019937842048611096,73.53098534157981
50,Move,"(0.0725, 0.0, 0.0007)","(0.0, 0.09931272509698134, 0.0)","(0.07477007989628645, 0.15089020654558027, 0.048175056629896074)","(0.0012677259104124684, -0.0061630239736298244, -0.5785218195634194)","[0.07154337637667035, -0.007988219179988376, 0.00011801380567898895]","[-0.026750000193715096, 0.05299999937415123, 0.03999999910593033]","[0.0, 0.0, -0.3704513787533732]","[-0.0006833916995674372, 0.12011580914258957, 0.03999999910593033]","[0.0, 0.0, -0.6237763421505086]","[0.026750000193715096, 0.05299999937415123, 0.03999999910593033]","[0.0, 0.0, -1.0002042947126282]","[0.08734385669231415, 0.091889388859272, 0.03999999910593033]","[0.0, 0.0, -0.5479800415321059]",-0.37748813887437427,-1.6888228706456911,"(0.0, 0.0, 0.0, 0.0, 0.0, 0.0)",-16.310989277494798,-0.25054416461933166,0.6673910779464842,"(0.0, 0.0, 0.0, 0.0, 0.0, 0.0)",-8.347480194627105,-1.0003695027235724,-0.03966286410828648,"(0.0, 0.0, 0.0, 0.0, 0.0, 0.0)",18.945697952392084,0.44927585741183673,-0.7076075267158064,"(0.0, 0.0, 0.0, 0.0, 0.0, 0.0)",8.771806895337894,True,"(0.05113628342499179, 0.1715830639528431, 0.02397964697422142)","(0.8383756470401258, -0.5447128231702173, -0.020352265819367558)",-0.001007184300655316,116.59976753702706,True,"(0.08751448175242188, 0.11520268498765628, 0.056019484877559346)","(-0.8590641490216028, 0.5114969765571779, 0.019484117600123516)",-0.0012638957896579743,43.95698965672711
51,Move,"(0.0719, 0.0, 0.0007)","(0.0, 0.09117600012418381, 0.0)","(0.07623141362609555, 0.15084387680899525, 0.04851695475556444)","(-0.00353825637414222, -0.009219754377732484, -0.5700710781471212)","[0.07300471010647945, -0.008034548916573403, 0.00045991193134735375]","[-0.026750000193715096, 0.05299999937415123, 0.03999999910593033]","[0.0, 0.0, -0.40928198114910197]","[0.0019024504581466317, 0.11905328929424286, 0.03999999910593033]","[0.0, 0.0, -0.6119526730779002]","[0.026750000193715096, 0.05299999937415123, 0.03999999910593033]","[0.0, 0.0, -1.0022176169010206]","[0.08742202818393707, 0.091767318546772, 0.03999999910593033]","[0.0, 0.0, -0.5812852536557134]",-0.41614574306616764,-1.6473065793144093,"(0.0, 0.0, 0.0, 0.0, 0.0, 0.0)",-37.87293810252653,-0.19033745042161337,2.959981894931205,"(0.0, 0.0, 0.0, 0.0, 0.0, 0.0)",-19.096694994158657,-1.0027303626865496,-0.12307322713209932,"(0.0, 0.0, 0.0, 0.0, 0.0, 0.0)",27.522979908596714,0.41538966457062576,-1.3302385343638934,"(0.0, 0.0, 0.0, 0.0, 0.0, 0.0)",9.693752818919318,True,"(0.05310998616210436, 0.17112963045246357, 0.02397964697422142)","(0.8383756470401258, -0.5447128231702173, -0.020352265819367558)",-0.0008230449855064933,257.1841291609014,True,"(0.11693811081791833, 0.1585457716489157, 0.02398676522133748)","(-0.8357378779579618, 0.5489690654037352, -0.013234975484395296)",-0.00146618867031376,93.77706398868197
52,Move,"(0.0729, 0.0, 0.0009000000000000001)","(0.0, 0.0952635612323545, 0.0)","(0.07689154284168646, 0.15071760425031655, 0.048643248360421804)","(0.00201332043034102, -0.006854185246340286, -0.5810208982538507)","[0.07366483932207037, -0.0081608214752521, 0.0005862055362047189]","[-0.026750000193715096, 0.05299999937415123, 0.03999999910593033]","[0.0, 0.0, -0.4472825320175761]","[0.0043912227265536785, 0.11791705340147018, 0.03999999910593033]","[0.0, 0.0, -0.5822524078919226]","[0.026750000193715096, 0.05299999937415123, 0.03999999910593033]","[0.0, 0.0, -1.0051140346631302]","[0.08753406256437302, 0.09159141778945923, 0.03999999910593033]","[0.0, 0.0, -0.612204994710762]",-0.45407937413351723,-1.6312455261164072,"(0.0, 0.0, 0.0, 0.0, 0.0, 0.0)",-36.45833318256045,-0.12362824414973943,2.7219918568329615,"(0.0, 0.0, 0.0, 0.0, 0.0, 0.0)",-19.01106378805507,-1.0056059882073614,-0.11806089096549607,"(0.0, 0.0, 0.0, 0.0, 0.0, 0.0)",23.688983792003906,0.38908834581958424,-0.9169784673659775,"(0.0, 0.0, 0.0, 0.0, 0.0, 0.0)",6.51298724677811,True,"(0.05402972031971947, 0.1714910851942876, 0.02397964697422142)","(0.8383756470401258, -0.5447128231702173, -0.020352265819367558)",-0.0009260941014276295,243.8653828062828,True,"(0.11910048191417218, 0.15742546918590675, 0.02398676522133748)","(-0.8357378779579618, 0.5489690654037352, -0.013234975484395296)",0.0003115280926328453,43.881673994398724
53,Move,"(0.0733, 0.0, 0.0003)","(0.0, 0.1033252370473163, 0.0)","(0.07830603548738797, 0.15028238650547063, 0.0485833368715464)","(0.0019248147972069812, 0.004833790315322827, -0.6035067316126546)","[0.07507933196777188, -0.008596039220098023, 0.0005262940473293176]","[-0.026750000193715096, 0.05299999937415123, 0.03999999910593033]","[0.0, 0.0, -0.4839687868516268]","[0.00675129983574152, 0.1167311742901802, 0.03999999910593033]","[0.0, 0.0, -0.5451134082373914]","[0.026750000193715096, 0.05299999937415123, 0.03999999910593033]","[0.0, 0.0, -1.0095708150245206]","[0.08770544081926346, 0.09132014960050583, 0.03999999910593033]","[0.0, 0.0, -0.6409295122111373]",-0.49018650844977213,-1.4922511028780758,"(0.0, 0.0, 0.0, 0.0, 0.0, 0.0)",-50.927735494819416,-0.047737093426678714,3.217798266874772,"(0.0, 0.0, 0.0, 0.0, 0.0, 0.0)",-21.55562705966478,-1.0105796572500707,-0.2421698983994253,"(0.0, 0.0, 0.0, 0.0, 0.0, 0.0)",37.09200260200332,0.3634111448521442,-1.2551877261327786,"(0.0, 0.0, 0.0, 0.0, 0.0, 0.0)",8.37337555295521,True,"(0.054366338856376484, 0.17211136320470144, 0.02397964697422142)","(0.8383756470401258, -0.5447128231702173, -0.020352265819367558)",0.00041821868240765164,154.1322620364606,True,"(0.12114963347567025, 0.15622043552271792, 0.02398676522133748)","(-0.8357378779579618, 0.5489690654037352, -0.013234975484395296)",0.0007583601227517083,0.0
54,Move,"(0.0735, 0.0, -0.0007)","(0.0, 0.1033252370473163, 0.0)","(0.07905701184719423, 0.15025944046660425, 0.048563013378573355)","(0.0004631959917669015, 0.005350756554213415, -0.6081694657699817)","[0.07583030832757813, -0.008618985258964401, 0.0005059705543562706]","[-0.026750000193715096, 0.05299999937415123, 0.03999999910593033]","[0.0, 0.0, -0.5187506880070063]","[0.008947283960878849, 0.11552762240171432, 0.03999999910593033]","[0.0, 0.0, -0.5096643748131049]","[0.026750000193715096, 0.05299999937415123, 0.03999999910593033]","[0.0, 0.0, -1.0146257075443144]","[0.0878983810544014, 0.09101152420043945, 0.03999999910593033]","[0.0, 0.0, -0.6780807217792775]",-0.5248763991594931,-1.4701621570615813,"(0.0, 0.0, 0.0, 0.0, 0.0, 0.0)",-55.28880680588995,0.020557559869594698,2.753069402202396,"(0.0, 0.0, 0.0, 0.0, 0.0, 0.0)",-19.13560199275684,-1.0154728562440558,-0.20330843401276966,"(0.0, 0.0, 0.0, 0.0, 0.0, 0.0)",39.21103311969965,0.33019673476688827,-1.5235867637139093,"(0.0, 0.0, 0.0, 0.0, 0.0, 0.0)",10.13005454520138,True,"(0.05456964184982045, 0.1725605755812268, 0.02397964697422142)","(0.8383756470401258, -0.5447128231702173, -0.020352265819367558)",0.001172202418523089,14.004399340115095,True,"(0.09105675250350526, 0.11405820144656155, 0.05600548593219588)","(-0.8210555713612138, 0.5708219176085, 0.005485172236654615)",-0.0008617641877050341,450.35524265851745
55,Move,"(0.0718, 0.0, -0.0004)","(0.0, 0.08614596121993615, 0.0)","(0.07970508861779152, 0.15030468812187134, 0.04869954344384152)","(0.0010670830969291313, 0.0026312089274982504, -0.6084622108304308)","[0.07647838509817542, -0.008573737603697312, 0.0006425006196244323]","[-0.026750000193715096, 0.05299999937415123, 0.03999999910593033]","[0.0, 0.0, -0.5519402333808241]","[0.011002502404153347, 0.11430863291025162, 0.03999999910593033]","[0.0, 0.0, -0.4770736549144672]","[0.026750000193715096, 0.05299999937415123, 0.03999999910593033]","[0.0, 0.0, -1.0186858506480285]","[0.08805220574140549, 0.09076294302940369, 0.03999999910593033]","[0.0, 0.0, -0.7172800820126441]",-0.5578048158836488,-1.4075089563225822,"(0.0, 0.0, 0.0, 0.0, 0.0, 0.0)",-54.533047477415074,0.08636599698710476,2.7598611226914698,"(0.0, 0.0, 0.0, 0.0, 0.0, 0.0)",-18.54652280755287,-1.0193185423147735,-0.15185284324802034,"(0.0, 0.0, 0.0, 0.0, 0.0, 0.0)",39.035617281756835,0.29532949486003907,-1.4583175518629556,"(0.0, 0.0, 0.0, 0.0, 0.0, 0.0)",10.120438334635683,True,"(0.038556023487095116, 0.1414808144417305, 0.05600034769095868)","(0.8457030903575075, -0.5336535979440625, 0.0003469309994487264)",-0.0027949862501912056,477.4354536236894,True,"(0.09208872878134128, 0.11363699507972445, 0.05600236974758807)","(-0.820659649761786, 0.5714123967420353, 0.002368987628857649)",-0.0002222004628679596,447.26626547625625
56,Move,"(0.0692, 0.0, 0.0004)","(0.0, 0.07341029366813348, 0.0)","(0.08044919933470934, 0.15013412146560715, 0.048785659562316876)","(0.003541860181032771, 0.0036501794427550244, -0.6089112019683837)","[0.07722249581509325, -0.008744304259961505, 0.000728616738099791]","[-0.026750000193715096, 0.05299999937415123, 0.03999999910593033]","[0.0, 0.0, -0.5832219939723068]","[0.012901564128696918, 0.11309786885976791, 0.03999999910593033]","[0.0, 0.0, -0.4449088558422113]","[0.026750000193715096, 0.05299999937415123, 0.03999999910593033]","[0.0, 0.0, -1.0211210836609819]","[0.0881439819931984, 0.09061354398727417, 0.03999999910593033]","[0.0, 0.0, -0.7531569826314249]",-0.5886922275337801,-1.3128533053527713,"(0.0, 0.0, 0.0, 0.0, 0.0, 0.0)",-51.14828538655787,0.14920444798806204,2.6139074903467807,"(0.0, 0.0, 0.0, 0.0, 0.0, 0.0)",-17.568817704643585,-1.021403345368858,-0.06774677873814622,"(0.0, 0.0, 0.0, 0.0, 0.0, 0.0)",36.18719465813631,0.2622399790947471,-1.3737885130909506,"(0.0, 0.0, 0.0, 0.0, 0.0, 0.0)",9.515586294983631,True,"(0.03956699750018654, 0.14114209162127045, 0.05600034769095868)","(0.8457030903575075, -0.5336535979440625, 0.0003469309994487264)",-0.0031521249963035345,445.6749320003619,True,"(0.09297774451559841, 0.11329956405850734, 0.05600348187864147)","(-0.8202778052856324, 0.5719547219566475, 0.0034811186822555906)",2.9470919933213506e-05,424.2431241648115
57,Move,"(0.0738, 0.0, 0.0001)","(0.0, 0.0952635612323545, 0.0)","(0.08144831461054032, 0.14970895521245325, 0.04879745105495432)","(0.004152227950566216, 0.0037271453658472924, -0.6093235055007835)","[0.07822161109092422, -0.009169470513115396, 0.0007404082307372328]","[-0.026750000193715096, 0.05299999937415123, 0.03999999910593033]","[0.0, 0.0, -0.6158043476768609]","[0.014838301576673985, 0.1117742583155632, 0.03999999910593033]","[0.0, 0.0, -0.41441054551751255]","[0.026750000193715096, 0.05299999937415123, 0.03999999910593033]","[0.0, 0.0, -1.0243365797827895]","[0.08826460689306259, 0.09041594713926315, 0.03999999910593033]","[0.0, 0.0, -0.7898452701152516]",-0.621778246477458,-1.433736783867165,"(0.0, 0.0, 0.0, 0.0, 0.0, 0.0)",-51.97175195409867,0.21283948394793148,2.746947622987645,"(0.0, 0.0, 0.0, 0.0, 0.0, 0.0)",-18.032996937206413,-1.0250546542078693,-0.1723666773242285,"(0.0, 0.0, 0.0, 0.0, 0.0, 0.0)",37.53913644109723,0.22835909334015342,-1.4717024537401464,"(0.0, 0.0, 0.0, 0.0, 0.0, 0.0)",10.049805201043863,True,"(0.04063616373829028, 0.14061856649806356, 0.05600034769095868)","(0.8457030903575075, -0.5336535979440625, 0.0003469309994487264)",-0.003323227584853929,452.9964981749478,True,"(0.09390591866003806, 0.11287998942648346, 0.056003800061155504)","(-0.8200690616594062, 0.5722519544916218, 0.003799301196282888)",2.5555438990269495e-05,441.6257274263959
58,Move,"(0.076, 0.0, -0.0008)","(0.0, 0.10792941561407735, 0.0)","(0.08245758289137528, 0.149189148578738, 0.04877752612122523)","(0.003878793844603169, 0.0034630971291243254, -0.6089300275632182)","[0.07923087937175918, -0.009689277146830655, 0.0007204832970081482]","[-0.026750000193715096, 0.05299999937415123, 0.03999999910593033]","[0.0, 0.0, -0.6494274333306571]","[0.016790594905614853, 0.11034297198057175, 0.03999999910593033]","[0.0, 0.0, -0.38344138560917956]","[0.026750000193715096, 0.05299999937415123, 0.03999999910593033]","[0.0, 0.0, -1.0285831983183777]","[0.08842294663190842, 0.09015437215566635, 0.03999999910593033]","[0.0, 0.0, -0.8286075764385173]",-0.6554240237512475,-1.4391853062003175,"(0.0, 0.0, 0.0, 0.0, 0.0, 0.0)",-52.13843981295674,0.2775479778241955,2.7748670069123977,"(0.0, 0.0, 0.0, 0.0, 0.0, 0.0)",-18.226829503973057,-1.0293519440647172,-0.18449748498991742,"(0.0, 0.0, 0.0, 0.0, 0.0, 0.0)",37.60911732347066,0.19381543282334165,-1.4784554598476631,"(0.0, 0.0, 0.0, 0.0, 0.0, 0.0)",10.129760689081794,True,"(0.04168294744160648, 0.13997226161332765, 0.05600034769095868)","(0.8457030903575075, -0.5336535979440625, 0.0003469309994487264)",-0.00342012574494733,454.2348056173131,True,"(0.0949076550558873, 0.11235141535740636, 0.05600350122893466)","(-0.8201829317234449, 0.5720906442396054, 0.0035004689754423307)",2.3846609214829393e-05,442.3129622294435
59,Move,"(0.0746, 0.0, -0.0014)","(0.0, 0.1033252370473163, 0.0)","(0.08330478599789846, 0.14871773176685596, 0.04876429579790472)","(0.0037661040954898154, 0.0032923590543634173, -0.6070601314046914)","[0.08007808247828237, -0.010160693958712691, 0.000707252973687636]","[-0.026750000193715096, 0.05299999937415123, 0.03999999910593033]","[0.0, 0.0, -0.6814500173211796]","[0.018604231998324394, 0.10891953110694885, 0.03999999910593033]","[0.0, 0.0, -0.3516847991633717]","[0.026750000193715096, 0.05299999937415123, 0.03999999910593033]","[0.0, 0.0, -1.0318140233780755]","[0.08854266256093979, 0.0899549275636673, 0.03999999910593033]","[0.0, 0.0, -0.8658157669701113]",-0.6870026072134576,-1.3326141740923572,"(0.0, 0.0, 0.0, 0.0, 0.0, 0.0)",-50.592298716221705,0.341048828453236,2.708059396607803,"(0.0, 0.0, 0.0, 0.0, 0.0, 0.0)",-17.81574424464715,-1.0322856198236265,-0.11318812218898928,"(0.0, 0.0, 0.0, 0.0, 0.0, 0.0)",36.42122367836686,0.15999425066170425,-1.4409933397548225,"(0.0, 0.0, 0.0, 0.0, 0.0, 0.0)",9.86579827649606,True,"(0.042543266454024696, 0.1393242411595271, 0.05600034769095868)","(0.8457030903575075, -0.5336535979440625, 0.0003469309994487264)",-0.003445512647135504,440.98544230527165,True,"(0.09582583847129073, 0.11186395191601266, 0.056003317494384364)","(-0.8210968594368361, 0.5707792451515014, 0.0033167344251436685)",2.1157836931762853e-05,428.6523974550078
60,Move,"(0.0741, 0.0, -0.0015)","(0.0, 0.1033252370473163, 0.0)","(0.08401022263749258, 0.14828191703538685, 0.048756743054941584)","(0.0037768461685092226, 0.003209641483087046, -0.6038360879165756)","[0.08078351911787648, -0.010596508690181805, 0.0006997002307244996]","[-0.026750000193715096, 0.05299999937415123, 0.03999999910593033]","[0.0, 0.0, -0.7115949617996389]","[0.020269058644771576, 0.10752712935209274, 0.03999999910593033]","[0.0, 0.0, -0.3195213842038934]","[0.026750000193715096, 0.05299999937415123, 0.03999999910593033]","[0.0, 0.0, -1.0338577127431274]","[0.08861806243658066, 0.08982855826616287, 0.03999999910593033]","[0.0, 0.0, -0.9009974036111242]",-0.7168687649273061,-1.2657167181232558,"(0.0, 0.0, 0.0, 0.0, 0.0, 0.0)",-49.096696866568024,0.4030949847458933,2.6451394498135725,"(0.0, 0.0, 0.0, 0.0, 0.0, 0.0)",-17.4156953644937,-1.0341625184879175,-0.07314920729239406,"(0.0, 0.0, 0.0, 0.0, 0.0, 0.0)",35.28463345185636,0.12700416901932104,-1.4054703573477494,"(0.0, 0.0, 0.0, 0.0, 0.0, 0.0)",9.60253490691443,True,"(0.043217961795772565, 0.13868594740843504, 0.05600034769095868)","(0.8457030903575075, -0.5336535979440625, 0.0003469309994487264)",-0.003418478446693671,428.8333276378425,True,"(0.09664507953494826, 0.11143686010359972, 0.0560032165954415)","(-0.8228009763387142, 0.5683205184912906, 0.003215835482285006)",1.8916798762522037e-05,415.73747197535357
61,Move,"(0.0755, 0.0, -0.0017)","(0.0, 0.11653563415566137, 0.0)","(0.08464509087634796, 0.14782351664262972, 0.0487674499341847)","(0.004385291979883904, 0.003267765592280322, -0.5995086454919568)","[0.08141838735673186, -0.011054909082938935, 0.0007104071099676146]","[-0.026750000193715096, 0.05299999937415123, 0.03999999910593033]","[0.0, 0.0, -0.7410023524355372]","[0.021851999685168266, 0.10612104833126068, 0.03999999910593033]","[0.0, 0.0, -0.2877831254189782]","[0.026750000193715096, 0.05299999937415123, 0.03999999910593033]","[0.0, 0.0, -1.035620454618877]","[0.0886828824877739, 0.08971944451332092, 0.03999999910593033]","[0.0, 0.0, -0.9352196964695287]",-0.7462205089041617,-1.2523606786526273,"(0.0, 0.0, 0.0, 0.0, 0.0, 0.0)",-47.97236472478607,0.4640491449176408,2.5991855590845336,"(0.0, 0.0, 0.0, 0.0, 0.0, 0.0)",-17.144038217123065,-1.0359348436334186,-0.0754447422917051,"(0.0, 0.0, 0.0, 0.0, 0.0, 0.0)",34.41233349151527,0.09465560322533566,-1.3788356132974287,"(0.0, 0.0, 0.0, 0.0, 0.0, 0.0)",9.402531367009626,True,"(0.043800584686081716, 0.13799240645144206, 0.05600034769095868)","(0.8457030903575075, -0.5336535979440625, 0.0003469309994487264)",-0.003373001475579012,420.8263094107227,True,"(0.09742227206788927, 0.11100921192039528, 0.05600324569226401)","(-0.8251464241199246, 0.5649095938081055, 0.003244932304792417)",1.741855967949574e-05,406.1587724598028
