OSUrobotics/InHand-Manipulation/AnalyseData/Data/Trial Data/Tries/new_hand_human_sub1_2v2_d_n_1_kpNone_kdNone_dp5_step5_save_data.csv
,Phase,human_cube_pos,human_cube_orn,Cube_Pos,Cube_Orn,Cube_pos_in_start_pos,b'l_prox_pin'_link_pos,b'l_prox_pin'_link_orn,b'l_distal_pin'_link_pos,b'l_distal_pin'_link_orn,b'r_prox_pin'_link_pos,b'r_prox_pin'_link_orn,b'r_distal_pin'_link_pos,b'r_distal_pin'_link_orn,b'l_prox_pin'_joint_angle,b'l_prox_pin'_joint_vel,b'l_prox_pin'_joint_react_forces,b'l_prox_pin'_joint_motor_torque,b'l_distal_pin'_joint_angle,b'l_distal_pin'_joint_vel,b'l_distal_pin'_joint_react_forces,b'l_distal_pin'_joint_motor_torque,b'r_prox_pin'_joint_angle,b'r_prox_pin'_joint_vel,b'r_prox_pin'_joint_react_forces,b'r_prox_pin'_joint_motor_torque,b'r_distal_pin'_joint_angle,b'r_distal_pin'_joint_vel,b'r_distal_pin'_joint_react_forces,b'r_distal_pin'_joint_motor_torque,in_contact_l,contact_point_l_dist,contact_normal_l_dist,contact_distance_l_dist,contact_norm_force_l_dist,in_contact_r,contact_point_r_dist,contact_normal_r_dist,contact_distance_r_dist,contact_norm_force_r_dist
0,Open,,,,,,"[-0.026750000193715096, 0.05299999937415123, 0.03999999910593033]","[0.0, -0.0, 0.4254700097131474]","[-0.056467924267053604, 0.11858082562685013, 0.03999999910593033]","[0.0, -0.0, 0.4254700097131474]","[0.026750000193715096, 0.05299999937415123, 0.03999999910593033]","[0.0, 0.0, -0.4429245237535421]","[0.057608019560575485, 0.1180521547794342, 0.03999999910593033]","[0.0, 0.0, -0.5266622746639338]",0.5399229999999999,27.46872,"(0.0, 0.0, 0.0, 0.0, 0.0, 0.0)",-4.377393708535371,5.294901130302062e-32,0.0,"(0.0, 0.0, 0.0, 0.0, 0.0, 0.0)",-0.30017707799641646,-0.5623038734984663,-28.651050680519948,"(0.0, 0.0, 0.0, 0.0, 0.0, 0.0)",144.45470973647488,-0.10456727132876567,-4.999096204557077,"(0.0, 0.0, 0.0, 0.0, 0.0, 0.0)",33.97911746732963,False,,,,,False,,,,
1,Open,,,,,,"[-0.026750000193715096, 0.05299999937415123, 0.03999999910593033]","[0.0, -0.0, 0.894166469119967]","[-0.08288749307394028, 0.09808415919542313, 0.03999999910593033]","[0.0, -0.0, 0.894166894674561]","[0.026750000193715096, 0.05299999937415123, 0.03999999910593033]","[0.0, 0.0, -0.9122733503889549]","[0.08369457721710205, 0.09706035256385803, 0.03999999910593033]","[0.0, 0.0, -0.9997066729229968]",0.96174983227,16.220004472800003,"(0.0, 0.0, 0.0, 0.0, 0.0, 0.0)",-2.5959652512206968,5.681494863714967e-07,3.553320838026869e-05,"(0.0, 0.0, 0.0, 0.0, 0.0, 0.0)",-0.18114955764248034,-0.9780460127037736,-15.785439661232708,"(0.0, 0.0, 0.0, 0.0, 0.0, 0.0)",2.503992476159733,-0.0786900142246732,2.098357403184359,"(0.0, 0.0, 0.0, 0.0, 0.0, 0.0)",0.15360133560797545,False,,,,,False,,,,
2,Open,,,,,,"[-0.026750000193715096, 0.05299999937415123, 0.03999999910593033]","[0.0, -0.0, 1.170927100750299]","[-0.09307006001472473, 0.08102945238351822, 0.03999999910593033]","[0.0, -0.0, 1.1709279927689973]","[0.026750000193715096, 0.05299999937415123, 0.03999999910593033]","[0.0, 0.0, -1.181618964677462]","[0.09336595237255096, 0.08031877130270004, 0.03999999910593033]","[0.0, 0.0, -1.233247876832181]",1.2108343584571122,9.577750441143678,"(0.0, 0.0, 0.0, 0.0, 0.0, 0.0)",-1.5367816122769582,9.012180617793662e-07,6.275974057005224e-06,"(0.0, 0.0, 0.0, 0.0, 0.0, 0.0)",-0.1083256720668905,-1.2204570900414513,-9.3211442655613,"(0.0, 0.0, 0.0, 0.0, 0.0, 0.0)",1.4819475463743526,-0.046466145575958295,1.239071567699341,"(0.0, 0.0, 0.0, 0.0, 0.0, 0.0)",0.09166748660725833,False,,,,,False,,,,
3,Open,,,,,,"[-0.026750000193715096, 0.05299999937415123, 0.03999999910593033]","[0.0, -0.0, 1.334351465706577]","[-0.09674673527479172, 0.06986585259437561, 0.03999999910593033]","[0.0, -0.0, 1.33435435145599]","[0.026750000193715096, 0.05299999937415123, 0.03999999910593033]","[0.0, 0.0, -1.3406650641721125]","[0.09685182571411133, 0.06942359358072281, 0.03999999910593033]","[0.0, 0.0, -1.3711530696282732]",1.3579162851496,5.655565729344001,"(0.0, 0.0, 0.0, 0.0, 0.0, 0.0)",-0.9088150211252332,3.4316066113876724e-06,0.0001607445165674468,"(0.0, 0.0, 0.0, 0.0, 0.0, 0.0)",-0.06444344013525093,-1.3635984108023202,-5.504042378604797,"(0.0, 0.0, 0.0, 0.0, 0.0, 0.0)",0.8762522980402716,-0.02744024570882781,0.7315266716392431,"(0.0, 0.0, 0.0, 0.0, 0.0, 0.0)",0.05446985052483407,False,,,,,False,,,,
4,Open,,,,,,"[-0.026750000193715096, 0.05299999937415123, 0.03999999910593033]","[0.0, -0.0, 1.4308518944899675]","[-0.09804610908031464, 0.06304314732551575, 0.03999999910593033]","[0.0, -0.0, 1.4308566269594332]","[0.026750000193715096, 0.05299999937415123, 0.03999999910593033]","[0.0, 0.0, -1.4345798203875788]","[0.09808305650949478, 0.06277728080749512, 0.03999999910593033]","[0.0, 0.0, -1.4525855975984745]",1.4447666872179874,3.339555007520341,"(0.0, 0.0, 0.0, 0.0, 0.0, 0.0)",-0.5371183361845069,4.8269553674989e-06,2.0878160072459843e-05,"(0.0, 0.0, 0.0, 0.0, 0.0, 0.0)",-0.03821759960562203,-1.448121925594662,-3.2500819841423465,"(0.0, 0.0, 0.0, 0.0, 0.0, 0.0)",0.5178266556878065,-0.016205556838873442,0.4320218239148067,"(0.0, 0.0, 0.0, 0.0, 0.0, 0.0)",0.0322808466635012,False,,,,,False,,,,
5,Open,,,,,,"[-0.026750000193715096, 0.05299999937415123, 0.03999999910593033]","[0.0, -0.0, 1.487834617901085]","[-0.09850236773490906, 0.05896640568971634, 0.03999999910593033]","[0.0, -0.0, 1.4878390921106803]","[0.026750000193715096, 0.05299999937415123, 0.03999999910593033]","[0.0, 0.0, -1.4900358577435544]","[0.09851532429456711, 0.05880843847990036, 0.03999999910593033]","[0.0, 0.0, -1.5006695807985118]",1.4960509811353493,1.9719738363906854,"(0.0, 0.0, 0.0, 0.0, 0.0, 0.0)",-0.3173274216127963,4.509251873886308e-06,-3.168767150011037e-05,"(0.0, 0.0, 0.0, 0.0, 0.0, 0.0)",-0.022624215793833224,-1.498032215844392,-1.9191409108162163,"(0.0, 0.0, 0.0, 0.0, 0.0, 0.0)",0.30591369390909257,-0.00957062017308593,0.2551417656412126,"(0.0, 0.0, 0.0, 0.0, 0.0, 0.0)",0.019102112305110365,False,,,,,False,,,,
6,Open,,,,,,"[-0.026750000193715096, 0.05299999937415123, 0.03999999910593033]","[0.0, -0.0, 1.5214821319654974]","[-0.09866246581077576, 0.05654918774962425, 0.03999999910593033]","[0.0, -0.0, 1.5214858439169519]","[0.026750000193715096, 0.05299999937415123, 0.03999999910593033]","[0.0, 0.0, -1.5227821585534602]","[0.09866702556610107, 0.05645570904016495, 0.03999999910593033]","[0.0, 0.0, -1.529061933448946]",1.5263338438506127,1.164430830650334,"(0.0, 0.0, 0.0, 0.0, 0.0, 0.0)",-0.18743587261192823,3.6440993970645793e-06,-4.480530101024996e-05,"(0.0, 0.0, 0.0, 0.0, 0.0, 0.0)",-0.013379159967550349,-1.527503743133955,-1.1332335164278682,"(0.0, 0.0, 0.0, 0.0, 0.0, 0.0)",0.18068846528573543,-0.005652184024362593,0.1506807000213291,"(0.0, 0.0, 0.0, 0.0, 0.0, 0.0)",0.011293655891939093,False,,,,,False,,,,
7,Close,,,"(0.010000824637423049, 0.16001319418745247, 0.017848014970055004)","(-0.00026934863811186216, 1.6834304115272585e-05, -2.2671484573282825e-09)",,"[-0.026750000193715096, 0.05299999937415123, 0.03999999910593033]","[0.0, -0.0, 1.2784808254221978]","[-0.09569569677114487, 0.07374827563762665, 0.03999999910593033]","[0.0, -0.0, 1.034582661993943]","[0.026750000193715096, 0.05299999937415123, 0.03999999910593033]","[0.0, 0.0, -1.2792482299640686]","[0.0957116037607193, 0.0736953467130661, 0.03999999910593033]","[0.0, 0.0, -1.0390562259147462]",1.210632571455348,-16.283535238809286,"(0.0, 0.0, 0.0, 0.0, 0.0, 0.0)",2.771136716181199,-0.3095085607892871,-15.746535439217235,"(0.0, 0.0, 0.0, 0.0, 0.0, 0.0)",0.3469037989659341,-1.211323385283169,16.3019569408845,"(0.0, 0.0, 0.0, 0.0, 0.0, 0.0)",-2.7749564531312414,0.30617317599991634,15.835479338328643,"(0.0, 0.0, 0.0, 0.0, 0.0, 0.0)",-0.3479929302165593,False,,,,,False,,,,
8,Close,,,"(0.010001648057231211, 0.16002636889308344, 0.03133184175509247)","(-0.0005384699893107284, 3.3654401557527444e-05, -9.06094284338731e-09)",,"[-0.026750000193715096, 0.05299999937415123, 0.03999999910593033]","[0.0, -0.0, 1.0006360422079206]","[-0.08736064285039902, 0.0918632224202156, 0.03999999910593033]","[0.0, -0.0, 0.4880565025715103]","[0.026750000193715096, 0.05299999937415123, 0.03999999910593033]","[0.0, 0.0, -1.001089448203126]","[0.08737824857234955, 0.09183574467897415, 0.03999999910593033]","[0.0, 0.0, -0.49069812233338583]",0.9605724271186684,-9.615264723164493,"(0.0, 0.0, 0.0, 0.0, 0.0, 0.0)",1.6441783201079794,-0.5513218025251249,-9.298144061583436,"(0.0, 0.0, 0.0, 0.0, 0.0, 0.0)",0.21014173445603831,-0.9609803457758583,9.626142554022893,"(0.0, 0.0, 0.0, 0.0, 0.0, 0.0)",-1.6464751946207798,0.5493522946545342,9.350664461360347,"(0.0, 0.0, 0.0, 0.0, 0.0, 0.0)",-0.2108204377510729,False,,,,,False,,,,
9,Close,,,"(0.010002470404691093, 0.16003952644115657, 0.04045997120998789)","(-0.0008073642479911328, 5.0460303253361964e-05, -2.0369923505779015e-08)",,"[-0.026750000193715096, 0.05299999937415123, 0.03999999910593033]","[0.0, -0.0, 0.8365715799965936]","[-0.0801992267370224, 0.1012408509850502, 0.03999999910593033]","[0.0, -0.0, 0.16533874626364803]","[0.026750000193715096, 0.05299999937415123, 0.03999999910593033]","[0.0, 0.0, -0.8368392086626993]","[0.08021213859319687, 0.10122654587030411, 0.03999999910593033]","[0.0, 0.0, -0.1668985823484083]",0.8129144124893025,-5.677717666381402,"(0.0, 0.0, 0.0, 0.0, 0.0, 0.0)",0.9736078226475493,-0.6941096683608667,-5.490444078796776,"(0.0, 0.0, 0.0, 0.0, 0.0, 0.0)",0.12593397924105265,-0.8131552843771866,5.684140916724979,"(0.0, 0.0, 0.0, 0.0, 0.0, 0.0)",-0.9749785244213759,0.6929466958025952,5.521456795952681,"(0.0, 0.0, 0.0, 0.0, 0.0, 0.0)",-0.12634715317523504,False,,,,,False,,,,
10,Close,,,"(0.010003291824242136, 0.16005266914270105, 0.04523936165140331)","(-0.0010760316083767074, 6.725202012489063e-05, -3.618265319583079e-08)",,"[-0.026750000193715096, 0.05299999937415123, 0.03999999910593033]","[0.0, -0.0, 0.7396932119518481]","[-0.07528240978717804, 0.10618463158607483, 0.03999999910593033]","[0.0, 0.0, -0.025223688738047617]","[0.026750000193715096, 0.05299999937415123, 0.03999999910593033]","[0.0, 0.0, -0.7398511766938903]","[0.07529081404209137, 0.10617695748806, 0.03999999910593033]","[0.0, -0.0, 0.02430263317545323]",0.7257238314308083,-3.352635504821555,"(0.0, 0.0, 0.0, 0.0, 0.0, 0.0)",0.5758654822812497,-0.7784262532781683,-3.242260203768412,"(0.0, 0.0, 0.0, 0.0, 0.0, 0.0)",0.0750123771406224,-0.725866063871885,3.3564283699169333,"(0.0, 0.0, 0.0, 0.0, 0.0, 0.0)",-0.5766799137830688,0.7777395376647703,3.260573592131318,"(0.0, 0.0, 0.0, 0.0, 0.0, 0.0)",-0.0752606958188736,False,,,,,False,,,,
11,Close,,,"(0.009998006764048172, 0.16004791740447133, 0.04661602700709713)","(-0.0009633373590476214, -5.651157108772774e-05, 3.705496237131129e-09)",,"[-0.026750000193715096, 0.05299999937415123, 0.03999999910593033]","[0.0, -0.0, 0.682487397988505]","[-0.0721622109413147, 0.10887245088815689, 0.03999999910593033]","[0.0, 0.0, -0.13775029188859572]","[0.026750000193715096, 0.05299999937415123, 0.03999999910593033]","[0.0, 0.0, -0.6825807377410441]","[0.07216742634773254, 0.10886821150779724, 0.03999999910593033]","[0.0, -0.0, 0.13720676306862567]",0.6742385718295668,-1.979707703487386,"(0.0, 0.0, 0.0, 0.0, 0.0, 0.0)",0.3403746782353039,-0.8282138733504772,-1.9142967106539395,"(0.0, 0.0, 0.0, 0.0, 0.0, 0.0)",0.044514430098283306,-0.6743226520557094,1.9819373881522515,"(0.0, 0.0, 0.0, 0.0, 0.0, 0.0)",-0.34085569117092845,0.8278090963491768,1.925186132085869,"(0.0, 0.0, 0.0, 0.0, 0.0, 0.0)",-0.044664260156239435,False,,,,,False,,,,
12,Close,,,"(0.009998769334896325, 0.16003060811835357, 0.04742536864669285)","(-0.000610101871108778, -4.0969510898668e-05, 1.9209274278067844e-07)",,"[-0.026750000193715096, 0.05299999937415123, 0.03999999910593033]","[0.0, -0.0, 0.6487078830513394]","[-0.07024932652711868, 0.11037428677082062, 0.03999999910593033]","[0.0, 0.0, -0.20419489904288057]","[0.026750000193715096, 0.05299999937415123, 0.03999999910593033]","[0.0, 0.0, -0.6487631098841893]","[0.07025249302387238, 0.11037188768386841, 0.03999999910593033]","[0.0, -0.0, 0.20387419210317678]",0.643837134279641,-1.1689902474570912,"(0.0, 0.0, 0.0, 0.0, 0.0, 0.0)",0.20110327981266793,-0.8576129429233502,-1.1304247247859278,"(0.0, 0.0, 0.0, 0.0, 0.0, 0.0)",0.026365247055293885,-0.643886782812376,1.1703142083300253,"(0.0, 0.0, 0.0, 0.0, 0.0, 0.0)",-0.20138900624999947,0.8573739326705643,1.1367986755408854,"(0.0, 0.0, 0.0, 0.0, 0.0, 0.0)",-0.02645313245360739,False,,,,,False,,,,
13,Close,,,"(0.008562451241092799, 0.15963165273911614, 0.04795934769066021)","(0.002880618366732011, -0.001806687424315874, 0.027160003133214018)",,"[-0.026750000193715096, 0.05299999937415123, 0.03999999910593033]","[0.0, -0.0, 0.628761467944526]","[-0.06909634172916412, 0.11123047024011612, 0.03999999910593033]","[0.0, 0.0, -0.2434285830887256]","[0.026750000193715096, 0.05299999937415123, 0.03999999910593033]","[0.0, 0.0, -0.6288059721302652]","[0.06909892708063126, 0.1112285852432251, 0.03999999910593033]","[0.0, -0.0, 0.2429558847198867]",0.6258853894207851,-0.6902770512209367,"(0.0, 0.0, 0.0, 0.0, 0.0, 0.0)",0.1187884658156728,-0.8749710952893884,-0.6674374589496431,"(0.0, 0.0, 0.0, 0.0, 0.0, 0.0)",0.015594256108819574,-0.6259259084068115,0.6912176025972259,"(0.0, 0.0, 0.0, 0.0, 0.0, 0.0)",0.2388025723473432,0.8745822921133977,0.6769072324257521,"(0.0, 0.0, 0.0, 0.0, 0.0, 0.0)",0.18941142486917054,False,,,,,True,"(0.04004819719943498, 0.179541898233348, 0.02399995447546373)","(-0.9999968459601, -0.0025111881619077014, -4.476457704570729e-05)",-8.481398194504754e-06,2.863422651510261
14,Move,,,"(0.0021819901076417306, 0.15874897954065156, 0.04795281849136272)","(0.005478850841709562, -0.0035950725305518194, 0.10604891213935233)","[0.0, 0.0, 0.0]","[-0.026750000193715096, 0.05299999937415123, 0.03999999910593033]","[0.0, -0.0, 0.560146356606889]","[-0.06500433385372162, 0.11399677395820618, 0.03999999910593033]","[0.0, 0.0, -0.31664944734276895]","[0.026750000193715096, 0.05299999937415123, 0.03999999910593033]","[0.0, 0.0, -0.5704795454378662]","[0.06563257426023483, 0.11359823495149612, 0.03999999910593033]","[0.0, -0.0, 0.3059570023617685]",0.5441442228817456,-3.840500523593517,"(0.0, 0.0, 0.0, 0.0, 0.0, 0.0)",-31.0029053249475,-0.8619919758888083,3.5528943729608997,"(0.0, 0.0, 0.0, 0.0, 0.0, 0.0)",-15.917917800507853,-0.5583563961621479,2.909555421936086,"(0.0, 0.0, 0.0, 0.0, 0.0, 0.0)",30.258943247810663,0.8632477286756199,-3.1653175753776783,"(0.0, 0.0, 0.0, 0.0, 0.0, 0.0)",16.57158915607604,True,"(-0.031004356423865703, 0.18018040106852448, 0.05600350621575459)","(0.9944156588191936, 0.10547610760194015, 0.0035054557953627464)",-0.0003261554274574286,255.77805151609937,True,"(0.03234100325430836, 0.17992003264483536, 0.023996493784245416)","(-0.9944156588191938, -0.10547610760193821, -0.0035054557953587743)",0.00030411099818565307,195.8449562641281
15,Move,"(0.0078, 0.0, -0.0036000000000000003)","(0.0, 0.08563981573685775, 0.0)","(0.0030314443904236113, 0.15950495340820317, 0.047733998332910164)","(0.0002966040547668995, 0.004496204738883198, 0.08956198495244623)","[0.0008494542827818807, 0.000755973867551607, -0.00021882015845255814]","[-0.026750000193715096, 0.05299999937415123, 0.03999999910593033]","[0.0, -0.0, 0.5249174404673287]","[-0.06283218413591385, 0.1153063029050827, 0.03999999910593033]","[0.0, 0.0, -0.32640973900749815]","[0.026750000193715096, 0.05299999937415123, 0.03999999910593033]","[0.0, 0.0, -0.5587639658508262]","[0.06491997092962265, 0.11404959857463837, 0.03999999910593033]","[0.0, -0.0, 0.2950851202663739]",0.523626927098408,-0.3097047269919132,"(0.0, 0.0, 0.0, 0.0, 0.0, 0.0)",-1.1052851682499658,-0.8518341503440229,-0.12169018877546928,"(0.0, 0.0, 0.0, 0.0, 0.0, 0.0)",-0.6119124657012847,-0.561805190376536,-0.7299024425467421,"(0.0, 0.0, 0.0, 0.0, 0.0, 0.0)",1.2155881082155047,0.8543402598041653,0.11789110812412718,"(0.0, 0.0, 0.0, 0.0, 0.0, 0.0)",0.5017492552482807,True,"(-0.028187709260916072, 0.18115334292487575, 0.0560000638469868)","(0.9950754468231827, 0.09912038113895114, 7.19201794301712e-05)",-0.0026043365123688184,7.179867425966634,True,"(0.03235131822273294, 0.1807302358204884, 0.02399992731985793)","(-0.9950754468226594, -0.0991203811442034, -7.192018284956585e-05)",0.00012422994051825188,0.0
16,Move,"(0.0123, 0.0, -0.0040999999999999995)","(0.0, 0.107426760789503, 0.0)","(0.004853369048084381, 0.15964194739005738, 0.04804122126931695)","(-0.0035379948360473885, 0.006461769923949749, 0.07975899516583139)","[0.0026713789404426503, 0.000892967849405818, 8.840277795423013e-05]","[-0.026750000193715096, 0.05299999937415123, 0.03999999910593033]","[0.0, -0.0, 0.5115482115130524]","[-0.06199600175023079, 0.11578311026096344, 0.03999999910593033]","[0.0, 0.0, -0.3371259088292837]","[0.026750000193715096, 0.05299999937415123, 0.03999999910593033]","[0.0, 0.0, -0.5738444179499317]","[0.06583625823259354, 0.11346705257892609, 0.03999999910593033]","[0.0, -0.0, 0.2781889504050454]",0.5086100549366763,-0.7051420592657842,"(0.0, 0.0, 0.0, 0.0, 0.0, 0.0)",-2.789998091919607,-0.8476540542567013,0.24479183430542986,"(0.0, 0.0, 0.0, 0.0, 0.0, 0.0)",-1.494217346253876,-0.5763460494989183,-0.6003941989923673,"(0.0, 0.0, 0.0, 0.0, 0.0, 0.0)",2.3311008082219877,0.8513047042876486,-0.17486837988944243,"(0.0, 0.0, 0.0, 0.0, 0.0, 0.0)",1.061110213140566,True,"(-0.026647900384146578, 0.18125512268962832, 0.0560000638469868)","(0.9950754468231827, 0.09912038113895114, 7.19201794301712e-05)",-0.0020671167952613337,18.283704642555595,True,"(0.03439884476545791, 0.18068843694266107, 0.02399992731985793)","(-0.9950754468226594, -0.0991203811442034, -7.192018284956585e-05)",0.000208826590548734,0.0
17,Move,"(0.0158, 0.0, -0.0035)","(0.0, 0.08188561251581795, 0.0)","(0.006849639013176348, 0.1597564987883867, 0.048162588268545324)","(-0.00035601394810761897, 0.008290154643933852, 0.06948912570757967)","[0.004667648905534618, 0.0010075192477351502, 0.00020976977718260154]","[-0.026750000193715096, 0.05299999937415123, 0.03999999910593033]","[0.0, -0.0, 0.4944019618178723]","[-0.060914378613233566, 0.11637819558382034, 0.03999999910593033]","[0.0, 0.0, -0.3494887804747819]","[0.026750000193715096, 0.05299999937415123, 0.03999999910593033]","[0.0, 0.0, -0.5891905267127008]","[0.06675954163074493, 0.11286014318466187, 0.03999999910593033]","[0.0, -0.0, 0.25950437672188365]",0.4912936751678591,-0.745974081755977,"(0.0, 0.0, 0.0, 0.0, 0.0, 0.0)",-2.3627542870577636,-0.843098217942505,0.190186663341871,"(0.0, 0.0, 0.0, 0.0, 0.0, 0.0)",-1.30132737278321,-0.5920408839736485,-0.6841150672934212,"(0.0, 0.0, 0.0, 0.0, 0.0, 0.0)",2.060703017873606,0.8481407949622501,-0.13294829345906745,"(0.0, 0.0, 0.0, 0.0, 0.0, 0.0)",0.8925505687881976,True,"(-0.02475957622913586, 0.1814082041659057, 0.0560000638469868)","(0.9950754468231827, 0.09912038113895114, 7.19201794301712e-05)",-0.0017176550866020938,14.550828730121179,True,"(0.036583550561856325, 0.1806571499088498, 0.02399992731985793)","(-0.9950754468226594, -0.0991203811442034, -7.192018284956585e-05)",0.00027746455256224986,0.0
18,Move,"(0.0147, 0.0, -0.0054)","(0.0, 0.05541594908007196, 0.0)","(0.008612352567701218, 0.1598052371234257, 0.048371691386003765)","(-0.001368901469757517, 0.00860164992912461, 0.059919882381642024)","[0.006430362460059487, 0.0010562575827741394, 0.0004188728946410425]","[-0.026750000193715096, 0.05299999937415123, 0.03999999910593033]","[0.0, -0.0, 0.47878310714212163]","[-0.059920359402894974, 0.11690405011177063, 0.03999999910593033]","[0.0, 0.0, -0.3611809330558875]","[0.026750000193715096, 0.05299999937415123, 0.03999999910593033]","[0.0, 0.0, -0.6034914048989978]","[0.06761148571968079, 0.11228185892105103, 0.03999999910593033]","[0.0, -0.0, 0.24240112269831537]",0.4761482011854381,-0.6323697680539426,"(0.0, 0.0, 0.0, 0.0, 0.0, 0.0)",-1.361597516214273,-0.8396224819794686,0.08196432664029456,"(0.0, 0.0, 0.0, 0.0, 0.0, 0.0)",-0.7801505114958348,-0.6058678133728413,-0.570328683263416,"(0.0, 0.0, 0.0, 0.0, 0.0, 0.0)",1.4166191206449945,0.8455261041074661,-0.08794872658460837,"(0.0, 0.0, 0.0, 0.0, 0.0, 0.0)",0.6664748757697527,True,"(-0.02300786116151108, 0.1815087308931288, 0.023990362043176713)","(0.9980704056627421, 0.06133995253350286, -0.009637196864070247)",-0.0017652214998912018,10.944418634315436,True,"(0.03859939695021725, 0.18058503614782895, 0.02399992731985793)","(-0.9950754468226594, -0.0991203811442034, -7.192018284956585e-05)",0.00034800954635951534,0.0
19,Move,"(0.0172, 0.0, -0.006900000000000001)","(0.0, -0.0, 0.0)","(0.010453755797787628, 0.15973154689173732, 0.04838153854277222)","(-0.002019551280288141, 0.0012287882700851383, 0.05058804414872485)","[0.008271765690145897, 0.0009825673510857613, 0.0004287200514094952]","[-0.026750000193715096, 0.05299999937415123, 0.03999999910593033]","[0.0, -0.0, 0.46305962179174054]","[-0.058911506086587906, 0.11741767823696136, 0.03999999910593033]","[0.0, 0.0, -0.37502576922874326]","[0.026750000193715096, 0.05299999937415123, 0.03999999910593033]","[0.0, 0.0, -0.6176519613024682]","[0.0684468224644661, 0.11169731616973877, 0.03999999910593033]","[0.0, -0.0, 0.2264707878206691]",0.4601832562362509,-0.6903261344849132,"(0.0, 0.0, 0.0, 0.0, 0.0, 0.0)",-1.1502571867065055,-0.8375978300984578,0.11701051638047075,"(0.0, 0.0, 0.0, 0.0, 0.0, 0.0)",-0.6859420161397242,-0.6202544782434184,-0.6246083706505441,"(0.0, 0.0, 0.0, 0.0, 0.0, 0.0)",1.2165457821135728,0.843751437251139,-0.08910952188048743,"(0.0, 0.0, 0.0, 0.0, 0.0, 0.0)",0.5450578857158224,True,"(-0.02110830840593482, 0.18150952745669396, 0.023998072811905514)","(0.9986502439885334, 0.05190355533373769, -0.001926428135267484)",-0.0014322256207898532,9.470793985007502,True,"(0.04052646024042421, 0.1804539788870544, 0.02399992731985793)","(-0.9950754468226594, -0.0991203811442034, -7.192018284956585e-05)",9.872569301656087e-05,1.4198677682331549
20,Move,"(0.0174, 0.0, -0.008199999999999999)","(0.0, 0.038988910160301336, 0.0)","(0.012097540060335598, 0.1595083645262946, 0.048353092725109)","(0.0022040738961014448, 0.0001170688575197828, 0.04245889121562242)","[0.009915549952693867, 0.0007593849856430412, 0.00040027423374627835]","[-0.026750000193715096, 0.05299999937415123, 0.03999999910593033]","[0.0, -0.0, 0.4481315953408902]","[-0.057946331799030304, 0.11789058893918991, 0.03999999910593033]","[0.0, 0.0, -0.38705753520109965]","[0.026750000193715096, 0.05299999937415123, 0.03999999910593033]","[0.0, 0.0, -0.6309666409061586]","[0.06922464817762375, 0.11113694310188293, 0.03999999910593033]","[0.0, -0.0, 0.21105231992293055]",0.44559202915374085,-0.6094952624491312,"(0.0, 0.0, 0.0, 0.0, 0.0, 0.0)",-1.6510509048342052,-0.8345864580948088,0.14464059039393573,"(0.0, 0.0, 0.0, 0.0, 0.0, 0.0)",-0.9267101112227158,-0.6332261886539857,-0.5422709861721974,"(0.0, 0.0, 0.0, 0.0, 0.0, 0.0)",1.5643307836764515,0.8415997736181018,-0.10062315463304457,"(0.0, 0.0, 0.0, 0.0, 0.0, 0.0)",0.6679517472064795,True,"(-0.0193748683199665, 0.18152591802142276, 0.023999698732906492)","(0.9988711790926902, 0.04750028708798595, -0.0003005071342915269)",-0.0012462186372001439,11.162145251311763,True,"(0.04238740497839308, 0.17918749025259556, 0.023999929780114063)","(-0.9989440754194592, -0.04594267471186641, -6.945992671504053e-05)",-2.8623983711431022e-05,11.750060937336935
21,Move,"(0.0155, 0.0, -0.0091)","(0.0, 0.1663263870565556, 0.0)","(0.013248752544008905, 0.15951923347558492, 0.048483147872209295)","(0.0010645407071198762, 0.0013606600935166255, 0.036003230575466914)","[0.011066762436367174, 0.0007702539349333515, 0.0005303293808465726]","[-0.026750000193715096, 0.05299999937415123, 0.03999999910593033]","[0.0, -0.0, 0.43598388775570596]","[-0.057155776768922806, 0.11826475709676743, 0.03999999910593033]","[0.0, 0.0, -0.3954776342190893]","[0.026750000193715096, 0.05299999937415123, 0.03999999910593033]","[0.0, 0.0, -0.6406906432916862]","[0.06978794932365417, 0.11072118580341339, 0.03999999910593033]","[0.0, -0.0, 0.19876452099719552]",0.4340124392982785,-0.47314242914225535,"(0.0, 0.0, 0.0, 0.0, 0.0, 0.0)",-2.0471796972683434,-0.8307526928276586,0.17012375452410852,"(0.0, 0.0, 0.0, 0.0, 0.0, 0.0)",-1.1310191415759887,-0.6421527218466652,-0.35090189761923585,"(0.0, 0.0, 0.0, 0.0, 0.0, 0.0)",1.7141438047499844,0.8389846151266706,-0.11292190186816634,"(0.0, 0.0, 0.0, 0.0, 0.0, 0.0)",0.7720745542290712,True,"(-0.01804995816010696, 0.18157556562205118, 0.0239988781650903)","(0.9993173767463764, 0.03692592211030622, -0.0011210749504854747)",-0.0011985124275796899,14.460537113861749,True,"(0.04378890383391993, 0.17909635424392062, 0.023999929780114063)","(-0.9989440754194592, -0.04594267471186641, -6.945992671504053e-05)",3.075075551072975e-05,9.573045783294562
22,Move,"(0.0137, 0.0, -0.009300000000000001)","(0.0, 0.23787092375430716, 0.0)","(0.01408765497980031, 0.1595589333566944, 0.04855591150507366)","(-0.0014730208568080848, 0.002261720816167576, 0.0326782014472565)","[0.01190566487215858, 0.0008099538160428466, 0.0006030930137109342]","[-0.026750000193715096, 0.05299999937415123, 0.03999999910593033]","[0.0, -0.0, 0.42634720282826394]","[-0.05652543902397156, 0.1185547336935997, 0.03999999910593033]","[0.0, 0.0, -0.4008106427595807]","[0.026750000193715096, 0.05299999937415123, 0.03999999910593033]","[0.0, 0.0, -0.646752237636759]","[0.07013703882694244, 0.11045924574136734, 0.03999999910593033]","[0.0, -0.0, 0.18969277569578483]",0.42476617898907354,-0.37944522896535515,"(0.0, 0.0, 0.0, 0.0, 0.0, 0.0)",-2.432867010355426,-0.8263168815403047,0.2018162167299814,"(0.0, 0.0, 0.0, 0.0, 0.0, 0.0)",-1.3281194000714334,-0.6476328133358614,-0.21134015965665498,"(0.0, 0.0, 0.0, 0.0, 0.0, 0.0)",2.0027224897388436,0.8358767284635298,-0.13638503669135685,"(0.0, 0.0, 0.0, 0.0, 0.0, 0.0)",0.9279207476657413,True,"(-0.017082595290620513, 0.18165749958771477, 0.02399802479024005)","(0.9994533452527342, 0.033001700124434666, -0.001974449800735552)",-0.0011984674256687903,17.02327479287836,True,"(0.04475933552943069, 0.17906745603118862, 0.023999929780114063)","(-0.9989440754194592, -0.04594267471186641, -6.945992671504053e-05)",5.023251630056863e-05,9.763277135465346
23,Move,"(0.0132, 0.0, -0.0055)","(0.0, 0.15274074415903177, 0.0)","(0.01489700711483437, 0.1595482239100829, 0.04859266603289164)","(-0.0028180043376040925, 0.0028032182937418634, 0.03148341719151208)","[0.01271501700719264, 0.0007992443694313234, 0.0006398475415289179]","[-0.026750000193715096, 0.05299999937415123, 0.03999999910593033]","[0.0, -0.0, 0.4184564652650549]","[-0.05600723624229431, 0.11878764629364014, 0.03999999910593033]","[0.0, 0.0, -0.40491032522018366]","[0.026750000193715096, 0.05299999937415123, 0.03999999910593033]","[0.0, 0.0, -0.6519691886468585]","[0.07043620944023132, 0.11023211479187012, 0.03999999910593033]","[0.0, -0.0, 0.1818352001391985]",0.4171426796740876,-0.3152917060816115,"(0.0, 0.0, 0.0, 0.0, 0.0, 0.0)",-1.7969728560415064,-0.8227797978294779,0.14086011017007327,"(0.0, 0.0, 0.0, 0.0, 0.0, 0.0)",-0.9854083751969109,-0.6529220360768335,-0.22868146125418365,"(0.0, 0.0, 0.0, 0.0, 0.0, 0.0)",1.5007523559818081,0.8333708034094718,-0.10405721177578953,"(0.0, 0.0, 0.0, 0.0, 0.0, 0.0)",0.7100754306759239,True,"(-0.016306104909705813, 0.18173087546779126, 0.023997289767278582)","(0.9994967296592763, 0.03160610950057761, -0.0027094727622001386)",-0.0011636303114855398,12.380652960229476,True,"(0.045598379926735766, 0.17903761395445728, 0.023999929780114063)","(-0.9989440754194592, -0.04594267471186641, -6.945992671504053e-05)",8.192708329546053e-05,3.401058592388337
24,Move,"(0.0195, 0.0, -0.006900000000000001)","(0.0, 0.013110913340981403, 0.0)","(0.016283115678740648, 0.15935731291776606, 0.0486387629315495)","(-0.0035845723526703676, 0.002331005306921446, 0.02667448746290979)","[0.014101125571098917, 0.000608333377114495, 0.0006859444401867767]","[-0.026750000193715096, 0.05299999937415123, 0.03999999910593033]","[0.0, -0.0, 0.4071500092790192]","[-0.05526156350970268, 0.1191142275929451, 0.03999999910593033]","[0.0, 0.0, -0.4130023549478799]","[0.026750000193715096, 0.05299999937415123, 0.03999999910593033]","[0.0, 0.0, -0.6612864505081095]","[0.07096754759550095, 0.1098226010799408, 0.03999999910593033]","[0.0, -0.0, 0.17022366273936101]",0.40478148367774947,-0.568451895819597,"(0.0, 0.0, 0.0, 0.0, 0.0, 0.0)",-1.604779157399928,-0.8195634008941451,0.14135500215823651,"(0.0, 0.0, 0.0, 0.0, 0.0, 0.0)",-0.9348382871467237,-0.6633061620399414,-0.48473023094997847,"(0.0, 0.0, 0.0, 0.0, 0.0, 0.0)",1.4704576210777063,0.8311090631547521,-0.09624934409141031,"(0.0, 0.0, 0.0, 0.0, 0.0, 0.0)",0.6532472865056057,True,"(-0.015052499934198563, 0.18173812860189242, 0.023997621132681696)","(0.9996187192922774, 0.027509282903332197, -0.002378107359090078)",-0.0010532120497119678,10.626521546244401,True,"(0.046930315759179005, 0.1789118603711432, 0.023999929780114063)","(-0.9989440754194592, -0.04594267471186641, -6.945992671504053e-05)",6.923064455733428e-05,4.029912457075636
25,Move,"(0.0189, 0.0, -0.0074)","(0.0, 0.05592383989240231, 0.0)","(0.01751423392564019, 0.1591974821745532, 0.04867391708966528)","(-0.00410024876671618, 0.0021734557360432974, 0.023023010391287853)","[0.01533224381799846, 0.0004485026339016429, 0.0007210985983025567]","[-0.026750000193715096, 0.05299999937415123, 0.03999999910593033]","[0.0, -0.0, 0.395510078263259]","[-0.05449008196592331, 0.11944161355495453, 0.03999999910593033]","[0.0, 0.0, -0.4214304922907721]","[0.026750000193715096, 0.05299999937415123, 0.03999999910593033]","[0.0, 0.0, -0.6708595989684356]","[0.0715094804763794, 0.10939671099185944, 0.03999999910593033]","[0.0, -0.0, 0.1584270864292892]",0.3935905041043705,-0.46069847547884096,"(0.0, 0.0, 0.0, 0.0, 0.0, 0.0)",-1.606990906273068,-0.8163721187904106,0.1364284330981246,"(0.0, 0.0, 0.0, 0.0, 0.0, 0.0)",-0.9197368653258068,-0.67240239256635,-0.370288770301121,"(0.0, 0.0, 0.0, 0.0, 0.0, 0.0)",1.4253876172928088,0.8288865523361386,-0.09601332705421191,"(0.0, 0.0, 0.0, 0.0, 0.0, 0.0)",0.6459923139757139,True,"(-0.01375474459669531, 0.18172884359225852, 0.023997834335365335)","(0.9997210358726419, 0.02351943072180765, -0.002164904675448541)",-0.0009714439477348884,10.664960689501958,True,"(0.04828891752165404, 0.17876470850242154, 0.023999929780114063)","(-0.9989440754194592, -0.04594267471186641, -6.945992671504053e-05)",6.810518931389766e-05,3.82444566847547
26,Move,"(0.019, 0.0, -0.0106)","(0.0, 0.09422683565666987, 0.0)","(0.018581191950330714, 0.15907321329268284, 0.048707016700929126)","(-0.004834323297345089, 0.002195755951964688, 0.02038670349291327)","[0.016399201842688983, 0.0003242337520312777, 0.0007541982095664035]","[-0.026750000193715096, 0.05299999937415123, 0.03999999910593033]","[0.0, -0.0, 0.38533558981399696]","[-0.053812649101018906, 0.11972040683031082, 0.03999999910593033]","[0.0, 0.0, -0.4283653548244163]","[0.026750000193715096, 0.05299999937415123, 0.03999999910593033]","[0.0, 0.0, -0.6786874257465837]","[0.07194957882165909, 0.10904461145401001, 0.03999999910593033]","[0.0, -0.0, 0.14830897986743546]",0.38358090197887884,-0.42111858997711676,"(0.0, 0.0, 0.0, 0.0, 0.0, 0.0)",-1.6727101699727391,-0.813115872755459,0.140412813704177,"(0.0, 0.0, 0.0, 0.0, 0.0, 0.0)",-0.9471571794496889,-0.6800043789895811,-0.3160613376754689,"(0.0, 0.0, 0.0, 0.0, 0.0, 0.0)",1.4643008337905552,0.8265783691580268,-0.10033607445246999,"(0.0, 0.0, 0.0, 0.0, 0.0, 0.0)",0.6729113772778768,True,"(-0.012646415436777386, 0.1817278044057316, 0.023997838095799376)","(0.9997825956695132, 0.020738631871424194, -0.0021611442414049757)",-0.0009267077432095728,11.116573996006974,True,"(0.04943206077240776, 0.17864400325557817, 0.023999929780114063)","(-0.9989440754194592, -0.04594267471186641, -6.945992671504053e-05)",7.231611184388786e-05,3.7562162488903947
27,Move,"(0.0192, 0.0, -0.0114)","(0.0, 0.03438473159354028, 0.0)","(0.019603323484582786, 0.1589440812624057, 0.0487419555263508)","(-0.005615202106018388, 0.0020688306070428468, 0.017867317561896023)","[0.017421333376941055, 0.00019510172175413176, 0.0007891370349880772]","[-0.026750000193715096, 0.05299999937415123, 0.03999999910593033]","[0.0, -0.0, 0.3757517631344841]","[-0.05317198112607002, 0.119976706802845, 0.03999999910593033]","[0.0, 0.0, -0.43486360733559043]","[0.026750000193715096, 0.05299999937415123, 0.03999999910593033]","[0.0, 0.0, -0.6859816849440025]","[0.0723571702837944, 0.10871343314647675, 0.03999999910593033]","[0.0, -0.0, 0.13878993726503386]",0.3740714727025918,-0.4032691246544373,"(0.0, 0.0, 0.0, 0.0, 0.0, 0.0)",-1.5578789759110874,-0.8100759862927052,0.12945699537292965,"(0.0, 0.0, 0.0, 0.0, 0.0, 0.0)",-0.8790007620598008,-0.6872705597810799,-0.3093471988415475,"(0.0, 0.0, 0.0, 0.0, 0.0, 0.0)",1.367439808466894,0.8243817328399775,-0.09354996988635648,"(0.0, 0.0, 0.0, 0.0, 0.0, 0.0)",0.6321728241431672,True,"(-0.011603743104793368, 0.1817192671709362, 0.023997940018869977)","(0.9998317792234906, 0.01822561008469073, -0.002059221170806546)",-0.000882910407029887,10.310549413675702,True,"(0.050503184424138384, 0.17852401174623855, 0.023999929780114063)","(-0.9989440754194592, -0.04594267471186641, -6.945992671504053e-05)",7.049799010005247e-05,3.1749205327827257
28,Move,"(0.0247, 0.0, -0.0125)","(0.0, 0.12435470920459603, 0.0)","(0.020888452461640013, 0.1587724519598453, 0.04877994223519924)","(-0.006681264055788305, 0.0022424931988967666, 0.013010674259363449)","[0.018706462353998282, 2.3472419193731886e-05, 0.0008271237438365192]","[-0.026750000193715096, 0.05299999937415123, 0.03999999910593033]","[0.0, -0.0, 0.3635021219128234]","[-0.052349574863910675, 0.12029533088207245, 0.03999999910593033]","[0.0, 0.0, -0.44340619615799337]","[0.026750000193715096, 0.05299999937415123, 0.03999999910593033]","[0.0, 0.0, -0.6949418480325439]","[0.07285453379154205, 0.10830254852771759, 0.03999999910593033]","[0.0, -0.0, 0.12717371445624998]",0.3610661237346016,-0.5846325862006383,"(0.0, 0.0, 0.0, 0.0, 0.0, 0.0)",-2.017948798430296,-0.8061767381754349,0.1755754473927514,"(0.0, 0.0, 0.0, 0.0, 0.0, 0.0)",-1.154263265673223,-0.6966933584497657,-0.4203769154180823,"(0.0, 0.0, 0.0, 0.0, 0.0, 0.0)",1.828641744437838,0.8215895773516166,-0.12622127496431532,"(0.0, 0.0, 0.0, 0.0, 0.0, 0.0)",0.8356594997666654,True,"(-0.010255469060189655, 0.18168460045084228, 0.02399779051748096)","(0.9999031853782147, 0.01373831922591604, -0.0022087225598242254)",-0.0009076062290459076,13.269603147610654,True,"(0.05181293891678539, 0.17836227716198977, 0.023999929780114063)","(-0.9989440754194592, -0.04594267471186641, -6.945992671504053e-05)",8.266694167656749e-05,5.359555957826774
29,Move,"(0.0282, 0.0, -0.0125)","(0.0, 0.11590207963718746, 0.0)","(0.022391192630673858, 0.15851287386848026, 0.048827152950224426)","(-0.008161513758566278, 0.002229410307662586, 0.00686562973410455)","[0.020209202523032127, -0.00023610567217130507, 0.000874334458861703]","[-0.026750000193715096, 0.05299999937415123, 0.03999999910593033]","[0.0, -0.0, 0.3484810139209041]","[-0.05133587867021561, 0.12067225575447083, 0.03999999910593033]","[0.0, 0.0, -0.45410026497479716]","[0.026750000193715096, 0.05299999937415123, 0.03999999910593033]","[0.0, 0.0, -0.7057654113296258]","[0.07345039397478104, 0.10780030488967896, 0.03999999910593033]","[0.0, -0.0, 0.11319718787328112]",0.3456859053060777,-0.6708286254607985,"(0.0, 0.0, 0.0, 0.0, 0.0, 0.0)",-2.229731874155588,-0.8017831616021943,0.19155266535598703,"(0.0, 0.0, 0.0, 0.0, 0.0, 0.0)",-1.2733438700345538,-0.707781629281758,-0.48390393425029166,"(0.0, 0.0, 0.0, 0.0, 0.0, 0.0)",2.0578231145866708,0.8183750998657104,-0.14098880156874005,"(0.0, 0.0, 0.0, 0.0, 0.0, 0.0)",0.9432291437758878,True,"(-0.008587716067892825, 0.18161264704788338, 0.02399777559116747)","(0.9999669242006051, 0.007823419359190507, -0.002223648873310056)",-0.0009707333537852724,14.608223735315688,True,"(0.05339001248383063, 0.1781472677031659, 0.023999929780114063)","(-0.9989440754194592, -0.04594267471186641, -6.945992671504053e-05)",9.305286351850226e-05,5.978395158172904
30,Move,"(0.0325, 0.0, -0.0158)","(0.0, 0.021750293138353336, 0.0)","(0.024196555873552305, 0.1582087331697712, 0.048991598340041964)","(-0.015010557960130925, 0.0018856704541431839, -0.0015288958254596119)","[0.022014565765910574, -0.0005402463708803762, 0.0010387798486792416]","[-0.026750000193715096, 0.05299999937415123, 0.03999999910593033]","[0.0, -0.0, 0.33062697170593036]","[-0.050123799592256546, 0.12110041081905365, 0.03999999910593033]","[0.0, 0.0, -0.46730693232833614]","[0.026750000193715096, 0.05299999937415123, 0.03999999910593033]","[0.0, 0.0, -0.7188896299578735]","[0.07416556030511856, 0.10718269646167755, 0.03999999910593033]","[0.0, -0.0, 0.09649975335519198]",0.32725372884626086,-0.8095740853209613,"(0.0, 0.0, 0.0, 0.0, 0.0, 0.0)",-2.38804770455153,-0.7971072652238285,0.19838674874646156,"(0.0, 0.0, 0.0, 0.0, 0.0, 0.0)",-1.3400226235535682,-0.7213881971989805,-0.5996763098147804,"(0.0, 0.0, 0.0, 0.0, 0.0, 0.0)",2.300711025234362,0.8147135952179886,-0.16216800461013223,"(0.0, 0.0, 0.0, 0.0, 0.0, 0.0)",1.0888780371719013,True,"(-0.006574554423625423, 0.18147619432748757, 0.023998047676720806)","(0.9999980876426772, -0.00012693146421859178, -0.0019515633199795432)",-0.0010449624116624368,15.610182706900492,True,"(0.055282452584438486, 0.17785363367962925, 0.046893040223192094)","(-0.9990255027568367, -0.044136651329619976, 2.916945968887098e-05)",4.28801312636454e-05,12.148513954477343
31,Move,"(0.032299999999999995, 0.0, -0.0169)","(0.0, 0.025921630050619787, 0.0)","(0.025876151846321284, 0.1580245413325359, 0.04923665433299148)","(-0.026021855657412146, 0.0013585967621307315, -0.008547115281404026)","[0.023694161738679553, -0.0007244382081156575, 0.0012838358416287568]","[-0.026750000193715096, 0.05299999937415123, 0.03999999910593033]","[0.0, -0.0, 0.3130202304728401]","[-0.048921212553977966, 0.1215013638138771, 0.03999999910593033]","[0.0, 0.0, -0.48031719639810744]","[0.026750000193715096, 0.05299999937415123, 0.03999999910593033]","[0.0, 0.0, -0.7314532159009819]","[0.07484253495931625, 0.10658272355794907, 0.03999999910593033]","[0.0, -0.0, 0.08001787226575535]",0.31000843724648697,-0.7228295407866643,"(0.0, 0.0, 0.0, 0.0, 0.0, 0.0)",-2.4673653603033423,-0.7925225756533761,0.19557194282632262,"(0.0, 0.0, 0.0, 0.0, 0.0, 0.0)",-1.3473217687249286,-0.7335555628075915,-0.5045627051589416,"(0.0, 0.0, 0.0, 0.0, 0.0, 0.0)",2.352680171270485,0.8107559932191051,-0.1716234909990284,"(0.0, 0.0, 0.0, 0.0, 0.0, 0.0)",1.153004062255088,True,"(-0.004590109232337755, 0.18131113285168185, 0.023998566192356564)","(0.9999710346875431, -0.007475035803199542, -0.0014330476842235637)",-0.0011288404735072025,16.165790068887667,True,"(0.057122984836442875, 0.1774759766569215, 0.056001433807643435)","(-0.999971034687543, 0.007475035803207511, 0.0014330476842188738)",-5.104689391084207e-05,18.281701838727546
32,Move,"(0.0292, 0.0, -0.0155)","(0.0, -0.0, 0.0)","(0.02717706656634574, 0.15789243973663522, 0.04938000559618295)","(-0.03289835883664165, 0.0009923952915749951, -0.012413486869043498)","[0.02499507645870401, -0.000856539804016343, 0.0014271871048202253]","[-0.026750000193715096, 0.05299999937415123, 0.03999999910593033]","[0.0, -0.0, 0.2988942247827816]","[-0.04795138165354729, 0.12180771678686142, 0.03999999910593033]","[0.0, 0.0, -0.4899858628911638]","[0.026750000193715096, 0.05299999937415123, 0.03999999910593033]","[0.0, 0.0, -0.7408514181900111]","[0.07534398138523102, 0.10612837970256805, 0.03999999910593033]","[0.0, -0.0, 0.06671709311549684]",0.29663415279438793,-0.5424183503848587,"(0.0, 0.0, 0.0, 0.0, 0.0, 0.0)",-2.434428482198441,-0.7880903673857649,0.18954283844447273,"(0.0, 0.0, 0.0, 0.0, 0.0, 0.0)",-1.305335247229573,-0.7423051759214038,-0.348898417448893,"(0.0, 0.0, 0.0, 0.0, 0.0, 0.0)",2.251376807953868,0.8068775122966098,-0.16584523538503526,"(0.0, 0.0, 0.0, 0.0, 0.0, 0.0)",1.1179021136744272,True,"(-0.0030440035363892767, 0.1811912576820276, 0.023998961099580583)","(0.9999280316578346, -0.011952144965391527, -0.0010381404602032608)",-0.0011887055114952448,15.881759543105247,True,"(0.058568765071987536, 0.17724221670271334, 0.056001038900419416)","(-0.9999280316578345, 0.01195214496538448, 0.0010381404601983565)",-6.298338214573838e-05,17.679694938671126
33,Move,"(0.0253, 0.0, -0.016300000000000002)","(0.0, 0.10008416062636283, 0.0)","(0.02792854384994666, 0.15785081668370196, 0.049409450297637394)","(-0.03532300245831357, 0.0012320761747764055, -0.01268630492500801)","[0.025746553742304928, -0.0008981628569496025, 0.001456631806274672]","[-0.026750000193715096, 0.05299999937415123, 0.03999999910593033]","[0.0, -0.0, 0.2898524877352253]","[-0.04732838273048401, 0.12199659645557404, 0.03999999910593033]","[0.0, 0.0, -0.49478115009139745]","[0.026750000193715096, 0.05299999937415123, 0.03999999910593033]","[0.0, 0.0, -0.7457284063661165]","[0.07560250908136368, 0.10589075833559036, 0.03999999910593033]","[0.0, -0.0, 0.058135748398932374]",0.28857590919723314,-0.3063825038171267,"(0.0, 0.0, 0.0, 0.0, 0.0, 0.0)",-2.3322176211425183,-0.7839059736990132,0.17463241653902026,"(0.0, 0.0, 0.0, 0.0, 0.0, 0.0)",-1.192972072808888,-0.7462965005145286,-0.13635493526522935,"(0.0, 0.0, 0.0, 0.0, 0.0, 0.0)",2.0880901947313526,0.8032064997647379,-0.15782405860067192,"(0.0, 0.0, 0.0, 0.0, 0.0, 0.0)",1.0821121903149082,True,"(-0.0021367070246484585, 0.18116812237188923, 0.023998837613905286)","(0.9999181424289825, -0.012742019702322851, -0.0011616261354973146)",-0.0012240823826286087,15.49369780754574,True,"(0.05943802300469093, 0.1771381403993756, 0.056001162386094726)","(-0.9999181424289825, 0.012742019702317921, 0.0011616261355060814)",-6.605276471537849e-05,16.648615076011254
34,Move,"(0.018000000000000002, 0.0, -0.0125)","(0.0, 0.2953673053027564, 0.0)","(0.027774427589803582, 0.1580290599774969, 0.049406037558161385)","(-0.03636961150364246, 0.0006474214539288429, -0.011607639516807938)","[0.02559243748216185, -0.0007199195631546751, 0.0014532190667986625]","[-0.026750000193715096, 0.05299999937415123, 0.03999999910593033]","[0.0, -0.0, 0.2873005347539999]","[-0.047152239829301834, 0.12204888463020325, 0.03999999910593033]","[0.0, 0.0, -0.4932306852062543]","[0.026750000193715096, 0.05299999937415123, 0.03999999910593033]","[0.0, 0.0, -0.7429773489571686]","[0.07545682042837143, 0.10602495074272156, 0.03999999910593033]","[0.0, -0.0, 0.05616906617869049]",0.28726596798120896,-0.008300891589108291,"(0.0, 0.0, 0.0, 0.0, 0.0, 0.0)",-2.604087047282842,-0.7797976434747309,0.17606531594210953,"(0.0, 0.0, 0.0, 0.0, 0.0, 0.0)",-1.1998456756031082,-0.7419469274109157,0.2473021103861688,"(0.0, 0.0, 0.0, 0.0, 0.0, 0.0)",2.6313669425603976,0.7982158120721604,-0.22334514584173942,"(0.0, 0.0, 0.0, 0.0, 0.0, 0.0)",1.494495061038322,True,"(-0.0020523656726567363, 0.18128979767707454, 0.02399918370715707)","(0.9999300306077807, -0.011801220057188856, -0.0008155328837104356)",-0.001302597148649036,16.667281471558343,True,"(0.059432448898692564, 0.1773010787213582, 0.056000816292842946)","(-0.9999300306077804, 0.011801220057215163, 0.0008155328837258653)",-6.99171603602709e-05,21.18170800318674
35,Move,"(0.0136, 0.0, -0.012)","(0.0, 0.35240641058718314, 0.0)","(0.027109395678504598, 0.15834885508840274, 0.049359601308162936)","(-0.03514155275807623, -1.2595148857359906e-05, -0.009378071983714075)","[0.024927405570862867, -0.0004001244522488234, 0.001406782816800213]","[-0.026750000193715096, 0.05299999937415123, 0.03999999910593033]","[0.0, -0.0, 0.2891628822180716]","[-0.047280795872211456, 0.12201076745986938, 0.03999999910593033]","[0.0, 0.0, -0.4871123642535499]","[0.026750000193715096, 0.05299999937415123, 0.03999999910593033]","[0.0, 0.0, -0.7347237980887024]","[0.0750175192952156, 0.10642515122890472, 0.03999999910593033]","[0.0, -0.0, 0.05874866355086484]",0.2896810260320348,0.12436237452497112,"(0.0, 0.0, 0.0, 0.0, 0.0, 0.0)",-2.903206480715591,-0.775497625424847,0.1866219511054224,"(0.0, 0.0, 0.0, 0.0, 0.0, 0.0)",-1.2805531704425255,-0.733030669118644,0.406342995315139,"(0.0, 0.0, 0.0, 0.0, 0.0, 0.0)",2.8562929426554335,0.7924288573655077,-0.2504568783257172,"(0.0, 0.0, 0.0, 0.0, 0.0, 0.0)",1.688724999007146,True,"(-0.002544247961550415, 0.181522419121021, 0.023999893225115032)","(0.9999522449339194, -0.00977223681919337, -0.00010601492575119084)",-0.0014290744039003984,18.713686255198528,True,"(0.05880934337583696, 0.17766025103185923, 0.05600010677488495)","(-0.9999522449339192, 0.009772236819197139, 0.0001060149257322622)",-5.991487426937969e-05,23.227202932994015
36,Move,"(0.0136, 0.0, -0.0119)","(0.0, 0.3815952969975363, 0.0)","(0.026434116909701613, 0.1586922380427106, 0.04949552829481733)","(-0.03919273846256961, -0.004103126375982494, -0.010557617529611853)","[0.024252126802059883, -5.674149794096528e-05, 0.0015427098034546047]","[-0.026750000193715096, 0.05299999937415123, 0.03999999910593033]","[0.0, -0.0, 0.2912361643707883]","[-0.0474238321185112, 0.12196805328130722, 0.03999999910593033]","[0.0, 0.0, -0.4803487692131186]","[0.026750000193715096, 0.05299999937415123, 0.03999999910593033]","[0.0, 0.0, -0.7255715362073687]","[0.07452654838562012, 0.10686466097831726, 0.03999999910593033]","[0.0, -0.0, 0.0605601903319523]",0.29153327592349393,0.07131072941919242,"(0.0, 0.0, 0.0, 0.0, 0.0, 0.0)",-3.2773233035778575,-0.7706702332789221,0.2195245383415362,"(0.0, 0.0, 0.0, 0.0, 0.0, 0.0)",-1.4588613069985195,-0.7239726831951193,0.3837351693383808,"(0.0, 0.0, 0.0, 0.0, 0.0, 0.0)",4.143206240020105,0.7847120073968202,-0.34074324071845397,"(0.0, 0.0, 0.0, 0.0, 0.0, 0.0)",2.2826961736377096,True,"(-0.0030908166197156015, 0.1817809207949685, 0.023999893225115032)","(0.9999522449339194, -0.00977223681919337, -0.00010601492575119084)",-0.0014685631460527656,17.872388346772308,True,"(0.05818935410512915, 0.17807028220433307, 0.05600010677488495)","(-0.9999522449339192, 0.009772236819197139, 0.0001060149257322622)",1.3512952705822585e-05,23.86815489763508
37,Move,"(0.0151, 0.0, -0.0114)","(0.0, 0.37720230327026655, 0.0)","(0.025976255221212326, 0.15901890807996005, 0.04959890163306846)","(-0.04326060805993135, -0.008436804226742789, -0.011786297833661669)","[0.023794265113570596, 0.00026992853930848937, 0.001646083141705737]","[-0.026750000193715096, 0.05299999937415123, 0.03999999910593033]","[0.0, -0.0, 0.29165954067641847]","[-0.047453030943870544, 0.12195929884910583, 0.03999999910593033]","[0.0, 0.0, -0.47473891159855985]","[0.026750000193715096, 0.05299999937415123, 0.03999999910593033]","[0.0, 0.0, -0.7177786707252949]","[0.07410533726215363, 0.10723533481359482, 0.03999999910593033]","[0.0, -0.0, 0.06072138708381446]",0.29162131415949977,-0.009177246105167437,"(0.0, 0.0, 0.0, 0.0, 0.0, 0.0)",-3.372447599409568,-0.765462897820849,0.22452483307166568,"(0.0, 0.0, 0.0, 0.0, 0.0, 0.0)",-1.5344162738186515,-0.7164989434337309,0.3071406534904052,"(0.0, 0.0, 0.0, 0.0, 0.0, 0.0)",4.2008697014633505,0.7771374971449242,-0.327021771114134,"(0.0, 0.0, 0.0, 0.0, 0.0, 0.0)",2.235368172433052,True,"(-0.0034562565448864116, 0.18201992275369788, 0.023999893225115032)","(0.9999522449339194, -0.00977223681919337, -0.00010601492575119084)",-0.0014719463393822023,17.362723311391417,True,"(0.057756668459891136, 0.1784383254537001, 0.05600010677488495)","(-0.9999522449339192, 0.009772236819197139, 0.0001060149257322622)",9.247432261642089e-05,17.082689856118414
38,Move,"(0.013800000000000002, 0.0, -0.0111)","(0.0, 0.35800717215683286, 0.0)","(0.02550307433624877, 0.15933964558579058, 0.04969784245645557)","(-0.047131759072851956, -0.012595440163288684, -0.012947226444542687)","[0.02332108422860704, 0.0005906660451390211, 0.0017450239650928442]","[-0.026750000193715096, 0.05299999937415123, 0.03999999910593033]","[0.0, -0.0, 0.2923810799569889]","[-0.047502778470516205, 0.12194433808326721, 0.03999999910593033]","[0.0, 0.0, -0.46920035246575814]","[0.026750000193715096, 0.05299999937415123, 0.03999999910593033]","[0.0, 0.0, -0.7103008847494222]","[0.07369846105575562, 0.10758792608976364, 0.03999999910593033]","[0.0, -0.0, 0.060956799992009196]",0.29259455939071305,0.0512382721963992,"(0.0, 0.0, 0.0, 0.0, 0.0, 0.0)",-3.1106467022246487,-0.7607504314429004,0.19943575924690746,"(0.0, 0.0, 0.0, 0.0, 0.0, 0.0)",-1.3739709280322694,-0.7089433344721913,0.32582118575880564,"(0.0, 0.0, 0.0, 0.0, 0.0, 0.0)",3.9491792429022645,0.7699732170642717,-0.308280884345121,"(0.0, 0.0, 0.0, 0.0, 0.0, 0.0)",2.1095359114271997,True,"(-0.0038393262114654603, 0.18224772177959409, 0.023999893225115032)","(0.9999522449339194, -0.00977223681919337, -0.00010601492575119084)",-0.0014142155892259841,14.985840895328783,True,"(0.057333027520530516, 0.1787870677695811, 0.05600010677488495)","(-0.9999522449339192, 0.009772236819197139, 0.0001060149257322622)",0.0001336041873641627,11.339992028229672
39,Move,"(0.0158, 0.0, -0.0103)","(0.0, 0.34128342726422317, 0.0)","(0.02523750557537331, 0.15961139706004707, 0.04980654276007136)","(-0.05106130235298675, -0.016150699564747004, -0.014457293455654701)","[0.023055515467731578, 0.000862417519395503, 0.0018537242687086397]","[-0.026750000193715096, 0.05299999937415123, 0.03999999910593033]","[0.0, -0.0, 0.2920964974678853]","[-0.047483161091804504, 0.12195024639368057, 0.03999999910593033]","[0.0, 0.0, -0.4645342580604005]","[0.026750000193715096, 0.05299999937415123, 0.03999999910593033]","[0.0, 0.0, -0.7042724350477828]","[0.07336851954460144, 0.10786996781826019, 0.03999999910593033]","[0.0, -0.0, 0.060047612962733185]",0.29191202859126386,-0.044271496266617666,"(0.0, 0.0, 0.0, 0.0, 0.0, 0.0)",-3.316519742715468,-0.7556723282980463,0.23002645628388788,"(0.0, 0.0, 0.0, 0.0, 0.0, 0.0)",-1.5292477312435804,-0.7033433998721373,0.22295261639568828,"(0.0, 0.0, 0.0, 0.0, 0.0, 0.0)",3.859061892722699,0.7630829675284253,-0.29688270622491264,"(0.0, 0.0, 0.0, 0.0, 0.0, 0.0)",2.015351566775918,True,"(-0.004101559651687091, 0.18245670413613013, 0.023999893225115032)","(0.9999522449339194, -0.00977223681919337, -0.00010601492575119084)",-0.0013314934575108378,15.735143626194224,True,"(0.05706783029842502, 0.17908395524352858, 0.05600010677488495)","(-0.9999522449339192, 0.009772236819197139, 0.0001060149257322622)",0.00017484349599540105,6.64509790698001
40,Move,"(0.0137, 0.0, -0.0116)","(0.0, 0.34683182895631326, 0.0)","(0.024849792854964102, 0.15990940639762896, 0.04991202847087051)","(-0.05495092993236902, -0.02000128806922862, -0.0159412681161352)","[0.02266780274732237, 0.0011604268569773979, 0.001959209979507791]","[-0.026750000193715096, 0.05299999937415123, 0.03999999910593033]","[0.0, -0.0, 0.292406296745989]","[-0.04750451818108559, 0.12194381654262543, 0.03999999910593033]","[0.0, 0.0, -0.45921516245477884]","[0.026750000193715096, 0.05299999937415123, 0.03999999910593033]","[0.0, 0.0, -0.6978318444164348]","[0.07301416248083115, 0.1081690788269043, 0.03999999910593033]","[0.0, -0.0, 0.05942630277589728]",0.29258310654345804,0.04243243658232726,"(0.0, 0.0, 0.0, 0.0, 0.0, 0.0)",-3.1036204342074742,-0.7507544999217045,0.20806277731358702,"(0.0, 0.0, 0.0, 0.0, 0.0, 0.0)",-1.4218122877654706,-0.6965746758731999,0.30171062129951776,"(0.0, 0.0, 0.0, 0.0, 0.0, 0.0)",3.942857496812352,0.755953937290798,-0.3129994032151537,"(0.0, 0.0, 0.0, 0.0, 0.0, 0.0)",2.115775186022373,True,"(-0.004445375684985341, 0.18268017386623905, 0.023999893225115032)","(0.9999522449339194, -0.00977223681919337, -0.00010601492575119084)",-0.0012125113503942714,12.582000354694284,True,"(0.05675772145609334, 0.1793931788667954, 0.05600010677488495)","(-0.9999522449339192, 0.009772236819197139, 0.0001060149257322622)",0.00021448146840921908,2.638308062790304
41,Move,"(0.0151, 0.0, -0.0107)","(0.0, 0.36363585899451467, 0.0)","(0.024564352675373727, 0.16019592901594923, 0.05002619758840454)","(-0.059096895203809986, -0.0239369710692703, -0.017740965846040666)","[0.022382362567731996, 0.0014469494752976653, 0.0020733790970418192]","[-0.026750000193715096, 0.05299999937415123, 0.03999999910593033]","[0.0, -0.0, 0.2920222381245055]","[-0.04747803881764412, 0.12195178121328354, 0.03999999910593033]","[0.0, 0.0, -0.454234669236822]","[0.026750000193715096, 0.05299999937415123, 0.03999999910593033]","[0.0, 0.0, -0.6915732281281028]","[0.07266798615455627, 0.1084575429558754, 0.03999999910593033]","[0.0, -0.0, 0.058246239227463394]",0.2918298413075755,-0.04617852880348838,"(0.0, 0.0, 0.0, 0.0, 0.0, 0.0)",-3.548160346889324,-0.7452117269365977,0.2508395031832283,"(0.0, 0.0, 0.0, 0.0, 0.0, 0.0)",-1.6766586393461334,-0.69053038697538,0.2502878356396946,"(0.0, 0.0, 0.0, 0.0, 0.0, 0.0)",4.18718260255439,0.7484557366912948,-0.3273003203934485,"(0.0, 0.0, 0.0, 0.0, 0.0, 0.0)",2.20963664505373,True,"(-0.004721925315894569, 0.18290184080864846, 0.023999893225115032)","(0.9999522449339194, -0.00977223681919337, -0.00010601492575119084)",-0.0010997726322155381,14.473566985044775,True,"(0.05649559941068176, 0.17970077715198712, 0.05600010677488495)","(-0.9999522449339192, 0.009772236819197139, 0.0001060149257322622)",0.00025440091011312896,0.10587593705715713
42,Move,"(0.012400000000000001, 0.0, -0.014400000000000001)","(0.0, 0.35800717215683286, 0.0)","(0.024091693132924745, 0.160510579744061, 0.05014203679352845)","(-0.06309952874351106, -0.027998829938512527, -0.019329099279692223)","[0.021909703025283014, 0.0017616002034094302, 0.0021892183021657297]","[-0.026750000193715096, 0.05299999937415123, 0.03999999910593033]","[0.0, -0.0, 0.2927748409764101]","[-0.047529928386211395, 0.12193616479635239, 0.03999999910593033]","[0.0, 0.0, -0.44820134500749104]","[0.026750000193715096, 0.05299999937415123, 0.03999999910593033]","[0.0, 0.0, -0.684371260251878]","[0.07226739078760147, 0.10878679901361465, 0.03999999910593033]","[0.0, -0.0, 0.05793981886253448]",0.29307480176458556,0.07198993220363135,"(0.0, 0.0, 0.0, 0.0, 0.0, 0.0)",-3.1882407209774657,-0.740069865337512,0.21752112108856628,"(0.0, 0.0, 0.0, 0.0, 0.0, 0.0)",-1.4810306086272749,-0.6829672943478377,0.33695970093399163,"(0.0, 0.0, 0.0, 0.0, 0.0, 0.0)",4.064220900926306,0.7409495814157617,-0.32676516032289893,"(0.0, 0.0, 0.0, 0.0, 0.0, 0.0)",2.2068466199875267,True,"(-0.005142316700036759, 0.18314307027798243, 0.023999893225115032)","(0.9999522449339194, -0.00977223681919337, -0.00010601492575119084)",-0.0009688918900403385,10.750059715148662,True,"(0.05611684052701395, 0.1800349878067934, 0.05600010677488495)","(-0.9999522449339192, 0.009772236819197139, 0.0001060149257322622)",0.0002997997846379697,0.0
43,Move,"(0.0127, 0.0, -0.014)","(0.0, 0.35240641058718314, 0.0)","(0.023654240239031517, 0.16080688858078576, 0.05027615739412015)","(-0.06706259853259676, -0.03220748016521779, -0.021380483022552153)","[0.021472250131389786, 0.002057909040134198, 0.0023233389027574256]","[-0.026750000193715096, 0.05299999937415123, 0.03999999910593033]","[0.0, -0.0, 0.29393183194865496]","[-0.04760967195034027, 0.12191207706928253, 0.03999999910593033]","[0.0, 0.0, -0.4419489468902246]","[0.026750000193715096, 0.05299999937415123, 0.03999999910593033]","[0.0, 0.0, -0.677069177991683]","[0.07185882329940796, 0.10911768674850464, 0.03999999910593033]","[0.0, -0.0, 0.05780996943249551]",0.2940896321429513,0.03787339971027042,"(0.0, 0.0, 0.0, 0.0, 0.0, 0.0)",-3.1647936085627744,-0.7349623540667496,0.22043900719926215,"(0.0, 0.0, 0.0, 0.0, 0.0, 0.0)",-1.4926297552198604,-0.6758220304627224,0.2993109713908052,"(0.0, 0.0, 0.0, 0.0, 0.0, 0.0)",4.03585266941578,0.7335343769844512,-0.3227394222166844,"(0.0, 0.0, 0.0, 0.0, 0.0, 0.0)",2.1790720375428343,True,"(-0.0056055728690879575, 0.1833828056486185, 0.023999893225115032)","(0.9999522449339194, -0.00977223681919337, -0.00010601492575119084)",-0.0007990804932679509,9.458834978755107,True,"(0.0557175193091335, 0.18036796809425187, 0.05600010677488495)","(-0.9999522449339192, 0.009772236819197139, 0.0001060149257322622)",0.0003411256662728576,0.0
44,Move,"(0.0112, 0.0, -0.0137)","(0.0, 0.3737849485948616, 0.0)","(0.02313254144594759, 0.16108343725255, 0.05036671060443417)","(-0.06935285435205715, -0.03456943230785823, -0.02208330393560711)","[0.02095055133830586, 0.002334457711898441, 0.002413892113071449]","[-0.026750000193715096, 0.05299999937415123, 0.03999999910593033]","[0.0, -0.0, 0.2954384143486475]","[-0.047713469713926315, 0.12188056856393814, 0.03999999910593033]","[0.0, 0.0, -0.4352711081776433]","[0.026750000193715096, 0.05299999937415123, 0.03999999910593033]","[0.0, 0.0, -0.6689835826533574]","[0.07140360027551651, 0.10948057472705841, 0.03999999910593033]","[0.0, -0.0, 0.05844384069938436]",0.29576355413672073,0.07803121444109666,"(0.0, 0.0, 0.0, 0.0, 0.0, 0.0)",-3.2644214886709095,-0.7297651236522433,0.2266501178065717,"(0.0, 0.0, 0.0, 0.0, 0.0, 0.0)",-1.5162821177912935,-0.6674484499870996,0.36842033222766146,"(0.0, 0.0, 0.0, 0.0, 0.0, 0.0)",3.9581214309558983,0.7260768635839167,-0.3241218268002517,"(0.0, 0.0, 0.0, 0.0, 0.0, 0.0)",2.1845206739665137,True,"(-0.006120803840999528, 0.183630428800595, 0.023999893225115032)","(0.9999522449339194, -0.00977223681919337, -0.00010601492575119084)",-0.0006853133135577205,10.300704278790892,True,"(0.05521791270470623, 0.18073241009493743, 0.023965908588648686)","(-0.9991794230286425, 0.021870255686938848, -0.034090651392090346)",-0.0008083334692184969,31.488102528845257
45,Move,"(0.012199999999999999, 0.0, -0.0154)","(0.0, 0.35240641058718314, 0.0)","(0.02273386078113695, 0.16131799845339595, 0.05046637424553486)","(-0.07126554197053057, -0.036136619318243836, -0.023012967479852157)","[0.020551870673495218, 0.0025690189127443863, 0.002513555754172135]","[-0.026750000193715096, 0.05299999937415123, 0.03999999910593033]","[0.0, -0.0, 0.2964779724659703]","[-0.047785062342882156, 0.12185873836278915, 0.03999999910593033]","[0.0, 0.0, -0.4291212828706213]","[0.026750000193715096, 0.05299999937415123, 0.03999999910593033]","[0.0, 0.0, -0.6616453623139521]","[0.07098794728517532, 0.10980673134326935, 0.03999999910593033]","[0.0, -0.0, 0.05860287448240678]",0.29659154769726825,0.027264226797840713,"(0.0, 0.0, 0.0, 0.0, 0.0, 0.0)",-3.1110039376602745,-0.7246948566977669,0.21704514625693466,"(0.0, 0.0, 0.0, 0.0, 0.0, 0.0)",-1.4604948995645797,-0.6604561895101558,0.2854136968995855,"(0.0, 0.0, 0.0, 0.0, 0.0, 0.0)",3.754293141987244,0.718993627591885,-0.3011168967258716,"(0.0, 0.0, 0.0, 0.0, 0.0, 0.0)",2.0459121001303364,True,"(-0.0065729294610889985, 0.1838632172912888, 0.023999893225115032)","(0.9999522449339194, -0.00977223681919337, -0.00010601492575119084)",-0.0005964194199379108,9.467683923530966,True,"(0.05479100610942716, 0.18105702548588137, 0.023964159405569067)","(-0.9990985261168053, 0.02275173347831091, -0.03583983447170759)",-0.000875248436932106,29.752683038571856
46,Move,"(0.012199999999999999, 0.0, -0.0154)","(0.0, 0.35240641058718314, 0.0)","(0.022372446970529994, 0.16153828217090324, 0.050566480394074784)","(-0.07302563968048735, -0.03744038093493827, -0.023966580645683744)","[0.020190456862888263, 0.0027893026302516777, 0.002613661902712061]","[-0.026750000193715096, 0.05299999937415123, 0.03999999910593033]","[0.0, -0.0, 0.2969858149062142]","[-0.04782003164291382, 0.12184804677963257, 0.03999999910593033]","[0.0, 0.0, -0.42355199138013583]","[0.026750000193715096, 0.05299999937415123, 0.03999999910593033]","[0.0, 0.0, -0.6550884337312973]","[0.0706145167350769, 0.11009557545185089, 0.03999999910593033]","[0.0, -0.0, 0.058173642588842674]",0.2970644949127871,0.018884408768296765,"(0.0, 0.0, 0.0, 0.0, 0.0, 0.0)",-3.1134757608962325,-0.7196262097973501,0.21877734371202479,"(0.0, 0.0, 0.0, 0.0, 0.0, 0.0)",-1.466915654727413,-0.6539325603362837,0.27740746253109194,"(0.0, 0.0, 0.0, 0.0, 0.0, 0.0)",3.7401871212854716,0.712010728407995,-0.3003198284464232,"(0.0, 0.0, 0.0, 0.0, 0.0, 0.0)",2.031511009764473,True,"(-0.006953855982281626, 0.1840810851187716, 0.023999893225115032)","(0.9999522449339194, -0.00977223681919337, -0.00010601492575119084)",-0.0005200412480968044,9.214262396133808,True,"(0.05444822190230119, 0.18135334343639925, 0.023962834871293314)","(-0.9990278879191749, 0.02370841317665662, -0.03716436874746301)",-0.0009168651911638639,29.58241083593493
47,Move,"(0.0097, 0.0, -0.0157)","(0.0, 0.35240641058718314, 0.0)","(0.021791070695943236, 0.16178662859281473, 0.05066865199880561)","(-0.07451663708972152, -0.038297912742376615, -0.02448414099643684)","[0.019609080588301506, 0.003037649052163166, 0.002715833507442887]","[-0.026750000193715096, 0.05299999937415123, 0.03999999910593033]","[0.0, -0.0, 0.2989401194989663]","[-0.04795454069972038, 0.12180674076080322, 0.03999999910593033]","[0.0, 0.0, -0.41674218735089746]","[0.026750000193715096, 0.05299999937415123, 0.03999999910593033]","[0.0, 0.0, -0.6473629347951546]","[0.07017212361097336, 0.11043273657560349, 0.03999999910593033]","[0.0, -0.0, 0.05905455071800135]",0.2994257856742458,0.11655763158768272,"(0.0, 0.0, 0.0, 0.0, 0.0, 0.0)",-2.9810306024997897,-0.7148252867713122,0.20569388308578704,"(0.0, 0.0, 0.0, 0.0, 0.0, 0.0)",-1.3828167973047536,-0.6458761223303042,0.3568410394154699,"(0.0, 0.0, 0.0, 0.0, 0.0, 0.0)",3.566505579639733,0.7052088935420185,-0.2900682971169036,"(0.0, 0.0, 0.0, 0.0, 0.0, 0.0)",1.9708079629902004,True,"(-0.007513102788945812, 0.18431661969336732, 0.023999893225115032)","(0.9999522449339194, -0.00977223681919337, -0.00010601492575119084)",-0.0004546305519254069,8.508425805820055,True,"(0.0539431327224876, 0.18167772970176144, 0.023961882373986526)","(-0.9989773759065582, 0.024316803841160934, -0.038116866054248244)",-0.000932690333083016,28.19053751559153
48,Move,"(0.010400000000000001, 0.0, -0.016399999999999998)","(0.0, 0.35240641058718314, 0.0)","(0.021293070563303592, 0.16201717324353446, 0.05076611035121599)","(-0.07595472372527251, -0.03916566448379981, -0.02514525022587102)","[0.01911108045566186, 0.0032681937028828933, 0.0028132918598532675]","[-0.026750000193715096, 0.05299999937415123, 0.03999999910593033]","[0.0, -0.0, 0.3007834432234702]","[-0.04808133840560913, 0.12176753580570221, 0.03999999910593033]","[0.0, 0.0, -0.41006237304311016]","[0.026750000193715096, 0.05299999937415123, 0.03999999910593033]","[0.0, 0.0, -0.6398413411759521]","[0.06973890960216522, 0.11075771600008011, 0.03999999910593033]","[0.0, -0.0, 0.05986687569028843]",0.30103125676695397,0.059470711872910025,"(0.0, 0.0, 0.0, 0.0, 0.0, 0.0)",-2.995074947648372,-0.7099692116611795,0.21039263486646598,"(0.0, 0.0, 0.0, 0.0, 0.0, 0.0)",-1.4072337556157648,-0.638578270468497,0.30313845757858315,"(0.0, 0.0, 0.0, 0.0, 0.0, 0.0)",3.569232116307949,0.6985108324238828,-0.2873713182120665,"(0.0, 0.0, 0.0, 0.0, 0.0, 0.0)",1.9473471243787808,True,"(-0.008058354971421496, 0.1845461611175898, 0.023999893225115032)","(0.9999522449339194, -0.00977223681919337, -0.00010601492575119084)",-0.00039658381330175086,8.319196318623874,True,"(0.05345212108593209, 0.18199093028067714, 0.02396103579862465)","(-0.9989294561214566, 0.024935755972158632, -0.03896344141612573)",-0.000941087114830947,28.127668161924344
49,Move,"(0.0119, 0.0, -0.015300000000000001)","(0.0, 0.3603214787449774, 0.0)","(0.020984210589690102, 0.16221896006573824, 0.05085706293781571)","(-0.07762652462636019, -0.04040503636203324, -0.026006835257740002)","[0.01880222048204837, 0.00346998052508668, 0.002904244446452986]","[-0.026750000193715096, 0.05299999937415123, 0.03999999910593033]","[0.0, -0.0, 0.3009262908958134]","[-0.048091158270835876, 0.12176448851823807, 0.03999999910593033]","[0.0, 0.0, -0.4048169958492296]","[0.026750000193715096, 0.05299999937415123, 0.03999999910593033]","[0.0, 0.0, -0.6336952320615608]","[0.06938311457633972, 0.11102084070444107, 0.03999999910593033]","[0.0, -0.0, 0.05922405832907978]",0.3008381196237261,-0.02115780293898433,"(0.0, 0.0, 0.0, 0.0, 0.0, 0.0)",-3.135143622918898,-0.7048089465556808,0.22421630286212782,"(0.0, 0.0, 0.0, 0.0, 0.0, 0.0)",-1.4976954696025568,-0.6326875100260978,0.24185531485563522,"(0.0, 0.0, 0.0, 0.0, 0.0, 0.0)",3.7157815343798446,0.6916898790643984,-0.2950612718119217,"(0.0, 0.0, 0.0, 0.0, 0.0, 0.0)",1.9905290503902235,True,"(-0.00839802901186442, 0.18475218915874014, 0.023999893225115032)","(0.9999522449339194, -0.00977223681919337, -0.00010601492575119084)",-0.00034978356490963415,8.603788985393768,True,"(0.053142169253218484, 0.182264689188247, 0.0239598776291025)","(-0.998862682742831, 0.025760383528054008, -0.040121610938276084)",-0.0009622444562913296,29.210161680595036
50,Move,"(0.0091, 0.0, -0.0166)","(0.0, 0.36363585899451467, 0.0)","(0.020436847685618043, 0.16245627869368293, 0.05094822610732372)","(-0.07910057527539373, -0.04140959172246655, -0.026488607975169776)","[0.018254857577976312, 0.0037072991530313626, 0.002995407615960996]","[-0.026750000193715096, 0.05299999937415123, 0.03999999910593033]","[0.0, -0.0, 0.30223755293043586]","[-0.048181310296058655, 0.12173644453287125, 0.03999999910593033]","[0.0, 0.0, -0.3985052985542734]","[0.026750000193715096, 0.05299999937415123, 0.03999999910593033]","[0.0, 0.0, -0.6264531521988651]","[0.06896180659532547, 0.11132806539535522, 0.03999999910593033]","[0.0, -0.0, 0.05966738302137836]",0.30263545232089817,0.09549895668387894,"(0.0, 0.0, 0.0, 0.0, 0.0, 0.0)",-3.0379728182056587,-0.6998588352296342,0.21216163600244375,"(0.0, 0.0, 0.0, 0.0, 0.0, 0.0)",-1.424540427654394,-0.6250204981604524,0.34381989271117525,"(0.0, 0.0, 0.0, 0.0, 0.0, 0.0)",3.5921682793199947,0.6849132487827776,-0.28973073630288676,"(0.0, 0.0, 0.0, 0.0, 0.0, 0.0)",1.9669369719070993,True,"(-0.008886520224732262, 0.18497341715945614, 0.023999893225115032)","(0.9999522449339194, -0.00977223681919337, -0.00010601492575119084)",-0.0003080728526871595,8.013097975972547,True,"(0.052689346464477906, 0.18256572272600696, 0.023958802468119645)","(-0.9988041566271056, 0.026326463638226282, -0.0411967719211259)",-0.0009731893363146592,28.222939550830805
51,Move,"(0.0103, 0.0, -0.019600000000000003)","(0.0, 0.35240641058718314, 0.0)","(0.020032819284548628, 0.16266111837188515, 0.05103976682528859)","(-0.08040014029402388, -0.04208825235926922, -0.027173638473259782)","[0.017850829176906897, 0.003912138831233591, 0.003086948333925865]","[-0.026750000193715096, 0.05299999937415123, 0.03999999910593033]","[0.0, -0.0, 0.3033388006638007]","[-0.04825698956847191, 0.12171280384063721, 0.03999999910593033]","[0.0, 0.0, -0.39251082645503566]","[0.026750000193715096, 0.05299999937415123, 0.03999999910593033]","[0.0, 0.0, -0.6197414205433264]","[0.0685693770647049, 0.11161006987094879, 0.03999999910593033]","[0.0, -0.0, 0.05985055195759913]",0.30343180501401534,0.022326911741516832,"(0.0, 0.0, 0.0, 0.0, 0.0, 0.0)",-2.959288923021856,-0.69497325325517,0.21031805650441282,"(0.0, 0.0, 0.0, 0.0, 0.0, 0.0)",-1.4079914531801483,-0.6186683623975618,0.25751956914202734,"(0.0, 0.0, 0.0, 0.0, 0.0, 0.0)",3.480595146567607,0.678441259476185,-0.27615438487800065,"(0.0, 0.0, 0.0, 0.0, 0.0, 0.0)",1.8748443957994658,True,"(-0.009341980024950479, 0.185184189566723, 0.023999893225115032)","(0.9999522449339194, -0.00977223681919337, -0.00010601492575119084)",-0.00026333621073001664,7.538710302865361,True,"(0.05228392152387118, 0.18284555776351671, 0.023958066360931708)","(-0.9987565604404012, 0.026962318648126912, -0.04193287910907383)",-0.0009726360913605983,27.25209242192123
52,Move,"(0.0105, 0.0, -0.0195)","(0.0, 0.35240641058718314, 0.0)","(0.01970257820741653, 0.16285020130295036, 0.05112798740830763)","(-0.08165998171334428, -0.04272242225385832, -0.027882323233198055)","[0.0175205880997748, 0.004101221762298796, 0.003175168916944908]","[-0.026750000193715096, 0.05299999937415123, 0.03999999910593033]","[0.0, -0.0, 0.30361994043705964]","[-0.04827630892395973, 0.1217067539691925, 0.03999999910593033]","[0.0, 0.0, -0.3873486625609285]","[0.026750000193715096, 0.05299999937415123, 0.03999999910593033]","[0.0, 0.0, -0.613963776896912]","[0.0682300552725792, 0.11185070127248764, 0.03999999910593033]","[0.0, -0.0, 0.05925815821854101]",0.3036481625315179,0.006775305783709154,"(0.0, 0.0, 0.0, 0.0, 0.0, 0.0)",-2.9439863042798438,-0.6900921758304599,0.21034368784935537,"(0.0, 0.0, 0.0, 0.0, 0.0, 0.0)",-1.4068686485584705,-0.6129582260563485,0.2413267379843201,"(0.0, 0.0, 0.0, 0.0, 0.0, 0.0)",3.446550885868059,0.672085003870676,-0.2728567972816312,"(0.0, 0.0, 0.0, 0.0, 0.0, 0.0)",1.8477418093864693,True,"(-0.009689462546771763, 0.1853781776748436, 0.023999893225115032)","(0.9999522449339194, -0.00977223681919337, -0.00010601492575119084)",-0.00021974088734221187,7.297135420040333,True,"(0.05198683161648545, 0.18309595031722253, 0.0239574339999424)","(-0.9987103053416073, 0.027675374249341522, -0.042565240098374264)",-0.0009703158433737083,26.934271774640763
53,Move,"(0.0107, 0.0, -0.0159)","(0.0, 0.28728119487826664, 0.0)","(0.019505065156676778, 0.16297722214866522, 0.05123470204952402)","(-0.08207936736830479, -0.041454351054011775, -0.028563797349108678)","[0.017323075049035047, 0.00422824260801366, 0.0032818835581612943]","[-0.026750000193715096, 0.05299999937415123, 0.03999999910593033]","[0.0, -0.0, 0.30389009306922843]","[-0.04829487204551697, 0.12170093506574631, 0.03999999910593033]","[0.0, 0.0, -0.38298374244787403]","[0.026750000193715096, 0.05299999937415123, 0.03999999910593033]","[0.0, 0.0, -0.6097474678076763]","[0.06798155605792999, 0.11202507466077805, 0.03999999910593033]","[0.0, -0.0, 0.05821338694914449]",0.3039487398335209,0.014075381198426901,"(0.0, 0.0, 0.0, 0.0, 0.0, 0.0)",-2.2693285175730917,-0.6862094752297697,0.1594468014784948,"(0.0, 0.0, 0.0, 0.0, 0.0, 0.0)",-1.0819229888464479,-0.6091277482438328,0.14873486624028162,"(0.0, 0.0, 0.0, 0.0, 0.0, 0.0)",2.617169974129569,0.6671157602809629,-0.20282390395105934,"(0.0, 0.0, 0.0, 0.0, 0.0, 0.0)",1.4008699833704523,True,"(-0.009986311696836163, 0.18554018145906404, 0.023999893225115032)","(0.9999522449339194, -0.00977223681919337, -0.00010601492575119084)",-0.00015492149922283186,4.8321208518226975,True,"(0.05181273146540911, 0.1832869175622972, 0.02395827679469165)","(-0.9987259049205014, 0.02838669397472411, -0.04172244534912552)",-0.0009162545976086918,20.340725135641005
54,Move,"(0.0178, 0.0, -0.0152)","(0.0, 0.2032401007362357, 0.0)","(0.020075974281379014, 0.16293887377162228, 0.05128433141270476)","(-0.07964501029654211, -0.0375759916974979, -0.030247569802929017)","[0.017893984173737283, 0.004189894230970714, 0.003331512921342039]","[-0.026750000193715096, 0.05299999937415123, 0.03999999910593033]","[0.0, -0.0, 0.29958692545648613]","[-0.04799903556704521, 0.12179300934076309, 0.03999999910593033]","[0.0, 0.0, -0.38358067889062397]","[0.026750000193715096, 0.05299999937415123, 0.03999999910593033]","[0.0, 0.0, -0.6117317409405147]","[0.06809859722852707, 0.11194314062595367, 0.03999999910593033]","[0.0, -0.0, 0.052508955154150855]",0.29840002356117956,-0.28484714190357435,"(0.0, 0.0, 0.0, 0.0, 0.0, 0.0)",-2.103303442232062,-0.682503108815275,0.15945399561166945,"(0.0, 0.0, 0.0, 0.0, 0.0, 0.0)",-1.0555076572474325,-0.6125824900562071,-0.20416417957366995,"(0.0, 0.0, 0.0, 0.0, 0.0, 0.0)",1.8822462475160102,0.6636629592547078,-0.1386724382033701,"(0.0, 0.0, 0.0, 0.0, 0.0, 0.0)",0.9567714298368883,True,"(-0.009652382006694465, 0.1856093805225697, 0.023999893225115032)","(0.9999522449339194, -0.00977223681919337, -0.00010601492575119084)",-0.00013496095224942975,6.610146057913542,True,"(0.05233627746103401, 0.1832919276162812, 0.023961628930829936)","(-0.9988145777299783, 0.029952607318058082, -0.03837030921083832)",-0.0007446669621517842,14.296638853583318
55,Move,"(0.0253, 0.0, -0.0145)","(0.0, 0.038988910160301336, 0.0)","(0.021567520544364647, 0.16258950059000865, 0.05105581185973615)","(-0.06552970367434986, -0.034802097269165166, -0.03951302026465283)","[0.019385530436722916, 0.0038405210493570874, 0.0031029933683734273]","[-0.026750000193715096, 0.05299999937415123, 0.03999999910593033]","[0.0, -0.0, 0.2880283452043728]","[-0.04720248654484749, 0.12203402072191238, 0.03999999910593033]","[0.0, 0.0, -0.3921509380184544]","[0.026750000193715096, 0.05299999937415123, 0.03999999910593033]","[0.0, 0.0, -0.6221608348723202]","[0.068711057305336, 0.11150871962308884, 0.03999999910593033]","[0.0, -0.0, 0.03936768313305617]",0.28552736356108593,-0.6002323150902964,"(0.0, 0.0, 0.0, 0.0, 0.0, 0.0)",-1.3902573734599069,-0.6797049894525513,0.1138274303540736,"(0.0, 0.0, 0.0, 0.0, 0.0, 0.0)",-0.7209207904536096,-0.6245319882379002,-0.5690897702151148,"(0.0, 0.0, 0.0, 0.0, 0.0, 0.0)",1.4742897447453478,0.6610704399036046,-0.10992559132865014,"(0.0, 0.0, 0.0, 0.0, 0.0, 0.0)",0.7250191562283549,True,"(-0.008310320425590927, 0.18551940495937053, 0.023999893225115032)","(0.9999522449339194, -0.00977223681919337, -0.00010601492575119084)",-6.33639635846951e-05,2.637021752101306,True,"(0.053887335628478986, 0.18305279189654713, 0.02396481819371534)","(-0.9986812588401863, 0.03739033592826438, -0.035181046325433105)",-0.0005908457534498542,10.675252004378969
56,Move,"(0.028100000000000003, 0.0, -0.0162)","(0.0, 0.06450213316595443, 0.0)","(0.023203188927601717, 0.16208370788996962, 0.0504412591994539)","(-0.04026372123213104, -0.031207699521153296, -0.054347089490641216)","[0.021021198819959987, 0.0033347283493180557, 0.0024884407080911775]","[-0.026750000193715096, 0.05299999937415123, 0.03999999910593033]","[0.0, -0.0, 0.27331208070676516]","[-0.04618438333272934, 0.12232751399278641, 0.03999999910593033]","[0.0, 0.0, -0.4044370025523011]","[0.026750000193715096, 0.05299999937415123, 0.03999999910593033]","[0.0, 0.0, -0.6355051916714848]","[0.06948806345462799, 0.11094357818365097, 0.03999999910593033]","[0.0, -0.0, 0.023432963388416893]",0.2706255732208449,-0.6447515322179267,"(0.0, 0.0, 0.0, 0.0, 0.0, 0.0)",-0.9637846641574316,-0.6774387254748898,0.0744803692064236,"(0.0, 0.0, 0.0, 0.0, 0.0, 0.0)",-0.49211020633008407,-0.637877473012348,-0.5693425636585379,"(0.0, 0.0, 0.0, 0.0, 0.0, 0.0)",1.1905434424173966,0.6585003319161273,-0.1050820526777404,"(0.0, 0.0, 0.0, 0.0, 0.0, 0.0)",0.6164497377852162,True,"(-0.006515185728004469, 0.18533029189437428, 0.023999893225115032)","(0.9999522449339194, -0.00977223681919337, -0.00010601492575119084)",2.4196666758361952e-05,0.9341892999871296,True,"(0.055805999983509734, 0.18271256347211434, 0.023967628123486504)","(-0.9981692647901895, 0.0510904065480253, -0.032371116554270045)",-0.0005141887077129364,8.38656292315223
57,Move,"(0.0316, 0.0, -0.0157)","(0.0, 0.0730751904517506, 0.0)","(0.02515611263879023, 0.16139741557514029, 0.04889534035658447)","(0.0017223872226967184, -0.011206982693286727, -0.0720408838151895)","[0.0229741225311485, 0.0026484360344887214, 0.0009425218652217501]","[-0.026750000193715096, 0.05299999937415123, 0.03999999910593033]","[0.0, -0.0, 0.2565183226395914]","[-0.04501743242144585, 0.1226441040635109, 0.03999999910593033]","[0.0, 0.0, -0.4198940274590545]","[0.026750000193715096, 0.05299999937415123, 0.03999999910593033]","[0.0, 0.0, -0.6498168664199834]","[0.07031292468309402, 0.11032601445913315, 0.03999999910593033]","[0.0, -0.0, 0.0074891871711069875]",0.2533509128225102,-0.7601765077031427,"(0.0, 0.0, 0.0, 0.0, 0.0, 0.0)",0.11509626643994708,-0.6765149640998621,-0.024635379076724688,"(0.0, 0.0, 0.0, 0.0, 0.0, 0.0)",0.005161550608680613,-0.6524351314717064,-0.6283859295707677,"(0.0, 0.0, 0.0, 0.0, 0.0, 0.0)",0.10730885918951842,0.6574255514957573,0.028681948404336934,"(0.0, 0.0, 0.0, 0.0, 0.0, 0.0)",0.01078179259097408,True,"(-0.004380140781786057, 0.18489896157772126, 0.056018485017769425)","(0.9973874554146868, -0.06983262843844622, 0.018484257810202284)",-0.0008665541317886724,0.008428349569758393,True,"(0.05777666221396267, 0.18230684590096585, 0.02398151498223056)","(-0.9973874554146867, 0.06983262843844672, -0.018484257810214063)",-0.0004241958459285245,0.0
58,Move,"(0.0339, 0.0, -0.0157)","(0.0, 0.05170537909033201, 0.0)","(0.027345195115791934, 0.16110379118473192, 0.04850722183819592)","(-0.001086727193331103, 0.009942789854092481, -0.08055306837888516)","[0.025163205008150204, 0.002354811644080357, 0.000554403346833196]","[-0.026750000193715096, 0.05299999937415123, 0.03999999910593033]","[0.0, -0.0, 0.23800810430708055]","[-0.04372524842619896, 0.12297028303146362, 0.03999999910593033]","[0.0, 0.0, -0.4364106769226292]","[0.026750000193715096, 0.05299999937415123, 0.03999999910593033]","[0.0, 0.0, -0.6651584176352526]","[0.07118722796440125, 0.10965096950531006, 0.03999999910593033]","[0.0, 0.0, -0.009146714556206456]",0.23466651081268178,-0.8019815843584401,"(0.0, 0.0, 0.0, 0.0, 0.0, 0.0)",-2.152152427057173,-0.6734840253599981,0.224354682199775,"(0.0, 0.0, 0.0, 0.0, 0.0, 0.0)",-1.2557397179609504,-0.6679663703905144,-0.6739136395740893,"(0.0, 0.0, 0.0, 0.0, 0.0, 0.0)",2.032804286346294,0.6553607161301007,-0.1562319503324634,"(0.0, 0.0, 0.0, 0.0, 0.0, 0.0)",0.889774046291485,True,"(-0.0020648207692361142, 0.18454913298532818, 0.056001209169127666)","(0.9973764107457237, -0.07237979714850906, 0.001208409168442271)",-0.0005440099816881432,12.120227630940697,True,"(0.0598497583324841, 0.18182820259051535, 0.023998790830872335)","(-0.9973764107457234, 0.07237979714851211, -0.001208409168439205)",-7.369668834668097e-05,9.780401502273307
59,Move,"(0.032299999999999995, 0.0, -0.0169)","(0.0, 0.06893701479527203, 0.0)","(0.02887872841206094, 0.1609073864424588, 0.048715323665573046)","(-0.002291475066988095, 0.011535925978823513, -0.09039261435685922)","[0.02669673830441921, 0.0021584069018072416, 0.0007625051742103234]","[-0.026750000193715096, 0.05299999937415123, 0.03999999910593033]","[0.0, -0.0, 0.22159326734753515]","[-0.04257446527481079, 0.12323949486017227, 0.03999999910593033]","[0.0, 0.0, -0.44794324429894294]","[0.026750000193715096, 0.05299999937415123, 0.03999999910593033]","[0.0, 0.0, -0.6786624071878805]","[0.07194817066192627, 0.10904574394226074, 0.03999999910593033]","[0.0, 0.0, -0.025966341888906754]",0.2188806381708151,-0.6510331154963336,"(0.0, 0.0, 0.0, 0.0, 0.0, 0.0)",-2.422536023971778,-0.6686933800254892,0.2023505446203917,"(0.0, 0.0, 0.0, 0.0, 0.0, 0.0)",-1.3672208484286577,-0.680861295512716,-0.5277393215675447,"(0.0, 0.0, 0.0, 0.0, 0.0, 0.0)",2.0021540707258576,0.6521531359299029,-0.13029679736544222,"(0.0, 0.0, 0.0, 0.0, 0.0, 0.0)",0.8971754879364235,True,"(-0.00020666379706654053, 0.18433380685051873, 0.056001209169127666)","(0.9973764107457237, -0.07237979714850906, 0.001208409168442271)",-0.0005660252673555267,12.863790784209733,True,"(0.06182623786357703, 0.1814034497080023, 0.023998790830872335)","(-0.9973764107457234, 0.07237979714851211, -0.001208409168439205)",0.00012016249559015101,0.0
60,Move,"(0.0356, 0.0, -0.0182)","(0.0, 0.07341029366813348, 0.0)","(0.03064757601316489, 0.1606547768311492, 0.04880438894497232)","(-0.003411846944179513, 0.013073037194697955, -0.09798004780226786)","[0.028465585905523158, 0.0019057972904976406, 0.0008515704536095972]","[-0.026750000193715096, 0.05299999937415123, 0.03999999910593033]","[0.0, -0.0, 0.20466316791425085]","[-0.04138308763504028, 0.12349732220172882, 0.03999999910593033]","[0.0, 0.0, -0.4595534784874513]","[0.026750000193715096, 0.05299999937415123, 0.03999999910593033]","[0.0, 0.0, -0.6919966192814319]","[0.07269145548343658, 0.10843809694051743, 0.03999999910593033]","[0.0, 0.0, -0.04268703046359376]",0.20149676974199818,-0.7599270140436912,"(0.0, 0.0, 0.0, 0.0, 0.0, 0.0)",-2.7206059653426258,-0.6632144439782134,0.24052262841750346,"(0.0, 0.0, 0.0, 0.0, 0.0, 0.0)",-1.5683124300953963,-0.6944598061486092,-0.5911767198431692,"(0.0, 0.0, 0.0, 0.0, 0.0, 0.0)",2.2764031811644294,0.6486649676810826,-0.15469799051473795,"(0.0, 0.0, 0.0, 0.0, 0.0, 0.0)",1.0152329931026565,True,"(0.0016911612443020127, 0.1840956306797374, 0.056001209169127666)","(0.9973764107457237, -0.07237979714850906, 0.001208409168442271)",-0.0005640155892393822,14.247104015307112,True,"(0.06378075107290361, 0.18095492731234386, 0.023998790830872335)","(-0.9973764107457234, 0.07237979714851211, -0.001208409168439205)",0.00023641852271312673,0.0
61,Move,"(0.0365, 0.0, -0.0183)","(0.0, 0.07754497866610804, 0.0)","(0.032378300225271404, 0.1604087528867522, 0.04889729005775333)","(-0.005022959171068227, 0.014788119937196925, -0.10510713448669104)","[0.030196310117629674, 0.0016597733461006237, 0.0009444715663906103]","[-0.026750000193715096, 0.05299999937415123, 0.03999999910593033]","[0.0, -0.0, 0.1873457770628959]","[-0.040160126984119415, 0.12374014407396317, 0.03999999910593033]","[0.0, 0.0, -0.47111850151375767]","[0.026750000193715096, 0.05299999937415123, 0.03999999910593033]","[0.0, 0.0, -0.7051188326987556]","[0.07341495156288147, 0.1078304871916771, 0.03999999910593033]","[0.0, 0.0, -0.059529860080605304]",0.18430700330495595,-0.7293025721961703,"(0.0, 0.0, 0.0, 0.0, 0.0, 0.0)",-2.906995604415844,-0.657418980865826,0.25086793879195923,"(0.0, 0.0, 0.0, 0.0, 0.0, 0.0)",-1.6584746048558514,-0.7073898398222503,-0.5450274775273587,"(0.0, 0.0, 0.0, 0.0, 0.0, 0.0)",2.397376586044601,0.6449100522603096,-0.16295601531693582,"(0.0, 0.0, 0.0, 0.0, 0.0, 0.0)",1.0819404914332524,True,"(0.00361204635409524, 0.1838362585914092, 0.056001209169127666)","(0.9973764107457237, -0.07237979714850906, 0.001208409168442271)",-0.0005634913998837545,14.636563637657133,True,"(0.06572684607120714, 0.1804871018077256, 0.023998790830872335)","(-0.9973764107457234, 0.07237979714851211, -0.001208409168439205)",0.0003341857811081957,0.0
62,Move,"(0.037899999999999996, 0.0, -0.0187)","(0.0, 0.1033252370473163, 0.0)","(0.03408195207842996, 0.1601424467610944, 0.049003907713105005)","(-0.007954773902530793, 0.015638187319716623, -0.11143035411422332)","[0.03189996197078823, 0.00139346722044284, 0.0010510892217422824]","[-0.026750000193715096, 0.05299999937415123, 0.03999999910593033]","[0.0, -0.0, 0.17027502305096717]","[-0.03895064443349838, 0.12395875155925751, 0.03999999910593033]","[0.0, 0.0, -0.4820093164347228]","[0.026750000193715096, 0.05299999937415123, 0.03999999910593033]","[0.0, 0.0, -0.7174495756581311]","[0.0740874856710434, 0.10725092142820358, 0.03999999910593033]","[0.0, 0.0, -0.075902518156289]",0.16721425603125264,-0.7345847486441781,"(0.0, 0.0, 0.0, 0.0, 0.0, 0.0)",-2.22767368774592,-0.6517496375709791,0.12832735881632756,"(0.0, 0.0, 0.0, 0.0, 0.0, 0.0)",-1.2042804646909593,-0.719585887043816,-0.5127097074925516,"(0.0, 0.0, 0.0, 0.0, 0.0, 0.0)",2.174316781564209,0.6408981516615326,-0.1557412016396622,"(0.0, 0.0, 0.0, 0.0, 0.0, 0.0)",1.0803673630836514,True,"(0.005475422646096975, 0.18359243944720655, 0.02398373804473141)","(0.9937823690850017, -0.11014615936523632, -0.016261195309375035)",-0.0011491620908397643,16.617415130934305,True,"(0.06758993975450878, 0.18002366740196585, 0.023998790830872335)","(-0.9973764107457234, 0.07237979714851211, -0.001208409168439205)",0.0004225412309591639,0.0
63,Move,"(0.0385, 0.0, -0.0193)","(0.0, 0.07341029366813348, 0.0)","(0.03571375171667342, 0.15983557909009238, 0.04927665383124864)","(-0.01908088346981333, 0.012650073132302223, -0.1186031504981352)","[0.033531761609031686, 0.0010865995494408198, 0.0013238353398859204]","[-0.026750000193715096, 0.05299999937415123, 0.03999999910593033]","[0.0, -0.0, 0.1535432042488447]","[-0.03776172548532486, 0.12415295094251633, 0.03999999910593033]","[0.0, 0.0, -0.4950513099079818]","[0.026750000193715096, 0.05299999937415123, 0.03999999910593033]","[0.0, 0.0, -0.7289555470047114]","[0.07470855116844177, 0.10670267790555954, 0.03999999910593033]","[0.0, 0.0, -0.09119885544335737]",0.15060735794103164,-0.7046041029035613,"(0.0, 0.0, 0.0, 0.0, 0.0, 0.0)",-2.2139617340802893,-0.6478726279434431,0.17324808234302846,"(0.0, 0.0, 0.0, 0.0, 0.0, 0.0)",-1.1687507165959548,-0.7309584639788986,-0.48069752600370497,"(0.0, 0.0, 0.0, 0.0, 0.0, 0.0)",2.184027675035807,0.6370598408672843,-0.16724801950472895,"(0.0, 0.0, 0.0, 0.0, 0.0, 0.0)",1.1029308686716903,True,"(0.007439057674111141, 0.18320818166947528, 0.023986876209413224)","(0.9930342162591813, -0.11709325943734651, -0.013123030627560678)",-0.001245763890178257,16.82709589472945,True,"(0.06932487399531737, 0.1795662964224991, 0.023998790830872335)","(-0.9973764107457234, 0.07237979714851211, -0.001208409168439205)",0.0002951184762007855,0.0
64,Move,"(0.0345, 0.0, -0.0176)","(0.0, 0.03446676206838401, 0.0)","(0.03688986875593943, 0.15961963514205435, 0.049441333491713105)","(-0.02588153249304836, 0.010727136092430178, -0.1228512313838445)","[0.0347078786482977, 0.0008706556014027866, 0.0014885150003503822]","[-0.026750000193715096, 0.05299999937415123, 0.03999999910593033]","[0.0, -0.0, 0.14052373398477394]","[-0.03683444485068321, 0.12429028004407883, 0.03999999910593033]","[0.0, 0.0, -0.5042357713108471]","[0.026750000193715096, 0.05299999937415123, 0.03999999910593033]","[0.0, 0.0, -0.7373483116573906]","[0.07515756785869598, 0.1062982901930809, 0.03999999910593033]","[0.0, 0.0, -0.1033207092114543]",0.1385220752194201,-0.4804004038926052,"(0.0, 0.0, 0.0, 0.0, 0.0, 0.0)",-2.1377747259615374,-0.6440944206228778,0.15962880854735112,"(0.0, 0.0, 0.0, 0.0, 0.0, 0.0)",-1.1097866189205374,-0.7385820445372122,-0.29611365719312416,"(0.0, 0.0, 0.0, 0.0, 0.0, 0.0)",2.034068331726172,0.6333798336212707,-0.1554436991286694,"(0.0, 0.0, 0.0, 0.0, 0.0, 0.0)",1.0382243447262933,True,"(0.008907373567558968, 0.18293212576743123, 0.023988964273990807)","(0.992473061156271, -0.12196496383542578, -0.011034966049978178)",-0.0013017069968957213,16.040972771137984,True,"(0.07065750643644052, 0.17922181448322172, 0.023998790830872335)","(-0.9973764107457234, 0.07237979714851211, -0.001208409168439205)",0.0002226648741370788,0.0
65,Move,"(0.0354, 0.0, -0.0174)","(0.0, 0.0647621872245016, 0.0)","(0.03796939482863289, 0.15942107587026813, 0.049552243322221134)","(-0.031031185992146562, 0.009483193318487806, -0.1259461015043932)","[0.03578740472099116, 0.0006720963296165672, 0.001599424830858412]","[-0.026750000193715096, 0.05299999937415123, 0.03999999910593033]","[0.0, -0.0, 0.12922082280143005]","[-0.03602802753448486, 0.12439970672130585, 0.03999999910593033]","[0.0, 0.0, -0.5115255154304084]","[0.026750000193715096, 0.05299999937415123, 0.03999999910593033]","[0.0, 0.0, -0.7440331298351638]","[0.07551276683807373, 0.1059735044836998, 0.03999999910593033]","[0.0, 0.0, -0.11385024139587327]",0.12720501398573564,-0.48379220488012686,"(0.0, 0.0, 0.0, 0.0, 0.0, 0.0)",-2.421188008940272,-0.6399609865552992,0.18848549294932987,"(0.0, 0.0, 0.0, 0.0, 0.0, 0.0)",-1.2634495925543203,-0.7452012812827553,-0.28037684261827767,"(0.0, 0.0, 0.0, 0.0, 0.0, 0.0)",2.214014076395888,0.6294850556113167,-0.16746312782942355,"(0.0, 0.0, 0.0, 0.0, 0.0, 0.0)",1.1210844768052148,True,"(0.010140570848810065, 0.18271046728031537, 0.02399040397689923)","(0.9920747970970687, -0.1252817939289432, -0.0095952631415553)",-0.0013535654094191487,17.994711171617393,True,"(0.07178079478110837, 0.1789403708329747, 0.023998790830872335)","(-0.9973764107457234, 0.07237979714851211, -0.001208409168439205)",0.00017231089074549286,1.4475329055960757
66,Move,"(0.0352, 0.0, -0.0188)","(0.0, 0.09068730793362537, 0.0)","(0.03892385449412257, 0.15924225067556236, 0.04957979440413955)","(-0.03343546032150545, 0.009300279640790637, -0.12703175438441006)","[0.03674186438648084, 0.0004932711349107943, 0.001626975912776829]","[-0.026750000193715096, 0.05299999937415123, 0.03999999910593033]","[0.0, -0.0, 0.11879911979533765]","[-0.03528343141078949, 0.12449251860380173, 0.03999999910593033]","[0.0, 0.0, -0.5173983166089025]","[0.026750000193715096, 0.05299999937415123, 0.03999999910593033]","[0.0, 0.0, -0.7496581958916614]","[0.07580998539924622, 0.1056983694434166, 0.03999999910593033]","[0.0, 0.0, -0.12346494336958033]",0.1170260631659283,-0.42553468979253695,"(0.0, 0.0, 0.0, 0.0, 0.0, 0.0)",-2.5697706847057846,-0.6353845073088406,0.19511475451920665,"(0.0, 0.0, 0.0, 0.0, 0.0, 0.0)",-1.3308027004469218,-0.7505737226564342,-0.2197225823432035,"(0.0, 0.0, 0.0, 0.0, 0.0, 0.0)",2.2927209631916106,0.6254697114678909,-0.17365477335228943,"(0.0, 0.0, 0.0, 0.0, 0.0, 0.0)",1.1659603298344077,True,"(0.011227408528469894, 0.18253565985574605, 0.023990685984101992)","(0.9919123718127505, -0.1265824233794819, -0.00931325593878777)",-0.0014234394729882181,19.002069085744488,True,"(0.07277972372523334, 0.17869774414479395, 0.023998790830872335)","(-0.9973764107457234, 0.07237979714851211, -0.001208409168439205)",0.0001631323715767318,2.7527829591966477
67,Move,"(0.04, 0.0, -0.020100000000000003)","(0.0, 0.1033252370473163, 0.0)","(0.03999970063559172, 0.15903489990795278, 0.04966825551785926)","(-0.03936310205473942, 0.007922975697381486, -0.13227352307168855)","[0.03781771052794999, 0.0002859203673012123, 0.0017154370264965343]","[-0.026750000193715096, 0.05299999937415123, 0.03999999910593033]","[0.0, -0.0, 0.10608392472297565]","[-0.03437372297048569, 0.12459523975849152, 0.03999999910593033]","[0.0, 0.0, -0.5245319799875922]","[0.026750000193715096, 0.05299999937415123, 0.03999999910593033]","[0.0, 0.0, -0.7566863389191183]","[0.076179139316082, 0.10535227507352829, 0.03999999910593033]","[0.0, 0.0, -0.13511707479374915]",0.10356303416623899,-0.6050128840394459,"(0.0, 0.0, 0.0, 0.0, 0.0, 0.0)",-3.099079767364131,-0.6296850933159839,0.22339783991458095,"(0.0, 0.0, 0.0, 0.0, 0.0, 0.0)",-1.5771158675106076,-0.7581035438635966,-0.34014011811605466,"(0.0, 0.0, 0.0, 0.0, 0.0, 0.0)",2.8861952225153233,0.6207750779140175,-0.19059606866118442,"(0.0, 0.0, 0.0, 0.0, 0.0, 0.0)",1.31001228676891,True,"(0.01255047435030636, 0.18230875159265952, 0.023991060898120076)","(0.9914710731561436, -0.13002006436821026, -0.00893834192070459)",-0.001603150534130722,23.73979643787511,True,"(0.06698204954506547, 0.1267817739551058, 0.0560089391018799)","(-0.9914710731561452, 0.1300200643681987, 0.008938341920689388)",-0.00037008292198490177,7.741368234587644
68,Move,"(0.0354, 0.0, -0.0195)","(0.0, 0.06032381493668001, 0.0)","(0.04062013260457186, 0.15903159826689978, 0.04962918029179291)","(-0.04294473503511268, 0.0028345669930414973, -0.13922803951259352)","[0.03843814249693013, 0.0002826187262482127, 0.0016763618004301886]","[-0.026750000193715096, 0.05299999937415123, 0.03999999910593033]","[0.0, -0.0, 0.09574812894071431]","[-0.033633336424827576, 0.12467021495103836, 0.03999999910593033]","[0.0, 0.0, -0.5300357994064672]","[0.026750000193715096, 0.05299999937415123, 0.03999999910593033]","[0.0, 0.0, -0.7617999984407864]","[0.07644620537757874, 0.10509882122278214, 0.03999999910593033]","[0.0, 0.0, -0.1442687810858317]",0.09425734966145068,-0.3577855143214359,"(0.0, 0.0, 0.0, 0.0, 0.0, 0.0)",-2.700923656609925,-0.6249435181282167,0.20169286043934542,"(0.0, 0.0, 0.0, 0.0, 0.0, 0.0)",-1.355720639372134,-0.7624524854561021,-0.15659245086498302,"(0.0, 0.0, 0.0, 0.0, 0.0, 0.0)",2.430437728571774,0.6168423451489902,-0.1653345892094001,"(0.0, 0.0, 0.0, 0.0, 0.0, 0.0)",1.1043508256955203,True,"(0.013607517757998774, 0.18212235161245174, 0.023996317866502165)","(0.9904653295672136, -0.13771302920994816, -0.0036813735386162175)",-0.0016927318833257084,20.6295054205289,True,"(0.0674453905090497, 0.12661021900901226, 0.05600368213349783)","(-0.9904653295672136, 0.13771302920994952, 0.003681373538612306)",-0.00032980905592468787,7.061162841405767
69,Move,"(0.038, 0.0, -0.0198)","(0.0, 0.03875852669903807, 0.0)","(0.0413843944868112, 0.15889609118950063, 0.04962150970292068)","(-0.04422575037774292, 0.0010722013726142234, -0.1441171578252436)","[0.03920240437916947, 0.00014711164884906314, 0.0016686912115579586]","[-0.026750000193715096, 0.05299999937415123, 0.03999999910593033]","[0.0, -0.0, 0.0854415297480593]","[-0.0328943096101284, 0.12473735213279724, 0.03999999910593033]","[0.0, 0.0, -0.5342669848995517]","[0.026750000193715096, 0.05299999937415123, 0.03999999910593033]","[0.0, 0.0, -0.7668542045171655]","[0.07670888304710388, 0.10484698414802551, 0.03999999910593033]","[0.0, 0.0, -0.15328002254248718]",0.08342981364267224,-0.4828119006893881,"(0.0, 0.0, 0.0, 0.0, 0.0, 0.0)",-3.9852544336916678,-0.6185116831684468,0.2872405450342823,"(0.0, 0.0, 0.0, 0.0, 0.0, 0.0)",-1.922830165318382,-0.767879685322146,-0.2461091337452083,"(0.0, 0.0, 0.0, 0.0, 0.0, 0.0)",2.873392483874127,0.6129832598054478,-0.14183305198234816,"(0.0, 0.0, 0.0, 0.0, 0.0, 0.0)",1.0260475912070812,True,"(0.014589125010374758, 0.18198842176364183, 0.023999188924186253)","(0.9897845474656228, -0.1425689060997804, -0.0008103158545275901)",-0.0018091510245262354,26.383910188814923,True,"(0.0679016796324976, 0.12643454954630085, 0.0560008110758138)","(-0.9897845474656276, 0.14256890609974765, 0.0008103158545834902)",-0.00040258304643794185,16.312879819687215
70,Move,"(0.0378, 0.0, -0.02)","(0.0, 0.04723384554672254, 0.0)","(0.042134535988581585, 0.15861291888414283, 0.04972400488114362)","(-0.044493448597478155, 0.0024010174786174223, -0.14899123313055693)","[0.039952545880939855, -0.00013606065650872967, 0.001771186389780896]","[-0.026750000193715096, 0.05299999937415123, 0.03999999910593033]","[0.0, -0.0, 0.074869392759152]","[-0.03213556110858917, 0.12479829788208008, 0.03999999910593033]","[0.0, 0.0, -0.5378516432045097]","[0.026750000193715096, 0.05299999937415123, 0.03999999910593033]","[0.0, 0.0, -0.7719167601872042]","[0.07697071880102158, 0.10459340363740921, 0.03999999910593033]","[0.0, 0.0, -0.16199953802322847]",0.07305128291820777,-0.4363470866729001,"(0.0, 0.0, 0.0, 0.0, 0.0, 0.0)",-4.171172062855815,-0.6114788283580092,0.2981361553337721,"(0.0, 0.0, 0.0, 0.0, 0.0, 0.0)",-2.0128446449316524,-0.7727527110148437,-0.20064094810614386,"(0.0, 0.0, 0.0, 0.0, 0.0, 0.0)",3.0259630597090754,0.6092475521225909,-0.1607104596101481,"(0.0, 0.0, 0.0, 0.0, 0.0, 0.0)",1.0930428325118346,True,"(0.015552578110338722, 0.18187736068368027, 0.023997838312940726)","(0.9890529711172971, -0.1475450802911275, -0.0021609271000573517)",-0.001905549096667748,27.679686546660417,True,"(0.06835152910030652, 0.12625329487162396, 0.0560021616870592)","(-0.989052971117306, 0.14754508029107047, 0.0021609270999806505)",-0.000609593499856296,17.33265966238668
71,Move,"(0.038, 0.0, -0.0198)","(0.0, 0.03875852669903807, 0.0)","(0.04285484115060515, 0.1583628885498626, 0.049797799297758266)","(-0.047527202781406895, 0.0012581020930464222, -0.15759185382513313)","[0.04067285104296342, -0.0003860909907889565, 0.0018449808063955436]","[-0.026750000193715096, 0.05299999937415123, 0.03999999910593033]","[0.0, -0.0, 0.0647288497437431]","[-0.03140722215175629, 0.12484922260046005, 0.03999999910593033]","[0.0, 0.0, -0.5410078598199045]","[0.026750000193715096, 0.05299999937415123, 0.03999999910593033]","[0.0, 0.0, -0.7763618526439691]","[0.0771995559334755, 0.10436966270208359, 0.03999999910593033]","[0.0, 0.0, -0.17081927037604486]",0.06293261691893538,-0.4310943598048929,"(0.0, 0.0, 0.0, 0.0, 0.0, 0.0)",-4.081078219773554,-0.6044593857997095,0.30654345595474364,"(0.0, 0.0, 0.0, 0.0, 0.0, 0.0)",-2.029186258023376,-0.7771322732186463,-0.1849180757871498,"(0.0, 0.0, 0.0, 0.0, 0.0, 0.0)",3.5622412989704886,0.6046781893397002,-0.20743716853877184,"(0.0, 0.0, 0.0, 0.0, 0.0, 0.0)",1.3935333248487132,True,"(0.016460092110023694, 0.1817727229282342, 0.0239984717794936)","(0.9878458349006303, -0.15542931941481808, -0.0015274605471879445)",-0.0018947955632526365,24.51602360821571,True,"(0.06877160349034722, 0.12610389359114563, 0.056001528220506365)","(-0.987845834900631, 0.15542931941481394, 0.0015274605471498949)",-0.0006998111436451541,15.454812033490173
72,Move,"(0.038200000000000005, 0.0, -0.0202)","(0.0, 0.03875852669903807, 0.0)","(0.043505365338874, 0.15808363464973754, 0.04989724878118724)","(-0.051702289157083414, -0.00023867784341317528, -0.16604052425919985)","[0.04132337523123227, -0.0006653448909140214, 0.0019444302898245155]","[-0.026750000193715096, 0.05299999937415123, 0.03999999910593033]","[0.0, -0.0, 0.05473139864459428]","[-0.0306886937469244, 0.12489219009876251, 0.03999999910593033]","[0.0, 0.0, -0.5436784956916075]","[0.026750000193715096, 0.05299999937415123, 0.03999999910593033]","[0.0, 0.0, -0.7803356919147326]","[0.07740329205989838, 0.10416878014802933, 0.03999999910593033]","[0.0, 0.0, -0.17972006250097214]",0.05295966797454219,-0.42521307234913824,"(0.0, 0.0, 0.0, 0.0, 0.0, 0.0)",-4.244255074983576,-0.5971130216412481,0.3112428206241424,"(0.0, 0.0, 0.0, 0.0, 0.0, 0.0)",-2.105542923736054,-0.7810099137018042,-0.16182839981898273,"(0.0, 0.0, 0.0, 0.0, 0.0, 0.0)",3.6992874296929648,0.5997309738447157,-0.21230392954635505,"(0.0, 0.0, 0.0, 0.0, 0.0, 0.0)",1.4561098119205993,True,"(0.01732955084454746, 0.18168197402019517, 0.023999936735741714)","(0.9865028323994214, -0.1637441839001675, -6.250429907028627e-05)",-0.0018730670406068859,25.331754562640032,True,"(0.06916904328135444, 0.12597669169471615, 0.05600006326425829)","(-0.9865028323994196, 0.16374418390017767, 6.250429907237644e-05)",-0.0007417111841872338,16.383815884506465
73,Move,"(0.035, 0.0, -0.0205)","(0.0, 0.05170537909033201, 0.0)","(0.04379075781531824, 0.15794171952288555, 0.04998003770306153)","(-0.05261085712069071, 0.0014331929498280379, -0.1687790410491387)","[0.04160876770767651, -0.000807260017766015, 0.002027219211698808]","[-0.026750000193715096, 0.05299999937415123, 0.03999999910593033]","[0.0, -0.0, 0.04734353104072077]","[-0.030157461762428284, 0.12491932511329651, 0.03999999910593033]","[0.0, 0.0, -0.5437741744022128]","[0.026750000193715096, 0.05299999937415123, 0.03999999910593033]","[0.0, 0.0, -0.7819695891271815]","[0.07748683542013168, 0.10408593714237213, 0.03999999910593033]","[0.0, 0.0, -0.1853709353297242]",0.04625442443003901,-0.2613853984273007,"(0.0, 0.0, 0.0, 0.0, 0.0, 0.0)",-4.304480060784499,-0.5898620570035367,0.301350923472841,"(0.0, 0.0, 0.0, 0.0, 0.0, 0.0)",-2.0522829939119114,-0.7820654195463139,-0.02298724290180433,"(0.0, 0.0, 0.0, 0.0, 0.0, 0.0)",3.034902172977571,0.5959354360528611,-0.1591873302877463,"(0.0, 0.0, 0.0, 0.0, 0.0, 0.0)",1.0922566449593727,True,"(0.0178656122107167, 0.1817009240976894, 0.023998821424044966)","(0.9858832218269694, -0.1674302412037772, -0.001177815995816945)",-0.001977441691563261,28.074992691016877,True,"(0.06937562897020645, 0.12593815173183778, 0.056001178575955476)","(-0.9858832218270109, 0.16743024120352856, 0.0011778159962570057)",-0.00081501568169552,17.625758095182018
74,Move,"(0.039299999999999995, 0.0, -0.0219)","(0.0, 0.05592383989240231, 0.0)","(0.044337015857720805, 0.15763778706015952, 0.05008669564112434)","(-0.05343732487776922, 0.0023430331084418644, -0.17475876408175903)","[0.042155025750079074, -0.0011111924804920459, 0.002133877149761619]","[-0.026750000193715096, 0.05299999937415123, 0.03999999910593033]","[0.0, -0.0, 0.03815080038560877]","[-0.029496191069483757, 0.12494760751724243, 0.03999999910593033]","[0.0, 0.0, -0.5449324327955004]","[0.026750000193715096, 0.05299999937415123, 0.03999999910593033]","[0.0, 0.0, -0.7846062553046085]","[0.07762135565280914, 0.10395199060440063, 0.03999999910593033]","[0.0, 0.0, -0.19225704254461948]",0.036231318947801815,-0.46067623822234904,"(0.0, 0.0, 0.0, 0.0, 0.0, 0.0)",-4.892207844325725,-0.5816006956088962,0.3557994090728389,"(0.0, 0.0, 0.0, 0.0, 0.0, 0.0)",-2.374998229227817,-0.7852640543149959,-0.15787849501454598,"(0.0, 0.0, 0.0, 0.0, 0.0, 0.0)",3.567718084339028,0.5915610877722617,-0.18914274500702952,"(0.0, 0.0, 0.0, 0.0, 0.0, 0.0)",1.2842207123133569,True,"(0.018591916368132674, 0.1816695192469308, 0.023997780901969766)","(0.9849892495285064, -0.17260144037056688, -0.0022183541817439403)",-0.0021065043194532316,31.55075513920328,True,"(0.06966053080889319, 0.12585792473163881, 0.05600221911414096)","(-0.9849892495285046, 0.17260144037057623, 0.002218354181736297)",-0.0009032952363946475,20.500006768619663
