OSUrobotics/InHand-Manipulation/AnalyseData/Data/Trial Data/old/new_hand_expected_exp_2v2_c_none_1_kpNone_kdNone_dp1_step1_save_data.csv
,Phase,human_cube_pos,human_cube_orn,Cube_Pos,Cube_Orn,Cube_pos_in_start_pos,b'l_prox_pin'_link_pos,b'l_prox_pin'_link_orn,b'l_distal_pin'_link_pos,b'l_distal_pin'_link_orn,b'r_prox_pin'_link_pos,b'r_prox_pin'_link_orn,b'r_distal_pin'_link_pos,b'r_distal_pin'_link_orn,b'l_prox_pin'_joint_angle,b'l_prox_pin'_joint_vel,b'l_prox_pin'_joint_react_forces,b'l_prox_pin'_joint_motor_torque,b'l_distal_pin'_joint_angle,b'l_distal_pin'_joint_vel,b'l_distal_pin'_joint_react_forces,b'l_distal_pin'_joint_motor_torque,b'r_prox_pin'_joint_angle,b'r_prox_pin'_joint_vel,b'r_prox_pin'_joint_react_forces,b'r_prox_pin'_joint_motor_torque,b'r_distal_pin'_joint_angle,b'r_distal_pin'_joint_vel,b'r_distal_pin'_joint_react_forces,b'r_distal_pin'_joint_motor_torque,in_contact_l,contact_point_l_dist,contact_normal_l_dist,contact_distance_l_dist,contact_norm_force_l_dist,in_contact_r,contact_point_r_dist,contact_normal_r_dist,contact_distance_r_dist,contact_norm_force_r_dist
0,Open,,,,,,"[-0.026750000193715096, 0.05299999937415123, 0.03999999910593033]","[0.0, -0.0, 0.0]","[-0.026750000193715096, 0.125, 0.03999999910593033]","[0.0, -0.0, 0.0]","[0.026750000193715096, 0.05299999937415123, 0.03999999910593033]","[0.0, -0.0, 0.0]","[0.026750000193715096, 0.125, 0.03999999910593033]","[0.0, -0.0, 0.0]",0.0028636982559538428,0.6872875814289223,"(0.0, 0.0, 0.0, 0.0, 0.0, 0.0)",-74.42376671286476,0.025717978913313098,6.172314939195144,"(0.0, 0.0, 0.0, 0.0, 0.0, 0.0)",-28.347758017338414,-0.0028861714462846827,-0.6926811471083238,"(0.0, 0.0, 0.0, 0.0, 0.0, 0.0)",77.31812537484876,-0.025998027583603027,-6.239526620064726,"(0.0, 0.0, 0.0, 0.0, 0.0, 0.0)",29.325432325549183,False,,,,,False,,,,
1,Open,,,,,,"[-0.026750000193715096, 0.05299999937415123, 0.03999999910593033]","[0.0, -0.0, 0.0028636982488144678]","[-0.026956185698509216, 0.12499970197677612, 0.03999999910593033]","[0.0, -0.0, 0.028581675581217755]","[0.026750000193715096, 0.05299999937415123, 0.03999999910593033]","[0.0, 0.0, -0.0028861714423951343]","[0.026957804337143898, 0.12499970197677612, 0.03999999910593033]","[0.0, 0.0, -0.028884201286240394]",0.1595773284303585,37.61127124185712,"(0.0, 0.0, 0.0, 0.0, 0.0, 0.0)",53.472225824972774,0.02314589095046895,-0.6173011110825959,"(0.0, 0.0, 0.0, 0.0, 0.0, 0.0)",3.3014509125464437,-0.15959755430165623,-37.61073188528917,"(0.0, 0.0, 0.0, 0.0, 0.0, 0.0)",-53.45543824447724,-0.023397935520559333,0.6240220951304867,"(0.0, 0.0, 0.0, 0.0, 0.0, 0.0)",-3.2927232380167535,False,,,,,False,,,,
2,Open,,,,,,"[-0.026750000193715096, 0.05299999937415123, 0.03999999910593033]","[0.0, -0.0, 0.15957730699277592]","[-0.03819086775183678, 0.1240852028131485, 0.03999999910593033]","[0.0, -0.0, 0.1827232399786182]","[0.026750000193715096, 0.05299999937415123, 0.03999999910593033]","[0.0, 0.0, -0.15959754249378824]","[0.03819230571389198, 0.12408497184515, 0.03999999910593033]","[0.0, 0.0, -0.1829954723320542]",0.30061959558732265,33.8501441176714,"(0.0, 0.0, 0.0, 0.0, 0.0, 0.0)",-5.433290843096747,0.020831748867960086,-0.555394099802127,"(0.0, 0.0, 0.0, 0.0, 0.0, 0.0)",-0.37949999689540415,-0.30063779887149056,-33.849658696760244,"(0.0, 0.0, 0.0, 0.0, 0.0, 0.0)",5.433149501288634,-0.02105858889910766,0.5614431891484022,"(0.0, 0.0, 0.0, 0.0, 0.0, 0.0)",0.37943043762158307,False,,,,,False,,,,
3,Open,,,,,,"[-0.026750000193715096, 0.05299999937415123, 0.03999999910593033]","[0.0, -0.0, 0.30061964608852465]","[-0.048070069402456284, 0.12177103012800217, 0.03999999910593033]","[0.0, -0.0, 0.3214513597309629]","[0.026750000193715096, 0.05299999937415123, 0.03999999910593033]","[0.0, 0.0, -0.30063782483534385]","[0.04807132109999657, 0.12177064269781113, 0.03999999910593033]","[0.0, 0.0, -0.32169639446592324]",0.4275576360285904,30.465129705904268,"(0.0, 0.0, 0.0, 0.0, 0.0, 0.0)",-4.896562760502833,0.018748978964657985,-0.49986477679250463,"(0.0, 0.0, 0.0, 0.0, 0.0, 0.0)",-0.3438186216350169,-0.4275740189843415,-30.464692827084228,"(0.0, 0.0, 0.0, 0.0, 0.0, 0.0)",4.8964345239877005,-0.018953134917884834,0.505308955493478,"(0.0, 0.0, 0.0, 0.0, 0.0, 0.0)",0.34375511365495653,False,,,,,False,,,,
4,Open,,,,,,"[-0.026750000193715096, 0.05299999937415123, 0.03999999910593033]","[0.0, -0.0, 0.42755761853039154]","[-0.056604765355587006, 0.1185186430811882, 0.03999999910593033]","[0.0, -0.0, 0.4463066270391506]","[0.026750000193715096, 0.05299999937415123, 0.03999999910593033]","[0.0, 0.0, -0.42757404208311445]","[0.05660583823919296, 0.1185181587934494, 0.03999999910593033]","[0.0, 0.0, -0.4465272228574986]",0.5418018724257314,27.418616735313837,"(0.0, 0.0, 0.0, 0.0, 0.0, 0.0)",-4.412236817968903,0.016874447698417276,-0.44988750389777044,"(0.0, 0.0, 0.0, 0.0, 0.0, 0.0)",-0.3112578673856835,-0.5418166170859073,-27.418223544375806,"(0.0, 0.0, 0.0, 0.0, 0.0, 0.0)",4.412120589674461,-0.017058187988154127,0.4547872631353701,"(0.0, 0.0, 0.0, 0.0, 0.0, 0.0)",0.31119999541872967,False,,,,,False,,,,
5,Open,,,,,,"[-0.026750000193715096, 0.05299999937415123, 0.03999999910593033]","[0.0, -0.0, 0.5418019400761332]","[-0.06387900561094284, 0.11468822509050369, 0.03999999910593033]","[0.0, -0.0, 0.5586763123738882]","[0.026750000193715096, 0.05299999937415123, 0.03999999910593033]","[0.0, 0.0, -0.5418166677071254]","[0.06387991458177567, 0.11468767374753952, 0.03999999910593033]","[0.0, 0.0, -0.5588748551425957]",0.6446216851831583,24.67675506178245,"(0.0, 0.0, 0.0, 0.0, 0.0, 0.0)",-3.975330693632137,0.015187334633278446,-0.4049071356333192,"(0.0, 0.0, 0.0, 0.0, 0.0, 0.0)",-0.2816071653694913,-0.6446349553773166,-24.67640118993823,"(0.0, 0.0, 0.0, 0.0, 0.0, 0.0)",3.975225427671302,-0.01535270083200906,0.409316917474816,"(0.0, 0.0, 0.0, 0.0, 0.0, 0.0)",0.28155450162657786,False,,,,,False,,,,
6,Open,,,,,,"[-0.026750000193715096, 0.05299999937415123, 0.03999999910593033]","[0.0, -0.0, 0.6446216983098856]","[-0.07001452147960663, 0.11055155843496323, 0.03999999910593033]","[0.0, -0.0, 0.6598089287160823]","[0.026750000193715096, 0.05299999937415123, 0.03999999910593033]","[0.0, 0.0, -0.644634967879878]","[0.07001528143882751, 0.11055097728967667, 0.03999999910593033]","[0.0, 0.0, -0.6599877329949964]",0.7371595166648425,22.209079555604205,"(0.0, 0.0, 0.0, 0.0, 0.0, 0.0)",-3.5812948349547464,0.013668901111545678,-0.3644240452158641,"(0.0, 0.0, 0.0, 0.0, 0.0, 0.0)",-0.25464125660078457,-0.737171459839585,-22.20876107094441,"(0.0, 0.0, 0.0, 0.0, 0.0, 0.0)",3.5811995605906057,-0.01381773063402154,0.3683928475170044,"(0.0, 0.0, 0.0, 0.0, 0.0, 0.0)",0.2545933902665499,False,,,,,False,,,,
7,Open,,,,,,"[-0.026750000193715096, 0.05299999937415123, 0.03999999910593033]","[0.0, -0.0, 0.7371595400859692]","[-0.07514750957489014, 0.10630742460489273, 0.03999999910593033]","[0.0, -0.0, 0.7508283868993905]","[0.026750000193715096, 0.05299999937415123, 0.03999999910593033]","[0.0, 0.0, -0.7371714711336782]","[0.07514814287424088, 0.10630684345960617, 0.03999999910593033]","[0.0, 0.0, -0.750989167509555]",0.8204435649983582,19.988171600043785,"(0.0, 0.0, 0.0, 0.0, 0.0, 0.0)",-3.2259980823944012,0.01230228208777883,-0.32798856570404317,"(0.0, 0.0, 0.0, 0.0, 0.0, 0.0)",-0.23014491551259536,-0.8204543138556265,-19.987884963849964,"(0.0, 0.0, 0.0, 0.0, 0.0, 0.0)",3.225911902119173,-0.012436228606816148,0.33156048652929415,"(0.0, 0.0, 0.0, 0.0, 0.0, 0.0)",0.23010145595163894,False,,,,,False,,,,
8,Open,,,,,,"[-0.026750000193715096, 0.05299999937415123, 0.03999999910593033]","[0.0, -0.0, 0.8204435774406766]","[-0.07941428571939468, 0.1020965725183487, 0.03999999910593033]","[0.0, -0.0, 0.8327459142786269]","[0.026750000193715096, 0.05299999937415123, 0.03999999910593033]","[0.0, 0.0, -0.8204543695347751]","[0.07941480726003647, 0.10209600627422333, 0.03999999910593033]","[0.0, 0.0, -0.8328905496331522]",0.8953992084985224,17.9893544400394,"(0.0, 0.0, 0.0, 0.0, 0.0, 0.0)",-2.905692777507757,0.011072298781000885,-0.2951959936267068,"(0.0, 0.0, 0.0, 0.0, 0.0, 0.0)",-0.20791432075989408,-0.8954088824700639,-17.989096467464968,"(0.0, 0.0, 0.0, 0.0, 0.0, 0.0)",2.9056148642503405,-0.011192850601700187,0.29841072122783063,"(0.0, 0.0, 0.0, 0.0, 0.0, 0.0)",0.20787489947010138,False,,,,,False,,,,
9,Open,,,,,,"[-0.026750000193715096, 0.05299999937415123, 0.03999999910593033]","[0.0, -0.0, 0.8953992050914552]","[-0.08294302970170975, 0.09801492840051651, 0.03999999910593033]","[0.0, -0.0, 0.9064715399310761]","[0.026750000193715096, 0.05299999937415123, 0.03999999910593033]","[0.0, 0.0, -0.8954089117450801]","[0.08294346183538437, 0.09801438450813293, 0.03999999910593033]","[0.0, 0.0, -0.9066016844299951]",0.9628592876486701,16.190418996035465,"(0.0, 0.0, 0.0, 0.0, 0.0, 0.0)",-2.616982039675733,0.009965290062605858,-0.26568209241480656,"(0.0, 0.0, 0.0, 0.0, 0.0, 0.0)",-0.18775783729375353,-0.9628679942230576,-16.190186820718473,"(0.0, 0.0, 0.0, 0.0, 0.0, 0.0)",2.6169116334278195,-0.010073786659150813,0.26857534621184953,"(0.0, 0.0, 0.0, 0.0, 0.0, 0.0)",0.187722108909745,False,,,,,False,,,,
10,Open,,,,,,"[-0.026750000193715096, 0.05299999937415123, 0.03999999910593033]","[0.0, -0.0, 0.9628592963772022]","[-0.08584962040185928, 0.09412462264299393, 0.03999999910593033]","[0.0, -0.0, 0.9728246761305416]","[0.026750000193715096, 0.05299999937415123, 0.03999999910593033]","[0.0, 0.0, -0.9628681466677605]","[0.08584997802972794, 0.09412410855293274, 0.03999999910593033]","[0.0, 0.0, -0.9729417790417357]",1.0235733588838032,14.57137709643192,"(0.0, 0.0, 0.0, 0.0, 0.0, 0.0)",-2.356789246056587,0.008968960705874744,-0.23911904561546746,"(0.0, 0.0, 0.0, 0.0, 0.0, 0.0)",-0.16949635495257384,-1.0235811948007518,-14.571168138646623,"(0.0, 0.0, 0.0, 0.0, 0.0, 0.0)",2.3567256501387286,-0.009066607604651448,0.24172297307984775,"(0.0, 0.0, 0.0, 0.0, 0.0, 0.0)",0.16946399753760524,False,,,,,False,,,,
11,Open,,,,,,"[-0.026750000193715096, 0.05299999937415123, 0.03999999910593033]","[0.0, -0.0, 1.0235732790301837]","[-0.08823604136705399, 0.09046287834644318, 0.03999999910593033]","[0.0, -0.0, 1.0325423083164225]","[0.026750000193715096, 0.05299999937415123, 0.03999999910593033]","[0.0, 0.0, -1.0235812274279317]","[0.08823633193969727, 0.09046239405870438, 0.03999999910593033]","[0.0, 0.0, -1.0326479037372749]",1.078216022995423,13.114239386788727,"(0.0, 0.0, 0.0, 0.0, 0.0, 0.0)",-2.1223296975724493,0.008072244810550301,-0.215211814877866,"(0.0, 0.0, 0.0, 0.0, 0.0, 0.0)",-0.1529632973210469,-1.0782230753206767,-13.114051324781958,"(0.0, 0.0, 0.0, 0.0, 0.0, 0.0)",2.122272274708909,-0.008160126984954354,0.21755534872730237,"(0.0, 0.0, 0.0, 0.0, 0.0, 0.0)",0.15293401213466845,False,,,,,False,,,,
12,Open,,,,,,"[-0.026750000193715096, 0.05299999937415123, 0.03999999910593033]","[0.0, -0.0, 1.078215882979514]","[-0.09019032120704651, 0.08704887330532074, 0.03999999910593033]","[0.0, -0.0, 1.0862882926740116]","[0.026750000193715096, 0.05299999937415123, 0.03999999910593033]","[0.0, 0.0, -1.078222977413882]","[0.09019055962562561, 0.08704842627048492, 0.03999999910593033]","[0.0, 0.0, -1.0863833790205233]",1.1273944206958806,11.802815448109852,"(0.0, 0.0, 0.0, 0.0, 0.0, 0.0)",-1.9110844168611731,0.007265182884681461,-0.19369486220852175,"(0.0, 0.0, 0.0, 0.0, 0.0, 0.0)",-0.13800439004610457,-1.127400767788609,-11.802646192303762,"(0.0, 0.0, 0.0, 0.0, 0.0, 0.0)",1.9110325851897776,-0.007344276810443619,0.19580404188257655,"(0.0, 0.0, 0.0, 0.0, 0.0, 0.0)",0.13797790093405082,False,,,,,False,,,,
13,Open,,,,,,"[-0.026750000193715096, 0.05299999937415123, 0.03999999910593033]","[0.0, -0.0, 1.1273943743462997]","[-0.0917874127626419, 0.08388907462358475, 0.03999999910593033]","[0.0, -0.0, 1.1346596248576977]","[0.026750000193715096, 0.05299999937415123, 0.03999999910593033]","[0.0, 0.0, -1.127400718904607]","[0.09178761392831802, 0.08388865739107132, 0.03999999910593033]","[0.0, 0.0, -1.134745111288055]",1.1716549786262926,10.622533903298867,"(0.0, 0.0, 0.0, 0.0, 0.0, 0.0)",-1.7207759982695574,0.00653881121780902,-0.17432920004938585,"(0.0, 0.0, 0.0, 0.0, 0.0, 0.0)",-0.12447725819906867,-1.1716606910097482,-10.622381573073383,"(0.0, 0.0, 0.0, 0.0, 0.0, 0.0)",1.7207292273800263,-0.006609995722787257,0.17622746103752684,"(0.0, 0.0, 0.0, 0.0, 0.0, 0.0)",0.12445331071934837,False,,,,,False,,,,
14,Open,,,,,,"[-0.026750000193715096, 0.05299999937415123, 0.03999999910593033]","[0.0, -0.0, 1.17165497759142]","[-0.09309044480323792, 0.08098116517066956, 0.03999999910593033]","[0.0, -0.0, 1.1781937273122836]","[0.026750000193715096, 0.05299999937415123, 0.03999999910593033]","[0.0, 0.0, -1.1716605985979762]","[0.09309060126543045, 0.08098078519105911, 0.03999999910593033]","[0.0, 0.0, -1.178270796658152]",1.2114894807636634,9.56028051296898,"(0.0, 0.0, 0.0, 0.0, 0.0, 0.0)",-1.549346412635057,0.005885062316220725,-0.15689973638119079,"(0.0, 0.0, 0.0, 0.0, 0.0, 0.0)",-0.11225090666269867,-1.2114946219087734,-9.560143415766044,"(0.0, 0.0, 0.0, 0.0, 0.0, 0.0)",1.5493042197033076,-0.00594912834521185,0.1586081706180975,"(0.0, 0.0, 0.0, 0.0, 0.0, 0.0)",0.11222926703597672,False,,,,,False,,,,
15,Open,,,,,,"[-0.026750000193715096, 0.05299999937415123, 0.03999999910593033]","[0.0, -0.0, 1.2114893406881728]","[-0.09415213763713837, 0.07831703126430511, 0.03999999910593033]","[0.0, -0.0, 1.2173745989650702]","[0.026750000193715096, 0.05299999937415123, 0.03999999910593033]","[0.0, 0.0, -1.2114945655338818]","[0.09415226429700851, 0.07831668108701706, 0.03999999910593033]","[0.0, 0.0, -1.2174436451143456]",1.247340532687297,8.604252461672083,"(0.0, 0.0, 0.0, 0.0, 0.0, 0.0)",-1.3949366588174594,0.00529667529397997,-0.14121288533778104,"(0.0, 0.0, 0.0, 0.0, 0.0, 0.0)",-0.1012051251161189,-1.2473451597178962,-8.604129074189437,"(0.0, 0.0, 0.0, 0.0, 0.0, 0.0)",1.394898604883462,-0.005354334697048719,0.1427504755591516,"(0.0, 0.0, 0.0, 0.0, 0.0, 0.0)",0.1011855790679586,False,,,,,False,,,,
16,Open,,,,,,"[-0.026750000193715096, 0.05299999937415123, 0.03999999910593033]","[0.0, -0.0, 1.2473405247091465]","[-0.09501627087593079, 0.07588484138250351, 0.03999999910593033]","[0.0, -0.0, 1.2526371614229614]","[0.026750000193715096, 0.05299999937415123, 0.03999999910593033]","[0.0, 0.0, -1.2473450561350814]","[0.09501637518405914, 0.07588452845811844, 0.03999999910593033]","[0.0, 0.0, -1.252699591080442]",1.2796064794185673,7.743827215504874,"(0.0, 0.0, 0.0, 0.0, 0.0, 0.0)",-1.2558681481324276,0.004767115224099335,-0.12709441677135241,"(0.0, 0.0, 0.0, 0.0, 0.0, 0.0)",-0.09122984935698081,-1.2796106437461066,-7.743716166770495,"(0.0, 0.0, 0.0, 0.0, 0.0, 0.0)",1.2558338345532607,-0.004819008666073119,0.128478247434144,"(0.0, 0.0, 0.0, 0.0, 0.0, 0.0)",0.09121220090323832,False,,,,,False,,,,
17,Open,,,,,,"[-0.026750000193715096, 0.05299999937415123, 0.03999999910593033]","[0.0, -0.0, 1.279606409124563]","[-0.09571900963783264, 0.0736706405878067, 0.03999999910593033]","[0.0, -0.0, 1.2843736758198352]","[0.026750000193715096, 0.05299999937415123, 0.03999999910593033]","[0.0, 0.0, -1.2796106525936015]","[0.0957190990447998, 0.07367035001516342, 0.03999999910593033]","[0.0, 0.0, -1.2844295613342638]",1.3086458314767107,6.969444493954387,"(0.0, 0.0, 0.0, 0.0, 0.0, 0.0)",-1.1305941221975622,0.00429170208951155,-0.1140991523010686,"(0.0, 0.0, 0.0, 0.0, 0.0, 0.0)",-0.082192919359827,-1.3086495793714958,-6.969344550093446,"(0.0, 0.0, 0.0, 0.0, 0.0, 0.0)",1.1305631934145834,-0.004338405935744441,0.11534465527888274,"(0.0, 0.0, 0.0, 0.0, 0.0, 0.0)",0.08217699569254354,False,,,,,False,,,,
18,Open,,,,,,"[-0.026750000193715096, 0.05299999937415123, 0.03999999910593033]","[0.0, -0.0, 1.308645825919811]","[-0.09629011154174805, 0.0716593861579895, 0.03999999910593033]","[0.0, -0.0, 1.3129373548657892]","[0.026750000193715096, 0.05299999937415123, 0.03999999910593033]","[0.0, 0.0, -1.308649569130343]","[0.09629017859697342, 0.07165912538766861, 0.03999999910593033]","[0.0, 0.0, -1.3129881167123505]",1.3347812483290395,6.272500044558946,"(0.0, 0.0, 0.0, 0.0, 0.0, 0.0)",-1.0178482622338179,0.003863702481573626,-0.10271990590510163,"(0.0, 0.0, 0.0, 0.0, 0.0, 0.0)",-0.07410352518858664,-1.3347846214343462,-6.272410095084102,"(0.0, 0.0, 0.0, 0.0, 0.0, 0.0)",1.0178203769740246,-0.0039057357160976183,0.10384085271523745,"(0.0, 0.0, 0.0, 0.0, 0.0, 0.0)",0.0740891498002037,False,,,,,False,,,,
19,Open,,,,,,"[-0.026750000193715096, 0.05299999937415123, 0.03999999910593033]","[0.0, -0.0, 1.3347813147466918]","[-0.09675397723913193, 0.06983575969934464, 0.03999999910593033]","[0.0, -0.0, 1.3386449621367835]","[0.026750000193715096, 0.05299999937415123, 0.03999999910593033]","[0.0, 0.0, -1.3347844615433213]","[0.0967540368437767, 0.06983552873134613, 0.03999999910593033]","[0.0, 0.0, -1.3386905382854437]",1.3583031234961356,5.645250040103052,"(0.0, 0.0, 0.0, 0.0, 0.0, 0.0)",-0.9162890978823036,0.0034783869891320215,-0.09247571818598516,"(0.0, 0.0, 0.0, 0.0, 0.0, 0.0)",-0.06677007440367574,-1.3583061592909116,-5.645169085575695,"(0.0, 0.0, 0.0, 0.0, 0.0, 0.0)",0.9162639666346021,-0.003516216695348753,0.09348456497972772,"(0.0, 0.0, 0.0, 0.0, 0.0, 0.0)",0.06675710630673855,False,,,,,False,,,,
20,Open,,,,,,"[-0.026750000193715096, 0.05299999937415123, 0.03999999910593033]","[0.0, -0.0, 1.3583030429358363]","[-0.09713058918714523, 0.06818463653326035, 0.03999999910593033]","[0.0, -0.0, 1.3617816714487538]","[0.026750000193715096, 0.05299999937415123, 0.03999999910593033]","[0.0, 0.0, -1.358306171033049]","[0.09713063389062881, 0.06818442046642303, 0.03999999910593033]","[0.0, 0.0, -1.361822351334537]",1.379472811146522,5.0807250360927485,"(0.0, 0.0, 0.0, 0.0, 0.0, 0.0)",-0.8248429295126702,0.003131498553648039,-0.08325322451615583,"(0.0, 0.0, 0.0, 0.0, 0.0, 0.0)",-0.06015531267018523,-1.3794755433618204,-5.080652177018124,"(0.0, 0.0, 0.0, 0.0, 0.0, 0.0)",0.8248202834423316,-0.003165545104486833,0.08416118180686077,"(0.0, 0.0, 0.0, 0.0, 0.0, 0.0)",0.06014361689139186,False,,,,,False,,,,
21,Open,,,,,,"[-0.026750000193715096, 0.05299999937415123, 0.03999999910593033]","[0.0, -0.0, 1.3794728975130914]","[-0.09743624925613403, 0.06669140607118607, 0.03999999910593033]","[0.0, -0.0, 1.382604304378769]","[0.026750000193715096, 0.05299999937415123, 0.03999999910593033]","[0.0, 0.0, -1.379475506721758]","[0.09743628650903702, 0.06669121235609055, 0.03999999910593033]","[0.0, 0.0, -1.3826409668082853]",1.3985255300318697,4.572652532483473,"(0.0, 0.0, 0.0, 0.0, 0.0, 0.0)",-0.7425066286387145,0.0028192047313806493,-0.07495051734417352,"(0.0, 0.0, 0.0, 0.0, 0.0, 0.0)",-0.054190171953983096,-1.3985279890256384,-4.57258695931631,"(0.0, 0.0, 0.0, 0.0, 0.0, 0.0)",0.7424862245436853,-0.0028498464605416357,0.07576767454684734,"(0.0, 0.0, 0.0, 0.0, 0.0, 0.0)",0.0541796259205944,False,,,,,False,,,,
22,Open,,,,,,"[-0.026750000193715096, 0.05299999937415123, 0.03999999910593033]","[0.0, -0.0, 1.398525454133583]","[-0.09768425673246384, 0.0653422400355339, 0.03999999910593033]","[0.0, -0.0, 1.4013447262228373]","[0.026750000193715096, 0.05299999937415123, 0.03999999910593033]","[0.0, 0.0, -1.3985280648022782]","[0.09768428653478622, 0.06534206122159958, 0.03999999910593033]","[0.0, 0.0, -1.4013779844801912]",1.4156729770286829,4.1153872792351285,"(0.0, 0.0, 0.0, 0.0, 0.0, 0.0)",-0.6683758137814145,0.002538055332395241,-0.06747585575649792,"(0.0, 0.0, 0.0, 0.0, 0.0, 0.0)",-0.04881194552870251,-1.4156751901230746,-4.115328263384682,"(0.0, 0.0, 0.0, 0.0, 0.0, 0.0)",0.6683574317692884,-0.002565632738451909,0.06821129330153437,"(0.0, 0.0, 0.0, 0.0, 0.0, 0.0)",0.0488024380394442,False,,,,,False,,,,
23,Open,,,,,,"[-0.026750000193715096, 0.05299999937415123, 0.03999999910593033]","[0.0, -0.0, 1.4156730334745993]","[-0.09788545966148376, 0.06412414461374283, 0.03999999910593033]","[0.0, -0.0, 1.418211036917125]","[0.026750000193715096, 0.05299999937415123, 0.03999999910593033]","[0.0, 0.0, -1.4156752315845986]","[0.09788548201322556, 0.0641239807009697, 0.03999999910593033]","[0.0, 0.0, -1.418240879504808]",1.4311056793258146,3.703848551311612,"(0.0, 0.0, 0.0, 0.0, 0.0, 0.0)",-0.6016352863054336,0.002284944287465684,-0.060746650783093666,"(0.0, 0.0, 0.0, 0.0, 0.0, 0.0)",-0.04396376851645251,-1.431107671110767,-3.7037954370462103,"(0.0, 0.0, 0.0, 0.0, 0.0, 0.0)",0.6016187276545472,-0.0023097638175418747,0.061408541018408244,"(0.0, 0.0, 0.0, 0.0, 0.0, 0.0)",0.043955198772734246,False,,,,,False,,,,
24,Open,,,,,,"[-0.026750000193715096, 0.05299999937415123, 0.03999999910593033]","[0.0, -0.0, 1.4311058207082674]","[-0.09804865717887878, 0.06302504986524582, 0.03999999910593033]","[0.0, -0.0, 1.433390691262394]","[0.026750000193715096, 0.05299999937415123, 0.03999999910593033]","[0.0, 0.0, -1.4311075924426346]","[0.09804867953062057, 0.06302490830421448, 0.03999999910593033]","[0.0, 0.0, -1.433417470845748]",1.4449951113932331,3.333463696180452,"(0.0, 0.0, 0.0, 0.0, 0.0, 0.0)",-0.5415503506795546,0.0020570753203455715,-0.05468855210882702,"(0.0, 0.0, 0.0, 0.0, 0.0, 0.0)",-0.039594115216637325,-1.4449969039996904,-3.3334158933415914,"(0.0, 0.0, 0.0, 0.0, 0.0, 0.0)",0.541535435877482,-0.002079412775410495,0.055284250111531166,"(0.0, 0.0, 0.0, 0.0, 0.0, 0.0)",0.03958639191865308,False,,,,,False,,,,
25,Open,,,,,,"[-0.026750000193715096, 0.05299999937415123, 0.03999999910593033]","[0.0, -0.0, 1.444995076522675]","[-0.09818101674318314, 0.062033817172050476, 0.03999999910593033]","[0.0, -0.0, 1.4470522962768402]","[0.026750000193715096, 0.05299999937415123, 0.03999999910593033]","[0.0, 0.0, -1.4449971061677662]","[0.09818103164434433, 0.06203368678689003, 0.03999999910593033]","[0.0, 0.0, -1.4470761943538692]",1.45749560025391,3.0001173265624064,"(0.0, 0.0, 0.0, 0.0, 0.0, 0.0)",-0.4874589573784058,0.001851931045420989,-0.04923462598189979,"(0.0, 0.0, 0.0, 0.0, 0.0, 0.0)",-0.03565633120497695,-1.4574972135997213,-3.000074304007432,"(0.0, 0.0, 0.0, 0.0, 0.0, 0.0)",0.4874455243270462,-0.0018720346450414762,0.04977075128856451,"(0.0, 0.0, 0.0, 0.0, 0.0, 0.0)",0.03564937171228022,False,,,,,False,,,,
26,Open,,,,,,"[-0.026750000193715096, 0.05299999937415123, 0.03999999910593033]","[0.0, -0.0, 1.4574954921785264]","[-0.09828835725784302, 0.061140209436416626, 0.03999999910593033]","[0.0, -0.0, 1.4593474823067423]","[0.026750000193715096, 0.05299999937415123, 0.03999999910593033]","[0.0, 0.0, -1.4574971848934346]","[0.09828837215900421, 0.061140093952417374, 0.03999999910593033]","[0.0, 0.0, -1.4593694397653831]",1.4687460402285188,2.700105593906164,"(0.0, 0.0, 0.0, 0.0, 0.0, 0.0)",-0.4387645947805427,0.0016672451487475934,-0.044324615201614966,"(0.0, 0.0, 0.0, 0.0, 0.0, 0.0)",-0.032108199676446195,-1.4687474922397492,-2.70006687360669,"(0.0, 0.0, 0.0, 0.0, 0.0, 0.0)",0.4387524971567325,-0.0016853382893528596,0.04480712536526797,"(0.0, 0.0, 0.0, 0.0, 0.0, 0.0)",0.03210192923147444,False,,,,,False,,,,
27,Open,,,,,,"[-0.026750000193715096, 0.05299999937415123, 0.03999999910593033]","[0.0, -0.0, 1.4687462228928074]","[-0.09837540984153748, 0.06033487245440483, 0.03999999910593033]","[0.0, -0.0, 1.4704133245237396]","[0.026750000193715096, 0.05299999937415123, 0.03999999910593033]","[0.0, 0.0, -1.4687474899518769]","[0.09837542474269867, 0.060334768146276474, 0.03999999910593033]","[0.0, 0.0, -1.4704329951986796]",1.478871436205667,2.430095034515549,"(0.0, 0.0, 0.0, 0.0, 0.0, 0.0)",-0.394929862139441,0.0015009773446580906,-0.03990427298148066,"(0.0, 0.0, 0.0, 0.0, 0.0, 0.0)",-0.028911540991871522,-1.4788727430157742,-2.430060186246021,"(0.0, 0.0, 0.0, 0.0, 0.0, 0.0)",0.39491896790015035,-0.001517261081966714,0.04033852977267494,"(0.0, 0.0, 0.0, 0.0, 0.0, 0.0)",0.02890589200411927,False,,,,,False,,,,
28,Open,,,,,,"[-0.026750000193715096, 0.05299999937415123, 0.03999999910593033]","[0.0, -0.0, 1.4788714352834713]","[-0.09844600409269333, 0.05960927531123161, 0.03999999910593033]","[0.0, -0.0, 1.480372508787761]","[0.026750000193715096, 0.05299999937415123, 0.03999999910593033]","[0.0, 0.0, -1.4788727099725336]","[0.09844601899385452, 0.05960918217897415, 0.03999999910593033]","[0.0, 0.0, -1.4803900544382056]",1.4879842925851003,2.1870855310639947,"(0.0, 0.0, 0.0, 0.0, 0.0, 0.0)",-0.3554706611703565,0.001351290830885638,-0.035924763305388616,"(0.0, 0.0, 0.0, 0.0, 0.0, 0.0)",-0.026031844038894282,-1.487985468714197,-2.1870541676214206,"(0.0, 0.0, 0.0, 0.0, 0.0, 0.0)",0.3554608511915877,-0.001365946114079445,0.03631559229294455,"(0.0, 0.0, 0.0, 0.0, 0.0, 0.0)",0.026026755426892093,False,,,,,False,,,,
29,Close,,,"(3.819349109750643e-09, 0.16999994350316286, 7.914305593764796e-05)","(1.5700606283751846, 1.2357610516186277e-06, -4.058049624060407e-09)",,"[-0.026750000193715096, 0.05299999937415123, 0.03999999910593033]","[0.0, -0.0, 1.4879842849605203]","[-0.09850326180458069, 0.05895565450191498, 0.03999999910593033]","[0.0, -0.0, 1.4893357278409396]","[0.026750000193715096, 0.05299999937415123, 0.03999999910593033]","[0.0, 0.0, -1.4879853833286059]","[0.09850326925516129, 0.05895556882023811, 0.03999999910593033]","[0.0, 0.0, -1.4893513332680077]",1.4961858633265903,1.9683769779575933,"(0.0, 0.0, 0.0, 0.0, 0.0, 0.0)",-0.31995094896823073,0.0012165319928285922,-0.03234212113369103,"(0.0, 0.0, 0.0, 0.0, 0.0, 0.0)",-0.02343792779000599,-1.4961869218427772,-1.9683487508592754,"(0.0, 0.0, 0.0, 0.0, 0.0, 0.0)",0.31994211580738524,-0.0012297216752996233,0.03269386530715718,"(0.0, 0.0, 0.0, 0.0, 0.0, 0.0)",0.02343334437795369,False,,,,,False,,,,
30,Close,,,"(1.09441459674075e-09, 0.16999988769159868, 0.0001519632082907279)","(1.5701173533571526, -2.5467641220651055e-06, -4.573996600559749e-08)",,"[-0.026750000193715096, 0.05299999937415123, 0.03999999910593033]","[0.0, -0.0, 1.4961860174198076]","[-0.09854969382286072, 0.05836696922779083, 0.03999999910593033]","[0.0, -0.0, 1.4974025341106605]","[0.026750000193715096, 0.05299999937415123, 0.03999999910593033]","[0.0, 0.0, -1.4961870219527165]","[0.09854969382286072, 0.05836689472198486, 0.03999999910593033]","[0.0, 0.0, -1.4974167044724178]",1.4065672769939312,-21.50846071983817,"(0.0, 0.0, 0.0, 0.0, 0.0, 0.0)",-36.83524610171859,-0.08890468746940376,-21.629092670935766,"(0.0, 0.0, 0.0, 0.0, 0.0, 0.0)",-4.936581214831643,-1.4065682296584996,21.508486124226657,"(0.0, 0.0, 0.0, 0.0, 0.0, 0.0)",36.83523814678565,0.0888928167555427,21.629409223402156,"(0.0, 0.0, 0.0, 0.0, 0.0, 0.0)",4.936577085092772,False,,,,,False,,,,
31,Close,,,"(3.541182821644653e-08, 0.1699998011443987, 0.00021906657187154062)","(1.570205104748116, 3.3042409171564205e-05, -8.114212850492596e-08)",,"[-0.026750000193715096, 0.05299999937415123, 0.03999999910593033]","[0.0, -0.0, 1.4065674382065954]","[-0.0977812185883522, 0.06477140635251999, 0.03999999910593033]","[0.0, -0.0, 1.3176625934179576]","[0.026750000193715096, 0.05299999937415123, 0.03999999910593033]","[0.0, 0.0, -1.4065680331882469]","[0.0977812260389328, 0.06477133929729462, 0.03999999910593033]","[0.0, 0.0, -1.3176753491400532]",1.3259105492945382,-19.357614647854348,"(0.0, 0.0, 0.0, 0.0, 0.0, 0.0)",3.3395407019063446,-0.17001473426920377,-19.466411231952,"(0.0, 0.0, 0.0, 0.0, 0.0, 0.0)",0.4376834422569755,-1.3259114066926496,19.35763751180399,"(0.0, 0.0, 0.0, 0.0, 0.0, 0.0)",-3.3395473112045253,0.1700040506304986,19.466696129989415,"(0.0, 0.0, 0.0, 0.0, 0.0, 0.0)",-0.43768664266468643,False,,,,,False,,,,
32,Close,,,"(3.361538948490201e-08, 0.16999974452330968, 0.00028077538773600935)","(1.5702911774727688, 7.027968338074274e-05, -7.017997684986258e-06)",,"[-0.026750000193715096, 0.05299999937415123, 0.03999999910593033]","[0.0, -0.0, 1.325910602539969]","[-0.09660188108682632, 0.07045608013868332, 0.03999999910593033]","[0.0, -0.0, 1.1558959321658662]","[0.026750000193715096, 0.05299999937415123, 0.03999999910593033]","[0.0, 0.0, -1.3259115331240872]","[0.09660189598798752, 0.07045602053403854, 0.03999999910593033]","[0.0, 0.0, -1.1559073716167563]",1.2533194943650845,-17.42185318306892,"(0.0, 0.0, 0.0, 0.0, 0.0, 0.0)",3.0100864599566086,-0.2430137284658432,-17.519758607193467,"(0.0, 0.0, 0.0, 0.0, 0.0, 0.0)",0.39699812510351973,-1.2533202660233846,17.42187376062359,"(0.0, 0.0, 0.0, 0.0, 0.0, 0.0)",-3.0100924602349655,0.24300411319445853,17.52001501535039,"(0.0, 0.0, 0.0, 0.0, 0.0, 0.0)",-0.39700105403357716,False,,,,,False,,,,
33,Close,,,"(1.2478111664315067e-07, 0.16999960627903704, 0.000337513976604643)","(1.5703757790333803, 0.0001088681261817636, -5.122611399447184e-06)",,"[-0.026750000193715096, 0.05299999937415123, 0.03999999910593033]","[0.0, -0.0, 1.2533194489161892]","[-0.0951518788933754, 0.07547627389431, 0.03999999910593033]","[0.0, -0.0, 1.0103057011386807]","[0.026750000193715096, 0.05299999937415123, 0.03999999910593033]","[0.0, 0.0, -1.2533201846969224]","[0.09515189379453659, 0.07547622174024582, 0.03999999910593033]","[0.0, 0.0, -1.010316110149499]",1.1879875449285762,-15.679667864762028,"(0.0, 0.0, 0.0, 0.0, 0.0, 0.0)",2.712712783767229,-0.30871235561933186,-15.767670516837281,"(0.0, 0.0, 0.0, 0.0, 0.0, 0.0)",0.3597856734528228,-1.1879882394210461,15.679686384561233,"(0.0, 0.0, 0.0, 0.0, 0.0, 0.0)",-2.712718226071338,0.30870370187508567,15.767901283350515,"(0.0, 0.0, 0.0, 0.0, 0.0, 0.0)",-0.35978834883250516,False,,,,,False,,,,
34,Close,,,"(1.2869376016944667e-07, 0.16999954011037416, 0.00038973303114976833)","(1.5704582297133343, 0.0001496263682483943, -9.931543136061158e-06)",,"[-0.026750000193715096, 0.05299999937415123, 0.03999999910593033]","[0.0, -0.0, 1.1879876003522736]","[-0.09353857487440109, 0.07989397644996643, 0.03999999910593033]","[0.0, -0.0, 0.8792752425767008]","[0.026750000193715096, 0.05299999937415123, 0.03999999910593033]","[0.0, 0.0, -1.1879882623869136]","[0.09353859722614288, 0.07989392429590225, 0.03999999910593033]","[0.0, 0.0, -0.8792844680170303]",1.1291887904356523,-14.1117010783017,"(0.0, 0.0, 0.0, 0.0, 0.0, 0.0)",2.44436472036771,-0.36784112005739866,-14.190903465136039,"(0.0, 0.0, 0.0, 0.0, 0.0, 0.0)",0.3258007578595482,-1.1291894154788755,14.111717746120975,"(0.0, 0.0, 0.0, 0.0, 0.0, 0.0)",-2.444369652349295,0.3678333316875771,14.191111154997946,"(0.0, 0.0, 0.0, 0.0, 0.0, 0.0)",-0.32580319741325486,False,,,,,False,,,,
35,Close,,,"(2.2147778895778094e-07, 0.169999403724105, 0.00043775502472391954)","(1.5705392813318275, 0.0001916771605813282, -8.19762937926826e-06)",,"[-0.026750000193715096, 0.05299999937415123, 0.03999999910593033]","[0.0, -0.0, 1.1291888000608494]","[-0.09184273332357407, 0.08377231657505035, 0.03999999910593033]","[0.0, -0.0, 0.7613476921786614]","[0.026750000193715096, 0.05299999937415123, 0.03999999910593033]","[0.0, 0.0, -1.1291894580384154]","[0.09184275567531586, 0.08377227932214737, 0.03999999910593033]","[0.0, 0.0, -0.7613561373098183]",1.0762699113920273,-12.700530970470014,"(0.0, 0.0, 0.0, 0.0, 0.0, 0.0)",2.202305891359772,-0.4210570080516588,-12.77181311862243,"(0.0, 0.0, 0.0, 0.0, 0.0, 0.0)",0.2948453788489373,-1.0762704739309281,12.700545971507374,"(0.0, 0.0, 0.0, 0.0, 0.0, 0.0)",-2.2023103576802145,0.4210499985188194,12.77200003949815,"(0.0, 0.0, 0.0, 0.0, 0.0, 0.0)",-0.2948476002056522,False,,,,,False,,,,
36,Close,,,"(2.1912693722736075e-07, 0.16999934361709654, 0.000481956449276018)","(1.5706184388641253, 0.00023565575873296478, -1.2845786801691941e-05)",,"[-0.026750000193715096, 0.05299999937415123, 0.03999999910593033]","[0.0, -0.0, 1.0762698553554748]","[-0.09012393653392792, 0.08717226982116699, 0.03999999910593033]","[0.0, -0.0, 0.6552128934948661]","[0.026750000193715096, 0.05299999937415123, 0.03999999910593033]","[0.0, 0.0, -1.0762704893583]","[0.09012395888566971, 0.08717223256826401, 0.03999999910593033]","[0.0, 0.0, -0.6552204147476549]",1.0286429202528247,-11.430477873408655,"(0.0, 0.0, 0.0, 0.0, 0.0, 0.0)",1.9840011930578276,-0.46895130724721834,-11.494631806934295,"(0.0, 0.0, 0.0, 0.0, 0.0, 0.0)",0.26667684533441977,-1.0286434265378352,11.430491374342276,"(0.0, 0.0, 0.0, 0.0, 0.0, 0.0)",-1.984005235051249,0.4689449986676629,11.494800035722442,"(0.0, 0.0, 0.0, 0.0, 0.0, 0.0)",-0.26667886541975433,False,,,,,False,,,,
37,Close,,,"(3.1131510586280866e-07, 0.1699992121070205, 0.0005226007520893923)","(1.5706964879884222, 0.0002806415891397876, -1.1307759452448239e-05)",,"[-0.026750000193715096, 0.05299999937415123, 0.03999999910593033]","[0.0, -0.0, 1.0286429345076582]","[-0.0884251669049263, 0.09015069156885147, 0.03999999910593033]","[0.0, -0.0, 0.5596916647508587]","[0.026750000193715096, 0.05299999937415123, 0.03999999910593033]","[0.0, 0.0, -1.0286435120859125]","[0.08842518925666809, 0.09015065431594849, 0.03999999910593033]","[0.0, 0.0, -0.5596984028120249]",0.9857786282275423,-10.287430086067793,"(0.0, 0.0, 0.0, 0.0, 0.0, 0.0)",1.787161045327472,-0.5120561765231523,-10.345168626224153,"(0.0, 0.0, 0.0, 0.0, 0.0, 0.0)",0.24107512437447856,-0.9857790838840517,10.28744223690805,"(0.0, 0.0, 0.0, 0.0, 0.0, 0.0)",-1.787164701188607,0.5120504988015524,10.345320032133483,"(0.0, 0.0, 0.0, 0.0, 0.0, 0.0)",-0.24107695935135354,False,,,,,False,,,,
38,Close,,,"(3.0991842655903425e-07, 0.169999153087261, 0.0005600347082356065)","(1.570772558536085, 0.00032764712563817383, -1.5390013302753274e-05)",,"[-0.026750000193715096, 0.05299999937415123, 0.03999999910593033]","[0.0, -0.0, 0.9857786218799983]","[-0.08677656948566437, 0.09275941550731659, 0.03999999910593033]","[0.0, -0.0, 0.4737224893055005]","[0.026750000193715096, 0.05299999937415123, 0.03999999910593033]","[0.0, 0.0, -0.9857791586690391]","[0.08677658438682556, 0.0927593931555748, 0.03999999910593033]","[0.0, 0.0, -0.47372859204714834]",0.9472007654041954,-9.258687077603232,"(0.0, 0.0, 0.0, 0.0, 0.0, 0.0)",1.6097085175776904,-0.550850558870837,-9.310651763444346,"(0.0, 0.0, 0.0, 0.0, 0.0, 0.0)",0.21783104241587867,-0.9472011754950539,9.258698013359455,"(0.0, 0.0, 0.0, 0.0, 0.0, 0.0)",-1.609711822487034,0.5508454489213972,9.310788028762744,"(0.0, 0.0, 0.0, 0.0, 0.0, 0.0)",-0.21783270758412676,False,,,,,False,,,,
39,Close,,,"(4.0106165104263135e-07, 0.169999026405202, 0.0005944331352702725)","(1.570848092729261, 0.0003750986118602944, -1.4060502423520339e-05)",,"[-0.026750000193715096, 0.05299999937415123, 0.03999999910593033]","[0.0, -0.0, 0.9472008140782049]","[-0.08519845455884933, 0.09504495561122894, 0.03999999910593033]","[0.0, -0.0, 0.39635019782230363]","[0.026750000193715096, 0.05299999937415123, 0.03999999910593033]","[0.0, 0.0, -0.9472011867132297]","[0.08519846946001053, 0.09504493325948715, 0.03999999910593033]","[0.0, 0.0, -0.3963557154153113]",0.9124806888632406,-8.332818369829143,"(0.0, 0.0, 0.0, 0.0, 0.0, 0.0)",1.4497611633824499,-0.5857655029837533,-8.379586587099913,"(0.0, 0.0, 0.0, 0.0, 0.0, 0.0)",0.19674731686213875,-0.9124810579450133,8.332828212009746,"(0.0, 0.0, 0.0, 0.0, 0.0, 0.0)",-1.4497641496546352,0.5857609040292575,8.379709225886469,"(0.0, 0.0, 0.0, 0.0, 0.0, 0.0)",-0.1967488266016999,False,,,,,False,,,,
40,Close,,,"(3.70657372146465e-07, 0.16999903038777142, 0.0006260749884053443)","(1.5708440552876382, 0.00034508120830118214, -1.4055585689260766e-05)",,"[-0.026750000193715096, 0.05299999937415123, 0.03999999910593033]","[0.0, -0.0, 0.9124807402838544]","[-0.08370371162891388, 0.09704854339361191, 0.03999999910593033]","[0.0, -0.0, 0.32671521193417863]","[0.026750000193715096, 0.05299999937415123, 0.03999999910593033]","[0.0, 0.0, -0.9124811663733811]","[0.08370373398065567, 0.09704852104187012, 0.03999999910593033]","[0.0, 0.0, -0.32672018954414506]",0.8812326199769166,-7.499536532717775,"(0.0, 0.0, 0.0, 0.0, 0.0, 0.0)",1.3056085801322186,-0.6171891619197363,-7.541678144635914,"(0.0, 0.0, 0.0, 0.0, 0.0, 0.0)",0.17763358199117588,-0.881232952150512,7.499545390680321,"(0.0, 0.0, 0.0, 0.0, 0.0, 0.0)",-1.305611277336412,0.617185022862301,7.541788519930457,"(0.0, 0.0, 0.0, 0.0, 0.0, 0.0)",-0.17763494969582577,False,,,,,False,,,,
41,Close,,,"(3.427044292909036e-07, 0.1699990340506735, 0.0006551854712062516)","(1.5708403346470328, 0.0003174583455114455, -1.4051356821419932e-05)",,"[-0.026750000193715096, 0.05299999937415123, 0.03999999910593033]","[0.0, -0.0, 0.8812326035131218]","[-0.08229970186948776, 0.09880644828081131, 0.03999999910593033]","[0.0, -0.0, 0.26404346611112495]","[0.026750000193715096, 0.05299999937415123, 0.03999999910593033]","[0.0, 0.0, -0.8812328730718287]","[0.08229971677064896, 0.09880642592906952, 0.03999999910593033]","[0.0, 0.0, -0.2640479150919315]",0.8531093579792249,-6.749582879446001,"(0.0, 0.0, 0.0, 0.0, 0.0, 0.0)",1.1757252455852583,-0.6454704345862542,-6.78750543996429,"(0.0, 0.0, 0.0, 0.0, 0.0, 0.0)",0.16033509317806058,-0.8531096569354608,6.7495908516122896,"(0.0, 0.0, 0.0, 0.0, 0.0, 0.0)",-1.1757276808922346,0.645466709436021,6.787604777692787,"(0.0, 0.0, 0.0, 0.0, 0.0, 0.0)",-0.16033633143309114,False,,,,,False,,,,
42,Close,,,"(3.170084497545684e-07, 0.16999903740907119, 0.0006819671107693073)","(1.570836911771951, 0.00029204530032808255, -1.4047683015968837e-05)",,"[-0.026750000193715096, 0.05299999937415123, 0.03999999910593033]","[0.0, -0.0, 0.8531093567174074]","[-0.08098968118429184, 0.10035036504268646, 0.03999999910593033]","[0.0, -0.0, 0.2076389231904772]","[0.026750000193715096, 0.05299999937415123, 0.03999999910593033]","[0.0, 0.0, -0.8531096230941355]","[0.08098969608545303, 0.10035035014152527, 0.03999999910593033]","[0.0, 0.0, -0.2076429742570099]",0.8277984221813024,-6.0746245915014,"(0.0, 0.0, 0.0, 0.0, 0.0, 0.0)",1.0586966037970245,-0.6709235615380169,-6.1087504684230565,"(0.0, 0.0, 0.0, 0.0, 0.0, 0.0)",0.14467321668423558,-0.8277986912419147,6.074631766451059,"(0.0, 0.0, 0.0, 0.0, 0.0, 0.0)",-1.0586988018726124,0.6709202089041267,6.108839872345364,"(0.0, 0.0, 0.0, 0.0, 0.0, 0.0)",-0.14467433700617466,False,,,,,False,,,,
43,Close,,,"(2.93385406087929e-07, 0.16999904048782613, 0.0007066062149797113)","(1.5708337628331848, 0.0002686652895538331, -1.4044478861914954e-05)",,"[-0.026750000193715096, 0.05299999937415123, 0.03999999910593033]","[0.0, -0.0, 0.8277984323872327]","[-0.07977395504713058, 0.10170790553092957, 0.03999999910593033]","[0.0, -0.0, 0.15687485461046338]","[0.026750000193715096, 0.05299999937415123, 0.03999999910593033]","[0.0, 0.0, -0.8277987052452376]","[0.07977396249771118, 0.10170789808034897, 0.03999999910593033]","[0.0, 0.0, -0.15687847762667875]",0.8050185799631722,-5.467162132351259,"(0.0, 0.0, 0.0, 0.0, 0.0, 0.0)",0.9532674830029981,-0.6938313591081322,-5.497871416827678,"(0.0, 0.0, 0.0, 0.0, 0.0, 0.0)",0.1305069121449798,-0.8050188221177232,5.467168589805953,"(0.0, 0.0, 0.0, 0.0, 0.0, 0.0)",-0.9532694663734236,0.6938283417388244,5.49795188032743,"(0.0, 0.0, 0.0, 0.0, 0.0, 0.0)",-0.13050792520753388,False,,,,,False,,,,
44,Close,,,"(2.716665250887489e-07, 0.16999904330973556, 0.0007292741870466809)","(1.5708308659078907, 0.0002471556717650467, -1.4041672069322908e-05)",,"[-0.026750000193715096, 0.05299999937415123, 0.03999999910593033]","[0.0, -0.0, 0.8050185839979388]","[-0.07865073531866074, 0.10290304571390152, 0.03999999910593033]","[0.0, -0.0, 0.11118723016400785]","[0.026750000193715096, 0.05299999937415123, 0.03999999910593033]","[0.0, 0.0, -0.8050187952188965]","[0.07865074276924133, 0.10290303081274033, 0.03999999910593033]","[0.0, 0.0, -0.11119048022217565]",0.784516721966855,-4.920445919116134,"(0.0, 0.0, 0.0, 0.0, 0.0, 0.0)",0.8582975670224743,-0.7144483618360385,-4.948080654697517,"(0.0, 0.0, 0.0, 0.0, 0.0, 0.0)",0.11770004006048959,-0.784516939905951,4.92045173082536,"(0.0, 0.0, 0.0, 0.0, 0.0, 0.0)",-0.8582993561887614,0.7144456462047399,4.948153071819748,"(0.0, 0.0, 0.0, 0.0, 0.0, 0.0)",-0.11770095568272418,False,,,,,False,,,,
45,Close,,,"(2.51696986958339e-07, 0.1699990458957082, 0.0007501287178850499)","(1.5708282008276007, 0.000227366816649173, -1.4039201474218165e-05)",,"[-0.026750000193715096, 0.05299999937415123, 0.03999999910593033]","[0.0, -0.0, 0.7845167193080385]","[-0.07761679589748383, 0.10395654290914536, 0.03999999910593033]","[0.0, -0.0, 0.07006835685702544]","[0.026750000193715096, 0.05299999937415123, 0.03999999910593033]","[0.0, 0.0, -0.7845169946958266]","[0.07761680334806442, 0.10395653545856476, 0.03999999910593033]","[0.0, 0.0, -0.0700712989357174]",0.7660650497701694,-4.42840132720452,"(0.0, 0.0, 0.0, 0.0, 0.0, 0.0)",0.7727568402429666,-0.7330036506599046,-4.453269317727849,"(0.0, 0.0, 0.0, 0.0, 0.0, 0.0)",0.106127525293464,-0.7660652459153559,4.428406557742824,"(0.0, 0.0, 0.0, 0.0, 0.0, 0.0)",-0.7727584538402424,0.7330012065927102,4.453334493112861,"(0.0, 0.0, 0.0, 0.0, 0.0, 0.0)",-0.10612835248484857,False,,,,,False,,,,
46,Close,,,"(2.3333473952068603e-07, 0.16999904826492518, 0.0007693148831029557)","(1.5708257490378412, 0.00020916106414766092, -1.403701531280991e-05)",,"[-0.026750000193715096, 0.05299999937415123, 0.03999999910593033]","[0.0, -0.0, 0.7660649977175382]","[-0.07666795700788498, 0.10488639771938324, 0.03999999910593033]","[0.0, -0.0, 0.03306140223906952]","[0.026750000193715096, 0.05299999937415123, 0.03999999910593033]","[0.0, 0.0, -0.7660653079646047]","[0.07666796445846558, 0.10488638281822205, 0.03999999910593033]","[0.0, 0.0, -0.033064041138401834]",0.7494585447931524,-3.985561194484066,"(0.0, 0.0, 0.0, 0.0, 0.0, 0.0)",0.6957152666369016,-0.7497033982890566,-4.007939430996486,"(0.0, 0.0, 0.0, 0.0, 0.0, 0.0)",0.09567473522853766,-0.7494587213238203,3.985565901968542,"(0.0, 0.0, 0.0, 0.0, 0.0, 0.0)",-0.6957167215859875,0.7497011986294615,4.007998088820328,"(0.0, 0.0, 0.0, 0.0, 0.0, 0.0)",-0.09567548223716564,False,,,,,False,,,,
47,Close,,,"(2.1644941757498085e-07, 0.1699990504349868, 0.0007869661522299996)","(1.5708234934689855, 0.0001924117668631307, -1.4035069780186692e-05)",,"[-0.026750000193715096, 0.05299999937415123, 0.03999999910593033]","[0.0, -0.0, 0.7494586090384826]","[-0.07579945772886276, 0.10570816695690155, 0.03999999910593033]","[0.0, 0.0, -0.000244853492999894]","[0.026750000193715096, 0.05299999937415123, 0.03999999910593033]","[0.0, 0.0, -0.7494587081400255]","[0.07579946517944336, 0.10570815205574036, 0.03999999910593033]","[0.0, -0.0, 0.00024247731079752444]",0.7345126903138371,-3.587005075035659,"(0.0, 0.0, 0.0, 0.0, 0.0, 0.0)",0.626333365984163,-0.764733160038395,-3.6071428198412123,"(0.0, 0.0, 0.0, 0.0, 0.0, 0.0)",0.08623682787405348,-0.7345128491914382,3.587009311771688,"(0.0, 0.0, 0.0, 0.0, 0.0, 0.0)",-0.6263346776346612,0.7647311803455538,3.607195611862134,"(0.0, 0.0, 0.0, 0.0, 0.0, 0.0)",-0.08623750223625977,False,,,,,False,,,,
48,Close,,,"(1.9902478529523268e-07, 0.16999905216510106, 0.0008031506134026157)","(1.5708213694672628, 0.00017518801369688713, -1.4031269556480368e-05)",,"[-0.026750000193715096, 0.05299999937415123, 0.03999999910593033]","[0.0, -0.0, 0.7345126628086843]","[-0.07500623911619186, 0.10643533617258072, 0.03999999910593033]","[0.0, 0.0, -0.03022046980229406]","[0.026750000193715096, 0.05299999937415123, 0.03999999910593033]","[0.0, 0.0, -0.7345128981556924]","[0.07500624656677246, 0.10643532872200012, 0.03999999910593033]","[0.0, -0.0, 0.03021832986745902]",0.7210614212824534,-3.228304567532092,"(0.0, 0.0, 0.0, 0.0, 0.0, 0.0)",0.5638237707840803,-0.7782610712626786,-3.246698693828069,"(0.0, 0.0, 0.0, 0.0, 0.0, 0.0)",0.07768823801248652,-0.7210615642722944,3.2283083805945183,"(0.0, 0.0, 0.0, 0.0, 0.0, 0.0)",-0.5638249528147553,0.7782592895487316,3.2467462087626835,"(0.0, 0.0, 0.0, 0.0, 0.0, 0.0)",-0.07768884636877696,False,,,,,False,,,,
49,Close,,,"(1.829952775457341e-07, 0.16999905372445717, 0.0008180403399689366)","(1.5708194143492393, 0.00015934185659229473, -1.4027683329641553e-05)",,"[-0.026750000193715096, 0.05299999937415123, 0.03999999910593033]","[0.0, -0.0, 0.7210614193238458]","[-0.07428312301635742, 0.10707958787679672, 0.03999999910593033]","[0.0, 0.0, -0.05719964992344959]","[0.026750000193715096, 0.05299999937415123, 0.03999999910593033]","[0.0, 0.0, -0.7210615729227128]","[0.07428313046693802, 0.10707958042621613, 0.03999999910593033]","[0.0, -0.0, 0.05719773186848648]",0.7089552791542081,-2.905474110778883,"(0.0, 0.0, 0.0, 0.0, 0.0, 0.0)",0.5075985242705942,-0.7904360705014085,-2.921999817295172,"(0.0, 0.0, 0.0, 0.0, 0.0, 0.0)",0.07003713951344083,-0.7089554078450649,2.905477542535066,"(0.0, 0.0, 0.0, 0.0, 0.0, 0.0)",-0.5075995897946305,0.7904344669675306,2.9220425805117625,"(0.0, 0.0, 0.0, 0.0, 0.0, 0.0)",-0.07003768863744474,False,,,,,False,,,,
50,Close,,,"(1.682467379846132e-07, 0.1699990551245469, 0.0008317388481303276)","(1.570817615731277, 0.00014476218910829968, -1.4024269510216624e-05)",,"[-0.026750000193715096, 0.05299999937415123, 0.03999999910593033]","[0.0, -0.0, 0.7089552779168017]","[-0.07362496107816696, 0.10765105485916138, 0.03999999910593033]","[0.0, 0.0, -0.08148078223376223]","[0.026750000193715096, 0.05299999937415123, 0.03999999910593033]","[0.0, 0.0, -0.7089554724698194]","[0.07362496852874756, 0.10765104740858078, 0.03999999910593033]","[0.0, -0.0, 0.0814790502780401]",0.6980597512387873,-2.6149266997009946,"(0.0, 0.0, 0.0, 0.0, 0.0, 0.0)",0.45693917814201784,-0.8013934602632394,-2.6297735428394082,"(0.0, 0.0, 0.0, 0.0, 0.0, 0.0)",0.06310201359777694,-0.6980598670605584,2.614929788281559,"(0.0, 0.0, 0.0, 0.0, 0.0, 0.0)",-0.45694013827892466,0.8013920170905735,2.6298120295302843,"(0.0, 0.0, 0.0, 0.0, 0.0, 0.0)",-0.06310250889925509,False,,,,,False,,,,
51,Close,,,"(1.546756367802499e-07, 0.16999905637827734, 0.0008443414385910609)","(1.5708159610857961, 0.00013134778772512943, -1.402100024143693e-05)",,"[-0.026750000193715096, 0.05299999937415123, 0.03999999910593033]","[0.0, -0.0, 0.6980597686270504]","[-0.07302673906087875, 0.10815852880477905, 0.03999999910593033]","[0.0, 0.0, -0.10333370902653251]","[0.026750000193715096, 0.05299999937415123, 0.03999999910593033]","[0.0, 0.0, -0.6980598246378259]","[0.07302674651145935, 0.10815852135419846, 0.03999999910593033]","[0.0, -0.0, 0.10333215264877679]",0.6882537761149086,-2.3534340297308955,"(0.0, 0.0, 0.0, 0.0, 0.0, 0.0)",0.41132662822933225,-0.8112550122446371,-2.3667724755354502,"(0.0, 0.0, 0.0, 0.0, 0.0, 0.0)",0.056847326346645,-0.6882538803545026,2.353436809453404,"(0.0, 0.0, 0.0, 0.0, 0.0, 0.0)",-0.4113274932960819,0.8112537133962935,2.3668071133728046,"(0.0, 0.0, 0.0, 0.0, 0.0, 0.0)",-0.0568477730004364,False,,,,,False,,,,
52,Close,,,"(1.4218689550358636e-07, 0.1699990574974972, 0.0008559357877458743)","(1.5708144388885392, 0.00011900551991941484, -1.4017852050493115e-05)",,"[-0.026750000193715096, 0.05299999937415123, 0.03999999910593033]","[0.0, -0.0, 0.6882538042795985]","[-0.07248363643884659, 0.10860966145992279, 0.03999999910593033]","[0.0, 0.0, -0.12300123728040792]","[0.026750000193715096, 0.05299999937415123, 0.03999999910593033]","[0.0, 0.0, -0.688253900607872]","[0.07248364388942719, 0.1086096540093422, 0.03999999910593033]","[0.0, -0.0, 0.12299984676553348]",0.6794283985034177,-2.118090626757806,"(0.0, 0.0, 0.0, 0.0, 0.0, 0.0)",0.3702598465395096,-0.8201303199370257,-2.1300738461732434,"(0.0, 0.0, 0.0, 0.0, 0.0, 0.0)",0.051207533272865695,-0.6794284923190523,2.1180931285080637,"(0.0, 0.0, 0.0, 0.0, 0.0, 0.0)",-0.37026062586363284,0.8201291509798778,2.130105020060234,"(0.0, 0.0, 0.0, 0.0, 0.0, 0.0)",-0.051207935975855504,False,,,,,False,,,,
53,Close,,,"(1.3069318416839e-07, 0.16999905849308636, 0.0008666025576372722)","(1.5708130385376784, 0.00010764969663878531, -1.401480516953977e-05)",,"[-0.026750000193715096, 0.05299999937415123, 0.03999999910593033]","[0.0, -0.0, 0.6794284238724229]","[-0.07199108600616455, 0.10901110619306564, 0.03999999910593033]","[0.0, 0.0, -0.14070193198542613]","[0.026750000193715096, 0.05299999937415123, 0.03999999910593033]","[0.0, 0.0, -0.6794284800706577]","[0.07199109345674515, 0.10901109874248505, 0.03999999910593033]","[0.0, -0.0, 0.1407006814892172]",0.6714855586530759,-1.9062815640820263,"(0.0, 0.0, 0.0, 0.0, 0.0, 0.0)",0.33328720146674756,-0.82811801654313,-1.9170471854650495,"(0.0, 0.0, 0.0, 0.0, 0.0, 0.0)",0.0461231568532664,-0.6714856430871471,1.9062838156572566,"(0.0, 0.0, 0.0, 0.0, 0.0, 0.0)",-0.33328790347714454,0.8281169644874314,1.917075241812861,"(0.0, 0.0, 0.0, 0.0, 0.0, 0.0)",-0.04612351986457081,False,,,,,False,,,,
54,Close,,,"(1.201142787701026e-07, 0.1699990593750365, 0.0008764159571233717)","(1.5708117502799854, 9.720147739875066e-05, -1.4011842957469135e-05)",,"[-0.026750000193715096, 0.05299999937415123, 0.03999999910593033]","[0.0, -0.0, 0.6714856028191667]","[-0.07154478132724762, 0.10936867445707321, 0.03999999910593033]","[0.0, 0.0, -0.1566324602805662]","[0.026750000193715096, 0.05299999937415123, 0.03999999910593033]","[0.0, 0.0, -0.6714856028191667]","[0.07154478132724762, 0.10936867445707321, 0.03999999910593033]","[0.0, -0.0, 0.15663130155257995]",0.6643370027877683,-1.7156534076738226,"(0.0, 0.0, 0.0, 0.0, 0.0, 0.0)",0.30000166468946887,-0.8353068710937589,-1.7253250921509458,"(0.0, 0.0, 0.0, 0.0, 0.0, 0.0)",0.041540284771796165,-0.6643370787784324,1.7156554340915304,"(0.0, 0.0, 0.0, 0.0, 0.0, 0.0)",-0.3000022969997827,0.8353059242487986,1.725350342728124,"(0.0, 0.0, 0.0, 0.0, 0.0, 0.0)",-0.041540611950472935,False,,,,,False,,,,
55,Close,,,"(1.1037647424359984e-07, 0.16999906015252483, 0.0008854442581506275)","(1.5708105651429114, 8.758832292823178e-05, -1.4008951415989527e-05)",,"[-0.026750000193715096, 0.05299999937415123, 0.03999999910593033]","[0.0, -0.0, 0.6643370606126838]","[-0.07114068418741226, 0.1096874549984932, 0.03999999910593033]","[0.0, 0.0, -0.17096987637179278]","[0.026750000193715096, 0.05299999937415123, 0.03999999910593033]","[0.0, 0.0, -0.6643370606126838]","[0.07114069163799286, 0.1096874475479126, 0.03999999910593033]","[0.0, -0.0, 0.17096884643662202]",0.6579033025089914,-1.5440880669064398,"(0.0, 0.0, 0.0, 0.0, 0.0, 0.0)",0.2700364572532802,-0.8417767749452665,-1.5527769243618206,"(0.0, 0.0, 0.0, 0.0, 0.0, 0.0)",0.03741008611729049,-0.6579033709005891,1.5440898906823783,"(0.0, 0.0, 0.0, 0.0, 0.0, 0.0)",-0.27003702673818186,0.8417759227894597,1.5527996497586782,"(0.0, 0.0, 0.0, 0.0, 0.0, 0.0)",-0.03741038095743008,False,,,,,False,,,,
56,Close,,,"(1.0141204673652616e-07, 0.16999906083398159, 0.0008937502707232629)","(1.570809474872104, 7.87434915574051e-05, -1.4006118772737545e-05)",,"[-0.026750000193715096, 0.05299999937415123, 0.03999999910593033]","[0.0, -0.0, 0.6579033304946226]","[-0.07077505439519882, 0.10997187346220016, 0.03999999910593033]","[0.0, 0.0, -0.18387348897538708]","[0.026750000193715096, 0.05299999937415123, 0.03999999910593033]","[0.0, 0.0, -0.6579033304946226]","[0.07077506184577942, 0.10997187346220016, 0.03999999910593033]","[0.0, -0.0, 0.1838725619548152]",0.6521129722580923,-1.3896792602157946,"(0.0, 0.0, 0.0, 0.0, 0.0, 0.0)",0.24306111081870946,-0.8475996296201711,-1.3974851219770965,"(0.0, 0.0, 0.0, 0.0, 0.0, 0.0)",0.033688362136148925,-0.6521130338105302,1.38968090161414,"(0.0, 0.0, 0.0, 0.0, 0.0, 0.0)",-0.24306162368353448,0.8475988626841415,1.3975055747236533,"(0.0, 0.0, 0.0, 0.0, 0.0, 0.0)",-0.03368862779939208,False,,,,,False,,,,
57,Close,,,"(9.31587620256511e-08, 0.16999906142715163, 0.0009013917798737923)","(1.570808471873919, 7.060557585400826e-05, -1.4003335136779464e-05)",,"[-0.026750000193715096, 0.05299999937415123, 0.03999999910593033]","[0.0, -0.0, 0.6521129301518677]","[-0.07044443488121033, 0.11022583395242691, 0.03999999910593033]","[0.0, 0.0, -0.19548665573955404]","[0.026750000193715096, 0.05299999937415123, 0.03999999910593033]","[0.0, 0.0, -0.6521129866161153]","[0.07044444233179092, 0.11022583395242691, 0.03999999910593033]","[0.0, -0.0, 0.19548582525750646]",0.646901675032283,-1.2507113341942153,"(0.0, 0.0, 0.0, 0.0, 0.0, 0.0)",0.2187779064062842,-0.8528401458571484,-1.2577238968745574,"(0.0, 0.0, 0.0, 0.0, 0.0, 0.0)",0.03033513071724496,-0.6469017304294772,1.2507128114527255,"(0.0, 0.0, 0.0, 0.0, 0.0, 0.0)",-0.2187783682505172,0.8528394556185027,1.2577423042466835,"(0.0, 0.0, 0.0, 0.0, 0.0, 0.0)",-0.03033537006280305,False,,,,,False,,,,
58,Close,,,"(8.555942447331213e-08, 0.16999906193915107, 0.000908421947674647)","(1.5708075491625393, 6.311807629477444e-05, -1.4000592203169427e-05)",,"[-0.026750000193715096, 0.05299999937415123, 0.03999999910593033]","[0.0, -0.0, 0.6469017074975589]","[-0.0701456218957901, 0.11045276373624802, 0.03999999910593033]","[0.0, 0.0, -0.20593848593871938]","[0.026750000193715096, 0.05299999937415123, 0.03999999910593033]","[0.0, 0.0, -0.6469017640113621]","[0.0701456293463707, 0.11045276373624802, 0.03999999910593033]","[0.0, -0.0, 0.2059377054983325]",0.6422115075290548,-1.1256402007747932,"(0.0, 0.0, 0.0, 0.0, 0.0, 0.0)",0.19691865600140895,-0.8575565627499749,-1.1319400542783593,"(0.0, 0.0, 0.0, 0.0, 0.0, 0.0)",0.027314243362735774,-0.6422115573865295,1.1256415303074527,"(0.0, 0.0, 0.0, 0.0, 0.0, 0.0)",-0.19691907187647334,0.8575559415385998,1.1319566208232932,"(0.0, 0.0, 0.0, 0.0, 0.0, 0.0)",-0.027314458975022625,False,,,,,False,,,,
59,Move,,,"(7.856146500561274e-08, 0.16999906237651882, 0.0009148896830877347)","(1.5708067003113224, 5.6229009009845055e-05, -1.399788300299107e-05)","[0.0, 0.0, 0.0]","[-0.026750000193715096, 0.05299999937415123, 0.03999999910593033]","[0.0, -0.0, 0.6422115222668433]","[-0.06987567991018295, 0.11065566539764404, 0.03999999910593033]","[0.0, 0.0, -0.21534502689171695]","[0.026750000193715096, 0.05299999937415123, 0.03999999910593033]","[0.0, 0.0, -0.6422115222668433]","[0.06987568736076355, 0.11065565794706345, 0.03999999910593033]","[0.0, -0.0, 0.2153443918565048]",0.6379903567761492,-1.0130761806973148,"(0.0, 0.0, 0.0, 0.0, 0.0, 0.0)",0.17724179525373857,-0.861801294967015,-1.0187357320896053,"(0.0, 0.0, 0.0, 0.0, 0.0, 0.0)",0.024593033118920006,-0.6379904016478766,1.0130773772767077,"(0.0, 0.0, 0.0, 0.0, 0.0, 0.0)",-0.1772421697155535,0.8618007358798453,1.0187506418989196,"(0.0, 0.0, 0.0, 0.0, 0.0, 0.0)",-0.024593227332916724,False,,,,,False,,,,
60,Move,,,"(7.401516452493873e-08, 0.16999906300717518, 0.0009208949427311885)","(1.5708059692049072, 5.171406878091127e-05, -1.3997173418156156e-05)","[-4.546300480674002e-09, 6.306563604674409e-10, 6.005259643453772e-06]","[-0.026750000193715096, 0.05299999937415123, 0.03999999910593033]","[0.0, -0.0, 0.6379903239810443]","[-0.06963192671537399, 0.1108371913433075, 0.03999999910593033]","[0.0, 0.0, -0.2238109552587812]","[0.026750000193715096, 0.05299999937415123, 0.03999999910593033]","[0.0, 0.0, -0.6379904179642307]","[0.06963192671537399, 0.1108371838927269, 0.03999999910593033]","[0.0, -0.0, 0.22381033482023305]",0.615110639462399,-5.491132155300077,"(0.0, 0.0, 0.0, 0.0, 0.0, 0.0)",-6.452665348763696,-0.8613763884842398,0.10197755586604229,"(0.0, 0.0, 0.0, 0.0, 0.0, 0.0)",-0.36782542138199165,-0.6151107211023208,5.491123330933392,"(0.0, 0.0, 0.0, 0.0, 0.0, 0.0)",6.4526488408560905,0.8613758231880564,-0.10197904602934349,"(0.0, 0.0, 0.0, 0.0, 0.0, 0.0)",0.36782252911949487,False,,,,,False,,,,
61,Move,,,"(6.525734425186348e-05, 0.17034549853437667, 0.001059997142676121)","(1.5643418998519334, 0.00019756355969089426, -0.0007979474479338168)","[6.517878278685787e-05, 0.00034643615785784343, 0.00014510745958838623]","[-0.026750000193715096, 0.05299999937415123, 0.03999999910593033]","[0.0, -0.0, 0.6151107619663475]","[-0.06829752027988434, 0.1118030920624733, 0.03999999910593033]","[0.0, 0.0, -0.24626574387408112]","[0.026750000193715096, 0.05299999937415123, 0.03999999910593033]","[0.0, 0.0, -0.6151107619663475]","[0.06829752773046494, 0.1118030920624733, 0.03999999910593033]","[0.0, -0.0, 0.24626510812228053]",0.59557520589455,-4.68850405628373,"(0.0, 0.0, 0.0, 0.0, 0.0, 0.0)",-45.004877301260535,-0.841587039207075,4.749443826519566,"(0.0, 0.0, 0.0, 0.0, 0.0, 0.0)",-23.059879711313982,-0.5955448471476087,4.6958097491309045,"(0.0, 0.0, 0.0, 0.0, 0.0, 0.0)",43.2331221848827,0.8422035798107438,-4.601338410555013,"(0.0, 0.0, 0.0, 0.0, 0.0, 0.0)",22.069611273367745,True,"(-0.03288698015965098, 0.18306432161630465, 0.039999948285931244)","(0.9999999985648672, -1.399717339714095e-05, -5.171406875791205e-05)",0.0009292587523792685,356.63318049990795,True,"(0.032887031061809374, 0.18306436848012048, 0.04000005171406876)","(-0.9999999985648671, 1.3997173395198976e-05, 5.171406875668148e-05)",0.0009247539911204204,342.7710504396539
62,Move,"(0.0, 0.0, 0.0)","(0.0, -0.0, 0.0)","(0.00016176697229314485, 0.17076934431250207, 0.001298992481510786)","(1.553459115144406, 0.0004787126916021603, -0.0016283617000435679)","[0.00016168841082813925, 0.0007702819359832469, 0.0003841027984230513]","[-0.026750000193715096, 0.05299999937415123, 0.03999999910593033]","[0.0, -0.0, 0.5955751094143519]","[-0.06714092195034027, 0.11260347068309784, 0.03999999910593033]","[0.0, 0.0, -0.24601185159459507]","[0.026750000193715096, 0.05299999937415123, 0.03999999910593033]","[0.0, 0.0, -0.5955448282145998]","[0.06713911145925522, 0.11260469257831573, 0.03999999910593033]","[0.0, -0.0, 0.24665872904210193]",0.5770970782178444,-4.434750642409365,"(0.0, 0.0, 0.0, 0.0, 0.0, 0.0)",-74.21698749878065,-0.811850997818181,7.136649933334551,"(0.0, 0.0, 0.0, 0.0, 0.0, 0.0)",-37.92588619525253,-0.5770027641966642,4.450099908226674,"(0.0, 0.0, 0.0, 0.0, 0.0, 0.0)",71.59541053355323,0.8135423707664626,-6.878690170627483,"(0.0, 0.0, 0.0, 0.0, 0.0, 0.0)",36.485404729774935,True,"(-0.03174847742362094, 0.1838726496858637, 0.03999980243644159)","(0.9999996621242782, -0.0007979473476813144, -0.0001975635584110712)",-0.00012778812911608492,569.3446982775357,True,"(0.031700570614753176, 0.18385320841010633, 0.0400001975635584)","(-0.9999996621242783, 0.0007979473476767542, 0.0001975635584049517)",-0.0003431682129125587,549.2893233704585
63,Move,"(0.0010126582278481, 0.0, 0.0)","(0.0, -0.0, 0.0)","(0.00020568050408397375, 0.17108007690663649, 0.0015665957858292871)","(1.5453980212159237, 0.00011151380297923225, -0.0017071234802152205)","[0.00020560194261896815, 0.0010810145301176632, 0.0006517061027415524]","[-0.026750000193715096, 0.05299999937415123, 0.03999999910593033]","[0.0, -0.0, 0.5770971029289548]","[-0.06603273004293442, 0.11333960294723511, 0.03999999910593033]","[0.0, 0.0, -0.23475391897699402]","[0.026750000193715096, 0.05299999937415123, 0.03999999910593033]","[0.0, 0.0, -0.5770027543990871]","[0.06602703779935837, 0.11334330588579178, 0.03999999910593033]","[0.0, -0.0, 0.23653961426052006]",0.579404895675538,0.5538761898464655,"(0.0, 0.0, 0.0, 0.0, 0.0, 0.0)",6.4633983195225495,-0.8148246019570704,-0.7136649933334551,"(0.0, 0.0, 0.0, 0.0, 0.0, 0.0)",-0.3132438216507522,-0.5792909153140746,-0.5491562681785016,"(0.0, 0.0, 0.0, 0.0, 0.0, 0.0)",-6.16852739973914,0.8163981315451861,0.6853825868936365,"(0.0, 0.0, 0.0, 0.0, 0.0, 0.0)",0.4843271556067679,True,"(-0.03144479909141533, 0.18499061278782541, 0.039999521287326686)","(0.9999985596366134, -0.0016283607938474471, -0.0004787126733201028)",-0.00031179486038545077,0.0,True,"(0.0313112124765586, 0.1849374824167095, 0.040000478712673315)","(-0.9999985596366132, 0.0016283607938671909, 0.0004787126733090728)",-0.0008521962835819142,2.606367117194445
64,Move,"(0.0020253164556962, 0.0, 0.0)","(0.0, -0.0, 0.0)","(0.0002452926505476355, 0.1713294461151785, 0.001783452203652928)","(1.5389273246387771, -0.0002498851913842659, -0.0016140612619447222)","[0.0002452140890826299, 0.0013303837386596795, 0.0008685625205651932]","[-0.026750000193715096, 0.05299999937415123, 0.03999999910593033]","[0.0, -0.0, 0.579404963823502]","[-0.06617187708616257, 0.1132487803697586, 0.03999999910593033]","[0.0, 0.0, -0.23541970778940716]","[0.026750000193715096, 0.05299999937415123, 0.03999999910593033]","[0.0, 0.0, -0.5792908612503161]","[0.0661650076508522, 0.11325327306985855, 0.03999999910593033]","[0.0, -0.0, 0.23710723316040327]",0.5795315653311397,0.030400717344401862,"(0.0, 0.0, 0.0, 0.0, 0.0, 0.0)",-0.6824948776018328,-0.8145272415431819,0.07136649933324068,"(0.0, 0.0, 0.0, 0.0, 0.0, 0.0)",0.02864354152043187,-0.5797920123488893,-0.12026328835552835,"(0.0, 0.0, 0.0, 0.0, 0.0, 0.0)",0.5470462117793132,0.8161131915985391,-0.06838558719529086,"(0.0, 0.0, 0.0, 0.0, 0.0, 0.0)",-0.03557913181156769,True,"(-0.03153624923514486, 0.18487733778001617, 0.039999888486197246)","(0.9999985366474105, -0.001707122640433851, -0.00011151380275540046)",-0.00019027644015300206,0.0,True,"(0.031408552968427136, 0.18482838253269274, 0.04000011151380275)","(-0.9999985366474103, 0.0017071226404405677, 0.0001115138027507468)",-0.000784928296535469,0.0
65,Move,"(0.0030379746835443, 0.0, 0.0)","(0.0, -0.0, 0.0)","(0.0002820251769801652, 0.17150654885068087, 0.0019454172968902351)","(1.5341885032058822, -0.00022648058373489615, -0.000841919628879083)","[0.0002819466155151596, 0.0015074864741620453, 0.0010305276138025004]","[-0.026750000193715096, 0.05299999937415123, 0.03999999910593033]","[0.0, -0.0, 0.5795315912820891]","[-0.06617950648069382, 0.11324378848075867, 0.03999999910593033]","[0.0, 0.0, -0.2349956778820614]","[0.026750000193715096, 0.05299999937415123, 0.03999999910593033]","[0.0, 0.0, -0.5797920060920873]","[0.06619519740343094, 0.11323351413011551, 0.03999999910593033]","[0.0, -0.0, 0.23632117511324977]",0.5793659344317164,-0.039751415861591984,"(0.0, 0.0, 0.0, 0.0, 0.0, 0.0)",-0.2956920908349332,-0.814460528511022,0.016011127718377392,"(0.0, 0.0, 0.0, 0.0, 0.0, 0.0)",-0.12392001551636295,-0.5803876252019696,-0.14294708473926893,"(0.0, 0.0, 0.0, 0.0, 0.0, 0.0)",0.1579009113257341,0.8160453563409439,-0.016280461822867243,"(0.0, 0.0, 0.0, 0.0, 0.0, 0.0)",0.11331633936946826,True,"(-0.03157425689022619, 0.18488669288112047, 0.040000249885188785)","(0.9999986661821405, -0.0016140605107266568, 0.0002498851887825744)",-0.00012815968455466431,1.424071142256363,True,"(0.03149501038878767, 0.1848350428726801, 0.03999975011481122)","(-0.9999986661821404, 0.001614060510744856, -0.0002498851887840228)",-0.0007225722955543274,1.4159717264337706
66,Move,"(0.0040506329113924, 0.0, 0.0)","(0.0, -0.0, 0.0)","(0.0003285779797217587, 0.17161862558048707, 0.0020555722017784298)","(1.531088515355474, -0.00020513007151565983, -0.0003088781697821098)","[0.0003284994182567531, 0.0016195632039682495, 0.001140682518690695]","[-0.026750000193715096, 0.05299999937415123, 0.03999999910593033]","[0.0, -0.0, 0.5793659358748359]","[-0.06616953015327454, 0.11325031518936157, 0.03999999910593033]","[0.0, 0.0, -0.235094584590563]","[0.026750000193715096, 0.05299999937415123, 0.03999999910593033]","[0.0, 0.0, -0.5803876929269369]","[0.06623106449842453, 0.11321001499891281, 0.03999999910593033]","[0.0, -0.0, 0.23565772436682111]",0.5791204688302743,-0.05891174434608,"(0.0, 0.0, 0.0, 0.0, 0.0, 0.0)",-0.17221615566968573,-0.8144486541086553,0.002849856568015733,"(0.0, 0.0, 0.0, 0.0, 0.0, 0.0)",-0.08733005928647326,-0.5812842476831088,-0.2151893954734101,"(0.0, 0.0, 0.0, 0.0, 0.0, 0.0)",-0.10414686077474658,0.8160521398667034,0.0016280461822857362,"(0.0, 0.0, 0.0, 0.0, 0.0, 0.0)",-0.005954279385022698,True,"(-0.03155719040431336, 0.1848906704301752, 0.040000226480581796)","(0.9999996199389719, -0.000841919507826513, 0.00022648058179409493)",-0.00011814603060356309,1.0877218521550145,True,"(0.031578388532716675, 0.18483310854919643, 0.039999773519418205)","(-0.9999996199389721, 0.0008419195078228875, -0.00022648058179254948)",-0.0006662490454174078,0.0
67,Move,"(0.0050632911392405, 0.0, 0.0)","(0.0, -0.0, 0.0)","(0.0003884762682438034, 0.17166836537679245, 0.0021123278362794526)","(1.5296891274592554, -0.0001736629736898994, 0.00017116682060689574)","[0.0003883977067787978, 0.0016693030002736253, 0.0011974381531917179]","[-0.026750000193715096, 0.05299999937415123, 0.03999999910593033]","[0.0, -0.0, 0.579120513119945]","[-0.06615474075078964, 0.11325999349355698, 0.03999999910593033]","[0.0, 0.0, -0.23532819371543623]","[0.026750000193715096, 0.05299999937415123, 0.03999999910593033]","[0.0, 0.0, -0.5812842374939128]","[0.06628503650426865, 0.11317458748817444, 0.03999999910593033]","[0.0, -0.0, 0.23476790590693838]",0.5787293114829202,-0.09387776336499676,"(0.0, 0.0, 0.0, 0.0, 0.0, 0.0)",-0.3783448772665095,-0.814384366288483,0.015429076841345032,"(0.0, 0.0, 0.0, 0.0, 0.0, 0.0)",-0.19206885236941623,-0.5824062534014403,-0.2692813723995542,"(0.0, 0.0, 0.0, 0.0, 0.0, 0.0)",-0.0796732845618982,0.8160514615141274,-0.00016280461822937298,"(0.0, 0.0, 0.0, 0.0, 0.0, 0.0)",-0.006125297912742647,True,"(-0.03152566568971166, 0.18489302429363758, 0.040000205130070084)","(0.9999999312579666, -0.00030887815838291156, 0.00020513007008072641)",-0.00010944112245647835,2.5006039537296587,True,"(0.03169610358161698, 0.18482706880288957, 0.03999979486992992)","(-0.9999999312579665, 0.0003088781583750927, -0.00020513007008289937)",-0.0005887720417156243,0.0
68,Move,"(0.0060759493670886, 0.0, 0.0)","(0.0, -0.0, 0.0)","(0.0004683067849508378, 0.17168766840687313, 0.0021174362383643303)","(1.5299277829892008, -0.0001410016136503361, 0.0006653240114570486)","[0.0004682282234858322, 0.0016886060303543116, 0.0012025465552765956]","[-0.026750000193715096, 0.05299999937415123, 0.03999999910593033]","[0.0, -0.0, 0.5787292801569337]","[-0.06613116711378098, 0.11327540129423141, 0.03999999910593033]","[0.0, 0.0, -0.23565504830993655]","[0.026750000193715096, 0.05299999937415123, 0.03999999910593033]","[0.0, 0.0, -0.5824063020972556]","[0.06635252386331558, 0.11313018947839737, 0.03999999910593033]","[0.0, -0.0, 0.23364522804332957]",0.5781771622525738,-0.13251581528313303,"(0.0, 0.0, 0.0, 0.0, 0.0, 0.0)",-0.6695633776659412,-0.8143119042200654,0.017390896420223102,"(0.0, 0.0, 0.0, 0.0, 0.0, 0.0)",-0.3245649865906385,-0.5837378800777843,-0.31959040232255737,"(0.0, 0.0, 0.0, 0.0, 0.0, 0.0)",-0.0739177605900354,0.8160515293493851,1.6280461824003112e-05,"(0.0, 0.0, 0.0, 0.0, 0.0, 0.0)",-0.005496726192114854,True,"(-0.03147867853873228, 0.18489791703542993, 0.040000173662972816)","(0.9999999702715459, 0.00017116681718767828, 0.0001736629728142257)",-0.00010168950535611704,4.6356964587433,True,"(0.03184405877824682, 0.18481985694960593, 0.03999982633702718)","(-0.9999999702715459, -0.00017116681719176672, -0.0001736629728213078)",-0.0004955868593275568,0.0
69,Move,"(0.0070886075949367, 0.0, 0.0)","(0.0, -0.0, 0.0)","(0.0005709977809693284, 0.17170454520087944, 0.0020788893638056666)","(1.5315533846768952, -0.00010962600285486543, 0.0008767836540872631)","[0.0005709192195043228, 0.0017054828243606157, 0.0011639996807179319]","[-0.026750000193715096, 0.05299999937415123, 0.03999999910593033]","[0.0, -0.0, 0.5781771524655008]","[-0.06609787791967392, 0.11329713463783264, 0.03999999910593033]","[0.0, 0.0, -0.23613476376389395]","[0.026750000193715096, 0.05299999937415123, 0.03999999910593033]","[0.0, 0.0, -0.583737981507682]","[0.06643256545066833, 0.11307740211486816, 0.03999999910593033]","[0.0, -0.0, 0.23231365455130448]",0.5774475246882588,-0.17511301543560093,"(0.0, 0.0, 0.0, 0.0, 0.0, 0.0)",-0.6630362482221555,-0.8142836579333771,0.006779108805198775,"(0.0, 0.0, 0.0, 0.0, 0.0, 0.0)",-0.30287848966992154,-0.5852614123283966,-0.3656477401469554,"(0.0, 0.0, 0.0, 0.0, 0.0, 0.0)",-0.0677105220454746,0.8160515225658593,-1.6280461831996718e-06,"(0.0, 0.0, 0.0, 0.0, 0.0, 0.0)",-0.005054089397120651,True,"(-0.031411039276367084, 0.18490399537803268, 0.04000014100161319)","(0.9999997687312627, 0.0006653239557503544, 0.00014100161318233867)",-9.479516158336601e-05,4.517189574301669,True,"(0.03201958372462311, 0.18481112864352017, 0.03999985899838681)","(-0.9999997687312627, -0.0006653239557494346, -0.000141001613188603)",-0.0003946567107341435,0.0
70,Move,"(0.00810126582278481, 0.0, 0.0)","(0.0, -0.0, 0.0)","(0.000695797007279306, 0.1717200971882482, 0.0019964409496592943)","(1.5345887748834148, -5.697544479619113e-05, 0.0010263911778985854)","[0.0006957184458143004, 0.0017210348117293883, 0.0010815512665715596]","[-0.026750000193715096, 0.05299999937415123, 0.03999999910593033]","[0.0, -0.0, 0.5774475627914548]","[-0.06605387479066849, 0.1133258268237114, 0.03999999910593033]","[0.0, 0.0, -0.23683612489799608]","[0.026750000193715096, 0.05299999937415123, 0.03999999910593033]","[0.0, 0.0, -0.5852613498447143]","[0.06652404367923737, 0.11301687359809875, 0.03999999910593033]","[0.0, -0.0, 0.23079011402742783]",0.5765369058835396,-0.2185485131326145,"(0.0, 0.0, 0.0, 0.0, 0.0, 0.0)",-0.656759998759674,-0.8142651052768958,0.004452637555526215,"(0.0, 0.0, 0.0, 0.0, 0.0, 0.0)",-0.3027828170459059,-0.5869615196612267,-0.40802575987921674,"(0.0, 0.0, 0.0, 0.0, 0.0, 0.0)",-0.06231902113292195,0.8160515232442119,1.6280461778706012e-07,"(0.0, 0.0, 0.0, 0.0, 0.0, 0.0)",-0.004650371875367514,True,"(-0.03131681824041322, 0.18490925520828094, 0.04000010962600264)","(0.9999996096163086, 0.0008767835364766736, 0.00010962600263516155)",-8.793044001245573e-05,4.471588965702415,True,"(0.03222039653580461, 0.18480121252342344, 0.039999890373997364)","(-0.9999996096163086, -0.0008767835364713722, -0.00010962600263271567)",-0.00029497271930677013,0.0
71,Move,"(0.00911392405063291, 0.0, 0.0)","(0.0, -0.0, 0.0)","(0.0008431920951277338, 0.17173518417073738, 0.0018705824967956953)","(1.5390424552129502, 3.608132312333201e-05, 0.0011703144750767837)","[0.0008431135336627282, 0.0017361217942185592, 0.0009556928137079606]","[-0.026750000193715096, 0.05299999937415123, 0.03999999910593033]","[0.0, -0.0, 0.5765369131761784]","[-0.06599891930818558, 0.11336159706115723, 0.03999999910593033]","[0.0, 0.0, -0.2377282286577319]","[0.026750000193715096, 0.05299999937415123, 0.03999999910593033]","[0.0, 0.0, -0.5869615189613758]","[0.06662602722644806, 0.11294917017221451, 0.03999999910593033]","[0.0, -0.0, 0.2290900512947762]",0.5754417296380197,-0.26284229892477673,"(0.0, 0.0, 0.0, 0.0, 0.0, 0.0)",-0.6636102333274789,-0.8142504571742962,0.0035155446238926127,"(0.0, 0.0, 0.0, 0.0, 0.0, 0.0)",-0.30621627442326627,-0.5888281148887871,-0.4479828546144899,"(0.0, 0.0, 0.0, 0.0, 0.0, 0.0)",-0.05877672861544001,0.8160515231763766,-1.6280462311613064e-08,"(0.0, 0.0, 0.0, 0.0, 0.0, 0.0)",-0.004386807823734772,True,"(-0.031198025318765046, 0.18491504648182833, 0.04000005697544478)","(0.9999994716375215, 0.001026390996009236, 5.697544477728634e-05)",-8.19021643090615e-05,4.515925630355667,True,"(0.03244446486471726, 0.18478987205279784, 0.039999943024555236)","(-0.9999994716375216, -0.0010263909960206894, -5.69754447669401e-05)",-0.0001957681404733431,0.0
72,Move,"(0.010126582278481011, 0.0, 0.0)","(0.0, -0.0, 0.0)","(0.0010133977835925846, 0.17175027510205684, 0.0017014778902601033)","(1.544917255886536, 0.00017798689750921895, 0.00133467188085111)","[0.0010133192221275789, 0.0017512127255380205, 0.0007865882071723686]","[-0.026750000193715096, 0.05299999937415123, 0.03999999910593033]","[0.0, -0.0, 0.5754417322022245]","[-0.06593278795480728, 0.1134045422077179, 0.03999999910593033]","[0.0, 0.0, -0.23880873731115038]","[0.026750000193715096, 0.05299999937415123, 0.03999999910593033]","[0.0, 0.0, -0.5888281802457215]","[0.06673785299062729, 0.11287463456392288, 0.03999999910593033]","[0.0, -0.0, 0.2272234457185139]",0.5741595762417184,-0.30771681511229354,"(0.0, 0.0, 0.0, 0.0, 0.0, 0.0)",-0.6668879190622166,-0.8142383335091388,0.00290967963778801,"(0.0, 0.0, 0.0, 0.0, 0.0, 0.0)",-0.3075261377781947,-0.5908496561911512,-0.4851699125673772,"(0.0, 0.0, 0.0, 0.0, 0.0, 0.0)",-0.05472108703790329,0.8160515231831602,1.6280470305218842e-09,"(0.0, 0.0, 0.0, 0.0, 0.0, 0.0)",-0.004084751703670766,True,"(-0.03105460070431123, 0.1849215741005194, 0.03999996391867689)","(0.9999993145311623, 0.0011703142071727863, -3.608132310748358e-05)",-7.628471522954007e-05,4.535064967634395,True,"(0.03269045348357247, 0.18477700269251254, 0.04000003608132312)","(-0.9999993145311624, -0.0011703142071590488, 3.6081323115573904e-05)",-9.887236627301238e-05,0.0
73,Move,"(0.01113924050632911, 0.0, 0.0)","(0.0, -0.0, 0.0)","(0.0012066134493127427, 0.17176574532612499, 0.0014893463896207997)","(1.5522149283824596, 0.0003747240721175449, 0.0015345859041596193)","[0.001206534887847737, 0.0017666829496061631, 0.000574456706533065]","[-0.026750000193715096, 0.05299999937415123, 0.03999999910593033]","[0.0, -0.0, 0.5741595281679354]","[-0.06585530936717987, 0.11345472931861877, 0.03999999910593033]","[0.0, 0.0, -0.24007875827481656]","[0.026750000193715096, 0.05299999937415123, 0.03999999910593033]","[0.0, 0.0, -0.5908495980571434]","[0.06685881316661835, 0.11279366910457611, 0.03999999910593033]","[0.0, -0.0, 0.22520188283250156]",0.5726881268153846,-0.3531478623201101,"(0.0, 0.0, 0.0, 0.0, 0.0, 0.0)",-0.6701882688710621,-0.814227940231578,0.0024943866145922225,"(0.0, 0.0, 0.0, 0.0, 0.0, 0.0)",-0.30865050552594436,-0.5930139737528343,-0.5194362148039451,"(0.0, 0.0, 0.0, 0.0, 0.0, 0.0)",-0.05044351992161743,0.8160515231824819,-1.6280576886629206e-10,"(0.0, 0.0, 0.0, 0.0, 0.0, 0.0)",-0.0037661703366877897,True,"(-0.030886320927293473, 0.184928843167665, 0.039999822013103425)","(0.9999990934859637, 0.001334671463455266, -0.00017798689657322908)",-7.108185074972461e-05,4.5544191042446425,True,"(0.03295683436064582, 0.18476253866842512, 0.04000017798689656)","(-0.9999990934859638, -0.0013346714634577892, 0.00017798689655941258)",-6.04113881699177e-06,0.0
74,Move,"(0.012151898734177212, 0.0, 0.0)","(0.0, -0.0, 0.0)","(0.001423037367488691, 0.17178196969013798, 0.001234373580638712)","(1.560936186805382, 0.0006316401100211525, 0.0017819986259421424)","[0.0014229588060236853, 0.0017829073136191587, 0.0003194838975509773]","[-0.026750000193715096, 0.05299999937415123, 0.03999999910593033]","[0.0, -0.0, 0.5726881544619514]","[-0.06576631218194962, 0.11351221054792404, 0.03999999910593033]","[0.0, 0.0, -0.24153981270376387]","[0.026750000193715096, 0.05299999937415123, 0.03999999910593033]","[0.0, 0.0, -0.5930139357270453]","[0.06698813289403915, 0.11270672082901001, 0.03999999910593033]","[0.0, -0.0, 0.22303756562091354]",0.5710250071027864,-0.3991487310235741,"(0.0, 0.0, 0.0, 0.0, 0.0, 0.0)",-0.6734223875213021,-0.8142187902686708,0.002195991097698113,"(0.0, 0.0, 0.0, 0.0, 0.0, 0.0)",-0.309618835291649,-0.5953084063759309,-0.5506638295431784,"(0.0, 0.0, 0.0, 0.0, 0.0, 0.0)",-0.0459920644646409,0.8160515231825497,1.6280310426327032e-11,"(0.0, 0.0, 0.0, 0.0, 0.0, 0.0)",-0.003434611744536716,True,"(-0.03069293343928252, 0.18493681222949415, 0.03999962527593666)","(0.9999987523143009, 0.001534585194115462, -0.000374724063340818)",-6.627349686951574e-05,4.573063200909425,True,"(0.03324199646491674, 0.18474643228199275, 0.04000037472406334)","(-0.9999987523143009, -0.0015345851941090214, 0.0003747240633399515)",8.083281772455817e-05,0.0
75,Move,"(0.01316455696202531, 0.0, 0.0)","(0.0, -0.0, 0.0)","(0.0016506224366240464, 0.1718002922133521, 0.0009530310810700337)","(1.5707794277818024, 0.0011789095898520029, 0.0018278067478520476)","[0.0016505438751590407, 0.0018012298368332846, 3.8141397982299026e-05]","[-0.026750000193715096, 0.05299999937415123, 0.03999999910593033]","[0.0, -0.0, 0.571025014218919]","[-0.06566561758518219, 0.11357701569795609, 0.03999999910593033]","[0.0, 0.0, -0.24319379354035414]","[0.026750000193715096, 0.05299999937415123, 0.03999999910593033]","[0.0, 0.0, -0.5953083985937161]","[0.06712501496076584, 0.11261424422264099, 0.03999999910593033]","[0.0, -0.0, 0.22074311939959085]",0.5691677956903651,-0.44573073898109344,"(0.0, 0.0, 0.0, 0.0, 0.0, 0.0)",-0.6514095091714454,-0.8142089990233671,0.002349898872892122,"(0.0, 0.0, 0.0, 0.0, 0.0, 0.0)",-0.29653103226205774,-0.5977197112433571,-0.5787131681823068,"(0.0, 0.0, 0.0, 0.0, 0.0, 0.0)",-0.04133485797765268,0.8160515231825429,-1.6280310433103296e-12,"(0.0, 0.0, 0.0, 0.0, 0.0, 0.0)",-0.0030876910880882937,True,"(-0.030474156083416665, 0.18494541071515036, 0.03999936835993198)","(0.9999982127565779, 0.0017819973273351733, -0.0006316400680105761)",-6.183443871047586e-05,4.400390850324453,True,"(0.03354426385194875, 0.18472864821846757, 0.04000063164006802)","(-0.9999982127565779, -0.0017819973273370598, 0.0006316400680148652)",0.00015975451188629118,0.0
76,Move,"(0.01417721518987341, 0.0, 0.0)","(0.0, -0.0, 0.0)","(0.0017008570221769875, 0.17175030046840042, 0.0009559399572225632)","(1.5761043922583702, 0.006414966529180642, 0.00039431669023168065)","[0.0017007784607119818, 0.0017512380918816017, 4.105027413482849e-05]","[-0.026750000193715096, 0.05299999937415123, 0.03999999910593033]","[0.0, -0.0, 0.5691678321805499]","[-0.06555304676294327, 0.11364918202161789, 0.03999999910593033]","[0.0, 0.0, -0.24504118768697492]","[0.026750000193715096, 0.05299999937415123, 0.03999999910593033]","[0.0, 0.0, -0.5977196762396045]","[0.06726864725351334, 0.11251671612262726, 0.03999999910593033]","[0.0, -0.0, 0.21833181484089526]",0.5671141535606103,-0.4928741111411421,"(0.0, 0.0, 0.0, 0.0, 0.0, 0.0)",-0.1560462349230695,-0.8141910105754052,0.004317227510836562,"(0.0, 0.0, 0.0, 0.0, 0.0, 0.0)",-0.05051478862906236,-0.6002339633538394,-0.6034205065157484,"(0.0, 0.0, 0.0, 0.0, 0.0, 0.0)",-0.03643639003120251,0.8160515231825436,1.6253665080512292e-13,"(0.0, 0.0, 0.0, 0.0, 0.0, 0.0)",-0.0027227487637669708,True,"(-0.030229799588716355, 0.18495433878912737, 0.03999882109068323)","(0.9999976346490421, 0.00182780445993681, -0.00117890931677521)",-5.766415120154849e-05,0.6579875403071674,True,"(0.03386188369037508, 0.1847094251215544, 0.04000117890931676)","(-0.9999976346490422, -0.001827804459940664, 0.001178909316761455)",0.00022874701945873338,0.0
77,Move,"(0.01518987341772152, 0.0, 0.0)","(0.0, -0.0, 0.0)","(0.0018320676238533927, 0.17183235484145262, 0.0010973029403634643)","(1.5765334418628547, 0.009522866342533532, -0.0030611257491615558)","[0.001831989062388387, 0.0018332924649338, 0.00018241325727572956]","[-0.026750000193715096, 0.05299999937415123, 0.03999999910593033]","[0.0, -0.0, 0.5671140896730024]","[-0.06542841345071793, 0.11372873932123184, 0.03999999910593033]","[0.0, 0.0, -0.2470768502027482]","[0.026750000193715096, 0.05299999937415123, 0.03999999910593033]","[0.0, 0.0, -0.6002340292237837]","[0.0674181580543518, 0.11241465061903, 0.03999999910593033]","[0.0, -0.0, 0.2158175674290719]",0.5648625575851375,-0.5403830341134944,"(0.0, 0.0, 0.0, 0.0, 0.0, 0.0)",-1.5504192490966016,-0.814136138469885,0.013169305324860499,"(0.0, 0.0, 0.0, 0.0, 0.0, 0.0)",-0.8213585682210773,-0.6028398396917659,-0.6254103211023718,"(0.0, 0.0, 0.0, 0.0, 0.0, 0.0)",-0.03245388076655222,0.8160515231825435,-1.5987211554602254e-14,"(0.0, 0.0, 0.0, 0.0, 0.0, 0.0)",-0.0024260961303499665,True,"(-0.02996010675618603, 0.1849624469791466, 0.03999358507746863)","(0.9999793464315505, 0.0003943085666193227, -0.0064149225313709195)",-5.447551559938791e-05,11.255889160715085,True,"(0.034193031285870396, 0.1846900470204631, 0.04000641492253137)","(-0.9999793464315505, -0.00039430856662936784, 0.0064149225313667015)",0.00028610047676702773,0.0
78,Move,"(0.01620253164556962, 0.0, 0.0)","(0.0, -0.0, 0.0)","(0.002002752390688407, 0.17194045613150905, 0.0011905267553576672)","(1.576067990576394, 0.01204907619020024, -0.007381571296647832)","[0.0020026738292234013, 0.0019413937549902227, 0.00027563707226993246]","[-0.026750000193715096, 0.05299999937415123, 0.03999999910593033]","[0.0, -0.0, 0.5648626308019359]","[-0.06529158353805542, 0.11381568014621735, 0.03999999910593033]","[0.0, 0.0, -0.2492735905987778]","[0.026750000193715096, 0.05299999937415123, 0.03999999910593033]","[0.0, 0.0, -0.6028398406712576]","[0.06757284700870514, 0.11230847239494324, 0.03999999910593033]","[0.0, -0.0, 0.21321165683169205]",0.5624196801190173,-0.5862905918688247,"(0.0, 0.0, 0.0, 0.0, 0.0, 0.0)",-0.8493303497910294,-0.8141036088928272,0.0078070984938816415,"(0.0, 0.0, 0.0, 0.0, 0.0, 0.0)",-0.447322607223569,-0.6055549317684831,-0.6516220984121084,"(0.0, 0.0, 0.0, 0.0, 0.0, 0.0)",-0.03865969313462969,0.8160515231825435,2.6645352591003757e-15,"(0.0, 0.0, 0.0, 0.0, 0.0, 0.0)",-0.002889401284026197,True,"(-0.02966690498760422, 0.18497003662919986, 0.03999047727758697)","(0.9999499728216386, -0.0030609821706525085, -0.009522722413026756)",-5.201926935351327e-05,5.946781927711488,True,"(0.03453620060958225, 0.18467105376673126, 0.04000952272241303)","(-0.9999499728216384, 0.0030609821706483846, 0.009522722413027221)",0.0003326484054903766,0.0
79,Move,"(0.01721518987341772, 0.0, 0.0)","(0.0, -0.0, 0.0)","(0.002217115254209922, 0.17205726620239642, 0.0012629693246108686)","(1.575640617794818, 0.013943121177005363, -0.01216898703350614)","[0.0022170366927449165, 0.002058203825877597, 0.00034807964152313393]","[-0.026750000193715096, 0.05299999937415123, 0.03999999910593033]","[0.0, -0.0, 0.562419722131347]","[-0.06514289975166321, 0.11390964686870575, 0.03999999910593033]","[0.0, 0.0, -0.25168393187498417]","[0.026750000193715096, 0.05299999937415123, 0.03999999910593033]","[0.0, 0.0, -0.6055548933480069]","[0.06773372739553452, 0.11219741404056549, 0.03999999910593033]","[0.0, -0.0, 0.21049663176722994]",0.5598214157840203,-0.6235834403992861,"(0.0, 0.0, 0.0, 0.0, 0.0, 0.0)",-1.039878729970067,-0.8140565260533623,0.011299881471571648,"(0.0, 0.0, 0.0, 0.0, 0.0, 0.0)",-0.5688127187302293,-0.6084306549982925,-0.690173575154267,"(0.0, 0.0, 0.0, 0.0, 0.0, 0.0)",-0.05678597675146571,0.8160515231825435,-6.776263578034403e-21,"(0.0, 0.0, 0.0, 0.0, 0.0, 0.0)",-0.0042419964267459784,True,"(-0.02934682177835484, 0.18497793295715592, 0.03999047727758697)","(0.9999499728216386, -0.0030609821706525085, -0.009522722413026756)",-4.8316463378128135e-05,6.084889137312166,True,"(0.034893670506319543, 0.1846494282200215, 0.04000952272241303)","(-0.9999499728216384, 0.0030609821706483846, 0.009522722413027221)",0.0003660699081799172,0.0
80,Move,"(0.01822784810126582, 0.0, 0.0)","(0.0, -0.0, 0.0)","(0.002470970128088975, 0.17217738440454225, 0.0013152755463768776)","(1.5752506224961635, 0.015221983007432112, -0.017379809665320448)","[0.0024708915666239693, 0.0021783220280234272, 0.0004003858632891429]","[-0.026750000193715096, 0.05299999937415123, 0.03999999910593033]","[0.0, -0.0, 0.5598213848147179]","[-0.0649845078587532, 0.11400919407606125, 0.03999999910593033]","[0.0, 0.0, -0.2542351297801147]","[0.026750000193715096, 0.05299999937415123, 0.03999999910593033]","[0.0, 0.0, -0.6084307136694809]","[0.0679037943482399, 0.11207931488752365, 0.03999999910593033]","[0.0, -0.0, 0.20762089348314286]",0.5570696523441206,-0.6604232255759297,"(0.0, 0.0, 0.0, 0.0, 0.0, 0.0)",-0.9972445978875879,-0.8140131696376179,0.010405539778657484,"(0.0, 0.0, 0.0, 0.0, 0.0, 0.0)",-0.5553584509834554,-0.6114679474310237,-0.7289501838554823,"(0.0, 0.0, 0.0, 0.0, 0.0, 0.0)",-0.057128671796784866,0.8160515231825435,0.0,"(0.0, 0.0, 0.0, 0.0, 0.0, 0.0)",-0.004268301986067434,True,"(-0.029007241588624236, 0.1849859286798915, 0.03999047727758697)","(0.9999499728216386, -0.0030609821706525085, -0.009522722413026756)",-3.760895916101923e-05,5.228278600869588,True,"(0.035272223630262084, 0.18462546495405013, 0.04000952272241303)","(-0.9999499728216384, 0.0030609821706483846, 0.009522722413027221)",0.00039619849969469996,0.0
81,Move,"(0.01924050632911392, 0.0, 0.0)","(0.0, -0.0, 0.0)","(0.0027623627248078053, 0.1722962429864803, 0.0013496675353740393)","(1.574893336097222, 0.015954843157462782, -0.02292764404819701)","[0.0027622841633427996, 0.00229718060996148, 0.0004347778522863046]","[-0.026750000193715096, 0.05299999937415123, 0.03999999910593033]","[0.0, -0.0, 0.5570695899478385]","[-0.06481648236513138, 0.1141141802072525, 0.03999999910593033]","[0.0, 0.0, -0.2569435299176957]","[0.026750000193715096, 0.05299999937415123, 0.03999999910593033]","[0.0, 0.0, -0.6114679200827118]","[0.06808304041624069, 0.11195404827594757, 0.03999999910593033]","[0.0, -0.0, 0.204583601602177]",0.554164594984262,-0.6972137663660851,"(0.0, 0.0, 0.0, 0.0, 0.0, 0.0)",-0.9655752439585878,-0.8139683947543285,0.010745971989472284,"(0.0, 0.0, 0.0, 0.0, 0.0, 0.0)",-0.548269402612201,-0.6146623885667641,-0.7666658725776854,"(0.0, 0.0, 0.0, 0.0, 0.0, 0.0)",-0.05558331169465433,0.8160515231825435,0.0,"(0.0, 0.0, 0.0, 0.0, 0.0, 0.0)",-0.0041538170598305535,True,"(-0.028647112474436146, 0.18499320859612173, 0.03999047727758697)","(0.9999499728216386, -0.0030609821706525085, -0.009522722413026756)",-2.495166274510114e-05,4.397423555914584,True,"(0.035671968734897364, 0.1845989733769515, 0.04000952272241303)","(-0.9999499728216384, 0.0030609821706483846, 0.009522722413027221)",0.0004272941884830363,0.0
82,Move,"(0.020253164556962022, 0.0, 0.0)","(0.0, -0.0, 0.0)","(0.0030891201963160362, 0.1724108087510881, 0.0013691259426423202)","(1.5745661026772937, 0.01623520290823215, -0.028734510853866028)","[0.0030890416348510305, 0.0024117463745692846, 0.0004542362595545855]","[-0.026750000193715096, 0.05299999937415123, 0.03999999910593033]","[0.0, -0.0, 0.5541645699288767]","[-0.06463878601789474, 0.11422450840473175, 0.03999999910593033]","[0.0, 0.0, -0.2598038142292813]","[0.026750000193715096, 0.05299999937415123, 0.03999999910593033]","[0.0, 0.0, -0.6146623817875043]","[0.06827116012573242, 0.11182171106338501, 0.03999999910593033]","[0.0, -0.0, 0.20138914790788537]",0.5511055819816579,-0.7341631206249601,"(0.0, 0.0, 0.0, 0.0, 0.0, 0.0)",-0.9276689986358284,-0.8139231452523524,0.010859880474261566,"(0.0, 0.0, 0.0, 0.0, 0.0, 0.0)",-0.5342909871568523,-0.618010706804559,-0.8035963770707683,"(0.0, 0.0, 0.0, 0.0, 0.0, 0.0)",-0.0544426210478073,0.8160515231825435,0.0,"(0.0, 0.0, 0.0, 0.0, 0.0, 0.0)",-0.004069537906244082,True,"(-0.028266826085201174, 0.18499979146142626, 0.03999047727758697)","(0.9999499728216386, -0.0030609821706525085, -0.009522722413026756)",-1.0277686900306596e-05,3.3960171981451013,True,"(0.03609230767203557, 0.18456980127421, 0.04000952272241303)","(-0.9999499728216384, 0.0030609821706483846, 0.009522722413027221)",0.00045922220035694015,0.0
83,Move,"(0.021265822784810123, 0.0, 0.0)","(0.0, -0.0, 0.0)","(0.0034502221606473775, 0.17251837068464027, 0.0013758539163468285)","(1.5742668981296006, 0.016132010402394772, -0.03468271115314704)","[0.003450143599182372, 0.002519308308121443, 0.0004609642332590938]","[-0.026750000193715096, 0.05299999937415123, 0.03999999910593033]","[0.0, -0.0, 0.5511055656245657]","[-0.06445132195949554, 0.11434011906385422, 0.03999999910593033]","[0.0, 0.0, -0.2628175618926399]","[0.026750000193715096, 0.05299999937415123, 0.03999999910593033]","[0.0, 0.0, -0.6180107181844928]","[0.068467877805233, 0.11168235540390015, 0.03999999910593033]","[0.0, -0.0, 0.19804077813535637]",0.547892303202516,-0.7711869069940698,"(0.0, 0.0, 0.0, 0.0, 0.0, 0.0)",-0.8979349557675385,-0.8138767656268121,0.01113111012966655,"(0.0, 0.0, 0.0, 0.0, 0.0, 0.0)",-0.5220966451008913,-0.6215084269845651,-0.8394528432014541,"(0.0, 0.0, 0.0, 0.0, 0.0, 0.0)",-0.05287770258582731,0.8160515231825435,0.0,"(0.0, 0.0, 0.0, 0.0, 0.0, 0.0)",-0.003953636554558321,True,"(-0.027866228073992944, 0.18500546937690315, 0.03999047727758697)","(0.9999499728216386, -0.0030609821706525085, -0.009522722413026756)",6.746489106331978e-06,0.0,True,"(0.03653279204466929, 0.18453778278420552, 0.04000952272241303)","(-0.9999499728216384, 0.0030609821706483846, 0.009522722413027221)",0.0004911726862352045,0.0
84,Move,"(0.02227848101265822, 0.0, 0.0)","(0.0, -0.0, 0.0)","(0.0038437318509610802, 0.17261991421857914, 0.0013724536404610046)","(1.5739922112167393, 0.015727137786978134, -0.04079622518345891)","[0.0038436532894960745, 0.0026208518420603177, 0.0004575639573732699]","[-0.026750000193715096, 0.05299999937415123, 0.03999999910593033]","[0.0, -0.0, 0.5478923134400553]","[-0.0642540231347084, 0.11446095257997513, 0.03999999910593033]","[0.0, 0.0, -0.26598447034073186]","[0.026750000193715096, 0.05299999937415123, 0.03999999910593033]","[0.0, 0.0, -0.6215083690064375]","[0.06867287307977676, 0.11153607815504074, 0.03999999910593033]","[0.0, -0.0, 0.19454310260736302]",0.5445234140155386,-0.8085334048745858,"(0.0, 0.0, 0.0, 0.0, 0.0, 0.0)",-0.8702064662206122,-0.8138446488921082,0.0077080163289558875,"(0.0, 0.0, 0.0, 0.0, 0.0, 0.0)",-0.5038721850518014,-0.6251501415704073,-0.8740115006021076,"(0.0, 0.0, 0.0, 0.0, 0.0, 0.0)",-0.05098401228022616,0.8160515231825435,0.0,"(0.0, 0.0, 0.0, 0.0, 0.0, 0.0)",-0.003813224001769635,True,"(-0.02747392549446194, 0.18489200099903885, 0.03783899790999829)","(0.9992685752536214, -0.03467124637864757, -0.01613131070770627)",-4.126273015690022e-05,6.238144435397616,True,"(0.0369928136223308, 0.1845027607659713, 0.04000952272241303)","(-0.9999499728216384, 0.0030609821706483846, 0.009522722413027221)",0.0005224305114545386,0.0
85,Move,"(0.023291139240506332, 0.0, 0.0)","(0.0, -0.0, 0.0)","(0.004257016789386919, 0.17273700439151846, 0.001319919544908207)","(1.572456837974722, 0.015036879857207475, -0.04821794175019481)","[0.004256938227921914, 0.0027379420149996336, 0.0004050298618204723]","[-0.026750000193715096, 0.05299999937415123, 0.03999999910593033]","[0.0, -0.0, 0.5445233956076412]","[-0.06404675543308258, 0.11458694934844971, 0.03999999910593033]","[0.0, 0.0, -0.2693212220151522]","[0.026750000193715096, 0.05299999937415123, 0.03999999910593033]","[0.0, 0.0, -0.6251501514297823]","[0.06888577342033386, 0.11138302087783813, 0.03999999910593033]","[0.0, -0.0, 0.19090138613563912]",0.5409987939408003,-0.8459088179372013,"(0.0, 0.0, 0.0, 0.0, 0.0, 0.0)",-0.570201779109441,-0.8138326375116927,0.0028827312997207885,"(0.0, 0.0, 0.0, 0.0, 0.0, 0.0)",-0.3124707879521233,-0.6289294689228078,-0.9070385645761059,"(0.0, 0.0, 0.0, 0.0, 0.0, 0.0)",-0.0487467590100948,0.8160515231825435,0.0,"(0.0, 0.0, 0.0, 0.0, 0.0, 0.0)",-0.0036471879846263345,True,"(-0.027031953672040393, 0.18489210571868875, 0.03783940273124354)","(0.9990443834320579, -0.04077986589049273, -0.01572648946245045)",-3.9863568250870927e-05,3.927263172036089,True,"(0.037471640165307886, 0.18446458744521183, 0.04000952272241303)","(-0.9999499728216384, 0.0030609821706483846, 0.009522722413027221)",0.0005508421702449196,0.0
86,Move,"(0.02430379746835443, 0.0, 0.0)","(0.0, -0.0, 0.0)","(0.0046927476126494665, 0.17287511426930602, 0.0012187267890740741)","(1.569662266531246, 0.014071544046457038, -0.05672121099772852)","[0.004692669051184461, 0.002876051892787196, 0.00030383710598633944]","[-0.026750000193715096, 0.05299999937415123, 0.03999999910593033]","[0.0, -0.0, 0.5409988050385566]","[-0.0638294517993927, 0.11471801996231079, 0.03999999910593033]","[0.0, 0.0, -0.272833892542167]","[0.026750000193715096, 0.05299999937415123, 0.03999999910593033]","[0.0, 0.0, -0.6289294513877256]","[0.06910611689090729, 0.11122335493564606, 0.03999999910593033]","[0.0, -0.0, 0.1871220670959981]",0.5373193665277687,-0.8830625791275942,"(0.0, 0.0, 0.0, 0.0, 0.0, 0.0)",-0.5630334503118434,-0.813821079872026,0.0027738335200022048,"(0.0, 0.0, 0.0, 0.0, 0.0, 0.0)",-0.30430605549687983,-0.6328400503045268,-0.938539531612574,"(0.0, 0.0, 0.0, 0.0, 0.0, 0.0)",-0.04651718081345008,0.8160515231825435,0.0,"(0.0, 0.0, 0.0, 0.0, 0.0, 0.0)",-0.0034817188537319232,True,"(-0.026568096368897884, 0.184888822868576, 0.03784009290750157)","(0.998724819905533, -0.04819381070094916, -0.015036313204421302)",-3.9422396889819854e-05,3.8756804057104515,True,"(0.03796841012354833, 0.18442312807977884, 0.04000952272241303)","(-0.9999499728216384, 0.0030609821706483846, 0.009522722413027221)",0.0005719327906944056,0.0
87,Move,"(0.025316455696202528, 0.0, 0.0)","(0.0, -0.0, 0.0)","(0.005182802962321127, 0.17298098693206973, 0.001203004429166008)","(1.5697574510467138, 0.013029621808684918, -0.062330986287245496)","[0.005182724400856121, 0.0029819245555509077, 0.0002881147460782733]","[-0.026750000193715096, 0.05299999937415123, 0.03999999910593033]","[0.0, -0.0, 0.5373194175002926]","[-0.06360211968421936, 0.11485403776168823, 0.03999999910593033]","[0.0, 0.0, -0.2765017112230984]","[0.026750000193715096, 0.05299999937415123, 0.03999999910593033]","[0.0, 0.0, -0.6328400580943555]","[0.06933347880840302, 0.11105727404356003, 0.03999999910593033]","[0.0, -0.0, 0.18321146015664172]",0.5334868891231549,-0.9197945771073057,"(0.0, 0.0, 0.0, 0.0, 0.0, 0.0)",-1.3641715478369856,-0.8137624847065427,0.014062839715990752,"(0.0, 0.0, 0.0, 0.0, 0.0, 0.0)",-0.7984999557010407,-0.6368906611969078,-0.972146614171451,"(0.0, 0.0, 0.0, 0.0, 0.0, 0.0)",-0.049620293906672656,0.8160515231825435,0.0,"(0.0, 0.0, 0.0, 0.0, 0.0, 0.0)",-0.0037140274422285645,True,"(-0.02608388115974441, 0.1848828659143073, 0.037841058141035486)","(0.9982929400318008, -0.05668518853782974, -0.014071079670510312)",-3.993055923467634e-05,10.046283735059127,True,"(0.038482263871943936, 0.184378252783378, 0.04000952272241303)","(-0.9999499728216384, 0.0030609821706483846, 0.009522722413027221)",0.0005839763325723203,0.0
88,Move,"(0.02632911392405063, 0.0, 0.0)","(0.0, -0.0, 0.0)","(0.005698683008936521, 0.17307774397590597, 0.0011801214896397243)","(1.5698450882043284, 0.01179872948207709, -0.0684947544276908)","[0.005698604447471516, 0.003078681599387151, 0.0002652318065519896]","[-0.026750000193715096, 0.05299999937415123, 0.03999999910593033]","[0.0, -0.0, 0.5334869166893497]","[-0.06336478888988495, 0.11499481648206711, 0.03999999910593033]","[0.0, 0.0, -0.28027559999510937]","[0.026750000193715096, 0.05299999937415123, 0.03999999910593033]","[0.0, 0.0, -0.636890688868674]","[0.06956829875707626, 0.11088430881500244, 0.03999999910593033]","[0.0, -0.0, 0.1791608665952515]",0.5294997950032705,-0.9569025887722595,"(0.0, 0.0, 0.0, 0.0, 0.0, 0.0)",-0.8156327665404691,-0.8137409587066532,0.005166239973468531,"(0.0, 0.0, 0.0, 0.0, 0.0, 0.0)",-0.4635688793498012,-0.641088100197684,-1.0073853601862943,"(0.0, 0.0, 0.0, 0.0, 0.0, 0.0)",-0.05202761210415384,0.8160515231825435,0.0,"(0.0, 0.0, 0.0, 0.0, 0.0, 0.0)",-0.0038945210069290274,True,"(-0.025582642720709634, 0.1848797253434999, 0.03784209996756959)","(0.997973333445862, -0.06228534573767284, -0.01302925313639884)",-3.8407719282414324e-05,5.8199277130608955,True,"(0.039014328350327546, 0.18432965228800932, 0.04000952272241303)","(-0.9999499728216384, 0.0030609821706483846, 0.009522722413027221)",0.0006034085871284457,0.0
89,Move,"(0.02734177215189873, 0.0, 0.0)","(0.0, -0.0, 0.0)","(0.006239038149176247, 0.17316912407618837, 0.0011499276394868942)","(1.5699265918562406, 0.010371012358749552, -0.07508377145340249)","[0.006238959587711241, 0.0031700616996695463, 0.00023503795639915953]","[-0.026750000193715096, 0.05299999937415123, 0.03999999910593033]","[0.0, -0.0, 0.5294997691080316]","[-0.06311732530593872, 0.11514031141996384, 0.03999999910593033]","[0.0, 0.0, -0.2842411692826684]","[0.026750000193715096, 0.05299999937415123, 0.03999999910593033]","[0.0, 0.0, -0.641088085986659]","[0.0698108822107315, 0.11070407181978226, 0.03999999910593033]","[0.0, -0.0, 0.17496344621607862]",0.5253658795579624,-0.9921397068739415,"(0.0, 0.0, 0.0, 0.0, 0.0, 0.0)",-0.7916207919052873,-0.8137185870058845,0.005369208184497509,"(0.0, 0.0, 0.0, 0.0, 0.0, 0.0)",-0.44780429735390986,-0.6453930192388005,-1.0331805698679692,"(0.0, 0.0, 0.0, 0.0, 0.0, 0.0)",-0.0381741382924541,0.8160515231825435,0.0,"(0.0, 0.0, 0.0, 0.0, 0.0, 0.0)",-0.002862134238936018,True,"(-0.025058470391953816, 0.1848726479582556, 0.03784333076497223)","(0.9975857102774164, -0.06843644564558518, -0.011798455733763178)",-3.733191026664911e-05,5.66357060327257,True,"(0.03956546689676708, 0.1842770167553786, 0.04000952272241303)","(-0.9999499728216384, 0.0030609821706483846, 0.009522722413027221)",0.0006183222109963342,0.0
90,Move,"(0.02835443037974683, 0.0, 0.0)","(0.0, -0.0, 0.0)","(0.006804892138832275, 0.17325676648377372, 0.0011150842474242119)","(1.5700022598255667, 0.008829357670448222, -0.0820461398052603)","[0.00680481357736727, 0.0032577041072548996, 0.00020019456433647718]","[-0.026750000193715096, 0.05299999937415123, 0.03999999910593033]","[0.0, -0.0, 0.5253659149045099]","[-0.06286013126373291, 0.11529011279344559, 0.03999999910593033]","[0.0, 0.0, -0.2883527543038953]","[0.026750000193715096, 0.05299999937415123, 0.03999999910593033]","[0.0, 0.0, -0.6453930229277294]","[0.0700588971376419, 0.11051816493272781, 0.03999999910593033]","[0.0, -0.0, 0.17065849734353858]",0.5210814080321817,-1.0282731661873599,"(0.0, 0.0, 0.0, 0.0, 0.0, 0.0)",-0.8035409507346962,-0.8136981665248993,0.004900915436449892,"(0.0, 0.0, 0.0, 0.0, 0.0, 0.0)",-0.45358990893401213,-0.6498026505949743,-1.0583115254816973,"(0.0, 0.0, 0.0, 0.0, 0.0, 0.0)",-0.037207892562290186,0.8160515231825435,0.0,"(0.0, 0.0, 0.0, 0.0, 0.0, 0.0)",-0.0027908135203344457,True,"(-0.024492519587215086, 0.18493890408875086, 0.039434491052278614)","(0.9971288834758791, -0.07500920910252508, -0.010373441471391576)",-3.679004912141815e-05,5.742733231684933,True,"(0.04013226897253945, 0.18425004373330683, 0.0400103708264457)","(-0.9971289106949293, 0.07500920886915731, 0.010370826445698826)",0.0006017352131330318,0.0
91,Move,"(0.02936708860759494, 0.0, 0.0)","(0.0, -0.0, 0.0)","(0.007395705242659694, 0.17334172919356305, 0.0010761933308043282)","(1.5700724937173032, 0.007190315991455401, -0.08932017164400385)","[0.007395626681194689, 0.003342666817044232, 0.00016130364771659348]","[-0.026750000193715096, 0.05299999937415123, 0.03999999910593033]","[0.0, -0.0, 0.521081413558801]","[-0.06259291619062424, 0.11544425785541534, 0.03999999910593033]","[0.0, 0.0, -0.29261677941476166]","[0.026750000193715096, 0.05299999937415123, 0.03999999910593033]","[0.0, 0.0, -0.6498027674666021]","[0.07031210511922836, 0.11032663285732269, 0.03999999910593033]","[0.0, -0.0, 0.1662488688308297]",0.5166441726912803,-1.064936481816343,"(0.0, 0.0, 0.0, 0.0, 0.0, 0.0)",-0.7986374666096601,-0.8136787232360169,0.004666389331794534,"(0.0, 0.0, 0.0, 0.0, 0.0, 0.0)",-0.44990654972229727,-0.6543121689404177,-1.0822844029063994,"(0.0, 0.0, 0.0, 0.0, 0.0, 0.0)",-0.035516408834702876,0.8160515231825435,0.0,"(0.0, 0.0, 0.0, 0.0, 0.0, 0.0)",-0.0026653932064364502,True,"(-0.023920891149907114, 0.1849526216824462, 0.0399911707570483)","(0.9965972557266948, -0.08195092645553609, -0.008829242951703413)",-3.703530114402275e-05,5.701507592561376,True,"(0.04071109249592196, 0.18419230247531382, 0.0400088292429517)","(-0.9965972557266948, 0.08195092645553875, 0.008829242951699687)",0.0005912474095525551,0.0
92,Move,"(0.03037974683544304, 0.0, 0.0)","(0.0, -0.0, 0.0)","(0.008011378910591189, 0.17342439224878506, 0.0010334742133620539)","(1.5701377206176235, 0.005458311802649759, -0.09685740588060637)","[0.008011300349126184, 0.003425329872266236, 0.00011858453027431917]","[-0.026750000193715096, 0.05299999937415123, 0.03999999910593033]","[0.0, -0.0, 0.5166441810549771]","[-0.06231548637151718, 0.11560268700122833, 0.03999999910593033]","[0.0, 0.0, -0.2970345626147381]","[0.026750000193715096, 0.05299999937415123, 0.03999999910593033]","[0.0, 0.0, -0.6543121588829232]","[0.07057017832994461, 0.11012960225343704, 0.03999999910593033]","[0.0, -0.0, 0.16173935091928035]",0.5120532288927941,-1.1018265116366714,"(0.0, 0.0, 0.0, 0.0, 0.0, 0.0)",-0.7962479990730551,-0.8136596211205052,0.004584507722817142,"(0.0, 0.0, 0.0, 0.0, 0.0, 0.0)",-0.448117785279354,-0.6589155711424878,-1.104816528496823,"(0.0, 0.0, 0.0, 0.0, 0.0, 0.0)",-0.033409532897622385,0.8160515231825435,0.0,"(0.0, 0.0, 0.0, 0.0, 0.0, 0.0)",-0.002508969194840053,True,"(-0.023337001846923187, 0.18493668090645426, 0.03999280974596571)","(0.9959878576840953, -0.08919914569528535, -0.0071902540342885)",-3.651594844639076e-05,5.684726725200345,True,"(0.04130279233794832, 0.18413076583504656, 0.0400071902540343)","(-0.9959878576840948, 0.08919914569529183, 0.007190254034291968)",0.0005687512385821934,0.0
