OSUrobotics/InHand-Manipulation/AnalyseData/Data/Trial Data/old/new_hand_expected_exp_2v2_g_none_1_kpNone_kdNone_dp5_step5_save_data.csv
,Phase,human_cube_pos,human_cube_orn,Cube_Pos,Cube_Orn,Cube_pos_in_start_pos,b'l_prox_pin'_link_pos,b'l_prox_pin'_link_orn,b'l_distal_pin'_link_pos,b'l_distal_pin'_link_orn,b'r_prox_pin'_link_pos,b'r_prox_pin'_link_orn,b'r_distal_pin'_link_pos,b'r_distal_pin'_link_orn,b'l_prox_pin'_joint_angle,b'l_prox_pin'_joint_vel,b'l_prox_pin'_joint_react_forces,b'l_prox_pin'_joint_motor_torque,b'l_distal_pin'_joint_angle,b'l_distal_pin'_joint_vel,b'l_distal_pin'_joint_react_forces,b'l_distal_pin'_joint_motor_torque,b'r_prox_pin'_joint_angle,b'r_prox_pin'_joint_vel,b'r_prox_pin'_joint_react_forces,b'r_prox_pin'_joint_motor_torque,b'r_distal_pin'_joint_angle,b'r_distal_pin'_joint_vel,b'r_distal_pin'_joint_react_forces,b'r_distal_pin'_joint_motor_torque,in_contact_l,contact_point_l_dist,contact_normal_l_dist,contact_distance_l_dist,contact_norm_force_l_dist,in_contact_r,contact_point_r_dist,contact_normal_r_dist,contact_distance_r_dist,contact_norm_force_r_dist
0,Open,,,,,,"[-0.026750000193715096, 0.05299999937415123, 0.03999999910593033]","[0.0, -0.0, 0.42755761853039154]","[-0.056604765355587006, 0.1185186430811882, 0.03999999910593033]","[0.0, -0.0, 0.4463066270391506]","[0.026750000193715096, 0.05299999937415123, 0.03999999910593033]","[0.0, 0.0, -0.42757404208311445]","[0.05660583823919296, 0.1185181587934494, 0.03999999910593033]","[0.0, 0.0, -0.4465272228574986]",0.5418018724257314,27.418616735313837,"(0.0, 0.0, 0.0, 0.0, 0.0, 0.0)",-4.412236817968903,0.016874447698417276,-0.44988750389777044,"(0.0, 0.0, 0.0, 0.0, 0.0, 0.0)",-0.3112578673856835,-0.5418166170859073,-27.418223544375806,"(0.0, 0.0, 0.0, 0.0, 0.0, 0.0)",4.412120589674461,-0.017058187988154127,0.4547872631353701,"(0.0, 0.0, 0.0, 0.0, 0.0, 0.0)",0.31119999541872967,False,,,,,False,,,,
1,Open,,,,,,"[-0.026750000193715096, 0.05299999937415123, 0.03999999910593033]","[0.0, -0.0, 0.8953992050914552]","[-0.08294302970170975, 0.09801492840051651, 0.03999999910593033]","[0.0, -0.0, 0.9064715399310761]","[0.026750000193715096, 0.05299999937415123, 0.03999999910593033]","[0.0, 0.0, -0.8954089117450801]","[0.08294346183538437, 0.09801438450813293, 0.03999999910593033]","[0.0, 0.0, -0.9066016844299951]",0.9628592876486701,16.190418996035465,"(0.0, 0.0, 0.0, 0.0, 0.0, 0.0)",-2.616982039675733,0.009965290062605858,-0.26568209241480656,"(0.0, 0.0, 0.0, 0.0, 0.0, 0.0)",-0.18775783729375353,-0.9628679942230576,-16.190186820718473,"(0.0, 0.0, 0.0, 0.0, 0.0, 0.0)",2.6169116334278195,-0.010073786659150813,0.26857534621184953,"(0.0, 0.0, 0.0, 0.0, 0.0, 0.0)",0.187722108909745,False,,,,,False,,,,
2,Open,,,,,,"[-0.026750000193715096, 0.05299999937415123, 0.03999999910593033]","[0.0, -0.0, 1.17165497759142]","[-0.09309044480323792, 0.08098116517066956, 0.03999999910593033]","[0.0, -0.0, 1.1781937273122836]","[0.026750000193715096, 0.05299999937415123, 0.03999999910593033]","[0.0, 0.0, -1.1716605985979762]","[0.09309060126543045, 0.08098078519105911, 0.03999999910593033]","[0.0, 0.0, -1.178270796658152]",1.2114894807636634,9.56028051296898,"(0.0, 0.0, 0.0, 0.0, 0.0, 0.0)",-1.549346412635057,0.005885062316220725,-0.15689973638119079,"(0.0, 0.0, 0.0, 0.0, 0.0, 0.0)",-0.11225090666269867,-1.2114946219087734,-9.560143415766044,"(0.0, 0.0, 0.0, 0.0, 0.0, 0.0)",1.5493042197033076,-0.00594912834521185,0.1586081706180975,"(0.0, 0.0, 0.0, 0.0, 0.0, 0.0)",0.11222926703597672,False,,,,,False,,,,
3,Open,,,,,,"[-0.026750000193715096, 0.05299999937415123, 0.03999999910593033]","[0.0, -0.0, 1.3347813147466918]","[-0.09675397723913193, 0.06983575969934464, 0.03999999910593033]","[0.0, -0.0, 1.3386449621367835]","[0.026750000193715096, 0.05299999937415123, 0.03999999910593033]","[0.0, 0.0, -1.3347844615433213]","[0.0967540368437767, 0.06983552873134613, 0.03999999910593033]","[0.0, 0.0, -1.3386905382854437]",1.3583031234961356,5.645250040103052,"(0.0, 0.0, 0.0, 0.0, 0.0, 0.0)",-0.9162890978823036,0.0034783869891320215,-0.09247571818598516,"(0.0, 0.0, 0.0, 0.0, 0.0, 0.0)",-0.06677007440367574,-1.3583061592909116,-5.645169085575695,"(0.0, 0.0, 0.0, 0.0, 0.0, 0.0)",0.9162639666346021,-0.003516216695348753,0.09348456497972772,"(0.0, 0.0, 0.0, 0.0, 0.0, 0.0)",0.06675710630673855,False,,,,,False,,,,
4,Open,,,,,,"[-0.026750000193715096, 0.05299999937415123, 0.03999999910593033]","[0.0, -0.0, 1.4311058207082674]","[-0.09804865717887878, 0.06302504986524582, 0.03999999910593033]","[0.0, -0.0, 1.433390691262394]","[0.026750000193715096, 0.05299999937415123, 0.03999999910593033]","[0.0, 0.0, -1.4311075924426346]","[0.09804867953062057, 0.06302490830421448, 0.03999999910593033]","[0.0, 0.0, -1.433417470845748]",1.4449951113932331,3.333463696180452,"(0.0, 0.0, 0.0, 0.0, 0.0, 0.0)",-0.5415503506795546,0.0020570753203455715,-0.05468855210882702,"(0.0, 0.0, 0.0, 0.0, 0.0, 0.0)",-0.039594115216637325,-1.4449969039996904,-3.3334158933415914,"(0.0, 0.0, 0.0, 0.0, 0.0, 0.0)",0.541535435877482,-0.002079412775410495,0.055284250111531166,"(0.0, 0.0, 0.0, 0.0, 0.0, 0.0)",0.03958639191865308,False,,,,,False,,,,
5,Open,,,,,,"[-0.026750000193715096, 0.05299999937415123, 0.03999999910593033]","[0.0, -0.0, 1.4879842849605203]","[-0.09850326180458069, 0.05895565450191498, 0.03999999910593033]","[0.0, -0.0, 1.4893357278409396]","[0.026750000193715096, 0.05299999937415123, 0.03999999910593033]","[0.0, 0.0, -1.4879853833286059]","[0.09850326925516129, 0.05895556882023811, 0.03999999910593033]","[0.0, 0.0, -1.4893513332680077]",1.4961858633265903,1.9683769779575933,"(0.0, 0.0, 0.0, 0.0, 0.0, 0.0)",-0.31995094896823073,0.0012165319928285922,-0.03234212113369103,"(0.0, 0.0, 0.0, 0.0, 0.0, 0.0)",-0.02343792779000599,-1.4961869218427772,-1.9683487508592754,"(0.0, 0.0, 0.0, 0.0, 0.0, 0.0)",0.31994211580738524,-0.0012297216752996233,0.03269386530715718,"(0.0, 0.0, 0.0, 0.0, 0.0, 0.0)",0.02343334437795369,False,,,,,False,,,,
6,Open,,,,,,"[-0.026750000193715096, 0.05299999937415123, 0.03999999910593033]","[0.0, -0.0, 1.5215704989376362]","[-0.09866278618574142, 0.05654282495379448, 0.03999999910593033]","[0.0, -0.0, 1.522369838325666]","[0.026750000193715096, 0.05299999937415123, 0.03999999910593033]","[0.0, 0.0, -1.5215710825913402]","[0.09866278618574142, 0.0565427765250206, 0.03999999910593033]","[0.0, 0.0, -1.522379029767931]",1.5264134904357183,1.1623069217141797,"(0.0, 0.0, 0.0, 0.0, 0.0, 0.0)",-0.18898727227709852,0.000719444125508032,-0.019126791845346432,"(0.0, 0.0, 0.0, 0.0, 0.0, 0.0)",-0.013859938289241243,-1.5264141154789415,-1.162290253894895,"(0.0, 0.0, 0.0, 0.0, 0.0, 0.0)",0.18898204730565804,-0.0007272322869396521,0.019334487584604668,"(0.0, 0.0, 0.0, 0.0, 0.0, 0.0)",0.013857223880827028,False,,,,,False,,,,
7,Close,,,"(1.2478112216283415e-07, 0.16999960627914334, 0.0003375139776509844)","(1.5703757789650807, 0.0001088681168706304, -5.122612185789874e-06)",,"[-0.026750000193715096, 0.05299999937415123, 0.03999999910593033]","[0.0, -0.0, 1.2785329680082034]","[-0.09569678455591202, 0.07374466955661774, 0.03999999910593033]","[0.0, -0.0, 1.0351044933740032]","[0.026750000193715096, 0.05299999937415123, 0.03999999910593033]","[0.0, 0.0, -1.2785333261376617]","[0.09569679200649261, 0.07374463975429535, 0.03999999910593033]","[0.0, 0.0, -1.0351099865887758]",1.2106796019673873,-16.28478938579699,"(0.0, 0.0, 0.0, 0.0, 0.0, 0.0)",2.809472854136235,-0.3090860149933808,-15.757821278062295,"(0.0, 0.0, 0.0, 0.0, 0.0, 0.0)",0.3661538009495806,-1.2106799710491603,16.284799227977608,"(0.0, 0.0, 0.0, 0.0, 0.0, 0.0)",-2.8094757422584213,0.30908141619234186,15.75794391320213,"(0.0, 0.0, 0.0, 0.0, 0.0, 0.0)",-0.3661552191151056,False,,,,,False,,,,
8,Close,,,"(3.0991841452431125e-07, 0.1699991530873768, 0.0005600347089338349)","(1.5707725584893357, 0.0003276471180493337, -1.5390016504502985e-05)",,"[-0.026750000193715096, 0.05299999937415123, 0.03999999910593033]","[0.0, -0.0, 1.0006670909649218]","[-0.08736184239387512, 0.09186135232448578, 0.03999999910593033]","[0.0, -0.0, 0.48836557737534114]","[0.026750000193715096, 0.05299999937415123, 0.03999999910593033]","[0.0, 0.0, -1.0006671906734346]","[0.08736184984445572, 0.09186133742332458, 0.03999999910593033]","[0.0, 0.0, -0.4883688154364048]",0.9606001981650306,-9.616005284561718,"(0.0, 0.0, 0.0, 0.0, 0.0, 0.0)",1.667253264949997,-0.5510712009946406,-9.304767973476249,"(0.0, 0.0, 0.0, 0.0, 0.0, 0.0)",0.2218037572572205,-0.9606004161041268,9.616011096270952,"(0.0, 0.0, 0.0, 0.0, 0.0, 0.0)",-1.6672550198735234,0.5510684854486152,9.30484038803693,"(0.0, 0.0, 0.0, 0.0, 0.0, 0.0)",-0.22180464092959223,False,,,,,False,,,,
9,Close,,,"(2.933853975158492e-07, 0.16999904048792538, 0.0007066062154399696)","(1.5708337628024795, 0.00026866528465535426, -1.404448202163588e-05)",,"[-0.026750000193715096, 0.05299999937415123, 0.03999999910593033]","[0.0, -0.0, 0.8365897781630613]","[-0.08020010590553284, 0.1012398824095726, 0.03999999910593033]","[0.0, -0.0, 0.16552144688028117]","[0.026750000193715096, 0.05299999937415123, 0.03999999910593033]","[0.0, 0.0, -0.8365899294750984]","[0.08020011335611343, 0.101239874958992, 0.03999999910593033]","[0.0, 0.0, -0.1655233971102189]",0.8129308110141114,-5.678154960376304,"(0.0, 0.0, 0.0, 0.0, 0.0, 0.0)",0.9873874064507416,-0.6939616573792659,-5.494397555666588,"(0.0, 0.0, 0.0, 0.0, 0.0, 0.0)",0.13292457281458034,-0.8129309397049683,5.678158392132489,"(0.0, 0.0, 0.0, 0.0, 0.0, 0.0)",-0.987388459985631,0.6939600538790082,5.494440315842426,"(0.0, 0.0, 0.0, 0.0, 0.0, 0.0)",-0.13292511074891808,False,,,,,False,,,,
10,Close,,,"(1.9902477861274505e-07, 0.16999905216518962, 0.0008031506137060285)","(1.5708213694470277, 0.0001751880104672085, -1.4031272711042213e-05)",,"[-0.026750000193715096, 0.05299999937415123, 0.03999999910593033]","[0.0, -0.0, 0.7397039398326887]","[-0.075282983481884, 0.10618411004543304, 0.03999999910593033]","[0.0, 0.0, -0.025114755601520013]","[0.026750000193715096, 0.05299999937415123, 0.03999999910593033]","[0.0, 0.0, -0.7397039829241547]","[0.0752829909324646, 0.10618410259485245, 0.03999999910593033]","[0.0, -0.0, 0.025113617980755978]",0.7257335145957226,-3.3528937225526034,"(0.0, 0.0, 0.0, 0.0, 0.0, 0.0)",0.5840196078844049,-0.7783380408184963,-3.244652289205478,"(0.0, 0.0, 0.0, 0.0, 0.0, 0.0)",0.07914031685893824,-0.7257335905863868,3.3528957489703144,"(0.0, 0.0, 0.0, 0.0, 0.0, 0.0)",-0.5840202358821991,0.778337093974245,3.2446775397467595,"(0.0, 0.0, 0.0, 0.0, 0.0, 0.0)",-0.07914064000385382,False,,,,,False,,,,
11,Close,,,"(1.3069317882946781e-07, 0.16999905849316785, 0.0008666025578373041)","(1.570813038524343, 0.0001076496945073061, -1.4014808324094979e-05)",,"[-0.026750000193715096, 0.05299999937415123, 0.03999999910593033]","[0.0, -0.0, 0.6824937890365349]","[-0.07216256856918335, 0.10887216031551361, 0.03999999910593033]","[0.0, 0.0, -0.137687120736303]","[0.026750000193715096, 0.05299999937415123, 0.03999999910593033]","[0.0, 0.0, -0.6824937890365349]","[0.07216257601976395, 0.10887216031551361, 0.03999999910593033]","[0.0, -0.0, 0.1376864353718678]",0.6742443830336282,-1.9798502142300851,"(0.0, 0.0, 0.0, 0.0, 0.0, 0.0)",0.34523008433021124,-0.8281635344937409,-1.9158370237869804,"(0.0, 0.0, 0.0, 0.0, 0.0, 0.0)",0.046989708289177236,-0.6742444279053555,1.9798514108094807,"(0.0, 0.0, 0.0, 0.0, 0.0, 0.0)",-0.3452304573414294,0.8281629754068567,1.9158519335829844,"(0.0, 0.0, 0.0, 0.0, 0.0, 0.0)",-0.04698990114977892,False,,,,,False,,,,
12,Close,,,"(8.555941999099156e-08, 0.16999906193922792, 0.000908421947806545)","(1.5708075491537519, 6.311807488844542e-05, -1.4000595358663434e-05)",,"[-0.026750000193715096, 0.05299999937415123, 0.03999999910593033]","[0.0, -0.0, 0.6487117277688945]","[-0.070249542593956, 0.11037412285804749, 0.03999999910593033]","[0.0, 0.0, -0.20415830575541527]","[0.026750000193715096, 0.05299999937415123, 0.03999999910593033]","[0.0, 0.0, -0.6487117277688945]","[0.070249542593956, 0.11037411540746689, 0.03999999910593033]","[0.0, -0.0, 0.20415788801885543]",0.6438405657375271,-1.1690817530007243,"(0.0, 0.0, 0.0, 0.0, 0.0, 0.0)",0.20397674457790932,-0.8575834812137779,-1.1312243968345508,"(0.0, 0.0, 0.0, 0.0, 0.0, 0.0)",0.027828964636992654,-0.6438405922338334,1.1690824595688907,"(0.0, 0.0, 0.0, 0.0, 0.0, 0.0)",-0.20397696556653716,0.8575831510875931,1.1312332006820753,"(0.0, 0.0, 0.0, 0.0, 0.0, 0.0)",-0.027829079200348807,False,,,,,False,,,,
13,Close,,,"(5.567361934631568e-08, 0.16999906349286917, 0.0009359839309479349)","(1.5708039321322358, 3.37560108188707e-05, -1.3987283228090085e-05)",,"[-0.026750000193715096, 0.05299999937415123, 0.03999999910593033]","[0.0, -0.0, 0.62876384308693]","[-0.06909646838903427, 0.11123037338256836, 0.03999999910593033]","[0.0, 0.0, -0.24340789693353326]","[0.026750000193715096, 0.05299999937415123, 0.03999999910593033]","[0.0, 0.0, -0.62876384308693]","[0.06909646838903427, 0.11123037338256836, 0.03999999910593033]","[0.0, -0.0, 0.24340764580603796]",0.6258874156623524,-0.6903310843293964,"(0.0, 0.0, 0.0, 0.0, 0.0, 0.0)",0.12048853373387189,-0.8749547691894786,-0.6679421640099914,"(0.0, 0.0, 0.0, 0.0, 0.0, 0.0)",0.016461146679105913,-0.6258874313081562,0.6903315015508323,"(0.0, 0.0, 0.0, 0.0, 0.0, 0.0)",-0.12048866447898966,0.8749545742586229,0.6679473624521103,"(0.0, 0.0, 0.0, 0.0, 0.0, 0.0)",-0.016461214564379854,False,,,,,False,,,,
14,Move,,,"(0.0002849434880139787, 0.17128526654835666, 0.0018667775255450016)","(1.529867145493542, 0.001236551690390913, -0.0026252758006009144)","[0.0, 0.0, 0.0]","[-0.026750000193715096, 0.05299999937415123, 0.03999999910593033]","[0.0, -0.0, 0.5674368798319164]","[-0.06544800847768784, 0.113716259598732, 0.03999999910593033]","[0.0, 0.0, -0.23086444862254737]","[0.026750000193715096, 0.05299999937415123, 0.03999999910593033]","[0.0, 0.0, -0.5672775113046467]","[0.06543833017349243, 0.11372242867946625, 0.03999999910593033]","[0.0, -0.0, 0.2338230653212545]",0.5526433844132694,-3.5504372063580854,"(0.0, 0.0, 0.0, 0.0, 0.0, 0.0)",-74.66311326449657,-0.7739535469156117,5.843468067207706,"(0.0, 0.0, 0.0, 0.0, 0.0, 0.0)",-38.567738900473906,-0.5523653530093062,3.5789086898164406,"(0.0, 0.0, 0.0, 0.0, 0.0, 0.0)",70.97380681712595,0.7784689212282292,-5.431581853362886,"(0.0, 0.0, 0.0, 0.0, 0.0, 0.0)",36.631671368390464,True,"(-0.031139027298926508, 0.18549673152317092, 0.03999924353386678)","(0.9999971505660776, -0.0022642037706561637, -0.0007564661332230728)",-0.000503181178828863,565.4925793008347,True,"(0.030917119596597424, 0.1854085662421605, 0.04000075646613322)","(-0.9999971505660776, 0.002264203770598743, 0.0007564661332168607)",-0.0013606486484191646,538.0249494895718
15,Move,"(0.0, 0.0, 0.0)","(0.0, -0.0, 0.0)","(0.00016274991557831364, 0.17136475104845758, 0.0031640906121350575)","(1.4899865793592248, -0.0009251634143453488, -0.006053919932276661)","[-0.00012219357243566505, 7.948450010092367e-05, 0.001297313086590056]","[-0.026750000193715096, 0.05299999937415123, 0.03999999910593033]","[0.0, -0.0, 0.5448782568355026]","[-0.06406860798597336, 0.11457370966672897, 0.03999999910593033]","[0.0, 0.0, -0.2125956411648876]","[0.026750000193715096, 0.05299999937415123, 0.03999999910593033]","[0.0, 0.0, -0.5441825092896027]","[0.06402575969696045, 0.11459966003894806, 0.03999999910593033]","[0.0, -0.0, 0.21903630347083206]",0.5463765798653516,0.35960109272080254,"(0.0, 0.0, 0.0, 0.0, 0.0, 0.0)",-0.08406283938624641,-0.7590286933635231,-0.37315947580442554,"(0.0, 0.0, 0.0, 0.0, 0.0, 0.0)",-0.017297597694563044,-0.5456033040750284,-0.3409927387516254,"(0.0, 0.0, 0.0, 0.0, 0.0, 0.0)",0.7656171975284948,0.7645763731677416,0.32581485659360865,"(0.0, 0.0, 0.0, 0.0, 0.0, 0.0)",0.4026025408250114,True,"(-0.031076504252458274, 0.1869479334441972, 0.04000075744199429)","(0.9999871217005202, -0.0050182382101970815, 0.0007574419942935584)",-0.000622934270282677,0.221954412255134,True,"(0.03056815038234164, 0.1867763680017247, 0.03999924255800572)","(-0.9999871217005204, 0.005018238210180842, -0.0007574419942756659)",-0.0016523435419804678,5.374466445399798
16,Move,"(-0.0050632911392405, 0.0, 0.0)","(0.0, -0.0, 0.0)","(-0.0005727241889730553, 0.17138317433881758, 0.0031827084615032425)","(1.4932116251051724, -0.0008693440143140231, -0.009776256322728114)","[-0.000857667676987034, 9.790779046092712e-05, 0.001315930935958241]","[-0.026750000193715096, 0.05299999937415123, 0.03999999910593033]","[0.0, -0.0, 0.5518759949013156]","[-0.06449856609106064, 0.11431106179952621, 0.03999999910593033]","[0.0, 0.0, -0.2076875779658892]","[0.026750000193715096, 0.05299999937415123, 0.03999999910593033]","[0.0, 0.0, -0.5449391138276918]","[0.06407234817743301, 0.11457143723964691, 0.03999999910593033]","[0.0, -0.0, 0.2200325328394704]",0.5529961180803465,0.26883629346950816,"(0.0, 0.0, 0.0, 0.0, 0.0, 0.0)",-0.4022717526732414,-0.7592877081957673,0.0662006694203648,"(0.0, 0.0, 0.0, 0.0, 0.0, 0.0)",-0.1851150955015053,-0.544416403992244,0.12543877538399356,"(0.0, 0.0, 0.0, 0.0, 0.0, 0.0)",0.6462589095640311,0.7647524013640151,-0.052601746185509925,"(0.0, 0.0, 0.0, 0.0, 0.0, 0.0)",0.32318601655268286,True,"(-0.031862112914442894, 0.18683771614382952, 0.04000095226204718)","(0.999961430373931, -0.008731034389758668, 0.0009522620471821235)",-0.0004140618044292995,2.664658001375839,True,"(0.030542888235573926, 0.18671949158340623, 0.03999904773795281)","(-0.999961430373931, 0.008731034389756902, -0.0009522620471874023)",-0.0011023119515778767,4.963941473449978
17,Move,"(-0.010126582278481011, 0.0, 0.0)","(0.0, -0.0, 0.0)","(-0.0016213886227117301, 0.1715175566152092, 0.0021693225820740222)","(1.5294544087545088, -0.0017222824553105695, -0.01025211145550905)","[-0.0019063321107257087, 0.00023229006685254738, 0.0003025450565290206]","[-0.026750000193715096, 0.05299999937415123, 0.03999999910593033]","[0.0, -0.0, 0.5607362220078211]","[-0.06504031270742416, 0.1139741912484169, 0.03999999910593033]","[0.0, 0.0, -0.1983581308987215]","[0.026750000193715096, 0.05299999937415123, 0.03999999910593033]","[0.0, 0.0, -0.539914817275352]","[0.06376253068447113, 0.11475817859172821, 0.03999999910593033]","[0.0, -0.0, 0.22465453652232795]",0.5625469270805874,0.4345605860114112,"(0.0, 0.0, 0.0, 0.0, 0.0, 0.0)",-0.07070849069038236,-0.7591137022562154,-0.00464015838805043,"(0.0, 0.0, 0.0, 0.0, 0.0, 0.0)",-0.005219007808977746,-0.5388301247597562,0.26033193584179426,"(0.0, 0.0, 0.0, 0.0, 0.0, 0.0)",0.30142908575957356,0.7645762763453734,0.0016571582830212563,"(0.0, 0.0, 0.0, 0.0, 0.0, 0.0)",0.16818294277233348,True,"(-0.03308195204949924, 0.18679182833623997, 0.04000185402499128)","(0.9999508073809618, -0.009743993508536048, 0.0018540249912842358)",-0.00020602272777256133,0.0,True,"(0.029899999594679483, 0.1867561204551606, 0.03999814597500871)","(-0.9999508073809616, 0.009743993508537092, -0.0018540249912909086)",-0.0007347811902196838,2.5653293789591354
18,Move,"(-0.01518987341772152, 0.0, 0.0)","(0.0, -0.0, 0.0)","(-0.003066624699865607, 0.17181297552964456, 0.0006978651107768616)","(1.5901626503053472, 0.0007083559648552721, -0.0016564968101753558)","[-0.0033515681878795857, 0.0005277089812878999, -0.00116891241476814]","[-0.026750000193715096, 0.05299999937415123, 0.03999999910593033]","[0.0, -0.0, 0.5726267571733061]","[-0.06576260179281235, 0.11351460218429565, 0.03999999910593033]","[0.0, 0.0, -0.18649958116217882]","[0.026750000193715096, 0.05299999937415123, 0.03999999910593033]","[0.0, 0.0, -0.5311507215356317]","[0.06321986019611359, 0.11508018523454666, 0.03999999910593033]","[0.0, -0.0, 0.23341200126716685]",0.5748999569904898,0.5455571132754963,"(0.0, 0.0, 0.0, 0.0, 0.0, 0.0)",-0.08883946856387386,-0.7591251187859095,0.0003044407918402215,"(0.0, 0.0, 0.0, 0.0, 0.0, 0.0)",-0.006625045832556048,-0.5293529425211055,0.43146957472623065,"(0.0, 0.0, 0.0, 0.0, 0.0, 0.0)",2.745450732952778,0.7644543199047168,-0.02601435188511055,"(0.0, 0.0, 0.0, 0.0, 0.0, 0.0)",1.6398545263982824,True,"(-0.034670035104502506, 0.18669399890130345, 0.040004060488781454)","(0.9999420240888359, -0.009973008170924851, 0.004060488781451795)",-3.897314851656118e-05,0.0,True,"(0.028728173615948635, 0.18678780615649604, 0.039995939511218555)","(-0.9999420240888359, 0.009973008170936385, -0.004060488781448443)",-0.0004874605931714173,21.114653586078518
19,Move,"(-0.020253164556962022, 0.0, 0.0)","(0.0, -0.0, 0.0)","(-0.004648968526476926, 0.1720993729737723, 0.000958342038698697)","(1.5876651233215553, 0.0015689024428393852, 0.027157312358444877)","[-0.0049339120144909045, 0.000814106425415656, -0.0009084354868463047]","[-0.026750000193715096, 0.05299999937415123, 0.03999999910593033]","[0.0, -0.0, 0.5866916152479614]","[-0.06660984456539154, 0.11295992881059647, 0.03999999910593033]","[0.0, 0.0, -0.17202513348160514]","[0.026750000193715096, 0.05299999937415123, 0.03999999910593033]","[0.0, 0.0, -0.5181156769524071]","[0.062407564371824265, 0.11555028706789017, 0.03999999910593033]","[0.0, -0.0, 0.24576711215641173]",0.5893147796348799,0.6295587093730562,"(0.0, 0.0, 0.0, 0.0, 0.0, 0.0)",-0.516589696713111,-0.7585608287388259,0.03742128361378342,"(0.0, 0.0, 0.0, 0.0, 0.0, 0.0)",-0.23497813175025323,-0.5155303645548643,0.6204540605131986,"(0.0, 0.0, 0.0, 0.0, 0.0, 0.0)",0.363863462465441,0.7637156260106727,-0.04008935061990907,"(0.0, 0.0, 0.0, 0.0, 0.0, 0.0)",0.26438566567930005,True,"(-0.03657995783348941, 0.1865994558000534, 0.03999830269145466)","(0.9997506858655916, 0.022263990095691195, -0.001697308545349064)",-1.1198643134123641e-05,3.09979563596484,True,"(0.02703281297656153, 0.1868064160872989, 0.04000169730854536)","(-0.9997506858655916, -0.022263990095695733, 0.0016973085453580378)",-0.0003072864871954907,3.4889775546003396
20,Move,"(-0.025316455696202528, 0.0, 0.0)","(0.0, -0.0, 0.0)","(-0.006573144432204589, 0.1722282676142935, 0.0005677796436863192)","(1.5652542441462949, -0.0010920436252600317, 0.051374986591686336)","[-0.006858087920218568, 0.0009430010659368382, -0.0012989978818586825]","[-0.026750000193715096, 0.05299999937415123, 0.03999999910593033]","[0.0, -0.0, 0.603620633634649]","[-0.06761915236711502, 0.1122765764594078, 0.03999999910593033]","[0.0, 0.0, -0.154190660046508]","[0.026750000193715096, 0.05299999937415123, 0.03999999910593033]","[0.0, 0.0, -0.5012778450606811]","[0.061349350959062576, 0.11614178121089935, 0.03999999910593033]","[0.0, -0.0, 0.26162235972406106]",0.6068272015150834,0.7695493885541043,"(0.0, 0.0, 0.0, 0.0, 0.0, 0.0)",-0.17252657309098846,-0.7577690134145453,0.010171589457227896,"(0.0, 0.0, 0.0, 0.0, 0.0, 0.0)",-0.03577928323989347,-0.49807165596802117,0.7694772907477324,"(0.0, 0.0, 0.0, 0.0, 0.0, 0.0)",2.139952157402533,0.7627369294793379,-0.039180067281602046,"(0.0, 0.0, 0.0, 0.0, 0.0, 0.0)",1.3426161777286068,True,"(-0.03890779279259289, 0.1864508213453861, 0.040001997907881684)","(0.9986977297038485, 0.05097894711030126, 0.001997907881677144)",-9.332096759154301e-06,0.2961541426287589,True,"(0.02484988149844393, 0.18681523825522067, 0.03999800209211832)","(-0.9986977297038487, -0.0509789471102997, -0.0019979078816864376)",-0.00021745210804576453,17.06534610476534
21,Move,"(-0.03037974683544304, 0.0, 0.0)","(0.0, -0.0, 0.0)","(-0.009183816066676414, 0.17211817113448702, 0.0007230237876832461)","(1.5667445214989715, -0.0007627050276870104, 0.06262630269089291)","[-0.009468759554690393, 0.0008329045861303619, -0.0011437537378617556]","[-0.026750000193715096, 0.05299999937415123, 0.03999999910593033]","[0.0, -0.0, 0.6235815149514696]","[-0.0687941387295723, 0.11144904047250748, 0.03999999910593033]","[0.0, 0.0, -0.133786225652372]","[0.026750000193715096, 0.05299999937415123, 0.03999999910593033]","[0.0, 0.0, -0.48130026085579336]","[0.0600811131298542, 0.11682035028934479, 0.03999999910593033]","[0.0, -0.0, 0.2807990940404858]",0.6273119516881965,0.8953007988406986,"(0.0, 0.0, 0.0, 0.0, 0.0, 0.0)",-0.36945033996822213,-0.757272765494021,0.02279870789491163,"(0.0, 0.0, 0.0, 0.0, 0.0, 0.0)",-0.12629328739179915,-0.47756551407503334,0.8963498492916305,"(0.0, 0.0, 0.0, 0.0, 0.0, 0.0)",0.4315727558323881,0.7619572225503025,-0.03411922052708674,"(0.0, 0.0, 0.0, 0.0, 0.0, 0.0)",0.31575575842544906,True,"(-0.041601414371082085, 0.18618277696288113, 0.040000833473816395)","(0.9981692178583638, 0.06047741596182543, 0.0008334738163981957)",-9.989507929532693e-06,1.6598941822124764,True,"(0.022232522891911882, 0.18679055272008743, 0.03999916652618359)","(-0.9981692178583635, -0.06047741596182937, -0.0008334738164015817)",-0.00015618232108663787,4.325210353582677
22,Move,"(-0.03544303797468354, 0.0, 0.0)","(0.0, -0.0, 0.0)","(-0.0121158169849971, 0.1721249304126043, 0.0006562911237749764)","(1.5733292457395183, 0.0005661567893098809, 0.07554039302639372)","[-0.012400760473011078, 0.0008396638642476362, -0.0012104864017700252]","[-0.026750000193715096, 0.05299999937415123, 0.03999999910593033]","[0.0, -0.0, 0.6455649790015471]","[-0.07006878405809402, 0.11051071435213089, 0.03999999910593033]","[0.0, 0.0, -0.11062189587480668]","[0.026750000193715096, 0.05299999937415123, 0.03999999910593033]","[0.0, 0.0, -0.4584613493158834]","[0.058614954352378845, 0.11756488680839539, 0.03999999910593033]","[0.0, -0.0, 0.30222054116554]",0.6495697744983204,0.9611477039218632,"(0.0, 0.0, 0.0, 0.0, 0.0, 0.0)",-1.0605898443968755,-0.7559337363199172,0.060753252934083235,"(0.0, 0.0, 0.0, 0.0, 0.0, 0.0)",-0.4919420428592841,-0.45422881563886763,1.0157881600557381,"(0.0, 0.0, 0.0, 0.0, 0.0, 0.0)",0.887155543923164,0.7602794245712311,-0.09657682605292223,"(0.0, 0.0, 0.0, 0.0, 0.0, 0.0)",0.6085245877465343,True,"(-0.044613504996832726, 0.18584330421270495, 0.03999948737188851)","(0.9973583334875795, 0.07263671134693259, -0.0005126281114864131)",-1.4280017066031565e-05,6.7060714687660905,True,"(0.019275580797027514, 0.18671753608185337, 0.040000512628111475)","(-0.9973583334875785, -0.07263671134694635, 0.0005126281114767332)",-0.00012190542273166474,7.889309691076284
23,Move,"(-0.04050632911392405, 0.0, 0.0)","(0.0, -0.0, 0.0)","(-0.015247194288004274, 0.1718448131275899, 0.0007512938319933576)","(1.5709067714019778, -0.0004857258024429985, 0.08442157326484308)","[-0.015532137776018253, 0.0005595465792332388, -0.001115483693551644]","[-0.026750000193715096, 0.05299999937415123, 0.03999999910593033]","[0.0, -0.0, 0.6689058227042165]","[-0.07139921188354492, 0.10948405414819717, 0.03999999910593033]","[0.0, 0.0, -0.08520076935707491]","[0.026750000193715096, 0.05299999937415123, 0.03999999910593033]","[0.0, 0.0, -0.432873353995926]","[0.05695262551307678, 0.1183590218424797, 0.03999999910593033]","[0.0, -0.0, 0.3249107220776661]",0.6731393096562589,1.0160610357329805,"(0.0, 0.0, 0.0, 0.0, 0.0, 0.0)",-1.809377553583546,-0.7535692998489579,0.12892511948146437,"(0.0, 0.0, 0.0, 0.0, 0.0, 0.0)",-0.928171205681522,-0.4281521220583715,1.1331159210139383,"(0.0, 0.0, 0.0, 0.0, 0.0, 0.0)",1.26505991580591,0.7574235167784429,-0.08656291973194535,"(0.0, 0.0, 0.0, 0.0, 0.0, 0.0)",0.770772386508177,True,"(-0.04786567930677277, 0.18542503844135869, 0.04000053903171495)","(0.9964932206798398, 0.08367180280076754, 0.000539031714954553)",-1.4864571462317625e-05,12.31239520294468,True,"(0.016053389132847054, 0.18661289907709905, 0.03999946096828503)","(-0.9964932206798395, -0.08367180280077062, -0.0005390317149691895)",-0.00011082557408929945,10.792302144501354
24,Move,"(-0.045569620253164564, 0.0, 0.0)","(0.0, -0.0, 0.0)","(-0.018715242426078, 0.17147876934639028, 0.0008095745750816844)","(1.570101601675116, -0.0003600353458242931, 0.08910608826397953)","[-0.01900018591409198, 0.00019350279803362347, -0.0010572029504633171]","[-0.026750000193715096, 0.05299999937415123, 0.03999999910593033]","[0.0, -0.0, 0.6932990529613443]","[-0.07276362180709839, 0.10837821662425995, 0.03999999910593033]","[0.0, 0.0, -0.0573281507744052]","[0.026750000193715096, 0.05299999937415123, 0.03999999910593033]","[0.0, 0.0, -0.40479848431316146]","[0.05510601028800011, 0.1191810891032219, 0.03999999910593033]","[0.0, -0.0, 0.3496310291095422]",0.6977014629553931,1.056588886168949,"(0.0, 0.0, 0.0, 0.0, 0.0, 0.0)",-2.287526702812655,-0.7498370639448272,0.18962343259257092,"(0.0, 0.0, 0.0, 0.0, 0.0, 0.0)",-1.2248709683222025,-0.3996521219569836,1.235113220882483,"(0.0, 0.0, 0.0, 0.0, 0.0, 0.0)",2.0746559224481107,0.7538981031196674,-0.12752192018955827,"(0.0, 0.0, 0.0, 0.0, 0.0, 0.0)",1.1615216597957903,True,"(-0.0513533333792215, 0.1849226879894159, 0.04000062790713358)","(0.9960726158390026, 0.08853784336812139, 0.0006279071335806739)",-1.3874179774711208e-05,15.918719395124713,True,"(0.012530234889805529, 0.18642291929751892, 0.03999937209286642)","(-0.9960726158390033, -0.08853784336811632, -0.0006279071335724975)",-0.0001406247868895545,16.947100916331237
25,Move,"(-0.05063291139240507, 0.0, 0.0)","(0.0, -0.0, 0.0)","(-0.02232061652629605, 0.17111896861787085, 0.0008260167206116094)","(1.5723259150129996, -0.001172527662458316, 0.09270259672732463)","[-0.02260556001431003, -0.0001662979304858092, -0.0010407608049333922]","[-0.026750000193715096, 0.05299999937415123, 0.03999999910593033]","[0.0, -0.0, 0.7183647409394993]","[-0.0741371139883995, 0.10720758140087128, 0.03999999910593033]","[0.0, 0.0, -0.027538681063076144]","[0.026750000193715096, 0.05299999937415123, 0.03999999910593033]","[0.0, 0.0, -0.3745383882385658]","[0.053090691566467285, 0.12000871449708939, 0.03999999910593033]","[0.0, -0.0, 0.37506228187117807]",0.7228547010984303,1.0776037274363723,"(0.0, 0.0, 0.0, 0.0, 0.0, 0.0)",-2.770081462150909,-0.7450193066877254,0.21217451963383316,"(0.0, 0.0, 0.0, 0.0, 0.0, 0.0)",-1.5215498442841593,-0.36903197371512614,1.3215357228232532,"(0.0, 0.0, 0.0, 0.0, 0.0, 0.0)",3.281799084776795,0.748598455073657,-0.24052086234461934,"(0.0, 0.0, 0.0, 0.0, 0.0, 0.0)",1.7732115145259806,True,"(-0.05501343550022236, 0.18432954912429325, 0.04000127048975614)","(0.9957656476511675, 0.09191931686882042, 0.0012704897561359937)",-1.3401280818777085e-05,19.593592146529698,True,"(0.008816557902065564, 0.18616808262532947, 0.039998729510243865)","(-0.9957656476511669, -0.09191931686882567, -0.0012704897561343742)",-0.00017788886177659465,26.07248356700047
26,Move,"(-0.05569620253164558, 0.0, 0.0)","(0.0, -0.0, 0.0)","(-0.026104944854788835, 0.1705305292507475, 0.0008450042015125392)","(1.5702360085063096, -0.001172669146117146, 0.09745671454356401)","[-0.026389888342802814, -0.0007547372976091649, -0.0010217733240324624]","[-0.026750000193715096, 0.05299999937415123, 0.03999999910593033]","[0.0, -0.0, 0.7438029107957318]","[-0.07550057768821716, 0.10598472505807877, 0.03999999910593033]","[0.0, -0.0, 0.004180438439033861]","[0.026750000193715096, 0.05299999937415123, 0.03999999910593033]","[0.0, 0.0, -0.3422795845257424]","[0.05091574415564537, 0.12082342058420181, 0.03999999910593033]","[0.0, -0.0, 0.40110158825409126]",0.7483448961057902,1.0900824047179163,"(0.0, 0.0, 0.0, 0.0, 0.0, 0.0)",-3.882278564083554,-0.7383762074101345,0.2990977102128818,"(0.0, 0.0, 0.0, 0.0, 0.0, 0.0)",-2.195598390752305,-0.33641917291717244,1.4065043324955584,"(0.0, 0.0, 0.0, 0.0, 0.0, 0.0)",3.827678444783351,0.7422223584549246,-0.2781105445885027,"(0.0, 0.0, 0.0, 0.0, 0.0, 0.0)",2.0167925576109114,True,"(-0.058829384093233794, 0.18364761735899288, 0.04000139192245894)","(0.995314521674211, 0.09668022288092294, 0.0013919224589373893)",-1.4813707247817967e-05,28.098739523739344,True,"(0.004931791133477019, 0.18582875987411573, 0.03999860807754107)","(-0.9953145216742102, -0.0966802228809306, -0.0013919224589274072)",-0.00023189157855365376,30.279908578905708
27,Move,"(-0.060759493670886094, 0.0, 0.0)","(0.0, -0.0, 0.0)","(-0.030064880888564894, 0.170002799863443, 0.0008364022407244297)","(1.5716431947652172, -0.00065626989969233, 0.10181277430358605)","[-0.030349824376578873, -0.0012824666849136634, -0.001030375284820572]","[-0.026750000193715096, 0.05299999937415123, 0.03999999910593033]","[0.0, -0.0, 0.7693849441797946]","[-0.07683993875980377, 0.10472038388252258, 0.03999999910593033]","[0.0, -0.0, 0.03785745622800268]","[0.026750000193715096, 0.05299999937415123, 0.03999999910593033]","[0.0, 0.0, -0.30811024056732633]","[0.048584602773189545, 0.1216094046831131, 0.03999999910593033]","[0.0, -0.0, 0.4276144889807041]",0.7739407182643838,1.0933765358683687,"(0.0, 0.0, 0.0, 0.0, 0.0, 0.0)",-4.762636408536699,-0.729981235884823,0.3711082990264764,"(0.0, 0.0, 0.0, 0.0, 0.0, 0.0)",-2.745111500012467,-0.3019182387072543,1.4860729350668378,"(0.0, 0.0, 0.0, 0.0, 0.0, 0.0)",4.857337910229318,0.7342803822785633,-0.3466374365422458,"(0.0, 0.0, 0.0, 0.0, 0.0, 0.0)",2.5043551079607425,True,"(-0.06278976146032654, 0.1828713696212332, 0.04000083794610302)","(0.9948922141855817, 0.10093948681878086, 0.0008379461030252735)",-1.672081587932617e-05,34.93883151540177,True,"(0.0008910396341096707, 0.18539495740550216, 0.03999916205389697)","(-0.9948922141855817, -0.10093948681878193, -0.0008379461030301638)",-0.0002930161081480737,38.11751968290286
28,Move,"(-0.06582278481012659, 0.0, 0.0)","(0.0, -0.0, 0.0)","(-0.0341158978424549, 0.1692380918171065, 0.0008507179554281648)","(1.5699100363301792, -0.0005983007885785429, 0.10625856548131898)","[-0.034400841330468876, -0.0020471747312501565, -0.0010160595701168367]","[-0.026750000193715096, 0.05299999937415123, 0.03999999910593033]","[0.0, -0.0, 0.7949174945881093]","[-0.07814401388168335, 0.10342475026845932, 0.03999999910593033]","[0.0, -0.0, 0.07337645906792312]","[0.026750000193715096, 0.05299999937415123, 0.03999999910593033]","[0.0, 0.0, -0.2721681144088678]","[0.04610506817698479, 0.12234970182180405, 0.03999999910593033]","[0.0, -0.0, 0.45459677139444055]",0.7994462237033206,1.0869114874569148,"(0.0, 0.0, 0.0, 0.0, 0.0, 0.0)",-5.675435842026113,-0.7196770218385278,0.447345407792705,"(0.0, 0.0, 0.0, 0.0, 0.0, 0.0)",-3.3252093579705004,-0.26567126897161963,1.5592437112891953,"(0.0, 0.0, 0.0, 0.0, 0.0, 0.0)",5.9310081532679755,0.7249984069386851,-0.4239636413584138,"(0.0, 0.0, 0.0, 0.0, 0.0, 0.0)",2.999733526860372,True,"(-0.06687420550839489, 0.18199450115636184, 0.04000076658146688)","(0.9944377008065813, 0.10532365150988128, 0.0007665814668757738)",-2.0727743098614953e-05,42.115121718415075,True,"(-0.0032946398109247044, 0.1848477345987737, 0.03999923341853311)","(-0.994437700806582, -0.10532365150987463, -0.0007665814668880043)",-0.00037284171451907965,46.31926198408468
29,Move,"(-0.07088607594936709, 0.0, 0.0)","(0.0, -0.0, 0.0)","(-0.03821548975994014, 0.16862209930649616, 0.0007997787952240334)","(1.5726312339153017, 4.499184846228466e-05, 0.1149166622314797)","[-0.038500433247954116, -0.002663167241860498, -0.0010669987303209682]","[-0.026750000193715096, 0.05299999937415123, 0.03999999910593033]","[0.0, -0.0, 0.8201867794470894]","[-0.07940167188644409, 0.10211009532213211, 0.03999999910593033]","[0.0, -0.0, 0.11073164093969613]","[0.026750000193715096, 0.05299999937415123, 0.03999999910593033]","[0.0, 0.0, -0.23456726928360466]","[0.0434843935072422, 0.12302827835083008, 0.03999999910593033]","[0.0, -0.0, 0.4815633960186217]",0.8247739910869086,1.100935615862363,"(0.0, 0.0, 0.0, 0.0, 0.0, 0.0)",-8.660972408870531,-0.7072109327680975,0.5386079472310388,"(0.0, 0.0, 0.0, 0.0, 0.0, 0.0)",-3.947712464569904,-0.22779540458465217,1.6252457566902188,"(0.0, 0.0, 0.0, 0.0, 0.0, 0.0)",8.755483444987254,0.7126964206863919,-0.8242164865279136,"(0.0, 0.0, 0.0, 0.0, 0.0, 0.0)",4.8157195805250765,True,"(-0.07107252418045, 0.1810350521509957, 0.04000064119162422)","(0.9942976990488267, 0.10663805389967496, 0.0006411916242233703)",-2.374880478244992e-05,42.1936285966293,True,"(-0.007585240965295503, 0.18419404809913084, 0.03999929073131324)","(-0.9939689650627874, -0.10965944295837507, -0.0007092686867603911)",-0.00044548821017328656,65.80959133903349
30,Move,"(-0.07594936708860761, 0.0, 0.0)","(0.0, -0.0, 0.0)","(-0.04183845005797299, 0.1680206901639065, 0.0008295186657290228)","(1.5700465634789011, -0.0009501986679075025, 0.15196703157651684)","[-0.042123393545986966, -0.0032645763844501574, -0.001037258859815979]","[-0.026750000193715096, 0.05299999937415123, 0.03999999910593033]","[0.0, -0.0, 0.8455361238545583]","[-0.08062952756881714, 0.10075977444648743, 0.03999999910593033]","[0.0, -0.0, 0.14858900294911692]","[0.026750000193715096, 0.05299999937415123, 0.03999999910593033]","[0.0, 0.0, -0.19531185991338998]","[0.04072321951389313, 0.1236310750246048, 0.03999999910593033]","[0.0, -0.0, 0.5015249640566204]",0.8500042885503151,1.0723684329799836,"(0.0, 0.0, 0.0, 0.0, 0.0, 0.0)",-8.619145379577114,-0.6946428199831328,0.5530257264770161,"(0.0, 0.0, 0.0, 0.0, 0.0, 0.0)",-3.851897914395283,-0.18821525320396637,1.703185127809577,"(0.0, 0.0, 0.0, 0.0, 0.0, 0.0)",10.186632050054579,0.6934215594677962,-0.8196505836550791,"(0.0, 0.0, 0.0, 0.0, 0.0, 0.0)",5.795613250209301,True,"(-0.07529352819069488, 0.17994342687677156, 0.04000064119162422)","(0.9942976990488267, 0.10663805389967496, 0.0006411916242233703)",7.094768508628071e-05,39.7700051034962,True,"(-0.011555028449787647, 0.18375017212763178, 0.03999893964059975)","(-0.9894888664607264, -0.144605182438974, -0.0010603594002532547)",-0.000351163814467124,74.92269213039734
