OSUrobotics/InHand-Manipulation/AnalyseData/Data/Trial Data/old/new_hand_human_filt_josh_2v2_h_none_1_kpNone_kdNone_dp5_step5_save_data.csv
,Phase,human_cube_pos,human_cube_orn,Cube_Pos,Cube_Orn,Cube_pos_in_start_pos,b'l_prox_pin'_link_pos,b'l_prox_pin'_link_orn,b'l_distal_pin'_link_pos,b'l_distal_pin'_link_orn,b'r_prox_pin'_link_pos,b'r_prox_pin'_link_orn,b'r_distal_pin'_link_pos,b'r_distal_pin'_link_orn,b'l_prox_pin'_joint_angle,b'l_prox_pin'_joint_vel,b'l_prox_pin'_joint_react_forces,b'l_prox_pin'_joint_motor_torque,b'l_distal_pin'_joint_angle,b'l_distal_pin'_joint_vel,b'l_distal_pin'_joint_react_forces,b'l_distal_pin'_joint_motor_torque,b'r_prox_pin'_joint_angle,b'r_prox_pin'_joint_vel,b'r_prox_pin'_joint_react_forces,b'r_prox_pin'_joint_motor_torque,b'r_distal_pin'_joint_angle,b'r_distal_pin'_joint_vel,b'r_distal_pin'_joint_react_forces,b'r_distal_pin'_joint_motor_torque,in_contact_l,contact_point_l_dist,contact_normal_l_dist,contact_distance_l_dist,contact_norm_force_l_dist,in_contact_r,contact_point_r_dist,contact_normal_r_dist,contact_distance_r_dist,contact_norm_force_r_dist
0,Open,,,,,,"[-0.026750000193715096, 0.05299999937415123, 0.03999999910593033]","[0.0, -0.0, 0.42755761853039154]","[-0.056604765355587006, 0.1185186430811882, 0.03999999910593033]","[0.0, -0.0, 0.4463066270391506]","[0.026750000193715096, 0.05299999937415123, 0.03999999910593033]","[0.0, 0.0, -0.42757404208311445]","[0.05660583823919296, 0.1185181587934494, 0.03999999910593033]","[0.0, 0.0, -0.4465272228574986]",0.5418018724257314,27.418616735313837,"(0.0, 0.0, 0.0, 0.0, 0.0, 0.0)",-4.412236817968903,0.016874447698417276,-0.44988750389777044,"(0.0, 0.0, 0.0, 0.0, 0.0, 0.0)",-0.3112578673856835,-0.5418166170859073,-27.418223544375806,"(0.0, 0.0, 0.0, 0.0, 0.0, 0.0)",4.412120589674461,-0.017058187988154127,0.4547872631353701,"(0.0, 0.0, 0.0, 0.0, 0.0, 0.0)",0.31119999541872967,False,,,,,False,,,,
1,Open,,,,,,"[-0.026750000193715096, 0.05299999937415123, 0.03999999910593033]","[0.0, -0.0, 0.8953992050914552]","[-0.08294302970170975, 0.09801492840051651, 0.03999999910593033]","[0.0, -0.0, 0.9064715399310761]","[0.026750000193715096, 0.05299999937415123, 0.03999999910593033]","[0.0, 0.0, -0.8954089117450801]","[0.08294346183538437, 0.09801438450813293, 0.03999999910593033]","[0.0, 0.0, -0.9066016844299951]",0.9628592876486701,16.190418996035465,"(0.0, 0.0, 0.0, 0.0, 0.0, 0.0)",-2.616982039675733,0.009965290062605858,-0.26568209241480656,"(0.0, 0.0, 0.0, 0.0, 0.0, 0.0)",-0.18775783729375353,-0.9628679942230576,-16.190186820718473,"(0.0, 0.0, 0.0, 0.0, 0.0, 0.0)",2.6169116334278195,-0.010073786659150813,0.26857534621184953,"(0.0, 0.0, 0.0, 0.0, 0.0, 0.0)",0.187722108909745,False,,,,,False,,,,
2,Open,,,,,,"[-0.026750000193715096, 0.05299999937415123, 0.03999999910593033]","[0.0, -0.0, 1.17165497759142]","[-0.09309044480323792, 0.08098116517066956, 0.03999999910593033]","[0.0, -0.0, 1.1781937273122836]","[0.026750000193715096, 0.05299999937415123, 0.03999999910593033]","[0.0, 0.0, -1.1716605985979762]","[0.09309060126543045, 0.08098078519105911, 0.03999999910593033]","[0.0, 0.0, -1.178270796658152]",1.2114894807636634,9.56028051296898,"(0.0, 0.0, 0.0, 0.0, 0.0, 0.0)",-1.549346412635057,0.005885062316220725,-0.15689973638119079,"(0.0, 0.0, 0.0, 0.0, 0.0, 0.0)",-0.11225090666269867,-1.2114946219087734,-9.560143415766044,"(0.0, 0.0, 0.0, 0.0, 0.0, 0.0)",1.5493042197033076,-0.00594912834521185,0.1586081706180975,"(0.0, 0.0, 0.0, 0.0, 0.0, 0.0)",0.11222926703597672,False,,,,,False,,,,
3,Open,,,,,,"[-0.026750000193715096, 0.05299999937415123, 0.03999999910593033]","[0.0, -0.0, 1.3347813147466918]","[-0.09675397723913193, 0.06983575969934464, 0.03999999910593033]","[0.0, -0.0, 1.3386449621367835]","[0.026750000193715096, 0.05299999937415123, 0.03999999910593033]","[0.0, 0.0, -1.3347844615433213]","[0.0967540368437767, 0.06983552873134613, 0.03999999910593033]","[0.0, 0.0, -1.3386905382854437]",1.3583031234961356,5.645250040103052,"(0.0, 0.0, 0.0, 0.0, 0.0, 0.0)",-0.9162890978823036,0.0034783869891320215,-0.09247571818598516,"(0.0, 0.0, 0.0, 0.0, 0.0, 0.0)",-0.06677007440367574,-1.3583061592909116,-5.645169085575695,"(0.0, 0.0, 0.0, 0.0, 0.0, 0.0)",0.9162639666346021,-0.003516216695348753,0.09348456497972772,"(0.0, 0.0, 0.0, 0.0, 0.0, 0.0)",0.06675710630673855,False,,,,,False,,,,
4,Open,,,,,,"[-0.026750000193715096, 0.05299999937415123, 0.03999999910593033]","[0.0, -0.0, 1.4311058207082674]","[-0.09804865717887878, 0.06302504986524582, 0.03999999910593033]","[0.0, -0.0, 1.433390691262394]","[0.026750000193715096, 0.05299999937415123, 0.03999999910593033]","[0.0, 0.0, -1.4311075924426346]","[0.09804867953062057, 0.06302490830421448, 0.03999999910593033]","[0.0, 0.0, -1.433417470845748]",1.4449951113932331,3.333463696180452,"(0.0, 0.0, 0.0, 0.0, 0.0, 0.0)",-0.5415503506795546,0.0020570753203455715,-0.05468855210882702,"(0.0, 0.0, 0.0, 0.0, 0.0, 0.0)",-0.039594115216637325,-1.4449969039996904,-3.3334158933415914,"(0.0, 0.0, 0.0, 0.0, 0.0, 0.0)",0.541535435877482,-0.002079412775410495,0.055284250111531166,"(0.0, 0.0, 0.0, 0.0, 0.0, 0.0)",0.03958639191865308,False,,,,,False,,,,
5,Open,,,,,,"[-0.026750000193715096, 0.05299999937415123, 0.03999999910593033]","[0.0, -0.0, 1.4879842849605203]","[-0.09850326180458069, 0.05895565450191498, 0.03999999910593033]","[0.0, -0.0, 1.4893357278409396]","[0.026750000193715096, 0.05299999937415123, 0.03999999910593033]","[0.0, 0.0, -1.4879853833286059]","[0.09850326925516129, 0.05895556882023811, 0.03999999910593033]","[0.0, 0.0, -1.4893513332680077]",1.4961858633265903,1.9683769779575933,"(0.0, 0.0, 0.0, 0.0, 0.0, 0.0)",-0.31995094896823073,0.0012165319928285922,-0.03234212113369103,"(0.0, 0.0, 0.0, 0.0, 0.0, 0.0)",-0.02343792779000599,-1.4961869218427772,-1.9683487508592754,"(0.0, 0.0, 0.0, 0.0, 0.0, 0.0)",0.31994211580738524,-0.0012297216752996233,0.03269386530715718,"(0.0, 0.0, 0.0, 0.0, 0.0, 0.0)",0.02343334437795369,False,,,,,False,,,,
6,Open,,,,,,"[-0.026750000193715096, 0.05299999937415123, 0.03999999910593033]","[0.0, -0.0, 1.5215704989376362]","[-0.09866278618574142, 0.05654282122850418, 0.03999999910593033]","[0.0, -0.0, 1.5223694190215593]","[0.026750000193715096, 0.05299999937415123, 0.03999999910593033]","[0.0, 0.0, -1.5215710825913402]","[0.09866278618574142, 0.0565427765250206, 0.03999999910593033]","[0.0, 0.0, -1.522379029767931]",1.526413539404354,1.1623099690282845,"(0.0, 0.0, 0.0, 0.0, 0.0, 0.0)",-0.18898727353837322,0.0007187874536218427,-0.019167665429915808,"(0.0, 0.0, 0.0, 0.0, 0.0, 0.0)",-0.013858825048887309,-1.5264141154789415,-1.162290253894895,"(0.0, 0.0, 0.0, 0.0, 0.0, 0.0)",0.1889820689066884,-0.0007272435138164938,0.019333799908216237,"(0.0, 0.0, 0.0, 0.0, 0.0, 0.0)",0.013857245481857353,False,,,,,False,,,,
7,Close,,,"(1.2478112216283415e-07, 0.16999960627914334, 0.0003375139776509844)","(1.5703757789650807, 0.0001088681168706304, -5.122612185789874e-06)",,"[-0.026750000193715096, 0.05299999937415123, 0.03999999910593033]","[0.0, -0.0, 1.2785329680082034]","[-0.09569678455591202, 0.07374466955661774, 0.03999999910593033]","[0.0, -0.0, 1.0351044933740032]","[0.026750000193715096, 0.05299999937415123, 0.03999999910593033]","[0.0, 0.0, -1.2785333261376617]","[0.09569679200649261, 0.07374463975429535, 0.03999999910593033]","[0.0, 0.0, -1.0351103635395524]",1.210679568253955,-16.284797065638323,"(0.0, 0.0, 0.0, 0.0, 0.0, 0.0)",2.8094729942901537,-0.30908556319651087,-15.757718314759714,"(0.0, 0.0, 0.0, 0.0, 0.0, 0.0)",0.36615159115590434,-1.2106799710491603,16.284799227977604,"(0.0, 0.0, 0.0, 0.0, 0.0, 0.0)",-2.8094748287631877,0.30908100267353567,15.757905754197635,"(0.0, 0.0, 0.0, 0.0, 0.0, 0.0)",-0.3661543056198619,False,,,,,False,,,,
8,Close,,,"(3.0991841452431125e-07, 0.1699991530873768, 0.0005600347089338349)","(1.5707725584893357, 0.0003276471180493337, -1.5390016504502985e-05)",,"[-0.026750000193715096, 0.05299999937415123, 0.03999999910593033]","[0.0, -0.0, 1.0006669242927304]","[-0.08736184239387512, 0.09186135232448578, 0.03999999910593033]","[0.0, -0.0, 0.4883658375417343]","[0.026750000193715096, 0.05299999937415123, 0.03999999910593033]","[0.0, 0.0, -1.0006671906734346]","[0.08736184984445572, 0.09186133742332458, 0.03999999910593033]","[0.0, 0.0, -0.48836913363453477]",0.9606001782575858,-9.616004753696522,"(0.0, 0.0, 0.0, 0.0, 0.0, 0.0)",1.6672532597338259,-0.5510709342131068,-9.304775087650485,"(0.0, 0.0, 0.0, 0.0, 0.0, 0.0)",0.2218038316246824,-0.9606004161038776,9.616011096264304,"(0.0, 0.0, 0.0, 0.0, 0.0, 0.0)",-1.6672550934279327,0.5510682412699714,9.304846899467426,"(0.0, 0.0, 0.0, 0.0, 0.0, 0.0)",-0.22180471448499084,False,,,,,False,,,,
9,Close,,,"(2.933853975158492e-07, 0.16999904048792538, 0.0007066062154399696)","(1.5708337628024795, 0.00026866528465535426, -1.404448202163588e-05)",,"[-0.026750000193715096, 0.05299999937415123, 0.03999999910593033]","[0.0, -0.0, 0.8365897781630613]","[-0.08020010590553284, 0.1012398824095726, 0.03999999910593033]","[0.0, -0.0, 0.1655216300777486]","[0.026750000193715096, 0.05299999937415123, 0.03999999910593033]","[0.0, 0.0, -0.8365899294750984]","[0.08020011335611343, 0.101239874958992, 0.03999999910593033]","[0.0, 0.0, -0.16552354561180285]",0.8129307992589643,-5.678154646905714,"(0.0, 0.0, 0.0, 0.0, 0.0, 0.0)",0.9873874046247756,-0.6939614998476497,-5.494401756523904,"(0.0, 0.0, 0.0, 0.0, 0.0, 0.0)",0.13292461808566797,-0.8129309397048211,5.678158392128562,"(0.0, 0.0, 0.0, 0.0, 0.0, 0.0)",-0.9873885047617948,0.6939599096941702,5.494444160785504,"(0.0, 0.0, 0.0, 0.0, 0.0, 0.0)",-0.13292515552566841,False,,,,,False,,,,
10,Close,,,"(1.9902477861274505e-07, 0.16999905216518962, 0.0008031506137060285)","(1.5708213694470277, 0.0001751880104672085, -1.4031272711042213e-05)",,"[-0.026750000193715096, 0.05299999937415123, 0.03999999910593033]","[0.0, -0.0, 0.7397039398326887]","[-0.075282983481884, 0.10618411004543304, 0.03999999910593033]","[0.0, 0.0, -0.02511466061411134]","[0.026750000193715096, 0.05299999937415123, 0.03999999910593033]","[0.0, 0.0, -0.7397039829241547]","[0.0752829909324646, 0.10618410259485245, 0.03999999910593033]","[0.0, -0.0, 0.0251135229933516]",0.7257335076544258,-3.3528935374513567,"(0.0, 0.0, 0.0, 0.0, 0.0, 0.0)",0.584019607232898,-0.7783379477982092,-3.2446547698610297,"(0.0, 0.0, 0.0, 0.0, 0.0, 0.0)",0.07914034405393255,-0.7257335905862998,3.3528957489679954,"(0.0, 0.0, 0.0, 0.0, 0.0, 0.0)",-0.5840202627798898,0.7783370088350907,3.2446798102375136,"(0.0, 0.0, 0.0, 0.0, 0.0, 0.0)",-0.07914066690189424,False,,,,,False,,,,
11,Close,,,"(1.3069317882946781e-07, 0.16999905849316785, 0.0008666025578373041)","(1.570813038524343, 0.0001076496945073061, -1.4014808324094979e-05)",,"[-0.026750000193715096, 0.05299999937415123, 0.03999999910593033]","[0.0, -0.0, 0.6824937890365349]","[-0.07216256856918335, 0.10887216031551361, 0.03999999910593033]","[0.0, 0.0, -0.137687061272847]","[0.026750000193715096, 0.05299999937415123, 0.03999999910593033]","[0.0, 0.0, -0.6824937890365349]","[0.07216257601976395, 0.10887216031551361, 0.03999999910593033]","[0.0, -0.0, 0.13768639077427905]",0.6742443789348619,-1.9798501049296493,"(0.0, 0.0, 0.0, 0.0, 0.0, 0.0)",0.34523008410514117,-0.8281634795674689,-1.9158384885559399,"(0.0, 0.0, 0.0, 0.0, 0.0, 0.0)",0.04698972451979856,-0.6742444279053041,1.9798514108081116,"(0.0, 0.0, 0.0, 0.0, 0.0, 0.0)",-0.3452304733946161,0.8281629251343008,1.9158532742521004,"(0.0, 0.0, 0.0, 0.0, 0.0, 0.0)",-0.04698991720317202,False,,,,,False,,,,
12,Close,,,"(8.555941999099156e-08, 0.16999906193922792, 0.000908421947806545)","(1.5708075491537519, 6.311807488844542e-05, -1.4000595358663434e-05)",,"[-0.026750000193715096, 0.05299999937415123, 0.03999999910593033]","[0.0, -0.0, 0.6487117277688945]","[-0.070249542593956, 0.11037412285804749, 0.03999999910593033]","[0.0, 0.0, -0.2041582586087028]","[0.026750000193715096, 0.05299999937415123, 0.03999999910593033]","[0.0, 0.0, -0.6487117277688945]","[0.070249542593956, 0.11037411540746689, 0.03999999910593033]","[0.0, -0.0, 0.20415785837166703]",0.6438405633172466,-1.1690816884599091,"(0.0, 0.0, 0.0, 0.0, 0.0, 0.0)",0.2039767444979291,-0.8575834487811236,-1.131225261745947,"(0.0, 0.0, 0.0, 0.0, 0.0, 0.0)",0.027828974278331815,-0.6438405922338031,1.1690824595680833,"(0.0, 0.0, 0.0, 0.0, 0.0, 0.0)",-0.20397697510247603,0.8575831214029033,1.1312339923139756,"(0.0, 0.0, 0.0, 0.0, 0.0, 0.0)",-0.02782908873641072,False,,,,,False,,,,
13,Close,,,"(5.567361934631568e-08, 0.16999906349286917, 0.0009359839309479349)","(1.5708039321322358, 3.37560108188707e-05, -1.3987283228090085e-05)",,"[-0.026750000193715096, 0.05299999937415123, 0.03999999910593033]","[0.0, -0.0, 0.62876384308693]","[-0.06909646838903427, 0.11123037338256836, 0.03999999910593033]","[0.0, 0.0, -0.24340783776976954]","[0.026750000193715096, 0.05299999937415123, 0.03999999910593033]","[0.0, 0.0, -0.62876384308693]","[0.06909646838903427, 0.11123037338256836, 0.03999999910593033]","[0.0, -0.0, 0.2434076310150975]",0.6258874142332008,-0.6903310462186899,"(0.0, 0.0, 0.0, 0.0, 0.0, 0.0)",0.1204885337050377,-0.8749547500387713,-0.6679426747195857,"(0.0, 0.0, 0.0, 0.0, 0.0, 0.0)",0.016461152392145004,-0.6258874313081384,0.6903315015503582,"(0.0, 0.0, 0.0, 0.0, 0.0, 0.0)",-0.12048867012957383,0.8749545567305562,0.6679478298910244,"(0.0, 0.0, 0.0, 0.0, 0.0, 0.0)",-0.016461220215036404,False,,,,,False,,,,
14,Move,,,"(0.00028494344946541396, 0.1712852663147301, 0.0018667774895880552)","(1.5298671482106285, 0.0012365516306864098, -0.0026252757533488033)","[0.0, 0.0, 0.0]","[-0.026750000193715096, 0.05299999937415123, 0.03999999910593033]","[0.0, -0.0, 0.5674368798319164]","[-0.06544800847768784, 0.113716259598732, 0.03999999910593033]","[0.0, 0.0, -0.23086444862254737]","[0.026750000193715096, 0.05299999937415123, 0.03999999910593033]","[0.0, 0.0, -0.5672775113046467]","[0.06543833017349243, 0.11372242867946625, 0.03999999910593033]","[0.0, -0.0, 0.23382302092293214]",0.5526433822874409,-3.550437204604034,"(0.0, 0.0, 0.0, 0.0, 0.0, 0.0)",-74.66311014145099,-0.7739535412581937,5.843468089538122,"(0.0, 0.0, 0.0, 0.0, 0.0, 0.0)",-38.567737343756704,-0.5523653521081667,3.5789086929651774,"(0.0, 0.0, 0.0, 0.0, 0.0, 0.0)",70.9738036194028,0.778468916990721,-5.431581853068982,"(0.0, 0.0, 0.0, 0.0, 0.0, 0.0)",36.631669762246666,True,"(-0.031139027415713838, 0.18549673172008643, 0.03999924353394496)","(0.9999971505663093, -0.002264203694393614, -0.0007564660550398234)",-0.0005031810962532447,565.4925549533903,True,"(0.030917119782866556, 0.1854085663887603, 0.040000756466055026)","(-0.9999971505663092, 0.0022642036944026224, 0.0007564660550249229)",-0.0013606484278173429,538.0249247382576
15,Move,"(0.0, 0.0, 0.0)","(0.0, -0.0, 0.0)","(0.00016274988709927908, 0.17136475082364935, 0.0031640906622108166)","(1.4899865788314843, -0.0009251629973577648, -0.00605391967011983)","[-0.00012219356236613487, 7.948450891925862e-05, 0.0012973131726227614]","[-0.026750000193715096, 0.05299999937415123, 0.03999999910593033]","[0.0, -0.0, 0.5448782568355026]","[-0.06406860798597336, 0.11457370966672897, 0.03999999910593033]","[0.0, 0.0, -0.2125956411648876]","[0.026750000193715096, 0.05299999937415123, 0.03999999910593033]","[0.0, 0.0, -0.5441825092896027]","[0.06402575969696045, 0.11459966003894806, 0.03999999910593033]","[0.0, -0.0, 0.21903630347083206]",0.5463765778447969,0.3596010968781738,"(0.0, 0.0, 0.0, 0.0, 0.0, 0.0)",-0.08406267664734424,-0.7590286882688042,-0.3731595266406729,"(0.0, 0.0, 0.0, 0.0, 0.0, 0.0)",-0.017297502972575762,-0.545603303196857,-0.3409927400795594,"(0.0, 0.0, 0.0, 0.0, 0.0, 0.0)",0.7656169437909864,0.7645763694176897,0.3258148844489417,"(0.0, 0.0, 0.0, 0.0, 0.0, 0.0)",0.4026024010460023,True,"(-0.03107650436356027, 0.1869479336250488, 0.040000757441617726)","(0.9999871217019577, -0.005018237980604122, 0.0007574416177269428)",-0.0006229341785408108,0.22195317266258144,True,"(0.03056815054314993, 0.18677636813123777, 0.03999924255838229)","(-0.9999871217019578, 0.005018237980576212, -0.0007574416177139233)",-0.0016523433615075725,5.374464559869279
16,Move,"(0.0006000000000000001, 0.0, -0.00015000000000000001)","(0.0, -0.0, 0.0)","(6.8059928069193815e-06, 0.17133410198041943, 0.0031851716557535067)","(1.492949795222116, -0.0007158263822365997, -0.010261688568845382)","[-0.00027813745665849457, 4.883566568933406e-05, 0.0013183941661654515]","[-0.026750000193715096, 0.05299999937415123, 0.03999999910593033]","[0.0, -0.0, 0.5484244126453087]","[-0.0642867237329483, 0.11444098502397537, 0.03999999910593033]","[0.0, 0.0, -0.2111416983393069]","[0.026750000193715096, 0.05299999937415123, 0.03999999910593033]","[0.0, 0.0, -0.5483103872915298]","[0.0642797201871872, 0.114445261657238, 0.03999999910593033]","[0.0, -0.0, 0.21651800310872732]",0.5486135187881935,0.04538233517403702,"(0.0, 0.0, 0.0, 0.0, 0.0, 0.0)",-0.4107934482474192,-0.7593385046788922,0.05463007280627791,"(0.0, 0.0, 0.0, 0.0, 0.0, 0.0)",-0.19983494144879335,-0.5486976448442928,-0.09293630987282572,"(0.0, 0.0, 0.0, 0.0, 0.0, 0.0)",0.6922033420464734,0.7645266391508077,-0.072425946443087,"(0.0, 0.0, 0.0, 0.0, 0.0, 0.0)",0.3288803201909601,True,"(-0.031399924317941294, 0.18685676551478553, 0.04000072527095119)","(0.9999507507302858, -0.009897984440522695, 0.0007252709511895307)",-0.00041220784430432745,2.9899740822622225,True,"(0.03100399941969946, 0.18670836172439984, 0.03999927472904881)","(-0.9999507507302859, 0.00989798444052262, -0.0007252709511871472)",-0.001105472296915602,5.038292162087389
17,Move,"(0.0005, 0.0, -0.00015000000000000001)","(0.0, -0.0, 0.0)","(-4.547681833426203e-05, 0.17122522185913044, 0.0020897314165113194)","(1.5308457622434084, -0.0005378048562450358, -0.011650674574177794)","[-0.000330420267799676, -6.004445559965044e-05, 0.00022295392692326418]","[-0.026750000193715096, 0.05299999937415123, 0.03999999910593033]","[0.0, -0.0, 0.5497217363304344]","[-0.0643664002418518, 0.1143922358751297, 0.03999999910593033]","[0.0, 0.0, -0.20944521433738686]","[0.026750000193715096, 0.05299999937415123, 0.03999999910593033]","[0.0, 0.0, -0.5507605740661233]","[0.06443015486001968, 0.11435312777757645, 0.03999999910593033]","[0.0, -0.0, 0.21356827605312276]",0.5499735919259707,0.06044337643003851,"(0.0, 0.0, 0.0, 0.0, 0.0, 0.0)",-0.009795085405397457,-0.759183988522159,-0.00408153855778499,"(0.0, 0.0, 0.0, 0.0, 0.0, 0.0)",-0.0006851513208611882,-0.5512219815853238,-0.11073821258752668,"(0.0, 0.0, 0.0, 0.0, 0.0, 0.0)",0.017979202831271707,0.7643483513157125,0.0046811647799114165,"(0.0, 0.0, 0.0, 0.0, 0.0, 0.0)",0.0012891412530728393,True,"(-0.03160253007370385, 0.1868605635190253, 0.04000058704487601)","(0.9999355060148534, -0.011341921756594667, 0.0005870448760061877)",-0.0002404991060129951,0.0,True,"(0.03136772023107041, 0.18671255773796513, 0.039999412955124006)","(-0.9999355060148534, 0.011341921756600468, -0.0005870448759935095)",-0.0007116321884172243,0.0
18,Move,"(0.00047000000000000004, 0.0, -0.00018)","(0.0, -0.0, 0.0)","(-0.00024063432967417746, 0.17126499010700233, 0.0010462015819002973)","(1.5820182866128336, 0.0062549628434729184, -0.007347941987799896)","[-0.0005255777791395914, -2.0276207727765172e-05, -0.0008205759076877579]","[-0.026750000193715096, 0.05299999937415123, 0.03999999910593033]","[0.0, -0.0, 0.5505941332978453]","[-0.0644199401140213, 0.11435939371585846, 0.03999999910593033]","[0.0, 0.0, -0.20860072013353032]","[0.026750000193715096, 0.05299999937415123, 0.03999999910593033]","[0.0, 0.0, -0.5528537937112301]","[0.0645584985613823, 0.11427412182092667, 0.03999999910593033]","[0.0, -0.0, 0.21148771152220397]",0.5507001109573156,0.02544537898180834,"(0.0, 0.0, 0.0, 0.0, 0.0, 0.0)",-0.12032422750707907,-0.7591923308108721,0.0005904947608118692,"(0.0, 0.0, 0.0, 0.0, 0.0, 0.0)",-0.062307732202923384,-0.5531804018868268,-0.07839762082569647,"(0.0, 0.0, 0.0, 0.0, 0.0, 0.0)",0.013962577242203341,0.7643421527432971,0.0001652952644120029,"(0.0, 0.0, 0.0, 0.0, 0.0, 0.0)",0.0015723785606147208,True,"(-0.03171727637154294, 0.18685742371977554, 0.03999522956522063)","(0.9999529712758308, -0.00844382547504034, -0.004770434779373065)",-0.00012072483920035664,0.8682306615553582,True,"(0.03164663630086789, 0.1866972053846567, 0.040004770434779374)","(-0.9999529712758309, 0.008443825475040445, 0.004770434779374802)",-0.00043703344835804375,0.0
19,Move,"(0.00035000000000000005, 0.0, -0.00015000000000000001)","(0.0, -0.0, 0.0)","(-0.00020612841912480824, 0.1713011089933705, 0.0009845946187076648)","(1.5759239499882958, 0.005023344236366012, -0.008338342947875391)","[-0.0004910718685902221, 1.584267864040978e-05, -0.0008821828708803904]","[-0.026750000193715096, 0.05299999937415123, 0.03999999910593033]","[0.0, -0.0, 0.5507325409197674]","[-0.0644284337759018, 0.11435417830944061, 0.03999999910593033]","[0.0, 0.0, -0.20813063354659891]","[0.026750000193715096, 0.05299999937415123, 0.03999999910593033]","[0.0, 0.0, -0.5539073484273007]","[0.06462303549051285, 0.11423425376415253, 0.03999999910593033]","[0.0, -0.0, 0.2101654620995928]",0.5507162281574699,-0.003919832685742921,"(0.0, 0.0, 0.0, 0.0, 0.0, 0.0)",-0.5760347366128418,-0.7587646533736909,0.023648450131233175,"(0.0, 0.0, 0.0, 0.0, 0.0, 0.0)",-0.3235844051857231,-0.5540238330000088,-0.027955899137170975,"(0.0, 0.0, 0.0, 0.0, 0.0, 0.0)",0.03138572989651801,0.7640003173929747,-0.01738781695876932,"(0.0, 0.0, 0.0, 0.0, 0.0, 0.0)",0.015461125527732595,True,"(-0.0317598599607415, 0.1868674760614242, 0.03999454539939795)","(0.9999525658165802, -0.008069290496055008, -0.005454600602054573)",-8.315720889356133e-05,4.319923862338048,True,"(0.03180695634612912, 0.18669909549702862, 0.04000545460060205)","(-0.9999525658165803, 0.008069290496044547, 0.005454600602053044)",-0.0002717408954689276,0.1959337535822164
20,Move,"(0.00018, 0.0, -0.00022000000000000003)","(0.0, -0.0, 0.0)","(-0.0001906887740854766, 0.17130023323733443, 0.0009867604114244806)","(1.5742143112424987, 0.0033752059428301773, -0.008245318634062655)","[-0.00047563222355089056, 1.4966922604331412e-05, -0.0008800170781635747]","[-0.026750000193715096, 0.05299999937415123, 0.03999999910593033]","[0.0, -0.0, 0.5508412769309029]","[-0.06443510204553604, 0.1143500879406929, 0.03999999910593033]","[0.0, 0.0, -0.20742160825411285]","[0.026750000193715096, 0.05299999937415123, 0.03999999910593033]","[0.0, 0.0, -0.5546012004185353]","[0.06466551125049591, 0.11420796066522598, 0.03999999910593033]","[0.0, -0.0, 0.20936769311184578]",0.5508789321936554,0.0090495470056986,"(0.0, 0.0, 0.0, 0.0, 0.0, 0.0)",-0.3780283751316534,-0.7581483976974133,0.027467518469075684,"(0.0, 0.0, 0.0, 0.0, 0.0, 0.0)",-0.20975877472708854,-0.5547286479541633,-0.030600095505217695,"(0.0, 0.0, 0.0, 0.0, 0.0, 0.0)",0.004974602924271798,0.7639719792704397,0.0007556832675987834,"(0.0, 0.0, 0.0, 0.0, 0.0, 0.0)",0.00036256454403380234,True,"(-0.03181794618533838, 0.18688564017158205, 0.03999634916795369)","(0.9999593402116342, -0.008245565407104085, -0.0036508320463068894)",-6.283080283537126e-05,2.815768794817069,True,"(0.03190723593658936, 0.1866983385525151, 0.0400036508320463)","(-0.9999593402116342, 0.008245565407104492, 0.0036508320463004957)",-0.00013305875461548886,0.0
21,Move,"(0.00011999999999999999, 0.0, -0.00047000000000000004)","(0.0, -0.0, 0.0)","(-0.0001917285612323829, 0.17130106382313254, 0.0009880627942527285)","(1.573080476520196, 0.0022848635951541337, -0.008242937062433134)","[-0.00047667201069779685, 1.5797508402443095e-05, -0.0008787146953353267]","[-0.026750000193715096, 0.05299999937415123, 0.03999999910593033]","[0.0, -0.0, 0.5509727741443667]","[-0.06444317102432251, 0.11434512585401535, 0.03999999910593033]","[0.0, 0.0, -0.20673313713719263]","[0.026750000193715096, 0.05299999937415123, 0.03999999910593033]","[0.0, 0.0, -0.5552388623030029]","[0.0647045373916626, 0.11418376863002777, 0.03999999910593033]","[0.0, -0.0, 0.20873516614047471]",0.5509890541097533,0.003915972067204309,"(0.0, 0.0, 0.0, 0.0, 0.0, 0.0)",-0.3234869841794203,-0.7576111100972079,0.022733395808962498,"(0.0, 0.0, 0.0, 0.0, 0.0, 0.0)",-0.1794602913961625,-0.5553452632274789,-0.025532505251044665,"(0.0, 0.0, 0.0, 0.0, 0.0, 0.0)",0.004159044109196943,0.7639738385346592,-4.958037918623148e-05,"(0.0, 0.0, 0.0, 0.0, 0.0, 0.0)",0.0003107861691171871,True,"(-0.03187596618909268, 0.18690243782506413, 0.039997531613987045)","(0.9999629762199767, -0.008243376721792378, -0.0024683860129559236)",-5.186167119638775e-05,2.414002857229128,True,"(0.031992111191526784, 0.18669421718408022, 0.040002468386012964)","(-0.9999629762199769, 0.008243376721789188, 0.002468386012956798)",-7.197080672915695e-07,0.0
22,Move,"(-7.000000000000001e-05, 0.0, -0.0009)","(0.0, -0.0, 0.0)","(-0.0001924045189104464, 0.17130155879491987, 0.0009888361515666226)","(1.5723263846530309, 0.0015574492572860898, -0.008239974261782251)","[-0.00047734796837586033, 1.6292480189777914e-05, -0.0008779413380214326]","[-0.026750000193715096, 0.05299999937415123, 0.03999999910593033]","[0.0, -0.0, 0.5510131467528906]","[-0.06444564461708069, 0.11434360593557358, 0.03999999910593033]","[0.0, 0.0, -0.20622293258261448]","[0.026750000193715096, 0.05299999937415123, 0.03999999910593033]","[0.0, 0.0, -0.5556133017119634]","[0.06472744047641754, 0.11416955292224884, 0.03999999910593033]","[0.0, -0.0, 0.20836041290713603]",0.5510157741565438,0.0006393635523299385,"(0.0, 0.0, 0.0, 0.0, 0.0, 0.0)",-0.2785992659108907,-0.7571557461671174,0.01926872294473824,"(0.0, 0.0, 0.0, 0.0, 0.0, 0.0)",-0.15435193380711748,-0.5556596553194592,-0.011123630042941812,"(0.0, 0.0, 0.0, 0.0, 0.0, 0.0)",0.001811660190620886,0.7639737165483338,3.2529686757598597e-06,"(0.0, 0.0, 0.0, 0.0, 0.0, 0.0)",0.00013510048224543833,True,"(-0.03191546622705922, 0.18691701417472545, 0.03999832004491615)","(0.9999646352839693, -0.008240505586106518, -0.0016799550838444074)",-4.373289517546175e-05,2.081871468247626,True,"(0.032042189817746716, 0.1866918785681077, 0.040001679955083844)","(-0.9999646352839693, 0.008240505586108745, 0.0016799550838431652)",8.097830480161882e-05,0.0
23,Move,"(0.00015000000000000001, 0.0, -0.00087)","(0.0, -0.0, 0.0)","(-0.00019280299448800508, 0.17130179488005404, 0.0009892255251558067)","(1.5718396227334737, 0.0010777006083967453, -0.008233883803383496)","[-0.00047774644395341903, 1.65285653239422e-05, -0.0008775519644322485]","[-0.026750000193715096, 0.05299999937415123, 0.03999999910593033]","[0.0, -0.0, 0.550910640344779]","[-0.06443935632705688, 0.11434747278690338, 0.03999999910593033]","[0.0, 0.0, -0.20579458672059076]","[0.026750000193715096, 0.05299999937415123, 0.03999999910593033]","[0.0, 0.0, -0.5560618854805953]","[0.06475487351417542, 0.11415251344442368, 0.03999999910593033]","[0.0, -0.0, 0.20791190074981963]",0.550881783616283,-0.0069181510934467165,"(0.0, 0.0, 0.0, 0.0, 0.0, 0.0)",-0.35036108377229663,-0.7566012925619828,0.024939166858716725,"(0.0, 0.0, 0.0, 0.0, 0.0, 0.0)",-0.19212890312253317,-0.5561588363127393,-0.02327376938444647,"(0.0, 0.0, 0.0, 0.0, 0.0, 0.0)",0.003790570783433516,0.7639737245518566,-2.134272758524958e-07,"(0.0, 0.0, 0.0, 0.0, 0.0, 0.0)",0.0002827471939756484,True,"(-0.03194026895914511, 0.186934381595552, 0.039998840535050546)","(0.9999654183836448, -0.008235148927182398, -0.001159464949451265)",-3.9599614521970885e-05,2.623660761649513,True,"(0.03210215129104951, 0.186689036672397, 0.04000115946494945)","(-0.9999654183836449, 0.008235148927172083, 0.0011594649494483455)",0.00016182456001023654,0.0
24,Move,"(-2e-05, 0.0, 0.00022000000000000003)","(0.0, 0.17612117481874778, 0.0)","(0.00017607940034060688, 0.17130841093474117, 0.0009887917304506697)","(1.5714791823219285, 0.0007208947763162254, -0.012410298988035574)","[-0.00010886404912480708, 2.314462001107298e-05, -0.0008779857591373855]","[-0.026750000193715096, 0.05299999937415123, 0.03999999910593033]","[0.0, -0.0, 0.5483580867249795]","[-0.06428264826536179, 0.11444347351789474, 0.03999999910593033]","[0.0, 0.0, -0.20801452116105681]","[0.026750000193715096, 0.05299999937415123, 0.03999999910593033]","[0.0, 0.0, -0.5576223328462243]","[0.06485024839639664, 0.11409313231706619, 0.03999999910593033]","[0.0, -0.0, 0.20635145519287973]",0.5476843602023379,-0.16168803313478786,"(0.0, 0.0, 0.0, 0.0, 0.0, 0.0)",-0.5012757848770165,-0.7563634594315619,0.0021855322423424465,"(0.0, 0.0, 0.0, 0.0, 0.0, 0.0)",-0.3177692734183568,-0.557992452842771,-0.08884548647897361,"(0.0, 0.0, 0.0, 0.0, 0.0, 0.0)",0.014469771254901856,0.7639737240267455,1.4002964121573314e-08,"(0.0, 0.0, 0.0, 0.0, 0.0, 0.0)",0.0010792202018972581,True,"(-0.0316225096492391, 0.18695695254697295, 0.03999921825536217)","(0.9999328272297257, -0.011564164634282878, -0.000781744637831141)",-3.297793965485171e-05,3.985735629731342,True,"(0.03231077183322368, 0.18668229114263146, 0.040000781744637816)","(-0.999932827229726, 0.011564164634275908, 0.000781744637816136)",4.514147637530277e-05,0.0
25,Move,"(-0.00184, 0.0, 0.0031000000000000003)","(0.0, 0.08774468281476293, 0.0)","(0.00024060317018771926, 0.17130836252791312, 0.0009884888797122254)","(1.5711632174073673, 0.0004156381211426828, -0.012951397347700367)","[-4.434027927769469e-05, 2.3096213183027015e-05, -0.0008782886098758298]","[-0.026750000193715096, 0.05299999937415123, 0.03999999910593033]","[0.0, -0.0, 0.5487715165376816]","[-0.0643080398440361, 0.11442795395851135, 0.03999999910593033]","[0.0, 0.0, -0.20747930382626645]","[0.026750000193715096, 0.05299999937415123, 0.03999999910593033]","[0.0, 0.0, -0.5593212121811469]","[0.0649539902806282, 0.11402831971645355, 0.03999999910593033]","[0.0, -0.0, 0.20455306046239075]",0.5492249738023391,0.10883804243277861,"(0.0, 0.0, 0.0, 0.0, 0.0, 0.0)",-0.01769286631341964,-0.7562620499067374,-0.0027042539953156895,"(0.0, 0.0, 0.0, 0.0, 0.0, 0.0)",-0.0012891827975882548,-0.5595861738471058,-0.06360238785231687,"(0.0, 0.0, 0.0, 0.0, 0.0, 0.0)",0.010329664198442272,0.7638841679673571,0.0023881615836857844,"(0.0, 0.0, 0.0, 0.0, 0.0, 0.0)",0.0007436171411044434,True,"(-0.03168674563332141, 0.1869569775050393, 0.039999521455482336)","(0.9999160117099153, -0.012951467919935632, -0.00047854451766743877)",0.00018607506387904548,0.0,True,"(0.032545099779324724, 0.18667546532375356, 0.04000047854451765)","(-0.9999160117099152, 0.012951467919932326, 0.00047854451765550697)",0.00012402278631559578,0.0
26,Move,"(-0.0051400000000000005, 0.0, 0.007220000000000001)","(0.0, 0.034222415973104825, 0.0)","(0.00024035897236024352, 0.17130866792738159, 0.0009882746641717303)","(1.5709040296963868, 0.0001633508558880691, -0.012951322255710895)","[-4.458447710517044e-05, 2.340161265149132e-05, -0.0008785028254163249]","[-0.026750000193715096, 0.05299999937415123, 0.03999999910593033]","[0.0, -0.0, 0.5553440368872895]","[-0.06471095979213715, 0.11417977511882782, 0.03999999910593033]","[0.0, 0.0, -0.20092547128608276]","[0.026750000193715096, 0.05299999937415123, 0.03999999910593033]","[0.0, 0.0, -0.5601027347087613]","[0.06500167399644852, 0.11399844288825989, 0.03999999910593033]","[0.0, -0.0, 0.20378798340521337]",0.5568802026508165,0.36869735379164226,"(0.0, 0.0, 0.0, 0.0, 0.0, 0.0)",-0.0600431849308474,-0.7562687033856611,0.00017742610463233888,"(0.0, 0.0, 0.0, 0.0, 0.0, 0.0)",-0.004478453232210558,-0.5601775096388201,-0.017950155117302025,"(0.0, 0.0, 0.0, 0.0, 0.0, 0.0)",0.0029254278010582687,0.7638900437404137,-0.0001566872815068621,"(0.0, 0.0, 0.0, 0.0, 0.0, 0.0)",0.0002199755836469228,True,"(-0.032565768363751274, 0.18691448494768886, 0.039999812434928755)","(0.9999161152187646, -0.012950959237007013, -0.00018756507124842485)",0.0010528279684056993,0.0,True,"(0.032648364624443926, 0.18666959665308552, 0.04000018756507124)","(-0.9999161152187643, 0.012950959237018556, 0.0001875650712419628)",0.00023900763690845565,0.0
27,Move,"(-0.0092, 0.0, 0.01201)","(0.0, 0.034222415973104825, 0.0)","(0.00024029301030550416, 0.17130873730921456, 0.0009882826778818271)","(1.5708422699422921, 0.00010133713642172905, -0.012951197721248546)","[-4.46504391599098e-05, 2.3470994484464658e-05, -0.0008784948117062281]","[-0.026750000193715096, 0.05299999937415123, 0.03999999910593033]","[0.0, -0.0, 0.5679614579455524]","[-0.06547985970973969, 0.11369594931602478, 0.03999999910593033]","[0.0, 0.0, -0.18830717171235428]","[0.026750000193715096, 0.05299999937415123, 0.03999999910593033]","[0.0, 0.0, -0.5599566886451796]","[0.06499277055263519, 0.11400402337312698, 0.03999999910593033]","[0.0, -0.0, 0.20393284598957145]",0.5705704532130715,0.6261540868128668,"(0.0, 0.0, 0.0, 0.0, 0.0, 0.0)",-0.10195724667064894,-0.7562685297994605,2.7382297120976805e-05,"(0.0, 0.0, 0.0, 0.0, 0.0, 0.0)",-0.007599132949746482,-0.5598792441153378,0.018598904553913446,"(0.0, 0.0, 0.0, 0.0, 0.0, 0.0)",-0.0030293470519395286,0.7638896141404717,1.240850810358908e-05,"(0.0, 0.0, 0.0, 0.0, 0.0, 0.0)",-0.0002261156514868284,False,,,,,True,"(0.03262893603984304, 0.18667063769669806, 0.04000011109297174)","(-0.9999161279331569, 0.012950859334984063, 0.00011109297174006144)",0.00022263271862598357,0.0
28,Move,"(-0.0092, 0.0, 0.01201)","(0.0, 0.034222415973104825, 0.0)","(-0.0012488758094938057, 0.17162401903806382, 0.0024185946190949203)","(1.5143352616609995, -0.011836856543386782, 0.021047051864682864)","[-0.0015338192589592196, 0.00033875272333372397, 0.0005518171295068651]","[-0.026750000193715096, 0.05299999937415123, 0.03999999910593033]","[0.0, -0.0, 0.5168018263218468]","[-0.06232535466551781, 0.11559707671403885, 0.03999999910593033]","[0.0, 0.0, -0.18542234244667732]","[0.026750000193715096, 0.05299999937415123, 0.03999999910593033]","[0.0, 0.0, -0.50565070034283]","[0.06162513047456741, 0.11598987877368927, 0.03999999910593033]","[0.0, -0.0, 0.20042905923750193]",0.502297709491826,-3.480984406355261,"(0.0, 0.0, 0.0, 0.0, 0.0, 0.0)",-65.98238659469496,-0.6788407015715584,5.612028806335447,"(0.0, 0.0, 0.0, 0.0, 0.0, 0.0)",-34.64595206745135,-0.49170579296250844,3.3467771209131687,"(0.0, 0.0, 0.0, 0.0, 0.0, 0.0)",70.98899137565247,0.6813682624536194,-5.930749887407893,"(0.0, 0.0, 0.0, 0.0, 0.0, 0.0)",36.88772135958373,True,"(-0.03133158641599067, 0.18873373607554206, 0.04215752257879386)","(0.999719531697156, 0.02001973044047879, 0.012651811582120418)",-0.002766001249160257,487.7833272373369,True,"(0.029516109137860826, 0.18876959496627393, 0.04000009236174793)","(-0.9999161304534988, 0.012950811874501072, 9.236174793038903e-05)",-0.0003137642744952656,525.6591441021696
29,Move,"(-0.01281, 0.0, 0.016810000000000002)","(0.0, 0.03438473159354028, 0.0)","(-0.001333932179255239, 0.17176650134334925, 0.0039335841135723585)","(1.4661391449258547, -0.008017102492064913, 0.01965533140098598)","[-0.0016188756287206529, 0.0004812350286191591, 0.0020668066239843035]","[-0.026750000193715096, 0.05299999937415123, 0.03999999910593033]","[0.0, -0.0, 0.5072819987346308]","[-0.06172783672809601, 0.11593291163444519, 0.03999999910593033]","[0.0, 0.0, -0.15613609331633557]","[0.026750000193715096, 0.05299999937415123, 0.03999999910593033]","[0.0, 0.0, -0.48339938130158916]","[0.06021500751376152, 0.11675024032592773, 0.03999999910593033]","[0.0, -0.0, 0.1811723946568308]",0.5121336742639906,1.1644155579131252,"(0.0, 0.0, 0.0, 0.0, 0.0, 0.0)",-0.18508046253875143,-0.6649603071270099,-0.37014385185462745,"(0.0, 0.0, 0.0, 0.0, 0.0, 0.0)",-0.009635518859206752,-0.4845369750699098,-0.27301567474634925,"(0.0, 0.0, 0.0, 0.0, 0.0, 0.0)",0.4054276670343627,0.6661565703587996,0.38034429113263934,"(0.0, 0.0, 0.0, 0.0, 0.0, 0.0)",0.21096778643642847,True,"(-0.03288339260707529, 0.18994567709633808, 0.04157177577495395)","(0.9997511242140977, 0.020540589602466627, 0.008704815416233747)",-0.0010826506679592045,0.0,True,"(0.029532218733634128, 0.18997315252673386, 0.037846425249898535)","(-0.9997511332842066, -0.020540506058206023, -0.008703970807462921)",-0.00046913052007469593,2.6870637904405217
30,Move,"(-0.01548, 0.0, 0.021400000000000002)","(0.0, 0.06885498432042829, 0.0)","(-0.0014737933294007657, 0.17177960853552582, 0.004178844623931761)","(1.4614244755756463, -0.005326570377271359, 0.015139575709001436)","[-0.0017587367788661798, 0.0004943422207957238, 0.0023120671343437064]","[-0.026750000193715096, 0.05299999937415123, 0.03999999910593033]","[0.0, -0.0, 0.5322712368294563]","[-0.06328940391540527, 0.11503928154706955, 0.03999999910593033]","[0.0, 0.0, -0.1337009409301411]","[0.026750000193715096, 0.05299999937415123, 0.03999999910593033]","[0.0, 0.0, -0.48609415138812595]","[0.060386672616004944, 0.11665983498096466, 0.03999999910593033]","[0.0, -0.0, 0.18095686166266767]",0.5365137114016783,1.018190825839791,"(0.0, 0.0, 0.0, 0.0, 0.0, 0.0)",-0.1660599290595229,-0.6658709998065169,0.024285138120184513,"(0.0, 0.0, 0.0, 0.0, 0.0, 0.0)",-0.012640718834092582,-0.48623924949490116,-0.03482888156088953,"(0.0, 0.0, 0.0, 0.0, 0.0, 0.0)",0.1565145296209469,0.6668909231852791,-0.03841498594788291,"(0.0, 0.0, 0.0, 0.0, 0.0, 0.0)",0.07470436903666103,False,,,,,True,"(0.02970032022480367, 0.18999904834450593, 0.03999423226050974)","(-0.9998581479669468, -0.015824573462790155, -0.0057677394902608745)",-0.0003147671408679105,1.092410067516386
31,Move,"(-0.01548, 0.0, 0.021400000000000002)","(0.0, 0.06885498432042829, 0.0)","(-0.003474450211300518, 0.17420425584307314, 0.004154817566399218)","(1.4763022690735088, -0.018804139676410814, 0.03761918572044975)","[-0.0037593936607659318, 0.0029189895283430467, 0.002288040076811163]","[-0.026750000193715096, 0.05299999937415123, 0.03999999910593033]","[0.0, -0.0, 0.4869113063922563]","[-0.06043868511915207, 0.11663231998682022, 0.03999999910593033]","[0.0, 0.0, -0.12368619633063467]","[0.026750000193715096, 0.05299999937415123, 0.03999999910593033]","[0.0, 0.0, -0.4354560146242398]","[0.05712132155895233, 0.1182807981967926, 0.03999999910593033]","[0.0, -0.0, 0.17565157662687797]",0.47311219697684676,-3.3117831827990156,"(0.0, 0.0, 0.0, 0.0, 0.0, 0.0)",-66.02216803205043,-0.5868988670663436,5.687666497657118,"(0.0, 0.0, 0.0, 0.0, 0.0, 0.0)",-35.64999623345508,-0.4223392375721453,3.1480234060440195,"(0.0, 0.0, 0.0, 0.0, 0.0, 0.0)",66.17427553742186,0.5875900114079524,-5.644212027845259,"(0.0, 0.0, 0.0, 0.0, 0.0, 0.0)",35.509459427197264,True,"(-0.03401373987818547, 0.1914980303241534, 0.042163603373964506)","(0.9991090098817784, 0.037818996667371124, 0.018732588292219816)",-0.002793050623473888,479.14898487993696,True,"(0.026824471888103003, 0.19178240506612632, 0.03999506766178013)","(-0.9998811129500216, -0.01460931228741374, -0.0049323382198644995)",-0.00035723225470918796,479.198538385999
32,Move,"(-0.01821, 0.0, 0.02453)","(0.0, 0.03438473159354028, 0.0)","(-0.0037125410009606788, 0.17728700355220708, 0.003212820742029092)","(1.4997244360682769, -0.008107806585245292, 0.052497397305361834)","[-0.003997484450426093, 0.0060017372374769895, 0.001346043252441037]","[-0.026750000193715096, 0.05299999937415123, 0.03999999910593033]","[0.0, -0.0, 0.48427786330943784]","[-0.060270994901657104, 0.11672081798315048, 0.03999999910593033]","[0.0, 0.0, -0.08695033081332149]","[0.026750000193715096, 0.05299999937415123, 0.03999999910593033]","[0.0, 0.0, -0.4145540814735677]","[0.0557502880692482, 0.1189013123512268, 0.03999999910593033]","[0.0, -0.0, 0.15759046317656847]",0.49062413898966917,1.5231030700396302,"(0.0, 0.0, 0.0, 0.0, 0.0, 0.0)",-0.24337172238913485,-0.5727952701173469,-0.37609591863991465,"(0.0, 0.0, 0.0, 0.0, 0.0, 0.0)",-0.01390552742590901,-0.4156351323485079,-0.25946131265907707,"(0.0, 0.0, 0.0, 0.0, 0.0, 0.0)",0.3702738178665483,0.573678911097474,0.368253633159954,"(0.0, 0.0, 0.0, 0.0, 0.0, 0.0)",0.1855688962085335,True,"(-0.03661172345688733, 0.1924786834995318, 0.042156784135831696)","(0.9988410873832638, 0.04663211437437717, 0.011913356537691861)",-0.00023218057848239327,0.0,True,"(0.02680372462861757, 0.19277768701835724, 0.037843215864168306)","(-0.9988410873832637, -0.04663211437438172, -0.011913356537688801)",-0.0003833085869383563,2.3886490248181254
33,Move,"(-0.02009, 0.0, 0.02638)","(0.0, 0.03438473159354028, 0.0)","(-0.0042032573939399555, 0.17916197935646733, 0.001022347365151383)","(1.5625330011512344, 0.0036520578987985822, 0.07591651615433559)","[-0.004488200843405369, 0.007876713041737232, -0.0008444301244366723]","[-0.026750000193715096, 0.05299999937415123, 0.03999999910593033]","[0.0, -0.0, 0.5172868792798995]","[-0.06235571578145027, 0.11557981371879578, 0.03999999910593033]","[0.0, 0.0, -0.05653654181762059]","[0.026750000193715096, 0.05299999937415123, 0.03999999910593033]","[0.0, 0.0, -0.41582625535578316]","[0.05583410710096359, 0.11886436492204666, 0.03999999910593033]","[0.0, -0.0, 0.15883691629021832]",0.5229227976023447,1.3526215139926447,"(0.0, 0.0, 0.0, 0.0, 0.0, 0.0)",-0.22047501366891076,-0.5737203421026321,0.024738864813644453,"(0.0, 0.0, 0.0, 0.0, 0.0, 0.0)",-0.01668337712941114,-0.4156154941459973,0.050584807122034725,"(0.0, 0.0, 0.0, 0.0, 0.0, 0.0)",-0.00795276201910674,0.5745651618225743,-0.02352838883731731,"(0.0, 0.0, 0.0, 0.0, 0.0, 0.0)",-0.0003286756079195994,False,,,,,True,"(0.026795715684717496, 0.19269921446350163, 0.0378470215029503)","(-0.9985895052820078, -0.05247156233073987, -0.008107717755698083)",-0.0001934057160965267,0.0
34,Move,"(-0.02009, 0.0, 0.02638)","(0.0, 0.03438473159354028, 0.0)","(-0.0061297369632292735, 0.181103705976654, 0.0006402676909464407)","(1.5912627367261323, -0.01894822388146495, 0.09249420042653997)","[-0.006414680412694687, 0.009818439661923917, -0.0012265097986416144]","[-0.026750000193715096, 0.05299999937415123, 0.03999999910593033]","[0.0, -0.0, 0.4746259753781203]","[-0.059654418379068375, 0.11704138666391373, 0.03999999910593033]","[0.0, 0.0, -0.046427782980880565]","[0.026750000193715096, 0.05299999937415123, 0.03999999910593033]","[0.0, 0.0, -0.3660790354148328]","[0.05252290889620781, 0.12022913992404938, 0.03999999910593033]","[0.0, -0.0, 0.15515382722741305]",0.46076209844112076,-3.3273294917088103,"(0.0, 0.0, 0.0, 0.0, 0.0, 0.0)",-62.7476346731653,-0.4977405474707971,5.595169038635988,"(0.0, 0.0, 0.0, 0.0, 0.0, 0.0)",-34.34650343720405,-0.35335007338544316,3.054957856881315,"(0.0, 0.0, 0.0, 0.0, 0.0, 0.0)",63.30993816867376,0.4988614268401466,-5.369151088358559,"(0.0, 0.0, 0.0, 0.0, 0.0, 0.0)",33.5567132926255,True,"(-0.039084238575998256, 0.19370105250253156, 0.04216398974308318)","(0.995521775218382, 0.09257894085411399, 0.019118963789166814)",-0.0010643110408496016,447.2994376359894,True,"(0.02374145115558468, 0.19425391925923868, 0.04000334974720953)","(-0.9971290973661273, -0.07564616566254018, 0.00334974720953284)",-0.00028499634163816614,448.0009462486683
35,Move,"(-0.02205, 0.0, 0.02645)","(0.0, 0.053339007270198704, 0.0)","(-0.006826694098497238, 0.1826474638847793, 6.610910519102062e-05)","(1.5642824303960998, -0.009938627127049321, 0.11044601433533915)","[-0.0071116375479626515, 0.011362197570049193, -0.0018006683843970347]","[-0.026750000193715096, 0.05299999937415123, 0.03999999910593033]","[0.0, -0.0, 0.47491057063927195]","[-0.05967263877391815, 0.1170320212841034, 0.03999999910593033]","[0.0, 0.0, -0.007528688454191291]","[0.026750000193715096, 0.05299999937415123, 0.03999999910593033]","[0.0, 0.0, -0.3433843890223744]","[0.05099065974354744, 0.12079668790102005, 0.03999999910593033]","[0.0, -0.0, 0.14074592332698346]",0.4820721972731937,1.718796267365172,"(0.0, 0.0, 0.0, 0.0, 0.0, 0.0)",-0.2753138343316999,-0.48396936586951317,-0.36723150936757204,"(0.0, 0.0, 0.0, 0.0, 0.0, 0.0)",-0.01637921285035038,-0.34378502439977193,-0.09615066603828797,"(0.0, 0.0, 0.0, 0.0, 0.0, 0.0)",0.058705330034530934,0.48560221279238,0.35325680136977367,"(0.0, 0.0, 0.0, 0.0, 0.0, 0.0)",0.023521346524539508,True,"(-0.04209596139681508, 0.1944065388992811, 0.042158759871112665)","(0.9944689745689315, 0.10410836540965564, 0.013889091818662085)",0.001466331081380759,0.0,True,"(0.023412851169937805, 0.19426221395120158, 0.0338766747627425)","(-0.9944689745689325, -0.10410836540964795, -0.01388909181865671)",-0.0003699038754077466,0.3385201530237046
36,Move,"(-0.02248, 0.0, 0.026260000000000002)","(0.0, 0.01863837108204745, 0.0)","(-0.008188784448224658, 0.18295486766753424, 0.00017979600705226407)","(1.5673948165759743, 0.00447105309501577, 0.11413011209257501)","[-0.008473727897690072, 0.011669601352804149, -0.0016869814825357912]","[-0.026750000193715096, 0.05299999937415123, 0.03999999910593033]","[0.0, -0.0, 0.5111706216555153]","[-0.06197229400277138, 0.11579641699790955, 0.03999999910593033]","[0.0, -0.0, 0.026197307061392432]","[0.026750000193715096, 0.05299999937415123, 0.03999999910593033]","[0.0, 0.0, -0.3402569443505862]","[0.05077850818634033, 0.12087216228246689, 0.03999999910593033]","[0.0, -0.0, 0.1461874471070676]",0.5172643083786201,1.462491866236433,"(0.0, 0.0, 0.0, 0.0, 0.0, 0.0)",-0.23834938554321858,-0.48487289309437337,0.024094059329605066,"(0.0, 0.0, 0.0, 0.0, 0.0, 0.0)",-0.01801097093455838,-0.3392093291489552,0.2514206875479444,"(0.0, 0.0, 0.0, 0.0, 0.0, 0.0)",0.34174219908098563,0.48634499623279615,-0.02384604421368322,"(0.0, 0.0, 0.0, 0.0, 0.0, 0.0)",0.2018252005375352,False,,,,,True,"(0.022801866694459993, 0.19418150189212458, 0.03388062539105011)","(-0.9938579495688954, -0.11021616497479292, -0.0099384635110426)",-0.0002064600601797192,0.03344448046144084
37,Move,"(-0.02248, 0.0, 0.026260000000000002)","(0.0, 0.01863837108204745, 0.0)","(-0.011379707970701414, 0.1840956267688297, 0.0007171310375138159)","(1.562817372371764, -0.0038394493090702086, 0.1286630713499796)","[-0.011664651420166828, 0.012810360454099612, -0.0011496464520742394]","[-0.026750000193715096, 0.05299999937415123, 0.03999999910593033]","[0.0, -0.0, 0.4702469506390899]","[-0.05937366187572479, 0.11718486249446869, 0.03999999910593033]","[0.0, -0.0, 0.029226212244354483]","[0.026750000193715096, 0.05299999937415123, 0.03999999910593033]","[0.0, 0.0, -0.2911258481221951]","[0.04741622135043144, 0.12197033315896988, 0.03999999910593033]","[0.0, -0.0, 0.15130852197756486]",0.45682206559867067,-3.221965425514178,"(0.0, 0.0, 0.0, 0.0, 0.0, 0.0)",-59.038279161330486,-0.4189385993240882,5.299706170090034,"(0.0, 0.0, 0.0, 0.0, 0.0, 0.0)",-32.00744593859309,-0.27912163969328363,2.8809995344995754,"(0.0, 0.0, 0.0, 0.0, 0.0, 0.0)",59.455076914231185,0.42102052768100207,-5.139305385922513,"(0.0, 0.0, 0.0, 0.0, 0.0, 0.0)",30.95373807178493,True,"(-0.04465039477664961, 0.1951410426589878, 0.042149479973622166)","(0.9916836051237858, 0.12861719424842272, 0.004609194328161884)",-0.0005152283149494195,414.6622398774698,True,"(0.019064525509002075, 0.19513544304625402, 0.03388062539105011)","(-0.9938579495688954, -0.11021616497479292, -0.0099384635110426)",-0.00024875303364515393,417.3081792616338
38,Move,"(-0.022650000000000003, 0.0, 0.025740000000000002)","(0.0, 0.034222415973104825, 0.0)","(-0.012231191748934347, 0.18519087215833577, 0.0005537349611181231)","(1.5696279321971023, 0.0001171045782042184, 0.12555611689219687)","[-0.012516135198399761, 0.013905605843605673, -0.0013130425284699323]","[-0.026750000193715096, 0.05299999937415123, 0.03999999910593033]","[0.0, -0.0, 0.4711415447760501]","[-0.05943106859922409, 0.11715564876794815, 0.03999999910593033]","[0.0, -0.0, 0.0667373489343202]","[0.026750000193715096, 0.05299999937415123, 0.03999999910593033]","[0.0, 0.0, -0.2688647647280643]","[0.045875877141952515, 0.1224132627248764, 0.03999999910593033]","[0.0, -0.0, 0.13796859638425807]",0.4782454588182729,1.7049416987371082,"(0.0, 0.0, 0.0, 0.0, 0.0, 0.0)",-0.27328266592037903,-0.40585762795199465,-0.3488259032558285,"(0.0, 0.0, 0.0, 0.0, 0.0, 0.0)",-0.01643422643895195,-0.26900780012367714,-0.03432827003842043,"(0.0, 0.0, 0.0, 0.0, 0.0, 0.0)",0.001416477274674956,0.4082522683567065,0.3405386234965237,"(0.0, 0.0, 0.0, 0.0, 0.0, 0.0)",-0.0037402611016744717,False,,,,,True,"(0.01847830721058695, 0.19612241296831506, 0.034608178788496806)","(-0.9917282349534969, -0.12829795833156074, -0.003839516112059862)",-0.00024100026989605633,0.0
39,Move,"(-0.022650000000000003, 0.0, 0.025740000000000002)","(0.0, 0.034222415973104825, 0.0)","(-0.014669792117843866, 0.18641066620273528, 0.000537124309046542)","(1.5816181122130692, -0.011746630111777775, 0.1260032574900905)","[-0.01495473556730928, 0.015125399888005181, -0.0013296531805415132]","[-0.026750000193715096, 0.05299999937415123, 0.03999999910593033]","[0.0, -0.0, 0.4372065707958672]","[-0.05723555013537407, 0.1182275339961052, 0.03999999910593033]","[0.0, -0.0, 0.08161478400252578]","[0.026750000193715096, 0.05299999937415123, 0.03999999910593033]","[0.0, 0.0, -0.22469722582038812]","[0.04279240965843201, 0.12319003790616989, 0.03999999910593033]","[0.0, -0.0, 0.13507864452366514]",0.42495215895501104,-2.9410572920692672,"(0.0, 0.0, 0.0, 0.0, 0.0, 0.0)",-58.712244875927276,-0.33395812420927484,5.192075625318072,"(0.0, 0.0, 0.0, 0.0, 0.0, 0.0)",-31.85758048277798,-0.2132854282045209,2.738837619090617,"(0.0, 0.0, 0.0, 0.0, 0.0, 0.0)",59.34483657043349,0.33891429406380513,-5.006780280381293,"(0.0, 0.0, 0.0, 0.0, 0.0, 0.0)",30.728366692684283,True,"(-0.04658197682160045, 0.1964897917954683, 0.04422093901821216)","(0.9919122863004884, 0.12625465750463172, 0.013029878914489956)",-0.0020586878400035264,407.34878924144886,True,"(0.015607971602845203, 0.19697805718722974, 0.034608178788496806)","(-0.9917282349534969, -0.12829795833156074, -0.003839516112059862)",-0.00022610250132593936,407.91969340404
40,Move,"(-0.022600000000000002, 0.0, 0.02562)","(0.0, 0.034222415973104825, 0.0)","(-0.015792184031661157, 0.18753726179889332, 0.0001723992368305279)","(1.5649255402993332, -0.0006469671762574234, 0.12607999498473277)","[-0.016077127481126573, 0.01625199548416323, -0.0016943782527575274]","[-0.026750000193715096, 0.05299999937415123, 0.03999999910593033]","[0.0, -0.0, 0.4377489546070114]","[-0.057270925492048264, 0.11821098625659943, 0.03999999910593033]","[0.0, -0.0, 0.11966129808036839]","[0.026750000193715096, 0.05299999937415123, 0.03999999910593033]","[0.0, 0.0, -0.2040750416000121]","[0.0413416251540184, 0.12350592017173767, 0.03999999910593033]","[0.0, -0.0, 0.12128241750094026]",0.4441583558723358,1.5382556349504053,"(0.0, 0.0, 0.0, 0.0, 0.0, 0.0)",-0.24577888012869897,-0.31967471032398903,-0.38089103694095444,"(0.0, 0.0, 0.0, 0.0, 0.0, 0.0)",-0.014030823852662962,-0.20430019490468507,-0.05404299266071586,"(0.0, 0.0, 0.0, 0.0, 0.0, 0.0)",1.2030440793161532,0.3266276395155738,0.30484564230436595,"(0.0, 0.0, 0.0, 0.0, 0.0, 0.0)",0.649741362000763,True,"(-0.04960194788624801, 0.1968218436254633, 0.04422093901821216)","(0.9919122863004884, 0.12625465750463172, 0.013029878914489956)",0.0003746282956297516,0.0,True,"(0.015177736168989719, 0.19766194726515457, 0.034608178788496806)","(-0.9917282349534969, -0.12829795833156074, -0.003839516112059862)",1.9926764805426755e-05,8.132092559235474
41,Move,"(-0.02309, 0.0, 0.02556)","(0.0, 0.034222415973104825, 0.0)","(-0.01646152643806376, 0.18775197915951702, 0.00035648747782610985)","(1.5694258588090801, 0.005407126049530907, 0.12335342296390103)","[-0.016746469887529175, 0.01646671284478693, -0.0015102900117619454]","[-0.026750000193715096, 0.05299999937415123, 0.03999999910593033]","[0.0, -0.0, 0.469160102204519]","[-0.0593038834631443, 0.11722028255462646, 0.03999999910593033]","[0.0, -0.0, 0.1484441174795891]","[0.026750000193715096, 0.05299999937415123, 0.03999999910593033]","[0.0, 0.0, -0.20195805341729633]","[0.04119233414530754, 0.12353664636611938, 0.03999999910593033]","[0.0, -0.0, 0.125465060836332]",0.47433390738081943,1.2417170601434515,"(0.0, 0.0, 0.0, 0.0, 0.0, 0.0)",-0.20244136438137253,-0.32061184510900265,0.02499026093369583,"(0.0, 0.0, 0.0, 0.0, 0.0, 0.0)",-0.01535327309965117,-0.20127394147853228,0.16418558399455996,"(0.0, 0.0, 0.0, 0.0, 0.0, 0.0)",0.4041100683066009,0.32728719953498414,-0.03261775685290609,"(0.0, 0.0, 0.0, 0.0, 0.0, 0.0)",0.21940982271668594,False,,,,,True,"(0.019338415633781858, 0.16095298737159736, 0.029401895588211432)","(-0.9925274246881561, -0.12201988985395713, -0.0006765514945676564)",4.512112333026791e-05,0.0
42,Move,"(-0.02309, 0.0, 0.02556)","(0.0, 0.034222415973104825, 0.0)","(-0.02020908163437516, 0.18831302881033438, 0.0017287347261224781)","(1.5643023527069586, 0.016198671967303974, 0.13162988368844658)","[-0.020494025083840576, 0.01702776249560428, -0.0001380427634655771]","[-0.026750000193715096, 0.05299999937415123, 0.03999999910593033]","[0.0, -0.0, 0.4365587326139576]","[-0.05719329044222832, 0.11824727058410645, 0.03999999910593033]","[0.0, -0.0, 0.15220910808201682]","[0.026750000193715096, 0.05299999937415123, 0.03999999910593033]","[0.0, 0.0, -0.16109966877309212]","[0.0382990688085556, 0.12406770884990692, 0.03999999910593033]","[0.0, -0.0, 0.12180080907224917]",0.4265356366025254,-2.405547823260826,"(0.0, 0.0, 0.0, 0.0, 0.0, 0.0)",-83.50395372188223,-0.2658408840898765,4.442100956296187,"(0.0, 0.0, 0.0, 0.0, 0.0, 0.0)",-27.267675935433573,-0.15170622103957543,2.2544299298589388,"(0.0, 0.0, 0.0, 0.0, 0.0, 0.0)",85.13595001865643,0.261124224093628,-5.22629996235263,"(0.0, 0.0, 0.0, 0.0, 0.0, 0.0)",31.638124233542598,True,"(-0.04542317147131643, 0.15363764199325894, 0.05079564281957127)","(0.9896204121635889, 0.14370608729272974, -1.7440837959916864e-05)",-0.001458238806180087,677.8352068651766,True,"(0.01658240132379568, 0.16156387157443336, 0.029401895588211432)","(-0.9925274246881561, -0.12201988985395713, -0.0006765514945676564)",0.00033459834205654967,609.0577022438346
43,Move,"(-0.02338, 0.0, 0.025500000000000002)","(0.0, 0.053339007270198704, 0.0)","(-0.0211982794383549, 0.1894096157600172, 0.0012390037960568624)","(1.5720936612301921, 0.007787723124800065, 0.11910048075068273)","[-0.021483222887820317, 0.018124349445287097, -0.0006277736935311929]","[-0.026750000193715096, 0.05299999937415123, 0.03999999910593033]","[0.0, -0.0, 0.4389479529466366]","[-0.05734909325838089, 0.11817434430122375, 0.03999999910593033]","[0.0, -0.0, 0.18500248792539448]","[0.026750000193715096, 0.05299999937415123, 0.03999999910593033]","[0.0, 0.0, -0.14487277451028138]","[0.03714439272880554, 0.12424574792385101, 0.03999999910593033]","[0.0, -0.0, 0.10211651916069008]",0.44473378699465255,1.3885903220290432,"(0.0, 0.0, 0.0, 0.0, 0.0, 0.0)",-0.24496543407404794,-0.2551359351152832,-0.28570205611103133,"(0.0, 0.0, 0.0, 0.0, 0.0, 0.0)",-0.021078536692778815,-0.1453112387963133,-0.10523049871473411,"(0.0, 0.0, 0.0, 0.0, 0.0, 0.0)",0.013018214473602732,0.2484027772129037,0.33923858351361674,"(0.0, 0.0, 0.0, 0.0, 0.0, 0.0)",-0.0028417688035914704,True,"(-0.046745665753910454, 0.1539316043483724, 0.05079564281957127)","(0.9896204121635889, 0.14370608729272974, -1.7440837959916864e-05)",-0.0015318345200846224,0.21754347010084585,True,"(0.01616996770673997, 0.16216209814178523, 0.029401895588211432)","(-0.9925274246881561, -0.12201988985395713, -0.0006765514945676564)",0.0013589969574706975,0.0
44,Move,"(-0.0237, 0.0, 0.025400000000000002)","(0.0, 0.034222415973104825, 0.0)","(-0.021232142744007386, 0.1895278997144575, 0.0009899850679636333)","(1.5728480462966263, -0.0020519862761045875, 0.11728428638301526)","[-0.0215170861934728, 0.018242633399727398, -0.0008767924216244219]","[-0.026750000193715096, 0.05299999937415123, 0.03999999910593033]","[0.0, -0.0, 0.46705332511673764]","[-0.05916851386427879, 0.11728872358798981, 0.03999999910593033]","[0.0, -0.0, 0.2111377486491439]","[0.026750000193715096, 0.05299999937415123, 0.03999999910593033]","[0.0, 0.0, -0.14460709303439126]","[0.03712546080350876, 0.12424850463867188, 0.03999999910593033]","[0.0, -0.0, 0.10472307399548081]",0.4716565532160674,1.1047753904539785,"(0.0, 0.0, 0.0, 0.0, 0.0, 0.0)",-0.18008390709311822,-0.2558374096936608,0.018763345366543716,"(0.0, 0.0, 0.0, 0.0, 0.0, 0.0)",-0.013615848605512779,-0.14431153826382057,0.07093496879013106,"(0.0, 0.0, 0.0, 0.0, 0.0, 0.0)",-0.01128257500868842,0.24923744068055287,-0.02225520240566977,"(0.0, 0.0, 0.0, 0.0, 0.0, 0.0)",-0.0005911149181577753,True,"(-0.049808630411323274, 0.15473622282590674, 0.05094432261249823)","(0.9777876468542008, 0.20958189480268985, 0.0025975046176722094)",0.000377832303180883,0.0,False,,,,
45,Move,"(-0.0237, 0.0, 0.025400000000000002)","(0.0, 0.034222415973104825, 0.0)","(-0.02178877564286257, 0.19048855230602657, 0.0009967071206637)","(1.570142038535747, 2.428788317455309e-05, 0.12486437556805106)","[-0.022073719092327984, 0.019203285991296476, -0.0008700703689243552]","[-0.026750000193715096, 0.05299999937415123, 0.03999999910593033]","[0.0, -0.0, 0.4365747820161339]","[-0.05719433352351189, 0.11824677884578705, 0.03999999910593033]","[0.0, -0.0, 0.22289897835336692]","[0.026750000193715096, 0.05299999937415123, 0.03999999910593033]","[0.0, 0.0, -0.10644118924590655]","[0.03439930081367493, 0.12459251284599304, 0.03999999910593033]","[0.0, -0.0, 0.09525058350089559]",0.4269401689888393,-2.312301797458847,"(0.0, 0.0, 0.0, 0.0, 0.0, 0.0)",-74.8531742711929,-0.19576979768877997,4.297436285299745,"(0.0, 0.0, 0.0, 0.0, 0.0, 0.0)",-26.016682321604375,-0.09723962179422238,2.2083733476536707,"(0.0, 0.0, 0.0, 0.0, 0.0, 0.0)",79.53653508649482,0.1813236871363544,-4.888336582910114,"(0.0, 0.0, 0.0, 0.0, 0.0, 0.0)",29.5330934768404,True,"(-0.04828038261740307, 0.15582325056335614, 0.050943525102518164)","(0.9758870029670974, 0.2182681710304313, 0.0018875791180251616)",-0.0012051152691435643,662.5083121037251,True,"(0.013614057458210555, 0.163401863574411, 0.05095507331169521)","(-0.9954671853094237, -0.0951056192012983, 6.456369847347845e-05)",-0.0003667753563986214,717.7718777304132
46,Move,"(-0.023960000000000002, 0.0, 0.025380000000000003)","(0.0, 0.034222415973104825, 0.0)","(-0.02238116989141447, 0.19101310537576197, 0.0009816209096785882)","(1.5702306522642562, -0.00027852132790028006, 0.12558384308344323)","[-0.022666113340879885, 0.01972783906103187, -0.000885156579909467]","[-0.026750000193715096, 0.05299999937415123, 0.03999999910593033]","[0.0, -0.0, 0.4397360988603399]","[-0.05740044638514519, 0.11815021187067032, 0.03999999910593033]","[0.0, -0.0, 0.255754157193062]","[0.026750000193715096, 0.05299999937415123, 0.03999999910593033]","[0.0, 0.0, -0.08913387603332423]","[0.03315914422273636, 0.12471417337656021, 0.03999999910593033]","[0.0, -0.0, 0.07885181313068469]",0.4455109111025917,1.3859656980680193,"(0.0, 0.0, 0.0, 0.0, 0.0, 0.0)",-0.22218724682449215,-0.1851606549046224,-0.28291047424420146,"(0.0, 0.0, 0.0, 0.0, 0.0, 0.0)",-0.013373777000836208,-0.08918258251261675,-0.011689026192538927,"(0.0, 0.0, 0.0, 0.0, 0.0, 0.0)",0.34062906559382455,0.16933865705717735,0.32471238641718586,"(0.0, 0.0, 0.0, 0.0, 0.0, 0.0)",0.13163450866300253,True,"(-0.049793460962793606, 0.1562584994222215, 0.05094078706791526)","(0.967472539828131, 0.2529759639286222, 0.00021529721323937173)",-0.00034572458825676654,0.0,True,"(0.013013092335289592, 0.16385914242434416, 0.05095507331169521)","(-0.9954671853094237, -0.0951056192012983, 6.456369847347845e-05)",-0.0002911860675961103,2.781682017745998
47,Move,"(-0.024260000000000004, 0.0, 0.025580000000000006)","(0.0, 0.01863837108204745, 0.0)","(-0.022762029501508862, 0.19091320768257591, 0.000985253205388515)","(1.5704332237599645, -0.00021210403788322264, 0.1180458229024363)","[-0.023046972950974277, 0.01962794136784582, -0.0008815242841995403]","[-0.026750000193715096, 0.05299999937415123, 0.03999999910593033]","[0.0, -0.0, 0.46866043924447365]","[-0.05927179381251335, 0.11723653972148895, 0.03999999910593033]","[0.0, -0.0, 0.28272639884422474]","[0.026750000193715096, 0.05299999937415123, 0.03999999910593033]","[0.0, 0.0, -0.08576017789129974]","[0.032917167991399765, 0.12473539263010025, 0.03999999910593033]","[0.0, -0.0, 0.08447735410827117]",0.4734896360162635,1.1590071580091859,"(0.0, 0.0, 0.0, 0.0, 0.0, 0.0)",-0.18890553824216832,-0.18585672076269097,0.018561756215161655,"(0.0, 0.0, 0.0, 0.0, 0.0, 0.0)",-0.0142752262225524,-0.08482883836918662,0.2235212631749271,"(0.0, 0.0, 0.0, 0.0, 0.0, 0.0)",0.35423188839718917,0.17014901440369828,-0.021245596158532998,"(0.0, 0.0, 0.0, 0.0, 0.0, 0.0)",0.12668812743651683,False,,,,,True,"(0.01255122207650777, 0.16376640536635123, 0.05095507331169521)","(-0.9954671853094237, -0.0951056192012983, 6.456369847347845e-05)",-0.00019063553284194782,3.0364686228131244
48,Move,"(-0.024260000000000004, 0.0, 0.025580000000000006)","(0.0, 0.01863837108204745, 0.0)","(-0.0241082912179625, 0.191682631703261, 0.0011532267621258588)","(1.5720623501670317, -0.00601376274637272, 0.09763996561495879)","[-0.024393234667427915, 0.020397365388530903, -0.0007135507274621965]","[-0.026750000193715096, 0.05299999937415123, 0.03999999910593033]","[0.0, -0.0, 0.43840777051659063]","[-0.05731388181447983, 0.11819086968898773, 0.03999999910593033]","[0.0, -0.0, 0.2943635180112521]","[0.026750000193715096, 0.05299999937415123, 0.03999999910593033]","[0.0, 0.0, -0.05031702438890387]","[0.030371297150850296, 0.12490887194871902, 0.03999999910593033]","[0.0, -0.0, 0.07606044142365011]",0.428629025031481,-2.3468996224493144,"(0.0, 0.0, 0.0, 0.0, 0.0, 0.0)",-69.81146418997544,-0.12622582036763433,4.276429516159846,"(0.0, 0.0, 0.0, 0.0, 0.0, 0.0)",-25.47937354157458,-0.04210768992701698,1.9702409209823804,"(0.0, 0.0, 0.0, 0.0, 0.0, 0.0)",73.64454191047464,0.10764357022983874,-4.496135072520882,"(0.0, 0.0, 0.0, 0.0, 0.0, 0.0)",27.0323955670867,True,"(-0.05153652620065373, 0.15772865771936634, 0.050941473131748516)","(0.9569646220138999, 0.2901478464711867, 0.005739285837653385)",-0.0015728987422334053,645.1754748879735,True,"(0.010334591502508619, 0.16410992449743875, 0.05095507331169521)","(-0.9954671853094237, -0.0951056192012983, 6.456369847347845e-05)",-0.00015964917466773713,648.1776140877628
49,Move,"(-0.02417, 0.0, 0.02556)","(0.0, 0.034222415973104825, 0.0)","(-0.024622374951425337, 0.19210876481501502, 0.0009986990601812702)","(1.5717568156100767, -0.0012440618934136407, 0.09667368511673101)","[-0.024907318400890752, 0.02082349850028492, -0.0008680784294067851]","[-0.026750000193715096, 0.05299999937415123, 0.03999999910593033]","[0.0, -0.0, 0.4394795890390404]","[-0.057383742183446884, 0.11815807223320007, 0.03999999910593033]","[0.0, -0.0, 0.3249275377144952]","[0.026750000193715096, 0.05299999937415123, 0.03999999910593033]","[0.0, 0.0, -0.03562512023833776]","[0.029314465820789337, 0.12495431303977966, 0.03999999910593033]","[0.0, -0.0, 0.05969452323835696]",0.44476710263310687,1.2689892894055754,"(0.0, 0.0, 0.0, 0.0, 0.0, 0.0)",-0.2031870185748433,-0.11571948921223273,-0.280168830810661,"(0.0, 0.0, 0.0, 0.0, 0.0, 0.0)",-0.011991305580604699,-0.03587122813652588,-0.05906645307302326,"(0.0, 0.0, 0.0, 0.0, 0.0, 0.0)",0.3763617787941396,0.09655070587319693,0.2954576427290262,"(0.0, 0.0, 0.0, 0.0, 0.0, 0.0)",0.13141706178480933,True,"(-0.05288592578026753, 0.1580576088998829, 0.05093832354965941)","(0.9476638707740739, 0.3192511935178529, 0.0034443383872733604)",-0.0005519301556715947,0.0,True,"(0.009921976124746448, 0.16447802048041818, 0.05095507331169521)","(-0.9954671853094237, -0.0951056192012983, 6.456369847347845e-05)",-0.00022174490780945612,3.2947264048765237
50,Move,"(-0.024040000000000002, 0.0, 0.025679999999999998)","(0.0, 0.034222415973104825, 0.0)","(-0.024848356817537377, 0.19210914021413147, 0.0009705046469131817)","(1.571417339929749, -9.705575172317956e-06, 0.09283600384714319)","[-0.025133300267002792, 0.02082387389940138, -0.0008962728426748735]","[-0.026750000193715096, 0.05299999937415123, 0.03999999910593033]","[0.0, -0.0, 0.4650444590132391]","[-0.05903930217027664, 0.11735371500253677, 0.03999999910593033]","[0.0, -0.0, 0.34855904560117523]","[0.026750000193715096, 0.05299999937415123, 0.03999999910593033]","[0.0, 0.0, -0.034640547715457874]","[0.029243620112538338, 0.12495680898427963, 0.03999999910593033]","[0.0, -0.0, 0.06271545204394655]",0.4692190067871635,1.0018962715948687,"(0.0, 0.0, 0.0, 0.0, 0.0, 0.0)",-0.1633367270397458,-0.11640880959933861,0.018381876989490363,"(0.0, 0.0, 0.0, 0.0, 0.0, 0.0)",-0.012372065859081452,-0.03424981252567957,0.09377615130215802,"(0.0, 0.0, 0.0, 0.0, 0.0, 0.0)",0.42291374494011386,0.09727620759038279,-0.019150425821942325,"(0.0, 0.0, 0.0, 0.0, 0.0, 0.0)",0.14716999205701706,False,,,,,True,"(0.009731820655280138, 0.16442174669526963, 0.05095507331169521)","(-0.9954671853094237, -0.0951056192012983, 6.456369847347845e-05)",-0.000146817544713916,3.600094598089284
