OSUrobotics/InHand-Manipulation/AnalyseData/Data/Trial Data/Better/new_hand_expected_exp_2v2_c_n_1_kpNone_kdNone_dp5_step5_save_data.csv
,Phase,human_cube_pos,human_cube_orn,Cube_Pos,Cube_Orn,Cube_pos_in_start_pos,b'l_prox_pin'_link_pos,b'l_prox_pin'_link_orn,b'l_distal_pin'_link_pos,b'l_distal_pin'_link_orn,b'r_prox_pin'_link_pos,b'r_prox_pin'_link_orn,b'r_distal_pin'_link_pos,b'r_distal_pin'_link_orn,b'l_prox_pin'_joint_angle,b'l_prox_pin'_joint_vel,b'l_prox_pin'_joint_react_forces,b'l_prox_pin'_joint_motor_torque,b'l_distal_pin'_joint_angle,b'l_distal_pin'_joint_vel,b'l_distal_pin'_joint_react_forces,b'l_distal_pin'_joint_motor_torque,b'r_prox_pin'_joint_angle,b'r_prox_pin'_joint_vel,b'r_prox_pin'_joint_react_forces,b'r_prox_pin'_joint_motor_torque,b'r_distal_pin'_joint_angle,b'r_distal_pin'_joint_vel,b'r_distal_pin'_joint_react_forces,b'r_distal_pin'_joint_motor_torque,in_contact_l,contact_point_l_dist,contact_normal_l_dist,contact_distance_l_dist,contact_norm_force_l_dist,in_contact_r,contact_point_r_dist,contact_normal_r_dist,contact_distance_r_dist,contact_norm_force_r_dist
0,Open,,,,,,"[-0.026750000193715096, 0.05299999937415123, 0.03999999910593033]","[0.0, -0.0, 0.42755761853039154]","[-0.056604765355587006, 0.1185186430811882, 0.03999999910593033]","[0.0, -0.0, 0.4463066270391506]","[0.026750000193715096, 0.05299999937415123, 0.03999999910593033]","[0.0, 0.0, -0.42757404208311445]","[0.05660583823919296, 0.1185181587934494, 0.03999999910593033]","[0.0, 0.0, -0.4465272228574986]",0.5418018724257314,27.418616735313837,"(0.0, 0.0, 0.0, 0.0, 0.0, 0.0)",-4.412236817968903,0.016874447698417276,-0.44988750389777044,"(0.0, 0.0, 0.0, 0.0, 0.0, 0.0)",-0.3112578673856835,-0.5418166170859073,-27.418223544375806,"(0.0, 0.0, 0.0, 0.0, 0.0, 0.0)",4.412120589674461,-0.017058187988154127,0.4547872631353701,"(0.0, 0.0, 0.0, 0.0, 0.0, 0.0)",0.31119999541872967,False,,,,,False,,,,
1,Open,,,,,,"[-0.026750000193715096, 0.05299999937415123, 0.03999999910593033]","[0.0, -0.0, 0.8953992050914552]","[-0.08294302970170975, 0.09801492840051651, 0.03999999910593033]","[0.0, -0.0, 0.9064715399310761]","[0.026750000193715096, 0.05299999937415123, 0.03999999910593033]","[0.0, 0.0, -0.8954089117450801]","[0.08294346183538437, 0.09801438450813293, 0.03999999910593033]","[0.0, 0.0, -0.9066016844299951]",0.9628592876486701,16.190418996035465,"(0.0, 0.0, 0.0, 0.0, 0.0, 0.0)",-2.616982039675733,0.009965290062605858,-0.26568209241480656,"(0.0, 0.0, 0.0, 0.0, 0.0, 0.0)",-0.18775783729375353,-0.9628679942230576,-16.190186820718473,"(0.0, 0.0, 0.0, 0.0, 0.0, 0.0)",2.6169116334278195,-0.010073786659150813,0.26857534621184953,"(0.0, 0.0, 0.0, 0.0, 0.0, 0.0)",0.187722108909745,False,,,,,False,,,,
2,Open,,,,,,"[-0.026750000193715096, 0.05299999937415123, 0.03999999910593033]","[0.0, -0.0, 1.17165497759142]","[-0.09309044480323792, 0.08098116517066956, 0.03999999910593033]","[0.0, -0.0, 1.1781937273122836]","[0.026750000193715096, 0.05299999937415123, 0.03999999910593033]","[0.0, 0.0, -1.1716605985979762]","[0.09309060126543045, 0.08098078519105911, 0.03999999910593033]","[0.0, 0.0, -1.178270796658152]",1.2114894807636634,9.56028051296898,"(0.0, 0.0, 0.0, 0.0, 0.0, 0.0)",-1.549346412635057,0.005885062316220725,-0.15689973638119079,"(0.0, 0.0, 0.0, 0.0, 0.0, 0.0)",-0.11225090666269867,-1.2114946219087734,-9.560143415766044,"(0.0, 0.0, 0.0, 0.0, 0.0, 0.0)",1.5493042197033076,-0.00594912834521185,0.1586081706180975,"(0.0, 0.0, 0.0, 0.0, 0.0, 0.0)",0.11222926703597672,False,,,,,False,,,,
3,Open,,,,,,"[-0.026750000193715096, 0.05299999937415123, 0.03999999910593033]","[0.0, -0.0, 1.3347813147466918]","[-0.09675397723913193, 0.06983575969934464, 0.03999999910593033]","[0.0, -0.0, 1.3386449621367835]","[0.026750000193715096, 0.05299999937415123, 0.03999999910593033]","[0.0, 0.0, -1.3347844615433213]","[0.0967540368437767, 0.06983552873134613, 0.03999999910593033]","[0.0, 0.0, -1.3386905382854437]",1.3583031234961356,5.645250040103052,"(0.0, 0.0, 0.0, 0.0, 0.0, 0.0)",-0.9162890978823036,0.0034783869891320215,-0.09247571818598516,"(0.0, 0.0, 0.0, 0.0, 0.0, 0.0)",-0.06677007440367574,-1.3583061592909116,-5.645169085575695,"(0.0, 0.0, 0.0, 0.0, 0.0, 0.0)",0.9162639666346021,-0.003516216695348753,0.09348456497972772,"(0.0, 0.0, 0.0, 0.0, 0.0, 0.0)",0.06675710630673855,False,,,,,False,,,,
4,Open,,,,,,"[-0.026750000193715096, 0.05299999937415123, 0.03999999910593033]","[0.0, -0.0, 1.4311058207082674]","[-0.09804865717887878, 0.06302504986524582, 0.03999999910593033]","[0.0, -0.0, 1.433390691262394]","[0.026750000193715096, 0.05299999937415123, 0.03999999910593033]","[0.0, 0.0, -1.4311075924426346]","[0.09804867953062057, 0.06302490830421448, 0.03999999910593033]","[0.0, 0.0, -1.433417470845748]",1.4449951113932331,3.333463696180452,"(0.0, 0.0, 0.0, 0.0, 0.0, 0.0)",-0.5415503506795546,0.0020570753203455715,-0.05468855210882702,"(0.0, 0.0, 0.0, 0.0, 0.0, 0.0)",-0.039594115216637325,-1.4449969039996904,-3.3334158933415914,"(0.0, 0.0, 0.0, 0.0, 0.0, 0.0)",0.541535435877482,-0.002079412775410495,0.055284250111531166,"(0.0, 0.0, 0.0, 0.0, 0.0, 0.0)",0.03958639191865308,False,,,,,False,,,,
5,Open,,,,,,"[-0.026750000193715096, 0.05299999937415123, 0.03999999910593033]","[0.0, -0.0, 1.4879842849605203]","[-0.09850326180458069, 0.05895565450191498, 0.03999999910593033]","[0.0, -0.0, 1.4893357278409396]","[0.026750000193715096, 0.05299999937415123, 0.03999999910593033]","[0.0, 0.0, -1.4879853833286059]","[0.09850326925516129, 0.05895556882023811, 0.03999999910593033]","[0.0, 0.0, -1.4893513332680077]",1.4961858633265903,1.9683769779575933,"(0.0, 0.0, 0.0, 0.0, 0.0, 0.0)",-0.31995094896823073,0.0012165319928285922,-0.03234212113369103,"(0.0, 0.0, 0.0, 0.0, 0.0, 0.0)",-0.02343792779000599,-1.4961869218427772,-1.9683487508592754,"(0.0, 0.0, 0.0, 0.0, 0.0, 0.0)",0.31994211580738524,-0.0012297216752996233,0.03269386530715718,"(0.0, 0.0, 0.0, 0.0, 0.0, 0.0)",0.02343334437795369,False,,,,,False,,,,
6,Open,,,,,,"[-0.026750000193715096, 0.05299999937415123, 0.03999999910593033]","[0.0, -0.0, 1.5215704989376362]","[-0.09866278618574142, 0.05654282495379448, 0.03999999910593033]","[0.0, -0.0, 1.522369838325666]","[0.026750000193715096, 0.05299999937415123, 0.03999999910593033]","[0.0, 0.0, -1.5215710825913402]","[0.09866278618574142, 0.0565427765250206, 0.03999999910593033]","[0.0, 0.0, -1.522379029767931]",1.5264134904357183,1.1623069217141797,"(0.0, 0.0, 0.0, 0.0, 0.0, 0.0)",-0.18898727227709852,0.000719444125508032,-0.019126791845346432,"(0.0, 0.0, 0.0, 0.0, 0.0, 0.0)",-0.013859938289241243,-1.5264141154789415,-1.162290253894895,"(0.0, 0.0, 0.0, 0.0, 0.0, 0.0)",0.18898204730565804,-0.0007272322869396521,0.019334487584604668,"(0.0, 0.0, 0.0, 0.0, 0.0, 0.0)",0.013857223880827028,False,,,,,False,,,,
7,Close,,,"(1.2478112216283415e-07, 0.16999960627914334, 0.0003375139776509844)","(1.5703757789650807, 0.0001088681168706304, -5.122612185789874e-06)",,"[-0.026750000193715096, 0.05299999937415123, 0.03999999910593033]","[0.0, -0.0, 1.2785329680082034]","[-0.09569678455591202, 0.07374466955661774, 0.03999999910593033]","[0.0, -0.0, 1.0351044933740032]","[0.026750000193715096, 0.05299999937415123, 0.03999999910593033]","[0.0, 0.0, -1.2785333261376617]","[0.09569679200649261, 0.07374463975429535, 0.03999999910593033]","[0.0, 0.0, -1.0351099865887758]",1.2106796019673873,-16.28478938579699,"(0.0, 0.0, 0.0, 0.0, 0.0, 0.0)",2.809472854136235,-0.3090860149933808,-15.757821278062295,"(0.0, 0.0, 0.0, 0.0, 0.0, 0.0)",0.3661538009495806,-1.2106799710491603,16.284799227977608,"(0.0, 0.0, 0.0, 0.0, 0.0, 0.0)",-2.8094757422584213,0.30908141619234186,15.75794391320213,"(0.0, 0.0, 0.0, 0.0, 0.0, 0.0)",-0.3661552191151056,False,,,,,False,,,,
8,Close,,,"(3.0991841452431125e-07, 0.1699991530873768, 0.0005600347089338349)","(1.5707725584893357, 0.0003276471180493337, -1.5390016504502985e-05)",,"[-0.026750000193715096, 0.05299999937415123, 0.03999999910593033]","[0.0, -0.0, 1.0006670909649218]","[-0.08736184239387512, 0.09186135232448578, 0.03999999910593033]","[0.0, -0.0, 0.48836557737534114]","[0.026750000193715096, 0.05299999937415123, 0.03999999910593033]","[0.0, 0.0, -1.0006671906734346]","[0.08736184984445572, 0.09186133742332458, 0.03999999910593033]","[0.0, 0.0, -0.4883688154364048]",0.9606001981650306,-9.616005284561718,"(0.0, 0.0, 0.0, 0.0, 0.0, 0.0)",1.667253264949997,-0.5510712009946406,-9.304767973476249,"(0.0, 0.0, 0.0, 0.0, 0.0, 0.0)",0.2218037572572205,-0.9606004161041268,9.616011096270952,"(0.0, 0.0, 0.0, 0.0, 0.0, 0.0)",-1.6672550198735234,0.5510684854486152,9.30484038803693,"(0.0, 0.0, 0.0, 0.0, 0.0, 0.0)",-0.22180464092959223,False,,,,,False,,,,
9,Close,,,"(2.933853975158492e-07, 0.16999904048792538, 0.0007066062154399696)","(1.5708337628024795, 0.00026866528465535426, -1.404448202163588e-05)",,"[-0.026750000193715096, 0.05299999937415123, 0.03999999910593033]","[0.0, -0.0, 0.8365897781630613]","[-0.08020010590553284, 0.1012398824095726, 0.03999999910593033]","[0.0, -0.0, 0.16552144688028117]","[0.026750000193715096, 0.05299999937415123, 0.03999999910593033]","[0.0, 0.0, -0.8365899294750984]","[0.08020011335611343, 0.101239874958992, 0.03999999910593033]","[0.0, 0.0, -0.1655233971102189]",0.8129308110141114,-5.678154960376304,"(0.0, 0.0, 0.0, 0.0, 0.0, 0.0)",0.9873874064507416,-0.6939616573792659,-5.494397555666588,"(0.0, 0.0, 0.0, 0.0, 0.0, 0.0)",0.13292457281458034,-0.8129309397049683,5.678158392132489,"(0.0, 0.0, 0.0, 0.0, 0.0, 0.0)",-0.987388459985631,0.6939600538790082,5.494440315842426,"(0.0, 0.0, 0.0, 0.0, 0.0, 0.0)",-0.13292511074891808,False,,,,,False,,,,
10,Close,,,"(1.9902477861274505e-07, 0.16999905216518962, 0.0008031506137060285)","(1.5708213694470277, 0.0001751880104672085, -1.4031272711042213e-05)",,"[-0.026750000193715096, 0.05299999937415123, 0.03999999910593033]","[0.0, -0.0, 0.7397039398326887]","[-0.075282983481884, 0.10618411004543304, 0.03999999910593033]","[0.0, 0.0, -0.025114755601520013]","[0.026750000193715096, 0.05299999937415123, 0.03999999910593033]","[0.0, 0.0, -0.7397039829241547]","[0.0752829909324646, 0.10618410259485245, 0.03999999910593033]","[0.0, -0.0, 0.025113617980755978]",0.7257335145957226,-3.3528937225526034,"(0.0, 0.0, 0.0, 0.0, 0.0, 0.0)",0.5840196078844049,-0.7783380408184963,-3.244652289205478,"(0.0, 0.0, 0.0, 0.0, 0.0, 0.0)",0.07914031685893824,-0.7257335905863868,3.3528957489703144,"(0.0, 0.0, 0.0, 0.0, 0.0, 0.0)",-0.5840202358821991,0.778337093974245,3.2446775397467595,"(0.0, 0.0, 0.0, 0.0, 0.0, 0.0)",-0.07914064000385382,False,,,,,False,,,,
11,Close,,,"(1.3069317882946781e-07, 0.16999905849316785, 0.0008666025578373041)","(1.570813038524343, 0.0001076496945073061, -1.4014808324094979e-05)",,"[-0.026750000193715096, 0.05299999937415123, 0.03999999910593033]","[0.0, -0.0, 0.6824937890365349]","[-0.07216256856918335, 0.10887216031551361, 0.03999999910593033]","[0.0, 0.0, -0.137687120736303]","[0.026750000193715096, 0.05299999937415123, 0.03999999910593033]","[0.0, 0.0, -0.6824937890365349]","[0.07216257601976395, 0.10887216031551361, 0.03999999910593033]","[0.0, -0.0, 0.1376864353718678]",0.6742443830336282,-1.9798502142300851,"(0.0, 0.0, 0.0, 0.0, 0.0, 0.0)",0.34523008433021124,-0.8281635344937409,-1.9158370237869804,"(0.0, 0.0, 0.0, 0.0, 0.0, 0.0)",0.046989708289177236,-0.6742444279053555,1.9798514108094807,"(0.0, 0.0, 0.0, 0.0, 0.0, 0.0)",-0.3452304573414294,0.8281629754068567,1.9158519335829844,"(0.0, 0.0, 0.0, 0.0, 0.0, 0.0)",-0.04698990114977892,False,,,,,False,,,,
12,Close,,,"(8.555941999099156e-08, 0.16999906193922792, 0.000908421947806545)","(1.5708075491537519, 6.311807488844542e-05, -1.4000595358663434e-05)",,"[-0.026750000193715096, 0.05299999937415123, 0.03999999910593033]","[0.0, -0.0, 0.6487117277688945]","[-0.070249542593956, 0.11037412285804749, 0.03999999910593033]","[0.0, 0.0, -0.20415830575541527]","[0.026750000193715096, 0.05299999937415123, 0.03999999910593033]","[0.0, 0.0, -0.6487117277688945]","[0.070249542593956, 0.11037411540746689, 0.03999999910593033]","[0.0, -0.0, 0.20415788801885543]",0.6438405657375271,-1.1690817530007243,"(0.0, 0.0, 0.0, 0.0, 0.0, 0.0)",0.20397674457790932,-0.8575834812137779,-1.1312243968345508,"(0.0, 0.0, 0.0, 0.0, 0.0, 0.0)",0.027828964636992654,-0.6438405922338334,1.1690824595688907,"(0.0, 0.0, 0.0, 0.0, 0.0, 0.0)",-0.20397696556653716,0.8575831510875931,1.1312332006820753,"(0.0, 0.0, 0.0, 0.0, 0.0, 0.0)",-0.027829079200348807,False,,,,,False,,,,
13,Close,,,"(5.567361934631568e-08, 0.16999906349286917, 0.0009359839309479349)","(1.5708039321322358, 3.37560108188707e-05, -1.3987283228090085e-05)",,"[-0.026750000193715096, 0.05299999937415123, 0.03999999910593033]","[0.0, -0.0, 0.62876384308693]","[-0.06909646838903427, 0.11123037338256836, 0.03999999910593033]","[0.0, 0.0, -0.24340789693353326]","[0.026750000193715096, 0.05299999937415123, 0.03999999910593033]","[0.0, 0.0, -0.62876384308693]","[0.06909646838903427, 0.11123037338256836, 0.03999999910593033]","[0.0, -0.0, 0.24340764580603796]",0.6258874156623524,-0.6903310843293964,"(0.0, 0.0, 0.0, 0.0, 0.0, 0.0)",0.12048853373387189,-0.8749547691894786,-0.6679421640099914,"(0.0, 0.0, 0.0, 0.0, 0.0, 0.0)",0.016461146679105913,-0.6258874313081562,0.6903315015508323,"(0.0, 0.0, 0.0, 0.0, 0.0, 0.0)",-0.12048866447898966,0.8749545742586229,0.6679473624521103,"(0.0, 0.0, 0.0, 0.0, 0.0, 0.0)",-0.016461214564379854,False,,,,,False,,,,
14,Move,,,"(0.0002849434880139787, 0.17128526654835666, 0.0018667775255450016)","(1.529867145493542, 0.001236551690390913, -0.0026252758006009144)","[0.0, 0.0, 0.0]","[-0.026750000193715096, 0.05299999937415123, 0.03999999910593033]","[0.0, -0.0, 0.5674368798319164]","[-0.06544800847768784, 0.113716259598732, 0.03999999910593033]","[0.0, 0.0, -0.23086444862254737]","[0.026750000193715096, 0.05299999937415123, 0.03999999910593033]","[0.0, 0.0, -0.5672775113046467]","[0.06543833017349243, 0.11372242867946625, 0.03999999910593033]","[0.0, -0.0, 0.2338230653212545]",0.5526433844132694,-3.5504372063580854,"(0.0, 0.0, 0.0, 0.0, 0.0, 0.0)",-74.66311326449657,-0.7739535469156117,5.843468067207706,"(0.0, 0.0, 0.0, 0.0, 0.0, 0.0)",-38.567738900473906,-0.5523653530093062,3.5789086898164406,"(0.0, 0.0, 0.0, 0.0, 0.0, 0.0)",70.97380681712595,0.7784689212282292,-5.431581853362886,"(0.0, 0.0, 0.0, 0.0, 0.0, 0.0)",36.631671368390464,True,"(-0.031139027298926508, 0.18549673152317092, 0.03999924353386678)","(0.9999971505660776, -0.0022642037706561637, -0.0007564661332230728)",-0.000503181178828863,565.4925793008347,True,"(0.030917119596597424, 0.1854085662421605, 0.04000075646613322)","(-0.9999971505660776, 0.002264203770598743, 0.0007564661332168607)",-0.0013606486484191646,538.0249494895718
15,Move,"(0.0, 0.0, 0.0)","(0.0, -0.0, 0.0)","(0.00016274991557831364, 0.17136475104845758, 0.0031640906121350575)","(1.4899865793592248, -0.0009251634143453488, -0.006053919932276661)","[-0.00012219357243566505, 7.948450010092367e-05, 0.001297313086590056]","[-0.026750000193715096, 0.05299999937415123, 0.03999999910593033]","[0.0, -0.0, 0.5448782568355026]","[-0.06406860798597336, 0.11457370966672897, 0.03999999910593033]","[0.0, 0.0, -0.2125956411648876]","[0.026750000193715096, 0.05299999937415123, 0.03999999910593033]","[0.0, 0.0, -0.5441825092896027]","[0.06402575969696045, 0.11459966003894806, 0.03999999910593033]","[0.0, -0.0, 0.21903630347083206]",0.5463765798653516,0.35960109272080254,"(0.0, 0.0, 0.0, 0.0, 0.0, 0.0)",-0.08406283938624641,-0.7590286933635231,-0.37315947580442554,"(0.0, 0.0, 0.0, 0.0, 0.0, 0.0)",-0.017297597694563044,-0.5456033040750284,-0.3409927387516254,"(0.0, 0.0, 0.0, 0.0, 0.0, 0.0)",0.7656171975284948,0.7645763731677416,0.32581485659360865,"(0.0, 0.0, 0.0, 0.0, 0.0, 0.0)",0.4026025408250114,True,"(-0.031076504252458274, 0.1869479334441972, 0.04000075744199429)","(0.9999871217005202, -0.0050182382101970815, 0.0007574419942935584)",-0.000622934270282677,0.221954412255134,True,"(0.03056815038234164, 0.1867763680017247, 0.03999924255800572)","(-0.9999871217005204, 0.005018238210180842, -0.0007574419942756659)",-0.0016523435419804678,5.374466445399798
16,Move,"(0.005063291139240506, 0.0, 0.0)","(0.0, -0.0, 0.0)","(0.0004562587515730765, 0.1714108899920218, 0.0031635385310450647)","(1.4939702036305738, -0.00023422027277622098, -0.00848304656171768)","[0.0001713152635590978, 0.00012562344366515155, 0.001296761005500063]","[-0.026750000193715096, 0.05299999937415123, 0.03999999910593033]","[0.0, -0.0, 0.5457885454425259]","[-0.06412463635206223, 0.11453971266746521, 0.03999999910593033]","[0.0, 0.0, -0.21371539193373942]","[0.026750000193715096, 0.05299999937415123, 0.03999999910593033]","[0.0, 0.0, -0.551022757998064]","[0.06444623321294785, 0.11434324830770493, 0.03999999910593033]","[0.0, -0.0, 0.21400716629985275]",0.5452672640114032,-0.1250934678541343,"(0.0, 0.0, 0.0, 0.0, 0.0, 0.0)",-0.6411987983536884,-0.7592699334434178,0.05614469678465589,"(0.0, 0.0, 0.0, 0.0, 0.0, 0.0)",-0.32735455519922113,-0.5521405363776618,-0.26827764424087586,"(0.0, 0.0, 0.0, 0.0, 0.0, 0.0)",0.36978672889189657,0.7647663937589081,-0.06323644611300007,"(0.0, 0.0, 0.0, 0.0, 0.0, 0.0)",0.165209932283002,True,"(-0.031051532519429617, 0.18687449395436687, 0.040000249294228254)","(0.999963037996206, -0.008594212807822792, 0.0002492942282545275)",-0.00041549310193514285,4.9071506389852155,True,"(0.03135202463379749, 0.18668585148488714, 0.03999975070577173)","(-0.999963037996206, 0.008594212807810486, -0.0002492942282691959)",-0.0011016335736835213,2.430170531135208
17,Move,"(0.010126582278481011, 0.0, 0.0)","(0.0, -0.0, 0.0)","(0.0012345437067584136, 0.17158810184269796, 0.0021358110580620795)","(1.5312543543470318, 0.0016328677202165714, -0.012674454186322114)","[0.0009496002187444349, 0.00030283529434130263, 0.00026903353251707786]","[-0.026750000193715096, 0.05299999937415123, 0.03999999910593033]","[0.0, -0.0, 0.5404745123664855]","[-0.06379709392786026, 0.11473745107650757, 0.03999999910593033]","[0.0, 0.0, -0.21859919186743942]","[0.026750000193715096, 0.05299999937415123, 0.03999999910593033]","[0.0, 0.0, -0.5601520879014736]","[0.06500468403100967, 0.11399655044078827, 0.03999999910593033]","[0.0, -0.0, 0.20442955228874865]",0.5393116450210818,-0.27910414379092396,"(0.0, 0.0, 0.0, 0.0, 0.0, 0.0)",-0.34750424238818517,-0.7590735391186407,5.80713408744756e-05,"(0.0, 0.0, 0.0, 0.0, 0.0, 0.0)",-0.19654414132497558,-0.562036356977459,-0.45222164987656566,"(0.0, 0.0, 0.0, 0.0, 0.0, 0.0)",0.07358644573801414,0.7646001218665185,0.004433917130389098,"(0.0, 0.0, 0.0, 0.0, 0.0, 0.0)",0.0054357271879299585,True,"(-0.030371099524257164, 0.1869112364337552, 0.03999826493840175)","(0.9999254592865136, -0.012085753261792882, -0.0017350615982441794)",-0.0002779557420255188,2.92526153743675,True,"(0.03260475879402325, 0.18664671211967876, 0.04000173506159824)","(-0.9999254592865136, 0.012085753261793746, 0.0017350615982371694)",-0.0006676876279529221,0.0
18,Move,"(0.01518987341772152, 0.0, 0.0)","(0.0, -0.0, 0.0)","(0.0025355749647560173, 0.17198356300733356, 0.000677628632405708)","(1.592518361546395, 0.0002660267388763114, -0.025651591612038994)","[0.0022506314767420385, 0.0006982964589768992, -0.0011891488931392935]","[-0.026750000193715096, 0.05299999937415123, 0.03999999910593033]","[0.0, -0.0, 0.5310818677822206]","[-0.06321558356285095, 0.11508269608020782, 0.03999999910593033]","[0.0, 0.0, -0.22797113164888863]","[0.026750000193715096, 0.05299999937415123, 0.03999999910593033]","[0.0, 0.0, -0.5726048225825822]","[0.0657612755894661, 0.1135154590010643, 0.03999999910593033]","[0.0, -0.0, 0.19200735712590083]",0.5291566010185973,-0.4620470933073453,"(0.0, 0.0, 0.0, 0.0, 0.0, 0.0)",-2.8452308463325764,-0.7589077382932384,0.03484370308147025,"(0.0, 0.0, 0.0, 0.0, 0.0, 0.0)",-1.7178493160383186,-0.5749916619003277,-0.5728285911081965,"(0.0, 0.0, 0.0, 0.0, 0.0, 0.0)",0.0932790461312566,0.7646110309653782,-0.00029090930292685613,"(0.0, 0.0, 0.0, 0.0, 0.0, 0.0)",0.006955519680860265,True,"(-0.029114580667967863, 0.18694461464862716, 0.039995223024029386)","(0.9998458730254828, -0.016894102358103985, -0.004776975970621454)",-0.00018540034327266692,22.021369482455647,True,"(0.034266151760232455, 0.1865548684960277, 0.040004776975970616)","(-0.9998458730254829, 0.01689410235811081, 0.004776975970617856)",-0.0003570955142235818,0.0
19,Move,"(0.020253164556962026, 0.0, 0.0)","(0.0, -0.0, 0.0)","(0.0041922668864934716, 0.17253709636138892, 0.0009028862450953168)","(1.5925444286569932, -0.0034932807579536014, -0.058923523590267285)","[0.003907323398479493, 0.0012518298130322625, -0.0009638912804496849]","[-0.026750000193715096, 0.05299999937415123, 0.03999999910593033]","[0.0, -0.0, 0.5172159217872954]","[-0.06235127151012421, 0.11558233946561813, 0.03999999910593033]","[0.0, 0.0, -0.24074365014159932]","[0.026750000193715096, 0.05299999937415123, 0.03999999910593033]","[0.0, 0.0, -0.5874084845937181]","[0.0666528195142746, 0.11293134093284607, 0.03999999910593033]","[0.0, -0.0, 0.17652311039748]",0.5144719780533586,-0.6585425920677215,"(0.0, 0.0, 0.0, 0.0, 0.0, 0.0)",-0.6145819409670261,-0.7576854872789537,0.06577681320346161,"(0.0, 0.0, 0.0, 0.0, 0.0, 0.0)",-0.4293138592435414,-0.5901714886064383,-0.6631152793960304,"(0.0, 0.0, 0.0, 0.0, 0.0, 0.0)",0.7392148680292252,0.7637114377161238,-0.052838960659103026,"(0.0, 0.0, 0.0, 0.0, 0.0, 0.0)",0.34979341570970596,True,"(-0.02733625057536969, 0.18697820511240695, 0.04000378773887832)","(0.9985169225899383, -0.054310296774266235, 0.0037877388783218798)",-0.0001297235581600023,5.462893321308718,True,"(0.03629333333914753, 0.1864715909648829, 0.03999621226112166)","(-0.9985169225899377, 0.054310296774277476, -0.003787738878338775)",-0.0002275728326291269,4.717199435042344
20,Move,"(0.02531645569620253, 0.0, 0.0)","(0.0, -0.0, 0.0)","(0.006125172793302767, 0.17256768058909305, 0.0004807324154842047)","(1.5673253518131318, 0.000778226501265986, -0.08416961269618081)","[0.005840229305288789, 0.001282414040736396, -0.0013860451100607969]","[-0.026750000193715096, 0.05299999937415123, 0.03999999910593033]","[0.0, -0.0, 0.4993495579406256]","[-0.061227526515722275, 0.11620838940143585, 0.03999999910593033]","[0.0, 0.0, -0.25706201171527077]","[0.026750000193715096, 0.05299999937415123, 0.03999999910593033]","[0.0, 0.0, -0.6051675195194813]","[0.06771078705787659, 0.11221329122781754, 0.03999999910593033]","[0.0, -0.0, 0.157468787921114]",0.4959481332659308,-0.8163217466269574,"(0.0, 0.0, 0.0, 0.0, 0.0, 0.0)",-0.7568750409700141,-0.7561224565586119,0.06936517989763964,"(0.0, 0.0, 0.0, 0.0, 0.0, 0.0)",-0.5049705604197867,-0.6085347583983841,-0.8081358373050948,"(0.0, 0.0, 0.0, 0.0, 0.0, 0.0)",0.937567503676928,0.7623621759939309,-0.065789040757381,"(0.0, 0.0, 0.0, 0.0, 0.0, 0.0)",0.4476943228678842,True,"(-0.025052798987787506, 0.18701473092903437, 0.03999914071948121)","(0.9968545199793458, -0.07924851818007642, -0.0008592805187862566)",-8.65499253581779e-05,6.702865446358924,True,"(0.038758439130178964, 0.18632456086084276, 0.040000859280518795)","(-0.9968545199793462, 0.07924851818007538, 0.0008592805187897405)",-0.00016823383035976836,6.022600545226138
21,Move,"(0.03037974683544304, 0.0, 0.0)","(0.0, -0.0, 0.0)","(0.008899181067827873, 0.17239551335441494, 0.0006575532824099763)","(1.5677763335019959, 6.806941399398022e-06, -0.09082121523140335)","[0.008614237579813893, 0.0011102468060582849, -0.0012092242431350252]","[-0.026750000193715096, 0.05299999937415123, 0.03999999910593033]","[0.0, -0.0, 0.4782227165890215]","[-0.05988454446196556, 0.11692262440919876, 0.03999999910593033]","[0.0, 0.0, -0.2768883213011421]","[0.026750000193715096, 0.05299999937415123, 0.03999999910593033]","[0.0, 0.0, -0.6258699546097014]","[0.06892777979373932, 0.11135267466306686, 0.03999999910593033]","[0.0, -0.0, 0.1358293561340102]",0.4742772601741261,-0.9469105366595245,"(0.0, 0.0, 0.0, 0.0, 0.0, 0.0)",-0.6552027747904596,-0.7548938604585953,0.05212960672096062,"(0.0, 0.0, 0.0, 0.0, 0.0, 0.0)",-0.43393024089646354,-0.6297203128686079,-0.9240933715807249,"(0.0, 0.0, 0.0, 0.0, 0.0, 0.0)",0.5619018944077168,0.7615393314544648,-0.038384596196499775,"(0.0, 0.0, 0.0, 0.0, 0.0, 0.0)",0.22784662055957597,True,"(-0.02231229865058524, 0.1870072620546226, 0.039999988084421755)","(0.9959759118350869, -0.08962133062104315, -1.1915578243416493e-05)",-6.699429372421393e-05,6.044634568881465,True,"(0.04158474052261515, 0.1860618801409483, 0.040000011915578254)","(-0.9959759118350863, 0.08962133062104963, 1.1915578256263206e-05)",-0.000128365844982229,3.0675270063542697
22,Move,"(0.03544303797468354, 0.0, 0.0)","(0.0, -0.0, 0.0)","(0.011985774018243236, 0.17235075928851137, 0.0006417729700511842)","(1.5717673693474707, -0.0011173903572558584, -0.09886684101016967)","[0.011700830530229257, 0.0010654927401547165, -0.0012250045554938174]","[-0.026750000193715096, 0.05299999937415123, 0.03999999910593033]","[0.0, -0.0, 0.45433093393521157]","[-0.05834800377488136, 0.11769594997167587, 0.03999999910593033]","[0.0, 0.0, -0.29895067081947735]","[0.026750000193715096, 0.05299999937415123, 0.03999999910593033]","[0.0, 0.0, -0.6483915824512886]","[0.07023117691278458, 0.11038804054260254, 0.03999999910593033]","[0.0, -0.0, 0.11176619879612482]",0.4499165394237361,-1.0594455790213704,"(0.0, 0.0, 0.0, 0.0, 0.0, 0.0)",-1.2120547058054687,-0.7528547398623185,0.10243942259132408,"(0.0, 0.0, 0.0, 0.0, 0.0, 0.0)",-0.7718531702532775,-0.6524861025089519,-0.9826810625854587,"(0.0, 0.0, 0.0, 0.0, 0.0, 0.0)",1.2706157303903058,0.7597362132386885,-0.10117816310819204,"(0.0, 0.0, 0.0, 0.0, 0.0, 0.0)",0.6122490268830957,True,"(-0.01923719948766156, 0.18694996913853312, 0.03999956410187253)","(0.9953551279667231, -0.09627034446376008, -0.0004358981274727365)",-5.7524766171103585e-05,10.407893105852928,True,"(0.04469179049713869, 0.18571622645573188, 0.04000043589812746)","(-0.9953551279667228, 0.09627034446376313, 0.0004358981274659742)",-0.00011165315124772215,8.293140442905893
23,Move,"(0.04050632911392405, 0.0, 0.0)","(0.0, -0.0, 0.0)","(0.015213212845251699, 0.1720734048641232, 0.000760770966022165)","(1.5703277182992108, -4.6287016304872924e-05, -0.10604097236275303)","[0.01492826935723772, 0.0007881383157665456, -0.0011060065595228366]","[-0.026750000193715096, 0.05299999937415123, 0.03999999910593033]","[0.0, -0.0, 0.4279069852256931]","[-0.056627653539180756, 0.11850821226835251, 0.03999999910593033]","[0.0, 0.0, -0.3222183587128333]","[0.026750000193715096, 0.05299999937415123, 0.03999999910593033]","[0.0, 0.0, -0.6721066725144816]","[0.07157977670431137, 0.1093408465385437, 0.03999999910593033]","[0.0, -0.0, 0.0854658097864133]",0.4230503726705336,-1.1655875987887574,"(0.0, 0.0, 0.0, 0.0, 0.0, 0.0)",-1.7584803345757412,-0.7495692596302045,0.13346193724985203,"(0.0, 0.0, 0.0, 0.0, 0.0, 0.0)",-1.0202202184583553,-0.6763949616233662,-1.0292032711297154,"(0.0, 0.0, 0.0, 0.0, 0.0, 0.0)",1.7585949219360717,0.7570265953976677,-0.13099972177190308,"(0.0, 0.0, 0.0, 0.0, 0.0, 0.0)",0.9222696958357515,True,"(-0.015914601397479647, 0.18684767918288167, 0.04000045068180486)","(0.9944434725821805, -0.10527096809949534, 0.00045068180486321273)",-5.6596716520203574e-05,14.50416661602969,True,"(0.04802819443597604, 0.18529745512778228, 0.03999954931819514)","(-0.9944434725821801, 0.10527096809949767, -0.00045068180486459677)",-0.0001127125449830759,11.920701853494744
24,Move,"(0.04556962025316456, 0.0, 0.0)","(0.0, -0.0, 0.0)","(0.018660168457232094, 0.17178120893007462, 0.0008152789752575602)","(1.5721522932340866, 0.002479388721019597, -0.10888592021763846)","[0.018375224969218115, 0.000495942381717962, -0.0010514985502874416]","[-0.026750000193715096, 0.05299999937415123, 0.03999999910593033]","[0.0, -0.0, 0.3991011629356929]","[-0.05472850054502487, 0.11934156715869904, 0.03999999910593033]","[0.0, 0.0, -0.3467579810877438]","[0.026750000193715096, 0.05299999937415123, 0.03999999910593033]","[0.0, 0.0, -0.696731668684182]","[0.07295344769954681, 0.1082199364900589, 0.03999999910593033]","[0.0, -0.0, 0.057264892418740256]",0.3938369495821796,-1.2634135140692007,"(0.0, 0.0, 0.0, 0.0, 0.0, 0.0)",-2.668117884465833,-0.7450487262547759,0.19449243271396627,"(0.0, 0.0, 0.0, 0.0, 0.0, 0.0)",-1.486635614035123,-0.7011624086286273,-1.0633713935631872,"(0.0, 0.0, 0.0, 0.0, 0.0, 0.0)",2.2675797048210313,0.753267477223188,-0.17498522021072954,"(0.0, 0.0, 0.0, 0.0, 0.0, 0.0)",1.210837445578355,True,"(-0.012348289647373063, 0.18668292119671542, 0.03999732465923555)","(0.9941259703919156, -0.10819610688063497, -0.0026753407644519223)",-6.489270878267119e-05,21.36454432985692,True,"(0.05154994152373403, 0.18478536136063017, 0.04000267534076447)","(-0.9941259703919165, 0.10819610688062829, 0.0026753407644685757)",-0.00012692032753401031,15.731776486531713
25,Move,"(0.05063291139240506, 0.0, 0.0)","(0.0, -0.0, 0.0)","(0.0223931513253046, 0.17130963339515648, 0.0008477639726173735)","(1.5703540222698409, 0.002103053881312075, -0.11321262237700501)","[0.02210820783729062, 2.4366846799822595e-05, -0.0010190135529276282]","[-0.026750000193715096, 0.05299999937415123, 0.03999999910593033]","[0.0, -0.0, 0.36817616852554946]","[-0.05266384035348892, 0.12017494440078735, 0.03999999910593033]","[0.0, 0.0, -0.3721953876975069]","[0.026750000193715096, 0.05299999937415123, 0.03999999910593033]","[0.0, 0.0, -0.7219410355289579]","[0.07433068007230759, 0.107037752866745, 0.03999999910593033]","[0.0, -0.0, 0.026890744871066]",0.3625497868066247,-1.3503337385198475,"(0.0, 0.0, 0.0, 0.0, 0.0, 0.0)",-3.2139754206704274,-0.7394117387176652,0.23036211906293913,"(0.0, 0.0, 0.0, 0.0, 0.0, 0.0)",-1.7318710087382532,-0.7264553517982855,-1.0834223939654501,"(0.0, 0.0, 0.0, 0.0, 0.0, 0.0)",3.3561147698883937,0.7477607457857037,-0.2570615686211888,"(0.0, 0.0, 0.0, 0.0, 0.0, 0.0)",1.859786399445714,True,"(-0.008581932149052916, 0.18643752706500125, 0.03999765360756714)","(0.9936486899148054, -0.11250233541194621, -0.0023463924328675097)",-7.753623334565981e-05,25.51247160561743,True,"(0.05525903179176763, 0.18419203984890617, 0.04000234639243287)","(-0.9936486899148061, 0.1125023354119386, 0.002346392432875059)",-0.00015436041668773895,23.97592842378129
26,Move,"(0.055696202531645575, 0.0, 0.0)","(0.0, -0.0, 0.0)","(0.026310307307760426, 0.17087714617946134, 0.0008482068759846189)","(1.571710093320678, 0.0015390976250583882, -0.11713518151611522)","[0.026025363819746447, -0.000408120368895315, -0.0010185706495603828]","[-0.026750000193715096, 0.05299999937415123, 0.03999999910593033]","[0.0, -0.0, 0.3352928904028867]","[-0.05044129490852356, 0.12099060416221619, 0.03999999910593033]","[0.0, 0.0, -0.3984716567273337]","[0.026750000193715096, 0.05299999937415123, 0.03999999910593033]","[0.0, 0.0, -0.7474734238657542]","[0.0756947323679924, 0.1058054268360138, 0.03999999910593033]","[0.0, 0.0, -0.005466389539576452]",0.32932205787414914,-1.4330042023682001,"(0.0, 0.0, 0.0, 0.0, 0.0, 0.0)",-4.147100074502971,-0.7325070708818989,0.3017961361553989,"(0.0, 0.0, 0.0, 0.0, 0.0, 0.0)",-2.183344405471563,-0.7520330233945971,-1.0942941674439277,"(0.0, 0.0, 0.0, 0.0, 0.0, 0.0)",4.166873170155213,0.7406823824145427,-0.31792635366498906,"(0.0, 0.0, 0.0, 0.0, 0.0, 0.0)",2.3582868067363583,True,"(-0.00463081013766363, 0.1860944310204622, 0.03999827517318292)","(0.9932148095784233, -0.11628141298826376, -0.001724826817086805)",-0.00010381067821106401,32.577166703206515,True,"(0.05912539879265836, 0.18350801347312978, 0.04000172482681711)","(-0.9932148095784223, 0.11628141298827145, 0.0017248268171052242)",-0.00019183045025220275,30.200683455437897
27,Move,"(0.06075949367088608, 0.0, 0.0)","(0.0, -0.0, 0.0)","(0.030329698824955505, 0.17020502039977922, 0.0008662973510547569)","(1.5697594018325443, 0.001602575569112698, -0.12142981626426612)","[0.030044755336941526, -0.001080246148577435, -0.0010004801744902447]","[-0.026750000193715096, 0.05299999937415123, 0.03999999910593033]","[0.0, -0.0, 0.3005625338142491]","[-0.048066146671772, 0.12177224457263947, 0.03999999910593033]","[0.0, 0.0, -0.4251879018947859]","[0.026750000193715096, 0.05299999937415123, 0.03999999910593033]","[0.0, 0.0, -0.7731228818521039]","[0.0770329087972641, 0.10453279316425323, 0.03999999910593033]","[0.0, 0.0, -0.039732340007940986]",0.2942758855483704,-1.5087983778660043,"(0.0, 0.0, 0.0, 0.0, 0.0, 0.0)",-5.160363197809768,-0.7241914302435506,0.37415703901406605,"(0.0, 0.0, 0.0, 0.0, 0.0, 0.0)",-2.662287489426552,-0.7776828642154415,-1.094399260826546,"(0.0, 0.0, 0.0, 0.0, 0.0, 0.0)",5.042473941243673,0.7317740718197222,-0.3879484089535606,"(0.0, 0.0, 0.0, 0.0, 0.0, 0.0)",2.9049666688420266,True,"(-0.0005299303048710777, 0.18565135577818512, 0.03999822386976085)","(0.9927096220402232, -0.12051743305485162, -0.001776130239150971)",-0.00012891626328790352,40.256692554638704,True,"(0.06313127595749453, 0.18272769620096413, 0.040001776130239135)","(-0.9927096220402221, 0.12051743305486193, 0.0017761302391294633)",-0.00024164446884036015,36.98491046756425
28,Move,"(0.0658227848101266, 0.0, 0.0)","(0.0, -0.0, 0.0)","(0.0344985075783924, 0.1696208253299942, 0.0008323295962030862)","(1.5725492560151402, 0.0015809519544201804, -0.12558769485453292)","[0.03421356409037842, -0.0016644412183624557, -0.0010344479293419155]","[-0.026750000193715096, 0.05299999937415123, 0.03999999910593033]","[0.0, -0.0, 0.26410616170056617]","[-0.04554535076022148, 0.12250348925590515, 0.03999999910593033]","[0.0, 0.0, -0.45202986500218895]","[0.026750000193715096, 0.05299999937415123, 0.03999999910593033]","[0.0, 0.0, -0.7986558121132544]","[0.07833216339349747, 0.10323226451873779, 0.03999999910593033]","[0.0, 0.0, -0.07579882376151027]",0.2575222934258605,-1.580125702192119,"(0.0, 0.0, 0.0, 0.0, 0.0, 0.0)",-6.244744956597982,-0.7142857805005468,0.44405736512692745,"(0.0, 0.0, 0.0, 0.0, 0.0, 0.0)",-3.1613033940110338,-0.8031820514091313,-1.0863048997910474,"(0.0, 0.0, 0.0, 0.0, 0.0, 0.0)",5.959414396497174,0.7209275143558129,-0.463065503635225,"(0.0, 0.0, 0.0, 0.0, 0.0, 0.0)",3.4899092803896687,True,"(0.003691266107088545, 0.1851062781896219, 0.039998253736705236)","(0.9922040859868426, -0.12461140523852232, -0.0017462632947599277)",-0.00014833188620411777,48.50285252654415,True,"(0.06725468440891702, 0.18184596836547479, 0.04000174626329476)","(-0.9922040859868404, 0.1246114052385414, 0.0017462632947590159)",-0.00029751744316350087,44.18824235236481
29,Move,"(0.07088607594936708, 0.0, 0.0)","(0.0, -0.0, 0.0)","(0.038774942566599836, 0.16871604950823343, 0.0008582733015274241)","(1.5704500775167622, 0.0014270128443640531, -0.1294354263558754)","[0.03848999907858586, -0.002569217040123223, -0.0010085042240175774]","[-0.026750000193715096, 0.05299999937415123, 0.03999999910593033]","[0.0, -0.0, 0.22605355833285679]","[-0.04288759455084801, 0.1231682151556015, 0.03999999910593033]","[0.0, 0.0, -0.4793549181504393]","[0.026750000193715096, 0.05299999937415123, 0.03999999910593033]","[0.0, 0.0, -0.8239019117137264]","[0.07958376407623291, 0.10191414505243301, 0.03999999910593033]","[0.0, 0.0, -0.11373795529627859]",0.21919633502771918,-1.6457349276713626,"(0.0, 0.0, 0.0, 0.0, 0.0, 0.0)",-7.260466996245449,-0.7032506728323179,0.5178637942091769,"(0.0, 0.0, 0.0, 0.0, 0.0, 0.0)",-3.613562266960263,-0.8283561358145927,-1.0690001209090427,"(0.0, 0.0, 0.0, 0.0, 0.0, 0.0)",6.969820853752978,0.7078777337397456,-0.5487070933816063,"(0.0, 0.0, 0.0, 0.0, 0.0, 0.0)",4.133240695768754,True,"(0.008044343217907993, 0.18442569120200197, 0.03999843843661528)","(0.991722291183501, -0.12839181706613165, -0.0015615633847171732)",-0.00017727106896893327,56.29396051936882,True,"(0.07147898094174317, 0.18075143137583816, 0.04214643234267871)","(-0.9917222911835011, 0.12839181706612998, 0.0015615633847089248)",-0.00036479237789547377,52.21279322502608
30,Move,"(0.07594936708860758, 0.0, 0.0)","(0.0, -0.0, 0.0)","(0.042729066090705654, 0.1681476174797659, 0.0008255556408011123)","(1.5716207755469735, 4.5860088323958666e-05, -0.1514023016998304)","[0.042444122602691675, -0.0031376490685907643, -0.0010412218847438894]","[-0.026750000193715096, 0.05299999937415123, 0.03999999910593033]","[0.0, -0.0, 0.18667608263113095]","[-0.04011274874210358, 0.12374911457300186, 0.03999999910593033]","[0.0, 0.0, -0.5017800344371035]","[0.026750000193715096, 0.05299999937415123, 0.03999999910593033]","[0.0, 0.0, -0.8488558529217234]","[0.0807877853512764, 0.10058064758777618, 0.03999999910593033]","[0.0, 0.0, -0.15281055569271232]",0.17959672179359457,-1.6990443104477109,"(0.0, 0.0, 0.0, 0.0, 0.0, 0.0)",-11.22975688883665,-0.6842440579867584,1.0108750039715566,"(0.0, 0.0, 0.0, 0.0, 0.0, 0.0)",-6.374290907598745,-0.8533424875975462,-1.0768063947864173,"(0.0, 0.0, 0.0, 0.0, 0.0, 0.0)",10.37963423177307,0.6934235437979892,-0.6292083894839045,"(0.0, 0.0, 0.0, 0.0, 0.0, 0.0)",4.624543177392109,True,"(0.012180825469290793, 0.18385484660932527, 0.04000000439624219)","(0.9894489472051399, -0.14488195489885372, 4.396242187857994e-06)",-0.00010887363347694087,82.142888555394,True,"(0.07576877994894186, 0.17967435799598686, 0.04214643234267871)","(-0.9917222911835011, 0.12839181706612998, 0.0015615633847089248)",-0.0002859680582668712,48.961101049134285
