OSUrobotics/InHand-Manipulation/AnalyseData/Data/Trial Data/Better/new_hand_human_sub1_2v2_a_n_1_kpNone_kdNone_dp1_step1_save_data.csv
,Phase,human_cube_pos,human_cube_orn,Cube_Pos,Cube_Orn,Cube_pos_in_start_pos,b'l_prox_pin'_link_pos,b'l_prox_pin'_link_orn,b'l_distal_pin'_link_pos,b'l_distal_pin'_link_orn,b'r_prox_pin'_link_pos,b'r_prox_pin'_link_orn,b'r_distal_pin'_link_pos,b'r_distal_pin'_link_orn,b'l_prox_pin'_joint_angle,b'l_prox_pin'_joint_vel,b'l_prox_pin'_joint_react_forces,b'l_prox_pin'_joint_motor_torque,b'l_distal_pin'_joint_angle,b'l_distal_pin'_joint_vel,b'l_distal_pin'_joint_react_forces,b'l_distal_pin'_joint_motor_torque,b'r_prox_pin'_joint_angle,b'r_prox_pin'_joint_vel,b'r_prox_pin'_joint_react_forces,b'r_prox_pin'_joint_motor_torque,b'r_distal_pin'_joint_angle,b'r_distal_pin'_joint_vel,b'r_distal_pin'_joint_react_forces,b'r_distal_pin'_joint_motor_torque,in_contact_l,contact_point_l_dist,contact_normal_l_dist,contact_distance_l_dist,contact_norm_force_l_dist,in_contact_r,contact_point_r_dist,contact_normal_r_dist,contact_distance_r_dist,contact_norm_force_r_dist
0,Open,,,,,,"[-0.026750000193715096, 0.05299999937415123, 0.03999999910593033]","[0.0, -0.0, 0.0]","[-0.026750000193715096, 0.125, 0.03999999910593033]","[0.0, -0.0, 0.0]","[0.026750000193715096, 0.05299999937415123, 0.03999999910593033]","[0.0, -0.0, 0.0]","[0.026750000193715096, 0.125, 0.03999999910593033]","[0.0, -0.0, 0.0]",0.0,0.0,"(0.0, 0.0, 0.0, 0.0, 0.0, 0.0)",1.3400621000080305e-17,5.883223478113402e-32,1.4119736347472167e-29,"(0.0, 0.0, 0.0, 0.0, 0.0, 0.0)",1.0542555313129702e-18,-0.008068665190486622,-1.9364796457167894,"(0.0, 0.0, 0.0, 0.0, 0.0, 0.0)",193.26378306879909,-0.0700246186727924,-16.805908481470176,"(0.0, 0.0, 0.0, 0.0, 0.0, 0.0)",71.94009191575694,False,,,,,False,,,,
1,Open,,,,,,"[-0.026750000193715096, 0.05299999937415123, 0.03999999910593033]","[0.0, -0.0, 0.0]","[-0.026750000193715096, 0.125, 0.03999999910593033]","[0.0, -0.0, 5.883223447970011e-32]","[0.026750000193715096, 0.05299999937415123, 0.03999999910593033]","[0.0, 0.0, -0.008068665592501188]","[0.02733093686401844, 0.12499765306711197, 0.03999999910593033]","[0.0, 0.0, -0.0780932845685428]",0.157,37.68,"(0.0, 0.0, 0.0, 0.0, 0.0, 0.0)",54.702693795169004,5.294901130302062e-32,-1.4119736347472162e-30,"(0.0, 0.0, 0.0, 0.0, 0.0, 0.0)",3.9113724975844915,-0.1670280316324969,-38.150247946082466,"(0.0, 0.0, 0.0, 0.0, 0.0, 0.0)",-25.93345404555236,-0.0659493391739072,0.9780670797324476,"(0.0, 0.0, 0.0, 0.0, 0.0, 0.0)",-6.754749483880455,False,,,,,False,,,,
2,Open,,,,,,"[-0.026750000193715096, 0.05299999937415123, 0.03999999910593033]","[0.0, -0.0, 0.1569999988554567]","[-0.03800761699676514, 0.12411445379257202, 0.03999999910593033]","[0.0, -0.0, 0.1569999988554567]","[0.026750000193715096, 0.05299999937415123, 0.03999999910593033]","[0.0, 0.0, -0.16702801712980753]","[0.038720179349184036, 0.1239979937672615, 0.03999999910593033]","[0.0, 0.0, -0.23297739431320727]",0.29829999999999995,33.91199999999999,"(0.0, 0.0, 0.0, 0.0, 0.0, 0.0)",-5.390828189440958,5.294901130302062e-32,0.0,"(0.0, 0.0, 0.0, 0.0, 0.0, 0.0)",-0.3659219356209609,-0.3122944613104081,-34.863943122698686,"(0.0, 0.0, 0.0, 0.0, 0.0, 0.0)",95.8006544774165,-0.06705867534034729,-0.2662406799456205,"(0.0, 0.0, 0.0, 0.0, 0.0, 0.0)",9.049911776264722,False,,,,,False,,,,
3,Open,,,,,,"[-0.026750000193715096, 0.05299999937415123, 0.03999999910593033]","[0.0, -0.0, 0.29830000998707634]","[-0.04791048914194107, 0.12182030081748962, 0.03999999910593033]","[0.0, -0.0, 0.29830000998707634]","[0.026750000193715096, 0.05299999937415123, 0.03999999910593033]","[0.0, 0.0, -0.3122944642903269]","[0.048871491104364395, 0.12151744216680527, 0.03999999910593033]","[0.0, 0.0, -0.3793531994353912]",0.42546999999999996,30.5208,"(0.0, 0.0, 0.0, 0.0, 0.0, 0.0)",-4.858074537215091,5.294901130302062e-32,0.0,"(0.0, 0.0, 0.0, 0.0, 0.0, 0.0)",-0.33154044974508506,-0.44292449566296654,-31.35120824461403,"(0.0, 0.0, 0.0, 0.0, 0.0, 0.0)",100.88457241511576,-0.08373770380977785,-4.0029668326633345,"(0.0, 0.0, 0.0, 0.0, 0.0, 0.0)",24.077304806401806,False,,,,,False,,,,
4,Open,,,,,,"[-0.026750000193715096, 0.05299999937415123, 0.03999999910593033]","[0.0, -0.0, 0.4254700097131474]","[-0.056467924267053604, 0.11858082562685013, 0.03999999910593033]","[0.0, -0.0, 0.4254700097131474]","[0.026750000193715096, 0.05299999937415123, 0.03999999910593033]","[0.0, 0.0, -0.4429245237535421]","[0.057608019560575485, 0.1180521547794342, 0.03999999910593033]","[0.0, 0.0, -0.5266622746639338]",0.5399229999999999,27.46872,"(0.0, 0.0, 0.0, 0.0, 0.0, 0.0)",-4.377393708535371,5.294901130302062e-32,0.0,"(0.0, 0.0, 0.0, 0.0, 0.0, 0.0)",-0.30017707799641646,-0.5623038734984663,-28.651050680519948,"(0.0, 0.0, 0.0, 0.0, 0.0, 0.0)",144.45470973647488,-0.10456727132876567,-4.999096204557077,"(0.0, 0.0, 0.0, 0.0, 0.0, 0.0)",33.97911746732963,False,,,,,False,,,,
5,Open,,,,,,"[-0.026750000193715096, 0.05299999937415123, 0.03999999910593033]","[0.0, -0.0, 0.5399230359738098]","[-0.06376303732395172, 0.11475787311792374, 0.03999999910593033]","[0.0, -0.0, 0.5399230359738098]","[0.026750000193715096, 0.05299999937415123, 0.03999999910593033]","[0.0, 0.0, -0.5623038790270362]","[0.06513584405183792, 0.11391409486532211, 0.03999999910593033]","[0.0, 0.0, -0.6668711870723439]",0.6429307,24.721848,"(0.0, 0.0, 0.0, 0.0, 0.0, 0.0)",-3.943806903965684,5.294901130302062e-32,0.0,"(0.0, 0.0, 0.0, 0.0, 0.0, 0.0)",-0.2716098155097054,-0.6673401099248648,-25.208696742335626,"(0.0, 0.0, 0.0, 0.0, 0.0, 0.0)",94.97739775913854,-0.11755295807544866,-3.116564819203918,"(0.0, 0.0, 0.0, 0.0, 0.0, 0.0)",25.79194570087013,False,,,,,False,,,,
6,Open,,,,,,"[-0.026750000193715096, 0.05299999937415123, 0.03999999910593033]","[0.0, -0.0, 0.6429307111289271]","[-0.06991713494062424, 0.11062463372945786, 0.03999999910593033]","[0.0, -0.0, 0.6429307111289271]","[0.026750000193715096, 0.05299999937415123, 0.03999999910593033]","[0.0, 0.0, -0.6673401753977319]","[0.07131072133779526, 0.10955388844013214, 0.03999999910593033]","[0.0, 0.0, -0.7848931559948581]",0.73563763,22.249663200000004,"(0.0, 0.0, 0.0, 0.0, 0.0, 0.0)",-3.552789792259023,5.294901130302062e-32,0.0,"(0.0, 0.0, 0.0, 0.0, 0.0, 0.0)",-0.24562369466220793,-0.7579917869736262,-21.756402491702737,"(0.0, 0.0, 0.0, 0.0, 0.0, 0.0)",34.46450837185191,-0.10794166402774508,2.3067105714488583,"(0.0, 0.0, 0.0, 0.0, 0.0, 0.0)",8.765009015475858,False,,,,,False,,,,
7,Open,,,,,,"[-0.026750000193715096, 0.05299999937415123, 0.03999999910593033]","[0.0, -0.0, 0.7356376306875043]","[-0.07506632059812546, 0.10638101398944855, 0.03999999910593033]","[0.0, -0.0, 0.7356376306875043]","[0.026750000193715096, 0.05299999937415123, 0.03999999910593033]","[0.0, 0.0, -0.757991847340814]","[0.076247438788414, 0.10528770089149475, 0.03999999910593033]","[0.0, 0.0, -0.8659334873334429]",0.8190738670000001,20.024696880000004,"(0.0, 0.0, 0.0, 0.0, 0.0, 0.0)",-3.2002295086701533,2.3293280891773424e-07,5.5903874140256216e-05,"(0.0, 0.0, 0.0, 0.0, 0.0, 0.0)",-0.22200715926400075,-0.8391926082762636,-19.488197112632974,"(0.0, 0.0, 0.0, 0.0, 0.0, 0.0)",3.295349739497939,-0.09714776835574307,2.590534961280482,"(0.0, 0.0, 0.0, 0.0, 0.0, 0.0)",0.25803221970863044,False,,,,,False,,,,
8,Open,,,,,,"[-0.026750000193715096, 0.05299999937415123, 0.03999999910593033]","[0.0, -0.0, 0.8190738875671263]","[-0.07934698462486267, 0.10216865688562393, 0.03999999910593033]","[0.0, -0.0, 0.8190741465287105]","[0.026750000193715096, 0.05299999937415123, 0.03999999910593033]","[0.0, 0.0, -0.839192558822362]","[0.08032548427581787, 0.10110059380531311, 0.03999999910593033]","[0.0, 0.0, -0.9363403253067936]",0.8941664803,18.022227192,"(0.0, 0.0, 0.0, 0.0, 0.0, 0.0)",-2.8824197251771095,4.2009445145371055e-07,4.4918794208634316e-05,"(0.0, 0.0, 0.0, 0.0, 0.0, 0.0)",-0.2005835928406654,-0.9122733474486373,-17.539377401369673,"(0.0, 0.0, 0.0, 0.0, 0.0, 0.0)",2.7804978356880783,-0.0874331700712747,2.33150358827241,"(0.0, 0.0, 0.0, 0.0, 0.0, 0.0)",0.17017621517521792,False,,,,,False,,,,
9,Open,,,,,,"[-0.026750000193715096, 0.05299999937415123, 0.03999999910593033]","[0.0, -0.0, 0.894166469119967]","[-0.08288749307394028, 0.09808415919542313, 0.03999999910593033]","[0.0, -0.0, 0.894166894674561]","[0.026750000193715096, 0.05299999937415123, 0.03999999910593033]","[0.0, 0.0, -0.9122733503889549]","[0.08369457721710205, 0.09706035256385803, 0.03999999910593033]","[0.0, 0.0, -0.9997066729229968]",0.96174983227,16.220004472800003,"(0.0, 0.0, 0.0, 0.0, 0.0, 0.0)",-2.5959652512206968,5.681494863714967e-07,3.553320838026869e-05,"(0.0, 0.0, 0.0, 0.0, 0.0, 0.0)",-0.18114955764248034,-0.9780460127037736,-15.785439661232708,"(0.0, 0.0, 0.0, 0.0, 0.0, 0.0)",2.503992476159733,-0.0786900142246732,2.098357403184359,"(0.0, 0.0, 0.0, 0.0, 0.0, 0.0)",0.15360133560797545,False,,,,,False,,,,
10,Open,,,,,,"[-0.026750000193715096, 0.05299999937415123, 0.03999999910593033]","[0.0, -0.0, 0.9617498658906226]","[-0.08580395579338074, 0.09419016540050507, 0.03999999910593033]","[0.0, -0.0, 0.9617504517765805]","[0.026750000193715096, 0.05299999937415123, 0.03999999910593033]","[0.0, 0.0, -0.9780460255881384]","[0.08646733313798904, 0.09322238713502884, 0.03999999910593033]","[0.0, 0.0, -1.0567360258914282]",1.022574849043,14.598004025520002,"(0.0, 0.0, 0.0, 0.0, 0.0, 0.0)",-2.337816594086846,6.829231533297027e-07,2.7545680069969436e-05,"(0.0, 0.0, 0.0, 0.0, 0.0, 0.0)",-0.16354029854134106,-1.0372414114333963,-14.206895695109438,"(0.0, 0.0, 0.0, 0.0, 0.0, 0.0)",2.2548456713339484,-0.07082115822448021,1.8885254400463192,"(0.0, 0.0, 0.0, 0.0, 0.0, 0.0)",0.13860128234430863,False,,,,,False,,,,
11,Open,,,,,,"[-0.026750000193715096, 0.05299999937415123, 0.03999999910593033]","[0.0, -0.0, 1.0225748785172661]","[-0.08819860219955444, 0.09052424877882004, 0.03999999910593033]","[0.0, -0.0, 1.0225755149967983]","[0.026750000193715096, 0.05299999937415123, 0.03999999910593033]","[0.0, 0.0, -1.037241417801626]","[0.08874232321977615, 0.08961901068687439, 0.03999999910593033]","[0.0, 0.0, -1.1080626941470386]",1.0773173641387,13.138203622968001,"(0.0, 0.0, 0.0, 0.0, 0.0, 0.0)",-2.105207702642618,7.694903593429899e-07,2.0776129443188934e-05,"(0.0, 0.0, 0.0, 0.0, 0.0, 0.0)",-0.14759587787833617,-1.0905172702900567,-12.78620612559849,"(0.0, 0.0, 0.0, 0.0, 0.0, 0.0)",2.0303755786213302,-0.06373917358809339,1.6996763127328351,"(0.0, 0.0, 0.0, 0.0, 0.0, 0.0)",0.1250328149112744,False,,,,,False,,,,
12,Open,,,,,,"[-0.026750000193715096, 0.05299999937415123, 0.03999999910593033]","[0.0, -0.0, 1.0773173786594632]","[-0.09015969932079315, 0.08710587024688721, 0.03999999910593033]","[0.0, -0.0, 1.0773182784199262]","[0.026750000193715096, 0.05299999937415123, 0.03999999910593033]","[0.0, 0.0, -1.090517334189526]","[0.09060435742139816, 0.0862659215927124, 0.03999999910593033]","[0.0, 0.0, -1.1542564269670996]",1.1265856277248298,11.824383260671203,"(0.0, 0.0, 0.0, 0.0, 0.0, 0.0)",-1.895636869852492,8.322629993378343e-07,1.5065433598762668e-05,"(0.0, 0.0, 0.0, 0.0, 0.0, 0.0)",-0.13316806895824274,-1.138465543261051,-11.50758551303864,"(0.0, 0.0, 0.0, 0.0, 0.0, 0.0)",1.828159741200242,-0.05736537454460671,1.5297117704368035,"(0.0, 0.0, 0.0, 0.0, 0.0, 0.0)",0.11276577482950233,False,,,,,False,,,,
13,Open,,,,,,"[-0.026750000193715096, 0.05299999937415123, 0.03999999910593033]","[0.0, -0.0, 1.126585512342968]","[-0.09176240861415863, 0.08394166082143784, 0.03999999910593033]","[0.0, -0.0, 1.1265864725026016]","[0.026750000193715096, 0.05299999937415123, 0.03999999910593033]","[0.0, 0.0, -1.13846552283997]","[0.09212540090084076, 0.08316715806722641, 0.03999999910593033]","[0.0, 0.0, -1.1958309904194953]",1.1709270649523469,10.641944934604087,"(0.0, 0.0, 0.0, 0.0, 0.0, 0.0)",-1.7068426281171958,8.750681698751778e-07,1.0273240928962424e-05,"(0.0, 0.0, 0.0, 0.0, 0.0, 0.0)",-0.12011999884119333,-1.181618988934946,-10.356826961734775,"(0.0, 0.0, 0.0, 0.0, 0.0, 0.0)",1.6460093571929852,-0.051628943774705546,1.376743384776279,"(0.0, 0.0, 0.0, 0.0, 0.0, 0.0)",0.10168054944364863,False,,,,,False,,,,
14,Open,,,,,,"[-0.026750000193715096, 0.05299999937415123, 0.03999999910593033]","[0.0, -0.0, 1.170927100750299]","[-0.09307006001472473, 0.08102945238351822, 0.03999999910593033]","[0.0, -0.0, 1.1709279927689973]","[0.026750000193715096, 0.05299999937415123, 0.03999999910593033]","[0.0, 0.0, -1.181618964677462]","[0.09336595237255096, 0.08031877130270004, 0.03999999910593033]","[0.0, 0.0, -1.233247876832181]",1.2108343584571122,9.577750441143678,"(0.0, 0.0, 0.0, 0.0, 0.0, 0.0)",-1.5367816122769582,9.012180617793662e-07,6.275974057005224e-06,"(0.0, 0.0, 0.0, 0.0, 0.0, 0.0)",-0.1083256720668905,-1.2204570900414513,-9.3211442655613,"(0.0, 0.0, 0.0, 0.0, 0.0, 0.0)",1.4819475463743526,-0.046466145575958295,1.239071567699341,"(0.0, 0.0, 0.0, 0.0, 0.0, 0.0)",0.09166748660725833,False,,,,,False,,,,
15,Open,,,,,,"[-0.026750000193715096, 0.05299999937415123, 0.03999999910593033]","[0.0, -0.0, 1.2108343955497323]","[-0.09413553774356842, 0.07836118340492249, 0.03999999910593033]","[0.0, -0.0, 1.210835255049739]","[0.026750000193715096, 0.05299999937415123, 0.03999999910593033]","[0.0, 0.0, -1.2204571829136446]","[0.09437645971775055, 0.07771158218383789, 0.03999999910593033]","[0.0, 0.0, -1.2669233179031547]",1.2467509226114009,8.619975397029307,"(0.0, 0.0, 0.0, 0.0, 0.0, 0.0)",-1.3836082777937824,9.135722823677317e-07,2.9650129412077397e-06,"(0.0, 0.0, 0.0, 0.0, 0.0, 0.0)",-0.09766941677677543,-1.2554113810373062,-8.38902983900517,"(0.0, 0.0, 0.0, 0.0, 0.0, 0.0)",1.334189480132575,-0.04181961771093252,1.1151666876061868,"(0.0, 0.0, 0.0, 0.0, 0.0, 0.0)",0.08262627878010878,False,,,,,False,,,,
16,Open,,,,,,"[-0.026750000193715096, 0.05299999937415123, 0.03999999910593033]","[0.0, -0.0, 1.2467510110527222]","[-0.09500277042388916, 0.07592508941888809, 0.03999999910593033]","[0.0, -0.0, 1.246751870145374]","[0.026750000193715096, 0.05299999937415123, 0.03999999910593033]","[0.0, 0.0, -1.255411348379259]","[0.09519875049591064, 0.0753331333398819, 0.03999999910593033]","[0.0, 0.0, -1.2972309672073006]",1.2790758303502607,7.757977857326381,"(0.0, 0.0, 0.0, 0.0, 0.0, 0.0)",-1.2456264712746363,2.1141758111398655e-06,0.0002881448469053121,"(0.0, 0.0, 0.0, 0.0, 0.0, 0.0)",-0.088015399348708,-1.2868702429335757,-7.5501268551046525,"(0.0, 0.0, 0.0, 0.0, 0.0, 0.0)",1.2010989712673745,-0.037638748630864464,1.0034085792163332,"(0.0, 0.0, 0.0, 0.0, 0.0, 0.0)",0.07444006052486639,False,,,,,False,,,,
17,Open,,,,,,"[-0.026750000193715096, 0.05299999937415123, 0.03999999910593033]","[0.0, -0.0, 1.2790758758817962]","[-0.09570803493261337, 0.0737072303891182, 0.03999999910593033]","[0.0, -0.0, 1.2790780932516201]","[0.026750000193715096, 0.05299999937415123, 0.03999999910593033]","[0.0, 0.0, -1.2868702529032277]","[0.0958673357963562, 0.07316911965608597, 0.03999999910593033]","[0.0, 0.0, -1.3245087793274308]",1.3081682532711112,6.982181501004109,"(0.0, 0.0, 0.0, 0.0, 0.0, 0.0)",-1.12145472366965,1.9027582300258812e-06,-5.0740219467356254e-05,"(0.0, 0.0, 0.0, 0.0, 0.0, 0.0)",-0.07939114715284208,-1.315183223212741,-6.795115266999686,"(0.0, 0.0, 0.0, 0.0, 0.0, 0.0)",1.0813262344929835,-0.033874873767778015,0.9033299671407473,"(0.0, 0.0, 0.0, 0.0, 0.0, 0.0)",0.06713055017345074,False,,,,,False,,,,
18,Open,,,,,,"[-0.026750000193715096, 0.05299999937415123, 0.03999999910593033]","[0.0, -0.0, 1.3081682459906412]","[-0.09628119319677353, 0.07169260084629059, 0.03999999910593033]","[0.0, -0.0, 1.3081702011658356]","[0.026750000193715096, 0.05299999937415123, 0.03999999910593033]","[0.0, 0.0, -1.3151833180210462]","[0.0964106097817421, 0.07120437920093536, 0.03999999910593033]","[0.0, 0.0, -1.349058153261439]",1.334351427944,6.283961921493333,"(0.0, 0.0, 0.0, 0.0, 0.0, 0.0)",-1.0095234585863413,2.7618377923566443e-06,0.00020617909495938315,"(0.0, 0.0, 0.0, 0.0, 0.0, 0.0)",-0.07148780084672787,-1.3406649008914668,-6.11560264289422,"(0.0, 0.0, 0.0, 0.0, 0.0, 0.0)",0.9733796231570812,-0.030488273507324658,0.8127840625088054,"(0.0, 0.0, 0.0, 0.0, 0.0, 0.0)",0.060435192896783604,False,,,,,False,,,,
19,Open,,,,,,"[-0.026750000193715096, 0.05299999937415123, 0.03999999910593033]","[0.0, -0.0, 1.334351465706577]","[-0.09674673527479172, 0.06986585259437561, 0.03999999910593033]","[0.0, -0.0, 1.33435435145599]","[0.026750000193715096, 0.05299999937415123, 0.03999999910593033]","[0.0, 0.0, -1.3406650641721125]","[0.09685182571411133, 0.06942359358072281, 0.03999999910593033]","[0.0, 0.0, -1.3711530696282732]",1.3579162851496,5.655565729344001,"(0.0, 0.0, 0.0, 0.0, 0.0, 0.0)",-0.9088150211252332,3.4316066113876724e-06,0.0001607445165674468,"(0.0, 0.0, 0.0, 0.0, 0.0, 0.0)",-0.06444344013525093,-1.3635984108023202,-5.504042378604797,"(0.0, 0.0, 0.0, 0.0, 0.0, 0.0)",0.8762522980402716,-0.02744024570882781,0.7315266716392431,"(0.0, 0.0, 0.0, 0.0, 0.0, 0.0)",0.05446985052483407,False,,,,,False,,,,
20,Open,,,,,,"[-0.026750000193715096, 0.05299999937415123, 0.03999999910593033]","[0.0, -0.0, 1.3579163939939654]","[-0.09712471067905426, 0.0682118609547615, 0.03999999910593033]","[0.0, -0.0, 1.3579197824809437]","[0.026750000193715096, 0.05299999937415123, 0.03999999910593033]","[0.0, 0.0, -1.3635984874387626]","[0.09721000492572784, 0.06781173497438431, 0.03999999910593033]","[0.0, 0.0, -1.3910385869420074]",1.37912465663464,5.090009156409601,"(0.0, 0.0, 0.0, 0.0, 0.0, 0.0)",-0.8181093185961676,3.940702417530038e-06,0.0001221829934741677,"(0.0, 0.0, 0.0, 0.0, 0.0, 0.0)",-0.05806034967263589,-1.3842385697220883,-4.953638140744317,"(0.0, 0.0, 0.0, 0.0, 0.0, 0.0)",0.7887791417834831,-0.024696941374704916,0.6583930401894944,"(0.0, 0.0, 0.0, 0.0, 0.0, 0.0)",0.04906644857689494,False,,,,,False,,,,
21,Open,,,,,,"[-0.026750000193715096, 0.05299999937415123, 0.03999999910593033]","[0.0, -0.0, 1.3791247702213432]","[-0.0974314734339714, 0.0667160153388977, 0.03999999910593033]","[0.0, -0.0, 1.3791284782568445]","[0.026750000193715096, 0.05299999937415123, 0.03999999910593033]","[0.0, 0.0, -1.3842387704807777]","[0.09750068932771683, 0.06635437905788422, 0.03999999910593033]","[0.0, 0.0, -1.408935619520831]",1.398212190971176,4.581008240768642,"(0.0, 0.0, 0.0, 0.0, 0.0, 0.0)",-0.7364407507487188,4.314390796743166e-06,8.968521101115077e-05,"(0.0, 0.0, 0.0, 0.0, 0.0, 0.0)",-0.05230389643117988,-1.4028147127498793,-4.458274326669883,"(0.0, 0.0, 0.0, 0.0, 0.0, 0.0)",0.7100243788118592,-0.02222789596809768,0.5925708975857369,"(0.0, 0.0, 0.0, 0.0, 0.0, 0.0)",0.04419507766734469,False,,,,,False,,,,
22,Open,,,,,,"[-0.026750000193715096, 0.05299999937415123, 0.03999999910593033]","[0.0, -0.0, 1.3982120672717784]","[-0.09768038988113403, 0.06536446511745453, 0.03999999910593033]","[0.0, -0.0, 1.3982164487645397]","[0.026750000193715096, 0.05299999937415123, 0.03999999910593033]","[0.0, 0.0, -1.4028147367436141]","[0.09773654490709305, 0.06503787636756897, 0.03999999910593033]","[0.0, 0.0, -1.4250426427007885]",1.4153909718740585,4.122907416691778,"(0.0, 0.0, 0.0, 0.0, 0.0, 0.0)",-0.6629119687698639,4.574523674952359e-06,6.243189077020624e-05,"(0.0, 0.0, 0.0, 0.0, 0.0, 0.0)",-0.04711364623212332,-1.4195332414748913,-4.012446894002898,"(0.0, 0.0, 0.0, 0.0, 0.0, 0.0)",0.6391216750959775,-0.02000569064819732,0.5333292767760867,"(0.0, 0.0, 0.0, 0.0, 0.0, 0.0)",0.039804123486470444,False,,,,,False,,,,
23,Open,,,,,,"[-0.026750000193715096, 0.05299999937415123, 0.03999999910593033]","[0.0, -0.0, 1.415391158105469]","[-0.09788231551647186, 0.06414420157670975, 0.03999999910593033]","[0.0, -0.0, 1.415395709317307]","[0.026750000193715096, 0.05299999937415123, 0.03999999910593033]","[0.0, 0.0, -1.419533200978404]","[0.09792786836624146, 0.06384945660829544, 0.03999999910593033]","[0.0, 0.0, -1.4395389386881268]",1.4308518746866525,3.7106166750225977,"(0.0, 0.0, 0.0, 0.0, 0.0, 0.0)",-0.5967141397561109,4.7399630338636504e-06,3.9705446138709865e-05,"(0.0, 0.0, 0.0, 0.0, 0.0, 0.0)",-0.042434775014060074,-1.4345799173274023,-3.611202204602609,"(0.0, 0.0, 0.0, 0.0, 0.0, 0.0)",0.5752902758042565,-0.018005647771851804,0.4800102903229233,"(0.0, 0.0, 0.0, 0.0, 0.0, 0.0)",0.0358468230863414,False,,,,,False,,,,
24,Open,,,,,,"[-0.026750000193715096, 0.05299999937415123, 0.03999999910593033]","[0.0, -0.0, 1.4308518944899675]","[-0.09804610908031464, 0.06304314732551575, 0.03999999910593033]","[0.0, -0.0, 1.4308566269594332]","[0.026750000193715096, 0.05299999937415123, 0.03999999910593033]","[0.0, 0.0, -1.4345798203875788]","[0.09808305650949478, 0.06277728080749512, 0.03999999910593033]","[0.0, 0.0, -1.4525855975984745]",1.4447666872179874,3.339555007520341,"(0.0, 0.0, 0.0, 0.0, 0.0, 0.0)",-0.5371183361845069,4.8269553674989e-06,2.0878160072459843e-05,"(0.0, 0.0, 0.0, 0.0, 0.0, 0.0)",-0.03821759960562203,-1.448121925594662,-3.2500819841423465,"(0.0, 0.0, 0.0, 0.0, 0.0, 0.0)",0.5178266556878065,-0.016205556838873442,0.4320218239148067,"(0.0, 0.0, 0.0, 0.0, 0.0, 0.0)",0.0322808466635012,False,,,,,False,,,,
25,Open,,,,,,"[-0.026750000193715096, 0.05299999937415123, 0.03999999910593033]","[0.0, -0.0, 1.4447668540021588]","[-0.09817895293235779, 0.06205013021826744, 0.03999999910593033]","[0.0, -0.0, 1.4447715863131299]","[0.026750000193715096, 0.05299999937415123, 0.03999999910593033]","[0.0, 0.0, -1.448121993206969]","[0.09820891171693802, 0.06181041896343231, 0.03999999910593033]","[0.0, 0.0, -1.46432761016298]",1.4572900184961886,3.005599506768304,"(0.0, 0.0, 0.0, 0.0, 0.0, 0.0)",-0.483467731204937,4.849462099751187e-06,5.401615740548756e-06,"(0.0, 0.0, 0.0, 0.0, 0.0, 0.0)",-0.03441712855198442,-1.4603097330351957,-2.925073785728113,"(0.0, 0.0, 0.0, 0.0, 0.0, 0.0)",0.4660969568661882,-0.014585427836986846,0.38883096045278315,"(0.0, 0.0, 0.0, 0.0, 0.0, 0.0)",0.029067900465992856,False,,,,,False,,,,
26,Open,,,,,,"[-0.026750000193715096, 0.05299999937415123, 0.03999999910593033]","[0.0, -0.0, 1.4572900807517244]","[-0.0982866883277893, 0.061154916882514954, 0.03999999910593033]","[0.0, -0.0, 1.4572948921008348]","[0.026750000193715096, 0.05299999937415123, 0.03999999910593033]","[0.0, 0.0, -1.4603097470714805]","[0.09831098467111588, 0.06093886122107506, 0.03999999910593033]","[0.0, 0.0, -1.4748951413427742]",1.4685610166465697,2.705039556091476,"(0.0, 0.0, 0.0, 0.0, 0.0, 0.0)",-0.43517053908893033,4.819450845044722e-06,-7.202701129551542e-06,"(0.0, 0.0, 0.0, 0.0, 0.0, 0.0)",-0.030992645518402973,-1.471278759731676,-2.632566407155304,"(0.0, 0.0, 0.0, 0.0, 0.0, 0.0)",0.4195301522878829,-0.013127269246907155,0.3499580616191257,"(0.0, 0.0, 0.0, 0.0, 0.0, 0.0)",0.02617336062226555,False,,,,,False,,,,
27,Open,,,,,,"[-0.026750000193715096, 0.05299999937415123, 0.03999999910593033]","[0.0, -0.0, 1.4685611215819594]","[-0.09837405383586884, 0.06034812703728676, 0.03999999910593033]","[0.0, -0.0, 1.468565853091142]","[0.026750000193715096, 0.05299999937415123, 0.03999999910593033]","[0.0, 0.0, -1.4712788457263521]","[0.0983937606215477, 0.06015344336628914, 0.03999999910593033]","[0.0, 0.0, -1.4844061039497418]",1.4787049149819127,2.434535600482329,"(0.0, 0.0, 0.0, 0.0, 0.0, 0.0)",-0.39169363303347604,4.747151892642784e-06,-1.7351748576465223e-05,"(0.0, 0.0, 0.0, 0.0, 0.0, 0.0)",-0.02790732436186781,-1.4811508837585086,-2.3693097664397755,"(0.0, 0.0, 0.0, 0.0, 0.0, 0.0)",0.37761186810531283,-0.011814888241968555,0.3149714411852639,"(0.0, 0.0, 0.0, 0.0, 0.0, 0.0)",0.023565936472848985,False,,,,,False,,,,
28,Open,,,,,,"[-0.026750000193715096, 0.05299999937415123, 0.03999999910593033]","[0.0, -0.0, 1.4787049625213984]","[-0.09844490885734558, 0.059621214866638184, 0.03999999910593033]","[0.0, -0.0, 1.4787095898811649]","[0.026750000193715096, 0.05299999937415123, 0.03999999910593033]","[0.0, 0.0, -1.4811508165812142]","[0.09846089035272598, 0.059445831924676895, 0.03999999910593033]","[0.0, 0.0, -1.492965762433775]",1.4878344234837215,2.191082040434097,"(0.0, 0.0, 0.0, 0.0, 0.0, 0.0)",-0.35255677801820895,4.641283838470101e-06,-2.5408333001444004e-05,"(0.0, 0.0, 0.0, 0.0, 0.0, 0.0)",-0.02512787460267613,-1.4900357953826577,-2.132378789795796,"(0.0, 0.0, 0.0, 0.0, 0.0, 0.0)",0.33987880377374147,-0.010633710863257649,0.2834825708906175,"(0.0, 0.0, 0.0, 0.0, 0.0, 0.0)",0.021217361806457186,False,,,,,False,,,,
29,Close,,,"(0.010000165031897679, 0.16000264050809818, 0.003919197399597577)","(-5.388791991209616e-05, 3.3679978815229247e-06, -9.074720008653711e-11)",,"[-0.026750000193715096, 0.05299999937415123, 0.03999999910593033]","[0.0, -0.0, 1.487834617901085]","[-0.09850236773490906, 0.05896640568971634, 0.03999999910593033]","[0.0, -0.0, 1.4878390921106803]","[0.026750000193715096, 0.05299999937415123, 0.03999999910593033]","[0.0, 0.0, -1.4900358577435544]","[0.09851532429456711, 0.05880843847990036, 0.03999999910593033]","[0.0, 0.0, -1.5006695807985118]",1.4960509811353493,1.9719738363906854,"(0.0, 0.0, 0.0, 0.0, 0.0, 0.0)",-0.3173274216127963,4.509251873886308e-06,-3.168767150011037e-05,"(0.0, 0.0, 0.0, 0.0, 0.0, 0.0)",-0.022624215793833224,-1.498032215844392,-1.9191409108162163,"(0.0, 0.0, 0.0, 0.0, 0.0, 0.0)",0.30591369390909257,-0.00957062017308593,0.2551417656412126,"(0.0, 0.0, 0.0, 0.0, 0.0, 0.0)",0.019102112305110365,False,,,,,False,,,,
30,Close,,,"(0.010000330010418335, 0.1600052801621647, 0.0076635160840755065)","(-0.00010776674212266888, 6.7354271463595154e-06, -3.629275205618536e-10)",,"[-0.026750000193715096, 0.05299999937415123, 0.03999999910593033]","[0.0, -0.0, 1.4960509653323988]","[-0.09854896366596222, 0.058376654982566833, 0.03999999910593033]","[0.0, -0.0, 1.4960555203126162]","[0.026750000193715096, 0.05299999937415123, 0.03999999910593033]","[0.0, 0.0, -1.4980320325532246]","[0.09855947643518448, 0.05823439359664917, 0.03999999910593033]","[0.0, 0.0, -1.5076028800413472]",1.4064458830218143,-21.505223547248388,"(0.0, 0.0, 0.0, 0.0, 0.0, 0.0)",-36.32500847077206,-0.08999559064729075,-21.600023975799512,"(0.0, 0.0, 0.0, 0.0, 0.0, 0.0)",-4.679136399120495,-1.4082289942599528,21.552773180265405,"(0.0, 0.0, 0.0, 0.0, 0.0, 0.0)",36.31473208701179,0.08138609105625041,21.82961069504072,"(0.0, 0.0, 0.0, 0.0, 0.0, 0.0)",4.675963213372079,False,,,,,False,,,,
31,Close,,,"(0.010000494936733278, 0.16000791898094055, 0.011233038807318392)","(-0.00016163646818851668, 1.0102287881965475e-05, -8.164490687548302e-10)",,"[-0.026750000193715096, 0.05299999937415123, 0.03999999910593033]","[0.0, -0.0, 1.4064459844712927]","[-0.0977797880768776, 0.06478003412485123, 0.03999999910593033]","[0.0, -0.0, 1.316450240076391]","[0.026750000193715096, 0.05299999937415123, 0.03999999910593033]","[0.0, 0.0, -1.4082291009672807]","[0.09780067950487137, 0.06465335935354233, 0.03999999910593033]","[0.0, 0.0, -1.3268428349863826]",1.325801294719633,-19.354701192523546,"(0.0, 0.0, 0.0, 0.0, 0.0, 0.0)",3.2936342521930255,-0.17099646652613912,-19.44021021092361,"(0.0, 0.0, 0.0, 0.0, 0.0, 0.0)",0.4145426679866387,-1.3274060948339577,19.39749586223887,"(0.0, 0.0, 0.0, 0.0, 0.0, 0.0)",-3.3024243844052092,0.16324791947241268,19.646838819878944,"(0.0, 0.0, 0.0, 0.0, 0.0, 0.0)",-0.41699994760359754,False,,,,,False,,,,
32,Close,,,"(0.010000659812012168, 0.16001055698314023, 0.0146278458391823)","(-0.0002154970996661642, 1.346858017578936e-05, -1.4512199879406586e-09)",,"[-0.026750000193715096, 0.05299999937415123, 0.03999999910593033]","[0.0, -0.0, 1.3258013857525741]","[-0.09659997373819351, 0.07046370953321457, 0.03999999910593033]","[0.0, -0.0, 1.1548048042561467]","[0.026750000193715096, 0.05299999937415123, 0.03999999910593033]","[0.0, 0.0, -1.3274060658778382]","[0.09662791341543198, 0.07035159319639206, 0.03999999910593033]","[0.0, 0.0, -1.1641581075845935]",1.2532211652476697,-17.41923107327119,"(0.0, 0.0, 0.0, 0.0, 0.0, 0.0)",2.9685258329366073,-0.24389721437960032,-17.496179484830687,"(0.0, 0.0, 0.0, 0.0, 0.0, 0.0)",0.3760018756193849,-1.2546654853505619,17.457746276014984,"(0.0, 0.0, 0.0, 0.0, 0.0, 0.0)",-2.976480273609718,0.2369235243908578,17.682145180426822,"(0.0, 0.0, 0.0, 0.0, 0.0, 0.0)",-0.3782508099482112,False,,,,,False,,,,
33,Close,,,"(0.010000824637423049, 0.16001319418745247, 0.017848014970055004)","(-0.00026934863811186216, 1.6834304115272585e-05, -2.2671484573282825e-09)",,"[-0.026750000193715096, 0.05299999937415123, 0.03999999910593033]","[0.0, -0.0, 1.2532212515508983]","[-0.09514966607093811, 0.07548300176858902, 0.03999999910593033]","[0.0, -0.0, 1.0093239867956962]","[0.026750000193715096, 0.05299999937415123, 0.03999999910593033]","[0.0, 0.0, -1.254665405963893]","[0.09518206864595413, 0.07538418471813202, 0.03999999910593033]","[0.0, 0.0, -1.0177419933055243]",1.1878990487229026,-15.677307965944074,"(0.0, 0.0, 0.0, 0.0, 0.0, 0.0)",2.675103284419244,-0.30950785045582774,-15.746552658294572,"(0.0, 0.0, 0.0, 0.0, 0.0, 0.0)",0.34074508229325023,-1.1891989368155058,15.711971648413485,"(0.0, 0.0, 0.0, 0.0, 0.0, 0.0)",-2.6822973218910153,0.30323153162132754,15.913921735312746,"(0.0, 0.0, 0.0, 0.0, 0.0, 0.0)",-0.34279935345822066,False,,,,,False,,,,
34,Close,,,"(0.010000989414132393, 0.1600158306125408, 0.020893621515273818)","(-0.00032319108508158773, 2.0199459787849396e-05, -3.2641426920478403e-09)",,"[-0.026750000193715096, 0.05299999937415123, 0.03999999910593033]","[0.0, -0.0, 1.1878990574339587]","[-0.09353619813919067, 0.07989988476037979, 0.03999999910593033]","[0.0, -0.0, 0.8783912846834516]","[0.026750000193715096, 0.05299999937415123, 0.03999999910593033]","[0.0, 0.0, -1.1891990098250689]","[0.09357111155986786, 0.07981304824352264, 0.03999999910593033]","[0.0, 0.0, -0.8859674697633095]",1.1291091438506125,-14.109577169349663,"(0.0, 0.0, 0.0, 0.0, 0.0, 0.0)",2.4103712722760626,-0.36855738916456426,-14.17188929009676,"(0.0, 0.0, 0.0, 0.0, 0.0, 0.0)",0.3085687115248564,-1.1302790431339553,14.140774483572143,"(0.0, 0.0, 0.0, 0.0, 0.0, 0.0)",-2.4168742890236286,0.36290870417903687,14.322521413850238,"(0.0, 0.0, 0.0, 0.0, 0.0, 0.0)",-0.31044204201279674,False,,,,,False,,,,
35,Close,,,"(0.010001154143305145, 0.16001846627704427, 0.023764738319401603)","(-0.00037702444213104407, 2.3564047280946926e-05, -4.4421109431381166e-09)",,"[-0.026750000193715096, 0.05299999937415123, 0.03999999910593033]","[0.0, -0.0, 1.1291090274464952]","[-0.09184028208255768, 0.08377750217914581, 0.03999999910593033]","[0.0, -0.0, 0.7605517150898052]","[0.026750000193715096, 0.05299999937415123, 0.03999999910593033]","[0.0, 0.0, -1.130279133319625]","[0.09187624603509903, 0.08370133489370346, 0.03999999910593033]","[0.0, 0.0, -0.7673703325611945]",1.0761982294655512,-12.698619452414698,"(0.0, 0.0, 0.0, 0.0, 0.0, 0.0)",2.1715845710489208,-0.42170194324014043,-12.754692978138287,"(0.0, 0.0, 0.0, 0.0, 0.0, 0.0)",0.27924932151422227,-1.07725113882056,12.72669703521493,"(0.0, 0.0, 0.0, 0.0, 0.0, 0.0)",-2.177460276301377,0.41661812854294633,12.890261847338277,"(0.0, 0.0, 0.0, 0.0, 0.0, 0.0)",-0.2809551529003472,False,,,,,False,,,,
36,Close,,,"(0.010001318826104761, 0.16002110119957821, 0.02646143576036139)","(-0.0004308487108156613, 2.692806668198511e-05, -5.800961497533997e-09)",,"[-0.026750000193715096, 0.05299999937415123, 0.03999999910593033]","[0.0, -0.0, 1.076198055145404]","[-0.09012148529291153, 0.08717681467533112, 0.03999999910593033]","[0.0, -0.0, 0.6544962762796218]","[0.026750000193715096, 0.05299999937415123, 0.03999999910593033]","[0.0, 0.0, -1.0772510781061955]","[0.09015743434429169, 0.08711007237434387, 0.03999999910593033]","[0.0, 0.0, -0.6606329452337051]",1.028578406518996,-11.428757507173229,"(0.0, 0.0, 0.0, 0.0, 0.0, 0.0)",1.9562489498726314,-0.46953201391559385,-11.479216962108818,"(0.0, 0.0, 0.0, 0.0, 0.0, 0.0)",0.2525697399559188,-1.0295260249385039,11.454027331693439,"(0.0, 0.0, 0.0, 0.0, 0.0, 0.0)",-1.961555706583625,0.46495658231577774,11.601228905479532,"(0.0, 0.0, 0.0, 0.0, 0.0, 0.0)",-0.25412105363877113,False,,,,,False,,,,
37,Close,,,"(0.010001483463693249, 0.1600237353987347, 0.0289837817534302)","(-0.0004846638926905951, 3.0291518078376737e-05, -7.3406026780539124e-09)",,"[-0.026750000193715096, 0.05299999937415123, 0.03999999910593033]","[0.0, -0.0, 1.028578444789276]","[-0.08842276781797409, 0.09015467017889023, 0.03999999910593033]","[0.0, -0.0, 0.5590464126725148]","[0.026750000193715096, 0.05299999937415123, 0.03999999910593033]","[0.0, 0.0, -1.029526007298545]","[0.08845794945955276, 0.09009620547294617, 0.03999999910593033]","[0.0, 0.0, -0.564569399435659]",0.9857205658670964,-10.285881756455906,"(0.0, 0.0, 0.0, 0.0, 0.0, 0.0)",1.7621005438122825,-0.5125790520819234,-10.331289159919107,"(0.0, 0.0, 0.0, 0.0, 0.0, 0.0)",0.22832149176550065,-0.9865734224446535,10.308624598524094,"(0.0, 0.0, 0.0, 0.0, 0.0, 0.0)",-1.766891708603882,0.508461165120635,10.441099873165749,"(0.0, 0.0, 0.0, 0.0, 0.0, 0.0)",-0.22973068702752517,False,,,,,False,,,,
38,Close,,,"(0.010001648057231211, 0.16002636889308344, 0.03133184175509247)","(-0.0005384699893107284, 3.3654401557527444e-05, -9.06094284338731e-09)",,"[-0.026750000193715096, 0.05299999937415123, 0.03999999910593033]","[0.0, -0.0, 0.9857205423734198]","[-0.08677425980567932, 0.09276290237903595, 0.03999999910593033]","[0.0, -0.0, 0.47314147483112123]","[0.026750000193715096, 0.05299999937415123, 0.03999999910593033]","[0.0, 0.0, -0.9865734261287252]","[0.08680814504623413, 0.09271169453859329, 0.03999999910593033]","[0.0, 0.0, -0.4781122693565934]",0.9471485092803869,-9.257293580810316,"(0.0, 0.0, 0.0, 0.0, 0.0, 0.0)",1.587086438141582,-0.5513213633331018,-9.29815470028281,"(0.0, 0.0, 0.0, 0.0, 0.0, 0.0)",0.206306403170868,-0.9479160802001881,9.277762138671687,"(0.0, 0.0, 0.0, 0.0, 0.0, 0.0)",-1.5914107042435905,0.5476152664096928,9.396984309373877,"(0.0, 0.0, 0.0, 0.0, 0.0, 0.0)",-0.2075852193448244,False,,,,,False,,,,
39,Close,,,"(0.01000181260787789, 0.16002900170117218, 0.03350567876675359)","(-0.00059226700223067, 3.7016717206835695e-05, -1.0961890388082131e-08)",,"[-0.026750000193715096, 0.05299999937415123, 0.03999999910593033]","[0.0, -0.0, 0.9471486716739237]","[-0.08519625663757324, 0.09504801034927368, 0.03999999910593033]","[0.0, -0.0, 0.39582717163487297]","[0.026750000193715096, 0.05299999937415123, 0.03999999910593033]","[0.0, 0.0, -0.9479160840165974]","[0.08522851020097733, 0.09500313550233841, 0.03999999910593033]","[0.0, 0.0, -0.4003008647547732]",0.9124336583523481,-8.331564222729286,"(0.0, 0.0, 0.0, 0.0, 0.0, 0.0)",1.4293465062267445,-0.5861894225076075,-8.368334201881392,"(0.0, 0.0, 0.0, 0.0, 0.0, 0.0)",0.18633757536892917,-0.9131244721801693,8.349985924804516,"(0.0, 0.0, 0.0, 0.0, 0.0, 0.0)",-1.433248242084051,0.5828539364930729,8.45728082001123,"(0.0, 0.0, 0.0, 0.0, 0.0, 0.0)",-0.18749704763631705,False,,,,,False,,,,
40,Close,,,"(0.010001977116791199, 0.1600316338415276, 0.035505353338314005)","(-0.0006460549330047555, 4.037846511369274e-05, -1.3043353742532214e-08)",,"[-0.026750000193715096, 0.05299999937415123, 0.03999999910593033]","[0.0, -0.0, 0.9124336635104583]","[-0.08370164036750793, 0.0970512256026268, 0.03999999910593033]","[0.0, -0.0, 0.3262442150321584]","[0.026750000193715096, 0.05299999937415123, 0.03999999910593033]","[0.0, 0.0, -0.9131245532476111]","[0.08373206108808517, 0.09701187163591385, 0.03999999910593033]","[0.0, 0.0, -0.3302705841133475]",0.8811902925171133,-7.498407800456356,"(0.0, 0.0, 0.0, 0.0, 0.0, 0.0)",1.2871965063691413,-0.6175706567763247,-7.531496224492115,"(0.0, 0.0, 0.0, 0.0, 0.0, 0.0)",0.16823988009592084,-0.8818120249621524,7.514987332324067,"(0.0, 0.0, 0.0, 0.0, 0.0, 0.0)",-1.2907160846573733,0.6145687204653795,7.61154815335357,"(0.0, 0.0, 0.0, 0.0, 0.0, 0.0)",-0.16929032064296096,False,,,,,False,,,,
41,Close,,,"(0.010002141585127773, 0.16003426533265583, 0.03733092357160428)","(-0.0006998337831870475, 4.3739645365482716e-05, -1.5305241372964883e-08)",,"[-0.026750000193715096, 0.05299999937415123, 0.03999999910593033]","[0.0, -0.0, 0.8811903688816151]","[-0.08229776471853256, 0.09880879521369934, 0.03999999910593033]","[0.0, -0.0, 0.2636196251065186]","[0.026750000193715096, 0.05299999937415123, 0.03999999910593033]","[0.0, 0.0, -0.8818121535754343]","[0.08232623338699341, 0.098774254322052, 0.03999999910593033]","[0.0, 0.0, -0.26724331826119446]",0.853071263265402,-6.7485670204107215,"(0.0, 0.0, 0.0, 0.0, 0.0, 0.0)",1.1591124175888132,-0.6458137504217961,-6.77834247491313,"(0.0, 0.0, 0.0, 0.0, 0.0, 0.0)",0.1518500972569631,-0.8536308224659371,6.763488599091658,"(0.0, 0.0, 0.0, 0.0, 0.0, 0.0)",-1.1622865309865396,0.643112008739745,6.850389185847702,"(0.0, 0.0, 0.0, 0.0, 0.0, 0.0)",-0.15280109527428076,False,,,,,False,,,,
42,Close,,,"(0.010002306014043007, 0.16003689619304312, 0.038982445123681576)","(-0.0007536035543313348, 4.7100258049582536e-05, -1.7747461781428295e-08)",,"[-0.026750000193715096, 0.05299999937415123, 0.03999999910593033]","[0.0, -0.0, 0.8530713239495782]","[-0.08098787814378738, 0.10035242885351181, 0.03999999910593033]","[0.0, -0.0, 0.2072574956851119]","[0.026750000193715096, 0.05299999937415123, 0.03999999910593033]","[0.0, 0.0, -0.8536307856313979]","[0.08101436495780945, 0.10032207518815994, 0.03999999910593033]","[0.0, 0.0, -0.21051882644475053]",0.8277641369388617,-6.073710318369648,"(0.0, 0.0, 0.0, 0.0, 0.0, 0.0)",1.043715976216214,-0.6712325191394197,-6.100504492229669,"(0.0, 0.0, 0.0, 0.0, 0.0, 0.0)",0.1370167890019201,-0.8282677402193435,6.0871397391824935,"(0.0, 0.0, 0.0, 0.0, 0.0, 0.0)",-1.0465779375227178,0.6688009525283538,6.165346509266115,"(0.0, 0.0, 0.0, 0.0, 0.0, 0.0)",-0.1378772244212715,False,,,,,False,,,,
43,Close,,,"(0.010002470404691093, 0.16003952644115657, 0.04045997120998789)","(-0.0008073642479911328, 5.0460303253361964e-05, -2.0369923505779015e-08)",,"[-0.026750000193715096, 0.05299999937415123, 0.03999999910593033]","[0.0, -0.0, 0.8277641182932235]","[-0.07977228611707687, 0.10170972347259521, 0.03999999910593033]","[0.0, -0.0, 0.1565316389415725]","[0.026750000193715096, 0.05299999937415123, 0.03999999910593033]","[0.0, 0.0, -0.8282677342123946]","[0.07979680597782135, 0.10168302059173584, 0.03999999910593033]","[0.0, 0.0, -0.1594667900835625]",0.8049877232449756,-5.4663392865326825,"(0.0, 0.0, 0.0, 0.0, 0.0, 0.0)",0.9397613626777375,-0.6941093969081942,-5.49045066450586,"(0.0, 0.0, 0.0, 0.0, 0.0, 0.0)",0.12359998406321729,-0.8054409661974091,5.478425765264244,"(0.0, 0.0, 0.0, 0.0, 0.0, 0.0)",-0.9423413878167864,0.6919209877745929,5.54880845909737,"(0.0, 0.0, 0.0, 0.0, 0.0, 0.0)",-0.12437805104754245,False,,,,,False,,,,
44,Close,,,"(0.010002634758225062, 0.1600421560954447, 0.041763552607370504)","(-0.000861115865719684, 5.381978106418352e-05, -2.3172535119669436e-08)",,"[-0.026750000193715096, 0.05299999937415123, 0.03999999910593033]","[0.0, -0.0, 0.8049877164750058]","[-0.07864919304847717, 0.10290464758872986, 0.03999999910593033]","[0.0, -0.0, 0.11087832859978779]","[0.026750000193715096, 0.05299999937415123, 0.03999999910593033]","[0.0, 0.0, -0.805440964305088]","[0.07867180556058884, 0.10288111865520477, 0.03999999910593033]","[0.0, 0.0, -0.11351997099607207]",0.784488950920478,-4.919705357879415,"(0.0, 0.0, 0.0, 0.0, 0.0, 0.0)",0.8461229797239068,-0.7146985741739192,-4.941402543774016,"(0.0, 0.0, 0.0, 0.0, 0.0, 0.0)",0.11147072977230046,-0.7848968695776682,4.93058318873782,"(0.0, 0.0, 0.0, 0.0, 0.0, 0.0)",-0.8484484528940599,0.7127290066915236,4.993924540063379,"(0.0, 0.0, 0.0, 0.0, 0.0, 0.0)",-0.1121739668696123,False,,,,,False,,,,
45,Close,,,"(0.010002799075796832, 0.16004478517433812, 0.04289323765696492)","(-0.0009148584090699577, 5.7178691569402595e-05, -2.615520523253533e-08)",,"[-0.026750000193715096, 0.05299999937415123, 0.03999999910593033]","[0.0, -0.0, 0.7844889896573499]","[-0.07761538028717041, 0.10395795851945877, 0.03999999910593033]","[0.0, -0.0, 0.06979037514545033]","[0.026750000193715096, 0.05299999937415123, 0.03999999910593033]","[0.0, 0.0, -0.7848969068252226]","[0.07763615995645523, 0.10393720120191574, 0.03999999910593033]","[0.0, 0.0, -0.07216786709232846]",0.7660400558284302,-4.427734822091471,"(0.0, 0.0, 0.0, 0.0, 0.0, 0.0)",0.7617842585328375,-0.7332288222135146,-4.44725952950288,"(0.0, 0.0, 0.0, 0.0, 0.0, 0.0)",0.10051055612556806,-0.7664071826199014,4.437524869864038,"(0.0, 0.0, 0.0, 0.0, 0.0, 0.0)",-0.7638799793048979,0.7314562121459494,4.494529309062177,"(0.0, 0.0, 0.0, 0.0, 0.0, 0.0)",-0.10114588070786824,False,,,,,False,,,,
46,Close,,,"(0.010002963358557236, 0.16004741369625017, 0.04384907226694074)","(-0.0009685918795946493, 6.053703485636736e-05, -2.9317842489583264e-08)",,"[-0.026750000193715096, 0.05299999937415123, 0.03999999910593033]","[0.0, -0.0, 0.7660400058439011]","[-0.07666666060686111, 0.10488764196634293, 0.03999999910593033]","[0.0, -0.0, 0.0328112365488731]","[0.026750000193715096, 0.05299999937415123, 0.03999999910593033]","[0.0, 0.0, -0.7664072421942376]","[0.07668570429086685, 0.1048693135380745, 0.03999999910593033]","[0.0, 0.0, -0.03495097036229706]",0.7494360502455871,-3.984961339882325,"(0.0, 0.0, 0.0, 0.0, 0.0, 0.0)",0.6858274268188955,-0.7499060350622873,-4.002531083705426,"(0.0, 0.0, 0.0, 0.0, 0.0, 0.0)",0.09061088591719418,-0.7497664643579113,3.9937723828776335,"(0.0, 0.0, 0.0, 0.0, 0.0, 0.0)",-0.6877158393779155,0.7483106866034595,4.045073869802414,"(0.0, 0.0, 0.0, 0.0, 0.0, 0.0)",-0.09118463108881669,False,,,,,False,,,,
47,Close,,,"(0.010003127607656072, 0.16005004167957756, 0.04463109991511072)","(-0.0010223162788461832, 6.389481101241881e-05, -3.266035557177819e-08)",,"[-0.026750000193715096, 0.05299999937415123, 0.03999999910593033]","[0.0, -0.0, 0.7494360616149593]","[-0.07579827308654785, 0.1057092696428299, 0.03999999910593033]","[0.0, 0.0, -0.00046998485639781964]","[0.026750000193715096, 0.05299999937415123, 0.03999999910593033]","[0.0, 0.0, -0.7497665229086657]","[0.07581568509340286, 0.10569305717945099, 0.03999999910593033]","[0.0, 0.0, -0.0014557777936095985]",0.7344924452210284,-3.5864652058940925,"(0.0, 0.0, 0.0, 0.0, 0.0, 0.0)",0.6173964503690262,-0.7649166300024903,-3.602542785648727,"(0.0, 0.0, 0.0, 0.0, 0.0, 0.0)",0.08164469448201127,-0.7347898179221202,3.594395144589871,"(0.0, 0.0, 0.0, 0.0, 0.0, 0.0)",-0.61909767957405,0.7634808239898891,3.6408329727431203,"(0.0, 0.0, 0.0, 0.0, 0.0, 0.0)",-0.08216247127692902,False,,,,,False,,,,
48,Close,,,"(0.010003291824242136, 0.16005266914270105, 0.04523936165140331)","(-0.0010760316083767074, 6.725202012489063e-05, -3.618265319583079e-08)",,"[-0.026750000193715096, 0.05299999937415123, 0.03999999910593033]","[0.0, -0.0, 0.7344924171356654]","[-0.07500515878200531, 0.10643631219863892, 0.03999999910593033]","[0.0, 0.0, -0.03042418292779103]","[0.026750000193715096, 0.05299999937415123, 0.03999999910593033]","[0.0, 0.0, -0.7347898072320369]","[0.07502105087041855, 0.10642196238040924, 0.03999999910593033]","[0.0, -0.0, 0.028691003185096618]",0.7210432006989256,-3.227818685304683,"(0.0, 0.0, 0.0, 0.0, 0.0, 0.0)",0.5558325671900768,-0.77842604750784,-3.2422602012839143,"(0.0, 0.0, 0.0, 0.0, 0.0, 0.0)",0.07360992294062317,-0.7213108361299082,3.234955630130884,"(0.0, 0.0, 0.0, 0.0, 0.0, 0.0)",-0.5573653507703412,0.7771338289584356,3.2767211924511668,"(0.0, 0.0, 0.0, 0.0, 0.0, 0.0)",-0.07407739542501454,False,,,,,False,,,,
49,Close,,,"(0.010003456009463264, 0.16005529610398603, 0.04567389610019914)","(-0.0011297378697381003, 7.060866228110946e-05, -3.988464411418517e-08)",,"[-0.026750000193715096, 0.05299999937415123, 0.03999999910593033]","[0.0, -0.0, 0.7210432248946826]","[-0.07428213953971863, 0.10708045959472656, 0.03999999910593033]","[0.0, 0.0, -0.05738284539856889]","[0.026750000193715096, 0.05299999937415123, 0.03999999910593033]","[0.0, 0.0, -0.7213108742429458]","[0.07429660856723785, 0.10706773400306702, 0.03999999910593033]","[0.0, -0.0, 0.0558229905847104]",0.708938880629033,-2.905036816774215,"(0.0, 0.0, 0.0, 0.0, 0.0, 0.0)",0.5003668258645501,-0.7905844163893876,-2.9180085315714246,"(0.0, 0.0, 0.0, 0.0, 0.0, 0.0)",0.06632913423961855,-0.7091797525169173,2.911460067117798,"(0.0, 0.0, 0.0, 0.0, 0.0, 0.0)",-0.5017475327577147,0.7894214258858812,2.9490232625869344,"(0.0, 0.0, 0.0, 0.0, 0.0, 0.0)",-0.06675089596581112,False,,,,,False,,,,
50,Close,,,"(0.010001644182078712, 0.16005595153396976, 0.045940321410535084)","(-0.0011271805217326655, 1.767785898679914e-05, -1.508889111938428e-08)",,"[-0.026750000193715096, 0.05299999937415123, 0.03999999910593033]","[0.0, -0.0, 0.7089389671526269]","[-0.07362406700849533, 0.10765182226896286, 0.03999999910593033]","[0.0, 0.0, -0.08164554069303018]","[0.026750000193715096, 0.05299999937415123, 0.03999999910593033]","[0.0, 0.0, -0.7091797033714331]","[0.0736372321844101, 0.10764053463935852, 0.03999999910593033]","[0.0, -0.0, 0.08024167743029369]",0.6980449925661297,-2.6145331350967917,"(0.0, 0.0, 0.0, 0.0, 0.0, 0.0)",0.4504252929298086,-0.8015268519725993,-2.6261845399708146,"(0.0, 0.0, 0.0, 0.0, 0.0, 0.0)",0.059761147909024356,-0.6982617772652256,2.6203140604060167,"(0.0, 0.0, 0.0, 0.0, 0.0, 0.0)",-0.4516689022418484,0.8004801661036254,2.6540976522586175,"(0.0, 0.0, 0.0, 0.0, 0.0, 0.0)",-0.06014157277442886,False,,,,,False,,,,
51,Close,,,"(0.009998458164918766, 0.16005543218265145, 0.046184544665354044)","(-0.001116587313714928, -4.731063982249702e-05, 3.3486629919706074e-09)",,"[-0.026750000193715096, 0.05299999937415123, 0.03999999910593033]","[0.0, -0.0, 0.6980450466292163]","[-0.07302592694759369, 0.10815921425819397, 0.03999999910593033]","[0.0, 0.0, -0.1034818592301779]","[0.026750000193715096, 0.05299999937415123, 0.03999999910593033]","[0.0, 0.0, -0.6982617371246688]","[0.07303788512945175, 0.10814917832612991, 0.03999999910593033]","[0.0, -0.0, 0.10221840210156648]",0.6882404933095168,-2.3530798215871136,"(0.0, 0.0, 0.0, 0.0, 0.0, 0.0)",0.40545980991383274,-0.8113749570468809,-2.3635452178275753,"(0.0, 0.0, 0.0, 0.0, 0.0, 0.0)",0.0538375991228723,-0.688435599538703,2.358282654365416,"(0.0, 0.0, 0.0, 0.0, 0.0, 0.0)",-0.4065798463491374,0.810432944800545,2.3886668872606847,"(0.0, 0.0, 0.0, 0.0, 0.0, 0.0)",-0.0541806611811555,False,,,,,False,,,,
52,Close,,,"(0.0099979269032565, 0.16005188637635104, 0.04640949954916324)","(-0.0010442772263960227, -5.814874739306873e-05, 7.787963860925158e-09)",,"[-0.026750000193715096, 0.05299999937415123, 0.03999999910593033]","[0.0, -0.0, 0.688240548987758]","[-0.07248289883136749, 0.10861026495695114, 0.03999999910593033]","[0.0, 0.0, -0.12313446206189271]","[0.026750000193715096, 0.05299999937415123, 0.03999999910593033]","[0.0, 0.0, -0.6884356086136862]","[0.07249374687671661, 0.10860133916139603, 0.03999999910593033]","[0.0, -0.0, 0.1219973374555316]",0.679416393078237,-2.117784055507141,"(0.0, 0.0, 0.0, 0.0, 0.0, 0.0)",0.3649762140031281,-0.8202374613421928,-2.12700103087486,"(0.0, 0.0, 0.0, 0.0, 0.0, 0.0)",0.04851286211734207,-0.6795919883598663,2.1224666829208143,"(0.0, 0.0, 0.0, 0.0, 0.0, 0.0)",-0.36598488497268467,0.8193896503204905,2.149609324786922,"(0.0, 0.0, 0.0, 0.0, 0.0, 0.0)",-0.04882227338805697,False,,,,,False,,,,
53,Close,,,"(0.009997966950406065, 0.16004795201914346, 0.046616050094935475)","(-0.0009640430328522325, -5.7324486097668704e-05, 4.2980615420070005e-09)",,"[-0.026750000193715096, 0.05299999937415123, 0.03999999910593033]","[0.0, -0.0, 0.6794163791618646]","[-0.07199041545391083, 0.10901165008544922, 0.03999999910593033]","[0.0, 0.0, -0.1408210743259801]","[0.026750000193715096, 0.05299999937415123, 0.03999999910593033]","[0.0, 0.0, -0.6795920181483843]","[0.07200025022029877, 0.1090037003159523, 0.03999999910593033]","[0.0, -0.0, 0.13979766167419433]",0.6714747537704133,-1.9059934338776885,"(0.0, 0.0, 0.0, 0.0, 0.0, 0.0)",0.3285291326313333,-0.8282143561304102,-1.914454749172182,"(0.0, 0.0, 0.0, 0.0, 0.0, 0.0)",0.043663125146434535,-0.6716327895238797,1.9102077206367922,"(0.0, 0.0, 0.0, 0.0, 0.0, 0.0)",-0.3294374536237565,0.8274513303019508,1.934803195550486,"(0.0, 0.0, 0.0, 0.0, 0.0, 0.0)",-0.043941831288343336,False,,,,,False,,,,
54,Close,,,"(0.009998107600018924, 0.16004411888380865, 0.0468059782297436)","(-0.0008858309445970004, -5.447527859797503e-05, 4.128601528647624e-08)",,"[-0.026750000193715096, 0.05299999937415123, 0.03999999910593033]","[0.0, -0.0, 0.6714747449539094]","[-0.07154417037963867, 0.10936915874481201, 0.03999999910593033]","[0.0, 0.0, -0.15673960659097733]","[0.026750000193715096, 0.05299999937415123, 0.03999999910593033]","[0.0, 0.0, -0.6716327690441329]","[0.07155308127403259, 0.10936208069324493, 0.03999999910593033]","[0.0, -0.0, 0.15581855230220754]",0.664327278393372,-1.7153940904899205,"(0.0, 0.0, 0.0, 0.0, 0.0, 0.0)",0.2957170811345372,-0.8353934979980445,-1.7229940482322428,"(0.0, 0.0, 0.0, 0.0, 0.0, 0.0)",0.03934112702889199,-0.6644695105714917,1.7191869485731137,"(0.0, 0.0, 0.0, 0.0, 0.0, 0.0)",-0.2965349881453131,0.8347067784412298,1.7413075534269409,"(0.0, 0.0, 0.0, 0.0, 0.0, 0.0)",-0.039592428071821256,False,,,,,False,,,,
55,Close,,,"(0.009998248644105466, 0.16004048002584464, 0.0469807018618576)","(-0.0008115684428503489, -5.1596750749095254e-05, 7.881188886077776e-08)",,"[-0.026750000193715096, 0.05299999937415123, 0.03999999910593033]","[0.0, -0.0, 0.6643273336690038]","[-0.07114013284444809, 0.10968788713216782, 0.03999999910593033]","[0.0, 0.0, -0.17106622141763456]","[0.026750000193715096, 0.05299999937415123, 0.03999999910593033]","[0.0, 0.0, -0.6644694779113771]","[0.07114819437265396, 0.10968156903982162, 0.03999999910593033]","[0.0, -0.0, 0.17023725548976373]",0.6578945505540348,-1.543854681440929,"(0.0, 0.0, 0.0, 0.0, 0.0, 0.0)",0.2661784897251144,-0.8418546682622772,-1.5506808634158242,"(0.0, 0.0, 0.0, 0.0, 0.0, 0.0)",0.03542959308904228,-0.6580225595143425,1.547268253715802,"(0.0, 0.0, 0.0, 0.0, 0.0, 0.0)",-0.26691494494593054,0.8412366239853526,1.567162930589489,"(0.0, 0.0, 0.0, 0.0, 0.0, 0.0)",-0.035656056287006674,False,,,,,False,,,,
56,Close,,,"(0.009998390752654573, 0.16003702894197389, 0.04714144752999396)","(-0.0007411380797103218, -4.869650481896534e-05, 1.1687517768299383e-07)",,"[-0.026750000193715096, 0.05299999937415123, 0.03999999910593033]","[0.0, -0.0, 0.6578945475257985]","[-0.07077455520629883, 0.1099722608923912, 0.03999999910593033]","[0.0, 0.0, -0.18396012465064338]","[0.026750000193715096, 0.05299999937415123, 0.03999999910593033]","[0.0, 0.0, -0.6580225896942233]","[0.07078184932470322, 0.10996662080287933, 0.03999999910593033]","[0.0, -0.0, 0.18321406389742323]",0.6521050954986313,-1.3894692132968354,"(0.0, 0.0, 0.0, 0.0, 0.0, 0.0)",0.23958744527110798,-0.8476696697618468,-1.395600359896693,"(0.0, 0.0, 0.0, 0.0, 0.0, 0.0)",0.031904902566438624,-0.6522203035629083,1.392541428344221,"(0.0, 0.0, 0.0, 0.0, 0.0, 0.0)",-0.24025052935853647,0.8471134329078756,1.410434141405507,"(0.0, 0.0, 0.0, 0.0, 0.0, 0.0)",-0.032108956045352514,False,,,,,False,,,,
57,Close,,,"(0.009998534235924597, 0.16003375955333046, 0.04728933347451534)","(-0.0006744157946989166, -4.576820860538318e-05, 1.554405829918684e-07)",,"[-0.026750000193715096, 0.05299999937415123, 0.03999999910593033]","[0.0, -0.0, 0.6521051450040646]","[-0.07044398784637451, 0.11022617667913437, 0.03999999910593033]","[0.0, 0.0, -0.19556454293122102]","[0.026750000193715096, 0.05299999937415123, 0.03999999910593033]","[0.0, 0.0, -0.6522203497730787]","[0.07045057415962219, 0.11022114753723145, 0.03999999910593033]","[0.0, -0.0, 0.19489313608724637]",0.6468945859487681,-1.250522291967151,"(0.0, 0.0, 0.0, 0.0, 0.0, 0.0)",0.2156503992603495,-0.8529031244958994,-1.2560291361726517,"(0.0, 0.0, 0.0, 0.0, 0.0, 0.0)",0.02872919688306315,-0.6469982732066174,1.253287285509799,"(0.0, 0.0, 0.0, 0.0, 0.0, 0.0)",-0.2162473971085442,0.8524025140258721,1.2693794683191757,"(0.0, 0.0, 0.0, 0.0, 0.0, 0.0)",-0.02891303657535659,False,,,,,False,,,,
58,Close,,,"(0.009998679410322496, 0.16003066597344334, 0.0474253884764576)","(-0.0006112814540129935, -4.2805404436077314e-05, 1.9447426774393396e-07)",,"[-0.026750000193715096, 0.05299999937415123, 0.03999999910593033]","[0.0, -0.0, 0.6468945636476681]","[-0.07014521211385727, 0.11045306921005249, 0.03999999910593033]","[0.0, 0.0, -0.20600854729134555]","[0.026750000193715096, 0.05299999937415123, 0.03999999910593033]","[0.0, 0.0, -0.6469982503054421]","[0.07015117257833481, 0.11044856905937195, 0.03999999910593033]","[0.0, -0.0, 0.20540423443750838]",0.6422051273538913,-1.125470062770436,"(0.0, 0.0, 0.0, 0.0, 0.0, 0.0)",0.1941029233168818,-0.8576131917611358,-1.1304161436567226,"(0.0, 0.0, 0.0, 0.0, 0.0, 0.0)",0.025868240883426936,-0.6422984458859556,1.1279585569588184,"(0.0, 0.0, 0.0, 0.0, 0.0, 0.0)",-0.19464040126091972,0.8571626447690798,1.1424313783698345,"(0.0, 0.0, 0.0, 0.0, 0.0, 0.0)",-0.026033851694478666,False,,,,,False,,,,
59,Move,,,"(0.009998826598722164, 0.16002774252192944, 0.04755055901421763)","(-0.0005516191299448554, -3.980150267197137e-05, 2.339437659612592e-07)","[0.0, 0.0, 0.0]","[-0.026750000193715096, 0.05299999937415123, 0.03999999910593033]","[0.0, -0.0, 0.6422051137296667]","[-0.0698753148317337, 0.11065594106912613, 0.03999999910593033]","[0.0, 0.0, -0.2154080556264429]","[0.026750000193715096, 0.05299999937415123, 0.03999999910593033]","[0.0, 0.0, -0.6422983956794274]","[0.06988069415092468, 0.1106519103050232, 0.03999999910593033]","[0.0, -0.0, 0.21486417441436167]",0.6379846146185022,-1.0129230564933929,"(0.0, 0.0, 0.0, 0.0, 0.0, 0.0)",0.17470684718642912,-0.8618522144704561,-1.0173654502368856,"(0.0, 0.0, 0.0, 0.0, 0.0, 0.0)",0.023291096758263134,-0.6380686012973601,1.0151627012629356,"(0.0, 0.0, 0.0, 0.0, 0.0, 0.0)",-0.1751907229705418,0.8614467243673204,1.02817910357775,"(0.0, 0.0, 0.0, 0.0, 0.0, 0.0)",-0.023440272040621463,False,,,,,True,"(0.04276013174954747, 0.17974174897294792, 0.02399995643463635)","(-0.9999999990838299, -1.9447426661030803e-07, -4.2805404423670755e-05)",0.0013234533115717422,0.0
60,Move,,,"(0.008699259039732246, 0.1597652061907072, 0.04782485533738502)","(0.0040480273580015685, 0.009650479713711625, 0.017575803187450934)","[-0.0012995675589899183, -0.00026253633122225173, 0.00027429632316738894]","[-0.026750000193715096, 0.05299999937415123, 0.03999999910593033]","[0.0, -0.0, 0.6379846501970732]","[-0.06963159143924713, 0.1108374372124672, 0.03999999910593033]","[0.0, 0.0, -0.22386762157269943]","[0.026750000193715096, 0.05299999937415123, 0.03999999910593033]","[0.0, 0.0, -0.638068602671057]","[0.06963644921779633, 0.11083383113145828, 0.03999999910593033]","[0.0, -0.0, 0.22337816170537766]",0.6141590059460926,-5.718146081378296,"(0.0, 0.0, 0.0, 0.0, 0.0, 0.0)",-6.715100343954984,-0.8614283121995241,0.10173654502368734,"(0.0, 0.0, 0.0, 0.0, 0.0, 0.0)",-0.3723637437215536,-0.6186765363685498,4.654095582914465,"(0.0, 0.0, 0.0, 0.0, 0.0, 0.0)",16.91452213543579,0.8602423878670417,-0.28904076006690205,"(0.0, 0.0, 0.0, 0.0, 0.0, 0.0)",7.026754130549747,False,,,,,True,"(0.041928616181162004, 0.17969877893574898, 0.023999959438538117)","(-0.9999999992078928, -2.3394376620903917e-07, -3.980150265941498e-05)",0.0004918567139684023,94.17969713248019
61,Move,,,"(0.006953428279101256, 0.15936555806379668, 0.04799883027777207)","(0.0036027003309908674, 0.011726089522938334, 0.045571805054608026)","[-0.0030453983196209082, -0.000662184458132764, 0.0004482712635544353]","[-0.026750000193715096, 0.05299999937415123, 0.03999999910593033]","[0.0, -0.0, 0.6141590305095613]","[-0.06824154406785965, 0.11184260249137878, 0.03999999910593033]","[0.0, 0.0, -0.24726930604170874]","[0.026750000193715096, 0.05299999937415123, 0.03999999910593033]","[0.0, 0.0, -0.6186765449450942]","[0.06850694119930267, 0.11165456473827362, 0.03999999910593033]","[0.0, -0.0, 0.24156588090171732]",0.5923752537221402,-5.228100533748595,"(0.0, 0.0, 0.0, 0.0, 0.0, 0.0)",0.6968351830029371,-0.8614707024266173,-0.010173654502368734,"(0.0, 0.0, 0.0, 0.0, 0.0, 0.0)",0.03860943376531379,-0.6008618977467228,4.275513269238477,"(0.0, 0.0, 0.0, 0.0, 0.0, 0.0)",3.1840553339598543,0.8603207379647874,0.018804023458970476,"(0.0, 0.0, 0.0, 0.0, 0.0, 0.0)",2.2071937117843152,False,,,,,True,"(0.03955126028332891, 0.18000420521160232, 0.023999959438538117)","(-0.9999999992078928, -2.3394376620903917e-07, -3.980150265941498e-05)",-4.69285261207243e-06,0.0
62,Move,,,"(0.005232479171843643, 0.15895611509417099, 0.04805192961782931)","(0.0015613319654504138, 0.011710638263295036, 0.07400765980182708)","[-0.004766347426878521, -0.0010716274277584592, 0.0005013706036116755]","[-0.026750000193715096, 0.05299999937415123, 0.03999999910593033]","[0.0, -0.0, 0.5923752994005711]","[-0.0669499859213829, 0.1127324104309082, 0.03999999910593033]","[0.0, 0.0, -0.2690954538189607]","[0.026750000193715096, 0.05299999937415123, 0.03999999910593033]","[0.0, 0.0, -0.6008619062673114]","[0.0674554631114006, 0.11238910257816315, 0.03999999910593033]","[0.0, -0.0, 0.2594588653702835]",0.5711748754471921,-5.088090785987531,"(0.0, 0.0, 0.0, 0.0, 0.0, 0.0)",0.20179723839696584,-0.8614666854136499,0.0009640831121563087,"(0.0, 0.0, 0.0, 0.0, 0.0, 0.0)",0.015124512099487388,-0.5830478441846109,4.27537285490686,"(0.0, 0.0, 0.0, 0.0, 0.0, 0.0)",-0.00040728805220429705,0.8603129289032243,-0.001874174775147154,"(0.0, 0.0, 0.0, 0.0, 0.0, 0.0)",-0.0017677334094061982,False,,,,,True,"(0.03728150083157586, 0.18020972647077313, 0.023999959438538117)","(-0.9999999992078928, -2.3394376620903917e-07, -3.980150265941498e-05)",0.00010136561290409651,0.0
63,Move,,,"(0.003536438132730313, 0.15853702184869162, 0.04798413986117641)","(-0.002178499075898401, 0.009685758062407228, 0.10285468498251224)","[-0.006462388465991851, -0.0014907206732378275, 0.0004335808469587768]","[-0.026750000193715096, 0.05299999937415123, 0.03999999910593033]","[0.0, -0.0, 0.5711748797881039]","[-0.06567469984292984, 0.1135711818933487, 0.03999999910593033]","[0.0, 0.0, -0.2902918330000066]","[0.026750000193715096, 0.05299999937415123, 0.03999999910593033]","[0.0, 0.0, -0.5830479010023177]","[0.06639109551906586, 0.11310476809740067, 0.03999999910593033]","[0.0, -0.0, 0.2772650915613622]",0.5507922484404775,-4.891830481611522,"(0.0, 0.0, 0.0, 0.0, 0.0, 0.0)",0.282294284049585,-0.8614673765775518,-0.00016587933645189224,"(0.0, 0.0, 0.0, 0.0, 0.0, 0.0)",0.019719768305812027,-0.565275293151566,4.265412247930778,"(0.0, 0.0, 0.0, 0.0, 0.0, 0.0)",-0.012306804327906049,0.8603137161198487,0.00018893198985979812,"(0.0, 0.0, 0.0, 0.0, 0.0, 0.0)",-0.0004299034376783175,False,,,,,True,"(0.035014354147368115, 0.18037738642755824, 0.023999959438538117)","(-0.9999999992078928, -2.3394376620903917e-07, -3.980150265941498e-05)",0.0001657852207818292,0.0
64,Move,,,"(0.0033070809685918903, 0.15939336139403074, 0.0480245948749005)","(-0.003221721649284341, 0.008758192496794307, 0.10007245081902345)","[-0.006691745630130274, -0.0006343811278987088, 0.00047403586068286985]","[-0.026750000193715096, 0.05299999937415123, 0.03999999910593033]","[0.0, -0.0, 0.5507922756468575]","[-0.06443209946155548, 0.11435192823410034, 0.03999999910593033]","[0.0, 0.0, -0.31067510738133]","[0.026750000193715096, 0.05299999937415123, 0.03999999910593033]","[0.0, 0.0, -0.5652752430676895]","[0.06531667709350586, 0.11379976570606232, 0.03999999910593033]","[0.0, -0.0, 0.2950384296353975]",0.5330621314256022,-4.255228083570051,"(0.0, 0.0, 0.0, 0.0, 0.0, 0.0)",-63.6841566907319,-0.833899768100212,6.616226034561552,"(0.0, 0.0, 0.0, 0.0, 0.0, 0.0)",-32.0033096547166,-0.5494184347075574,3.805646026562078,"(0.0, 0.0, 0.0, 0.0, 0.0, 0.0)",54.08522476914028,0.834294882877888,-6.244519978070589,"(0.0, 0.0, 0.0, 0.0, 0.0, 0.0)",25.974823871813367,True,"(-0.030827226021807298, 0.18072875671023755, 0.023990313633420805)","(0.9946684597633704, 0.10266861339458756, -0.009685606619977753)",0.00023266339136997558,510.2877732171601,True,"(0.03274929454054999, 0.18050411530517568, 0.023999959438538117)","(-0.9999999992078928, -2.3394376620903917e-07, -3.980150265941498e-05)",0.00018643181396489492,418.4587664295024
65,Move,"(0.0021000000000000003, 0.0, -0.0002)","(0.0, 0.0054262286444503715, 0.0)","(0.0031969503873777684, 0.16028143882127593, 0.048054583489053525)","(-0.004372781608329888, 0.007939463136719069, 0.09861198334618497)","[-0.006801876211344396, 0.00025369629934648974, 0.0005040244748358916]","[-0.026750000193715096, 0.05299999937415123, 0.03999999910593033]","[0.0, -0.0, 0.5330621158171134]","[-0.06333845853805542, 0.11501035839319229, 0.03999999910593033]","[0.0, 0.0, -0.30083767855036603]","[0.026750000193715096, 0.05299999937415123, 0.03999999910593033]","[0.0, 0.0, -0.549418426545043]","[0.0643477737903595, 0.11440364271402359, 0.03999999910593033]","[0.0, -0.0, 0.2848764361199625]",0.5161701590322703,-4.054073374399667,"(0.0, 0.0, 0.0, 0.0, 0.0, 0.0)",-68.88180562685734,-0.8061093417891989,6.669702314643141,"(0.0, 0.0, 0.0, 0.0, 0.0, 0.0)",-35.756361121383094,-0.5337544439677235,3.7593577775601132,"(0.0, 0.0, 0.0, 0.0, 0.0, 0.0)",68.77952387616044,0.8075007011486295,-6.430603615022057,"(0.0, 0.0, 0.0, 0.0, 0.0, 0.0)",33.85011913137436,True,"(-0.030386831991674287, 0.18170201039644102, 0.02399124115951112)","(0.9949587688124035, 0.09990167360330966, -0.008758080529661552)",-0.0003521033588324185,534.8399967547618,True,"(0.03245991098360225, 0.1814354915724969, 0.023999959438538117)","(-0.9999999992078928, -2.3394376620903917e-07, -3.980150265941498e-05)",3.895377007335016e-05,524.277520594291
66,Move,"(-0.0003, 0.0, 0.001)","(0.0, 0.022656119020138393, 0.0)","(0.0031409345745228526, 0.1610958881186133, 0.048052305717322566)","(-0.0048875061847985695, 0.0038534590297378477, 0.0942363609399258)","[-0.006857892024199312, 0.0010681455966838616, 0.0005017467031049327]","[-0.026750000193715096, 0.05299999937415123, 0.03999999910593033]","[0.0, -0.0, 0.5161702079325045]","[-0.062285806983709335, 0.11561953276395798, 0.03999999910593033]","[0.0, 0.0, -0.28993919682770425]","[0.026750000193715096, 0.05299999937415123, 0.03999999910593033]","[0.0, 0.0, -0.5337544427276155]","[0.0633813738822937, 0.11498501896858215, 0.03999999910593033]","[0.0, -0.0, 0.27374624928461355]",0.5161576597498917,-0.0029998277708669363,"(0.0, 0.0, 0.0, 0.0, 0.0, 0.0)",4.53879806992619,-0.8088781469593945,-0.6645132408469534,"(0.0, 0.0, 0.0, 0.0, 0.0, 0.0)",-0.660419341483882,-0.5372167269054489,-0.8309479050540785,"(0.0, 0.0, 0.0, 0.0, 0.0, 0.0)",-5.928655972755343,0.8101801193215553,0.6430603615022044,"(0.0, 0.0, 0.0, 0.0, 0.0, 0.0)",0.25761534831522,True,"(-0.03006166347399304, 0.18265404950541297, 0.023992059860314583)","(0.9951104129424696, 0.09844913561342714, -0.007939379726199769)",-0.0007346128178897825,4.404339819716849,True,"(0.032241548852435555, 0.18236762460912842, 0.023999959438538117)","(-0.9999999992078928, -2.3394376620903917e-07, -3.980150265941498e-05)",-0.00012424112725224057,0.0
67,Move,"(-0.0009000000000000001, 0.0, 0.0018000000000000002)","(0.0, 0.044558255803415235, 0.0)","(0.0030632306840968782, 0.1618647361590962, 0.04797712582901362)","(-0.0046688048605032905, -0.0015999192390382271, 0.08919903151787102)","[-0.006935595914625286, 0.001836993637166745, 0.0004265668147959839]","[-0.026750000193715096, 0.05299999937415123, 0.03999999910593033]","[0.0, -0.0, 0.5161576874319328]","[-0.06228502467274666, 0.11561997979879379, 0.03999999910593033]","[0.0, 0.0, -0.29272048758432023]","[0.026750000193715096, 0.05299999937415123, 0.03999999910593033]","[0.0, 0.0, -0.5372167452937434]","[0.06359576433897018, 0.11485781520605087, 0.03999999910593033]","[0.0, -0.0, 0.2729633989428583]",0.5151382563495933,-0.24465681607161915,"(0.0, 0.0, 0.0, 0.0, 0.0, 0.0)",-0.2749910809739547,-0.8086020114614696,0.06627251950197544,"(0.0, 0.0, 0.0, 0.0, 0.0, 0.0)",0.050754756120553704,-0.5383146632163607,-0.26350471461884695,"(0.0, 0.0, 0.0, 0.0, 0.0, 0.0)",0.7501613465658628,0.8099123906886243,-0.06425487190344958,"(0.0, 0.0, 0.0, 0.0, 0.0, 0.0)",-0.014523279143204981,True,"(-0.02987438699291456, 0.18256302454637255, 0.023996145790547804)","(0.9955556475081806, 0.0940962466922681, -0.0038534494929813303)",-0.0006810864174391589,0.0,True,"(0.032508699536225, 0.18226478277350405, 0.023999959438538117)","(-0.9999999992078928, -2.3394376620903917e-07, -3.980150265941498e-05)",2.5069314052429477e-06,0.0
68,Move,"(-0.0015, 0.0, 0.0023)","(0.0, 0.044558255803415235, 0.0)","(0.0031197500362853637, 0.16241675305579464, 0.04804183994212764)","(-0.003774384106015352, -0.0014883164041100262, 0.08786255775737017)","[-0.006879076562436801, 0.002389010533865199, 0.0004912809279100094]","[-0.026750000193715096, 0.05299999937415123, 0.03999999910593033]","[0.0, -0.0, 0.5151382345212123]","[-0.06222117319703102, 0.11565617471933365, 0.03999999910593033]","[0.0, 0.0, -0.29346374183940094]","[0.026750000193715096, 0.05299999937415123, 0.03999999910593033]","[0.0, 0.0, -0.5383147225567182]","[0.06366366147994995, 0.11481732130050659, 0.03999999910593033]","[0.0, -0.0, 0.2715977609620319]",0.5142127437068698,-0.22212303425366386,"(0.0, 0.0, 0.0, 0.0, 0.0, 0.0)",-1.5780516050176572,-0.8081647240996319,0.10494896684103591,"(0.0, 0.0, 0.0, 0.0, 0.0, 0.0)",-0.8844973801579199,-0.539243462160345,-0.22291174655623047,"(0.0, 0.0, 0.0, 0.0, 0.0, 0.0)",0.4791383841356782,0.8095396376142107,-0.08946073785928256,"(0.0, 0.0, 0.0, 0.0, 0.0, 0.0)",0.2593495896874857,True,"(-0.029760785860456516, 0.18257510825279616, 0.023996145790547804)","(0.9955556475081806, 0.0940962466922681, -0.0038534494929813303)",-0.0005440406279460715,9.530684596181072,True,"(0.03275692565627628, 0.18112990855435293, 0.0560038542094522)","(-0.9955556475081808, -0.09409624669226638, 0.003853449492980237)",-0.00013500833623133354,3.4458588170196958
69,Move,"(0.0015, 0.0, 0.0032)","(0.0, 0.03126582822022642, 0.0)","(0.003170336186053639, 0.16287581475366766, 0.048076684538031184)","(-0.002121580900907372, -0.0013677927866837883, 0.08630980284497579)","[-0.006828490412668526, 0.002848072231738219, 0.0005261255238135504]","[-0.026750000193715096, 0.05299999937415123, 0.03999999910593033]","[0.0, -0.0, 0.5142127020878231]","[-0.06216316670179367, 0.11568897217512131, 0.03999999910593033]","[0.0, 0.0, -0.2939519857569321]","[0.026750000193715096, 0.05299999937415123, 0.03999999910593033]","[0.0, 0.0, -0.5392434074198483]","[0.06372106075286865, 0.11478301137685776, 0.03999999910593033]","[0.0, -0.0, 0.27029618259293686]",0.5135151332150529,-0.16742651803604292,"(0.0, 0.0, 0.0, 0.0, 0.0, 0.0)",-0.24702394125831553,-0.8080675023590294,0.023333217744620716,"(0.0, 0.0, 0.0, 0.0, 0.0, 0.0)",-0.17859092388210868,-0.5402046865949632,-0.23069386430837943,"(0.0, 0.0, 0.0, 0.0, 0.0, 0.0)",0.2634606110925858,0.8094215810768706,-0.028333568961619357,"(0.0, 0.0, 0.0, 0.0, 0.0, 0.0)",0.16931648819852677,True,"(-0.02966964325762577, 0.18258693377665225, 0.05600148907581388)","(0.9961414647195788, 0.08774945687723085, 0.0014883158546551746)",-0.0005558947081552455,2.4209753561094964,True,"(0.03290066102336507, 0.18113576707039136, 0.0560038542094522)","(-0.9955556475081808, -0.09409624669226638, 0.003853449492980237)",-0.0001228208097898781,2.188655413486564
70,Move,"(0.0013000000000000002, 0.0, 0.004)","(0.0, 0.003220132469929538, 0.0)","(0.0032994652850123207, 0.1632805472122145, 0.04801610820652212)","(-9.665313643891247e-05, 0.0012889321072580631, 0.08509116352988932)","[-0.006699361313709844, 0.0032528046902850494, 0.00046554919230448744]","[-0.026750000193715096, 0.05299999937415123, 0.03999999910593033]","[0.0, -0.0, 0.5135151381993105]","[-0.06211942806839943, 0.11571366339921951, 0.03999999910593033]","[0.0, 0.0, -0.2945523846778285]","[0.026750000193715096, 0.05299999937415123, 0.03999999910593033]","[0.0, 0.0, -0.5402046991839332]","[0.06378043442964554, 0.11474744975566864, 0.03999999910593033]","[0.0, -0.0, 0.26921688518760184]",0.5121865396144788,-0.3188624641377832,"(0.0, 0.0, 0.0, 0.0, 0.0, 0.0)",-0.8229154930718571,-0.8080655340657369,0.00047239039019366866,"(0.0, 0.0, 0.0, 0.0, 0.0, 0.0)",-0.35017979071513744,-0.5419163864702305,-0.41080797006416336,"(0.0, 0.0, 0.0, 0.0, 0.0, 0.0)",-0.25830815880457897,0.8094333867306046,0.0028333568961622646,"(0.0, 0.0, 0.0, 0.0, 0.0, 0.0)",-0.015467104588591416,True,"(-0.02958566051463011, 0.18259115354927513, 0.05600136855231942)","(0.9962766886665139, 0.08620260299866779, 0.0013677923601933056)",-0.0005133170143493659,4.57521257757322,True,"(0.03303128698025958, 0.18113758941058877, 0.02399863144768058)","(-0.996276688666514, -0.08620260299866346, -0.001367792360199975)",-0.0001459521844227436,0.0
71,Move,"(0.0008, 0.0, 0.0053)","(0.0, 0.05080304386705095, 0.0)","(0.0034058892317303234, 0.16358493239438332, 0.04799237038935764)","(0.0032511981879058834, 0.0011902734161514286, 0.08237634714939164)","[-0.0065929373669918415, 0.0035571898724538753, 0.0004418113751400096]","[-0.026750000193715096, 0.05299999937415123, 0.03999999910593033]","[0.0, -0.0, 0.512186522819263]","[-0.062036074697971344, 0.11576060205698013, 0.03999999910593033]","[0.0, 0.0, -0.2958790004524988]","[0.026750000193715096, 0.05299999937415123, 0.03999999910593033]","[0.0, 0.0, -0.5419163855820408]","[0.06388606876134872, 0.11468397080898285, 0.03999999910593033]","[0.0, -0.0, 0.2675169934138279]",0.5109958140406801,-0.2857741377117075,"(0.0, 0.0, 0.0, 0.0, 0.0, 0.0)",-0.09090726140582514,-0.8080625152333704,0.0007245197679653106,"(0.0, 0.0, 0.0, 0.0, 0.0, 0.0)",-0.07371813483609663,-0.5436170107753027,-0.4081498332173083,"(0.0, 0.0, 0.0, 0.0, 0.0, 0.0)",0.003427805329989824,0.8094322061652313,-0.0002833356896170258,"(0.0, 0.0, 0.0, 0.0, 0.0, 0.0)",-5.753828801212816e-05,True,"(-0.029413615634671042, 0.18259487082467107, 0.05600136855231942)","(0.9962766886665139, 0.08620260299866779, 0.0013677923601933056)",-0.00047280842192422545,0.0,True,"(0.033249826370022176, 0.1811262883452758, 0.02399863144768058)","(-0.996276688666514, -0.08620260299866346, -0.001367792360199975)",-4.76167991850113e-05,0.0
72,Move,"(0.0002, 0.0, 0.007)","(0.0, 0.08527329659393897, 0.0)","(0.0034832316982149935, 0.16376904750450466, 0.048072153743452015)","(0.002988993708769626, 0.001095684065130829, 0.07952502334085694)","[-0.006515594900507171, 0.0037413049825752165, 0.0005215947292343814]","[-0.026750000193715096, 0.05299999937415123, 0.03999999910593033]","[0.0, -0.0, 0.5109958078096088]","[-0.06196131929755211, 0.1158025711774826, 0.03999999910593033]","[0.0, 0.0, -0.29706671722006245]","[0.026750000193715096, 0.05299999937415123, 0.03999999910593033]","[0.0, 0.0, -0.5436170071823172]","[0.06399092078208923, 0.11462073028087616, 0.03999999910593033]","[0.0, -0.0, 0.26581516360278756]",0.5100668651256218,-0.22294773961397238,"(0.0, 0.0, 0.0, 0.0, 0.0, 0.0)",-0.11315922001236349,-0.8080449653517372,0.004211971591968143,"(0.0, 0.0, 0.0, 0.0, 0.0, 0.0)",-0.10475147599798489,-0.5451252902963684,-0.3619870850557767,"(0.0, 0.0, 0.0, 0.0, 0.0, 0.0)",0.06694302916590038,0.8094323242217686,2.8333568960370314e-05,"(0.0, 0.0, 0.0, 0.0, 0.0, 0.0)",0.004814324702026341,True,"(-0.029259503500138735, 0.18259804930921175, 0.05600136855231942)","(0.9962766886665139, 0.08620260299866779, 0.0013677923601933056)",-0.00043393358624416997,0.6196147909866437,True,"(0.033467790046839606, 0.18111508534404408, 0.02399863144768058)","(-0.996276688666514, -0.08620260299866346, -0.001367792360199975)",-8.81780284414728e-06,0.0
73,Move,"(-0.0008, 0.0, 0.0091)","(0.0, 0.07666009673534695, 0.0)","(0.003548776168529762, 0.16389406971717715, 0.04814552914794062)","(0.0027473610261952767, 0.0010082560415067981, 0.07718705061348047)","[-0.006450050430192402, 0.0038663271952477096, 0.0005949701337229843]","[-0.026750000193715096, 0.05299999937415123, 0.03999999910593033]","[0.0, -0.0, 0.5100668875058062]","[-0.0619029626250267, 0.11583525687456131, 0.03999999910593033]","[0.0, 0.0, -0.2979780925609357]","[0.026750000193715096, 0.05299999937415123, 0.03999999910593033]","[0.0, 0.0, -0.5451252389192758]","[0.06408381462097168, 0.11456448584794998, 0.03999999910593033]","[0.0, -0.0, 0.264307035924545]",0.5093365735062318,-0.17526998865359486,"(0.0, 0.0, 0.0, 0.0, 0.0, 0.0)",-0.2728697160362243,-0.8080242649631356,0.004968093264368384,"(0.0, 0.0, 0.0, 0.0, 0.0, 0.0)",-0.1799592946585784,-0.5464616793825845,-0.32073338069186,"(0.0, 0.0, 0.0, 0.0, 0.0, 0.0)",0.05979357880948699,0.8094323124161149,-2.833356895770578e-06,"(0.0, 0.0, 0.0, 0.0, 0.0, 0.0)",0.004270576763699727,True,"(-0.029140284191499666, 0.1826008995827924, 0.05600136855231942)","(0.9962766886665139, 0.08620260299866779, 0.0013677923601933056)",-0.0003962794586739593,1.2010111678338253,True,"(0.03366100783644673, 0.18110480372618842, 0.02399863144768058)","(-0.996276688666514, -0.08620260299866346, -0.001367792360199975)",4.310630037091131e-05,0.0
74,Move,"(-0.0038, 0.0, 0.0088)","(0.0, 0.06804340621825093, 0.0)","(0.0035789091277557243, 0.16398967357553457, 0.048188016284477886)","(0.0025291350653977784, 0.00010226008128345778, 0.07451927757183908)","[-0.00641991747096644, 0.003961931053605122, 0.0006374572702602527]","[-0.026750000193715096, 0.05299999937415123, 0.03999999910593033]","[0.0, -0.0, 0.5093365204317084]","[-0.06185706704854965, 0.11586090922355652, 0.03999999910593033]","[0.0, 0.0, -0.29868770440535375]","[0.026750000193715096, 0.05299999937415123, 0.03999999910593033]","[0.0, 0.0, -0.546461659954129]","[0.06416605412960052, 0.1145145371556282, 0.03999999910593033]","[0.0, -0.0, 0.26297066066832364]",0.508844273346268,-0.11815203839132624,"(0.0, 0.0, 0.0, 0.0, 0.0, 0.0)",-0.11449609702431789,-0.808020752036564,0.0008431023772014386,"(0.0, 0.0, 0.0, 0.0, 0.0, 0.0)",-0.10410013813841293,-0.547636184129279,-0.2818811392066811,"(0.0, 0.0, 0.0, 0.0, 0.0, 0.0)",0.05632214177869074,0.8094323135966803,2.8333568824479016e-07,"(0.0, 0.0, 0.0, 0.0, 0.0, 0.0)",0.004026051786003709,True,"(-0.029047018697864156, 0.18260328982242396, 0.05600136855231942)","(0.9962766886665139, 0.08620260299866779, 0.0013677923601933056)",-0.0003609231658556436,1.497399089398283,True,"(0.03383220026180422, 0.1810954538981413, 0.02399863144768058)","(-0.996276688666514, -0.08620260299866346, -0.001367792360199975)",9.841009158975146e-05,0.0
75,Move,"(-0.0006, 0.0, 0.010400000000000001)","(0.0, 0.07666009673534695, 0.0)","(0.0035508127442419914, 0.16407050965712672, 0.04819460191544453)","(0.0023199957111347046, -0.0018020680967033688, 0.07215231915763418)","[-0.006448013854480173, 0.004042767135197273, 0.0006440429012268961]","[-0.026750000193715096, 0.05299999937415123, 0.03999999910593033]","[0.0, -0.0, 0.508844235865187]","[-0.06182611361145973, 0.11587818711996078, 0.03999999910593033]","[0.0, 0.0, -0.29917649581876393]","[0.026750000193715096, 0.05299999937415123, 0.03999999910593033]","[0.0, 0.0, -0.5476362440956943]","[0.0642382800579071, 0.11447054892778397, 0.03999999910593033]","[0.0, -0.0, 0.261796099852933]",0.5090268750784473,0.04382441572302896,"(0.0, 0.0, 0.0, 0.0, 0.0, 0.0)",0.23502702586078725,-0.8080211033292212,-8.431023771926494e-05,"(0.0, 0.0, 0.0, 0.0, 0.0, 0.0)",0.01671542854412702,-0.5481948941434475,-0.13409040340044331,"(0.0, 0.0, 0.0, 0.0, 0.0, 0.0)",0.21448598488269405,0.8094323134786238,-2.833357015674834e-08,"(0.0, 0.0, 0.0, 0.0, 0.0, 0.0)",0.015335133917420012,True,"(-0.028982889034382883, 0.18259737583599803, 0.023999896979959683)","(0.99722471806539, 0.07445032721405258, -0.00010226008110443469)",-0.00035339310493856166,0.0,True,"(0.03398264398239234, 0.18108704743515347, 0.02399863144768058)","(-0.996276688666514, -0.08620260299866346, -0.001367792360199975)",0.00014637424934269146,0.0
76,Move,"(-0.0007, 0.0, 0.0115)","(0.0, 0.08109672369391652, 0.0)","(0.0036122638654722326, 0.16410855709469718, 0.048258025114384)","(0.0015633163472371474, -0.0022313399755046603, 0.0704778229813485)","[-0.006386562733249931, 0.004080814572767738, 0.0007074661001663651]","[-0.026750000193715096, 0.05299999937415123, 0.03999999910593033]","[0.0, -0.0, 0.5090269112181758]","[-0.06183759495615959, 0.11587177962064743, 0.03999999910593033]","[0.0, 0.0, -0.29899424309003797]","[0.026750000193715096, 0.05299999937415123, 0.03999999910593033]","[0.0, 0.0, -0.5481948951953892]","[0.06427261978387833, 0.11444959789514542, 0.03999999910593033]","[0.0, -0.0, 0.2612374550440656]",0.5084441909283046,-0.13984419603426762,"(0.0, 0.0, 0.0, 0.0, 0.0, 0.0)",-1.669344508910695,-0.8079804207096117,0.00976382870626153,"(0.0, 0.0, 0.0, 0.0, 0.0, 0.0)",-0.7741497560222552,-0.5495215589096479,-0.31839954388810465,"(0.0, 0.0, 0.0, 0.0, 0.0, 0.0)",-0.2676078139322752,0.8094323134904294,2.8333575485817164e-09,"(0.0, 0.0, 0.0, 0.0, 0.0, 0.0)",-0.01913483851978708,True,"(-0.029006530262272665, 0.18259695441267848, 0.023999896979959683)","(0.99722471806539, 0.07445032721405258, -0.00010226008110443469)",-0.0002559180131484898,4.232614915821074,True,"(0.03405374265837621, 0.18108914705988532, 0.023998197172919424)","(-0.9973965309741392, -0.07208961475027677, -0.0018020671213526754)",0.00016977985355863474,0.0
77,Move,"(-0.001, 0.0, 0.014400000000000001)","(0.0, 0.059498274200486694, 0.0)","(0.0036766719228040223, 0.1641321338071864, 0.048316578850532484)","(0.001279326542533521, -0.0022111568871269844, 0.06956759914123814)","[-0.006322154675918143, 0.004104391285256942, 0.0007660198363148504]","[-0.026750000193715096, 0.05299999937415123, 0.03999999910593033]","[0.0, -0.0, 0.5084442407933224]","[-0.06180095672607422, 0.11589221656322479, 0.03999999910593033]","[0.0, 0.0, -0.29953625018664704]","[0.026750000193715096, 0.05299999937415123, 0.03999999910593033]","[0.0, 0.0, -0.5495216038218381]","[0.06435410678386688, 0.11439976096153259, 0.03999999910593033]","[0.0, -0.0, 0.2599107642061064]",0.5079511778620577,-0.11832313589925704,"(0.0, 0.0, 0.0, 0.0, 0.0, 0.0)",-0.6046595665064645,-0.8079636034291495,0.004036147310922353,"(0.0, 0.0, 0.0, 0.0, 0.0, 0.0)",-0.3251611492360707,-0.5507693693779144,-0.2994745123839593,"(0.0, 0.0, 0.0, 0.0, 0.0, 0.0)",0.02739273085197246,0.8094323134892488,-2.8333602131169755e-10,"(0.0, 0.0, 0.0, 0.0, 0.0, 0.0)",0.00195725011484597,True,"(-0.02893372959564114, 0.18259958443666108, 0.023999896979959683)","(0.99722471806539, 0.07445032721405258, -0.00010226008110443469)",-0.00021893648002515703,3.4983938281174227,True,"(0.034223643847791606, 0.1810796917474208, 0.02399776790191687)","(-0.9975149828189892, -0.07041931682293205, -0.0022313381239094975)",0.0002392729524252763,0.0
78,Move,"(-0.0047, 0.0, 0.0167)","(0.0, 0.024726079513003672, 0.0)","(0.0037349464935384677, 0.16414549089593014, 0.048370422281323745)","(0.0011739281332620677, -0.002036247449703051, 0.06894710665519845)","[-0.006263880105183696, 0.004117748374000696, 0.0008198632671061121]","[-0.026750000193715096, 0.05299999937415123, 0.03999999910593033]","[0.0, -0.0, 0.5079511762445289]","[-0.06176994368433952, 0.11590948700904846, 0.03999999910593033]","[0.0, 0.0, -0.30001244518013775]","[0.026750000193715096, 0.05299999937415123, 0.03999999910593033]","[0.0, 0.0, -0.5507693673144982]","[0.06443069130182266, 0.11435279250144958, 0.03999999910593033]","[0.0, -0.0, 0.25866297747308903]",0.5075337131267894,-0.1001915364643967,"(0.0, 0.0, 0.0, 0.0, 0.0, 0.0)",-0.5582309650076553,-0.8079421318288986,0.0051531840602261165,"(0.0, 0.0, 0.0, 0.0, 0.0, 0.0)",-0.2939423888926358,-0.5519984089773489,-0.2949695038642614,"(0.0, 0.0, 0.0, 0.0, 0.0, 0.0)",0.00646333268402733,0.8094323134893668,2.8334667945273395e-11,"(0.0, 0.0, 0.0, 0.0, 0.0, 0.0)",0.0004609096698025166,True,"(-0.028870956612910975, 0.18260119857442786, 0.023999896979959683)","(0.99722471806539, 0.07445032721405258, -0.00010226008110443469)",-0.00019698348233415636,4.1990033931837,True,"(0.03438348053271072, 0.1810699295705464, 0.023997788084955448)","(-0.9975787116500273, -0.0695113289749251, -0.002211155085326437)",0.0003190545516572284,0.0
79,Move,"(-0.0044, 0.0, 0.0176)","(0.0, 0.014041173832294382, 0.0)","(0.0037421081783773308, 0.1641512804677246, 0.04841997041523206)","(0.0010668620989895794, -0.0018829408667307482, 0.06894641780352302)","[-0.006256718420344833, 0.004123537945795147, 0.0008694114010144235]","[-0.026750000193715096, 0.05299999937415123, 0.03999999910593033]","[0.0, -0.0, 0.507533778233061]","[-0.06174368038773537, 0.11592409759759903, 0.03999999910593033]","[0.0, 0.0, -0.30040842742889257]","[0.026750000193715096, 0.05299999937415123, 0.03999999910593033]","[0.0, 0.0, -0.5519984044880059]","[0.06450606882572174, 0.11430643498897552, 0.03999999910593033]","[0.0, -0.0, 0.25743390056370163]",0.5079180833268027,0.09224884800318288,"(0.0, 0.0, 0.0, 0.0, 0.0, 0.0)",0.2787661258630187,-0.8079442789894553,-0.000515318533616956,"(0.0, 0.0, 0.0, 0.0, 0.0, 0.0)",0.019386055172792516,-0.5524847831253995,-0.11672979553215335,"(0.0, 0.0, 0.0, 0.0, 0.0, 0.0)",0.2586873813660747,0.8094323134888478,-1.2456670577132712e-10,"(0.0, 0.0, 0.0, 0.0, 0.0, 0.0)",0.018495564857162607,True,"(-0.02881828418997174, 0.1826027796820479, 0.023999896979959683)","(0.99722471806539, 0.07445032721405258, -0.00010226008110443469)",-0.00018168156501719964,0.0,True,"(0.03454091911160899, 0.18105984385770635, 0.023997962993998232)","(-0.9976220214379654, -0.06889235112900381, -0.002036246042550433)",0.00041135779934934973,0.0
80,Move,"(-0.0039, 0.0, 0.018000000000000002)","(0.0, 0.035192819037213656, 0.0)","(0.00374856271191096, 0.16415667042318707, 0.04846553940432848)","(0.0009663308240487299, -0.0017454437307761856, 0.06894430975143555)","[-0.006250263886811205, 0.0041289279012576285, 0.0009149803901108491]","[-0.026750000193715096, 0.05299999937415123, 0.03999999910593033]","[0.0, -0.0, 0.5079180986931071]","[-0.06176786124706268, 0.11591064184904099, 0.03999999910593033]","[0.0, 0.0, -0.3000261969363017]","[0.026750000193715096, 0.05299999937415123, 0.03999999910593033]","[0.0, 0.0, -0.5524848389205613]","[0.06453588604927063, 0.11428806185722351, 0.03999999910593033]","[0.0, -0.0, 0.2569474924960932]",0.508150566932318,0.055796065323663775,"(0.0, 0.0, 0.0, 0.0, 0.0, 0.0)",-0.05283948298547714,-0.8079440642744892,5.153159187175707e-05,"(0.0, 0.0, 0.0, 0.0, 0.0, 0.0)",-0.003723406667988412,-0.5531283048136261,-0.15444520517436544,"(0.0, 0.0, 0.0, 0.0, 0.0, 0.0)",-0.05478301948228766,0.8094323134889074,1.4300239743138992e-11,"(0.0, 0.0, 0.0, 0.0, 0.0, 0.0)",-0.003917303442393213,True,"(-0.028867956285391752, 0.18260190448024488, 0.023999896979959683)","(0.99722471806539, 0.07445032721405258, -0.00010226008110443469)",-0.0001282327485354511,0.0,True,"(0.03460323622743212, 0.18105555485014638, 0.023998116300286695)","(-0.9976223685990792, -0.06889168461175676, -0.0018829397540821755)",0.00046933062545630573,0.0
81,Move,"(-0.001, 0.0, 0.019)","(0.0, 0.026628488397677487, 0.0)","(0.003754477983182602, 0.16416165166468408, 0.04850745832346101)","(0.0008727849213420652, -0.001620118991298464, 0.0689416000520587)","[-0.006244348615539562, 0.004133909142754633, 0.0009568993092433781]","[-0.026750000193715096, 0.05299999937415123, 0.03999999910593033]","[0.0, -0.0, 0.5081505369066501]","[-0.061782486736774445, 0.11590250581502914, 0.03999999910593033]","[0.0, 0.0, -0.29979351083425726]","[0.026750000193715096, 0.05299999937415123, 0.03999999910593033]","[0.0, 0.0, -0.5531282824004116]","[0.06457531452178955, 0.11426373571157455, 0.03999999910593033]","[0.0, -0.0, 0.25630402659293416]",0.5083038350472645,0.036784347587158095,"(0.0, 0.0, 0.0, 0.0, 0.0, 0.0)",-0.027592881838592914,-0.8079440862205383,-5.267051782257771e-06,"(0.0, 0.0, 0.0, 0.0, 0.0, 0.0)",-0.001978387221752852,-0.5538348123304375,-0.1695618040347533,"(0.0, 0.0, 0.0, 0.0, 0.0, 0.0)",-0.02198437611880089,0.8094323134889045,-6.909261510803556e-13,"(0.0, 0.0, 0.0, 0.0, 0.0, 0.0)",-0.0015722632985075708,True,"(-0.0288981008671734, 0.18260141564850488, 0.023999896979959683)","(0.99722471806539, 0.07445032721405258, -0.00010226008110443469)",-9.460602764732636e-05,0.0,True,"(0.03468568485513654, 0.18104983468747016, 0.023998253797196268)","(-0.9976227626776164, -0.0688895987559568, -0.001745442844506684)",0.0005476342252728018,0.0
82,Move,"(-0.0007, 0.0, 0.019899999999999998)","(0.0, 0.018053685782629343, 0.0)","(0.003806921863392448, 0.16416367500932288, 0.048546013113990295)","(0.0006810921548696755, -0.0016113077676327713, 0.0680728035483196)","[-0.006191904735329717, 0.00413593248739344, 0.0009954540997726621]","[-0.026750000193715096, 0.05299999937415123, 0.03999999910593033]","[0.0, -0.0, 0.5083038936299691]","[-0.061792127788066864, 0.11589713394641876, 0.03999999910593033]","[0.0, 0.0, -0.29964028847908647]","[0.026750000193715096, 0.05299999937415123, 0.03999999910593033]","[0.0, 0.0, -0.5538348577164319]","[0.06461858749389648, 0.1142369955778122, 0.03999999910593033]","[0.0, -0.0, 0.2555974978186038]",0.507804873176766,-0.11975084891963131,"(0.0, 0.0, 0.0, 0.0, 0.0, 0.0)",-1.2279237513964556,-0.8078922380738764,0.012443555198824546,"(0.0, 0.0, 0.0, 0.0, 0.0, 0.0)",-0.5259856271929982,-0.5551943926389665,-0.32629927404697234,"(0.0, 0.0, 0.0, 0.0, 0.0, 0.0)",-0.22758920920015552,0.8094323134889049,6.927791673660977e-14,"(0.0, 0.0, 0.0, 0.0, 0.0, 0.0)",-0.016273564460794386,True,"(-0.02891796314264758, 0.18260108416943657, 0.023999896979959683)","(0.99722471806539, 0.07445032721405258, -0.00010226008110443469)",-7.150367236463807e-05,6.835588199799156,True,"(0.034776199062756474, 0.18104349395233027, 0.02399837912175822)","(-0.9976231597371076, -0.0688869100257833, -0.0016201182825558535)",0.0006342176514787687,0.0
83,Move,"(-0.0003, 0.0, 0.0213)","(0.0, 0.009473647179825222, 0.0)","(0.0038637596347847265, 0.16416516672165515, 0.0485814931852292)","(0.0006227884569673294, -0.0014844288128598873, 0.0673153641524782)","[-0.006135066963937438, 0.004137424199725709, 0.0010309341710115702]","[-0.026750000193715096, 0.05299999937415123, 0.03999999910593033]","[0.0, -0.0, 0.507804843527088]","[-0.06176074221730232, 0.11591460555791855, 0.03999999910593033]","[0.0, 0.0, -0.30008740584301025]","[0.026750000193715096, 0.05299999937415123, 0.03999999910593033]","[0.0, 0.0, -0.555194429648509]","[0.06470181047916412, 0.11418545246124268, 0.03999999910593033]","[0.0, -0.0, 0.25423790992254286]",0.5072921398006003,-0.12305601027977903,"(0.0, 0.0, 0.0, 0.0, 0.0, 0.0)",-0.6631987523017652,-0.8078706867036946,0.005172328843660374,"(0.0, 0.0, 0.0, 0.0, 0.0, 0.0)",-0.3353679063165812,-0.5565726540661613,-0.3307827425267531,"(0.0, 0.0, 0.0, 0.0, 0.0, 0.0)",-0.00659319066106853,0.8094323134889049,-7.993605777301127e-15,"(0.0, 0.0, 0.0, 0.0, 0.0, 0.0)",-0.0004728937473065942,True,"(-0.028856754545703488, 0.18260385586773958, 0.023999896979959683)","(0.99722471806539, 0.07445032721405258, -0.00010226008110443469)",-6.218427598883721e-05,4.68056442830102,True,"(0.03495031025291966, 0.18103197369634372, 0.023998387932970384)","(-0.997682646132965, -0.06802015359178372, -0.0016113070703895303)",0.0007420485476736888,0.0
84,Move,"(-0.0004, 0.0, 0.0225)","(0.0, 0.009473647179825222, 0.0)","(0.003928399387878441, 0.16416653470432852, 0.048614135488503005)","(0.0005694330841239977, -0.0013675868510571855, 0.06646337955440372)","[-0.006070427210843723, 0.00413879218239907, 0.0010635764742853715]","[-0.026750000193715096, 0.05299999937415123, 0.03999999910593033]","[0.0, -0.0, 0.5072921192325517]","[-0.061728477478027344, 0.11593255400657654, 0.03999999910593033]","[0.0, 0.0, -0.30057855528247374]","[0.026750000193715096, 0.05299999937415123, 0.03999999910593033]","[0.0, 0.0, -0.5565727337587217]","[0.06478610634803772, 0.1141330897808075, 0.03999999910593033]","[0.0, -0.0, 0.25285967957708705]",0.5066981861715418,-0.14254887097402535,"(0.0, 0.0, 0.0, 0.0, 0.0, 0.0)",-0.719075912008658,-0.8078454899927038,0.006047210637795784,"(0.0, 0.0, 0.0, 0.0, 0.0, 0.0)",-0.35491044740739003,-0.5580361195310166,-0.35123171156528166,"(0.0, 0.0, 0.0, 0.0, 0.0, 0.0)",-0.029772656237789998,0.8094323134889049,0.0,"(0.0, 0.0, 0.0, 0.0, 0.0, 0.0)",-0.002130321110255245,True,"(-0.028791738937616093, 0.1826056288822599, 0.023999896979959683)","(0.99722471806539, 0.07445032721405258, -0.00010226008110443469)",-5.7433647247557604e-05,4.911754697780342,True,"(0.03512680531020244, 0.18101993048226023, 0.023998514811773074)","(-0.9977340770266636, -0.06726446322144927, -0.0014844282677012736)",0.0008524408952407358,0.0
85,Move,"(-0.0006, 0.0, 0.023600000000000003)","(0.0, 0.03126582822022642, 0.0)","(0.0039888919580190795, 0.16416941034840576, 0.04864417297662781)","(0.0005212133228711074, -0.0012597303529459142, 0.06569250094929543)","[-0.006009934640703085, 0.00414166782647632, 0.0010936139624101796]","[-0.026750000193715096, 0.05299999937415123, 0.03999999910593033]","[0.0, -0.0, 0.5066982065051994]","[-0.06169109418988228, 0.11595331877470016, 0.03999999910593033]","[0.0, 0.0, -0.3011473003079201]","[0.026750000193715096, 0.05299999937415123, 0.03999999910593033]","[0.0, 0.0, -0.5580361368739674]","[0.064875528216362, 0.1140773594379425, 0.03999999910593033]","[0.0, -0.0, 0.2513962385297787]",0.506146386182151,-0.13243199745379458,"(0.0, 0.0, 0.0, 0.0, 0.0, 0.0)",-0.5810482114262074,-0.8078246177903143,0.005009328573479292,"(0.0, 0.0, 0.0, 0.0, 0.0, 0.0)",-0.3037700059709951,-0.559460888968368,-0.3419446649643314,"(0.0, 0.0, 0.0, 0.0, 0.0, 0.0)",0.013391560682723635,0.8094323134889049,0.0,"(0.0, 0.0, 0.0, 0.0, 0.0, 0.0)",0.0009558310000627263,True,"(-0.028716438307878137, 0.18260764959323458, 0.023999896979959683)","(0.99722471806539, 0.07445032721405258, -0.00010226008110443469)",-5.2923220401467545e-05,4.215773447204593,True,"(0.035314189278301024, 0.18100692407568192, 0.02399863165361602)","(-0.9977911894395541, -0.06641439591060685, -0.0013675864247583115)",0.0009642449885350948,0.0
86,Move,"(-0.0007, 0.0, 0.0247)","(0.0, 0.05316796500350326, 0.0)","(0.004033334111784504, 0.16421177465813816, 0.04863141216984863)","(-0.0008489974565741946, -0.0011585277142375525, 0.06479971290309407)","[-0.0059654924869376605, 0.004184032136208715, 0.0010808531556309939]","[-0.026750000193715096, 0.05299999937415123, 0.03999999910593033]","[0.0, -0.0, 0.5061463634970992]","[-0.061656348407268524, 0.11597258597612381, 0.03999999910593033]","[0.0, 0.0, -0.30167826189883606]","[0.026750000193715096, 0.05299999937415123, 0.03999999910593033]","[0.0, 0.0, -0.5594608882166388]","[0.06496251374483109, 0.11402297765016556, 0.03999999910593033]","[0.0, -0.0, 0.2499714499133604]",0.5056841142157235,-0.11094527194262697,"(0.0, 0.0, 0.0, 0.0, 0.0, 0.0)",-0.11159617870431089,-0.8078214159107182,0.0007684511030832111,"(0.0, 0.0, 0.0, 0.0, 0.0, 0.0)",-0.07216427958375694,-0.5607875929442152,-0.31840895420332505,"(0.0, 0.0, 0.0, 0.0, 0.0, 0.0)",0.03407990989602755,0.8094323134889049,0.0,"(0.0, 0.0, 0.0, 0.0, 0.0, 0.0)",0.002435185668920287,True,"(-0.028646311362394518, 0.18260940394885222, 0.023999896979959683)","(0.99722471806539, 0.07445032721405258, -0.00010226008110443469)",-4.873724253476987e-05,0.8701492985318346,True,"(0.03549660344736102, 0.18099393965663252, 0.02399873951002101)","(-0.9978422317817227, -0.0656452096740341, -0.001259730019766185)",0.0010761282167328335,0.0
87,Move,"(-0.001, 0.0, 0.0257)","(0.0, 0.06176196624032335, 0.0)","(0.004090075304234779, 0.16426490232306903, 0.04865967129860246)","(-0.0018717157824220082, 7.629845936775414e-05, 0.06480344670812967)","[-0.005908751294487385, 0.0042371598011395895, 0.0011091122843848236]","[-0.026750000193715096, 0.05299999937415123, 0.03999999910593033]","[0.0, -0.0, 0.5056841240910424]","[-0.061627235263586044, 0.11598871648311615, 0.03999999910593033]","[0.0, 0.0, -0.30213731678732014]","[0.026750000193715096, 0.05299999937415123, 0.03999999910593033]","[0.0, 0.0, -0.5607875729850256]","[0.06504344195127487, 0.11397222429513931, 0.03999999910593033]","[0.0, -0.0, 0.2486447380702311]",0.5052955253724994,-0.09326132237375383,"(0.0, 0.0, 0.0, 0.0, 0.0, 0.0)",-0.7095447326009322,-0.8075207828723536,0.0721519292075078,"(0.0, 0.0, 0.0, 0.0, 0.0, 0.0)",-0.36431402635763116,-0.5620408440172887,-0.3007802575376353,"(0.0, 0.0, 0.0, 0.0, 0.0, 0.0)",0.025510748566524348,0.8094323134889049,0.0,"(0.0, 0.0, 0.0, 0.0, 0.0, 0.0)",0.0018226841305482259,True,"(-0.028586609682231437, 0.18261037250438555, 0.023999896979959683)","(0.99722471806539, 0.07445032721405258, -0.00010226008110443469)",-4.466775522836064e-05,5.728191694560791,True,"(0.0356664336504125, 0.18098178984373386, 0.023998840712585703)","(-0.9979005634673489, -0.06475432993772075, -0.001158527455074109)",0.001187081344037645,0.0
88,Move,"(-0.0034, 0.0, 0.0273)","(0.0, 0.06176196624032335, 0.0)","(0.004129892258211817, 0.16427909841773772, 0.048686055723048446)","(-0.001721493227525282, 7.051589726868016e-05, 0.06466338572058743)","[-0.0058689343405103475, 0.004251355895808273, 0.0011354967088308132]","[-0.026750000193715096, 0.05299999937415123, 0.03999999910593033]","[0.0, -0.0, 0.5052955294677827]","[-0.06160275638103485, 0.11600226163864136, 0.03999999910593033]","[0.0, 0.0, -0.3022252629654812]","[0.026750000193715096, 0.05299999937415123, 0.03999999910593033]","[0.0, 0.0, -0.5620408025161648]","[0.06511982530355453, 0.11392419040203094, 0.03999999910593033]","[0.0, -0.0, 0.2473914835076902]",0.5049709932032463,-0.07788772062074231,"(0.0, 0.0, 0.0, 0.0, 0.0, 0.0)",-0.49559143792708754,-0.8074977847448923,0.005519550590724148,"(0.0, 0.0, 0.0, 0.0, 0.0, 0.0)",-0.26721360800619676,-0.5632129707771574,-0.28131042236847126,"(0.0, 0.0, 0.0, 0.0, 0.0, 0.0)",0.028188464351967733,0.8094323134889049,0.0,"(0.0, 0.0, 0.0, 0.0, 0.0, 0.0)",0.002014297356039134,True,"(-0.028555816780642812, 0.18261436271121978, 0.023999922941581493)","(0.9979009884602589, 0.06475809917364288, -7.629845928941417e-05)",-4.978979158294519e-05,3.8598759027015888,True,"(0.03582681992163644, 0.18097051481008453, 0.023998840712585703)","(-0.9979005634673489, -0.06475432993772075, -0.001158527455074109)",0.0013168666029940766,0.0
89,Move,"(-0.0032, 0.0, 0.027899999999999998)","(0.0, 0.057002453370134806, 0.0)","(0.004130776165735131, 0.1642732111044259, 0.048710966847969425)","(-0.0016009163138095647, 8.235572535086362e-05, 0.06466285219919952)","[-0.005868050432987033, 0.004245468582496442, 0.001160407833751792]","[-0.026750000193715096, 0.05299999937415123, 0.03999999910593033]","[0.0, -0.0, 0.5049709757652638]","[-0.061582308262586594, 0.11601357161998749, 0.03999999910593033]","[0.0, 0.0, -0.30252679765812635]","[0.026750000193715096, 0.05299999937415123, 0.03999999910593033]","[0.0, 0.0, -0.5632129716213631]","[0.06519120931625366, 0.11387917399406433, 0.03999999910593033]","[0.0, -0.0, 0.24621935989839902]",0.5051978263623682,0.054439958189260715,"(0.0, 0.0, 0.0, 0.0, 0.0, 0.0)",0.19146006405607563,-0.8075000846279327,-0.0005519719296865518,"(0.0, 0.0, 0.0, 0.0, 0.0, 0.0)",0.013104677993875795,-0.5638623488423641,-0.15585073564961238,"(0.0, 0.0, 0.0, 0.0, 0.0, 0.0)",0.18206662225123554,0.8094323134190804,-1.6757876304434306e-08,"(0.0, 0.0, 0.0, 0.0, 0.0, 0.0)",0.01301710534944359,True,"(-0.02851529479220205, 0.18261586356496884, 0.023999928724143568)","(0.9979100491791931, 0.06461833156843805, -7.051589721263773e-05)",-4.6671815472083795e-05,0.0,True,"(0.03597681131693786, 0.18095978772086763, 0.023998840712585703)","(-0.9979005634673489, -0.06475432993772075, -0.001158527455074109)",0.001422965938813086,0.0
90,Move,"(-0.0004, 0.0, 0.0296)","(0.0, 0.05227784708498615, 0.0)","(0.0041316597574025974, 0.16426710672189504, 0.048733264548395716)","(-0.001476002667243892, 9.32990420400253e-05, 0.06466387774552723)","[-0.005867166841319567, 0.004239364199965595, 0.0011827055341780829]","[-0.026750000193715096, 0.05299999937415123, 0.03999999910593033]","[0.0, -0.0, 0.5051978581088248]","[-0.06159660220146179, 0.11600566655397415, 0.03999999910593033]","[0.0, 0.0, -0.3023022629340723]","[0.026750000193715096, 0.05299999937415123, 0.03999999910593033]","[0.0, 0.0, -0.5638623204183234]","[0.06523073464632034, 0.11385419964790344, 0.03999999910593033]","[0.0, -0.0, 0.24556998363538657]",0.5053289964476367,0.0314808204644475,"(0.0, 0.0, 0.0, 0.0, 0.0, 0.0)",-0.0332550517054026,-0.8074998546396286,5.519719296831482e-05,"(0.0, 0.0, 0.0, 0.0, 0.0, 0.0)",-0.002319263611412645,-0.5646178225433589,-0.18131368823875876,"(0.0, 0.0, 0.0, 0.0, 0.0, 0.0)",-0.03700526189722965,0.8094323134260628,1.6757875087613032e-09,"(0.0, 0.0, 0.0, 0.0, 0.0, 0.0)",-0.0026462965217024684,True,"(-0.028544528160008152, 0.1826151591924592, 0.023999916884315523)","(0.9979100827512174, 0.06461779910359577, -8.235572526100774e-05)",-1.7235865383283015e-05,0.0,False,,,,
91,Move,"(-0.0004, 0.0, 0.0296)","(0.0, 0.05227784708498615, 0.0)","(0.004169518621537692, 0.16426466126034012, 0.048753760562880194)","(-0.001361626510009168, 8.532087343380968e-05, 0.06407784805990158)","[-0.005829307977184473, 0.004236918738410672, 0.0012032015486625608]","[-0.026750000193715096, 0.05299999937415123, 0.03999999910593033]","[0.0, -0.0, 0.5053290099883501]","[-0.06160486489534378, 0.11600109934806824, 0.03999999910593033]","[0.0, 0.0, -0.30217085606827715]","[0.026750000193715096, 0.05299999937415123, 0.03999999910593033]","[0.0, 0.0, -0.5646178604937916]","[0.06527669727802277, 0.11382510513067245, 0.03999999910593033]","[0.0, -0.0, 0.24481450161967028]",0.5048235581736109,-0.12130518576620528,"(0.0, 0.0, 0.0, 0.0, 0.0, 0.0)",-1.1528158558636148,-0.8074069506032653,0.022296968727181208,"(0.0, 0.0, 0.0, 0.0, 0.0, 0.0)",-0.4920022139796066,-0.5660010385202511,-0.3319718344541158,"(0.0, 0.0, 0.0, 0.0, 0.0, 0.0)",-0.2187664771978501,0.8094323134253646,-1.6757795151534083e-10,"(0.0, 0.0, 0.0, 0.0, 0.0, 0.0)",-0.015642775086186677,True,"(-0.02856153666423586, 0.18261480018701504, 0.023999905940998878)","(0.997910015523032, 0.06461882244447421, -9.329904190360518e-05)",-4.5892178880468364e-08,7.187665084442082,False,,,,
92,Move,"(-0.0004, 0.0, 0.0296)","(0.0, 0.05227784708498615, 0.0)","(0.006300776313911011, 0.1638139697957447, 0.048937693141149395)","(-0.000967443537851376, -0.005489890334906335, 0.03406193944234016)","[-0.0036980502848111534, 0.0037862272738152514, 0.001387134126931762]","[-0.026750000193715096, 0.05299999937415123, 0.03999999910593033]","[0.0, -0.0, 0.5048235178784213]","[-0.06157301738858223, 0.11601870507001877, 0.03999999910593033]","[0.0, 0.0, -0.302583420697087]","[0.026750000193715096, 0.05299999937415123, 0.03999999910593033]","[0.0, 0.0, -0.5660010657484442]","[0.06536079198122025, 0.11377175897359848, 0.03999999910593033]","[0.0, -0.0, 0.2434312592937724]",0.48434342439103784,-4.915232107817543,"(0.0, 0.0, 0.0, 0.0, 0.0, 0.0)",-23.9826033407605,-0.8077421966285576,-0.08045904607015393,"(0.0, 0.0, 0.0, 0.0, 0.0, 0.0)",-10.06096276271422,-0.5458975691678536,4.824832644575393,"(0.0, 0.0, 0.0, 0.0, 0.0, 0.0)",7.48640828215008,0.8094323134254344,1.6757262244482263e-11,"(0.0, 0.0, 0.0, 0.0, 0.0, 0.0)",0.535294452287086,True,"(-0.028502200301489006, 0.18261859881110615, 0.023999913919167448)","(0.9979477134236259, 0.06403400653484903, -8.53208733326211e-05)",-9.721079870221752e-06,77.97496956683317,False,,,,
93,Move,"(-0.0004, 0.0, 0.0296)","(0.0, 0.05227784708498615, 0.0)","(0.006186187573698549, 0.16452239164029714, 0.04869676661028658)","(0.01238387621577644, -0.006011022825187177, 0.03422991327473036)","[-0.0038126390250236156, 0.004494649118367694, 0.0011462075960689475]","[-0.026750000193715096, 0.05299999937415123, 0.03999999910593033]","[0.0, -0.0, 0.48434340814916343]","[-0.06027517467737198, 0.11671862006187439, 0.03999999910593033]","[0.0, 0.0, -0.3233987870680106]","[0.026750000193715096, 0.05299999937415123, 0.03999999910593033]","[0.0, 0.0, -0.545897554086097]","[0.06413134932518005, 0.11453563719987869, 0.03999999910593033]","[0.0, -0.0, 0.2635347501942459]",0.46799434035910864,-3.923780167663004,"(0.0, 0.0, 0.0, 0.0, 0.0, 0.0)",-56.22361139676308,-0.7780955215956803,7.115202007890562,"(0.0, 0.0, 0.0, 0.0, 0.0, 0.0)",-27.359781016906737,-0.5300683010963017,3.7990243371724546,"(0.0, 0.0, 0.0, 0.0, 0.0, 0.0)",72.8969540671233,0.7785804694136782,-7.404442562821503,"(0.0, 0.0, 0.0, 0.0, 0.0, 0.0)",37.70934932451618,True,"(-0.02582531848406836, 0.1826157537302623, 0.023999913919167448)","(0.9979477134236259, 0.06403400653484903, -8.53208733326211e-05)",0.00018242317855396992,409.6540434241308,True,"(0.033681000344997006, 0.18223880336794082, 0.023994509493235346)","(-0.9994048875570067, -0.03405484009740906, -0.005489862758408064)",-0.003582550270633377,578.8108850655157
