OSUrobotics/InHand-Manipulation/AnalyseData/Data/Trial Data/Better/new_hand_human_sub1_2v2_a_n_1_kpNone_kdNone_dp5_step5_save_data.csv
,Phase,human_cube_pos,human_cube_orn,Cube_Pos,Cube_Orn,Cube_pos_in_start_pos,b'l_prox_pin'_link_pos,b'l_prox_pin'_link_orn,b'l_distal_pin'_link_pos,b'l_distal_pin'_link_orn,b'r_prox_pin'_link_pos,b'r_prox_pin'_link_orn,b'r_distal_pin'_link_pos,b'r_distal_pin'_link_orn,b'l_prox_pin'_joint_angle,b'l_prox_pin'_joint_vel,b'l_prox_pin'_joint_react_forces,b'l_prox_pin'_joint_motor_torque,b'l_distal_pin'_joint_angle,b'l_distal_pin'_joint_vel,b'l_distal_pin'_joint_react_forces,b'l_distal_pin'_joint_motor_torque,b'r_prox_pin'_joint_angle,b'r_prox_pin'_joint_vel,b'r_prox_pin'_joint_react_forces,b'r_prox_pin'_joint_motor_torque,b'r_distal_pin'_joint_angle,b'r_distal_pin'_joint_vel,b'r_distal_pin'_joint_react_forces,b'r_distal_pin'_joint_motor_torque,in_contact_l,contact_point_l_dist,contact_normal_l_dist,contact_distance_l_dist,contact_norm_force_l_dist,in_contact_r,contact_point_r_dist,contact_normal_r_dist,contact_distance_r_dist,contact_norm_force_r_dist
0,Open,,,,,,"[-0.026750000193715096, 0.05299999937415123, 0.03999999910593033]","[0.0, -0.0, 0.42755761853039154]","[-0.056604765355587006, 0.1185186430811882, 0.03999999910593033]","[0.0, -0.0, 0.4463066270391506]","[0.026750000193715096, 0.05299999937415123, 0.03999999910593033]","[0.0, 0.0, -0.42757404208311445]","[0.05660583823919296, 0.1185181587934494, 0.03999999910593033]","[0.0, 0.0, -0.4465272228574986]",0.5418018724257314,27.418616735313837,"(0.0, 0.0, 0.0, 0.0, 0.0, 0.0)",-4.412236817968903,0.016874447698417276,-0.44988750389777044,"(0.0, 0.0, 0.0, 0.0, 0.0, 0.0)",-0.3112578673856835,-0.5418166170859073,-27.418223544375806,"(0.0, 0.0, 0.0, 0.0, 0.0, 0.0)",4.412120589674461,-0.017058187988154127,0.4547872631353701,"(0.0, 0.0, 0.0, 0.0, 0.0, 0.0)",0.31119999541872967,False,,,,,False,,,,
1,Open,,,,,,"[-0.026750000193715096, 0.05299999937415123, 0.03999999910593033]","[0.0, -0.0, 0.8953993146775664]","[-0.08294302970170975, 0.09801492094993591, 0.03999999910593033]","[0.0, -0.0, 0.9064709010541386]","[0.026750000193715096, 0.05299999937415123, 0.03999999910593033]","[0.0, 0.0, -0.8954089117450801]","[0.08294346183538437, 0.09801438450813293, 0.03999999910593033]","[0.0, 0.0, -0.9066017902209218]",0.9628593532756313,16.19042164509191,"(0.0, 0.0, 0.0, 0.0, 0.0, 0.0)",-2.616982062825332,0.009964410252893989,-0.26571760674383965,"(0.0, 0.0, 0.0, 0.0, 0.0, 0.0)",-0.1877568237801791,-0.9628679942230576,-16.190186820718473,"(0.0, 0.0, 0.0, 0.0, 0.0, 0.0)",2.6169116956513756,-0.010073825668234598,0.2685740373807176,"(0.0, 0.0, 0.0, 0.0, 0.0, 0.0)",0.18772217113330047,False,,,,,False,,,,
2,Open,,,,,,"[-0.026750000193715096, 0.05299999937415123, 0.03999999910593033]","[0.0, -0.0, 1.1716550769231424]","[-0.09309044480323792, 0.08098116517066956, 0.03999999910593033]","[0.0, -0.0, 1.1781927685666738]","[0.026750000193715096, 0.05299999937415123, 0.03999999910593033]","[0.0, 0.0, -1.1716605985979762]","[0.09309060126543045, 0.08098078519105911, 0.03999999910593033]","[0.0, 0.0, -1.178270796658152]",1.2114895686110108,9.560280800381618,"(0.0, 0.0, 0.0, 0.0, 0.0, 0.0)",-1.5493464150464644,0.0058838846102313705,-0.1569035896061699,"(0.0, 0.0, 0.0, 0.0, 0.0, 0.0)",-0.11225047703030747,-1.2114946219087734,-9.560143415766044,"(0.0, 0.0, 0.0, 0.0, 0.0, 0.0)",1.5493042372274815,-0.005949173306233402,0.15860832157883972,"(0.0, 0.0, 0.0, 0.0, 0.0, 0.0)",0.11222928456015019,False,,,,,False,,,,
3,Open,,,,,,"[-0.026750000193715096, 0.05299999937415123, 0.03999999910593033]","[0.0, -0.0, 1.334781482161592]","[-0.09675398468971252, 0.06983575224876404, 0.03999999910593033]","[0.0, -0.0, 1.3386419828978886]","[0.026750000193715096, 0.05299999937415123, 0.03999999910593033]","[0.0, 0.0, -1.3347844615433213]","[0.0967540368437767, 0.06983552873134613, 0.03999999910593033]","[0.0, 0.0, -1.3386893465906344]",1.358303271447085,5.6452460947444,"(0.0, 0.0, 0.0, 0.0, 0.0, 0.0)",-0.9162894473135258,0.003475429294788193,-0.0923969755163063,"(0.0, 0.0, 0.0, 0.0, 0.0, 0.0)",-0.06673940856788434,-1.3583061592909116,-5.645169085575695,"(0.0, 0.0, 0.0, 0.0, 0.0, 0.0)",0.9162650861264717,-0.0035153021875517355,0.09346017338929369,"(0.0, 0.0, 0.0, 0.0, 0.0, 0.0)",0.06675822579860799,False,,,,,False,,,,
4,Open,,,,,,"[-0.026750000193715096, 0.05299999937415123, 0.03999999910593033]","[0.0, -0.0, 1.4311058207082674]","[-0.09804865717887878, 0.06302504241466522, 0.03999999910593033]","[0.0, -0.0, 1.4333889194842393]","[0.026750000193715096, 0.05299999937415123, 0.03999999910593033]","[0.0, 0.0, -1.4311075924426346]","[0.09804867953062057, 0.06302490830421448, 0.03999999910593033]","[0.0, 0.0, -1.4334167865153191]",1.4449951987567893,3.333461366485621,"(0.0, 0.0, 0.0, 0.0, 0.0, 0.0)",-0.541550531219571,0.0020553288730763143,-0.054641977944724585,"(0.0, 0.0, 0.0, 0.0, 0.0, 0.0)",-0.03959464623813247,-1.4449969039996904,-3.3334158933415914,"(0.0, 0.0, 0.0, 0.0, 0.0, 0.0)",0.5415356087133543,-0.0020788727813150854,0.05526984954091774,"(0.0, 0.0, 0.0, 0.0, 0.0, 0.0)",0.039586564754525544,False,,,,,False,,,,
5,Open,,,,,,"[-0.026750000193715096, 0.05299999937415123, 0.03999999910593033]","[0.0, -0.0, 1.4879842849605203]","[-0.09850326180458069, 0.05895565077662468, 0.03999999910593033]","[0.0, -0.0, 1.4893345487079792]","[0.026750000193715096, 0.05299999937415123, 0.03999999910593033]","[0.0, 0.0, -1.4879853833286059]","[0.09850326925516129, 0.05895556882023811, 0.03999999910593033]","[0.0, 0.0, -1.4893509895093244]",1.4961859149138965,1.9683756022960943,"(0.0, 0.0, 0.0, 0.0, 0.0, 0.0)",-0.3199510569909436,0.001215500758026876,-0.03231462021147047,"(0.0, 0.0, 0.0, 0.0, 0.0, 0.0)",-0.02343824292631449,-1.4961869218427772,-1.9683487508592754,"(0.0, 0.0, 0.0, 0.0, 0.0, 0.0)",0.31994221837725056,-0.0012294028222731488,0.0326853621277101,"(0.0, 0.0, 0.0, 0.0, 0.0, 0.0)",0.023433446947819125,False,,,,,False,,,,
6,Open,,,,,,"[-0.026750000193715096, 0.05299999937415123, 0.03999999910593033]","[0.0, -0.0, 1.5215704989376362]","[-0.09866278618574142, 0.05654282122850418, 0.03999999910593033]","[0.0, -0.0, 1.522368827097796]","[0.026750000193715096, 0.05299999937415123, 0.03999999910593033]","[0.0, 0.0, -1.5215710825913402]","[0.09866278618574142, 0.0565427765250206, 0.03999999910593033]","[0.0, 0.0, -1.5223788612299347]",1.5264135208975067,1.16230610939982,"(0.0, 0.0, 0.0, 0.0, 0.0, 0.0)",-0.1889873365550516,0.0007188352063954542,-0.01911055321616137,"(0.0, 0.0, 0.0, 0.0, 0.0, 0.0)",-0.013860124920708776,-1.5264141154789415,-1.162290253894895,"(0.0, 0.0, 0.0, 0.0, 0.0, 0.0)",0.1889821080500169,-0.0007270440122088662,0.019329466669232104,"(0.0, 0.0, 0.0, 0.0, 0.0, 0.0)",0.013857284625185838,False,,,,,False,,,,
7,Close,,,"(1.2478112222004723e-07, 0.16999960627914262, 0.0003375139776493395)","(1.5703757789651642, 0.00010886811694204219, -5.122612180017893e-06)",,"[-0.026750000193715096, 0.05299999937415123, 0.03999999910593033]","[0.0, -0.0, 1.2785329680082034]","[-0.09569678455591202, 0.07374466955661774, 0.03999999910593033]","[0.0, -0.0, 1.0351040646249943]","[0.026750000193715096, 0.05299999937415123, 0.03999999910593033]","[0.0, 0.0, -1.2785333261376617]","[0.09569679200649261, 0.07374463975429535, 0.03999999910593033]","[0.0, 0.0, -1.0351098829921532]",1.210679619954769,-16.284789865460507,"(0.0, 0.0, 0.0, 0.0, 0.0, 0.0)",2.8094728282680173,-0.30908637455193716,-15.757811689803505,"(0.0, 0.0, 0.0, 0.0, 0.0, 0.0)",0.366153703442325,-1.2106799710491603,16.284799227977608,"(0.0, 0.0, 0.0, 0.0, 0.0, 0.0)",-2.809475710522041,0.3090815273660072,15.757940948561085,"(0.0, 0.0, 0.0, 0.0, 0.0, 0.0)",-0.36615518737872554,False,,,,,False,,,,
8,Close,,,"(3.0991841440449384e-07, 0.16999915308737612, 0.000560034708932854)","(1.5707725584893846, 0.00032764711808816303, -1.5390016499385927e-05)",,"[-0.026750000193715096, 0.05299999937415123, 0.03999999910593033]","[0.0, -0.0, 1.0006670909649218]","[-0.08736184239387512, 0.09186135232448578, 0.03999999910593033]","[0.0, -0.0, 0.48836528829072057]","[0.026750000193715096, 0.05299999937415123, 0.03999999910593033]","[0.0, 0.0, -1.0006671906734346]","[0.08736184984445572, 0.09186133742332458, 0.03999999910593033]","[0.0, 0.0, -0.4883688154364048]",0.9606002087863994,-9.61600556779822,"(0.0, 0.0, 0.0, 0.0, 0.0, 0.0)",1.6672532466531642,-0.5510714133103725,-9.3047623117234,"(0.0, 0.0, 0.0, 0.0, 0.0, 0.0)",0.22180369649953532,-0.9606004161041268,9.616011096270952,"(0.0, 0.0, 0.0, 0.0, 0.0, 0.0)",-1.6672550000982824,0.5510685510955527,9.30483863745193,"(0.0, 0.0, 0.0, 0.0, 0.0, 0.0)",-0.22180462115435112,False,,,,,False,,,,
9,Close,,,"(2.9338539737647437e-07, 0.16999904048792472, 0.0007066062154392888)","(1.570833762802509, 0.00026866528467971054, -1.4044482016373325e-05)",,"[-0.026750000193715096, 0.05299999937415123, 0.03999999910593033]","[0.0, -0.0, 0.8365897781630613]","[-0.08020010590553284, 0.1012398824095726, 0.03999999910593033]","[0.0, -0.0, 0.16552131322884842]","[0.026750000193715096, 0.05299999937415123, 0.03999999910593033]","[0.0, 0.0, -0.8365899294750984]","[0.08020011335611343, 0.101239874958992, 0.03999999910593033]","[0.0, 0.0, -0.16552335255974335]",0.8129308172859234,-5.6781551276246285,"(0.0, 0.0, 0.0, 0.0, 0.0, 0.0)",0.9873873945926335,-0.6939617827494095,-5.494394212451137,"(0.0, 0.0, 0.0, 0.0, 0.0, 0.0)",0.13292453582842612,-0.8129309397049683,5.678158392132489,"(0.0, 0.0, 0.0, 0.0, 0.0, 0.0)",-0.9873884479474795,0.693960092642812,5.494439282137207,"(0.0, 0.0, 0.0, 0.0, 0.0, 0.0)",-0.1329250987107668,False,,,,,False,,,,
10,Close,,,"(1.9902477845861983e-07, 0.16999905216518896, 0.0008031506137055516)","(1.5708213694470456, 0.00017518801048286743, -1.403127270559785e-05)",,"[-0.026750000193715096, 0.05299999937415123, 0.03999999910593033]","[0.0, -0.0, 0.7397039398326887]","[-0.075282983481884, 0.10618411004543304, 0.03999999910593033]","[0.0, 0.0, -0.025114833826444725]","[0.026750000193715096, 0.05299999937415123, 0.03999999910593033]","[0.0, 0.0, -0.7397039829241547]","[0.0752829909324646, 0.10618410259485245, 0.03999999910593033]","[0.0, -0.0, 0.025113644055729707]",0.7257335182991649,-3.3528938213110653,"(0.0, 0.0, 0.0, 0.0, 0.0, 0.0)",0.5840196005234469,-0.7783381148478574,-3.244650314995589,"(0.0, 0.0, 0.0, 0.0, 0.0, 0.0)",0.07914029464082274,-0.7257335905863868,3.3528957489703135,"(0.0, 0.0, 0.0, 0.0, 0.0, 0.0)",-0.5840202286507077,0.7783371168637355,3.2446769293298843,"(0.0, 0.0, 0.0, 0.0, 0.0, 0.0)",-0.07914063277236218,False,,,,,False,,,,
11,Close,,,"(1.3069317871759726e-07, 0.16999905849316718, 0.0008666025578369592)","(1.570813038524353, 0.00010764969451790618, -1.401480831798325e-05)",,"[-0.026750000193715096, 0.05299999937415123, 0.03999999910593033]","[0.0, -0.0, 0.6824937890365349]","[-0.07216256856918335, 0.10887216031551361, 0.03999999910593033]","[0.0, 0.0, -0.13768716533389486]","[0.026750000193715096, 0.05299999937415123, 0.03999999910593033]","[0.0, 0.0, -0.6824937890365349]","[0.07216257601976395, 0.10887216031551361, 0.03999999910593033]","[0.0, -0.0, 0.13768645023773068]",0.6742443852204739,-1.979850272545971,"(0.0, 0.0, 0.0, 0.0, 0.0, 0.0)",0.34523007984963694,-0.8281635782062949,-1.9158358580630166,"(0.0, 0.0, 0.0, 0.0, 0.0, 0.0)",0.046989695028875546,-0.6742444279053555,1.9798514108094807,"(0.0, 0.0, 0.0, 0.0, 0.0, 0.0)",-0.3452304530255038,0.8281629889225323,1.915851573146789,"(0.0, 0.0, 0.0, 0.0, 0.0, 0.0)",-0.046989896833852095,False,,,,,False,,,,
12,Close,,,"(8.555941982573342e-08, 0.16999906193922726, 0.0009084219478062884)","(1.5708075491537572, 6.311807489535442e-05, -1.400059535248375e-05)",,"[-0.026750000193715096, 0.05299999937415123, 0.03999999910593033]","[0.0, -0.0, 0.6487117277688945]","[-0.070249542593956, 0.11037412285804749, 0.03999999910593033]","[0.0, 0.0, -0.20415833540260053]","[0.026750000193715096, 0.05299999937415123, 0.03999999910593033]","[0.0, 0.0, -0.6487117277688945]","[0.070249542593956, 0.11037411540746689, 0.03999999910593033]","[0.0, -0.0, 0.20415788801885543]",0.6438405670288376,-1.1690817874356696,"(0.0, 0.0, 0.0, 0.0, 0.0, 0.0)",0.20397674188769177,-0.8575835070249831,-1.1312237085025627,"(0.0, 0.0, 0.0, 0.0, 0.0, 0.0)",0.027828956760087745,-0.6438405922338334,1.1690824595688907,"(0.0, 0.0, 0.0, 0.0, 0.0, 0.0)",-0.2039769630027836,0.8575831590682623,1.1312329878534306,"(0.0, 0.0, 0.0, 0.0, 0.0, 0.0)",-0.02782907663659517,False,,,,,False,,,,
13,Close,,,"(5.567361917735069e-08, 0.1699990634928685, 0.0009359839309477356)","(1.570803932132238, 3.375601082358798e-05, -1.3987283221863363e-05)",,"[-0.026750000193715096, 0.05299999937415123, 0.03999999910593033]","[0.0, -0.0, 0.62876384308693]","[-0.06909646838903427, 0.11123037338256836, 0.03999999910593033]","[0.0, 0.0, -0.24340792651541499]","[0.026750000193715096, 0.05299999937415123, 0.03999999910593033]","[0.0, 0.0, -0.62876384308693]","[0.06909646838903427, 0.11123037338256836, 0.03999999910593033]","[0.0, -0.0, 0.24340764580603796]",0.6258874164248583,-0.6903311046628886,"(0.0, 0.0, 0.0, 0.0, 0.0, 0.0)",0.12048853212986645,-0.874954784430369,-0.6679417575665867,"(0.0, 0.0, 0.0, 0.0, 0.0, 0.0)",0.016461142011593703,-0.6258874313081562,0.6903315015508323,"(0.0, 0.0, 0.0, 0.0, 0.0, 0.0)",-0.12048866295982034,0.8749545789710084,0.6679472367820984,"(0.0, 0.0, 0.0, 0.0, 0.0, 0.0)",-0.016461213045210525,False,,,,,False,,,,
14,Move,,,"(0.0002849438359132304, 0.17128526680100953, 0.0018667774923587291)","(1.5298671460581013, 0.0012365520934294774, -0.0026252735383378266)","[0.0, 0.0, 0.0]","[-0.026750000193715096, 0.05299999937415123, 0.03999999910593033]","[0.0, -0.0, 0.5674368798319164]","[-0.06544800847768784, 0.113716259598732, 0.03999999910593033]","[0.0, 0.0, -0.23086444862254737]","[0.026750000193715096, 0.05299999937415123, 0.03999999910593033]","[0.0, 0.0, -0.5672775113046467]","[0.06543833017349243, 0.11372242867946625, 0.03999999910593033]","[0.0, -0.0, 0.23382302092293214]",0.5526433855955126,-3.550437208846589,"(0.0, 0.0, 0.0, 0.0, 0.0, 0.0)",-74.66311479704028,-0.7739535545552543,5.843467997896604,"(0.0, 0.0, 0.0, 0.0, 0.0, 0.0)",-38.56773952630712,-0.5523653534630693,3.578908685670632,"(0.0, 0.0, 0.0, 0.0, 0.0, 0.0)",70.97380875985469,0.778468919026578,-5.431581909041709,"(0.0, 0.0, 0.0, 0.0, 0.0, 0.0)",36.63167246344203,True,"(-0.03113902692927871, 0.1854967312737493, 0.0399992435333991)","(0.9999971505699229, -0.002264201916037234, -0.0007564666009023012)",-0.0005031812438418636,565.4925921091675,True,"(0.03091711979558001, 0.18540856630407582, 0.040000756466600895)","(-0.999997150569923, 0.0022642019160316975, 0.0007564666008929539)",-0.001360648754702089,538.0249636952592
15,Move,"(0.0021000000000000003, 0.0, -0.0002)","(0.0, 0.0054262286444503715, 0.0)","(0.000355078928275707, 0.17138187759935106, 0.0031608163172274785)","(1.4899616562515396, 0.0013389593913796815, -0.0008071853782850466)","[7.013509236247659e-05, 9.661079834152875e-05, 0.0012940388248687494]","[-0.026750000193715096, 0.05299999937415123, 0.03999999910593033]","[0.0, -0.0, 0.5435051652164861]","[-0.06398402899503708, 0.11462488770484924, 0.03999999910593033]","[0.0, 0.0, -0.2135896327724547]","[0.026750000193715096, 0.05299999937415123, 0.03999999910593033]","[0.0, 0.0, -0.5454132256554522]","[0.06410153955221176, 0.11455373466014862, 0.03999999910593033]","[0.0, -0.0, 0.21792800064613022]",0.5446334265085319,0.2707712027121162,"(0.0, 0.0, 0.0, 0.0, 0.0, 0.0)",-0.48234850288658987,-0.7585639051637094,-0.3525670695388384,"(0.0, 0.0, 0.0, 0.0, 0.0, 0.0)",-0.25394519510409663,-0.5471650588915073,-0.4204325475012633,"(0.0, 0.0, 0.0, 0.0, 0.0, 0.0)",0.32439557954370024,0.7647213499435972,0.33123100733527583,"(0.0, 0.0, 0.0, 0.0, 0.0, 0.0)",0.1509894458584553,True,"(-0.030919983532746415, 0.18697092017782851, 0.03999855031814823)","(0.9999980029337376, -0.0013757002090333938, -0.0014496818517693766)",-0.0006275319146917032,3.321620334254941,True,"(0.030723936510005823, 0.18676273141446562, 0.040001449681851764)","(-0.9999980029337375, 0.0013757002090399864, 0.0014496818517604577)",-0.0016483873249403041,1.967568480711468
16,Move,"(0.0013000000000000002, 0.0, 0.004)","(0.0, 0.003220132469929538, 0.0)","(0.0004445707915902017, 0.17136510056851112, 0.0031262433733770002)","(1.4946944359423189, 0.0007953656728682458, 0.002159121185314554)","[0.00015962695567697127, 7.983376750159143e-05, 0.0012594658810182711]","[-0.026750000193715096, 0.05299999937415123, 0.03999999910593033]","[0.0, -0.0, 0.5477130989433991]","[-0.06424300372600555, 0.11446767300367355, 0.03999999910593033]","[0.0, 0.0, -0.2118099103067957]","[0.026750000193715096, 0.05299999937415123, 0.03999999910593033]","[0.0, 0.0, -0.5518164895315009]","[0.06449491530656815, 0.11431330442428589, 0.03999999910593033]","[0.0, -0.0, 0.213779781712012]",0.5482681625734067,0.13323343004714253,"(0.0, 0.0, 0.0, 0.0, 0.0, 0.0)",-0.02198057751866677,-0.7594266139789135,0.023113434868304063,"(0.0, 0.0, 0.0, 0.0, 0.0, 0.0)",-0.00190024430246958,-0.552643054360867,-0.1983731051022879,"(0.0, 0.0, 0.0, 0.0, 0.0, 0.0)",0.03256493544895467,0.7655082214951988,-0.021134665919948326,"(0.0, 0.0, 0.0, 0.0, 0.0, 0.0)",0.002667591197330902,True,"(-0.03130777076773414, 0.18687358899922882, 0.039999093253407995)","(0.9999983720258713, 0.0015600500713533897, -0.0009067465920131592)",-0.00021651592937322808,0.0,True,"(0.03141711925461419, 0.18665305094474738, 0.040000906746592034)","(-0.9999983720258712, -0.0015600500713439406, 0.0009067465920314528)",-0.0009790402351245854,0.0
17,Move,"(-0.0006, 0.0, 0.010400000000000001)","(0.0, 0.07666009673534695, 0.0)","(0.0005351457924290491, 0.1712391461736323, 0.0018106860101772936)","(1.5397126942877135, 0.00013944110450950955, 0.005161297028828046)","[0.0002502019565158187, -4.612062737721634e-05, -5.609148218143549e-05]","[-0.026750000193715096, 0.05299999937415123, 0.03999999910593033]","[0.0, -0.0, 0.5535569223475666]","[-0.06460157036781311, 0.11424751579761505, 0.03999999910593033]","[0.0, 0.0, -0.2058051614982792]","[0.026750000193715096, 0.05299999937415123, 0.03999999910593033]","[0.0, 0.0, -0.5585780971601861]","[0.06490863114595413, 0.11405669152736664, 0.03999999910593033]","[0.0, -0.0, 0.2068708857212984]",0.5548452315501722,0.3091914901776525,"(0.0, 0.0, 0.0, 0.0, 0.0, 0.0)",-0.05033801319191301,-0.7593677469025383,-0.0013574682955582447,"(0.0, 0.0, 0.0, 0.0, 0.0, 0.0)",-0.003740371515755522,-0.559974523457598,-0.33514429744299346,"(0.0, 0.0, 0.0, 0.0, 0.0, 0.0)",0.0545658156515547,0.7654540050537347,0.0012154643159627038,"(0.0, 0.0, 0.0, 0.0, 0.0, 0.0)",0.004057242819165771,True,"(-0.032101691333212834, 0.18684689381753394, 0.03999971068293711)","(0.999989549011421, 0.0045626925791611185, -0.0002893170628880307)",0.0005981603360661263,0.0,True,"(0.032331400177714714, 0.186613328042011, 0.040000289317062884)","(-0.999989549011421, -0.0045626925791700254, 0.00028931706288029595)",-8.680644844310475e-05,0.0
18,Move,"(-0.0039, 0.0, 0.018000000000000002)","(0.0, 0.035192819037213656, 0.0)","(0.0005969632033572653, 0.17115554057276233, 0.0007529486164750766)","(1.5962789922915894, 0.012553542639989677, 0.007028864466695905)","[0.0003120193674440349, -0.0001297262282471956, -0.0011138288758836524]","[-0.026750000193715096, 0.05299999937415123, 0.03999999910593033]","[0.0, -0.0, 0.5656802829363158]","[-0.06534130126237869, 0.11378414183855057, 0.03999999910593033]","[0.0, 0.0, -0.19369100701926542]","[0.026750000193715096, 0.05299999937415123, 0.03999999910593033]","[0.0, 0.0, -0.5661868463493284]","[0.06537208706140518, 0.11376458406448364, 0.03999999910593033]","[0.0, -0.0, 0.19927040164449453]",0.5682830683833288,0.6246693638002974,"(0.0, 0.0, 0.0, 0.0, 0.0, 0.0)",-0.10171658413763844,-0.7593707798403236,0.00011281815294709111,"(0.0, 0.0, 0.0, 0.0, 0.0, 0.0)",-0.007582171369321942,-0.5675199334524953,-0.3199360957596067,"(0.0, 0.0, 0.0, 0.0, 0.0, 0.0)",0.05210276866162995,0.7654568681109126,-9.2717809235392e-05,"(0.0, 0.0, 0.0, 0.0, 0.0, 0.0)",0.003885973016330105,False,,,,,True,"(0.03336256496865411, 0.18648129142040745, 0.0415539060964934)","(-0.9999348995857833, -0.006899573486476637, 0.009088040276874088)",0.0005398423824275423,0.0
19,Move,"(-0.0039, 0.0, 0.018000000000000002)","(0.0, 0.035192819037213656, 0.0)","(-0.000937994535746274, 0.1726821373693924, 0.0017643737662728946)","(1.5574504298264276, 0.00208247800739995, 0.029346995126633788)","[-0.0012229383716595044, 0.001396870568382863, -0.00010240372608583451]","[-0.026750000193715096, 0.05299999937415123, 0.03999999910593033]","[0.0, -0.0, 0.5145237390200805]","[-0.06218266487121582, 0.11567796021699905, 0.03999999910593033]","[0.0, 0.0, -0.18774772422889457]","[0.026750000193715096, 0.05299999937415123, 0.03999999910593033]","[0.0, 0.0, -0.5136675773129641]","[0.062128983438014984, 0.11570826917886734, 0.03999999910593033]","[0.0, -0.0, 0.1944077839744769]",0.5000427294681623,-3.4754468051911407,"(0.0, 0.0, 0.0, 0.0, 0.0, 0.0)",-68.10252008170826,-0.6779502582437511,5.837091583763714,"(0.0, 0.0, 0.0, 0.0, 0.0, 0.0)",-36.84400544568321,-0.4994568976235084,3.4105553203710035,"(0.0, 0.0, 0.0, 0.0, 0.0, 0.0)",67.85794209909804,0.6836123311852,-5.8711225145687855,"(0.0, 0.0, 0.0, 0.0, 0.0, 0.0)",36.97235945917762,True,"(-0.030999151310381112, 0.1888592735942165, 0.03999794009386462)","(0.9995608472695214, 0.029561282161076372, -0.002059903597123831)",-0.002264388647928935,504.65352456531224,True,"(0.03047929077432513, 0.18854762562321536, 0.04215970072317393)","(-0.999864420801145, -0.007156310537485123, 0.014829943879923492)",-0.00018954280070728485,503.5219461742047
20,Move,"(-0.0006, 0.0, 0.023600000000000003)","(0.0, 0.03126582822022642, 0.0)","(-0.0012167112038462583, 0.1741013054014076, 0.002022425661158767)","(1.535632526925654, -0.0020240719904379427, 0.024084545578278105)","[-0.0015016550397594888, 0.0028160386003980853, 0.00015564816880003795]","[-0.026750000193715096, 0.05299999937415123, 0.03999999910593033]","[0.0, -0.0, 0.5003841745386743]","[-0.06129290908575058, 0.1161726787686348, 0.03999999910593033]","[0.0, 0.0, -0.16160148593113832]","[0.026750000193715096, 0.05299999937415123, 0.03999999910593033]","[0.0, 0.0, -0.5003503761340936]","[0.06129077449440956, 0.11617384850978851, 0.03999999910593033]","[0.0, -0.0, 0.16719820946513037]",0.5039806317972934,0.8631603417406176,"(0.0, 0.0, 0.0, 0.0, 0.0, 0.0)",-0.13586217737833664,-0.6635808596812593,-0.3828548939072681,"(0.0, 0.0, 0.0, 0.0, 0.0, 0.0)",-0.005797067206311816,-0.5040295740727591,-0.8830107639877758,"(0.0, 0.0, 0.0, 0.0, 0.0, 0.0)",0.1390634008403975,0.6691536641422119,0.38522342054912484,"(0.0, 0.0, 0.0, 0.0, 0.0, 0.0)",0.006007870901782241,True,"(-0.03203197566937986, 0.19011197970146027, 0.04000278559883491)","(0.9997213299515648, 0.023441477747903602, 0.0027855988349095103)",-0.0016028099158762366,0.0,True,"(0.03161660208333687, 0.18990693672532039, 0.039997214401165104)","(-0.999721329951564, -0.02344147774793266, -0.0027855988348927723)",0.0013088303093018823,0.0
21,Move,"(-0.0004, 0.0, 0.0296)","(0.0, 0.05227784708498615, 0.0)","(-0.0012602341658544075, 0.17415845325769824, 0.0013478350172173228)","(1.5579762259509355, -0.0012626727691787607, 0.022954126850938884)","[-0.001545178001767638, 0.0028731864566887144, -0.0005189424751414064]","[-0.026750000193715096, 0.05299999937415123, 0.03999999910593033]","[0.0, -0.0, 0.5174425010650779]","[-0.06236545369029045, 0.11557427048683167, 0.03999999910593033]","[0.0, 0.0, -0.14718644479127715]","[0.026750000193715096, 0.05299999937415123, 0.03999999910593033]","[0.0, 0.0, -0.5195471408229223]","[0.06249707192182541, 0.11549917608499527, 0.03999999910593033]","[0.0, -0.0, 0.15066128387207314]",0.5201930333535791,0.6601301800466057,"(0.0, 0.0, 0.0, 0.0, 0.0, 0.0)",-0.10779304079710213,-0.6645240041198998,0.025185548795195408,"(0.0, 0.0, 0.0, 0.0, 0.0, 0.0)",-0.00831585152674053,-0.522830676846747,-0.7880437515874528,"(0.0, 0.0, 0.0, 0.0, 0.0, 0.0)",0.12861634461718957,0.6701028163286539,-0.025352292434098665,"(0.0, 0.0, 0.0, 0.0, 0.0, 0.0)",0.009867673065801767,True,"(-0.03417290573576215, 0.18991277607959556, 0.040001373921001324)","(0.9997356110937378, 0.02295256526213995, 0.0013739210013176903)",0.0005291370119220942,0.0,False,,,,
22,Move,"(-0.0004, 0.0, 0.0296)","(0.0, 0.05227784708498615, 0.0)","(-7.741932421778037e-05, 0.17578659392513984, 0.0015045140077245163)","(1.5512031917248397, 0.0038873983098302004, -0.0018495646550085083)","[-0.00036236316013101076, 0.0045013271241303165, -0.0003622634846342128]","[-0.026750000193715096, 0.05299999937415123, 0.03999999910593033]","[0.0, -0.0, 0.46978363370302234]","[-0.05934392288327217, 0.11719997227191925, 0.03999999910593033]","[0.0, 0.0, -0.139982951834941]","[0.026750000193715096, 0.05299999937415123, 0.03999999910593033]","[0.0, 0.0, -0.471052433118294]","[0.05942535400390625, 0.11715856194496155, 0.03999999910593033]","[0.0, -0.0, 0.14808968147612675]",0.4561583429911387,-3.270064857159796,"(0.0, 0.0, 0.0, 0.0, 0.0, 0.0)",-65.39019413765337,-0.5861263746355723,5.673648515087186,"(0.0, 0.0, 0.0, 0.0, 0.0, 0.0)",-35.4130846719141,-0.4569216723760578,3.391384289181852,"(0.0, 0.0, 0.0, 0.0, 0.0, 0.0)",63.37418059705459,0.5972196521351174,-5.261386298443037,"(0.0, 0.0, 0.0, 0.0, 0.0, 0.0)",32.756880300608366,True,"(-0.031687153107662076, 0.19170998051283572, 0.039995421626333294)","(0.999989391747962, 0.0005048624652038235, -0.004578373666712672)",-0.00021306079490457714,474.87089750101654,True,"(0.031165442491210865, 0.19144901885339055, 0.0400045783736667)","(-0.9999893917479622, -0.0005048624652019488, 0.004578373666704907)",-0.0008551824127169786,459.11926516889434
23,Move,"(0.0007, 0.0, 0.033600000000000005)","(0.0, 0.0837496241569479, 0.0)","(-8.497513652586808e-05, 0.175950443964298, 0.0023280261025925403)","(1.523396790852008, 0.0027194915550863953, -0.003283327494416096)","[-0.0003699189724390985, 0.004665177163288459, 0.0004612486102338112]","[-0.026750000193715096, 0.05299999937415123, 0.03999999910593033]","[0.0, -0.0, 0.458764216973328]","[-0.05863451212644577, 0.11755523085594177, 0.03999999910593033]","[0.0, 0.0, -0.11214537345710564]","[0.026750000193715096, 0.05299999937415123, 0.03999999910593033]","[0.0, 0.0, -0.46315024083015965]","[0.058917347341775894, 0.11741476505994797, 0.03999999910593033]","[0.0, -0.0, 0.11980442055993462]",0.4627439810502621,0.9551429044690705,"(0.0, 0.0, 0.0, 0.0, 0.0, 0.0)",-0.15108192060850953,-0.5724311572627722,-0.3651756346369525,"(0.0, 0.0, 0.0, 0.0, 0.0, 0.0)",-0.007160130852441024,-0.46825330820374633,-1.2247251689559882,"(0.0, 0.0, 0.0, 0.0, 0.0, 0.0)",0.19523231905762264,0.5843810184229331,0.34231847727443765,"(0.0, 0.0, 0.0, 0.0, 0.0, 0.0)",0.010703502349637526,True,"(-0.03306196802524404, 0.1927745474649349, 0.039997043110589575)","(0.999990232556754, -0.00328505648406713, -0.0029568894104279784)",0.001183839823500131,0.0,True,"(0.03276939811629642, 0.19245024303330283, 0.04000295688941042)","(-0.9999902325567539, 0.0032850564840649125, 0.0029568894104240874)",0.000727932808332135,0.0
24,Move,"(0.0004, 0.0, 0.0351)","(0.0, 0.04843637740134663, 0.0)","(-8.774804767429022e-05, 0.17591838912384866, 0.0019481545498736613)","(1.5371087664883423, 0.0018030675050552825, -0.0032781860758951706)","[-0.0003726918835875206, 0.004633122322839134, 8.137705751493215e-05]","[-0.026750000193715096, 0.05299999937415123, 0.03999999910593033]","[0.0, -0.0, 0.47791138030348024]","[-0.05986464023590088, 0.1169329360127449, 0.03999999910593033]","[0.0, 0.0, -0.09551853449169408]","[0.026750000193715096, 0.05299999937415123, 0.03999999910593033]","[0.0, 0.0, -0.48668257943209803]","[0.06042412295937538, 0.11664003133773804, 0.03999999910593033]","[0.0, -0.0, 0.098634599836697]",0.48102790926719224,0.747975231524263,"(0.0, 0.0, 0.0, 0.0, 0.0, 0.0)",-0.12207804794000326,-0.5733298560670143,0.0240047554444731,"(0.0, 0.0, 0.0, 0.0, 0.0, 0.0)",-0.009365959140563448,-0.49040457867080395,-0.893295753871584,"(0.0, 0.0, 0.0, 0.0, 0.0, 0.0)",0.14571284399756187,0.5852233181946178,-0.022508119222467458,"(0.0, 0.0, 0.0, 0.0, 0.0, 0.0)",0.011107917366383228,False,,,,,False,,,,
25,Move,"(0.0004, 0.0, 0.0351)","(0.0, 0.04843637740134663, 0.0)","(0.0006009001834017818, 0.17764833622476459, 0.001109641861182333)","(1.5720406154685158, 0.00644712984667181, -0.012752896902240081)","[0.00031595634748855144, 0.006363069423755058, -0.000757135631176396]","[-0.026750000193715096, 0.05299999937415123, 0.03999999910593033]","[0.0, -0.0, 0.4304780047412483]","[-0.05679597705602646, 0.11843118071556091, 0.03999999910593033]","[0.0, 0.0, -0.11663561063601406]","[0.026750000193715096, 0.05299999937415123, 0.03999999910593033]","[0.0, 0.0, -0.4394840985000572]","[0.057384029030799866, 0.11815793067216873, 0.03999999910593033]","[0.0, -0.0, 0.11995139521145769]",0.4172000313385706,-3.1867116390016865,"(0.0, 0.0, 0.0, 0.0, 0.0, 0.0)",-58.086475116134565,-0.5238451710628401,5.584423495826643,"(0.0, 0.0, 0.0, 0.0, 0.0, 0.0)",-31.365465749500583,-0.42597204032933816,3.2428898970257998,"(0.0, 0.0, 0.0, 0.0, 0.0, 0.0)",58.03683838993881,0.5363028072286155,-5.5518394018317565,"(0.0, 0.0, 0.0, 0.0, 0.0, 0.0)",31.340706281104968,True,"(-0.030885958197518912, 0.19353251354995388, 0.03999846621764896)","(0.999993451360152, -0.0032779183197059153, -0.0015337823510429016)",-7.779056338915729e-05,416.38016601838774,True,"(0.031225346326772218, 0.19321031938476457, 0.04000624592298898)","(-0.9998935609676566, 0.013185415482084822, 0.006245922988970548)",-0.001734110055609755,417.192497487331
26,Move,"(-0.002, 0.0, 0.0386)","(0.0, 0.035936329298563253, 0.0)","(0.0007831214828349733, 0.17974853511753, 0.0008440880203445396)","(1.5687540878882769, -0.005512607322202169, -0.023558249679214112)","[0.0004981776469217429, 0.008463268316520473, -0.0010226894720141895]","[-0.026750000193715096, 0.05299999937415123, 0.03999999910593033]","[0.0, -0.0, 0.4238827059319428]","[-0.0563637837767601, 0.11862792074680328, 0.03999999910593033]","[0.0, 0.0, -0.08464271795815913]","[0.026750000193715096, 0.05299999937415123, 0.03999999910593033]","[0.0, 0.0, -0.4310387746571545]","[0.05683266371488571, 0.11841432005167007, 0.03999999910593033]","[0.0, -0.0, 0.09003472363583556]",0.42889414479008975,1.2027583504140433,"(0.0, 0.0, 0.0, 0.0, 0.0, 0.0)",-0.19135102234619245,-0.5100571855680274,-0.36763693720045965,"(0.0, 0.0, 0.0, 0.0, 0.0, 0.0)",-0.010130826818069255,-0.4356752493039724,-1.112759950966645,"(0.0, 0.0, 0.0, 0.0, 0.0, 0.0)",0.1767311295776008,0.5225962629442501,0.36546965366258,"(0.0, 0.0, 0.0, 0.0, 0.0, 0.0)",0.009066830149956318,False,,,,,True,"(0.03292947223705073, 0.19418488652484486, 0.03999681390778396)","(-0.9997285376087707, 0.0230802926112199, -0.003186092216045057)",-1.6647665419039563e-05,0.0
27,Move,"(-0.002, 0.0, 0.0386)","(0.0, 0.035936329298563253, 0.0)","(0.0002413487506028382, 0.1811581033560848, 0.0014955661795254239)","(1.551006423794692, -0.009966790077762652, 0.0035958716246551844)","[-4.359508531039222e-05, 0.00987283655507526, -0.00037121131283330525]","[-0.026750000193715096, 0.05299999937415123, 0.03999999910593033]","[0.0, -0.0, 0.3838058274196306]","[-0.05371055006980896, 0.11976172775030136, 0.03999999910593033]","[0.0, 0.0, -0.07589000699184589]","[0.026750000193715096, 0.05299999937415123, 0.03999999910593033]","[0.0, 0.0, -0.39062209232162237]","[0.05416499078273773, 0.11957640945911407, 0.03999999910593033]","[0.0, -0.0, 0.08082965729044649]",0.37102941167336256,-3.0663362828887037,"(0.0, 0.0, 0.0, 0.0, 0.0, 0.0)",-62.75436849456814,-0.43762832335045987,5.2962012673118135,"(0.0, 0.0, 0.0, 0.0, 0.0, 0.0)",-32.50198549444434,-0.3779011498312489,3.0530326839055624,"(0.0, 0.0, 0.0, 0.0, 0.0, 0.0)",61.02455385079827,0.4492902176456421,-5.318775082085207,"(0.0, 0.0, 0.0, 0.0, 0.0, 0.0)",33.155581229938,True,"(-0.030912840014008427, 0.19540568376075984, 0.04421926104366791)","(0.9999350548593864, 0.0010101141146810438, 0.011351904370242746)",-0.0014434902004687303,441.3829556422366,True,"(0.03096027441434759, 0.19556379253287653, 0.03999681390778396)","(-0.9997285376087707, 0.0230802926112199, -0.003186092216045057)",-0.0006187139281262709,427.0073136199905
28,Move,"(-0.0026000000000000003, 0.0, 0.040600000000000004)","(0.0, 0.022656119020138393, 0.0)","(0.0008638071007130541, 0.18182137757541875, 0.0015775678919461719)","(1.539458825413799, 0.006287353808454478, 0.020815562083537284)","[0.0005788632647998237, 0.010536110774409219, -0.00028920960041255725]","[-0.026750000193715096, 0.05299999937415123, 0.03999999910593033]","[0.0, -0.0, 0.3787409643789949]","[-0.05337207019329071, 0.11989742517471313, 0.03999999910593033]","[0.0, 0.0, -0.04432270922054142]","[0.026750000193715096, 0.05299999937415123, 0.03999999910593033]","[0.0, 0.0, -0.38353646243720396]","[0.053692568093538284, 0.11976899206638336, 0.03999999910593033]","[0.0, -0.0, 0.051202872790341636]",0.383907964520582,1.2400741034359433,"(0.0, 0.0, 0.0, 0.0, 0.0, 0.0)",-0.19764292096626018,-0.42451998983788336,-0.34951005582442374,"(0.0, 0.0, 0.0, 0.0, 0.0, 0.0)",-0.010802286502581587,-0.3881329963343729,-1.1031711584912558,"(0.0, 0.0, 0.0, 0.0, 0.0, 0.0)",0.17536789457028387,0.4361942677326042,0.3491867954401267,"(0.0, 0.0, 0.0, 0.0, 0.0, 0.0)",0.009147935106498589,True,"(-0.03297319653554508, 0.1962232338675678, 0.04421926104366791)","(0.9999350548593864, 0.0010101141146810438, 0.011351904370242746)",0.0017082608391612067,0.0,True,"(0.0327679914388676, 0.1959464203845791, 0.03587460782862453)","(-0.9999446088151762, -0.0061101322995610685, -0.008570039950076968)",0.0001578639786752763,0.0
29,Move,"(0.0013000000000000002, 0.0, 0.041600000000000005)","(0.0, 0.001291543646475804, 0.0)","(0.0009568061651420248, 0.18171148583439745, 0.0007998829679273338)","(1.5701267377321813, 0.005470596387890246, 0.023457430055608058)","[0.0006718623292287944, 0.010426219033387918, -0.0010668945244313953]","[-0.026750000193715096, 0.05299999937415123, 0.03999999910593033]","[0.0, -0.0, 0.4027135716180058]","[-0.0549679696559906, 0.11924006789922714, 0.03999999910593033]","[0.0, 0.0, -0.022761742945823425]","[0.026750000193715096, 0.05299999937415123, 0.03999999910593033]","[0.0, 0.0, -0.4059960371749585]","[0.05518525093793869, 0.11914708465337753, 0.03999999910593033]","[0.0, -0.0, 0.03115261920769974]",0.40652135707535497,0.9138815571983796,"(0.0, 0.0, 0.0, 0.0, 0.0, 0.0)",-0.14907355094250357,-0.42537973406905416,0.0229265128312206,"(0.0, 0.0, 0.0, 0.0, 0.0, 0.0)",-0.011367473861957678,-0.4096884445970525,-0.8861776364250211,"(0.0, 0.0, 0.0, 0.0, 0.0, 0.0)",0.1445642283838786,0.4370532206061321,-0.022905409960744194,"(0.0, 0.0, 0.0, 0.0, 0.0, 0.0)",0.011031619568614311,False,,,,,False,,,,
30,Move,"(0.0013000000000000002, 0.0, 0.041600000000000005)","(0.0, 0.001291543646475804, 0.0)","(0.0001986419728666806, 0.18184655615288242, 0.0013444986060614755)","(1.5543766188699504, 0.00033808418339005433, 0.03401496673559321)","[-8.630186304654981e-05, 0.010561289351872893, -0.0005222788862972536]","[-0.026750000193715096, 0.05299999937415123, 0.03999999910593033]","[0.0, -0.0, 0.3597693693090356]","[-0.05209820345044136, 0.12039042264223099, 0.03999999910593033]","[0.0, 0.0, -0.04291957718783947]","[0.026750000193715096, 0.05299999937415123, 0.03999999910593033]","[0.0, 0.0, -0.36385824101250025]","[0.05237354338169098, 0.12028621137142181, 0.03999999910593033]","[0.0, -0.0, 0.0493920667749098]",0.34722480603453504,-3.0106938042148865,"(0.0, 0.0, 0.0, 0.0, 0.0, 0.0)",-51.63937418348148,-0.38244492416395626,4.858564004216455,"(0.0, 0.0, 0.0, 0.0, 0.0, 0.0)",-26.70110700350071,-0.35168957486314845,2.9204840239224223,"(0.0, 0.0, 0.0, 0.0, 0.0, 0.0)",54.71555957003587,0.3916601617798281,-5.181640156729898,"(0.0, 0.0, 0.0, 0.0, 0.0, 0.0)",28.53407778912792,True,"(-0.03178825956993907, 0.19716628309384845, 0.0399997839114839)","(0.9994307667763077, 0.03373567439188158, -0.00021608851610076233)",-0.00047985472472558325,360.7819287454599,True,"(0.03164697715292515, 0.19525822742893373, 0.04778568557036857)","(-0.9996805700274102, -0.02343955677049565, 0.009452253068720969)",-0.00010002735944333006,385.40846828845656
31,Move,"(0.0013000000000000002, 0.0, 0.0432)","(0.0, 0.0008464846872172499, 0.0)","(0.00017605930883039973, 0.18188914820113591, 0.0018819855072185609)","(1.5367764290419552, 0.0003259654548987449, 0.03416630960761668)","[-0.00010888452708283068, 0.010603881400126386, 1.5208014859831743e-05]","[-0.026750000193715096, 0.05299999937415123, 0.03999999910593033]","[0.0, -0.0, 0.3540672311960626]","[-0.051713522523641586, 0.12053386121988297, 0.03999999910593033]","[0.0, 0.0, -0.015064538478069114]","[0.026750000193715096, 0.05299999937415123, 0.03999999910593033]","[0.0, 0.0, -0.35855562526366797]","[0.05201639235019684, 0.12042113393545151, 0.03999999910593033]","[0.0, -0.0, 0.01890629865249993]",0.35894526070566757,1.1707375243482472,"(0.0, 0.0, 0.0, 0.0, 0.0, 0.0)",-0.18672346946003363,-0.3704628825263914,-0.31947761094256744,"(0.0, 0.0, 0.0, 0.0, 0.0, 0.0)",-0.01032629272585763,-0.3633503926766538,-1.150738042186267,"(0.0, 0.0, 0.0, 0.0, 0.0, 0.0)",0.18321154373686263,0.37888161523699015,0.34071984603038186,"(0.0, 0.0, 0.0, 0.0, 0.0, 0.0)",0.009826758927970252,True,"(-0.033548461568018426, 0.19781820505368475, 0.03999964755898351)","(0.9994163530214315, 0.034158880231518154, -0.00035244101648900227)",0.0012141449551006122,0.0,True,"(0.034387209396845, 0.15353539083601794, 0.05079187694649413)","(-0.9997433583891946, -0.02265429855830109, 1.0654840902954938e-05)",0.0012474451011728694,0.0
32,Move,"(0.0016, 0.0, 0.0443)","(0.0, 0.014041173832294382, 0.0)","(0.00017742383711903713, 0.18184672307193117, 0.0011995695700711263)","(1.560603770365386, 0.0002193315785586161, 0.03416971050009519)","[-0.00010751999879419328, 0.010561456270921643, -0.0006672079222876028]","[-0.026750000193715096, 0.05299999937415123, 0.03999999910593033]","[0.0, -0.0, 0.3766353927748228]","[-0.05323114991188049, 0.11995333433151245, 0.03999999910593033]","[0.0, -0.0, 0.005298849993125473]","[0.026750000193715096, 0.05299999937415123, 0.03999999910593033]","[0.0, 0.0, -0.3820303567518075]","[0.05359197407960892, 0.11980949342250824, 0.03999999910593033]","[0.0, 0.0, -0.002216858969955716]",0.3802130632799458,0.858648981875789,"(0.0, 0.0, 0.0, 0.0, 0.0, 0.0)",-0.14005567687293224,-0.37124897834561993,0.021007503265453732,"(0.0, 0.0, 0.0, 0.0, 0.0, 0.0)",-0.01067019714904123,-0.38589447748296696,-0.9273957104490103,"(0.0, 0.0, 0.0, 0.0, 0.0, 0.0)",0.15126147938071,0.37972010233927994,-0.02240818216562036,"(0.0, 0.0, 0.0, 0.0, 0.0, 0.0)",0.011519580660391104,False,,,,,False,,,,
33,Move,"(0.0016, 0.0, 0.0443)","(0.0, 0.014041173832294382, 0.0)","(0.0006125655583444068, 0.1823398305839497, 0.0011083059412929411)","(1.5672907351204093, 0.0003824360169118558, -0.03248299784574457)","[0.00032762172243117635, 0.011054563782940174, -0.000758471551065788]","[-0.026750000193715096, 0.05299999937415123, 0.03999999910593033]","[0.0, -0.0, 0.3342714758094322]","[-0.050371840596199036, 0.12101476639509201, 0.03999999910593033]","[0.0, 0.0, -0.03533126934549418]","[0.026750000193715096, 0.05299999937415123, 0.03999999910593033]","[0.0, 0.0, -0.33990250202095457]","[0.05075445398688316, 0.12088067829608917, 0.03999999910593033]","[0.0, -0.0, 0.039445759624947625]",0.32238669321482843,-2.852362766224503,"(0.0, 0.0, 0.0, 0.0, 0.0, 0.0)",-46.66367516671441,-0.34471131466894384,5.973957433044593,"(0.0, 0.0, 0.0, 0.0, 0.0, 0.0)",-26.275499711593795,-0.328206105271468,2.807135061783122,"(0.0, 0.0, 0.0, 0.0, 0.0, 0.0)",51.883698568054356,0.36055222187625496,-4.511049213402474,"(0.0, 0.0, 0.0, 0.0, 0.0, 0.0)",24.02057992732632,True,"(-0.030644445150193475, 0.19792237071040358, 0.03999999886924374)","(0.9994150537029624, 0.03419869048115906, -1.130756258735801e-06)",3.0451884429537176e-05,311.91766697333617,True,"(0.03251038229778011, 0.1520677217742451, 0.044129473578618086)","(-0.999687449803411, -0.02500005319046311, 6.784316983031682e-06)",1.4682715245424034e-05,82.47408964996728
34,Move,"(-0.0013000000000000002, 0.0, 0.0455)","(0.0, 0.007356562797156099, 0.0)","(0.0019337269096745564, 0.183853080802819, 0.000954034863773559)","(1.5724708672678263, -0.0028486522098760785, -0.022014538378667205)","[0.001648783073761326, 0.01256781400180948, -0.0009127426285851702]","[-0.026750000193715096, 0.05299999937415123, 0.03999999910593033]","[0.0, -0.0, 0.3295105976257781]","[-0.05004775896668434, 0.1211264580488205, 0.03999999910593033]","[0.0, 0.0, -0.00251187943946286]","[0.026750000193715096, 0.05299999937415123, 0.03999999910593033]","[0.0, 0.0, -0.3349880350357072]","[0.050420571118593216, 0.1209978237748146, 0.03999999910593033]","[0.0, -0.0, 0.008219063295492162]",0.33419101155558256,1.1233038616176367,"(0.0, 0.0, 0.0, 0.0, 0.0, 0.0)",-0.17918952296278426,-0.33329134381331565,-0.30453255615008423,"(0.0, 0.0, 0.0, 0.0, 0.0, 0.0)",-0.009937341301673185,-0.33967258660272115,-1.1242792779477344,"(0.0, 0.0, 0.0, 0.0, 0.0, 0.0)",0.1779938091758151,0.3449416590447388,0.41628167550709844,"(0.0, 0.0, 0.0, 0.0, 0.0, 0.0)",0.00859466113392231,False,,,,,True,"(0.03278609212757552, 0.19830298019906406, 0.042148017645182584)","(-0.9998824189177226, 0.015008741750010586, 0.003144202653370463)",-0.0011958185198468676,0.0
35,Move,"(-0.0013000000000000002, 0.0, 0.0455)","(0.0, 0.007356562797156099, 0.0)","(-2.2418590598749337e-05, 0.18521452913252262, 0.001507905290394256)","(1.5650425104364984, -0.01517058125148552, 0.005447592217418987)","[-0.00030736242651197975, 0.013929262331513093, -0.000358872201964473]","[-0.026750000193715096, 0.05299999937415123, 0.03999999910593033]","[0.0, -0.0, 0.2942456983932405]","[-0.04763130098581314, 0.12190552800893784, 0.03999999910593033]","[0.0, -0.0, 0.005463088619191424]","[0.026750000193715096, 0.05299999937415123, 0.03999999910593033]","[0.0, 0.0, -0.301629319769353]","[0.04813949763774872, 0.12174946814775467, 0.03999999910593033]","[0.0, 0.0, -0.004612589639300882]",0.2830612707221594,-2.6842652350893816,"(0.0, 0.0, 0.0, 0.0, 0.0, 0.0)",-62.932384807869646,-0.26482522275129716,5.7497756088006655,"(0.0, 0.0, 0.0, 0.0, 0.0, 0.0)",-33.241090778339355,-0.2912205574671914,2.498101182105647,"(0.0, 0.0, 0.0, 0.0, 0.0, 0.0)",62.63903287278027,0.27750024331334994,-4.683955035162512,"(0.0, 0.0, 0.0, 0.0, 0.0, 0.0)",29.620335470157052,True,"(-0.03102499650240351, 0.19399387669227855, 0.05101555545771662)","(0.99985710519754, 0.0066177841354458315, 0.01555551732125393)",-0.0013861190258085655,450.01495821974714,True,"(0.03149705056086527, 0.19924375346396828, 0.037852545658623234)","(-0.9997756654853265, 0.021022462042708256, -0.002583562082762634)",-0.00015475821562133642,329.5081478233262
36,Move,"(0.0033, 0.0, 0.0451)","(0.0, 0.011859512267301468, 0.0)","(-0.0014617449994221558, 0.18667311835983316, 0.0009792626227291396)","(1.5755646950926951, 0.013540685706474402, -0.0014380986127989018)","[-0.001746688835335386, 0.015387851558823634, -0.0008875148696295895]","[-0.026750000193715096, 0.05299999937415123, 0.03999999910593033]","[0.0, -0.0, 0.2865672335915258]","[-0.04710159823298454, 0.12206383049488068, 0.03999999910593033]","[0.0, -0.0, 0.03803297893853989]","[0.026750000193715096, 0.05299999937415123, 0.03999999910593033]","[0.0, 0.0, -0.3015419154742876]","[0.0481334924697876, 0.1217513382434845, 0.03999999910593033]","[0.0, 0.0, -0.040422435880482104]",0.29003871390137126,0.8331641631914515,"(0.0, 0.0, 0.0, 0.0, 0.0, 0.0)",-0.13102126354063026,-0.25016426879202863,-0.3912137796816608,"(0.0, 0.0, 0.0, 0.0, 0.0, 0.0)",-0.005430615865105901,-0.3066904536120381,-1.235643189414591,"(0.0, 0.0, 0.0, 0.0, 0.0, 0.0)",0.1963887614175316,0.2627574184324059,0.39309896415420725,"(0.0, 0.0, 0.0, 0.0, 0.0, 0.0)",0.010215498003443877,True,"(-0.032851596505398824, 0.1946547189065097, 0.05101555545771662)","(0.99985710519754, 0.0066177841354458315, 0.01555551732125393)",0.00011200763909828954,0.0,True,"(0.032475337106339416, 0.15527249239657825, 0.029050538964144744)","(-0.9994817559116469, 0.032184687576962946, -0.0006045538390311294)",0.0015935359753753873,0.0
37,Move,"(0.0025, 0.0, 0.0458)","(0.0, 0.009995500626171527, 0.0)","(-0.001355035995024663, 0.1868367487519464, 0.0007995603818283012)","(1.5778568173801897, -0.0009119136514125732, -0.006288146582220341)","[-0.0016399798309378933, 0.015551481950936863, -0.0010672171105304278]","[-0.026750000193715096, 0.05299999937415123, 0.03999999910593033]","[0.0, -0.0, 0.30274723573763324]","[-0.04821633920073509, 0.12172551453113556, 0.03999999910593033]","[0.0, -0.0, 0.05151557816054643]","[0.026750000193715096, 0.05299999937415123, 0.03999999910593033]","[0.0, 0.0, -0.3268938275015056]","[0.04986941069364548, 0.12118718773126602, 0.03999999910593033]","[0.0, 0.0, -0.06306200305076151]",0.3053253253139545,0.6187493529050326,"(0.0, 0.0, 0.0, 0.0, 0.0, 0.0)",-0.10116411941586187,-0.2511249631129522,0.025599810111104307,"(0.0, 0.0, 0.0, 0.0, 0.0, 0.0)",-0.007861758632405598,-0.3310821866330134,-1.0052016775657342,"(0.0, 0.0, 0.0, 0.0, 0.0, 0.0)",0.16396387510416516,0.26372438780974233,-0.025789776799029156,"(0.0, 0.0, 0.0, 0.0, 0.0, 0.0)",0.012501298464312622,True,"(-0.032956090787704895, 0.15590499318212497, 0.029051704936257288)","(0.9986721381973783, 0.05149820915397702, -0.0013765326766135377)",-0.0005032297692841056,0.0,False,,,,
38,Move,"(0.0025, 0.0, 0.0458)","(0.0, 0.009995500626171527, 0.0)","(0.0015015618119437338, 0.1879242799554937, 0.0014947248810936345)","(1.5708679189472645, -0.014905601113186302, 0.046283661295601825)","[0.0012166179760305035, 0.016639013154484183, -0.00037205261126509463]","[-0.026750000193715096, 0.05299999937415123, 0.03999999910593033]","[0.0, -0.0, 0.26781765307701316]","[-0.04580318182706833, 0.12243325263261795, 0.03999999910593033]","[0.0, -0.0, 0.036402875718583756]","[0.026750000193715096, 0.05299999937415123, 0.03999999910593033]","[0.0, 0.0, -0.2906635444693993]","[0.04738433659076691, 0.12197988480329514, 0.03999999910593033]","[0.0, 0.0, -0.04828796063065864]",0.25935783647141814,-2.0303532382668377,"(0.0, 0.0, 0.0, 0.0, 0.0, 0.0)",-80.9322174837705,-0.21170298021622608,4.730828418704637,"(0.0, 0.0, 0.0, 0.0, 0.0, 0.0)",-25.79626588335069,-0.2810479869212462,2.3077340686638896,"(0.0, 0.0, 0.0, 0.0, 0.0, 0.0)",83.66228777539371,0.22029596281536007,-5.299110813523357,"(0.0, 0.0, 0.0, 0.0, 0.0, 0.0)",29.028211767898,True,"(-0.030004945663862123, 0.1557409349097641, 0.02904754365202973)","(0.9991640401213923, 0.04077020412399766, -0.003001896731135173)",0.00024939176152596876,586.0579423746636,True,"(0.032070506356328576, 0.15728200964769262, 0.05100571356138082)","(-0.9992556178032395, 0.03815186527420025, 0.0057136209854640975)",-0.0018232114548843992,652.2900742694262
39,Move,"(0.0003, 0.0, 0.047)","(0.0, 0.016334536469414934, 0.0)","(0.002335215276121479, 0.18926686279567223, 0.0013721414477252405)","(1.5708014228597413, -0.01234582717217406, 0.05834127108482417)","[0.0020502714402082485, 0.017981595994662702, -0.0004946360446334886]","[-0.026750000193715096, 0.05299999937415123, 0.03999999910593033]","[0.0, -0.0, 0.26849309846150826]","[-0.04585007205605507, 0.12242036312818527, 0.03999999910593033]","[0.0, -0.0, 0.06935522464038169]","[0.026750000193715096, 0.05299999937415123, 0.03999999910593033]","[0.0, 0.0, -0.28730800783004645]","[0.04715275019407272, 0.12204873561859131, 0.03999999910593033]","[0.0, 0.0, -0.08108564809309328]",0.27300989095296985,1.084038403441161,"(0.0, 0.0, 0.0, 0.0, 0.0, 0.0)",-0.17283062681443367,-0.20039435193928457,-0.3015634207184401,"(0.0, 0.0, 0.0, 0.0, 0.0, 0.0)",-0.009492617729177944,-0.2913456497101001,-0.9690484254820645,"(0.0, 0.0, 0.0, 0.0, 0.0, 0.0)",0.34819024693090567,0.20762867262171317,0.33752689687636683,"(0.0, 0.0, 0.0, 0.0, 0.0, 0.0)",0.0784379246976741,False,,,,,True,"(0.03318149010053589, 0.16000730969907048, 0.028984493407841996)","(-0.9965945202180285, 0.08098707318093802, -0.015506651765706304)",-0.0023149498363555596,1.804036464269034
40,Move,"(0.0003, 0.0, 0.047)","(0.0, 0.016334536469414934, 0.0)","(-0.000260820090422718, 0.1912608379566088, 0.00172158766964302)","(1.5788342026045072, 0.0405983023991258, 0.041665102752935564)","[-0.0005457639263359484, 0.01997557115559928, -0.00014518982271570914]","[-0.026750000193715096, 0.05299999937415123, 0.03999999910593033]","[0.0, -0.0, 0.23914852619297064]","[-0.04380503296852112, 0.12295088171958923, 0.03999999910593033]","[0.0, -0.0, 0.07481731107067884]","[0.026750000193715096, 0.05299999937415123, 0.03999999910593033]","[0.0, 0.0, -0.25865701946872605]","[0.045166339725255966, 0.12260487675666809, 0.03999999910593033]","[0.0, 0.0, -0.09167326833106616]",0.23039286503061635,-2.1013536618723485,"(0.0, 0.0, 0.0, 0.0, 0.0, 0.0)",-84.16326856426132,-0.14488901732959494,4.666123950189409,"(0.0, 0.0, 0.0, 0.0, 0.0, 0.0)",-27.630179108614595,-0.2504195702225563,1.9769921729845146,"(0.0, 0.0, 0.0, 0.0, 0.0, 0.0)",86.22336901977451,0.14614071857469163,-5.0023313685329835,"(0.0, 0.0, 0.0, 0.0, 0.0, 0.0)",29.60460547799613,True,"(-0.029393230836282813, 0.15811549883159828, 0.05100981691288315)","(0.9981736102671221, 0.05960764059643014, 0.009816972487796694)",0.00020332607590258552,552.8598644789964,True,"(0.031592620426141124, 0.16065428812122862, 0.028990241511930748)","(-0.9974490941080134, 0.07071121134869439, -0.009758547673898988)",-0.0022265477493441915,707.1514430202985
41,Move,"(-0.0009000000000000001, 0.0, 0.047200000000000006)","(0.0, 0.011859512267301468, 0.0)","(0.00010361692118605485, 0.19203439641511344, 0.0022387347740865427)","(1.5775215627943477, 0.052368399010840776, 0.024687277469438242)","[-0.00018132691472717556, 0.02074912961410391, 0.0003719572817278136]","[-0.026750000193715096, 0.05299999937415123, 0.03999999910593033]","[0.0, -0.0, 0.23990160394452964]","[-0.04385770484805107, 0.12293801456689835, 0.03999999910593033]","[0.0, -0.0, 0.10787477114756383]","[0.026750000193715096, 0.05299999937415123, 0.03999999910593033]","[0.0, 0.0, -0.2554203303754841]","[0.04494095221161842, 0.12266411632299423, 0.03999999910593033]","[0.0, 0.0, -0.1225966257833941]",0.24457568228109772,1.1217826485345694,"(0.0, 0.0, 0.0, 0.0, 0.0, 0.0)",-0.1788877872469471,-0.13331289737719987,-0.30865497828562233,"(0.0, 0.0, 0.0, 0.0, 0.0, 0.0)",-0.00986442461439146,-0.25878792045994026,-0.8082293072327156,"(0.0, 0.0, 0.0, 0.0, 0.0, 0.0)",0.1277212095102935,0.1341552800153622,0.31958670852120724,"(0.0, 0.0, 0.0, 0.0, 0.0, 0.0)",0.005931504012569848,True,"(-0.030750314120294567, 0.15978740819213935, 0.028947368296353266)","(0.9928092040042628, 0.10751642637975584, -0.05263176325137562)",0.0010844603780832795,0.0,True,"(0.03255014911682, 0.1611150193801662, 0.028990241511930748)","(-0.9974490941080134, 0.07071121134869439, -0.009758547673898988)",-0.001640495438432677,0.0
42,Move,"(-0.0003, 0.0, 0.047700000000000006)","(0.0, 0.01603957582582789, 0.0)","(0.00011662009176463732, 0.19214808162188932, 0.0014595302511237842)","(1.575231715724662, 0.023065029260270046, 0.021554523182048542)","[-0.0001683237441485931, 0.020862814820879788, -0.0004072472412349449]","[-0.026750000193715096, 0.05299999937415123, 0.03999999910593033]","[0.0, -0.0, 0.26237673276448775]","[-0.04542512074112892, 0.12253589183092117, 0.03999999910593033]","[0.0, -0.0, 0.1282204245609529]","[0.026750000193715096, 0.05299999937415123, 0.03999999910593033]","[0.0, 0.0, -0.27228463879963116]","[0.04611314833164215, 0.12234744429588318, 0.03999999910593033]","[0.0, 0.0, -0.13725596901595857]",0.2660337026095656,0.877669724672856,"(0.0, 0.0, 0.0, 0.0, 0.0, 0.0)",-0.14314268059236782,-0.1340717986225132,0.020283247969281153,"(0.0, 0.0, 0.0, 0.0, 0.0, 0.0)",-0.010891762501130465,-0.2751000173504789,-0.6756900736116215,"(0.0, 0.0, 0.0, 0.0, 0.0, 0.0)",0.11027513158974729,0.13494118883608183,-0.02099317930028459,"(0.0, 0.0, 0.0, 0.0, 0.0, 0.0)",0.00845361244092531,False,,,,,True,"(0.034287322767793046, 0.16097585246830454, 0.028990241511930748)","(-0.9974490941080134, 0.07071121134869439, -0.009758547673898988)",0.0007298048684694759,0.0
43,Move,"(-0.0003, 0.0, 0.047700000000000006)","(0.0, 0.01603957582582789, 0.0)","(0.0005646246816242181, 0.19271392053284458, 0.00078663420590869)","(1.575821614817357, 0.0008630676298887954, 0.017071496865356275)","[0.0002796808457109877, 0.021428653731835057, -0.001080143286450039]","[-0.026750000193715096, 0.05299999937415123, 0.03999999910593033]","[0.0, -0.0, 0.23174014232055995]","[-0.04328634589910507, 0.12307531386613846, 0.03999999910593033]","[0.0, -0.0, 0.12721311064837187]","[0.026750000193715096, 0.05299999937415123, 0.03999999910593033]","[0.0, 0.0, -0.23961955696215714]","[0.043837979435920715, 0.12294284254312515, 0.03999999910593033]","[0.0, 0.0, -0.13519137695376673]",0.223002648198227,-2.096997917278422,"(0.0, 0.0, 0.0, 0.0, 0.0, 0.0)",-70.45819371730552,-0.08663936543778769,4.293039135041695,"(0.0, 0.0, 0.0, 0.0, 0.0, 0.0)",-24.380265808786575,-0.23062316595683133,2.159134103146112,"(0.0, 0.0, 0.0, 0.0, 0.0, 0.0)",66.8968393507363,0.08659812003246514,-4.279214235362558,"(0.0, 0.0, 0.0, 0.0, 0.0, 0.0)",24.03134207761181,True,"(-0.030946256212870307, 0.16059100152176387, 0.050938095229494704)","(0.9931190019745333, 0.11710912501927133, 0.00031741822172873745)",-7.070541687169352e-05,652.0785628481262,True,"(0.031980836218501306, 0.16190297647815344, 0.05073779252813315)","(-0.9908725765984454, 0.1347971391062694, 0.0011261589242339528)",-0.0009014983285414727,611.6910513844715
44,Move,"(0.0033, 0.0, 0.048600000000000004)","(0.0, 0.016334536469414934, 0.0)","(0.001145879216368926, 0.19320827789775263, 0.0008125210084093791)","(1.5724972538334345, -0.002473709547528557, 0.007824644603298734)","[0.0008609353804556957, 0.021923011096743106, -0.0010542564839493502]","[-0.026750000193715096, 0.05299999937415123, 0.03999999910593033]","[0.0, -0.0, 0.22786766815093873]","[-0.04301485791802406, 0.12313882261514664, 0.03999999910593033]","[0.0, -0.0, 0.15308249520454809]","[0.026750000193715096, 0.05299999937415123, 0.03999999910593033]","[0.0, 0.0, -0.23969243786201108]","[0.04384307563304901, 0.12294159829616547, 0.03999999910593033]","[0.0, 0.0, -0.1648112158727922]",0.23129168534393432,0.8217635491015071,"(0.0, 0.0, 0.0, 0.0, 0.0, 0.0)",-0.13035009209407364,-0.07597047481047112,-0.28447627865893693,"(0.0, 0.0, 0.0, 0.0, 0.0, 0.0)",-0.006521418599922602,-0.24431048517651965,-1.1083358538790837,"(0.0, 0.0, 0.0, 0.0, 0.0, 0.0)",0.1770323988499707,0.07605273578050639,0.28116797653769887,"(0.0, 0.0, 0.0, 0.0, 0.0, 0.0)",0.010034491049796779,True,"(-0.0317384699816691, 0.16153909554644238, 0.050937538357052364)","(0.9883023208869854, 0.15249318431032424, 0.0020859693898813967)",0.0011103515497551837,0.0,True,"(0.03312293022942153, 0.16210336091394176, 0.05073943604396142)","(-0.987741585146584, 0.15609639198585568, 0.0006909277179815486)",-0.00011525565645562871,0.0
45,Move,"(0.0002, 0.0, 0.048)","(0.0, 0.016334536469414934, 0.0)","(0.0011452841917113357, 0.19321052178420586, 0.0008733787563352455)","(1.5703615499656045, -0.0031837637785945365, 0.007817921125239666)","[0.0008603403557981053, 0.021925254983196335, -0.0009933987360234836]","[-0.026750000193715096, 0.05299999937415123, 0.03999999910593033]","[0.0, -0.0, 0.24614840152510772]","[-0.04429426044225693, 0.12282978743314743, 0.03999999910593033]","[0.0, -0.0, 0.16939957822187285]","[0.026750000193715096, 0.05299999937415123, 0.03999999910593033]","[0.0, 0.0, -0.26005064279587836]","[0.045263320207595825, 0.12257914245128632, 0.03999999910593033]","[0.0, 0.0, -0.18322894834122572]",0.24931595815489274,0.7602107435249019,"(0.0, 0.0, 0.0, 0.0, 0.0, 0.0)",-0.12400558031765357,-0.07667083893421603,0.018716185148926694,"(0.0, 0.0, 0.0, 0.0, 0.0, 0.0)",-0.009450117871185802,-0.2631666957972618,-0.7478629081883055,"(0.0, 0.0, 0.0, 0.0, 0.0, 0.0)",0.12199294285170825,0.07674461815685456,-0.01848936348194968,"(0.0, 0.0, 0.0, 0.0, 0.0, 0.0)",0.009297776481862927,False,,,,,False,,,,
46,Move,"(0.0002, 0.0, 0.048)","(0.0, 0.016334536469414934, 0.0)","(0.0008810727097022996, 0.19437925194714561, 0.001642460894340247)","(1.5722032061802627, 0.022116258230059378, -0.019478619319146344)","[0.0005961288737890692, 0.023093985146136087, -0.00022431659801848219]","[-0.026750000193715096, 0.05299999937415123, 0.03999999910593033]","[0.0, -0.0, 0.2133824005617757]","[-0.04199720919132233, 0.1233670562505722, 0.03999999910593033]","[0.0, -0.0, 0.15179058574802234]","[0.026750000193715096, 0.05299999937415123, 0.03999999910593033]","[0.0, 0.0, -0.22762810506918446]","[0.042998056858778, 0.12314271926879883, 0.03999999910593033]","[0.0, 0.0, -0.16783126664414602]",0.20487078479389415,-2.042789490244881,"(0.0, 0.0, 0.0, 0.0, 0.0, 0.0)",-68.34878571076052,-0.042624098245701666,4.552254664399396,"(0.0, 0.0, 0.0, 0.0, 0.0, 0.0)",-24.17053813064234,-0.21932781071340038,1.9920677534405475,"(0.0, 0.0, 0.0, 0.0, 0.0, 0.0)",69.15630342210078,0.039899577397630795,-4.775342892997881,"(0.0, 0.0, 0.0, 0.0, 0.0, 0.0)",24.74019971159354,True,"(-0.030748688750428327, 0.16225917010997806, 0.05093599381310634)","(0.9892140596038637, 0.14645441003926776, 0.0025787714310545233)",-5.04203176957997e-05,486.18322886836347,True,"(0.03242088305600581, 0.16248218543266527, 0.029065007240497313)","(-0.9870789894892374, 0.16021209552393512, -0.002674501212479402)",-0.0003430950125139712,534.0577148661373
47,Move,"(0.0014, 0.0, 0.048299999999999996)","(0.0, 0.016334536469414934, 0.0)","(0.0018833693593932684, 0.19542327763154496, 0.001271490287400413)","(1.5722855205129784, 0.009698266756518838, -0.04332003417983279)","[0.001598425523480038, 0.024138010830535434, -0.0005952872049583161]","[-0.026750000193715096, 0.05299999937415123, 0.03999999910593033]","[0.0, -0.0, 0.2096736918673375]","[-0.04173613339662552, 0.12342312186956406, 0.03999999910593033]","[0.0, -0.0, 0.1799009966474502]","[0.026750000193715096, 0.05299999937415123, 0.03999999910593033]","[0.0, 0.0, -0.22773226564382104]","[0.043005362153053284, 0.12314102053642273, 0.03999999910593033]","[0.0, 0.0, -0.19999933991556154]",0.21304151891834502,0.8082779944397522,"(0.0, 0.0, 0.0, 0.0, 0.0, 0.0)",-0.127864689957075,-0.03105774625087526,-0.3084104932894482,"(0.0, 0.0, 0.0, 0.0, 0.0, 0.0)",-0.006067649580068625,-0.23205206580499246,-1.036753086080196,"(0.0, 0.0, 0.0, 0.0, 0.0, 0.0)",0.16525183193221907,0.02894943367407162,0.2919657664675822,"(0.0, 0.0, 0.0, 0.0, 0.0, 0.0)",0.00903650132580277,True,"(-0.032011107267297764, 0.1649574667825492, 0.028986470581360828)","(0.9837713629774241, 0.17891578634651426, -0.01352947824381696)",0.0010470702397035042,0.0,True,"(0.03369891935180784, 0.16280032914394282, 0.029065007240497313)","(-0.9870789894892374, 0.16021209552393512, -0.002674501212479402)",0.0008249702084103725,0.0
