OSUrobotics/InHand-Manipulation/AnalyseData/Data/Trial Data/Better/new_hand_human_sub1_2v2_g_n_1_kpNone_kdNone_dp1_step1_save_data.csv
,Phase,human_cube_pos,human_cube_orn,Cube_Pos,Cube_Orn,Cube_pos_in_start_pos,b'l_prox_pin'_link_pos,b'l_prox_pin'_link_orn,b'l_distal_pin'_link_pos,b'l_distal_pin'_link_orn,b'r_prox_pin'_link_pos,b'r_prox_pin'_link_orn,b'r_distal_pin'_link_pos,b'r_distal_pin'_link_orn,b'l_prox_pin'_joint_angle,b'l_prox_pin'_joint_vel,b'l_prox_pin'_joint_react_forces,b'l_prox_pin'_joint_motor_torque,b'l_distal_pin'_joint_angle,b'l_distal_pin'_joint_vel,b'l_distal_pin'_joint_react_forces,b'l_distal_pin'_joint_motor_torque,b'r_prox_pin'_joint_angle,b'r_prox_pin'_joint_vel,b'r_prox_pin'_joint_react_forces,b'r_prox_pin'_joint_motor_torque,b'r_distal_pin'_joint_angle,b'r_distal_pin'_joint_vel,b'r_distal_pin'_joint_react_forces,b'r_distal_pin'_joint_motor_torque,in_contact_l,contact_point_l_dist,contact_normal_l_dist,contact_distance_l_dist,contact_norm_force_l_dist,in_contact_r,contact_point_r_dist,contact_normal_r_dist,contact_distance_r_dist,contact_norm_force_r_dist
0,Open,,,,,,"[-0.026750000193715096, 0.05299999937415123, 0.03999999910593033]","[0.0, -0.0, 0.0]","[-0.026750000193715096, 0.125, 0.03999999910593033]","[0.0, -0.0, 0.0]","[0.026750000193715096, 0.05299999937415123, 0.03999999910593033]","[0.0, -0.0, 0.0]","[0.026750000193715096, 0.125, 0.03999999910593033]","[0.0, -0.0, 0.0]",0.0,0.0,"(0.0, 0.0, 0.0, 0.0, 0.0, 0.0)",1.3400621000080305e-17,5.883223478113402e-32,1.4119736347472167e-29,"(0.0, 0.0, 0.0, 0.0, 0.0, 0.0)",1.0542555313129702e-18,-0.008068665190486622,-1.9364796457167894,"(0.0, 0.0, 0.0, 0.0, 0.0, 0.0)",193.26378306879909,-0.0700246186727924,-16.805908481470176,"(0.0, 0.0, 0.0, 0.0, 0.0, 0.0)",71.94009191575694,False,,,,,False,,,,
1,Open,,,,,,"[-0.026750000193715096, 0.05299999937415123, 0.03999999910593033]","[0.0, -0.0, 0.0]","[-0.026750000193715096, 0.125, 0.03999999910593033]","[0.0, -0.0, 5.883223447970011e-32]","[0.026750000193715096, 0.05299999937415123, 0.03999999910593033]","[0.0, 0.0, -0.008068665592501188]","[0.02733093686401844, 0.12499765306711197, 0.03999999910593033]","[0.0, 0.0, -0.0780932845685428]",0.157,37.68,"(0.0, 0.0, 0.0, 0.0, 0.0, 0.0)",54.702693795169004,5.294901130302062e-32,-1.4119736347472162e-30,"(0.0, 0.0, 0.0, 0.0, 0.0, 0.0)",3.9113724975844915,-0.1670280316324969,-38.150247946082466,"(0.0, 0.0, 0.0, 0.0, 0.0, 0.0)",-25.93345404555236,-0.0659493391739072,0.9780670797324476,"(0.0, 0.0, 0.0, 0.0, 0.0, 0.0)",-6.754749483880455,False,,,,,False,,,,
2,Open,,,,,,"[-0.026750000193715096, 0.05299999937415123, 0.03999999910593033]","[0.0, -0.0, 0.1569999988554567]","[-0.03800761699676514, 0.12411445379257202, 0.03999999910593033]","[0.0, -0.0, 0.1569999988554567]","[0.026750000193715096, 0.05299999937415123, 0.03999999910593033]","[0.0, 0.0, -0.16702801712980753]","[0.038720179349184036, 0.1239979937672615, 0.03999999910593033]","[0.0, 0.0, -0.23297739431320727]",0.29829999999999995,33.91199999999999,"(0.0, 0.0, 0.0, 0.0, 0.0, 0.0)",-5.390828189440958,5.294901130302062e-32,0.0,"(0.0, 0.0, 0.0, 0.0, 0.0, 0.0)",-0.3659219356209609,-0.3122944613104081,-34.863943122698686,"(0.0, 0.0, 0.0, 0.0, 0.0, 0.0)",95.8006544774165,-0.06705867534034729,-0.2662406799456205,"(0.0, 0.0, 0.0, 0.0, 0.0, 0.0)",9.049911776264722,False,,,,,False,,,,
3,Open,,,,,,"[-0.026750000193715096, 0.05299999937415123, 0.03999999910593033]","[0.0, -0.0, 0.29830000998707634]","[-0.04791048914194107, 0.12182030081748962, 0.03999999910593033]","[0.0, -0.0, 0.29830000998707634]","[0.026750000193715096, 0.05299999937415123, 0.03999999910593033]","[0.0, 0.0, -0.3122944642903269]","[0.048871491104364395, 0.12151744216680527, 0.03999999910593033]","[0.0, 0.0, -0.3793531994353912]",0.42546999999999996,30.5208,"(0.0, 0.0, 0.0, 0.0, 0.0, 0.0)",-4.858074537215091,5.294901130302062e-32,0.0,"(0.0, 0.0, 0.0, 0.0, 0.0, 0.0)",-0.33154044974508506,-0.44292449566296654,-31.35120824461403,"(0.0, 0.0, 0.0, 0.0, 0.0, 0.0)",100.88457241511576,-0.08373770380977785,-4.0029668326633345,"(0.0, 0.0, 0.0, 0.0, 0.0, 0.0)",24.077304806401806,False,,,,,False,,,,
4,Open,,,,,,"[-0.026750000193715096, 0.05299999937415123, 0.03999999910593033]","[0.0, -0.0, 0.4254700097131474]","[-0.056467924267053604, 0.11858082562685013, 0.03999999910593033]","[0.0, -0.0, 0.4254700097131474]","[0.026750000193715096, 0.05299999937415123, 0.03999999910593033]","[0.0, 0.0, -0.4429245237535421]","[0.057608019560575485, 0.1180521547794342, 0.03999999910593033]","[0.0, 0.0, -0.5266622746639338]",0.5399229999999999,27.46872,"(0.0, 0.0, 0.0, 0.0, 0.0, 0.0)",-4.377393708535371,5.294901130302062e-32,0.0,"(0.0, 0.0, 0.0, 0.0, 0.0, 0.0)",-0.30017707799641646,-0.5623038734984663,-28.651050680519948,"(0.0, 0.0, 0.0, 0.0, 0.0, 0.0)",144.45470973647488,-0.10456727132876567,-4.999096204557077,"(0.0, 0.0, 0.0, 0.0, 0.0, 0.0)",33.97911746732963,False,,,,,False,,,,
5,Open,,,,,,"[-0.026750000193715096, 0.05299999937415123, 0.03999999910593033]","[0.0, -0.0, 0.5399230359738098]","[-0.06376303732395172, 0.11475787311792374, 0.03999999910593033]","[0.0, -0.0, 0.5399230359738098]","[0.026750000193715096, 0.05299999937415123, 0.03999999910593033]","[0.0, 0.0, -0.5623038790270362]","[0.06513584405183792, 0.11391409486532211, 0.03999999910593033]","[0.0, 0.0, -0.6668711870723439]",0.6429307,24.721848,"(0.0, 0.0, 0.0, 0.0, 0.0, 0.0)",-3.943806903965684,5.294901130302062e-32,0.0,"(0.0, 0.0, 0.0, 0.0, 0.0, 0.0)",-0.2716098155097054,-0.6673401099248648,-25.208696742335626,"(0.0, 0.0, 0.0, 0.0, 0.0, 0.0)",94.97739775913854,-0.11755295807544866,-3.116564819203918,"(0.0, 0.0, 0.0, 0.0, 0.0, 0.0)",25.79194570087013,False,,,,,False,,,,
6,Open,,,,,,"[-0.026750000193715096, 0.05299999937415123, 0.03999999910593033]","[0.0, -0.0, 0.6429307111289271]","[-0.06991713494062424, 0.11062463372945786, 0.03999999910593033]","[0.0, -0.0, 0.6429307111289271]","[0.026750000193715096, 0.05299999937415123, 0.03999999910593033]","[0.0, 0.0, -0.6673401753977319]","[0.07131072133779526, 0.10955388844013214, 0.03999999910593033]","[0.0, 0.0, -0.7848931559948581]",0.73563763,22.249663200000004,"(0.0, 0.0, 0.0, 0.0, 0.0, 0.0)",-3.552789792259023,5.294901130302062e-32,0.0,"(0.0, 0.0, 0.0, 0.0, 0.0, 0.0)",-0.24562369466220793,-0.7579917869736262,-21.756402491702737,"(0.0, 0.0, 0.0, 0.0, 0.0, 0.0)",34.46450837185191,-0.10794166402774508,2.3067105714488583,"(0.0, 0.0, 0.0, 0.0, 0.0, 0.0)",8.765009015475858,False,,,,,False,,,,
7,Open,,,,,,"[-0.026750000193715096, 0.05299999937415123, 0.03999999910593033]","[0.0, -0.0, 0.7356376306875043]","[-0.07506632059812546, 0.10638101398944855, 0.03999999910593033]","[0.0, -0.0, 0.7356376306875043]","[0.026750000193715096, 0.05299999937415123, 0.03999999910593033]","[0.0, 0.0, -0.757991847340814]","[0.076247438788414, 0.10528770089149475, 0.03999999910593033]","[0.0, 0.0, -0.8659334873334429]",0.8190738670000001,20.024696880000004,"(0.0, 0.0, 0.0, 0.0, 0.0, 0.0)",-3.2002295086701533,2.3293280891773424e-07,5.5903874140256216e-05,"(0.0, 0.0, 0.0, 0.0, 0.0, 0.0)",-0.22200715926400075,-0.8391926082762636,-19.488197112632974,"(0.0, 0.0, 0.0, 0.0, 0.0, 0.0)",3.295349739497939,-0.09714776835574307,2.590534961280482,"(0.0, 0.0, 0.0, 0.0, 0.0, 0.0)",0.25803221970863044,False,,,,,False,,,,
8,Open,,,,,,"[-0.026750000193715096, 0.05299999937415123, 0.03999999910593033]","[0.0, -0.0, 0.8190738875671263]","[-0.07934698462486267, 0.10216865688562393, 0.03999999910593033]","[0.0, -0.0, 0.8190741465287105]","[0.026750000193715096, 0.05299999937415123, 0.03999999910593033]","[0.0, 0.0, -0.839192558822362]","[0.08032548427581787, 0.10110059380531311, 0.03999999910593033]","[0.0, 0.0, -0.9363403253067936]",0.8941664803,18.022227192,"(0.0, 0.0, 0.0, 0.0, 0.0, 0.0)",-2.8824197251771095,4.2009445145371055e-07,4.4918794208634316e-05,"(0.0, 0.0, 0.0, 0.0, 0.0, 0.0)",-0.2005835928406654,-0.9122733474486373,-17.539377401369673,"(0.0, 0.0, 0.0, 0.0, 0.0, 0.0)",2.7804978356880783,-0.0874331700712747,2.33150358827241,"(0.0, 0.0, 0.0, 0.0, 0.0, 0.0)",0.17017621517521792,False,,,,,False,,,,
9,Open,,,,,,"[-0.026750000193715096, 0.05299999937415123, 0.03999999910593033]","[0.0, -0.0, 0.894166469119967]","[-0.08288749307394028, 0.09808415919542313, 0.03999999910593033]","[0.0, -0.0, 0.894166894674561]","[0.026750000193715096, 0.05299999937415123, 0.03999999910593033]","[0.0, 0.0, -0.9122733503889549]","[0.08369457721710205, 0.09706035256385803, 0.03999999910593033]","[0.0, 0.0, -0.9997066729229968]",0.96174983227,16.220004472800003,"(0.0, 0.0, 0.0, 0.0, 0.0, 0.0)",-2.5959652512206968,5.681494863714967e-07,3.553320838026869e-05,"(0.0, 0.0, 0.0, 0.0, 0.0, 0.0)",-0.18114955764248034,-0.9780460127037736,-15.785439661232708,"(0.0, 0.0, 0.0, 0.0, 0.0, 0.0)",2.503992476159733,-0.0786900142246732,2.098357403184359,"(0.0, 0.0, 0.0, 0.0, 0.0, 0.0)",0.15360133560797545,False,,,,,False,,,,
10,Open,,,,,,"[-0.026750000193715096, 0.05299999937415123, 0.03999999910593033]","[0.0, -0.0, 0.9617498658906226]","[-0.08580395579338074, 0.09419016540050507, 0.03999999910593033]","[0.0, -0.0, 0.9617504517765805]","[0.026750000193715096, 0.05299999937415123, 0.03999999910593033]","[0.0, 0.0, -0.9780460255881384]","[0.08646733313798904, 0.09322238713502884, 0.03999999910593033]","[0.0, 0.0, -1.0567360258914282]",1.022574849043,14.598004025520002,"(0.0, 0.0, 0.0, 0.0, 0.0, 0.0)",-2.337816594086846,6.829231533297027e-07,2.7545680069969436e-05,"(0.0, 0.0, 0.0, 0.0, 0.0, 0.0)",-0.16354029854134106,-1.0372414114333963,-14.206895695109438,"(0.0, 0.0, 0.0, 0.0, 0.0, 0.0)",2.2548456713339484,-0.07082115822448021,1.8885254400463192,"(0.0, 0.0, 0.0, 0.0, 0.0, 0.0)",0.13860128234430863,False,,,,,False,,,,
11,Open,,,,,,"[-0.026750000193715096, 0.05299999937415123, 0.03999999910593033]","[0.0, -0.0, 1.0225748785172661]","[-0.08819860219955444, 0.09052424877882004, 0.03999999910593033]","[0.0, -0.0, 1.0225755149967983]","[0.026750000193715096, 0.05299999937415123, 0.03999999910593033]","[0.0, 0.0, -1.037241417801626]","[0.08874232321977615, 0.08961901068687439, 0.03999999910593033]","[0.0, 0.0, -1.1080626941470386]",1.0773173641387,13.138203622968001,"(0.0, 0.0, 0.0, 0.0, 0.0, 0.0)",-2.105207702642618,7.694903593429899e-07,2.0776129443188934e-05,"(0.0, 0.0, 0.0, 0.0, 0.0, 0.0)",-0.14759587787833617,-1.0905172702900567,-12.78620612559849,"(0.0, 0.0, 0.0, 0.0, 0.0, 0.0)",2.0303755786213302,-0.06373917358809339,1.6996763127328351,"(0.0, 0.0, 0.0, 0.0, 0.0, 0.0)",0.1250328149112744,False,,,,,False,,,,
12,Open,,,,,,"[-0.026750000193715096, 0.05299999937415123, 0.03999999910593033]","[0.0, -0.0, 1.0773173786594632]","[-0.09015969932079315, 0.08710587024688721, 0.03999999910593033]","[0.0, -0.0, 1.0773182784199262]","[0.026750000193715096, 0.05299999937415123, 0.03999999910593033]","[0.0, 0.0, -1.090517334189526]","[0.09060435742139816, 0.0862659215927124, 0.03999999910593033]","[0.0, 0.0, -1.1542564269670996]",1.1265856277248298,11.824383260671203,"(0.0, 0.0, 0.0, 0.0, 0.0, 0.0)",-1.895636869852492,8.322629993378343e-07,1.5065433598762668e-05,"(0.0, 0.0, 0.0, 0.0, 0.0, 0.0)",-0.13316806895824274,-1.138465543261051,-11.50758551303864,"(0.0, 0.0, 0.0, 0.0, 0.0, 0.0)",1.828159741200242,-0.05736537454460671,1.5297117704368035,"(0.0, 0.0, 0.0, 0.0, 0.0, 0.0)",0.11276577482950233,False,,,,,False,,,,
13,Open,,,,,,"[-0.026750000193715096, 0.05299999937415123, 0.03999999910593033]","[0.0, -0.0, 1.126585512342968]","[-0.09176240861415863, 0.08394166082143784, 0.03999999910593033]","[0.0, -0.0, 1.1265864725026016]","[0.026750000193715096, 0.05299999937415123, 0.03999999910593033]","[0.0, 0.0, -1.13846552283997]","[0.09212540090084076, 0.08316715806722641, 0.03999999910593033]","[0.0, 0.0, -1.1958309904194953]",1.1709270649523469,10.641944934604087,"(0.0, 0.0, 0.0, 0.0, 0.0, 0.0)",-1.7068426281171958,8.750681698751778e-07,1.0273240928962424e-05,"(0.0, 0.0, 0.0, 0.0, 0.0, 0.0)",-0.12011999884119333,-1.181618988934946,-10.356826961734775,"(0.0, 0.0, 0.0, 0.0, 0.0, 0.0)",1.6460093571929852,-0.051628943774705546,1.376743384776279,"(0.0, 0.0, 0.0, 0.0, 0.0, 0.0)",0.10168054944364863,False,,,,,False,,,,
14,Open,,,,,,"[-0.026750000193715096, 0.05299999937415123, 0.03999999910593033]","[0.0, -0.0, 1.170927100750299]","[-0.09307006001472473, 0.08102945238351822, 0.03999999910593033]","[0.0, -0.0, 1.1709279927689973]","[0.026750000193715096, 0.05299999937415123, 0.03999999910593033]","[0.0, 0.0, -1.181618964677462]","[0.09336595237255096, 0.08031877130270004, 0.03999999910593033]","[0.0, 0.0, -1.233247876832181]",1.2108343584571122,9.577750441143678,"(0.0, 0.0, 0.0, 0.0, 0.0, 0.0)",-1.5367816122769582,9.012180617793662e-07,6.275974057005224e-06,"(0.0, 0.0, 0.0, 0.0, 0.0, 0.0)",-0.1083256720668905,-1.2204570900414513,-9.3211442655613,"(0.0, 0.0, 0.0, 0.0, 0.0, 0.0)",1.4819475463743526,-0.046466145575958295,1.239071567699341,"(0.0, 0.0, 0.0, 0.0, 0.0, 0.0)",0.09166748660725833,False,,,,,False,,,,
15,Open,,,,,,"[-0.026750000193715096, 0.05299999937415123, 0.03999999910593033]","[0.0, -0.0, 1.2108343955497323]","[-0.09413553774356842, 0.07836118340492249, 0.03999999910593033]","[0.0, -0.0, 1.210835255049739]","[0.026750000193715096, 0.05299999937415123, 0.03999999910593033]","[0.0, 0.0, -1.2204571829136446]","[0.09437645971775055, 0.07771158218383789, 0.03999999910593033]","[0.0, 0.0, -1.2669233179031547]",1.2467509226114009,8.619975397029307,"(0.0, 0.0, 0.0, 0.0, 0.0, 0.0)",-1.3836082777937824,9.135722823677317e-07,2.9650129412077397e-06,"(0.0, 0.0, 0.0, 0.0, 0.0, 0.0)",-0.09766941677677543,-1.2554113810373062,-8.38902983900517,"(0.0, 0.0, 0.0, 0.0, 0.0, 0.0)",1.334189480132575,-0.04181961771093252,1.1151666876061868,"(0.0, 0.0, 0.0, 0.0, 0.0, 0.0)",0.08262627878010878,False,,,,,False,,,,
16,Open,,,,,,"[-0.026750000193715096, 0.05299999937415123, 0.03999999910593033]","[0.0, -0.0, 1.2467510110527222]","[-0.09500277042388916, 0.07592508941888809, 0.03999999910593033]","[0.0, -0.0, 1.246751870145374]","[0.026750000193715096, 0.05299999937415123, 0.03999999910593033]","[0.0, 0.0, -1.255411348379259]","[0.09519875049591064, 0.0753331333398819, 0.03999999910593033]","[0.0, 0.0, -1.2972309672073006]",1.2790758303502607,7.757977857326381,"(0.0, 0.0, 0.0, 0.0, 0.0, 0.0)",-1.2456264712746363,2.1141758111398655e-06,0.0002881448469053121,"(0.0, 0.0, 0.0, 0.0, 0.0, 0.0)",-0.088015399348708,-1.2868702429335757,-7.5501268551046525,"(0.0, 0.0, 0.0, 0.0, 0.0, 0.0)",1.2010989712673745,-0.037638748630864464,1.0034085792163332,"(0.0, 0.0, 0.0, 0.0, 0.0, 0.0)",0.07444006052486639,False,,,,,False,,,,
17,Open,,,,,,"[-0.026750000193715096, 0.05299999937415123, 0.03999999910593033]","[0.0, -0.0, 1.2790758758817962]","[-0.09570803493261337, 0.0737072303891182, 0.03999999910593033]","[0.0, -0.0, 1.2790780932516201]","[0.026750000193715096, 0.05299999937415123, 0.03999999910593033]","[0.0, 0.0, -1.2868702529032277]","[0.0958673357963562, 0.07316911965608597, 0.03999999910593033]","[0.0, 0.0, -1.3245087793274308]",1.3081682532711112,6.982181501004109,"(0.0, 0.0, 0.0, 0.0, 0.0, 0.0)",-1.12145472366965,1.9027582300258812e-06,-5.0740219467356254e-05,"(0.0, 0.0, 0.0, 0.0, 0.0, 0.0)",-0.07939114715284208,-1.315183223212741,-6.795115266999686,"(0.0, 0.0, 0.0, 0.0, 0.0, 0.0)",1.0813262344929835,-0.033874873767778015,0.9033299671407473,"(0.0, 0.0, 0.0, 0.0, 0.0, 0.0)",0.06713055017345074,False,,,,,False,,,,
18,Open,,,,,,"[-0.026750000193715096, 0.05299999937415123, 0.03999999910593033]","[0.0, -0.0, 1.3081682459906412]","[-0.09628119319677353, 0.07169260084629059, 0.03999999910593033]","[0.0, -0.0, 1.3081702011658356]","[0.026750000193715096, 0.05299999937415123, 0.03999999910593033]","[0.0, 0.0, -1.3151833180210462]","[0.0964106097817421, 0.07120437920093536, 0.03999999910593033]","[0.0, 0.0, -1.349058153261439]",1.334351427944,6.283961921493333,"(0.0, 0.0, 0.0, 0.0, 0.0, 0.0)",-1.0095234585863413,2.7618377923566443e-06,0.00020617909495938315,"(0.0, 0.0, 0.0, 0.0, 0.0, 0.0)",-0.07148780084672787,-1.3406649008914668,-6.11560264289422,"(0.0, 0.0, 0.0, 0.0, 0.0, 0.0)",0.9733796231570812,-0.030488273507324658,0.8127840625088054,"(0.0, 0.0, 0.0, 0.0, 0.0, 0.0)",0.060435192896783604,False,,,,,False,,,,
19,Open,,,,,,"[-0.026750000193715096, 0.05299999937415123, 0.03999999910593033]","[0.0, -0.0, 1.334351465706577]","[-0.09674673527479172, 0.06986585259437561, 0.03999999910593033]","[0.0, -0.0, 1.33435435145599]","[0.026750000193715096, 0.05299999937415123, 0.03999999910593033]","[0.0, 0.0, -1.3406650641721125]","[0.09685182571411133, 0.06942359358072281, 0.03999999910593033]","[0.0, 0.0, -1.3711530696282732]",1.3579162851496,5.655565729344001,"(0.0, 0.0, 0.0, 0.0, 0.0, 0.0)",-0.9088150211252332,3.4316066113876724e-06,0.0001607445165674468,"(0.0, 0.0, 0.0, 0.0, 0.0, 0.0)",-0.06444344013525093,-1.3635984108023202,-5.504042378604797,"(0.0, 0.0, 0.0, 0.0, 0.0, 0.0)",0.8762522980402716,-0.02744024570882781,0.7315266716392431,"(0.0, 0.0, 0.0, 0.0, 0.0, 0.0)",0.05446985052483407,False,,,,,False,,,,
20,Open,,,,,,"[-0.026750000193715096, 0.05299999937415123, 0.03999999910593033]","[0.0, -0.0, 1.3579163939939654]","[-0.09712471067905426, 0.0682118609547615, 0.03999999910593033]","[0.0, -0.0, 1.3579197824809437]","[0.026750000193715096, 0.05299999937415123, 0.03999999910593033]","[0.0, 0.0, -1.3635984874387626]","[0.09721000492572784, 0.06781173497438431, 0.03999999910593033]","[0.0, 0.0, -1.3910385869420074]",1.37912465663464,5.090009156409601,"(0.0, 0.0, 0.0, 0.0, 0.0, 0.0)",-0.8181093185961676,3.940702417530038e-06,0.0001221829934741677,"(0.0, 0.0, 0.0, 0.0, 0.0, 0.0)",-0.05806034967263589,-1.3842385697220883,-4.953638140744317,"(0.0, 0.0, 0.0, 0.0, 0.0, 0.0)",0.7887791417834831,-0.024696941374704916,0.6583930401894944,"(0.0, 0.0, 0.0, 0.0, 0.0, 0.0)",0.04906644857689494,False,,,,,False,,,,
21,Open,,,,,,"[-0.026750000193715096, 0.05299999937415123, 0.03999999910593033]","[0.0, -0.0, 1.3791247702213432]","[-0.0974314734339714, 0.0667160153388977, 0.03999999910593033]","[0.0, -0.0, 1.3791284782568445]","[0.026750000193715096, 0.05299999937415123, 0.03999999910593033]","[0.0, 0.0, -1.3842387704807777]","[0.09750068932771683, 0.06635437905788422, 0.03999999910593033]","[0.0, 0.0, -1.408935619520831]",1.398212190971176,4.581008240768642,"(0.0, 0.0, 0.0, 0.0, 0.0, 0.0)",-0.7364407507487188,4.314390796743166e-06,8.968521101115077e-05,"(0.0, 0.0, 0.0, 0.0, 0.0, 0.0)",-0.05230389643117988,-1.4028147127498793,-4.458274326669883,"(0.0, 0.0, 0.0, 0.0, 0.0, 0.0)",0.7100243788118592,-0.02222789596809768,0.5925708975857369,"(0.0, 0.0, 0.0, 0.0, 0.0, 0.0)",0.04419507766734469,False,,,,,False,,,,
22,Open,,,,,,"[-0.026750000193715096, 0.05299999937415123, 0.03999999910593033]","[0.0, -0.0, 1.3982120672717784]","[-0.09768038988113403, 0.06536446511745453, 0.03999999910593033]","[0.0, -0.0, 1.3982164487645397]","[0.026750000193715096, 0.05299999937415123, 0.03999999910593033]","[0.0, 0.0, -1.4028147367436141]","[0.09773654490709305, 0.06503787636756897, 0.03999999910593033]","[0.0, 0.0, -1.4250426427007885]",1.4153909718740585,4.122907416691778,"(0.0, 0.0, 0.0, 0.0, 0.0, 0.0)",-0.6629119687698639,4.574523674952359e-06,6.243189077020624e-05,"(0.0, 0.0, 0.0, 0.0, 0.0, 0.0)",-0.04711364623212332,-1.4195332414748913,-4.012446894002898,"(0.0, 0.0, 0.0, 0.0, 0.0, 0.0)",0.6391216750959775,-0.02000569064819732,0.5333292767760867,"(0.0, 0.0, 0.0, 0.0, 0.0, 0.0)",0.039804123486470444,False,,,,,False,,,,
23,Open,,,,,,"[-0.026750000193715096, 0.05299999937415123, 0.03999999910593033]","[0.0, -0.0, 1.415391158105469]","[-0.09788231551647186, 0.06414420157670975, 0.03999999910593033]","[0.0, -0.0, 1.415395709317307]","[0.026750000193715096, 0.05299999937415123, 0.03999999910593033]","[0.0, 0.0, -1.419533200978404]","[0.09792786836624146, 0.06384945660829544, 0.03999999910593033]","[0.0, 0.0, -1.4395389386881268]",1.4308518746866525,3.7106166750225977,"(0.0, 0.0, 0.0, 0.0, 0.0, 0.0)",-0.5967141397561109,4.7399630338636504e-06,3.9705446138709865e-05,"(0.0, 0.0, 0.0, 0.0, 0.0, 0.0)",-0.042434775014060074,-1.4345799173274023,-3.611202204602609,"(0.0, 0.0, 0.0, 0.0, 0.0, 0.0)",0.5752902758042565,-0.018005647771851804,0.4800102903229233,"(0.0, 0.0, 0.0, 0.0, 0.0, 0.0)",0.0358468230863414,False,,,,,False,,,,
24,Open,,,,,,"[-0.026750000193715096, 0.05299999937415123, 0.03999999910593033]","[0.0, -0.0, 1.4308518944899675]","[-0.09804610908031464, 0.06304314732551575, 0.03999999910593033]","[0.0, -0.0, 1.4308566269594332]","[0.026750000193715096, 0.05299999937415123, 0.03999999910593033]","[0.0, 0.0, -1.4345798203875788]","[0.09808305650949478, 0.06277728080749512, 0.03999999910593033]","[0.0, 0.0, -1.4525855975984745]",1.4447666872179874,3.339555007520341,"(0.0, 0.0, 0.0, 0.0, 0.0, 0.0)",-0.5371183361845069,4.8269553674989e-06,2.0878160072459843e-05,"(0.0, 0.0, 0.0, 0.0, 0.0, 0.0)",-0.03821759960562203,-1.448121925594662,-3.2500819841423465,"(0.0, 0.0, 0.0, 0.0, 0.0, 0.0)",0.5178266556878065,-0.016205556838873442,0.4320218239148067,"(0.0, 0.0, 0.0, 0.0, 0.0, 0.0)",0.0322808466635012,False,,,,,False,,,,
25,Open,,,,,,"[-0.026750000193715096, 0.05299999937415123, 0.03999999910593033]","[0.0, -0.0, 1.4447668540021588]","[-0.09817895293235779, 0.06205013021826744, 0.03999999910593033]","[0.0, -0.0, 1.4447715863131299]","[0.026750000193715096, 0.05299999937415123, 0.03999999910593033]","[0.0, 0.0, -1.448121993206969]","[0.09820891171693802, 0.06181041896343231, 0.03999999910593033]","[0.0, 0.0, -1.46432761016298]",1.4572900184961886,3.005599506768304,"(0.0, 0.0, 0.0, 0.0, 0.0, 0.0)",-0.483467731204937,4.849462099751187e-06,5.401615740548756e-06,"(0.0, 0.0, 0.0, 0.0, 0.0, 0.0)",-0.03441712855198442,-1.4603097330351957,-2.925073785728113,"(0.0, 0.0, 0.0, 0.0, 0.0, 0.0)",0.4660969568661882,-0.014585427836986846,0.38883096045278315,"(0.0, 0.0, 0.0, 0.0, 0.0, 0.0)",0.029067900465992856,False,,,,,False,,,,
26,Open,,,,,,"[-0.026750000193715096, 0.05299999937415123, 0.03999999910593033]","[0.0, -0.0, 1.4572900807517244]","[-0.0982866883277893, 0.061154916882514954, 0.03999999910593033]","[0.0, -0.0, 1.4572948921008348]","[0.026750000193715096, 0.05299999937415123, 0.03999999910593033]","[0.0, 0.0, -1.4603097470714805]","[0.09831098467111588, 0.06093886122107506, 0.03999999910593033]","[0.0, 0.0, -1.4748951413427742]",1.4685610166465697,2.705039556091476,"(0.0, 0.0, 0.0, 0.0, 0.0, 0.0)",-0.43517053908893033,4.819450845044722e-06,-7.202701129551542e-06,"(0.0, 0.0, 0.0, 0.0, 0.0, 0.0)",-0.030992645518402973,-1.471278759731676,-2.632566407155304,"(0.0, 0.0, 0.0, 0.0, 0.0, 0.0)",0.4195301522878829,-0.013127269246907155,0.3499580616191257,"(0.0, 0.0, 0.0, 0.0, 0.0, 0.0)",0.02617336062226555,False,,,,,False,,,,
27,Open,,,,,,"[-0.026750000193715096, 0.05299999937415123, 0.03999999910593033]","[0.0, -0.0, 1.4685611215819594]","[-0.09837405383586884, 0.06034812703728676, 0.03999999910593033]","[0.0, -0.0, 1.468565853091142]","[0.026750000193715096, 0.05299999937415123, 0.03999999910593033]","[0.0, 0.0, -1.4712788457263521]","[0.0983937606215477, 0.06015344336628914, 0.03999999910593033]","[0.0, 0.0, -1.4844061039497418]",1.4787049149819127,2.434535600482329,"(0.0, 0.0, 0.0, 0.0, 0.0, 0.0)",-0.39169363303347604,4.747151892642784e-06,-1.7351748576465223e-05,"(0.0, 0.0, 0.0, 0.0, 0.0, 0.0)",-0.02790732436186781,-1.4811508837585086,-2.3693097664397755,"(0.0, 0.0, 0.0, 0.0, 0.0, 0.0)",0.37761186810531283,-0.011814888241968555,0.3149714411852639,"(0.0, 0.0, 0.0, 0.0, 0.0, 0.0)",0.023565936472848985,False,,,,,False,,,,
28,Open,,,,,,"[-0.026750000193715096, 0.05299999937415123, 0.03999999910593033]","[0.0, -0.0, 1.4787049625213984]","[-0.09844490885734558, 0.059621214866638184, 0.03999999910593033]","[0.0, -0.0, 1.4787095898811649]","[0.026750000193715096, 0.05299999937415123, 0.03999999910593033]","[0.0, 0.0, -1.4811508165812142]","[0.09846089035272598, 0.059445831924676895, 0.03999999910593033]","[0.0, 0.0, -1.492965762433775]",1.4878344234837215,2.191082040434097,"(0.0, 0.0, 0.0, 0.0, 0.0, 0.0)",-0.35255677801820895,4.641283838470101e-06,-2.5408333001444004e-05,"(0.0, 0.0, 0.0, 0.0, 0.0, 0.0)",-0.02512787460267613,-1.4900357953826577,-2.132378789795796,"(0.0, 0.0, 0.0, 0.0, 0.0, 0.0)",0.33987880377374147,-0.010633710863257649,0.2834825708906175,"(0.0, 0.0, 0.0, 0.0, 0.0, 0.0)",0.021217361806457186,False,,,,,False,,,,
29,Close,,,"(0.010000165031897679, 0.16000264050809818, 0.003919197399597577)","(-5.388791991209616e-05, 3.3679978815229247e-06, -9.074720008653711e-11)",,"[-0.026750000193715096, 0.05299999937415123, 0.03999999910593033]","[0.0, -0.0, 1.487834617901085]","[-0.09850236773490906, 0.05896640568971634, 0.03999999910593033]","[0.0, -0.0, 1.4878390921106803]","[0.026750000193715096, 0.05299999937415123, 0.03999999910593033]","[0.0, 0.0, -1.4900358577435544]","[0.09851532429456711, 0.05880843847990036, 0.03999999910593033]","[0.0, 0.0, -1.5006695807985118]",1.4960509811353493,1.9719738363906854,"(0.0, 0.0, 0.0, 0.0, 0.0, 0.0)",-0.3173274216127963,4.509251873886308e-06,-3.168767150011037e-05,"(0.0, 0.0, 0.0, 0.0, 0.0, 0.0)",-0.022624215793833224,-1.498032215844392,-1.9191409108162163,"(0.0, 0.0, 0.0, 0.0, 0.0, 0.0)",0.30591369390909257,-0.00957062017308593,0.2551417656412126,"(0.0, 0.0, 0.0, 0.0, 0.0, 0.0)",0.019102112305110365,False,,,,,False,,,,
30,Close,,,"(0.010000330010418335, 0.1600052801621647, 0.0076635160840755065)","(-0.00010776674212266888, 6.7354271463595154e-06, -3.629275205618536e-10)",,"[-0.026750000193715096, 0.05299999937415123, 0.03999999910593033]","[0.0, -0.0, 1.4960509653323988]","[-0.09854896366596222, 0.058376654982566833, 0.03999999910593033]","[0.0, -0.0, 1.4960555203126162]","[0.026750000193715096, 0.05299999937415123, 0.03999999910593033]","[0.0, 0.0, -1.4980320325532246]","[0.09855947643518448, 0.05823439359664917, 0.03999999910593033]","[0.0, 0.0, -1.5076028800413472]",1.4064458830218143,-21.505223547248388,"(0.0, 0.0, 0.0, 0.0, 0.0, 0.0)",-36.32500847077206,-0.08999559064729075,-21.600023975799512,"(0.0, 0.0, 0.0, 0.0, 0.0, 0.0)",-4.679136399120495,-1.4082289942599528,21.552773180265405,"(0.0, 0.0, 0.0, 0.0, 0.0, 0.0)",36.31473208701179,0.08138609105625041,21.82961069504072,"(0.0, 0.0, 0.0, 0.0, 0.0, 0.0)",4.675963213372079,False,,,,,False,,,,
31,Close,,,"(0.010000494936733278, 0.16000791898094055, 0.011233038807318392)","(-0.00016163646818851668, 1.0102287881965475e-05, -8.164490687548302e-10)",,"[-0.026750000193715096, 0.05299999937415123, 0.03999999910593033]","[0.0, -0.0, 1.4064459844712927]","[-0.0977797880768776, 0.06478003412485123, 0.03999999910593033]","[0.0, -0.0, 1.316450240076391]","[0.026750000193715096, 0.05299999937415123, 0.03999999910593033]","[0.0, 0.0, -1.4082291009672807]","[0.09780067950487137, 0.06465335935354233, 0.03999999910593033]","[0.0, 0.0, -1.3268428349863826]",1.325801294719633,-19.354701192523546,"(0.0, 0.0, 0.0, 0.0, 0.0, 0.0)",3.2936342521930255,-0.17099646652613912,-19.44021021092361,"(0.0, 0.0, 0.0, 0.0, 0.0, 0.0)",0.4145426679866387,-1.3274060948339577,19.39749586223887,"(0.0, 0.0, 0.0, 0.0, 0.0, 0.0)",-3.3024243844052092,0.16324791947241268,19.646838819878944,"(0.0, 0.0, 0.0, 0.0, 0.0, 0.0)",-0.41699994760359754,False,,,,,False,,,,
32,Close,,,"(0.010000659812012168, 0.16001055698314023, 0.0146278458391823)","(-0.0002154970996661642, 1.346858017578936e-05, -1.4512199879406586e-09)",,"[-0.026750000193715096, 0.05299999937415123, 0.03999999910593033]","[0.0, -0.0, 1.3258013857525741]","[-0.09659997373819351, 0.07046370953321457, 0.03999999910593033]","[0.0, -0.0, 1.1548048042561467]","[0.026750000193715096, 0.05299999937415123, 0.03999999910593033]","[0.0, 0.0, -1.3274060658778382]","[0.09662791341543198, 0.07035159319639206, 0.03999999910593033]","[0.0, 0.0, -1.1641581075845935]",1.2532211652476697,-17.41923107327119,"(0.0, 0.0, 0.0, 0.0, 0.0, 0.0)",2.9685258329366073,-0.24389721437960032,-17.496179484830687,"(0.0, 0.0, 0.0, 0.0, 0.0, 0.0)",0.3760018756193849,-1.2546654853505619,17.457746276014984,"(0.0, 0.0, 0.0, 0.0, 0.0, 0.0)",-2.976480273609718,0.2369235243908578,17.682145180426822,"(0.0, 0.0, 0.0, 0.0, 0.0, 0.0)",-0.3782508099482112,False,,,,,False,,,,
33,Close,,,"(0.010000824637423049, 0.16001319418745247, 0.017848014970055004)","(-0.00026934863811186216, 1.6834304115272585e-05, -2.2671484573282825e-09)",,"[-0.026750000193715096, 0.05299999937415123, 0.03999999910593033]","[0.0, -0.0, 1.2532212515508983]","[-0.09514966607093811, 0.07548300176858902, 0.03999999910593033]","[0.0, -0.0, 1.0093239867956962]","[0.026750000193715096, 0.05299999937415123, 0.03999999910593033]","[0.0, 0.0, -1.254665405963893]","[0.09518206864595413, 0.07538418471813202, 0.03999999910593033]","[0.0, 0.0, -1.0177419933055243]",1.1878990487229026,-15.677307965944074,"(0.0, 0.0, 0.0, 0.0, 0.0, 0.0)",2.675103284419244,-0.30950785045582774,-15.746552658294572,"(0.0, 0.0, 0.0, 0.0, 0.0, 0.0)",0.34074508229325023,-1.1891989368155058,15.711971648413485,"(0.0, 0.0, 0.0, 0.0, 0.0, 0.0)",-2.6822973218910153,0.30323153162132754,15.913921735312746,"(0.0, 0.0, 0.0, 0.0, 0.0, 0.0)",-0.34279935345822066,False,,,,,False,,,,
34,Close,,,"(0.010000989414132393, 0.1600158306125408, 0.020893621515273818)","(-0.00032319108508158773, 2.0199459787849396e-05, -3.2641426920478403e-09)",,"[-0.026750000193715096, 0.05299999937415123, 0.03999999910593033]","[0.0, -0.0, 1.1878990574339587]","[-0.09353619813919067, 0.07989988476037979, 0.03999999910593033]","[0.0, -0.0, 0.8783912846834516]","[0.026750000193715096, 0.05299999937415123, 0.03999999910593033]","[0.0, 0.0, -1.1891990098250689]","[0.09357111155986786, 0.07981304824352264, 0.03999999910593033]","[0.0, 0.0, -0.8859674697633095]",1.1291091438506125,-14.109577169349663,"(0.0, 0.0, 0.0, 0.0, 0.0, 0.0)",2.4103712722760626,-0.36855738916456426,-14.17188929009676,"(0.0, 0.0, 0.0, 0.0, 0.0, 0.0)",0.3085687115248564,-1.1302790431339553,14.140774483572143,"(0.0, 0.0, 0.0, 0.0, 0.0, 0.0)",-2.4168742890236286,0.36290870417903687,14.322521413850238,"(0.0, 0.0, 0.0, 0.0, 0.0, 0.0)",-0.31044204201279674,False,,,,,False,,,,
35,Close,,,"(0.010001154143305145, 0.16001846627704427, 0.023764738319401603)","(-0.00037702444213104407, 2.3564047280946926e-05, -4.4421109431381166e-09)",,"[-0.026750000193715096, 0.05299999937415123, 0.03999999910593033]","[0.0, -0.0, 1.1291090274464952]","[-0.09184028208255768, 0.08377750217914581, 0.03999999910593033]","[0.0, -0.0, 0.7605517150898052]","[0.026750000193715096, 0.05299999937415123, 0.03999999910593033]","[0.0, 0.0, -1.130279133319625]","[0.09187624603509903, 0.08370133489370346, 0.03999999910593033]","[0.0, 0.0, -0.7673703325611945]",1.0761982294655512,-12.698619452414698,"(0.0, 0.0, 0.0, 0.0, 0.0, 0.0)",2.1715845710489208,-0.42170194324014043,-12.754692978138287,"(0.0, 0.0, 0.0, 0.0, 0.0, 0.0)",0.27924932151422227,-1.07725113882056,12.72669703521493,"(0.0, 0.0, 0.0, 0.0, 0.0, 0.0)",-2.177460276301377,0.41661812854294633,12.890261847338277,"(0.0, 0.0, 0.0, 0.0, 0.0, 0.0)",-0.2809551529003472,False,,,,,False,,,,
36,Close,,,"(0.010001318826104761, 0.16002110119957821, 0.02646143576036139)","(-0.0004308487108156613, 2.692806668198511e-05, -5.800961497533997e-09)",,"[-0.026750000193715096, 0.05299999937415123, 0.03999999910593033]","[0.0, -0.0, 1.076198055145404]","[-0.09012148529291153, 0.08717681467533112, 0.03999999910593033]","[0.0, -0.0, 0.6544962762796218]","[0.026750000193715096, 0.05299999937415123, 0.03999999910593033]","[0.0, 0.0, -1.0772510781061955]","[0.09015743434429169, 0.08711007237434387, 0.03999999910593033]","[0.0, 0.0, -0.6606329452337051]",1.028578406518996,-11.428757507173229,"(0.0, 0.0, 0.0, 0.0, 0.0, 0.0)",1.9562489498726314,-0.46953201391559385,-11.479216962108818,"(0.0, 0.0, 0.0, 0.0, 0.0, 0.0)",0.2525697399559188,-1.0295260249385039,11.454027331693439,"(0.0, 0.0, 0.0, 0.0, 0.0, 0.0)",-1.961555706583625,0.46495658231577774,11.601228905479532,"(0.0, 0.0, 0.0, 0.0, 0.0, 0.0)",-0.25412105363877113,False,,,,,False,,,,
37,Close,,,"(0.010001483463693249, 0.1600237353987347, 0.0289837817534302)","(-0.0004846638926905951, 3.0291518078376737e-05, -7.3406026780539124e-09)",,"[-0.026750000193715096, 0.05299999937415123, 0.03999999910593033]","[0.0, -0.0, 1.028578444789276]","[-0.08842276781797409, 0.09015467017889023, 0.03999999910593033]","[0.0, -0.0, 0.5590464126725148]","[0.026750000193715096, 0.05299999937415123, 0.03999999910593033]","[0.0, 0.0, -1.029526007298545]","[0.08845794945955276, 0.09009620547294617, 0.03999999910593033]","[0.0, 0.0, -0.564569399435659]",0.9857205658670964,-10.285881756455906,"(0.0, 0.0, 0.0, 0.0, 0.0, 0.0)",1.7621005438122825,-0.5125790520819234,-10.331289159919107,"(0.0, 0.0, 0.0, 0.0, 0.0, 0.0)",0.22832149176550065,-0.9865734224446535,10.308624598524094,"(0.0, 0.0, 0.0, 0.0, 0.0, 0.0)",-1.766891708603882,0.508461165120635,10.441099873165749,"(0.0, 0.0, 0.0, 0.0, 0.0, 0.0)",-0.22973068702752517,False,,,,,False,,,,
38,Close,,,"(0.010001648057231211, 0.16002636889308344, 0.03133184175509247)","(-0.0005384699893107284, 3.3654401557527444e-05, -9.06094284338731e-09)",,"[-0.026750000193715096, 0.05299999937415123, 0.03999999910593033]","[0.0, -0.0, 0.9857205423734198]","[-0.08677425980567932, 0.09276290237903595, 0.03999999910593033]","[0.0, -0.0, 0.47314147483112123]","[0.026750000193715096, 0.05299999937415123, 0.03999999910593033]","[0.0, 0.0, -0.9865734261287252]","[0.08680814504623413, 0.09271169453859329, 0.03999999910593033]","[0.0, 0.0, -0.4781122693565934]",0.9471485092803869,-9.257293580810316,"(0.0, 0.0, 0.0, 0.0, 0.0, 0.0)",1.587086438141582,-0.5513213633331018,-9.29815470028281,"(0.0, 0.0, 0.0, 0.0, 0.0, 0.0)",0.206306403170868,-0.9479160802001881,9.277762138671687,"(0.0, 0.0, 0.0, 0.0, 0.0, 0.0)",-1.5914107042435905,0.5476152664096928,9.396984309373877,"(0.0, 0.0, 0.0, 0.0, 0.0, 0.0)",-0.2075852193448244,False,,,,,False,,,,
39,Close,,,"(0.01000181260787789, 0.16002900170117218, 0.03350567876675359)","(-0.00059226700223067, 3.7016717206835695e-05, -1.0961890388082131e-08)",,"[-0.026750000193715096, 0.05299999937415123, 0.03999999910593033]","[0.0, -0.0, 0.9471486716739237]","[-0.08519625663757324, 0.09504801034927368, 0.03999999910593033]","[0.0, -0.0, 0.39582717163487297]","[0.026750000193715096, 0.05299999937415123, 0.03999999910593033]","[0.0, 0.0, -0.9479160840165974]","[0.08522851020097733, 0.09500313550233841, 0.03999999910593033]","[0.0, 0.0, -0.4003008647547732]",0.9124336583523481,-8.331564222729286,"(0.0, 0.0, 0.0, 0.0, 0.0, 0.0)",1.4293465062267445,-0.5861894225076075,-8.368334201881392,"(0.0, 0.0, 0.0, 0.0, 0.0, 0.0)",0.18633757536892917,-0.9131244721801693,8.349985924804516,"(0.0, 0.0, 0.0, 0.0, 0.0, 0.0)",-1.433248242084051,0.5828539364930729,8.45728082001123,"(0.0, 0.0, 0.0, 0.0, 0.0, 0.0)",-0.18749704763631705,False,,,,,False,,,,
40,Close,,,"(0.010001977116791199, 0.1600316338415276, 0.035505353338314005)","(-0.0006460549330047555, 4.037846511369274e-05, -1.3043353742532214e-08)",,"[-0.026750000193715096, 0.05299999937415123, 0.03999999910593033]","[0.0, -0.0, 0.9124336635104583]","[-0.08370164036750793, 0.0970512256026268, 0.03999999910593033]","[0.0, -0.0, 0.3262442150321584]","[0.026750000193715096, 0.05299999937415123, 0.03999999910593033]","[0.0, 0.0, -0.9131245532476111]","[0.08373206108808517, 0.09701187163591385, 0.03999999910593033]","[0.0, 0.0, -0.3302705841133475]",0.8811902925171133,-7.498407800456356,"(0.0, 0.0, 0.0, 0.0, 0.0, 0.0)",1.2871965063691413,-0.6175706567763247,-7.531496224492115,"(0.0, 0.0, 0.0, 0.0, 0.0, 0.0)",0.16823988009592084,-0.8818120249621524,7.514987332324067,"(0.0, 0.0, 0.0, 0.0, 0.0, 0.0)",-1.2907160846573733,0.6145687204653795,7.61154815335357,"(0.0, 0.0, 0.0, 0.0, 0.0, 0.0)",-0.16929032064296096,False,,,,,False,,,,
41,Close,,,"(0.010002141585127773, 0.16003426533265583, 0.03733092357160428)","(-0.0006998337831870475, 4.3739645365482716e-05, -1.5305241372964883e-08)",,"[-0.026750000193715096, 0.05299999937415123, 0.03999999910593033]","[0.0, -0.0, 0.8811903688816151]","[-0.08229776471853256, 0.09880879521369934, 0.03999999910593033]","[0.0, -0.0, 0.2636196251065186]","[0.026750000193715096, 0.05299999937415123, 0.03999999910593033]","[0.0, 0.0, -0.8818121535754343]","[0.08232623338699341, 0.098774254322052, 0.03999999910593033]","[0.0, 0.0, -0.26724331826119446]",0.853071263265402,-6.7485670204107215,"(0.0, 0.0, 0.0, 0.0, 0.0, 0.0)",1.1591124175888132,-0.6458137504217961,-6.77834247491313,"(0.0, 0.0, 0.0, 0.0, 0.0, 0.0)",0.1518500972569631,-0.8536308224659371,6.763488599091658,"(0.0, 0.0, 0.0, 0.0, 0.0, 0.0)",-1.1622865309865396,0.643112008739745,6.850389185847702,"(0.0, 0.0, 0.0, 0.0, 0.0, 0.0)",-0.15280109527428076,False,,,,,False,,,,
42,Close,,,"(0.010002306014043007, 0.16003689619304312, 0.038982445123681576)","(-0.0007536035543313348, 4.7100258049582536e-05, -1.7747461781428295e-08)",,"[-0.026750000193715096, 0.05299999937415123, 0.03999999910593033]","[0.0, -0.0, 0.8530713239495782]","[-0.08098787814378738, 0.10035242885351181, 0.03999999910593033]","[0.0, -0.0, 0.2072574956851119]","[0.026750000193715096, 0.05299999937415123, 0.03999999910593033]","[0.0, 0.0, -0.8536307856313979]","[0.08101436495780945, 0.10032207518815994, 0.03999999910593033]","[0.0, 0.0, -0.21051882644475053]",0.8277641369388617,-6.073710318369648,"(0.0, 0.0, 0.0, 0.0, 0.0, 0.0)",1.043715976216214,-0.6712325191394197,-6.100504492229669,"(0.0, 0.0, 0.0, 0.0, 0.0, 0.0)",0.1370167890019201,-0.8282677402193435,6.0871397391824935,"(0.0, 0.0, 0.0, 0.0, 0.0, 0.0)",-1.0465779375227178,0.6688009525283538,6.165346509266115,"(0.0, 0.0, 0.0, 0.0, 0.0, 0.0)",-0.1378772244212715,False,,,,,False,,,,
43,Close,,,"(0.010002470404691093, 0.16003952644115657, 0.04045997120998789)","(-0.0008073642479911328, 5.0460303253361964e-05, -2.0369923505779015e-08)",,"[-0.026750000193715096, 0.05299999937415123, 0.03999999910593033]","[0.0, -0.0, 0.8277641182932235]","[-0.07977228611707687, 0.10170972347259521, 0.03999999910593033]","[0.0, -0.0, 0.1565316389415725]","[0.026750000193715096, 0.05299999937415123, 0.03999999910593033]","[0.0, 0.0, -0.8282677342123946]","[0.07979680597782135, 0.10168302059173584, 0.03999999910593033]","[0.0, 0.0, -0.1594667900835625]",0.8049877232449756,-5.4663392865326825,"(0.0, 0.0, 0.0, 0.0, 0.0, 0.0)",0.9397613626777375,-0.6941093969081942,-5.49045066450586,"(0.0, 0.0, 0.0, 0.0, 0.0, 0.0)",0.12359998406321729,-0.8054409661974091,5.478425765264244,"(0.0, 0.0, 0.0, 0.0, 0.0, 0.0)",-0.9423413878167864,0.6919209877745929,5.54880845909737,"(0.0, 0.0, 0.0, 0.0, 0.0, 0.0)",-0.12437805104754245,False,,,,,False,,,,
44,Close,,,"(0.010002634758225062, 0.1600421560954447, 0.041763552607370504)","(-0.000861115865719684, 5.381978106418352e-05, -2.3172535119669436e-08)",,"[-0.026750000193715096, 0.05299999937415123, 0.03999999910593033]","[0.0, -0.0, 0.8049877164750058]","[-0.07864919304847717, 0.10290464758872986, 0.03999999910593033]","[0.0, -0.0, 0.11087832859978779]","[0.026750000193715096, 0.05299999937415123, 0.03999999910593033]","[0.0, 0.0, -0.805440964305088]","[0.07867180556058884, 0.10288111865520477, 0.03999999910593033]","[0.0, 0.0, -0.11351997099607207]",0.784488950920478,-4.919705357879415,"(0.0, 0.0, 0.0, 0.0, 0.0, 0.0)",0.8461229797239068,-0.7146985741739192,-4.941402543774016,"(0.0, 0.0, 0.0, 0.0, 0.0, 0.0)",0.11147072977230046,-0.7848968695776682,4.93058318873782,"(0.0, 0.0, 0.0, 0.0, 0.0, 0.0)",-0.8484484528940599,0.7127290066915236,4.993924540063379,"(0.0, 0.0, 0.0, 0.0, 0.0, 0.0)",-0.1121739668696123,False,,,,,False,,,,
45,Close,,,"(0.010002799075796832, 0.16004478517433812, 0.04289323765696492)","(-0.0009148584090699577, 5.7178691569402595e-05, -2.615520523253533e-08)",,"[-0.026750000193715096, 0.05299999937415123, 0.03999999910593033]","[0.0, -0.0, 0.7844889896573499]","[-0.07761538028717041, 0.10395795851945877, 0.03999999910593033]","[0.0, -0.0, 0.06979037514545033]","[0.026750000193715096, 0.05299999937415123, 0.03999999910593033]","[0.0, 0.0, -0.7848969068252226]","[0.07763615995645523, 0.10393720120191574, 0.03999999910593033]","[0.0, 0.0, -0.07216786709232846]",0.7660400558284302,-4.427734822091471,"(0.0, 0.0, 0.0, 0.0, 0.0, 0.0)",0.7617842585328375,-0.7332288222135146,-4.44725952950288,"(0.0, 0.0, 0.0, 0.0, 0.0, 0.0)",0.10051055612556806,-0.7664071826199014,4.437524869864038,"(0.0, 0.0, 0.0, 0.0, 0.0, 0.0)",-0.7638799793048979,0.7314562121459494,4.494529309062177,"(0.0, 0.0, 0.0, 0.0, 0.0, 0.0)",-0.10114588070786824,False,,,,,False,,,,
46,Close,,,"(0.010002963358557236, 0.16004741369625017, 0.04384907226694074)","(-0.0009685918795946493, 6.053703485636736e-05, -2.9317842489583264e-08)",,"[-0.026750000193715096, 0.05299999937415123, 0.03999999910593033]","[0.0, -0.0, 0.7660400058439011]","[-0.07666666060686111, 0.10488764196634293, 0.03999999910593033]","[0.0, -0.0, 0.0328112365488731]","[0.026750000193715096, 0.05299999937415123, 0.03999999910593033]","[0.0, 0.0, -0.7664072421942376]","[0.07668570429086685, 0.1048693135380745, 0.03999999910593033]","[0.0, 0.0, -0.03495097036229706]",0.7494360502455871,-3.984961339882325,"(0.0, 0.0, 0.0, 0.0, 0.0, 0.0)",0.6858274268188955,-0.7499060350622873,-4.002531083705426,"(0.0, 0.0, 0.0, 0.0, 0.0, 0.0)",0.09061088591719418,-0.7497664643579113,3.9937723828776335,"(0.0, 0.0, 0.0, 0.0, 0.0, 0.0)",-0.6877158393779155,0.7483106866034595,4.045073869802414,"(0.0, 0.0, 0.0, 0.0, 0.0, 0.0)",-0.09118463108881669,False,,,,,False,,,,
47,Close,,,"(0.010003127607656072, 0.16005004167957756, 0.04463109991511072)","(-0.0010223162788461832, 6.389481101241881e-05, -3.266035557177819e-08)",,"[-0.026750000193715096, 0.05299999937415123, 0.03999999910593033]","[0.0, -0.0, 0.7494360616149593]","[-0.07579827308654785, 0.1057092696428299, 0.03999999910593033]","[0.0, 0.0, -0.00046998485639781964]","[0.026750000193715096, 0.05299999937415123, 0.03999999910593033]","[0.0, 0.0, -0.7497665229086657]","[0.07581568509340286, 0.10569305717945099, 0.03999999910593033]","[0.0, 0.0, -0.0014557777936095985]",0.7344924452210284,-3.5864652058940925,"(0.0, 0.0, 0.0, 0.0, 0.0, 0.0)",0.6173964503690262,-0.7649166300024903,-3.602542785648727,"(0.0, 0.0, 0.0, 0.0, 0.0, 0.0)",0.08164469448201127,-0.7347898179221202,3.594395144589871,"(0.0, 0.0, 0.0, 0.0, 0.0, 0.0)",-0.61909767957405,0.7634808239898891,3.6408329727431203,"(0.0, 0.0, 0.0, 0.0, 0.0, 0.0)",-0.08216247127692902,False,,,,,False,,,,
48,Close,,,"(0.010003291824242136, 0.16005266914270105, 0.04523936165140331)","(-0.0010760316083767074, 6.725202012489063e-05, -3.618265319583079e-08)",,"[-0.026750000193715096, 0.05299999937415123, 0.03999999910593033]","[0.0, -0.0, 0.7344924171356654]","[-0.07500515878200531, 0.10643631219863892, 0.03999999910593033]","[0.0, 0.0, -0.03042418292779103]","[0.026750000193715096, 0.05299999937415123, 0.03999999910593033]","[0.0, 0.0, -0.7347898072320369]","[0.07502105087041855, 0.10642196238040924, 0.03999999910593033]","[0.0, -0.0, 0.028691003185096618]",0.7210432006989256,-3.227818685304683,"(0.0, 0.0, 0.0, 0.0, 0.0, 0.0)",0.5558325671900768,-0.77842604750784,-3.2422602012839143,"(0.0, 0.0, 0.0, 0.0, 0.0, 0.0)",0.07360992294062317,-0.7213108361299082,3.234955630130884,"(0.0, 0.0, 0.0, 0.0, 0.0, 0.0)",-0.5573653507703412,0.7771338289584356,3.2767211924511668,"(0.0, 0.0, 0.0, 0.0, 0.0, 0.0)",-0.07407739542501454,False,,,,,False,,,,
49,Close,,,"(0.010003456009463264, 0.16005529610398603, 0.04567389610019914)","(-0.0011297378697381003, 7.060866228110946e-05, -3.988464411418517e-08)",,"[-0.026750000193715096, 0.05299999937415123, 0.03999999910593033]","[0.0, -0.0, 0.7210432248946826]","[-0.07428213953971863, 0.10708045959472656, 0.03999999910593033]","[0.0, 0.0, -0.05738284539856889]","[0.026750000193715096, 0.05299999937415123, 0.03999999910593033]","[0.0, 0.0, -0.7213108742429458]","[0.07429660856723785, 0.10706773400306702, 0.03999999910593033]","[0.0, -0.0, 0.0558229905847104]",0.708938880629033,-2.905036816774215,"(0.0, 0.0, 0.0, 0.0, 0.0, 0.0)",0.5003668258645501,-0.7905844163893876,-2.9180085315714246,"(0.0, 0.0, 0.0, 0.0, 0.0, 0.0)",0.06632913423961855,-0.7091797525169173,2.911460067117798,"(0.0, 0.0, 0.0, 0.0, 0.0, 0.0)",-0.5017475327577147,0.7894214258858812,2.9490232625869344,"(0.0, 0.0, 0.0, 0.0, 0.0, 0.0)",-0.06675089596581112,False,,,,,False,,,,
50,Close,,,"(0.010001644182078712, 0.16005595153396976, 0.045940321410535084)","(-0.0011271805217326655, 1.767785898679914e-05, -1.508889111938428e-08)",,"[-0.026750000193715096, 0.05299999937415123, 0.03999999910593033]","[0.0, -0.0, 0.7089389671526269]","[-0.07362406700849533, 0.10765182226896286, 0.03999999910593033]","[0.0, 0.0, -0.08164554069303018]","[0.026750000193715096, 0.05299999937415123, 0.03999999910593033]","[0.0, 0.0, -0.7091797033714331]","[0.0736372321844101, 0.10764053463935852, 0.03999999910593033]","[0.0, -0.0, 0.08024167743029369]",0.6980449925661297,-2.6145331350967917,"(0.0, 0.0, 0.0, 0.0, 0.0, 0.0)",0.4504252929298086,-0.8015268519725993,-2.6261845399708146,"(0.0, 0.0, 0.0, 0.0, 0.0, 0.0)",0.059761147909024356,-0.6982617772652256,2.6203140604060167,"(0.0, 0.0, 0.0, 0.0, 0.0, 0.0)",-0.4516689022418484,0.8004801661036254,2.6540976522586175,"(0.0, 0.0, 0.0, 0.0, 0.0, 0.0)",-0.06014157277442886,False,,,,,False,,,,
51,Close,,,"(0.009998458164918766, 0.16005543218265145, 0.046184544665354044)","(-0.001116587313714928, -4.731063982249702e-05, 3.3486629919706074e-09)",,"[-0.026750000193715096, 0.05299999937415123, 0.03999999910593033]","[0.0, -0.0, 0.6980450466292163]","[-0.07302592694759369, 0.10815921425819397, 0.03999999910593033]","[0.0, 0.0, -0.1034818592301779]","[0.026750000193715096, 0.05299999937415123, 0.03999999910593033]","[0.0, 0.0, -0.6982617371246688]","[0.07303788512945175, 0.10814917832612991, 0.03999999910593033]","[0.0, -0.0, 0.10221840210156648]",0.6882404933095168,-2.3530798215871136,"(0.0, 0.0, 0.0, 0.0, 0.0, 0.0)",0.40545980991383274,-0.8113749570468809,-2.3635452178275753,"(0.0, 0.0, 0.0, 0.0, 0.0, 0.0)",0.0538375991228723,-0.688435599538703,2.358282654365416,"(0.0, 0.0, 0.0, 0.0, 0.0, 0.0)",-0.4065798463491374,0.810432944800545,2.3886668872606847,"(0.0, 0.0, 0.0, 0.0, 0.0, 0.0)",-0.0541806611811555,False,,,,,False,,,,
52,Close,,,"(0.0099979269032565, 0.16005188637635104, 0.04640949954916324)","(-0.0010442772263960227, -5.814874739306873e-05, 7.787963860925158e-09)",,"[-0.026750000193715096, 0.05299999937415123, 0.03999999910593033]","[0.0, -0.0, 0.688240548987758]","[-0.07248289883136749, 0.10861026495695114, 0.03999999910593033]","[0.0, 0.0, -0.12313446206189271]","[0.026750000193715096, 0.05299999937415123, 0.03999999910593033]","[0.0, 0.0, -0.6884356086136862]","[0.07249374687671661, 0.10860133916139603, 0.03999999910593033]","[0.0, -0.0, 0.1219973374555316]",0.679416393078237,-2.117784055507141,"(0.0, 0.0, 0.0, 0.0, 0.0, 0.0)",0.3649762140031281,-0.8202374613421928,-2.12700103087486,"(0.0, 0.0, 0.0, 0.0, 0.0, 0.0)",0.04851286211734207,-0.6795919883598663,2.1224666829208143,"(0.0, 0.0, 0.0, 0.0, 0.0, 0.0)",-0.36598488497268467,0.8193896503204905,2.149609324786922,"(0.0, 0.0, 0.0, 0.0, 0.0, 0.0)",-0.04882227338805697,False,,,,,False,,,,
53,Close,,,"(0.009997966950406065, 0.16004795201914346, 0.046616050094935475)","(-0.0009640430328522325, -5.7324486097668704e-05, 4.2980615420070005e-09)",,"[-0.026750000193715096, 0.05299999937415123, 0.03999999910593033]","[0.0, -0.0, 0.6794163791618646]","[-0.07199041545391083, 0.10901165008544922, 0.03999999910593033]","[0.0, 0.0, -0.1408210743259801]","[0.026750000193715096, 0.05299999937415123, 0.03999999910593033]","[0.0, 0.0, -0.6795920181483843]","[0.07200025022029877, 0.1090037003159523, 0.03999999910593033]","[0.0, -0.0, 0.13979766167419433]",0.6714747537704133,-1.9059934338776885,"(0.0, 0.0, 0.0, 0.0, 0.0, 0.0)",0.3285291326313333,-0.8282143561304102,-1.914454749172182,"(0.0, 0.0, 0.0, 0.0, 0.0, 0.0)",0.043663125146434535,-0.6716327895238797,1.9102077206367922,"(0.0, 0.0, 0.0, 0.0, 0.0, 0.0)",-0.3294374536237565,0.8274513303019508,1.934803195550486,"(0.0, 0.0, 0.0, 0.0, 0.0, 0.0)",-0.043941831288343336,False,,,,,False,,,,
54,Close,,,"(0.009998107600018924, 0.16004411888380865, 0.0468059782297436)","(-0.0008858309445970004, -5.447527859797503e-05, 4.128601528647624e-08)",,"[-0.026750000193715096, 0.05299999937415123, 0.03999999910593033]","[0.0, -0.0, 0.6714747449539094]","[-0.07154417037963867, 0.10936915874481201, 0.03999999910593033]","[0.0, 0.0, -0.15673960659097733]","[0.026750000193715096, 0.05299999937415123, 0.03999999910593033]","[0.0, 0.0, -0.6716327690441329]","[0.07155308127403259, 0.10936208069324493, 0.03999999910593033]","[0.0, -0.0, 0.15581855230220754]",0.664327278393372,-1.7153940904899205,"(0.0, 0.0, 0.0, 0.0, 0.0, 0.0)",0.2957170811345372,-0.8353934979980445,-1.7229940482322428,"(0.0, 0.0, 0.0, 0.0, 0.0, 0.0)",0.03934112702889199,-0.6644695105714917,1.7191869485731137,"(0.0, 0.0, 0.0, 0.0, 0.0, 0.0)",-0.2965349881453131,0.8347067784412298,1.7413075534269409,"(0.0, 0.0, 0.0, 0.0, 0.0, 0.0)",-0.039592428071821256,False,,,,,False,,,,
55,Close,,,"(0.009998248644105466, 0.16004048002584464, 0.0469807018618576)","(-0.0008115684428503489, -5.1596750749095254e-05, 7.881188886077776e-08)",,"[-0.026750000193715096, 0.05299999937415123, 0.03999999910593033]","[0.0, -0.0, 0.6643273336690038]","[-0.07114013284444809, 0.10968788713216782, 0.03999999910593033]","[0.0, 0.0, -0.17106622141763456]","[0.026750000193715096, 0.05299999937415123, 0.03999999910593033]","[0.0, 0.0, -0.6644694779113771]","[0.07114819437265396, 0.10968156903982162, 0.03999999910593033]","[0.0, -0.0, 0.17023725548976373]",0.6578945505540348,-1.543854681440929,"(0.0, 0.0, 0.0, 0.0, 0.0, 0.0)",0.2661784897251144,-0.8418546682622772,-1.5506808634158242,"(0.0, 0.0, 0.0, 0.0, 0.0, 0.0)",0.03542959308904228,-0.6580225595143425,1.547268253715802,"(0.0, 0.0, 0.0, 0.0, 0.0, 0.0)",-0.26691494494593054,0.8412366239853526,1.567162930589489,"(0.0, 0.0, 0.0, 0.0, 0.0, 0.0)",-0.035656056287006674,False,,,,,False,,,,
56,Close,,,"(0.009998390752654573, 0.16003702894197389, 0.04714144752999396)","(-0.0007411380797103218, -4.869650481896534e-05, 1.1687517768299383e-07)",,"[-0.026750000193715096, 0.05299999937415123, 0.03999999910593033]","[0.0, -0.0, 0.6578945475257985]","[-0.07077455520629883, 0.1099722608923912, 0.03999999910593033]","[0.0, 0.0, -0.18396012465064338]","[0.026750000193715096, 0.05299999937415123, 0.03999999910593033]","[0.0, 0.0, -0.6580225896942233]","[0.07078184932470322, 0.10996662080287933, 0.03999999910593033]","[0.0, -0.0, 0.18321406389742323]",0.6521050954986313,-1.3894692132968354,"(0.0, 0.0, 0.0, 0.0, 0.0, 0.0)",0.23958744527110798,-0.8476696697618468,-1.395600359896693,"(0.0, 0.0, 0.0, 0.0, 0.0, 0.0)",0.031904902566438624,-0.6522203035629083,1.392541428344221,"(0.0, 0.0, 0.0, 0.0, 0.0, 0.0)",-0.24025052935853647,0.8471134329078756,1.410434141405507,"(0.0, 0.0, 0.0, 0.0, 0.0, 0.0)",-0.032108956045352514,False,,,,,False,,,,
57,Close,,,"(0.009998534235924597, 0.16003375955333046, 0.04728933347451534)","(-0.0006744157946989166, -4.576820860538318e-05, 1.554405829918684e-07)",,"[-0.026750000193715096, 0.05299999937415123, 0.03999999910593033]","[0.0, -0.0, 0.6521051450040646]","[-0.07044398784637451, 0.11022617667913437, 0.03999999910593033]","[0.0, 0.0, -0.19556454293122102]","[0.026750000193715096, 0.05299999937415123, 0.03999999910593033]","[0.0, 0.0, -0.6522203497730787]","[0.07045057415962219, 0.11022114753723145, 0.03999999910593033]","[0.0, -0.0, 0.19489313608724637]",0.6468945859487681,-1.250522291967151,"(0.0, 0.0, 0.0, 0.0, 0.0, 0.0)",0.2156503992603495,-0.8529031244958994,-1.2560291361726517,"(0.0, 0.0, 0.0, 0.0, 0.0, 0.0)",0.02872919688306315,-0.6469982732066174,1.253287285509799,"(0.0, 0.0, 0.0, 0.0, 0.0, 0.0)",-0.2162473971085442,0.8524025140258721,1.2693794683191757,"(0.0, 0.0, 0.0, 0.0, 0.0, 0.0)",-0.02891303657535659,False,,,,,False,,,,
58,Close,,,"(0.009998679410322496, 0.16003066597344334, 0.0474253884764576)","(-0.0006112814540129935, -4.2805404436077314e-05, 1.9447426774393396e-07)",,"[-0.026750000193715096, 0.05299999937415123, 0.03999999910593033]","[0.0, -0.0, 0.6468945636476681]","[-0.07014521211385727, 0.11045306921005249, 0.03999999910593033]","[0.0, 0.0, -0.20600854729134555]","[0.026750000193715096, 0.05299999937415123, 0.03999999910593033]","[0.0, 0.0, -0.6469982503054421]","[0.07015117257833481, 0.11044856905937195, 0.03999999910593033]","[0.0, -0.0, 0.20540423443750838]",0.6422051273538913,-1.125470062770436,"(0.0, 0.0, 0.0, 0.0, 0.0, 0.0)",0.1941029233168818,-0.8576131917611358,-1.1304161436567226,"(0.0, 0.0, 0.0, 0.0, 0.0, 0.0)",0.025868240883426936,-0.6422984458859556,1.1279585569588184,"(0.0, 0.0, 0.0, 0.0, 0.0, 0.0)",-0.19464040126091972,0.8571626447690798,1.1424313783698345,"(0.0, 0.0, 0.0, 0.0, 0.0, 0.0)",-0.026033851694478666,False,,,,,False,,,,
59,Move,,,"(0.009998826598722164, 0.16002774252192944, 0.04755055901421763)","(-0.0005516191299448554, -3.980150267197137e-05, 2.339437659612592e-07)","[0.0, 0.0, 0.0]","[-0.026750000193715096, 0.05299999937415123, 0.03999999910593033]","[0.0, -0.0, 0.6422051137296667]","[-0.0698753148317337, 0.11065594106912613, 0.03999999910593033]","[0.0, 0.0, -0.2154080556264429]","[0.026750000193715096, 0.05299999937415123, 0.03999999910593033]","[0.0, 0.0, -0.6422983956794274]","[0.06988069415092468, 0.1106519103050232, 0.03999999910593033]","[0.0, -0.0, 0.21486417441436167]",0.6379846146185022,-1.0129230564933929,"(0.0, 0.0, 0.0, 0.0, 0.0, 0.0)",0.17470684718642912,-0.8618522144704561,-1.0173654502368856,"(0.0, 0.0, 0.0, 0.0, 0.0, 0.0)",0.023291096758263134,-0.6380686012973601,1.0151627012629356,"(0.0, 0.0, 0.0, 0.0, 0.0, 0.0)",-0.1751907229705418,0.8614467243673204,1.02817910357775,"(0.0, 0.0, 0.0, 0.0, 0.0, 0.0)",-0.023440272040621463,False,,,,,True,"(0.04276013174954747, 0.17974174897294792, 0.02399995643463635)","(-0.9999999990838299, -1.9447426661030803e-07, -4.2805404423670755e-05)",0.0013234533115717422,0.0
60,Move,,,"(0.008699259039732246, 0.1597652061907072, 0.04782485533738502)","(0.0040480273580015685, 0.009650479713711625, 0.017575803187450934)","[-0.0012995675589899183, -0.00026253633122225173, 0.00027429632316738894]","[-0.026750000193715096, 0.05299999937415123, 0.03999999910593033]","[0.0, -0.0, 0.6379846501970732]","[-0.06963159143924713, 0.1108374372124672, 0.03999999910593033]","[0.0, 0.0, -0.22386762157269943]","[0.026750000193715096, 0.05299999937415123, 0.03999999910593033]","[0.0, 0.0, -0.638068602671057]","[0.06963644921779633, 0.11083383113145828, 0.03999999910593033]","[0.0, -0.0, 0.22337816170537766]",0.6141590059460926,-5.718146081378296,"(0.0, 0.0, 0.0, 0.0, 0.0, 0.0)",-6.715100343954984,-0.8614283121995241,0.10173654502368734,"(0.0, 0.0, 0.0, 0.0, 0.0, 0.0)",-0.3723637437215536,-0.6186765363685498,4.654095582914465,"(0.0, 0.0, 0.0, 0.0, 0.0, 0.0)",16.91452213543579,0.8602423878670417,-0.28904076006690205,"(0.0, 0.0, 0.0, 0.0, 0.0, 0.0)",7.026754130549747,False,,,,,True,"(0.041928616181162004, 0.17969877893574898, 0.023999959438538117)","(-0.9999999992078928, -2.3394376620903917e-07, -3.980150265941498e-05)",0.0004918567139684023,94.17969713248019
61,Move,,,"(0.006953428279101256, 0.15936555806379668, 0.04799883027777207)","(0.0036027003309908674, 0.011726089522938334, 0.045571805054608026)","[-0.0030453983196209082, -0.000662184458132764, 0.0004482712635544353]","[-0.026750000193715096, 0.05299999937415123, 0.03999999910593033]","[0.0, -0.0, 0.6141590305095613]","[-0.06824154406785965, 0.11184260249137878, 0.03999999910593033]","[0.0, 0.0, -0.24726930604170874]","[0.026750000193715096, 0.05299999937415123, 0.03999999910593033]","[0.0, 0.0, -0.6186765449450942]","[0.06850694119930267, 0.11165456473827362, 0.03999999910593033]","[0.0, -0.0, 0.24156588090171732]",0.5923752537221402,-5.228100533748595,"(0.0, 0.0, 0.0, 0.0, 0.0, 0.0)",0.6968351830029371,-0.8614707024266173,-0.010173654502368734,"(0.0, 0.0, 0.0, 0.0, 0.0, 0.0)",0.03860943376531379,-0.6008618977467228,4.275513269238477,"(0.0, 0.0, 0.0, 0.0, 0.0, 0.0)",3.1840553339598543,0.8603207379647874,0.018804023458970476,"(0.0, 0.0, 0.0, 0.0, 0.0, 0.0)",2.2071937117843152,False,,,,,True,"(0.03955126028332891, 0.18000420521160232, 0.023999959438538117)","(-0.9999999992078928, -2.3394376620903917e-07, -3.980150265941498e-05)",-4.69285261207243e-06,0.0
62,Move,,,"(0.005232479171843643, 0.15895611509417099, 0.04805192961782931)","(0.0015613319654504138, 0.011710638263295036, 0.07400765980182708)","[-0.004766347426878521, -0.0010716274277584592, 0.0005013706036116755]","[-0.026750000193715096, 0.05299999937415123, 0.03999999910593033]","[0.0, -0.0, 0.5923752994005711]","[-0.0669499859213829, 0.1127324104309082, 0.03999999910593033]","[0.0, 0.0, -0.2690954538189607]","[0.026750000193715096, 0.05299999937415123, 0.03999999910593033]","[0.0, 0.0, -0.6008619062673114]","[0.0674554631114006, 0.11238910257816315, 0.03999999910593033]","[0.0, -0.0, 0.2594588653702835]",0.5711748754471921,-5.088090785987531,"(0.0, 0.0, 0.0, 0.0, 0.0, 0.0)",0.20179723839696584,-0.8614666854136499,0.0009640831121563087,"(0.0, 0.0, 0.0, 0.0, 0.0, 0.0)",0.015124512099487388,-0.5830478441846109,4.27537285490686,"(0.0, 0.0, 0.0, 0.0, 0.0, 0.0)",-0.00040728805220429705,0.8603129289032243,-0.001874174775147154,"(0.0, 0.0, 0.0, 0.0, 0.0, 0.0)",-0.0017677334094061982,False,,,,,True,"(0.03728150083157586, 0.18020972647077313, 0.023999959438538117)","(-0.9999999992078928, -2.3394376620903917e-07, -3.980150265941498e-05)",0.00010136561290409651,0.0
63,Move,,,"(0.003536438132730313, 0.15853702184869162, 0.04798413986117641)","(-0.002178499075898401, 0.009685758062407228, 0.10285468498251224)","[-0.006462388465991851, -0.0014907206732378275, 0.0004335808469587768]","[-0.026750000193715096, 0.05299999937415123, 0.03999999910593033]","[0.0, -0.0, 0.5711748797881039]","[-0.06567469984292984, 0.1135711818933487, 0.03999999910593033]","[0.0, 0.0, -0.2902918330000066]","[0.026750000193715096, 0.05299999937415123, 0.03999999910593033]","[0.0, 0.0, -0.5830479010023177]","[0.06639109551906586, 0.11310476809740067, 0.03999999910593033]","[0.0, -0.0, 0.2772650915613622]",0.5507922484404775,-4.891830481611522,"(0.0, 0.0, 0.0, 0.0, 0.0, 0.0)",0.282294284049585,-0.8614673765775518,-0.00016587933645189224,"(0.0, 0.0, 0.0, 0.0, 0.0, 0.0)",0.019719768305812027,-0.565275293151566,4.265412247930778,"(0.0, 0.0, 0.0, 0.0, 0.0, 0.0)",-0.012306804327906049,0.8603137161198487,0.00018893198985979812,"(0.0, 0.0, 0.0, 0.0, 0.0, 0.0)",-0.0004299034376783175,False,,,,,True,"(0.035014354147368115, 0.18037738642755824, 0.023999959438538117)","(-0.9999999992078928, -2.3394376620903917e-07, -3.980150265941498e-05)",0.0001657852207818292,0.0
64,Move,,,"(0.0033070809685918903, 0.15939336139403074, 0.0480245948749005)","(-0.003221721649284341, 0.008758192496794307, 0.10007245081902345)","[-0.006691745630130274, -0.0006343811278987088, 0.00047403586068286985]","[-0.026750000193715096, 0.05299999937415123, 0.03999999910593033]","[0.0, -0.0, 0.5507922756468575]","[-0.06443209946155548, 0.11435192823410034, 0.03999999910593033]","[0.0, 0.0, -0.31067510738133]","[0.026750000193715096, 0.05299999937415123, 0.03999999910593033]","[0.0, 0.0, -0.5652752430676895]","[0.06531667709350586, 0.11379976570606232, 0.03999999910593033]","[0.0, -0.0, 0.2950384296353975]",0.5330621314256022,-4.255228083570051,"(0.0, 0.0, 0.0, 0.0, 0.0, 0.0)",-63.6841566907319,-0.833899768100212,6.616226034561552,"(0.0, 0.0, 0.0, 0.0, 0.0, 0.0)",-32.0033096547166,-0.5494184347075574,3.805646026562078,"(0.0, 0.0, 0.0, 0.0, 0.0, 0.0)",54.08522476914028,0.834294882877888,-6.244519978070589,"(0.0, 0.0, 0.0, 0.0, 0.0, 0.0)",25.974823871813367,True,"(-0.030827226021807298, 0.18072875671023755, 0.023990313633420805)","(0.9946684597633704, 0.10266861339458756, -0.009685606619977753)",0.00023266339136997558,510.2877732171601,True,"(0.03274929454054999, 0.18050411530517568, 0.023999959438538117)","(-0.9999999992078928, -2.3394376620903917e-07, -3.980150265941498e-05)",0.00018643181396489492,418.4587664295024
65,Move,"(-0.0032, 0.0, 0.0006)","(0.0, 0.012639674442942934, 0.0)","(0.0031969503873777684, 0.16028143882127593, 0.048054583489053525)","(-0.004372781608329888, 0.007939463136719069, 0.09861198334618497)","[-0.006801876211344396, 0.00025369629934648974, 0.0005040244748358916]","[-0.026750000193715096, 0.05299999937415123, 0.03999999910593033]","[0.0, -0.0, 0.5330621158171134]","[-0.06333845853805542, 0.11501035839319229, 0.03999999910593033]","[0.0, 0.0, -0.30083767855036603]","[0.026750000193715096, 0.05299999937415123, 0.03999999910593033]","[0.0, 0.0, -0.549418426545043]","[0.0643477737903595, 0.11440364271402359, 0.03999999910593033]","[0.0, -0.0, 0.2848764361199625]",0.5161701590322703,-4.054073374399667,"(0.0, 0.0, 0.0, 0.0, 0.0, 0.0)",-68.88180562685734,-0.8061093417891989,6.669702314643141,"(0.0, 0.0, 0.0, 0.0, 0.0, 0.0)",-35.756361121383094,-0.5337544439677235,3.7593577775601132,"(0.0, 0.0, 0.0, 0.0, 0.0, 0.0)",68.77952387616044,0.8075007011486295,-6.430603615022057,"(0.0, 0.0, 0.0, 0.0, 0.0, 0.0)",33.85011913137436,True,"(-0.030386831991674287, 0.18170201039644102, 0.02399124115951112)","(0.9949587688124035, 0.09990167360330966, -0.008758080529661552)",-0.0003521033588324185,534.8399967547618,True,"(0.03245991098360225, 0.1814354915724969, 0.023999959438538117)","(-0.9999999992078928, -2.3394376620903917e-07, -3.980150265941498e-05)",3.895377007335016e-05,524.277520594291
66,Move,"(-0.005200000000000001, 0.0, 0.0014)","(0.0, 0.03856130449356272, 0.0)","(0.0030717640429489502, 0.16109408864413788, 0.048064442080068256)","(-0.00473925908595163, 0.004411362958928387, 0.09522247386406742)","[-0.006927062555773214, 0.0010663461222084336, 0.0005138830658506233]","[-0.026750000193715096, 0.05299999937415123, 0.03999999910593033]","[0.0, -0.0, 0.5161702079325045]","[-0.062285806983709335, 0.11561953276395798, 0.03999999910593033]","[0.0, 0.0, -0.28993919682770425]","[0.026750000193715096, 0.05299999937415123, 0.03999999910593033]","[0.0, 0.0, -0.5337544427276155]","[0.0633813738822937, 0.11498501896858215, 0.03999999910593033]","[0.0, -0.0, 0.27374624928461355]",0.5173471428513919,0.2824761165892138,"(0.0, 0.0, 0.0, 0.0, 0.0, 0.0)",5.5328203964355405,-0.8088880578464124,-0.6668918537312258,"(0.0, 0.0, 0.0, 0.0, 0.0, 0.0)",-0.31125602903831,-0.5360322808453359,-0.5466808506269767,"(0.0, 0.0, 0.0, 0.0, 0.0, 0.0)",-5.515973094680562,0.8101798180755062,0.6429880624504145,"(0.0, 0.0, 0.0, 0.0, 0.0, 0.0)",0.2871161856329684,True,"(-0.03006166347399304, 0.18265404950541297, 0.023992059860314583)","(0.9951104129424696, 0.09844913561342714, -0.007939379726199769)",-0.0007346128178897825,0.0,True,"(0.032241548852435555, 0.18236762460912842, 0.023999959438538117)","(-0.9999999992078928, -2.3394376620903917e-07, -3.980150265941498e-05)",-0.00012424112725224057,0.0
67,Move,"(-0.0066, 0.0, 0.0022)","(0.0, 0.07318514619462622, 0.0)","(0.0028963595369656844, 0.16184197840464964, 0.048013429942810694)","(-0.004598567885538305, -0.00032860143949788945, 0.09120500908011449)","[-0.00710246706175648, 0.0018142358827201999, 0.0004628709285930607]","[-0.026750000193715096, 0.05299999937415123, 0.03999999910593033]","[0.0, -0.0, 0.5173472245022818]","[-0.062359485775232315, 0.11557766795158386, 0.03999999910593033]","[0.0, 0.0, -0.29154091305412594]","[0.026750000193715096, 0.05299999937415123, 0.03999999910593033]","[0.0, 0.0, -0.5360322827756016]","[0.06352247297763824, 0.11490141600370407, 0.03999999910593033]","[0.0, -0.0, 0.27414754370471406]",0.517328723944911,-0.004420537555415827,"(0.0, 0.0, 0.0, 0.0, 0.0, 0.0)",-0.34030174966162835,-0.808610186240691,0.06668918537312318,"(0.0, 0.0, 0.0, 0.0, 0.0, 0.0)",0.04635886638636747,-0.5361175418308542,-0.020462636524388178,"(0.0, 0.0, 0.0, 0.0, 0.0, 0.0)",0.9553664857043287,0.8099040361027533,-0.06618767346068932,"(0.0, 0.0, 0.0, 0.0, 0.0, 0.0)",0.13568430473485907,True,"(-0.03002781781227727, 0.1825587032533824, 0.023995587891389447)","(0.9954600789124538, 0.09507771187132955, -0.004411348651336524)",-0.0006346702809828442,0.0,True,"(0.032355608664858995, 0.1822715223562072, 0.023999959438538117)","(-0.9999999992078928, -2.3394376620903917e-07, -3.980150265941498e-05)",-4.575927319094515e-05,2.0722025513005007
68,Move,"(-0.0021000000000000003, 0.0, 0.0050999999999999995)","(0.0, 0.17193762060171738, 0.0)","(0.0028130291229149034, 0.16237191280662921, 0.048084057695297805)","(-0.0039055415370845307, -0.00043797093605226053, 0.09069706794247664)","[-0.007185797475807261, 0.0023441702846997703, 0.0005334986810801717]","[-0.026750000193715096, 0.05299999937415123, 0.03999999910593033]","[0.0, -0.0, 0.5173287792636904]","[-0.06235833466053009, 0.11557832360267639, 0.03999999910593033]","[0.0, 0.0, -0.2912814640563447]","[0.026750000193715096, 0.05299999937415123, 0.03999999910593033]","[0.0, 0.0, -0.5361175411615104]","[0.06352774798870087, 0.11489827930927277, 0.03999999910593033]","[0.0, -0.0, 0.2737865133331774]",0.5175718263818886,0.05834458487461547,"(0.0, 0.0, 0.0, 0.0, 0.0, 0.0)",-1.2100000218844784,-0.8081114709599427,0.11969166737959822,"(0.0, 0.0, 0.0, 0.0, 0.0, 0.0)",-0.7089120631372078,-0.535835741869078,0.0676319908263062,"(0.0, 0.0, 0.0, 0.0, 0.0, 0.0)",0.8783523342298364,0.809422164459085,-0.11564919448039053,"(0.0, 0.0, 0.0, 0.0, 0.0, 0.0)",0.46344079835021784,True,"(-0.03004404469246264, 0.18256774541455728, 0.023995587891389447)","(0.9954600789124538, 0.09507771187132955, -0.004411348651336524)",-0.0005088332371955673,7.552745394099004,True,"(0.032475931386733534, 0.1811432540090791, 0.05600441210861055)","(-0.9954600789124537, -0.0950777118713324, 0.004411348651325747)",-0.00022186652068363093,5.275436121419515
69,Move,"(-0.0114, 0.0, 0.0091)","(0.0, 0.16421802932014654, 0.0)","(0.002812476305226133, 0.16276736679374784, 0.04811989168497405)","(-0.0024062846042259218, -0.0003963954964150246, 0.08772985471217513)","[-0.0071863502934960315, 0.002739624271818397, 0.0005693326707564145]","[-0.026750000193715096, 0.05299999937415123, 0.03999999910593033]","[0.0, -0.0, 0.5175718379048126]","[-0.06237354502081871, 0.11556966602802277, 0.03999999910593033]","[0.0, 0.0, -0.2905396873978994]","[0.026750000193715096, 0.05299999937415123, 0.03999999910593033]","[0.0, 0.0, -0.5358356855229636]","[0.06351030617952347, 0.11490864306688309, 0.03999999910593033]","[0.0, -0.0, 0.2735864270661146]",0.5168664570688845,-0.16928863512099424,"(0.0, 0.0, 0.0, 0.0, 0.0, 0.0)",-1.6960531400569272,-0.8077373093985075,0.08979877474444664,"(0.0, 0.0, 0.0, 0.0, 0.0, 0.0)",-0.7805826533633535,-0.5364368093254097,-0.14425618951960018,"(0.0, 0.0, 0.0, 0.0, 0.0, 0.0)",0.31765818600386553,0.8090129340578711,-0.09821529629131989,"(0.0, 0.0, 0.0, 0.0, 0.0, 0.0)",0.35798115066433944,True,"(-0.030108434046957053, 0.182577538347107, 0.05600043873088127)","(0.9958897440780823, 0.09057276534126076, 0.00043797092204660057)",-0.0004843990902771052,10.377412899321396,True,"(0.0324717413588443, 0.1811598267842846, 0.05600441210861055)","(-0.9954600789124537, -0.0950777118713324, 0.004411348651325747)",-0.00019924595372691978,5.069771585936954
70,Move,"(-0.012400000000000001, 0.0, 0.0086)","(0.0, 0.13771171397010862, 0.0)","(0.0026479605779134454, 0.1630991370603972, 0.04805268646046814)","(-0.0008303811694234404, 0.002756421558978839, 0.08724363585057447)","[-0.007350866020808719, 0.0030713945384677477, 0.0005021274462505068]","[-0.026750000193715096, 0.05299999937415123, 0.03999999910593033]","[0.0, -0.0, 0.5168664523561032]","[-0.06232940033078194, 0.1155947744846344, 0.03999999910593033]","[0.0, 0.0, -0.29087083745117015]","[0.026750000193715096, 0.05299999937415123, 0.03999999910593033]","[0.0, 0.0, -0.5364368219703959]","[0.0635475143790245, 0.11488653719425201, 0.03999999910593033]","[0.0, -0.0, 0.27257609318585585]",0.5183718783144193,0.3613010989283838,"(0.0, 0.0, 0.0, 0.0, 0.0, 0.0)",0.7600001019265233,-0.807774725554651,-0.008979877474445175,"(0.0, 0.0, 0.0, 0.0, 0.0, 0.0)",0.044822665909196216,-0.5349493963112911,0.3569791233884547,"(0.0, 0.0, 0.0, 0.0, 0.0, 0.0)",2.0263682575415585,0.8090134395842062,0.00012132632041797486,"(0.0, 0.0, 0.0, 0.0, 0.0, 0.0)",0.8234029844928301,True,"(-0.030041864271976998, 0.18258933484616618, 0.05600039715544526)","(0.9961541255893337, 0.08761735525550064, 0.0003963954860372449)",-0.00044888539985439915,0.0,True,"(0.03257534937636722, 0.18117494051942684, 0.023999602844554734)","(-0.9961541255893336, -0.08761735525550253, -0.0003963954860429799)",-0.00018532954373894262,10.384091519147937
71,Move,"(-0.014199999999999999, 0.0, 0.009000000000000001)","(0.0, 0.11193320091815233, 0.0)","(0.0023947379369589046, 0.16327271543739025, 0.04805484747597518)","(0.0016280665626596887, 0.002539064018983175, 0.08340826835325561)","[-0.00760408866176326, 0.003244972915460803, 0.0005042884617575474]","[-0.026750000193715096, 0.05299999937415123, 0.03999999910593033]","[0.0, -0.0, 0.5183718391002149]","[-0.062423594295978546, 0.11554114520549774, 0.03999999910593033]","[0.0, 0.0, -0.2894028970418891]","[0.026750000193715096, 0.05299999937415123, 0.03999999910593033]","[0.0, 0.0, -0.5349493743618594]","[0.06345541775226593, 0.11494120210409164, 0.03999999910593033]","[0.0, -0.0, 0.274064070504829]",0.5199689524241695,0.38329778634005507,"(0.0, 0.0, 0.0, 0.0, 0.0, 0.0)",0.03305312338787254,-0.8077709839390367,0.0008979877474439846,"(0.0, 0.0, 0.0, 0.0, 0.0, 0.0)",0.003316981026077003,-0.5335969448621951,0.3245883477830485,"(0.0, 0.0, 0.0, 0.0, 0.0, 0.0)",1.0877071154115778,0.808837288972762,-0.042276146746612085,"(0.0, 0.0, 0.0, 0.0, 0.0, 0.0)",0.659347102438485,True,"(-0.03023443853389437, 0.18258302801445564, 0.05600039715544526)","(0.9961541255893337, 0.08761735525550064, 0.0003963954860372449)",-0.000355188853211018,0.0,True,"(0.032384660440855126, 0.18118344772269593, 0.023999602844554734)","(-0.9961541255893336, -0.08761735525550253, -0.0003963954860429799)",-0.00017119763904108103,8.298013940484228
72,Move,"(-0.0155, 0.0, 0.0097)","(0.0, 0.09471203718872429, 0.0)","(0.002147763070469603, 0.16336662014794828, 0.04812956899359578)","(0.0019508916218037426, 0.0018815395593511682, 0.08240584002244775)","[-0.007851063528252562, 0.003338877626018838, 0.0005790099793781464]","[-0.026750000193715096, 0.05299999937415123, 0.03999999910593033]","[0.0, -0.0, 0.519968991518009]","[-0.06252343207597733, 0.1154840886592865, 0.03999999910593033]","[0.0, 0.0, -0.2878020534198918]","[0.026750000193715096, 0.05299999937415123, 0.03999999910593033]","[0.0, 0.0, -0.5335970375490785]","[0.06337161362171173, 0.11499078571796417, 0.03999999910593033]","[0.0, -0.0, 0.27524035909590266]",0.5219272285050374,0.4699862594082731,"(0.0, 0.0, 0.0, 0.0, 0.0, 0.0)",0.1258492356835491,-0.8077713581005981,-8.9798774744132e-05,"(0.0, 0.0, 0.0, 0.0, 0.0, 0.0)",0.008905360609540131,-0.5320347122822223,0.3749358191934722,"(0.0, 0.0, 0.0, 0.0, 0.0, 0.0)",0.9125729513183318,0.8087734725704414,-0.015315936556927374,"(0.0, 0.0, 0.0, 0.0, 0.0, 0.0)",0.47478671548537404,True,"(-0.030441638738451057, 0.18257741788829016, 0.05600039715544526)","(0.9961541255893337, 0.08761735525550064, 0.0003963954860372449)",-0.00029998470970983576,0.0,True,"(0.032222955134043135, 0.18119643897579982, 0.023999602844554734)","(-0.9961541255893336, -0.08761735525550253, -0.0003963954860429799)",-0.00015991699990918566,6.634384041681334
73,Move,"(-0.0171, 0.0, 0.0106)","(0.0, 0.06023654847408028, 0.0)","(0.001905237237579101, 0.16342267371516067, 0.04819835579017987)","(0.0020995214876741086, 0.001426119786293578, 0.08230314041305181)","[-0.008093589361143063, 0.0033949311932312265, 0.000647796775962238]","[-0.026750000193715096, 0.05299999937415123, 0.03999999910593033]","[0.0, -0.0, 0.5219272378754697]","[-0.06264572590589523, 0.11541391909122467, 0.03999999910593033]","[0.0, 0.0, -0.28584411117884184]","[0.026750000193715096, 0.05299999937415123, 0.03999999910593033]","[0.0, 0.0, -0.5320347369030515]","[0.06327472627162933, 0.11504791676998138, 0.03999999910593033]","[0.0, -0.0, 0.27673875845899565]",0.5240994181214026,0.52132550792766,"(0.0, 0.0, 0.0, 0.0, 0.0, 0.0)",0.07466769133756233,-0.8077713206844419,8.97987747361384e-06,"(0.0, 0.0, 0.0, 0.0, 0.0, 0.0)",0.005351474214574648,-0.5303434905705195,0.4058932108086764,"(0.0, 0.0, 0.0, 0.0, 0.0, 0.0)",0.6823057946923119,0.808741998218033,-0.00755384457801579,"(0.0, 0.0, 0.0, 0.0, 0.0, 0.0)",0.3577124175948358,True,"(-0.030695354728712057, 0.18256992823588453, 0.05600039715544526)","(0.9961541255893337, 0.08761735525550064, 0.0003963954860372449)",-0.00026685776603882494,0.0,True,"(0.032026897843102954, 0.18120682682361408, 0.023999602844554734)","(-0.9961541255893336, -0.08761735525550253, -0.0003963954860429799)",-0.00014818780152006292,5.041316723357558
74,Move,"(-0.0193, 0.0, 0.011)","(0.0, 0.03438473159354028, 0.0)","(0.001655419856279972, 0.1634520079496326, 0.04826164133187632)","(0.00218992844601539, 0.0010534544531781605, 0.08293660588027325)","[-0.008343406742442192, 0.0034242654277031603, 0.0007110823176586858]","[-0.026750000193715096, 0.05299999937415123, 0.03999999910593033]","[0.0, -0.0, 0.5240994128381433]","[-0.06278121471405029, 0.11533579975366592, 0.03999999910593033]","[0.0, 0.0, -0.2836719339208956]","[0.026750000193715096, 0.05299999937415123, 0.03999999910593033]","[0.0, 0.0, -0.530343490046558]","[0.06316974014043808, 0.11510960012674332, 0.03999999910593033]","[0.0, -0.0, 0.2783985221307956]",0.5265341067164605,0.5843252628139012,"(0.0, 0.0, 0.0, 0.0, 0.0, 0.0)",0.09159973191812583,-0.8077713244260575,-8.979877481607446e-07,"(0.0, 0.0, 0.0, 0.0, 0.0, 0.0)",0.00655238605582435,-0.5284657225948831,0.45066431415275565,"(0.0, 0.0, 0.0, 0.0, 0.0, 0.0)",0.8212989804177017,0.8087132251149035,-0.006905544751085432,"(0.0, 0.0, 0.0, 0.0, 0.0, 0.0)",0.4240809619851395,True,"(-0.03097679816750446, 0.18256105369229314, 0.05600039715544526)","(0.9961541255893337, 0.08761735525550064, 0.0003963954860372449)",-0.00022370547807986393,0.0,True,"(0.031812144888751545, 0.18121655486568528, 0.023999602844554734)","(-0.9961541255893336, -0.08761735525550253, -0.0003963954860429799)",-0.00013722876614665202,5.9854437680279045
75,Move,"(-0.0162, 0.0, 0.0137)","(0.0, 0.021678734639021566, 0.0)","(0.0013414910088453786, 0.16345129900093075, 0.048256872343031075)","(0.0020096482518245358, -0.0011042215292843614, 0.08427820220461311)","[-0.008657335589876785, 0.003423556479001305, 0.0007063133288134418]","[-0.026750000193715096, 0.05299999937415123, 0.03999999910593033]","[0.0, -0.0, 0.5265340815081098]","[-0.06293287128210068, 0.11524789035320282, 0.03999999910593033]","[0.0, 0.0, -0.28123721933658696]","[0.026750000193715096, 0.05299999937415123, 0.03999999910593033]","[0.0, 0.0, -0.5284658068334352]","[0.06305304169654846, 0.11517788469791412, 0.03999999910593033]","[0.0, -0.0, 0.2802475008775813]",0.529355702876382,0.6771830783811663,"(0.0, 0.0, 0.0, 0.0, 0.0, 0.0)",-0.006543654043890887,-0.8076606965005158,0.026550702130014085,"(0.0, 0.0, 0.0, 0.0, 0.0, 0.0)",-0.05749467880315443,-0.5262332633767625,0.5357902123489451,"(0.0, 0.0, 0.0, 0.0, 0.0, 0.0)",1.2330895372985824,0.8085495778905918,-0.039275333834817454,"(0.0, 0.0, 0.0, 0.0, 0.0, 0.0)",0.6178029318886104,True,"(-0.03129222589622499, 0.18255037864688745, 0.05600039715544526)","(0.9961541255893337, 0.08761735525550064, 0.0003963954860372449)",-0.0001722264348036602,1.1172317830379412,True,"(0.03157327558257475, 0.18122674014513232, 0.023999602844554734)","(-0.9961541255893336, -0.08761735525550253, -0.0003963954860429799)",-0.0001270933287350532,8.789623501011665
76,Move,"(-0.0181, 0.0, 0.0143)","(0.0, 0.013116149328737385, 0.0)","(0.001127015062867942, 0.1635110860962151, 0.04831561232285841)","(0.00010612023101127262, -0.0027547342481875205, 0.08558837327015131)","[-0.008871811535854222, 0.0034833435742856467, 0.0007650533086407743]","[-0.026750000193715096, 0.05299999937415123, 0.03999999910593033]","[0.0, -0.0, 0.5293557306408413]","[-0.06310836970806122, 0.11514554917812347, 0.03999999910593033]","[0.0, 0.0, -0.2783050060839703]","[0.026750000193715096, 0.05299999937415123, 0.03999999910593033]","[0.0, 0.0, -0.5262332848368945]","[0.06291414797306061, 0.11525876820087433, 0.03999999910593033]","[0.0, -0.0, 0.28231633528020905]",0.5313764837558432,0.4849874110706834,"(0.0, 0.0, 0.0, 0.0, 0.0, 0.0)",-0.4027213258906877,-0.8076536140054814,0.0016997988082515028,"(0.0, 0.0, 0.0, 0.0, 0.0, 0.0)",-0.08603419114924792,-0.5248212578410534,0.3388813285701734,"(0.0, 0.0, 0.0, 0.0, 0.0, 0.0)",-0.19345119741629102,0.808543194850414,-0.0015319296426573176,"(0.0, 0.0, 0.0, 0.0, 0.0, 0.0)",0.03286033560031229,True,"(-0.03166372619015086, 0.18252457631729233, 0.056001104981264115)","(0.9964500864130208, 0.0841784175593317, 0.0011042213048847915)",-0.0001630582146548492,0.9328830109331517,True,"(0.03119980800384159, 0.1823467646046974, 0.023998895018735894)","(-0.9964500864130204, -0.08417841755933747, -0.0011042213048847653)",-0.00012087332783592359,0.6931805936410489
77,Move,"(-0.0198, 0.0, 0.015300000000000001)","(0.0, 0.021678734639021566, 0.0)","(0.0008689969002670956, 0.16357316824415152, 0.04836929638622444)","(-0.0018255820306650264, -0.00445006918370165, 0.08745770818882267)","[-0.009129829698455069, 0.0035454257222220786, 0.0008187373720068072]","[-0.026750000193715096, 0.05299999937415123, 0.03999999910593033]","[0.0, -0.0, 0.5313764578181006]","[-0.0632338747382164, 0.11507194489240646, 0.03999999910593033]","[0.0, 0.0, -0.27627713751848865]","[0.026750000193715096, 0.05299999937415123, 0.03999999910593033]","[0.0, 0.0, -0.524821177158831]","[0.06282620131969452, 0.11530977487564087, 0.03999999910593033]","[0.0, -0.0, 0.2837219327298095]",0.5338069534364713,0.5833127233507438,"(0.0, 0.0, 0.0, 0.0, 0.0, 0.0)",0.1381126403669316,-0.8076282538435667,0.006086438859516997,"(0.0, 0.0, 0.0, 0.0, 0.0, 0.0)",0.00799933534639848,-0.5229751831309599,0.443057930422439,"(0.0, 0.0, 0.0, 0.0, 0.0, 0.0)",1.1334285800758634,0.8084745606401643,-0.016472210459926744,"(0.0, 0.0, 0.0, 0.0, 0.0, 0.0)",0.5645146312406818,True,"(-0.03192587599327235, 0.18251388872489857, 0.056002755490723345)","(0.9963357701220562, 0.08548359277490838, 0.0027547307641134517)",-0.00015082628192924173,0.04022108126614143,True,"(0.03101758822957304, 0.18235321722378572, 0.023997244509276667)","(-0.9963357701220562, -0.08548359277490855, -0.0027547307641088248)",-0.00011225035203387386,7.73958210825629
78,Move,"(-0.0218, 0.0, 0.0169)","(0.0, 0.03468318289563132, 0.0)","(0.0006049001234344632, 0.1636075723121319, 0.0484188242825796)","(-0.0016818424111616236, -0.004089113108679351, 0.08846151150535872)","[-0.009393926475287702, 0.0035798297902024656, 0.0008682652683619646]","[-0.026750000193715096, 0.05299999937415123, 0.03999999910593033]","[0.0, -0.0, 0.5338069338718278]","[-0.06338462978601456, 0.11498308926820755, 0.03999999910593033]","[0.0, 0.0, -0.27382129323635995]","[0.026750000193715096, 0.05299999937415123, 0.03999999910593033]","[0.0, 0.0, -0.5229752220939814]","[0.06271111220121384, 0.11537626385688782, 0.03999999910593033]","[0.0, -0.0, 0.28549937516577834]",0.5365554055246894,0.6596285011723388,"(0.0, 0.0, 0.0, 0.0, 0.0, 0.0)",0.11025619549245555,-0.8076307898597582,-0.0006086438859522758,"(0.0, 0.0, 0.0, 0.0, 0.0, 0.0)",0.0072431836896323125,-0.5207874738484933,0.5250502277919835,"(0.0, 0.0, 0.0, 0.0, 0.0, 0.0)",0.8715801812487556,0.8084215743114419,-0.012716718893373878,"(0.0, 0.0, 0.0, 0.0, 0.0, 0.0)",0.44232976394538137,True,"(-0.03224230693358559, 0.18250113142214042, 0.056004450814455396)","(0.9961681480246791, 0.08734539413193035, 0.004450054496173697)",-0.00013982113418127055,0.0,True,"(0.03078339700752268, 0.18236297557103182, 0.023995549185544602)","(-0.9961681480246787, -0.08734539413193523, -0.004450054496172826)",-0.0001044889184198659,5.9500416270557315
79,Move,"(-0.028100000000000003, 0.0, 0.0178)","(0.0, 0.025778513051956248, 0.0)","(0.0003076393868087159, 0.16361221118721136, 0.048464585187536144)","(-0.0017952990568245526, -0.003513566470992464, 0.09020566650166607)","[-0.009691187211913449, 0.00358446866528192, 0.0009140261733185107]","[-0.026750000193715096, 0.05299999937415123, 0.03999999910593033]","[0.0, -0.0, 0.5365554538577885]","[-0.06355485320091248, 0.11488217115402222, 0.03999999910593033]","[0.0, 0.0, -0.27107534933304156]","[0.026750000193715096, 0.05299999937415123, 0.03999999910593033]","[0.0, 0.0, -0.520787482725949]","[0.06257456541061401, 0.1154547929763794, 0.03999999910593033]","[0.0, -0.0, 0.28763411523481286]",0.5396692303155725,0.7473179498119257,"(0.0, 0.0, 0.0, 0.0, 0.0, 0.0)",0.1275555416835771,-0.8076305362581391,6.086438859576049e-05,"(0.0, 0.0, 0.0, 0.0, 0.0, 0.0)",0.009191017220072527,-0.5181941665257913,0.622393757448477,"(0.0, 0.0, 0.0, 0.0, 0.0, 0.0)",1.1094670792095802,0.8083793653912846,-0.010130140837737917,"(0.0, 0.0, 0.0, 0.0, 0.0, 0.0)",0.5713816504214646,True,"(-0.032597884998956134, 0.18248373345466118, 0.05600408986167234)","(0.9960815036672027, 0.08834544300225226, 0.004089101713112622)",-6.29597059870575e-05,0.0,True,"(0.030503822630553, 0.18237431558674194, 0.023995910138327654)","(-0.9960815036672025, -0.08834544300225287, -0.004089101713123092)",-9.714793868602611e-05,7.665666126989973
80,Move,"(-0.0296, 0.0, 0.0167)","(0.0, 0.008583529261308114, 0.0)","(-0.00011727510664039575, 0.16356066864223207, 0.04850687377232038)","(-0.0024954042348527715, -0.0023841727739162956, 0.09376426337432207)","[-0.01011610170536256, 0.0035329261203026208, 0.000956314758102747]","[-0.026750000193715096, 0.05299999937415123, 0.03999999910593033]","[0.0, -0.0, 0.5396692458272492]","[-0.0637473613023758, 0.11476726830005646, 0.03999999910593033]","[0.0, 0.0, -0.26796127712564094]","[0.026750000193715096, 0.05299999937415123, 0.03999999910593033]","[0.0, 0.0, -0.5181941826879428]","[0.062412478029727936, 0.11554748564958572, 0.03999999910593033]","[0.0, -0.0, 0.29018520066819553]",0.5440342145153243,1.0475962079404395,"(0.0, 0.0, 0.0, 0.0, 0.0, 0.0)",0.4361365060523088,-0.807630561618301,-6.086438859576049e-06,"(0.0, 0.0, 0.0, 0.0, 0.0, 0.0)",0.031186029622809617,-0.5142601780258346,0.9441572399896101,"(0.0, 0.0, 0.0, 0.0, 0.0, 0.0)",1.951001933114885,0.8083842202340824,0.0011651622714589048,"(0.0, 0.0, 0.0, 0.0, 0.0, 0.0)",0.9281355928766937,True,"(-0.033000936304908725, 0.1824635402014973, 0.056003514319200975)","(0.9959280794695179, 0.09008282536428742, 0.0035135592417526655)",1.1276269070794612e-05,0.0,True,"(0.030171048938861314, 0.18238577971653813, 0.02399648568079903)","(-0.9959280794695174, -0.09008282536429141, -0.0035135592417443215)",-8.998599611487141e-05,11.844564855003116
81,Move,"(-0.0313, 0.0, 0.016800000000000002)","(0.0, -0.0, 0.0)","(-0.0005648445850179265, 0.1634921353081557, 0.04854541958350397)","(-0.002795613180586177, -0.0016893102902347614, 0.09755926977934852)","[-0.010563671183740091, 0.0034643927862262613, 0.0009948605692863335]","[-0.026750000193715096, 0.05299999937415123, 0.03999999910593033]","[0.0, -0.0, 0.5440341606806639]","[-0.06401662528514862, 0.11460518836975098, 0.03999999910593033]","[0.0, 0.0, -0.26359636651085966]","[0.026750000193715096, 0.05299999937415123, 0.03999999910593033]","[0.0, 0.0, -0.5142602113005096]","[0.06216614320874214, 0.115687295794487, 0.03999999910593033]","[0.0, -0.0, 0.29412403539838555]",0.5484914766455017,1.0697429112425807,"(0.0, 0.0, 0.0, 0.0, 0.0, 0.0)",0.03246045117112818,-0.8076305590822849,6.086438872898725e-07,"(0.0, 0.0, 0.0, 0.0, 0.0, 0.0)",0.0023367444730284922,-0.5102110498271728,0.9717907676788217,"(0.0, 0.0, 0.0, 0.0, 0.0, 0.0)",0.8961626037953488,0.8083393136246823,-0.010777586256044344,"(0.0, 0.0, 0.0, 0.0, 0.0, 0.0)",0.5035954365255958,True,"(-0.033565900411729854, 0.18243421846700808, 0.056002384930474415)","(0.9956045214692545, 0.09362666586465164, 0.0023841705151964663)",7.966437500998985e-05,0.0,True,"(0.02966165875019025, 0.1823984572980284, 0.023997615069525573)","(-0.9956045214692543, -0.09362666586465414, -0.002384170515198228)",-8.367381129327447e-05,5.820148242426742
82,Move,"(-0.033, 0.0, 0.0158)","(0.0, 0.01321039710834508, 0.0)","(-0.0010443912633597658, 0.16342003279750864, 0.048561641380756124)","(-0.002565820075939869, -0.0009160437704455083, 0.10198019680160174)","[-0.011043217862081931, 0.0033922902755791906, 0.0010110823665384905]","[-0.026750000193715096, 0.05299999937415123, 0.03999999910593033]","[0.0, -0.0, 0.5484914665707601]","[-0.0642908439040184, 0.11443846672773361, 0.03999999910593033]","[0.0, 0.0, -0.25913908193060853]","[0.026750000193715096, 0.05299999937415123, 0.03999999910593033]","[0.0, 0.0, -0.510211081246041]","[0.06191202253103256, 0.1158301830291748, 0.03999999910593033]","[0.0, -0.0, 0.29812824364991036]",0.5531515542009288,1.1184186133024907,"(0.0, 0.0, 0.0, 0.0, 0.0, 0.0)",0.0709813730050155,-0.8076305593358865,-6.08643881960802e-08,"(0.0, 0.0, 0.0, 0.0, 0.0, 0.0)",0.005091017563885811,-0.5058807289076509,1.0392770206852473,"(0.0, 0.0, 0.0, 0.0, 0.0, 0.0)",0.826148363114067,0.8082574939673849,-0.01963671775136375,"(0.0, 0.0, 0.0, 0.0, 0.0, 0.0)",0.4455110890693987,True,"(-0.03414268707426366, 0.18240189369657078, 0.05600169006944598)","(0.9952434476738443, 0.09740444597521243, 0.0016893094867484243)",0.000126637140785506,0.0,True,"(0.029140653432164126, 0.18241086597154496, 0.023998309930554025)","(-0.9952434476738439, -0.09740444597521555, -0.0016893094867484117)",-7.149702074277669e-05,0.0
83,Move,"(-0.0344, 0.0, 0.0156)","(0.0, 0.021800907686661174, 0.0)","(-0.001569911000375867, 0.16333696193783828, 0.048513491597412896)","(3.881212533626066e-05, -0.0005284422652612316, 0.10623038854752212)","[-0.01156873759909803, 0.0033092194159088373, 0.0009629325831952626]","[-0.026750000193715096, 0.05299999937415123, 0.03999999910593033]","[0.0, -0.0, 0.5531515998180244]","[-0.06457673758268356, 0.11426285654306412, 0.03999999910593033]","[0.0, 0.0, -0.2544789982924091]","[0.026750000193715096, 0.05299999937415123, 0.03999999910593033]","[0.0, 0.0, -0.5058807365492914]","[0.06163961812853813, 0.11598186194896698, 0.03999999910593033]","[0.0, -0.0, 0.3023767700985134]",0.5580524494426357,1.1762148580096514,"(0.0, 0.0, 0.0, 0.0, 0.0, 0.0)",0.08423943294075406,-0.8076305593105263,6.086438020220337e-09,"(0.0, 0.0, 0.0, 0.0, 0.0, 0.0)",0.006040536775812929,-0.5012122155384193,1.1204432086155764,"(0.0, 0.0, 0.0, 0.0, 0.0, 0.0)",0.7899586248499915,0.8082323032697368,-0.006045767435536739,"(0.0, 0.0, 0.0, 0.0, 0.0, 0.0)",0.3868895021176854,True,"(-0.034745602087185926, 0.18236580045250114, 0.05600091680360155)","(0.9948041074124082, 0.1018034809790284, 0.000916043642328779)",0.0001535430584167161,0.0,True,"(0.028585694782753905, 0.18242253795289579, 0.023999083196398444)","(-0.994804107412408, -0.10180348097902832, -0.0009160436423324771)",-4.884799731112455e-05,0.5910789682145128
84,Move,"(-0.0358, 0.0, 0.0146)","(0.0, 0.026502824691533897, 0.0)","(-0.0020937269097202524, 0.1632910126763577, 0.04851758272862533)","(4.0714938358155586e-05, 0.000633186226167121, 0.11295096459473052)","[-0.012092553508442417, 0.0032632701544282605, 0.0009670237144076971]","[-0.026750000193715096, 0.05299999937415123, 0.03999999910593033]","[0.0, -0.0, 0.5580524458841295]","[-0.06487652659416199, 0.11407673358917236, 0.03999999910593033]","[0.0, 0.0, -0.249578124997152]","[0.026750000193715096, 0.05299999937415123, 0.03999999910593033]","[0.0, 0.0, -0.5012122398117632]","[0.06134520843625069, 0.11614405363798141, 0.03999999910593033]","[0.0, -0.0, 0.307020095423941]",0.5631051245112444,1.2126420164660863,"(0.0, 0.0, 0.0, 0.0, 0.0, 0.0)",0.0532369802565466,-0.8076305593130623,-6.086438020247442e-10,"(0.0, 0.0, 0.0, 0.0, 0.0, 0.0)",0.0038256054616039948,-0.4962974384227948,1.1795465077498866,"(0.0, 0.0, 0.0, 0.0, 0.0, 0.0)",0.7212328459931909,0.808208089607394,-0.005811278962270852,"(0.0, 0.0, 0.0, 0.0, 0.0, 0.0)",0.3839560663347333,True,"(-0.035379442281296664, 0.1823244144180619, 0.05600052920219988)","(0.9943627176431264, 0.10603068664388733, 0.0005284422406619096)",0.00016472821986837215,0.0,True,"(0.027983093877428374, 0.18243092881840176, 0.023999470797800113)","(-0.9943627176431271, -0.10603068664388267, -0.0005284422406659291)",-3.900167600762524e-05,0.0
85,Move,"(-0.0439, 0.0, 0.0166)","(0.0, 0.039882518737322424, 0.0)","(-0.0026303083790491437, 0.16324782703064272, 0.048483613501607806)","(-0.0023156315398887677, 0.000589862682073927, 0.12083976256359581)","[-0.012629134977771309, 0.003220084508713278, 0.0009330544873901725]","[-0.026750000193715096, 0.05299999937415123, 0.03999999910593033]","[0.0, -0.0, 0.5631051440720723]","[-0.06518463790416718, 0.11388331651687622, 0.03999999910593033]","[0.0, 0.0, -0.2445254477174347]","[0.026750000193715096, 0.05299999937415123, 0.03999999910593033]","[0.0, 0.0, -0.49629744337270143]","[0.06103445217013359, 0.11631331592798233, 0.03999999910593033]","[0.0, -0.0, 0.3119106811015746]",0.5682994269277177,1.246632579953612,"(0.0, 0.0, 0.0, 0.0, 0.0, 0.0)",0.04971272970819955,-0.8076305593128087,6.086331438837078e-11,"(0.0, 0.0, 0.0, 0.0, 0.0, 0.0)",0.0035748112046915985,-0.4911470334932232,1.2360971830971792,"(0.0, 0.0, 0.0, 0.0, 0.0, 0.0)",0.515998291295996,0.8081887887491304,-0.004632205983282573,"(0.0, 0.0, 0.0, 0.0, 0.0, 0.0)",0.2595961175894854,True,"(-0.036032763592759906, 0.18227916204369304, 0.05600052920219988)","(0.9943627176431264, 0.10603068664388733, 0.0005284422406619096)",0.000151901208272952,0.0,True,"(0.027348558446926192, 0.18243624165272793, 0.023999470797800113)","(-0.9943627176431271, -0.10603068664388267, -0.0005284422406659291)",-7.89814230298367e-06,2.426021113641732
86,Move,"(-0.0451, 0.0, 0.0159)","(0.0, 0.04850444524217441, 0.0)","(-0.003391010559607565, 0.16312105561316603, 0.04852385676295204)","(-0.00273598233832536, -5.1388712717250225e-05, 0.1290209900234371)","[-0.01338983715832973, 0.003093313091236588, 0.0009732977487344058]","[-0.026750000193715096, 0.05299999937415123, 0.03999999910593033]","[0.0, -0.0, 0.5682994449305384]","[-0.06550037115812302, 0.11368285864591599, 0.03999999910593033]","[0.0, 0.0, -0.23933112157224942]","[0.026750000193715096, 0.05299999937415123, 0.03999999910593033]","[0.0, 0.0, -0.49114701777688924]","[0.06070791184902191, 0.11648906022310257, 0.03999999910593033]","[0.0, -0.0, 0.31704175705410104]",0.5750385314798151,1.617385092503367,"(0.0, 0.0, 0.0, 0.0, 0.0, 0.0)",0.5386259910301862,-0.807630559312834,-6.085798531785258e-12,"(0.0, 0.0, 0.0, 0.0, 0.0, 0.0)",0.03853442040141783,-0.4841250400730167,1.6852784208495593,"(0.0, 0.0, 0.0, 0.0, 0.0, 0.0)",3.4489276593936817,0.8080095049753003,-0.043028105719207926,"(0.0, 0.0, 0.0, 0.0, 0.0, 0.0)",1.663666087256301,True,"(-0.03670415040910974, 0.18222920075692478, 0.05600052920219988)","(0.9943627176431264, 0.10603068664388733, 0.0005284422406619096)",0.00011143506316142652,0.0,True,"(0.02668317726828761, 0.18243826442380853, 0.023999470797800113)","(-0.9943627176431271, -0.10603068664388267, -0.0005284422406659291)",-5.3318613987358206e-06,22.118311542484296
87,Move,"(-0.045700000000000005, 0.0, 0.0151)","(0.0, 0.057108918454506455, 0.0)","(-0.004160777032428554, 0.16299274028100275, 0.048560045023630635)","(-0.0025201184593364474, -5.501722538022215e-05, 0.13492161494117796)","[-0.014159603631150718, 0.002964997759073301, 0.001009486009413002]","[-0.026750000193715096, 0.05299999937415123, 0.03999999910593033]","[0.0, -0.0, 0.5750384731146517]","[-0.06590843200683594, 0.11342033743858337, 0.03999999910593033]","[0.0, 0.0, -0.23259204134147518]","[0.026750000193715096, 0.05299999937415123, 0.03999999910593033]","[0.0, 0.0, -0.4841250307280524]","[0.060261256992816925, 0.11672594398260117, 0.03999999910593033]","[0.0, -0.0, 0.32388447493546874]",0.5817499886709492,1.6107497258721823,"(0.0, 0.0, 0.0, 0.0, 0.0, 0.0)",-0.6623542076017848,-0.8073376766339169,0.07029184294011231,"(0.0, 0.0, 0.0, 0.0, 0.0, 0.0)",-0.2830831509190659,-0.47705152939447715,1.6976425628495007,"(0.0, 0.0, 0.0, 0.0, 0.0, 0.0)",1.5426529253144938,0.8074825304991262,-0.12647387428178822,"(0.0, 0.0, 0.0, 0.0, 0.0, 0.0)",0.8619895724805998,True,"(-0.03757480687657257, 0.1821591847091233, 0.05600052920219988)","(0.9943627176431264, 0.10603068664388733, 0.0005284422406619096)",3.080819967275662e-05,0.0,True,"(0.02582159666844991, 0.18216880934278062, 0.02399993625407696)","(-0.9916883255773989, -0.12866336287484276, -6.298596381585011e-05)",-1.771120993911628e-05,12.099986754306748
88,Move,"(-0.047, 0.0, 0.0151)","(0.0, 0.052286573731246115, 0.0)","(-0.004977869421650006, 0.16289546945813, 0.04852648281788012)","(-0.0007278274872248993, 0.0005678584545478118, 0.13784140043136292)","[-0.01497669602037217, 0.0028677269362005486, 0.0009759238036624873]","[-0.026750000193715096, 0.05299999937415123, 0.03999999910593033]","[0.0, -0.0, 0.5817499851261094]","[-0.06631305813789368, 0.11315616965293884, 0.03999999910593033]","[0.0, 0.0, -0.22558770634326475]","[0.026750000193715096, 0.05299999937415123, 0.03999999910593033]","[0.0, 0.0, -0.4770514778116872]","[0.05980965495109558, 0.11696138978004456, 0.03999999910593033]","[0.0, -0.0, 0.3304310222185004]",0.5883710636061183,1.5890579844406059,"(0.0, 0.0, 0.0, 0.0, 0.0, 0.0)",-1.3310335678482283,-0.8068123607106605,0.12607582158152858,"(0.0, 0.0, 0.0, 0.0, 0.0, 0.0)",-0.5745589350167278,-0.4699464388614623,1.705221727923554,"(0.0, 0.0, 0.0, 0.0, 0.0, 0.0)",1.8847206296967345,0.8067950494053966,-0.16499546249510838,"(0.0, 0.0, 0.0, 0.0, 0.0, 0.0)",1.0113878284446398,True,"(-0.038462212998120034, 0.18209644587458756, 0.056000055777184574)","(0.9909118765301321, 0.1345126385312443, 5.501722535170426e-05)",-1.739898926811665e-05,6.875869911311333,True,"(0.02490568560048806, 0.18244389800724942, 0.023999944222815425)","(-0.9909118765301322, -0.13451263853124237, -5.501722534955853e-05)",-1.9621744523561984e-05,9.625939927747867
89,Move,"(-0.0479, 0.0, 0.014199999999999999)","(0.0, 0.05603030497677396, 0.0)","(-0.005864954698963643, 0.16280389979467322, 0.04845695575911891)","(0.0028601969735748047, 0.000496934344407603, 0.13824010802586048)","[-0.015863781297685807, 0.0027761572727437733, 0.0009063967449012764]","[-0.026750000193715096, 0.05299999937415123, 0.03999999910593033]","[0.0, -0.0, 0.5883710627643332]","[-0.06671048700809479, 0.11289290338754654, 0.03999999910593033]","[0.0, 0.0, -0.2184413186284534]","[0.026750000193715096, 0.05299999937415123, 0.03999999910593033]","[0.0, 0.0, -0.46994644688833304]","[0.059354376047849655, 0.11719466000795364, 0.03999999910593033]","[0.0, -0.0, 0.3368485964287412]",0.5950390526940963,1.6003173811146958,"(0.0, 0.0, 0.0, 0.0, 0.0, 0.0)",-0.9924800306315544,-0.80636482091053,0.10740955203133884,"(0.0, 0.0, 0.0, 0.0, 0.0, 0.0)",-0.44820368799460253,-0.46263610306021286,1.7544805922998683,"(0.0, 0.0, 0.0, 0.0, 0.0, 0.0)",1.9434275980843096,0.8062093802977548,-0.1405605858340231,"(0.0, 0.0, 0.0, 0.0, 0.0, 0.0)",1.0197550054639477,True,"(-0.039353022550972616, 0.18203045015518976, 0.056000055777184574)","(0.9909118765301321, 0.1345126385312443, 5.501722535170426e-05)",-1.2463351295600584e-05,7.668184533574091,True,"(0.024030883991773735, 0.18245182644794028, 0.023999944222815425)","(-0.9909118765301322, -0.13451263853124237, -5.501722534955853e-05)",-2.242522648328932e-06,12.468983263584981
90,Move,"(-0.04870000000000001, 0.0, 0.0132)","(0.0, 0.05973912963726191, 0.0)","(-0.006738642269148739, 0.16276338474521893, 0.048480806560513436)","(0.0025997388577749607, -0.000143896670705471, 0.13930027947523213)","[-0.016737468867870905, 0.0027356422232894806, 0.0009302475462958024]","[-0.026750000193715096, 0.05299999937415123, 0.03999999910593033]","[0.0, -0.0, 0.5950390846783988]","[-0.06710895895957947, 0.1126251146197319, 0.03999999910593033]","[0.0, 0.0, -0.2113257749192964]","[0.026750000193715096, 0.05299999937415123, 0.03999999910593033]","[0.0, 0.0, -0.46263610171917213]","[0.05888422206044197, 0.11743129789829254, 0.03999999910593033]","[0.0, -0.0, 0.3435732965183857]",0.6016760705129772,1.592884276531411,"(0.0, 0.0, 0.0, 0.0, 0.0, 0.0)",-2.0738316360982094,-0.8058569408804728,0.12189120721372548,"(0.0, 0.0, 0.0, 0.0, 0.0, 0.0)",-0.9464400959175507,-0.4552747564470609,1.7667231871564744,"(0.0, 0.0, 0.0, 0.0, 0.0, 0.0)",3.135501565077832,0.8052914790601662,-0.22029629702127368,"(0.0, 0.0, 0.0, 0.0, 0.0, 0.0)",1.6307847324139586,True,"(-0.040244135080348534, 0.18195557551134717, 0.056000055777184574)","(0.9909118765301321, 0.1345126385312443, 5.501722535170426e-05)",-2.04608559684881e-05,16.015622309668856,True,"(0.02312270174199861, 0.18244944553888914, 0.023999944222815425)","(-0.9909118765301322, -0.13451263853124237, -5.501722534955853e-05)",-6.444536620272874e-06,24.138589461629344
91,Move,"(-0.049600000000000005, 0.0, 0.012400000000000001)","(0.0, 0.05973912963726191, 0.0)","(-0.007615677644568266, 0.16273628828027645, 0.048501776191588415)","(0.001514214657347405, 4.2024582053820976e-05, 0.14089165975064036)","[-0.017614504243290433, 0.002708545758347003, 0.000951217177370782]","[-0.026750000193715096, 0.05299999937415123, 0.03999999910593033]","[0.0, -0.0, 0.6016761245762103]","[-0.06750380247831345, 0.11235594004392624, 0.03999999910593033]","[0.0, 0.0, -0.2041808783892828]","[0.026750000193715096, 0.05299999937415123, 0.03999999910593033]","[0.0, 0.0, -0.45527478586898]","[0.05840905383229256, 0.117666095495224, 0.03999999910593033]","[0.0, -0.0, 0.3500167142607495]",0.6082715923848373,1.5829252492464265,"(0.0, 0.0, 0.0, 0.0, 0.0, 0.0)",-1.7951904088194397,-0.8050533572186095,0.19286007884718803,"(0.0, 0.0, 0.0, 0.0, 0.0, 0.0)",-0.8871102053869946,-0.44788556466242896,1.7734060283116608,"(0.0, 0.0, 0.0, 0.0, 0.0, 0.0)",2.1584863807378345,0.8045043502304006,-0.18891091914373923,"(0.0, 0.0, 0.0, 0.0, 0.0, 0.0)",1.12463265726455,True,"(-0.04113250897107207, 0.18185973399694383, 0.056000144656629426)","(0.9903133847240074, 0.13885020464597284, 0.00014389667020717924)",-2.8907557823379254e-05,13.037384115393118,True,"(0.022227112717411214, 0.18246751641372821, 0.023999855343370565)","(-0.9903133847240081, -0.1388502046459667, -0.00014389667020836712)",-1.9425246837797233e-05,15.18904540394454
92,Move,"(-0.0506, 0.0, 0.0123)","(0.0, 0.0730402838667107, 0.0)","(-0.008489987250764787, 0.16270569565699494, 0.0485195662068737)","(0.00011515379559868815, 0.0005769131937052942, 0.14247904044539117)","[-0.018488813849486953, 0.0026779531350654973, 0.0009690071926560656]","[-0.026750000193715096, 0.05299999937415123, 0.03999999910593033]","[0.0, -0.0, 0.608271623851093]","[-0.06789439171552658, 0.11208585649728775, 0.03999999910593033]","[0.0, 0.0, -0.19678178737471216]","[0.026750000193715096, 0.05299999937415123, 0.03999999910593033]","[0.0, 0.0, -0.4478856131472654]","[0.057930365204811096, 0.11789826303720474, 0.03999999910593033]","[0.0, -0.0, 0.3566187906960466]",0.6148484612972955,1.5784485389899885,"(0.0, 0.0, 0.0, 0.0, 0.0, 0.0)",-2.063645883229418,-0.8041419047693311,0.2187485878267974,"(0.0, 0.0, 0.0, 0.0, 0.0, 0.0)",-1.053032244017625,-0.4404525538841761,1.783922586780692,"(0.0, 0.0, 0.0, 0.0, 0.0, 0.0)",2.3560882606190576,0.8035611776001512,-0.2263614312598305,"(0.0, 0.0, 0.0, 0.0, 0.0, 0.0)",1.2362882622314328,True,"(-0.04203808620415611, 0.18178287199231646, 0.056000144656629426)","(0.9903133847240074, 0.13885020464597284, 0.00014389667020717924)",-3.0002716954850745e-05,13.554500226237058,True,"(0.021321391171449808, 0.182459397755077, 0.023999855343370565)","(-0.9903133847240081, -0.1388502046459667, -0.00014389667020836712)",-1.5995319680357874e-05,15.29411725558464
