OSUrobotics/InHand-Manipulation/AnalyseData/Data/Trial Data/Better/new_hand_human_sub1_2v2_h_n_1_kpNone_kdNone_dp5_step5_save_data.csv
,Phase,human_cube_pos,human_cube_orn,Cube_Pos,Cube_Orn,Cube_pos_in_start_pos,b'l_prox_pin'_link_pos,b'l_prox_pin'_link_orn,b'l_distal_pin'_link_pos,b'l_distal_pin'_link_orn,b'r_prox_pin'_link_pos,b'r_prox_pin'_link_orn,b'r_distal_pin'_link_pos,b'r_distal_pin'_link_orn,b'l_prox_pin'_joint_angle,b'l_prox_pin'_joint_vel,b'l_prox_pin'_joint_react_forces,b'l_prox_pin'_joint_motor_torque,b'l_distal_pin'_joint_angle,b'l_distal_pin'_joint_vel,b'l_distal_pin'_joint_react_forces,b'l_distal_pin'_joint_motor_torque,b'r_prox_pin'_joint_angle,b'r_prox_pin'_joint_vel,b'r_prox_pin'_joint_react_forces,b'r_prox_pin'_joint_motor_torque,b'r_distal_pin'_joint_angle,b'r_distal_pin'_joint_vel,b'r_distal_pin'_joint_react_forces,b'r_distal_pin'_joint_motor_torque,in_contact_l,contact_point_l_dist,contact_normal_l_dist,contact_distance_l_dist,contact_norm_force_l_dist,in_contact_r,contact_point_r_dist,contact_normal_r_dist,contact_distance_r_dist,contact_norm_force_r_dist
0,Open,,,,,,"[-0.026750000193715096, 0.05299999937415123, 0.03999999910593033]","[0.0, -0.0, 0.4254700097131474]","[-0.056467924267053604, 0.11858082562685013, 0.03999999910593033]","[0.0, -0.0, 0.4254700097131474]","[0.026750000193715096, 0.05299999937415123, 0.03999999910593033]","[0.0, 0.0, -0.4429245237535421]","[0.057608019560575485, 0.1180521547794342, 0.03999999910593033]","[0.0, 0.0, -0.5266622746639338]",0.5399229999999999,27.46872,"(0.0, 0.0, 0.0, 0.0, 0.0, 0.0)",-4.377393708535371,5.294901130302062e-32,0.0,"(0.0, 0.0, 0.0, 0.0, 0.0, 0.0)",-0.30017707799641646,-0.5623038734984663,-28.651050680519948,"(0.0, 0.0, 0.0, 0.0, 0.0, 0.0)",144.45470973647488,-0.10456727132876567,-4.999096204557077,"(0.0, 0.0, 0.0, 0.0, 0.0, 0.0)",33.97911746732963,False,,,,,False,,,,
1,Open,,,,,,"[-0.026750000193715096, 0.05299999937415123, 0.03999999910593033]","[0.0, -0.0, 0.894166469119967]","[-0.08288749307394028, 0.09808415919542313, 0.03999999910593033]","[0.0, -0.0, 0.894166894674561]","[0.026750000193715096, 0.05299999937415123, 0.03999999910593033]","[0.0, 0.0, -0.9122733503889549]","[0.08369457721710205, 0.09706035256385803, 0.03999999910593033]","[0.0, 0.0, -0.9997066729229968]",0.96174983227,16.220004472800003,"(0.0, 0.0, 0.0, 0.0, 0.0, 0.0)",-2.5959652512206968,5.681494863714967e-07,3.553320838026869e-05,"(0.0, 0.0, 0.0, 0.0, 0.0, 0.0)",-0.18114955764248034,-0.9780460127037736,-15.785439661232708,"(0.0, 0.0, 0.0, 0.0, 0.0, 0.0)",2.503992476159733,-0.0786900142246732,2.098357403184359,"(0.0, 0.0, 0.0, 0.0, 0.0, 0.0)",0.15360133560797545,False,,,,,False,,,,
2,Open,,,,,,"[-0.026750000193715096, 0.05299999937415123, 0.03999999910593033]","[0.0, -0.0, 1.170927100750299]","[-0.09307006001472473, 0.08102945238351822, 0.03999999910593033]","[0.0, -0.0, 1.1709279927689973]","[0.026750000193715096, 0.05299999937415123, 0.03999999910593033]","[0.0, 0.0, -1.181618964677462]","[0.09336595237255096, 0.08031877130270004, 0.03999999910593033]","[0.0, 0.0, -1.233247876832181]",1.2108343584571122,9.577750441143678,"(0.0, 0.0, 0.0, 0.0, 0.0, 0.0)",-1.5367816122769582,9.012180617793662e-07,6.275974057005224e-06,"(0.0, 0.0, 0.0, 0.0, 0.0, 0.0)",-0.1083256720668905,-1.2204570900414513,-9.3211442655613,"(0.0, 0.0, 0.0, 0.0, 0.0, 0.0)",1.4819475463743526,-0.046466145575958295,1.239071567699341,"(0.0, 0.0, 0.0, 0.0, 0.0, 0.0)",0.09166748660725833,False,,,,,False,,,,
3,Open,,,,,,"[-0.026750000193715096, 0.05299999937415123, 0.03999999910593033]","[0.0, -0.0, 1.334351465706577]","[-0.09674673527479172, 0.06986585259437561, 0.03999999910593033]","[0.0, -0.0, 1.33435435145599]","[0.026750000193715096, 0.05299999937415123, 0.03999999910593033]","[0.0, 0.0, -1.3406650641721125]","[0.09685182571411133, 0.06942359358072281, 0.03999999910593033]","[0.0, 0.0, -1.3711530696282732]",1.3579162851496,5.655565729344001,"(0.0, 0.0, 0.0, 0.0, 0.0, 0.0)",-0.9088150211252332,3.4316066113876724e-06,0.0001607445165674468,"(0.0, 0.0, 0.0, 0.0, 0.0, 0.0)",-0.06444344013525093,-1.3635984108023202,-5.504042378604797,"(0.0, 0.0, 0.0, 0.0, 0.0, 0.0)",0.8762522980402716,-0.02744024570882781,0.7315266716392431,"(0.0, 0.0, 0.0, 0.0, 0.0, 0.0)",0.05446985052483407,False,,,,,False,,,,
4,Open,,,,,,"[-0.026750000193715096, 0.05299999937415123, 0.03999999910593033]","[0.0, -0.0, 1.4308518944899675]","[-0.09804610908031464, 0.06304314732551575, 0.03999999910593033]","[0.0, -0.0, 1.4308566269594332]","[0.026750000193715096, 0.05299999937415123, 0.03999999910593033]","[0.0, 0.0, -1.4345798203875788]","[0.09808305650949478, 0.06277728080749512, 0.03999999910593033]","[0.0, 0.0, -1.4525855975984745]",1.4447666872179874,3.339555007520341,"(0.0, 0.0, 0.0, 0.0, 0.0, 0.0)",-0.5371183361845069,4.8269553674989e-06,2.0878160072459843e-05,"(0.0, 0.0, 0.0, 0.0, 0.0, 0.0)",-0.03821759960562203,-1.448121925594662,-3.2500819841423465,"(0.0, 0.0, 0.0, 0.0, 0.0, 0.0)",0.5178266556878065,-0.016205556838873442,0.4320218239148067,"(0.0, 0.0, 0.0, 0.0, 0.0, 0.0)",0.0322808466635012,False,,,,,False,,,,
5,Open,,,,,,"[-0.026750000193715096, 0.05299999937415123, 0.03999999910593033]","[0.0, -0.0, 1.487834617901085]","[-0.09850236773490906, 0.05896640568971634, 0.03999999910593033]","[0.0, -0.0, 1.4878390921106803]","[0.026750000193715096, 0.05299999937415123, 0.03999999910593033]","[0.0, 0.0, -1.4900358577435544]","[0.09851532429456711, 0.05880843847990036, 0.03999999910593033]","[0.0, 0.0, -1.5006695807985118]",1.4960509811353493,1.9719738363906854,"(0.0, 0.0, 0.0, 0.0, 0.0, 0.0)",-0.3173274216127963,4.509251873886308e-06,-3.168767150011037e-05,"(0.0, 0.0, 0.0, 0.0, 0.0, 0.0)",-0.022624215793833224,-1.498032215844392,-1.9191409108162163,"(0.0, 0.0, 0.0, 0.0, 0.0, 0.0)",0.30591369390909257,-0.00957062017308593,0.2551417656412126,"(0.0, 0.0, 0.0, 0.0, 0.0, 0.0)",0.019102112305110365,False,,,,,False,,,,
6,Open,,,,,,"[-0.026750000193715096, 0.05299999937415123, 0.03999999910593033]","[0.0, -0.0, 1.5214821319654974]","[-0.09866246581077576, 0.05654918774962425, 0.03999999910593033]","[0.0, -0.0, 1.5214858439169519]","[0.026750000193715096, 0.05299999937415123, 0.03999999910593033]","[0.0, 0.0, -1.5227821585534602]","[0.09866702556610107, 0.05645570904016495, 0.03999999910593033]","[0.0, 0.0, -1.529061933448946]",1.5263338438506127,1.164430830650334,"(0.0, 0.0, 0.0, 0.0, 0.0, 0.0)",-0.18743587261192823,3.6440993970645793e-06,-4.480530101024996e-05,"(0.0, 0.0, 0.0, 0.0, 0.0, 0.0)",-0.013379159967550349,-1.527503743133955,-1.1332335164278682,"(0.0, 0.0, 0.0, 0.0, 0.0, 0.0)",0.18068846528573543,-0.005652184024362593,0.1506807000213291,"(0.0, 0.0, 0.0, 0.0, 0.0, 0.0)",0.011293655891939093,False,,,,,False,,,,
7,Close,,,"(0.010000824637423049, 0.16001319418745247, 0.017848014970055004)","(-0.00026934863811186216, 1.6834304115272585e-05, -2.2671484573282825e-09)",,"[-0.026750000193715096, 0.05299999937415123, 0.03999999910593033]","[0.0, -0.0, 1.2784808254221978]","[-0.09569569677114487, 0.07374827563762665, 0.03999999910593033]","[0.0, -0.0, 1.034582661993943]","[0.026750000193715096, 0.05299999937415123, 0.03999999910593033]","[0.0, 0.0, -1.2792482299640686]","[0.0957116037607193, 0.0736953467130661, 0.03999999910593033]","[0.0, 0.0, -1.0390562259147462]",1.210632571455348,-16.283535238809286,"(0.0, 0.0, 0.0, 0.0, 0.0, 0.0)",2.771136716181199,-0.3095085607892871,-15.746535439217235,"(0.0, 0.0, 0.0, 0.0, 0.0, 0.0)",0.3469037989659341,-1.211323385283169,16.3019569408845,"(0.0, 0.0, 0.0, 0.0, 0.0, 0.0)",-2.7749564531312414,0.30617317599991634,15.835479338328643,"(0.0, 0.0, 0.0, 0.0, 0.0, 0.0)",-0.3479929302165593,False,,,,,False,,,,
8,Close,,,"(0.010001648057231211, 0.16002636889308344, 0.03133184175509247)","(-0.0005384699893107284, 3.3654401557527444e-05, -9.06094284338731e-09)",,"[-0.026750000193715096, 0.05299999937415123, 0.03999999910593033]","[0.0, -0.0, 1.0006360422079206]","[-0.08736064285039902, 0.0918632224202156, 0.03999999910593033]","[0.0, -0.0, 0.4880565025715103]","[0.026750000193715096, 0.05299999937415123, 0.03999999910593033]","[0.0, 0.0, -1.001089448203126]","[0.08737824857234955, 0.09183574467897415, 0.03999999910593033]","[0.0, 0.0, -0.49069812233338583]",0.9605724271186684,-9.615264723164493,"(0.0, 0.0, 0.0, 0.0, 0.0, 0.0)",1.6441783201079794,-0.5513218025251249,-9.298144061583436,"(0.0, 0.0, 0.0, 0.0, 0.0, 0.0)",0.21014173445603831,-0.9609803457758583,9.626142554022893,"(0.0, 0.0, 0.0, 0.0, 0.0, 0.0)",-1.6464751946207798,0.5493522946545342,9.350664461360347,"(0.0, 0.0, 0.0, 0.0, 0.0, 0.0)",-0.2108204377510729,False,,,,,False,,,,
9,Close,,,"(0.010002470404691093, 0.16003952644115657, 0.04045997120998789)","(-0.0008073642479911328, 5.0460303253361964e-05, -2.0369923505779015e-08)",,"[-0.026750000193715096, 0.05299999937415123, 0.03999999910593033]","[0.0, -0.0, 0.8365715799965936]","[-0.0801992267370224, 0.1012408509850502, 0.03999999910593033]","[0.0, -0.0, 0.16533874626364803]","[0.026750000193715096, 0.05299999937415123, 0.03999999910593033]","[0.0, 0.0, -0.8368392086626993]","[0.08021213859319687, 0.10122654587030411, 0.03999999910593033]","[0.0, 0.0, -0.1668985823484083]",0.8129144124893025,-5.677717666381402,"(0.0, 0.0, 0.0, 0.0, 0.0, 0.0)",0.9736078226475493,-0.6941096683608667,-5.490444078796776,"(0.0, 0.0, 0.0, 0.0, 0.0, 0.0)",0.12593397924105265,-0.8131552843771866,5.684140916724979,"(0.0, 0.0, 0.0, 0.0, 0.0, 0.0)",-0.9749785244213759,0.6929466958025952,5.521456795952681,"(0.0, 0.0, 0.0, 0.0, 0.0, 0.0)",-0.12634715317523504,False,,,,,False,,,,
10,Close,,,"(0.010003291824242136, 0.16005266914270105, 0.04523936165140331)","(-0.0010760316083767074, 6.725202012489063e-05, -3.618265319583079e-08)",,"[-0.026750000193715096, 0.05299999937415123, 0.03999999910593033]","[0.0, -0.0, 0.7396932119518481]","[-0.07528240978717804, 0.10618463158607483, 0.03999999910593033]","[0.0, 0.0, -0.025223688738047617]","[0.026750000193715096, 0.05299999937415123, 0.03999999910593033]","[0.0, 0.0, -0.7398511766938903]","[0.07529081404209137, 0.10617695748806, 0.03999999910593033]","[0.0, -0.0, 0.02430263317545323]",0.7257238314308083,-3.352635504821555,"(0.0, 0.0, 0.0, 0.0, 0.0, 0.0)",0.5758654822812497,-0.7784262532781683,-3.242260203768412,"(0.0, 0.0, 0.0, 0.0, 0.0, 0.0)",0.0750123771406224,-0.725866063871885,3.3564283699169333,"(0.0, 0.0, 0.0, 0.0, 0.0, 0.0)",-0.5766799137830688,0.7777395376647703,3.260573592131318,"(0.0, 0.0, 0.0, 0.0, 0.0, 0.0)",-0.0752606958188736,False,,,,,False,,,,
11,Close,,,"(0.009997966950406065, 0.16004795201914346, 0.046616050094935475)","(-0.0009640430328522325, -5.7324486097668704e-05, 4.2980615420070005e-09)",,"[-0.026750000193715096, 0.05299999937415123, 0.03999999910593033]","[0.0, -0.0, 0.682487397988505]","[-0.0721622109413147, 0.10887245088815689, 0.03999999910593033]","[0.0, 0.0, -0.13775029188859572]","[0.026750000193715096, 0.05299999937415123, 0.03999999910593033]","[0.0, 0.0, -0.6825807377410441]","[0.07216742634773254, 0.10886821150779724, 0.03999999910593033]","[0.0, -0.0, 0.1372064129763775]",0.6742386185346878,-1.979696494258342,"(0.0, 0.0, 0.0, 0.0, 0.0, 0.0)",0.34037467823530393,-0.8282145265472606,-1.9144534778819295,"(0.0, 0.0, 0.0, 0.0, 0.0, 0.0)",0.04449932044982575,-0.674322605213594,1.981936139029174,"(0.0, 0.0, 0.0, 0.0, 0.0, 0.0)",-0.3408573424145132,0.8278090365055835,1.9252671252731466,"(0.0, 0.0, 0.0, 0.0, 0.0, 0.0)",-0.04464739446319682,False,,,,,False,,,,
12,Close,,,"(0.009998679410322496, 0.16003066597344334, 0.0474253884764576)","(-0.0006112814540129935, -4.2805404436077314e-05, 1.9447426774393396e-07)",,"[-0.026750000193715096, 0.05299999937415123, 0.03999999910593033]","[0.0, -0.0, 0.6487079580530938]","[-0.07024932652711868, 0.11037428677082062, 0.03999999910593033]","[0.0, 0.0, -0.20419532625251113]","[0.026750000193715096, 0.05299999937415123, 0.03999999910593033]","[0.0, 0.0, -0.6487631098841893]","[0.07025248557329178, 0.11037188768386841, 0.03999999910593033]","[0.0, -0.0, 0.20387417727936794]",0.6438371618585478,-1.1689909828946077,"(0.0, 0.0, 0.0, 0.0, 0.0, 0.0)",0.20110328062585062,-0.8576133287829941,-1.1304144347684295,"(0.0, 0.0, 0.0, 0.0, 0.0, 0.0)",0.026365137971139978,-0.6438867551525752,1.1703134707353389,"(0.0, 0.0, 0.0, 0.0, 0.0, 0.0)",-0.20138889834359572,0.857373897412956,1.136799615752827,"(0.0, 0.0, 0.0, 0.0, 0.0, 0.0)",-0.026453134766811503,False,,,,,False,,,,
13,Close,,,"(0.008562352819313064, 0.15963169911231415, 0.04795936059784778)","(0.002880050037504477, -0.0018080766405500393, 0.027156574699580344)",,"[-0.026750000193715096, 0.05299999937415123, 0.03999999910593033]","[0.0, -0.0, 0.6287615983534538]","[-0.06909634172916412, 0.11123047024011612, 0.03999999910593033]","[0.0, 0.0, -0.24342883421715172]","[0.026750000193715096, 0.05299999937415123, 0.03999999910593033]","[0.0, 0.0, -0.6288059721302652]","[0.06909892708063126, 0.1112285852432251, 0.03999999910593033]","[0.0, -0.0, 0.24295585513718987]",0.6258854057058539,-0.6902774854894381,"(0.0, 0.0, 0.0, 0.0, 0.0, 0.0)",0.11878846609148704,-0.8749713231347032,-0.6674313830745814,"(0.0, 0.0, 0.0, 0.0, 0.0, 0.0)",0.015594191474811038,-0.6259255556368085,0.6912982329409242,"(0.0, 0.0, 0.0, 0.0, 0.0, 0.0)",0.23889456753769728,0.8745816224765113,0.6767593625972839,"(0.0, 0.0, 0.0, 0.0, 0.0, 0.0)",0.18939691443679915,False,,,,,True,"(0.040048198705117485, 0.17954190147604243, 0.02399995236517949)","(-0.9999968496142797, -0.00250969405768167, -4.6874861287478436e-05)",-8.481535683957195e-06,2.863336982423626
14,Move,,,"(0.003226703519616097, 0.15887842572556865, 0.048057042824217085)","(0.00733137607255103, 0.004060605831319912, 0.12411081910370701)","[0.0, 0.0, 0.0]","[-0.026750000193715096, 0.05299999937415123, 0.03999999910593033]","[0.0, -0.0, 0.5601465041237582]","[-0.06500434130430222, 0.11399676650762558, 0.03999999910593033]","[0.0, 0.0, -0.31665092698218517]","[0.026750000193715096, 0.05299999937415123, 0.03999999910593033]","[0.0, 0.0, -0.5704848668453074]","[0.0656328946352005, 0.11359802633523941, 0.03999999910593033]","[0.0, -0.0, 0.3056114929739557]",0.5446837312064112,-3.7110582962534506,"(0.0, 0.0, 0.0, 0.0, 0.0, 0.0)",-53.09089974488294,-0.8536776571297426,5.5487419201507295,"(0.0, 0.0, 0.0, 0.0, 0.0, 0.0)",-27.521806933097807,-0.5577558572400253,3.0549589579805563,"(0.0, 0.0, 0.0, 0.0, 0.0, 0.0)",39.845640952717,0.8551826533669656,-5.0192908628628805,"(0.0, 0.0, 0.0, 0.0, 0.0, 0.0)",19.520428399002,True,"(-0.031006456029053206, 0.18019920383377602, 0.023994329638221932)","(0.9922239401206523, 0.12433627092149606, -0.005669601818851313)",-0.0005148038489068186,428.5206410406488,True,"(0.03236246380961459, 0.17994971919477992, 0.023997959838382148)","(-0.9993845697424365, -0.035018889211399305, -0.00203940165862912)",0.0005577664042068458,310.72647358115125
15,Move,"(-0.0011, 0.0, 0.0014)","(0.0, 0.01321039710834508, 0.0)","(0.003413635188674781, 0.16135980695333016, 0.04817491778277068)","(-0.011286571387720084, 0.0013456814493274976, 0.11851594250090541)","[0.00018693166905868388, 0.002481381227761509, 0.00011787495855359459]","[-0.026750000193715096, 0.05299999937415123, 0.03999999910593033]","[0.0, -0.0, 0.531591644495883]","[-0.06324722617864609, 0.1150640994310379, 0.03999999910593033]","[0.0, 0.0, -0.3050986951439724]","[0.026750000193715096, 0.05299999937415123, 0.03999999910593033]","[0.0, 0.0, -0.5523342087674857]","[0.06452665477991104, 0.11429375410079956, 0.03999999910593033]","[0.0, -0.0, 0.28707611519600323]",0.5317858280891756,0.04662437708069012,"(0.0, 0.0, 0.0, 0.0, 0.0, 0.0)",-1.4381210130502589,-0.8378839701309533,-0.28648582669631306,"(0.0, 0.0, 0.0, 0.0, 0.0, 0.0)",-0.7349413399875031,-0.5539011659499625,-0.37608437438301434,"(0.0, 0.0, 0.0, 0.0, 0.0, 0.0)",0.8465209371767675,0.8405287590160564,0.2684348034556731,"(0.0, 0.0, 0.0, 0.0, 0.0, 0.0)",0.4744438717818166,True,"(-0.030014093613308965, 0.18163713704443574, 0.02399854697379078)","(0.99300497647401, 0.1180635744867564, -0.001452266250004489)",-0.0007808816654852479,10.447476683966652,True,"(0.032598370541574426, 0.18011010165360164, 0.05600145302620922)","(-0.9930049764740102, -0.11806357448675432, 0.0014522662500008228)",-0.0001453940280750348,5.91782058415188
16,Move,"(-0.009800000000000001, 0.0, 0.0092)","(0.0, 0.13193991013376333, 0.0)","(0.003091665961375445, 0.1613889290571407, 0.04848451507336509)","(-0.00702487373581912, -0.0011369899486314687, 0.12022392190035641)","[-0.00013503755824065223, 0.002510503331572045, 0.00042747224914800597]","[-0.026750000193715096, 0.05299999937415123, 0.03999999910593033]","[0.0, -0.0, 0.5348034751918349]","[-0.06344638019800186, 0.11494655907154083, 0.03999999910593033]","[0.0, 0.0, -0.3022195983587531]","[0.026750000193715096, 0.05299999937415123, 0.03999999910593033]","[0.0, 0.0, -0.5515046907925386]","[0.06447579711675644, 0.11432506889104843, 0.03999999910593033]","[0.0, -0.0, 0.2873679152542057]",0.535569770421788,0.18392396831476165,"(0.0, 0.0, 0.0, 0.0, 0.0, 0.0)",-1.3563889363054504,-0.8364819839410459,0.12984807382304603,"(0.0, 0.0, 0.0, 0.0, 0.0, 0.0)",-0.616916155457343,-0.5504807688075436,0.24573748976440818,"(0.0, 0.0, 0.0, 0.0, 0.0, 0.0)",2.1936398405957167,0.8381681533312437,-0.16906316614209987,"(0.0, 0.0, 0.0, 0.0, 0.0, 0.0)",1.1667107380351118,True,"(-0.030405143085249067, 0.1816157233693535, 0.023999776566781993)","(0.9927477183737722, 0.12021613069920983, -0.00022267325879046952)",-0.000501374050609315,3.5336917215469135,True,"(0.03252857906314737, 0.18012988362408128, 0.05600022343321801)","(-0.9927477183737726, -0.12021613069920532, 0.00022267325879221213)",-5.8723393761584394e-05,11.04466489258328
17,Move,"(-0.0137, 0.0, 0.0158)","(0.0, 0.08280714636087097, 0.0)","(0.002348262039558847, 0.16120368340818927, 0.04865105427061653)","(-0.002898422263565405, -0.002666115958267622, 0.12212537246757554)","[-0.0008784414800572502, 0.002325257682620624, 0.0005940114463994436]","[-0.026750000193715096, 0.05299999937415123, 0.03999999910593033]","[0.0, -0.0, 0.5409909689824792]","[-0.0638289675116539, 0.11471831053495407, 0.03999999910593033]","[0.0, 0.0, -0.2941318160816398]","[0.026750000193715096, 0.05299999937415123, 0.03999999910593033]","[0.0, 0.0, -0.5446630978802779]","[0.06405535340309143, 0.11458174139261246, 0.03999999910593033]","[0.0, -0.0, 0.29157139381723984]",0.5422602693932487,0.3046429095428803,"(0.0, 0.0, 0.0, 0.0, 0.0, 0.0)",-0.7336353709374706,-0.8349214005498173,0.0483254337872198,"(0.0, 0.0, 0.0, 0.0, 0.0, 0.0)",-0.3243600387250903,-0.5433414787258215,0.3171775901212848,"(0.0, 0.0, 0.0, 0.0, 0.0, 0.0)",1.3862423750720752,0.8359517167838019,-0.06785665340190201,"(0.0, 0.0, 0.0, 0.0, 0.0, 0.0)",0.7638385070181269,True,"(-0.03132801198444407, 0.18165252638492585, 0.023999776566781993)","(0.9927477183737722, 0.12021613069920983, -0.00022267325879046952)",-0.000286307690483142,2.214055783614896,True,"(0.03183180940702549, 0.18025168118819046, 0.05600022343321801)","(-0.9927477183737726, -0.12021613069920532, 0.00022267325879221213)",1.9751390908795633e-05,1.188066682888807
18,Move,"(-0.018600000000000002, 0.0, 0.0223)","(0.0, -0.0, 0.0)","(0.0012906968835389306, 0.16107045387098434, 0.04870378613909218)","(4.0780958525685364e-05, -0.0018584252230626763, 0.12718413664783987)","[-0.0019360066360771665, 0.002192028145415692, 0.0006467433148750965]","[-0.026750000193715096, 0.05299999937415123, 0.03999999910593033]","[0.0, -0.0, 0.5500339864464391]","[-0.06438557058572769, 0.11438048630952835, 0.03999999910593033]","[0.0, 0.0, -0.28404448256752196]","[0.026750000193715096, 0.05299999937415123, 0.03999999910593033]","[0.0, 0.0, -0.5352089914904152]","[0.06347149610519409, 0.11493166536092758, 0.03999999910593033]","[0.0, -0.0, 0.2995007534184071]",0.5518158829369237,0.4276510038989564,"(0.0, 0.0, 0.0, 0.0, 0.0, 0.0)",-0.538257996720803,-0.8339299328388585,0.03566126606340007,"(0.0, 0.0, 0.0, 0.0, 0.0, 0.0)",-0.21833044968817028,-0.533343753843518,0.44765543798801777,"(0.0, 0.0, 0.0, 0.0, 0.0, 0.0)",0.8896283815565952,0.8344505034865342,-0.06220620972458526,"(0.0, 0.0, 0.0, 0.0, 0.0, 0.0)",0.5557644339647713,True,"(-0.03256144048273909, 0.1816391357637676, 0.023999776566781993)","(0.9927477183737722, 0.12021613069920983, -0.00022267325879046952)",-0.000190946214887511,3.683280813195564,True,"(0.030728254139132827, 0.1803440389473122, 0.05600022343321801)","(-0.9927477183737726, -0.12021613069920532, 0.00022267325879221213)",1.5024820509001661e-05,5.3941208023721465
19,Move,"(-0.028100000000000003, 0.0, 0.028399999999999998)","(0.0, 0.03511427922087392, 0.0)","(-0.0005787078286206567, 0.1609732994490454, 0.048816935952794606)","(-0.0001449779103957607, -0.001991519327392431, 0.13684122502525994)","[-0.003805411348236754, 0.002094873723476748, 0.0007598931285775212]","[-0.026750000193715096, 0.05299999937415123, 0.03999999910593033]","[0.0, -0.0, 0.5648373727069224]","[-0.06529004871845245, 0.11381664872169495, 0.03999999910593033]","[0.0, 0.0, -0.267878426620311]","[0.026750000193715096, 0.05299999937415123, 0.03999999910593033]","[0.0, 0.0, -0.5193011535079436]","[0.06248169392347336, 0.11550796777009964, 0.03999999910593033]","[0.0, -0.0, 0.3129687936306593]",0.5679047318598518,0.7361736983331917,"(0.0, 0.0, 0.0, 0.0, 0.0, 0.0)",-0.9265010882548154,-0.8324238297764063,0.07006132290181442,"(0.0, 0.0, 0.0, 0.0, 0.0, 0.0)",-0.39117740666940864,-0.5159672434076218,0.800129321255451,"(0.0, 0.0, 0.0, 0.0, 0.0, 0.0)",1.3296135757119023,0.8318640364007079,-0.09740834588621597,"(0.0, 0.0, 0.0, 0.0, 0.0, 0.0)",0.7862223817262166,True,"(-0.034557341325945796, 0.18158096003837787, 0.023999776566781993)","(0.9927477183737722, 0.12021613069920983, -0.00022267325879046952)",-0.00012587667269719688,5.019558139050091,True,"(0.028860465859399956, 0.18047343136307153, 0.05600022343321801)","(-0.9927477183737726, -0.12021613069920532, 0.00022267325879221213)",1.1306041422432527e-07,8.967694630828314
20,Move,"(-0.0263, 0.0, 0.0344)","(0.0, 0.06885672964968029, 0.0)","(-0.0023806498802206267, 0.16094977089823392, 0.04885134063617044)","(0.0010750474095394915, -0.002174224793367947, 0.14015213466457724)","[-0.0056073533998367234, 0.002071345172665273, 0.0007942978119533581]","[-0.026750000193715096, 0.05299999937415123, 0.03999999910593033]","[0.0, -0.0, 0.5794938771120491]","[-0.06617723405361176, 0.11324527114629745, 0.03999999910593033]","[0.0, 0.0, -0.2514497346191474]","[0.026750000193715096, 0.05299999937415123, 0.03999999910593033]","[0.0, 0.0, -0.5027639165580096]","[0.06144314631819725, 0.11609029769897461, 0.03999999910593033]","[0.0, -0.0, 0.326981802356373]",0.5818679672229401,0.5697854102825335,"(0.0, 0.0, 0.0, 0.0, 0.0, 0.0)",-0.9838831103689188,-0.8306196172482398,0.07775208413603028,"(0.0, 0.0, 0.0, 0.0, 0.0, 0.0)",-0.44292686253886265,-0.5000187454589463,0.6588368484857711,"(0.0, 0.0, 0.0, 0.0, 0.0, 0.0)",1.4998821397679614,0.8292859779793849,-0.11033214396030336,"(0.0, 0.0, 0.0, 0.0, 0.0, 0.0)",0.8551683817899305,True,"(-0.03656190638085392, 0.18150531595183006, 0.023999776566781993)","(0.9927477183737722, 0.12021613069920983, -0.00022267325879046952)",-7.333352308161445e-05,6.005702703884616,True,"(0.02691488856789534, 0.18057826261543136, 0.05600022343321801)","(-0.9927477183737726, -0.12021613069920532, 0.00022267325879221213)",5.3446031079007916e-06,9.38372157138567
21,Move,"(-0.0348, 0.0, 0.0357)","(0.0, 0.05146626898280879, 0.0)","(-0.004761725005838487, 0.16086684450304028, 0.04889393520117292)","(-0.0004854571706112762, -0.0024850426158785147, 0.14555174422147496)","[-0.007988428525454585, 0.0019884187774716344, 0.0008368923769558334]","[-0.026750000193715096, 0.05299999937415123, 0.03999999910593033]","[0.0, -0.0, 0.5967010466041238]","[-0.06720799952745438, 0.11255795508623123, 0.03999999910593033]","[0.0, 0.0, -0.23173573562770014]","[0.026750000193715096, 0.05299999937415123, 0.03999999910593033]","[0.0, 0.0, -0.48287334394331727]","[0.06018146499991417, 0.11676783859729767, 0.03999999910593033]","[0.0, -0.0, 0.3436776961935015]",0.600106244280586,0.8172442680088505,"(0.0, 0.0, 0.0, 0.0, 0.0, 0.0)",-1.5311293080740935,-0.8279583484364472,0.11482463559537232,"(0.0, 0.0, 0.0, 0.0, 0.0, 0.0)",-0.7448556234825704,-0.4789227930509348,0.9481264320264687,"(0.0, 0.0, 0.0, 0.0, 0.0, 0.0)",1.8944682854369916,0.8259372290106709,-0.1473025057051253,"(0.0, 0.0, 0.0, 0.0, 0.0, 0.0)",1.045300634667177,True,"(-0.03894401667703591, 0.1813885332549237, 0.023999776566781993)","(0.9927477183737722, 0.12021613069920983, -0.00022267325879046952)",-4.24480426194399e-05,9.121435122678601,True,"(0.02458138549566692, 0.18067036342042003, 0.05600022343321801)","(-0.9927477183737726, -0.12021613069920532, 0.00022267325879221213)",1.2131428936188483e-05,9.918556887825876
22,Move,"(-0.0349, 0.0, 0.0356)","(0.0, 0.02991494337918281, 0.0)","(-0.00703741530984486, 0.1607961349218703, 0.0488981564621919)","(0.0006342966471499989, -0.0023467894906779776, 0.14833996909551656)","[-0.010264118829460957, 0.001917709196301659, 0.0008411136379748163]","[-0.026750000193715096, 0.05299999937415123, 0.03999999910593033]","[0.0, -0.0, 0.6139853243918644]","[-0.06823132187128067, 0.11184980720281601, 0.03999999910593033]","[0.0, 0.0, -0.21164012103576554]","[0.026750000193715096, 0.05299999937415123, 0.03999999910593033]","[0.0, 0.0, -0.4623588061808325]","[0.05886635556817055, 0.11744020134210587, 0.03999999910593033]","[0.0, -0.0, 0.36062498185428]",0.616892815022311,0.6977992355123316,"(0.0, 0.0, 0.0, 0.0, 0.0, 0.0)",-1.5911306638030929,-0.8251309289425287,0.11868484122482555,"(0.0, 0.0, 0.0, 0.0, 0.0, 0.0)",-0.772603132527807,-0.45885727133872395,0.8403685834363045,"(0.0, 0.0, 0.0, 0.0, 0.0, 0.0)",2.1152156492113146,0.8223351795904384,-0.15566088972857903,"(0.0, 0.0, 0.0, 0.0, 0.0, 0.0)",1.159472038299202,True,"(-0.041356142336146554, 0.18123443117117982, 0.023999776566781993)","(0.9927477183737722, 0.12021613069920983, -0.00022267325879046952)",-2.318436053228288e-05,9.868572854042586,True,"(0.022188466085204986, 0.18073025529066203, 0.05600022343321801)","(-0.9927477183737726, -0.12021613069920532, 0.00022267325879221213)",1.70017534992809e-05,10.582566171346796
23,Move,"(-0.040299999999999996, 0.0, 0.035)","(0.0, 0.038950512916757454, 0.0)","(-0.009595759745061955, 0.16067628467136666, 0.048897910710849674)","(0.0010574718675130938, -0.0026159419141379894, 0.15207514269319855)","[-0.012822463264678053, 0.0017978589457980088, 0.0008408678866325889]","[-0.026750000193715096, 0.05299999937415123, 0.03999999910593033]","[0.0, -0.0, 0.6320798799141346]","[-0.06928933411836624, 0.11108963191509247, 0.03999999910593033]","[0.0, 0.0, -0.19010930348598143]","[0.026750000193715096, 0.05299999937415123, 0.03999999910593033]","[0.0, 0.0, -0.440243643023679]","[0.057433512061834335, 0.11813464760780334, 0.03999999910593033]","[0.0, -0.0, 0.37821373591594354]",0.63545954673846,0.8111160902828154,"(0.0, 0.0, 0.0, 0.0, 0.0, 0.0)",-2.33137518616318,-0.8213523991394482,0.20083782196061503,"(0.0, 0.0, 0.0, 0.0, 0.0, 0.0)",-1.232049471555335,-0.43608286646241123,0.9985850493527569,"(0.0, 0.0, 0.0, 0.0, 0.0, 0.0)",2.505794192666378,0.8177454649466536,-0.17085432655774355,"(0.0, 0.0, 0.0, 0.0, 0.0, 0.0)",1.3142341431326254,True,"(-0.04391417647332904, 0.18103676887881165, 0.023999776566781993)","(0.9927477183737722, 0.12021613069920983, -0.00022267325879046952)",-1.7113792289303802e-05,13.719644879831307,True,"(0.019648159873328207, 0.18076982349201506, 0.05600022343321801)","(-0.9927477183737726, -0.12021613069920532, 0.00022267325879221213)",2.5828750188784303e-05,9.197144177400002
24,Move,"(-0.0348, 0.0, 0.034)","(0.0, 0.031243138939950493, 0.0)","(-0.011453330187808062, 0.16062675693750972, 0.04892617456397916)","(0.0002410132506239799, -0.0023474565288134574, 0.15456428394133961)","[-0.01468003370742416, 0.0017483312119410677, 0.0008691317397620732]","[-0.026750000193715096, 0.05299999937415123, 0.03999999910593033]","[0.0, -0.0, 0.6462956284640156]","[-0.07011079788208008, 0.11047904938459396, 0.03999999910593033]","[0.0, 0.0, -0.17219388547318495]","[0.026750000193715096, 0.05299999937415123, 0.03999999910593033]","[0.0, 0.0, -0.4220834789295323]","[0.05624566227197647, 0.11868109554052353, 0.03999999910593033]","[0.0, -0.0, 0.3924277848366796]",0.648398795474047,0.5047590940686807,"(0.0, 0.0, 0.0, 0.0, 0.0, 0.0)",-2.2498135449178407,-0.8177982470059881,0.165902601366493,"(0.0, 0.0, 0.0, 0.0, 0.0, 0.0)",-1.138839338906518,-0.41931911194098215,0.6634467795192625,"(0.0, 0.0, 0.0, 0.0, 0.0, 0.0)",2.1430669722921087,0.8138747729095401,-0.15274308212671303,"(0.0, 0.0, 0.0, 0.0, 0.0, 0.0)",1.164451252892904,True,"(-0.04599277696616745, 0.18086954997011903, 0.023999776566781993)","(0.9927477183737722, 0.12021613069920983, -0.00022267325879046952)",-1.4050931328285782e-05,13.599613715850614,True,"(0.01757385960661123, 0.18077287987387555, 0.05600022343321801)","(-0.9927477183737726, -0.12021613069920532, 0.00022267325879221213)",2.960043560965932e-05,6.109559387029732
25,Move,"(-0.039700000000000006, 0.0, 0.0351)","(0.0, 0.038950512916757454, 0.0)","(-0.013512410974655702, 0.1605360357624243, 0.04894766815321206)","(-0.00046631060813618377, -0.0022387458100133146, 0.15768583716670195)","[-0.0167391144942718, 0.0016576100368556612, 0.0008906253289949762]","[-0.026750000193715096, 0.05299999937415123, 0.03999999910593033]","[0.0, -0.0, 0.6600511990408251]","[-0.07089732587337494, 0.10987718403339386, 0.03999999910593033]","[0.0, 0.0, -0.15439658871179712]","[0.026750000193715096, 0.05299999937415123, 0.03999999910593033]","[0.0, 0.0, -0.40394142325586563]","[0.05504928156733513, 0.11920536309480667, 0.03999999910593033]","[0.0, -0.0, 0.406086648380239]",0.6626713846672705,0.6288474206983234,"(0.0, 0.0, 0.0, 0.0, 0.0, 0.0)",-2.2873552886790773,-0.813691076937497,0.18160915602674788,"(0.0, 0.0, 0.0, 0.0, 0.0, 0.0)",-1.19104226566591,-0.400475039973535,0.8319322675315259,"(0.0, 0.0, 0.0, 0.0, 0.0, 0.0)",2.9270972893812544,0.8091742210629614,-0.20493155564431076,"(0.0, 0.0, 0.0, 0.0, 0.0, 0.0)",1.5294847308825659,True,"(-0.04803581888634967, 0.18068574404547072, 0.023999776566781993)","(0.9927477183737722, 0.12021613069920983, -0.00022267325879046952)",-2.0777868199511444e-05,14.573481412083332,True,"(0.01553300666857304, 0.18076316181684515, 0.05600022343321801)","(-0.9927477183737726, -0.12021613069920532, 0.00022267325879221213)",3.5772655232257865e-05,11.414058009616387
26,Move,"(-0.0405, 0.0, 0.0349)","(0.0, 0.034222415973104825, 0.0)","(-0.015512651113724478, 0.16040640122782596, 0.04894140757229992)","(0.0002027890780685693, -0.00236334914150507, 0.16018784415979406)","[-0.018739354633340574, 0.001527975502257306, 0.0008843647480828373]","[-0.026750000193715096, 0.05299999937415123, 0.03999999910593033]","[0.0, -0.0, 0.6738015001526569]","[-0.07167520374059677, 0.1092647835612297, 0.03999999910593033]","[0.0, 0.0, -0.13616767233690277]","[0.026750000193715096, 0.05299999937415123, 0.03999999910593033]","[0.0, 0.0, -0.38532014331488434]","[0.05381161719560623, 0.11972083151340485, 0.03999999910593033]","[0.0, -0.0, 0.4197172300593219]",0.6761717776569034,0.5688707599162897,"(0.0, 0.0, 0.0, 0.0, 0.0, 0.0)",-2.8713993680374967,-0.8090422986703388,0.22244378838122889,"(0.0, 0.0, 0.0, 0.0, 0.0, 0.0)",-1.4788202810571447,-0.3820712633229915,0.7797192464598957,"(0.0, 0.0, 0.0, 0.0, 0.0, 0.0)",2.85526118568407,0.8042293511555011,-0.1939185542630425,"(0.0, 0.0, 0.0, 0.0, 0.0, 0.0)",1.5157362722268564,True,"(-0.05010818998450389, 0.18047830098860626, 0.023999776566781993)","(0.9927477183737722, 0.12021613069920983, -0.00022267325879046952)",-1.3802923149815904e-05,17.811425676302214,True,"(0.013459968361694614, 0.1807342922910511, 0.05600022343321801)","(-0.9927477183737726, -0.12021613069920532, 0.00022267325879221213)",3.417401027684355e-05,9.548395183453447
27,Move,"(-0.040799999999999996, 0.0, 0.0344)","(0.0, 0.043708280457693996, 0.0)","(-0.017360741177522235, 0.16030630140376484, 0.048960489730045714)","(-0.0004253261609105081, -0.002298545411483993, 0.1625254731272397)","[-0.020587444697138333, 0.0014278756781961888, 0.0009034469058286296]","[-0.026750000193715096, 0.05299999937415123, 0.03999999910593033]","[0.0, -0.0, 0.6861608027731138]","[-0.07236714661121368, 0.10870525985956192, 0.03999999910593033]","[0.0, 0.0, -0.11887900579030901]","[0.026750000193715096, 0.05299999937415123, 0.03999999910593033]","[0.0, 0.0, -0.3678826121714822]","[0.052644118666648865, 0.12018254399299622, 0.03999999910593033]","[0.0, -0.0, 0.4321885695428073]",0.6882701957155478,0.5062574687629492,"(0.0, 0.0, 0.0, 0.0, 0.0, 0.0)",-2.514082113483295,-0.8042066698022358,0.1999476646828925,"(0.0, 0.0, 0.0, 0.0, 0.0, 0.0)",-1.3394074645896619,-0.3648555276259872,0.7264971443404021,"(0.0, 0.0, 0.0, 0.0, 0.0, 0.0)",3.2696147166487357,0.7991403289831105,-0.22338963788315683,"(0.0, 0.0, 0.0, 0.0, 0.0, 0.0)",1.6729247198079575,True,"(-0.05203448354552902, 0.1802809773882388, 0.023999776566781993)","(0.9927477183737722, 0.12021613069920983, -0.00022267325879046952)",-2.035532246337314e-05,16.14800472050754,True,"(0.011534711481813197, 0.18068804372534944, 0.05600022343321801)","(-0.9927477183737726, -0.12021613069920532, 0.00022267325879221213)",4.278145321390269e-05,11.667327138895349
28,Move,"(-0.040100000000000004, 0.0, 0.0343)","(0.0, 0.03601835977340698, 0.0)","(-0.018941249353546696, 0.1601848855551408, 0.04895361781292007)","(0.0002876255163040418, -0.0024444738026252574, 0.16453248665083406)","[-0.022167952873162793, 0.001306459829572143, 0.0008965749887029847]","[-0.026750000193715096, 0.05299999937415123, 0.03999999910593033]","[0.0, -0.0, 0.6966203954627492]","[-0.07294730097055435, 0.10822508484125137, 0.03999999910593033]","[0.0, 0.0, -0.10360631640295474]","[0.026750000193715096, 0.05299999937415123, 0.03999999910593033]","[0.0, 0.0, -0.352374402710417]","[0.0515991635620594, 0.12057602405548096, 0.03999999910593033]","[0.0, -0.0, 0.4426009344783682]",0.698356326398773,0.4166259368284216,"(0.0, 0.0, 0.0, 0.0, 0.0, 0.0)",-2.448808983532424,-0.7994024418340023,0.19782320479700938,"(0.0, 0.0, 0.0, 0.0, 0.0, 0.0)",-1.3122287631419371,-0.34974948720358,0.6299818193043318,"(0.0, 0.0, 0.0, 0.0, 0.0, 0.0)",3.2381436253493967,0.794081430345686,-0.21453780237829312,"(0.0, 0.0, 0.0, 0.0, 0.0, 0.0)",1.645052109810928,True,"(-0.05371011360146019, 0.1801029766362337, 0.023999776566781993)","(0.9927477183737722, 0.12021613069920983, -0.00022267325879046952)",-1.0757506202267105e-05,15.691349604161392,True,"(0.009861991993201064, 0.18065019976446842, 0.05600022343321801)","(-0.9927477183737726, -0.12021613069920532, 0.00022267325879221213)",4.275132014971373e-05,11.128455233791325
29,Move,"(-0.0412, 0.0, 0.0346)","(0.0, 0.03038094628946529, 0.0)","(-0.020474257729426317, 0.16009163812117602, 0.04897095784597204)","(-0.00032637600438306045, -0.002406689080420567, 0.16644788111726125)","[-0.023700961249042415, 0.0012132123956073715, 0.0009139150217549533]","[-0.026750000193715096, 0.05299999937415123, 0.03999999910593033]","[0.0, -0.0, 0.706141770494915]","[-0.07347101718187332, 0.10778272151947021, 0.03999999910593033]","[0.0, 0.0, -0.08909132556759702]","[0.026750000193715096, 0.05299999937415123, 0.03999999910593033]","[0.0, 0.0, -0.33769435908682643]","[0.050604503601789474, 0.12093351781368256, 0.03999999910593033]","[0.0, -0.0, 0.45220253161843477]",0.7078096099479775,0.4002881291798491,"(0.0, 0.0, 0.0, 0.0, 0.0, 0.0)",-2.57242163870613,-0.7943613042767255,0.2092228950406436,"(0.0, 0.0, 0.0, 0.0, 0.0, 0.0)",-1.3892926560695211,-0.3350925572584925,0.6244281219039303,"(0.0, 0.0, 0.0, 0.0, 0.0, 0.0)",3.3616134784778895,0.7889598925050362,-0.22487557638689226,"(0.0, 0.0, 0.0, 0.0, 0.0, 0.0)",1.6969189345438456,True,"(-0.055279126619844646, 0.17993226524370992, 0.023999776566781993)","(0.9927477183737722, 0.12021613069920983, -0.00022267325879046952)",-1.4921956818407742e-05,16.547831508285157,True,"(0.008292453473711284, 0.18060418593728952, 0.05600022343321801)","(-0.9927477183737726, -0.12021613069920532, 0.00022267325879221213)",4.8342043574453886e-05,10.55259233795097
30,Move,"(-0.041299999999999996, 0.0, 0.0345)","(0.0, 0.03038094628946529, 0.0)","(-0.021868616875766817, 0.1599779555134673, 0.04896528957160822)","(0.00023548076298819247, -0.0025495837244388637, 0.16806263332755642)","[-0.025095320395382915, 0.001099529787898651, 0.0009082467473911365]","[-0.026750000193715096, 0.05299999937415123, 0.03999999910593033]","[0.0, -0.0, 0.7147308815012886]","[-0.07393981516361237, 0.10737941414117813, 0.03999999910593033]","[0.0, 0.0, -0.07546955030067347]","[0.026750000193715096, 0.05299999937415123, 0.03999999910593033]","[0.0, 0.0, -0.323870511026477]","[0.049663152545690536, 0.12125677615404129, 0.03999999910593033]","[0.0, -0.0, 0.46082510401745796]",0.716186929200321,0.349462930520232,"(0.0, 0.0, 0.0, 0.0, 0.0, 0.0)",-2.5791320321752016,-0.7893103198584175,0.21361624696834822,"(0.0, 0.0, 0.0, 0.0, 0.0, 0.0)",-1.400312939147688,-0.3214818494488733,0.5732850439940161,"(0.0, 0.0, 0.0, 0.0, 0.0, 0.0)",3.3838921327235982,0.7837734944916667,-0.22132299096261365,"(0.0, 0.0, 0.0, 0.0, 0.0, 0.0)",1.6967466925011612,True,"(-0.05673239307034513, 0.179770062796795, 0.023999776566781993)","(0.9927477183737722, 0.12021613069920983, -0.00022267325879046952)",-1.0525048819912468e-05,16.57747742342669,True,"(0.006838167311970532, 0.18056039081667796, 0.05600022343321801)","(-0.9927477183737726, -0.12021613069920532, 0.00022267325879221213)",5.013938321979692e-05,10.050337571467516
31,Move,"(-0.0409, 0.0, 0.035)","(0.0, 0.022591541837814602, 0.0)","(-0.02308937175134523, 0.1599042091780679, 0.04898039690312983)","(-0.00024046710294311967, -0.0025228256325606825, 0.16950115940919286)","[-0.026316075270961328, 0.0010257834524992626, 0.0009233540789127456]","[-0.026750000193715096, 0.05299999937415123, 0.03999999910593033]","[0.0, -0.0, 0.7219592574007299]","[-0.07433165609836578, 0.10703689604997635, 0.03999999910593033]","[0.0, 0.0, -0.06319329274572712]","[0.026750000193715096, 0.05299999937415123, 0.03999999910593033]","[0.0, 0.0, -0.3115032348730711]","[0.04881726950407028, 0.12153492122888565, 0.03999999910593033]","[0.0, -0.0, 0.4681721661382864]",0.7231571527193962,0.287519357739747,"(0.0, 0.0, 0.0, 0.0, 0.0, 0.0)",-2.521038511747165,-0.7842792823298206,0.20956024340787452,"(0.0, 0.0, 0.0, 0.0, 0.0, 0.0)",-1.3747037738623067,-0.30939925545411495,0.5049440899168588,"(0.0, 0.0, 0.0, 0.0, 0.0, 0.0)",3.2982723124439888,0.7787818578714659,-0.2144302222255733,"(0.0, 0.0, 0.0, 0.0, 0.0, 0.0)",1.6468876661953074,True,"(-0.058014189407104996, 0.1796333246645938, 0.023999776566781993)","(0.9927477183737722, 0.12021613069920983, -0.00022267325879046952)",-9.337087209761057e-06,16.100944712879755,True,"(0.005557737829304875, 0.18052230609732717, 0.05600022343321801)","(-0.9927477183737726, -0.12021613069920532, 0.00022267325879221213)",5.292846085666144e-05,8.648002858186048
32,Move,"(-0.0404, 0.0, 0.0345)","(0.0, 0.03038094628946529, 0.0)","(-0.02414945673145793, 0.15981797362275119, 0.04896944912364464)","(0.0005542072861490371, -0.002623650766798442, 0.17059333373815336)","[-0.027376160251074026, 0.0009395478971825355, 0.0009124062994275567]","[-0.026750000193715096, 0.05299999937415123, 0.03999999910593033]","[0.0, -0.0, 0.7278724350316156]","[-0.0746503546833992, 0.10675458610057831, 0.03999999910593033]","[0.0, 0.0, -0.05240640164530317]","[0.026750000193715096, 0.05299999937415123, 0.03999999910593033]","[0.0, 0.0, -0.30058148491590214]","[0.048067446798086166, 0.12177184224128723, 0.03999999910593033]","[0.0, -0.0, 0.47416480796033467]",0.7288608755826282,0.23722148530658196,"(0.0, 0.0, 0.0, 0.0, 0.0, 0.0)",-2.704927122590352,-0.7792652447995255,0.24326585598787986,"(0.0, 0.0, 0.0, 0.0, 0.0, 0.0)",-1.5354656619281795,-0.2987118316995884,0.44871287325636994,"(0.0, 0.0, 0.0, 0.0, 0.0, 0.0)",2.9321444970799924,0.773985333674003,-0.1826286014807153,"(0.0, 0.0, 0.0, 0.0, 0.0, 0.0)",1.442764318011687,True,"(-0.059116916052921006, 0.179522804931321, 0.023999776566781993)","(0.9927477183737722, 0.12021613069920983, -0.00022267325879046952)",-7.283421345409405e-06,17.058716776621345,True,"(0.004455203128790122, 0.18049892775255313, 0.05600022343321801)","(-0.9927477183737726, -0.12021613069920532, 0.00022267325879221213)",5.2955829200590864e-05,5.236202972059182
33,Move,"(-0.041600000000000005, 0.0, 0.0349)","(0.0, 0.026502824691533897, 0.0)","(-0.025205205598249666, 0.15975398331149426, 0.04898325116915909)","(0.00012353763397589674, -0.0025979087562133358, 0.17185651018202333)","[-0.028431909117865764, 0.0008755575859256126, 0.0009262083449420033]","[-0.026750000193715096, 0.05299999937415123, 0.03999999910593033]","[0.0, -0.0, 0.7334760895244221]","[-0.07495082914829254, 0.10648532956838608, 0.03999999910593033]","[0.0, 0.0, -0.041624654124925414]","[0.026750000193715096, 0.05299999937415123, 0.03999999910593033]","[0.0, 0.0, -0.28987093152086596]","[0.04732965677976608, 0.12199621647596359, 0.03999999910593033]","[0.0, -0.0, 0.4800400681143403]",0.7344810762525215,0.241191050201435,"(0.0, 0.0, 0.0, 0.0, 0.0, 0.0)",-2.577029196227205,-0.7741783930629482,0.2213694515166914,"(0.0, 0.0, 0.0, 0.0, 0.0, 0.0)",-1.4185036692500212,-0.2879431403979925,0.4626742801382255,"(0.0, 0.0, 0.0, 0.0, 0.0, 0.0)",3.3011601879793653,0.7690442876866493,-0.20800371783595045,"(0.0, 0.0, 0.0, 0.0, 0.0, 0.0)",1.6300570743416163,True,"(-0.060202841080553536, 0.1794167899347403, 0.023999776566781993)","(0.9927477183737722, 0.12021613069920983, -0.00022267325879046952)",-2.2227862999695233e-06,15.186309605728209,True,"(0.0033731335631597067, 0.18046605689836293, 0.05600022343321801)","(-0.9927477183737726, -0.12021613069920532, 0.00022267325879221213)",5.578323796122684e-05,7.803966169736864
