OSUrobotics/InHand-Manipulation/AnalyseData/Data/Trial Data/Better/new_hand_human_sub1_2v2_a_n_1_kpNone_kdNone_dp1_step1_save_data.csv
,Phase,human_cube_pos,human_cube_orn,Cube_Pos,Cube_Orn,Cube_pos_in_start_pos,b'l_prox_pin'_link_pos,b'l_prox_pin'_link_orn,b'l_distal_pin'_link_pos,b'l_distal_pin'_link_orn,b'r_prox_pin'_link_pos,b'r_prox_pin'_link_orn,b'r_distal_pin'_link_pos,b'r_distal_pin'_link_orn,b'l_prox_pin'_joint_angle,b'l_prox_pin'_joint_vel,b'l_prox_pin'_joint_react_forces,b'l_prox_pin'_joint_motor_torque,b'l_distal_pin'_joint_angle,b'l_distal_pin'_joint_vel,b'l_distal_pin'_joint_react_forces,b'l_distal_pin'_joint_motor_torque,b'r_prox_pin'_joint_angle,b'r_prox_pin'_joint_vel,b'r_prox_pin'_joint_react_forces,b'r_prox_pin'_joint_motor_torque,b'r_distal_pin'_joint_angle,b'r_distal_pin'_joint_vel,b'r_distal_pin'_joint_react_forces,b'r_distal_pin'_joint_motor_torque,in_contact_l,contact_point_l_dist,contact_normal_l_dist,contact_distance_l_dist,contact_norm_force_l_dist,in_contact_r,contact_point_r_dist,contact_normal_r_dist,contact_distance_r_dist,contact_norm_force_r_dist
0,Open,,,,,,"[-0.026750000193715096, 0.05299999937415123, 0.03999999910593033]","[0.0, -0.0, 0.0]","[-0.026750000193715096, 0.125, 0.03999999910593033]","[0.0, -0.0, 0.0]","[0.026750000193715096, 0.05299999937415123, 0.03999999910593033]","[0.0, -0.0, 0.0]","[0.026750000193715096, 0.125, 0.03999999910593033]","[0.0, -0.0, 0.0]",0.0028636982559538428,0.6872875814289223,"(0.0, 0.0, 0.0, 0.0, 0.0, 0.0)",-74.42376671286476,0.025717978913313098,6.172314939195144,"(0.0, 0.0, 0.0, 0.0, 0.0, 0.0)",-28.347758017338414,-0.0028861714462846827,-0.6926811471083238,"(0.0, 0.0, 0.0, 0.0, 0.0, 0.0)",77.31812537484876,-0.025998027583603027,-6.239526620064726,"(0.0, 0.0, 0.0, 0.0, 0.0, 0.0)",29.325432325549183,False,,,,,False,,,,
1,Open,,,,,,"[-0.026750000193715096, 0.05299999937415123, 0.03999999910593033]","[0.0, -0.0, 0.0028636982488144678]","[-0.026956185698509216, 0.12499970197677612, 0.03999999910593033]","[0.0, -0.0, 0.028581675581217755]","[0.026750000193715096, 0.05299999937415123, 0.03999999910593033]","[0.0, 0.0, -0.0028861714423951343]","[0.026957804337143898, 0.12499970197677612, 0.03999999910593033]","[0.0, 0.0, -0.028884201286240394]",0.1595773284303585,37.61127124185712,"(0.0, 0.0, 0.0, 0.0, 0.0, 0.0)",53.472225824972774,0.02314589095046895,-0.6173011110825959,"(0.0, 0.0, 0.0, 0.0, 0.0, 0.0)",3.3014509125464437,-0.15959755430165623,-37.61073188528917,"(0.0, 0.0, 0.0, 0.0, 0.0, 0.0)",-53.45543824447724,-0.023397935520559333,0.6240220951304867,"(0.0, 0.0, 0.0, 0.0, 0.0, 0.0)",-3.2927232380167535,False,,,,,False,,,,
2,Open,,,,,,"[-0.026750000193715096, 0.05299999937415123, 0.03999999910593033]","[0.0, -0.0, 0.15957730699277592]","[-0.03819086775183678, 0.1240852028131485, 0.03999999910593033]","[0.0, -0.0, 0.1827232399786182]","[0.026750000193715096, 0.05299999937415123, 0.03999999910593033]","[0.0, 0.0, -0.15959754249378824]","[0.03819230571389198, 0.12408497184515, 0.03999999910593033]","[0.0, 0.0, -0.1829954723320542]",0.30061959558732265,33.8501441176714,"(0.0, 0.0, 0.0, 0.0, 0.0, 0.0)",-5.433290843096747,0.020831748867960086,-0.555394099802127,"(0.0, 0.0, 0.0, 0.0, 0.0, 0.0)",-0.37949999689540415,-0.30063779887149056,-33.849658696760244,"(0.0, 0.0, 0.0, 0.0, 0.0, 0.0)",5.433149501288634,-0.02105858889910766,0.5614431891484022,"(0.0, 0.0, 0.0, 0.0, 0.0, 0.0)",0.37943043762158307,False,,,,,False,,,,
3,Open,,,,,,"[-0.026750000193715096, 0.05299999937415123, 0.03999999910593033]","[0.0, -0.0, 0.30061964608852465]","[-0.048070069402456284, 0.12177103012800217, 0.03999999910593033]","[0.0, -0.0, 0.3214513597309629]","[0.026750000193715096, 0.05299999937415123, 0.03999999910593033]","[0.0, 0.0, -0.30063782483534385]","[0.04807132109999657, 0.12177064269781113, 0.03999999910593033]","[0.0, 0.0, -0.32169639446592324]",0.4275576360285904,30.465129705904268,"(0.0, 0.0, 0.0, 0.0, 0.0, 0.0)",-4.896562760502833,0.018748978964657985,-0.49986477679250463,"(0.0, 0.0, 0.0, 0.0, 0.0, 0.0)",-0.3438186216350169,-0.4275740189843415,-30.464692827084228,"(0.0, 0.0, 0.0, 0.0, 0.0, 0.0)",4.8964345239877005,-0.018953134917884834,0.505308955493478,"(0.0, 0.0, 0.0, 0.0, 0.0, 0.0)",0.34375511365495653,False,,,,,False,,,,
4,Open,,,,,,"[-0.026750000193715096, 0.05299999937415123, 0.03999999910593033]","[0.0, -0.0, 0.42755761853039154]","[-0.056604765355587006, 0.1185186430811882, 0.03999999910593033]","[0.0, -0.0, 0.4463066270391506]","[0.026750000193715096, 0.05299999937415123, 0.03999999910593033]","[0.0, 0.0, -0.42757404208311445]","[0.05660583823919296, 0.1185181587934494, 0.03999999910593033]","[0.0, 0.0, -0.4465272228574986]",0.5418018724257314,27.418616735313837,"(0.0, 0.0, 0.0, 0.0, 0.0, 0.0)",-4.412236817968903,0.016874447698417276,-0.44988750389777044,"(0.0, 0.0, 0.0, 0.0, 0.0, 0.0)",-0.3112578673856835,-0.5418166170859073,-27.418223544375806,"(0.0, 0.0, 0.0, 0.0, 0.0, 0.0)",4.412120589674461,-0.017058187988154127,0.4547872631353701,"(0.0, 0.0, 0.0, 0.0, 0.0, 0.0)",0.31119999541872967,False,,,,,False,,,,
5,Open,,,,,,"[-0.026750000193715096, 0.05299999937415123, 0.03999999910593033]","[0.0, -0.0, 0.5418019400761332]","[-0.06387900561094284, 0.11468822509050369, 0.03999999910593033]","[0.0, -0.0, 0.5586763123738882]","[0.026750000193715096, 0.05299999937415123, 0.03999999910593033]","[0.0, 0.0, -0.5418166677071254]","[0.06387991458177567, 0.11468767374753952, 0.03999999910593033]","[0.0, 0.0, -0.5588748551425957]",0.6446216851831583,24.67675506178245,"(0.0, 0.0, 0.0, 0.0, 0.0, 0.0)",-3.975330693632137,0.015187334633278446,-0.4049071356333192,"(0.0, 0.0, 0.0, 0.0, 0.0, 0.0)",-0.2816071653694913,-0.6446349553773166,-24.67640118993823,"(0.0, 0.0, 0.0, 0.0, 0.0, 0.0)",3.975225427671302,-0.01535270083200906,0.409316917474816,"(0.0, 0.0, 0.0, 0.0, 0.0, 0.0)",0.28155450162657786,False,,,,,False,,,,
6,Open,,,,,,"[-0.026750000193715096, 0.05299999937415123, 0.03999999910593033]","[0.0, -0.0, 0.6446216983098856]","[-0.07001452147960663, 0.11055155843496323, 0.03999999910593033]","[0.0, -0.0, 0.6598089287160823]","[0.026750000193715096, 0.05299999937415123, 0.03999999910593033]","[0.0, 0.0, -0.644634967879878]","[0.07001528143882751, 0.11055097728967667, 0.03999999910593033]","[0.0, 0.0, -0.6599877329949964]",0.7371595166648425,22.209079555604205,"(0.0, 0.0, 0.0, 0.0, 0.0, 0.0)",-3.5812948349547464,0.013668901111545678,-0.3644240452158641,"(0.0, 0.0, 0.0, 0.0, 0.0, 0.0)",-0.25464125660078457,-0.737171459839585,-22.20876107094441,"(0.0, 0.0, 0.0, 0.0, 0.0, 0.0)",3.5811995605906057,-0.01381773063402154,0.3683928475170044,"(0.0, 0.0, 0.0, 0.0, 0.0, 0.0)",0.2545933902665499,False,,,,,False,,,,
7,Open,,,,,,"[-0.026750000193715096, 0.05299999937415123, 0.03999999910593033]","[0.0, -0.0, 0.7371595400859692]","[-0.07514750957489014, 0.10630742460489273, 0.03999999910593033]","[0.0, -0.0, 0.7508283868993905]","[0.026750000193715096, 0.05299999937415123, 0.03999999910593033]","[0.0, 0.0, -0.7371714711336782]","[0.07514814287424088, 0.10630684345960617, 0.03999999910593033]","[0.0, 0.0, -0.750989167509555]",0.8204435649983582,19.988171600043785,"(0.0, 0.0, 0.0, 0.0, 0.0, 0.0)",-3.2259980823944012,0.01230228208777883,-0.32798856570404317,"(0.0, 0.0, 0.0, 0.0, 0.0, 0.0)",-0.23014491551259536,-0.8204543138556265,-19.987884963849964,"(0.0, 0.0, 0.0, 0.0, 0.0, 0.0)",3.225911902119173,-0.012436228606816148,0.33156048652929415,"(0.0, 0.0, 0.0, 0.0, 0.0, 0.0)",0.23010145595163894,False,,,,,False,,,,
8,Open,,,,,,"[-0.026750000193715096, 0.05299999937415123, 0.03999999910593033]","[0.0, -0.0, 0.8204435774406766]","[-0.07941428571939468, 0.1020965725183487, 0.03999999910593033]","[0.0, -0.0, 0.8327459142786269]","[0.026750000193715096, 0.05299999937415123, 0.03999999910593033]","[0.0, 0.0, -0.8204543695347751]","[0.07941480726003647, 0.10209600627422333, 0.03999999910593033]","[0.0, 0.0, -0.8328905496331522]",0.8953992084985224,17.9893544400394,"(0.0, 0.0, 0.0, 0.0, 0.0, 0.0)",-2.905692777507757,0.011072298781000885,-0.2951959936267068,"(0.0, 0.0, 0.0, 0.0, 0.0, 0.0)",-0.20791432075989408,-0.8954088824700639,-17.989096467464968,"(0.0, 0.0, 0.0, 0.0, 0.0, 0.0)",2.9056148642503405,-0.011192850601700187,0.29841072122783063,"(0.0, 0.0, 0.0, 0.0, 0.0, 0.0)",0.20787489947010138,False,,,,,False,,,,
9,Open,,,,,,"[-0.026750000193715096, 0.05299999937415123, 0.03999999910593033]","[0.0, -0.0, 0.8953992050914552]","[-0.08294302970170975, 0.09801492840051651, 0.03999999910593033]","[0.0, -0.0, 0.9064715399310761]","[0.026750000193715096, 0.05299999937415123, 0.03999999910593033]","[0.0, 0.0, -0.8954089117450801]","[0.08294346183538437, 0.09801438450813293, 0.03999999910593033]","[0.0, 0.0, -0.9066016844299951]",0.9628592876486701,16.190418996035465,"(0.0, 0.0, 0.0, 0.0, 0.0, 0.0)",-2.616982039675733,0.009965290062605858,-0.26568209241480656,"(0.0, 0.0, 0.0, 0.0, 0.0, 0.0)",-0.18775783729375353,-0.9628679942230576,-16.190186820718473,"(0.0, 0.0, 0.0, 0.0, 0.0, 0.0)",2.6169116334278195,-0.010073786659150813,0.26857534621184953,"(0.0, 0.0, 0.0, 0.0, 0.0, 0.0)",0.187722108909745,False,,,,,False,,,,
10,Open,,,,,,"[-0.026750000193715096, 0.05299999937415123, 0.03999999910593033]","[0.0, -0.0, 0.9628592963772022]","[-0.08584962040185928, 0.09412462264299393, 0.03999999910593033]","[0.0, -0.0, 0.9728246761305416]","[0.026750000193715096, 0.05299999937415123, 0.03999999910593033]","[0.0, 0.0, -0.9628681466677605]","[0.08584997802972794, 0.09412410855293274, 0.03999999910593033]","[0.0, 0.0, -0.9729417790417357]",1.0235733588838032,14.57137709643192,"(0.0, 0.0, 0.0, 0.0, 0.0, 0.0)",-2.356789246056587,0.008968960705874744,-0.23911904561546746,"(0.0, 0.0, 0.0, 0.0, 0.0, 0.0)",-0.16949635495257384,-1.0235811948007518,-14.571168138646623,"(0.0, 0.0, 0.0, 0.0, 0.0, 0.0)",2.3567256501387286,-0.009066607604651448,0.24172297307984775,"(0.0, 0.0, 0.0, 0.0, 0.0, 0.0)",0.16946399753760524,False,,,,,False,,,,
11,Open,,,,,,"[-0.026750000193715096, 0.05299999937415123, 0.03999999910593033]","[0.0, -0.0, 1.0235732790301837]","[-0.08823604136705399, 0.09046287834644318, 0.03999999910593033]","[0.0, -0.0, 1.0325423083164225]","[0.026750000193715096, 0.05299999937415123, 0.03999999910593033]","[0.0, 0.0, -1.0235812274279317]","[0.08823633193969727, 0.09046239405870438, 0.03999999910593033]","[0.0, 0.0, -1.0326479037372749]",1.078216022995423,13.114239386788727,"(0.0, 0.0, 0.0, 0.0, 0.0, 0.0)",-2.1223296975724493,0.008072244810550301,-0.215211814877866,"(0.0, 0.0, 0.0, 0.0, 0.0, 0.0)",-0.1529632973210469,-1.0782230753206767,-13.114051324781958,"(0.0, 0.0, 0.0, 0.0, 0.0, 0.0)",2.122272274708909,-0.008160126984954354,0.21755534872730237,"(0.0, 0.0, 0.0, 0.0, 0.0, 0.0)",0.15293401213466845,False,,,,,False,,,,
12,Open,,,,,,"[-0.026750000193715096, 0.05299999937415123, 0.03999999910593033]","[0.0, -0.0, 1.078215882979514]","[-0.09019032120704651, 0.08704887330532074, 0.03999999910593033]","[0.0, -0.0, 1.0862882926740116]","[0.026750000193715096, 0.05299999937415123, 0.03999999910593033]","[0.0, 0.0, -1.078222977413882]","[0.09019055962562561, 0.08704842627048492, 0.03999999910593033]","[0.0, 0.0, -1.0863833790205233]",1.1273944206958806,11.802815448109852,"(0.0, 0.0, 0.0, 0.0, 0.0, 0.0)",-1.9110844168611731,0.007265182884681461,-0.19369486220852175,"(0.0, 0.0, 0.0, 0.0, 0.0, 0.0)",-0.13800439004610457,-1.127400767788609,-11.802646192303762,"(0.0, 0.0, 0.0, 0.0, 0.0, 0.0)",1.9110325851897776,-0.007344276810443619,0.19580404188257655,"(0.0, 0.0, 0.0, 0.0, 0.0, 0.0)",0.13797790093405082,False,,,,,False,,,,
13,Open,,,,,,"[-0.026750000193715096, 0.05299999937415123, 0.03999999910593033]","[0.0, -0.0, 1.1273943743462997]","[-0.0917874127626419, 0.08388907462358475, 0.03999999910593033]","[0.0, -0.0, 1.1346596248576977]","[0.026750000193715096, 0.05299999937415123, 0.03999999910593033]","[0.0, 0.0, -1.127400718904607]","[0.09178761392831802, 0.08388865739107132, 0.03999999910593033]","[0.0, 0.0, -1.134745111288055]",1.1716549786262926,10.622533903298867,"(0.0, 0.0, 0.0, 0.0, 0.0, 0.0)",-1.7207759982695574,0.00653881121780902,-0.17432920004938585,"(0.0, 0.0, 0.0, 0.0, 0.0, 0.0)",-0.12447725819906867,-1.1716606910097482,-10.622381573073383,"(0.0, 0.0, 0.0, 0.0, 0.0, 0.0)",1.7207292273800263,-0.006609995722787257,0.17622746103752684,"(0.0, 0.0, 0.0, 0.0, 0.0, 0.0)",0.12445331071934837,False,,,,,False,,,,
14,Open,,,,,,"[-0.026750000193715096, 0.05299999937415123, 0.03999999910593033]","[0.0, -0.0, 1.17165497759142]","[-0.09309044480323792, 0.08098116517066956, 0.03999999910593033]","[0.0, -0.0, 1.1781937273122836]","[0.026750000193715096, 0.05299999937415123, 0.03999999910593033]","[0.0, 0.0, -1.1716605985979762]","[0.09309060126543045, 0.08098078519105911, 0.03999999910593033]","[0.0, 0.0, -1.178270796658152]",1.2114894807636634,9.56028051296898,"(0.0, 0.0, 0.0, 0.0, 0.0, 0.0)",-1.549346412635057,0.005885062316220725,-0.15689973638119079,"(0.0, 0.0, 0.0, 0.0, 0.0, 0.0)",-0.11225090666269867,-1.2114946219087734,-9.560143415766044,"(0.0, 0.0, 0.0, 0.0, 0.0, 0.0)",1.5493042197033076,-0.00594912834521185,0.1586081706180975,"(0.0, 0.0, 0.0, 0.0, 0.0, 0.0)",0.11222926703597672,False,,,,,False,,,,
15,Open,,,,,,"[-0.026750000193715096, 0.05299999937415123, 0.03999999910593033]","[0.0, -0.0, 1.2114893406881728]","[-0.09415213763713837, 0.07831703126430511, 0.03999999910593033]","[0.0, -0.0, 1.2173745989650702]","[0.026750000193715096, 0.05299999937415123, 0.03999999910593033]","[0.0, 0.0, -1.2114945655338818]","[0.09415226429700851, 0.07831668108701706, 0.03999999910593033]","[0.0, 0.0, -1.2174436451143456]",1.247340532687297,8.604252461672083,"(0.0, 0.0, 0.0, 0.0, 0.0, 0.0)",-1.3949366588174594,0.00529667529397997,-0.14121288533778104,"(0.0, 0.0, 0.0, 0.0, 0.0, 0.0)",-0.1012051251161189,-1.2473451597178962,-8.604129074189437,"(0.0, 0.0, 0.0, 0.0, 0.0, 0.0)",1.394898604883462,-0.005354334697048719,0.1427504755591516,"(0.0, 0.0, 0.0, 0.0, 0.0, 0.0)",0.1011855790679586,False,,,,,False,,,,
16,Open,,,,,,"[-0.026750000193715096, 0.05299999937415123, 0.03999999910593033]","[0.0, -0.0, 1.2473405247091465]","[-0.09501627087593079, 0.07588484138250351, 0.03999999910593033]","[0.0, -0.0, 1.2526371614229614]","[0.026750000193715096, 0.05299999937415123, 0.03999999910593033]","[0.0, 0.0, -1.2473450561350814]","[0.09501637518405914, 0.07588452845811844, 0.03999999910593033]","[0.0, 0.0, -1.252699591080442]",1.2796064794185673,7.743827215504874,"(0.0, 0.0, 0.0, 0.0, 0.0, 0.0)",-1.2558681481324276,0.004767115224099335,-0.12709441677135241,"(0.0, 0.0, 0.0, 0.0, 0.0, 0.0)",-0.09122984935698081,-1.2796106437461066,-7.743716166770495,"(0.0, 0.0, 0.0, 0.0, 0.0, 0.0)",1.2558338345532607,-0.004819008666073119,0.128478247434144,"(0.0, 0.0, 0.0, 0.0, 0.0, 0.0)",0.09121220090323832,False,,,,,False,,,,
17,Open,,,,,,"[-0.026750000193715096, 0.05299999937415123, 0.03999999910593033]","[0.0, -0.0, 1.279606409124563]","[-0.09571900963783264, 0.0736706405878067, 0.03999999910593033]","[0.0, -0.0, 1.2843736758198352]","[0.026750000193715096, 0.05299999937415123, 0.03999999910593033]","[0.0, 0.0, -1.2796106525936015]","[0.0957190990447998, 0.07367035001516342, 0.03999999910593033]","[0.0, 0.0, -1.2844295613342638]",1.3086458314767107,6.969444493954387,"(0.0, 0.0, 0.0, 0.0, 0.0, 0.0)",-1.1305941221975622,0.00429170208951155,-0.1140991523010686,"(0.0, 0.0, 0.0, 0.0, 0.0, 0.0)",-0.082192919359827,-1.3086495793714958,-6.969344550093446,"(0.0, 0.0, 0.0, 0.0, 0.0, 0.0)",1.1305631934145834,-0.004338405935744441,0.11534465527888274,"(0.0, 0.0, 0.0, 0.0, 0.0, 0.0)",0.08217699569254354,False,,,,,False,,,,
18,Open,,,,,,"[-0.026750000193715096, 0.05299999937415123, 0.03999999910593033]","[0.0, -0.0, 1.308645825919811]","[-0.09629011154174805, 0.0716593861579895, 0.03999999910593033]","[0.0, -0.0, 1.3129373548657892]","[0.026750000193715096, 0.05299999937415123, 0.03999999910593033]","[0.0, 0.0, -1.308649569130343]","[0.09629017859697342, 0.07165912538766861, 0.03999999910593033]","[0.0, 0.0, -1.3129881167123505]",1.3347812483290395,6.272500044558946,"(0.0, 0.0, 0.0, 0.0, 0.0, 0.0)",-1.0178482622338179,0.003863702481573626,-0.10271990590510163,"(0.0, 0.0, 0.0, 0.0, 0.0, 0.0)",-0.07410352518858664,-1.3347846214343462,-6.272410095084102,"(0.0, 0.0, 0.0, 0.0, 0.0, 0.0)",1.0178203769740246,-0.0039057357160976183,0.10384085271523745,"(0.0, 0.0, 0.0, 0.0, 0.0, 0.0)",0.0740891498002037,False,,,,,False,,,,
19,Open,,,,,,"[-0.026750000193715096, 0.05299999937415123, 0.03999999910593033]","[0.0, -0.0, 1.3347813147466918]","[-0.09675397723913193, 0.06983575969934464, 0.03999999910593033]","[0.0, -0.0, 1.3386449621367835]","[0.026750000193715096, 0.05299999937415123, 0.03999999910593033]","[0.0, 0.0, -1.3347844615433213]","[0.0967540368437767, 0.06983552873134613, 0.03999999910593033]","[0.0, 0.0, -1.3386905382854437]",1.3583031234961356,5.645250040103052,"(0.0, 0.0, 0.0, 0.0, 0.0, 0.0)",-0.9162890978823036,0.0034783869891320215,-0.09247571818598516,"(0.0, 0.0, 0.0, 0.0, 0.0, 0.0)",-0.06677007440367574,-1.3583061592909116,-5.645169085575695,"(0.0, 0.0, 0.0, 0.0, 0.0, 0.0)",0.9162639666346021,-0.003516216695348753,0.09348456497972772,"(0.0, 0.0, 0.0, 0.0, 0.0, 0.0)",0.06675710630673855,False,,,,,False,,,,
20,Open,,,,,,"[-0.026750000193715096, 0.05299999937415123, 0.03999999910593033]","[0.0, -0.0, 1.3583030429358363]","[-0.09713058918714523, 0.06818463653326035, 0.03999999910593033]","[0.0, -0.0, 1.3617816714487538]","[0.026750000193715096, 0.05299999937415123, 0.03999999910593033]","[0.0, 0.0, -1.358306171033049]","[0.09713063389062881, 0.06818442046642303, 0.03999999910593033]","[0.0, 0.0, -1.361822351334537]",1.379472811146522,5.0807250360927485,"(0.0, 0.0, 0.0, 0.0, 0.0, 0.0)",-0.8248429295126702,0.003131498553648039,-0.08325322451615583,"(0.0, 0.0, 0.0, 0.0, 0.0, 0.0)",-0.06015531267018523,-1.3794755433618204,-5.080652177018124,"(0.0, 0.0, 0.0, 0.0, 0.0, 0.0)",0.8248202834423316,-0.003165545104486833,0.08416118180686077,"(0.0, 0.0, 0.0, 0.0, 0.0, 0.0)",0.06014361689139186,False,,,,,False,,,,
21,Open,,,,,,"[-0.026750000193715096, 0.05299999937415123, 0.03999999910593033]","[0.0, -0.0, 1.3794728975130914]","[-0.09743624925613403, 0.06669140607118607, 0.03999999910593033]","[0.0, -0.0, 1.382604304378769]","[0.026750000193715096, 0.05299999937415123, 0.03999999910593033]","[0.0, 0.0, -1.379475506721758]","[0.09743628650903702, 0.06669121235609055, 0.03999999910593033]","[0.0, 0.0, -1.3826409668082853]",1.3985255300318697,4.572652532483473,"(0.0, 0.0, 0.0, 0.0, 0.0, 0.0)",-0.7425066286387145,0.0028192047313806493,-0.07495051734417352,"(0.0, 0.0, 0.0, 0.0, 0.0, 0.0)",-0.054190171953983096,-1.3985279890256384,-4.57258695931631,"(0.0, 0.0, 0.0, 0.0, 0.0, 0.0)",0.7424862245436853,-0.0028498464605416357,0.07576767454684734,"(0.0, 0.0, 0.0, 0.0, 0.0, 0.0)",0.0541796259205944,False,,,,,False,,,,
22,Open,,,,,,"[-0.026750000193715096, 0.05299999937415123, 0.03999999910593033]","[0.0, -0.0, 1.398525454133583]","[-0.09768425673246384, 0.0653422400355339, 0.03999999910593033]","[0.0, -0.0, 1.4013447262228373]","[0.026750000193715096, 0.05299999937415123, 0.03999999910593033]","[0.0, 0.0, -1.3985280648022782]","[0.09768428653478622, 0.06534206122159958, 0.03999999910593033]","[0.0, 0.0, -1.4013779844801912]",1.4156729770286829,4.1153872792351285,"(0.0, 0.0, 0.0, 0.0, 0.0, 0.0)",-0.6683758137814145,0.002538055332395241,-0.06747585575649792,"(0.0, 0.0, 0.0, 0.0, 0.0, 0.0)",-0.04881194552870251,-1.4156751901230746,-4.115328263384682,"(0.0, 0.0, 0.0, 0.0, 0.0, 0.0)",0.6683574317692884,-0.002565632738451909,0.06821129330153437,"(0.0, 0.0, 0.0, 0.0, 0.0, 0.0)",0.0488024380394442,False,,,,,False,,,,
23,Open,,,,,,"[-0.026750000193715096, 0.05299999937415123, 0.03999999910593033]","[0.0, -0.0, 1.4156730334745993]","[-0.09788545966148376, 0.06412414461374283, 0.03999999910593033]","[0.0, -0.0, 1.418211036917125]","[0.026750000193715096, 0.05299999937415123, 0.03999999910593033]","[0.0, 0.0, -1.4156752315845986]","[0.09788548201322556, 0.0641239807009697, 0.03999999910593033]","[0.0, 0.0, -1.418240879504808]",1.4311056793258146,3.703848551311612,"(0.0, 0.0, 0.0, 0.0, 0.0, 0.0)",-0.6016352863054336,0.002284944287465684,-0.060746650783093666,"(0.0, 0.0, 0.0, 0.0, 0.0, 0.0)",-0.04396376851645251,-1.431107671110767,-3.7037954370462103,"(0.0, 0.0, 0.0, 0.0, 0.0, 0.0)",0.6016187276545472,-0.0023097638175418747,0.061408541018408244,"(0.0, 0.0, 0.0, 0.0, 0.0, 0.0)",0.043955198772734246,False,,,,,False,,,,
24,Open,,,,,,"[-0.026750000193715096, 0.05299999937415123, 0.03999999910593033]","[0.0, -0.0, 1.4311058207082674]","[-0.09804865717887878, 0.06302504986524582, 0.03999999910593033]","[0.0, -0.0, 1.433390691262394]","[0.026750000193715096, 0.05299999937415123, 0.03999999910593033]","[0.0, 0.0, -1.4311075924426346]","[0.09804867953062057, 0.06302490830421448, 0.03999999910593033]","[0.0, 0.0, -1.433417470845748]",1.4449951113932331,3.333463696180452,"(0.0, 0.0, 0.0, 0.0, 0.0, 0.0)",-0.5415503506795546,0.0020570753203455715,-0.05468855210882702,"(0.0, 0.0, 0.0, 0.0, 0.0, 0.0)",-0.039594115216637325,-1.4449969039996904,-3.3334158933415914,"(0.0, 0.0, 0.0, 0.0, 0.0, 0.0)",0.541535435877482,-0.002079412775410495,0.055284250111531166,"(0.0, 0.0, 0.0, 0.0, 0.0, 0.0)",0.03958639191865308,False,,,,,False,,,,
25,Open,,,,,,"[-0.026750000193715096, 0.05299999937415123, 0.03999999910593033]","[0.0, -0.0, 1.444995076522675]","[-0.09818101674318314, 0.062033817172050476, 0.03999999910593033]","[0.0, -0.0, 1.4470522962768402]","[0.026750000193715096, 0.05299999937415123, 0.03999999910593033]","[0.0, 0.0, -1.4449971061677662]","[0.09818103164434433, 0.06203368678689003, 0.03999999910593033]","[0.0, 0.0, -1.4470761943538692]",1.45749560025391,3.0001173265624064,"(0.0, 0.0, 0.0, 0.0, 0.0, 0.0)",-0.4874589573784058,0.001851931045420989,-0.04923462598189979,"(0.0, 0.0, 0.0, 0.0, 0.0, 0.0)",-0.03565633120497695,-1.4574972135997213,-3.000074304007432,"(0.0, 0.0, 0.0, 0.0, 0.0, 0.0)",0.4874455243270462,-0.0018720346450414762,0.04977075128856451,"(0.0, 0.0, 0.0, 0.0, 0.0, 0.0)",0.03564937171228022,False,,,,,False,,,,
26,Open,,,,,,"[-0.026750000193715096, 0.05299999937415123, 0.03999999910593033]","[0.0, -0.0, 1.4574954921785264]","[-0.09828835725784302, 0.061140209436416626, 0.03999999910593033]","[0.0, -0.0, 1.4593474823067423]","[0.026750000193715096, 0.05299999937415123, 0.03999999910593033]","[0.0, 0.0, -1.4574971848934346]","[0.09828837215900421, 0.061140093952417374, 0.03999999910593033]","[0.0, 0.0, -1.4593694397653831]",1.4687460402285188,2.700105593906164,"(0.0, 0.0, 0.0, 0.0, 0.0, 0.0)",-0.4387645947805427,0.0016672451487475934,-0.044324615201614966,"(0.0, 0.0, 0.0, 0.0, 0.0, 0.0)",-0.032108199676446195,-1.4687474922397492,-2.70006687360669,"(0.0, 0.0, 0.0, 0.0, 0.0, 0.0)",0.4387524971567325,-0.0016853382893528596,0.04480712536526797,"(0.0, 0.0, 0.0, 0.0, 0.0, 0.0)",0.03210192923147444,False,,,,,False,,,,
27,Open,,,,,,"[-0.026750000193715096, 0.05299999937415123, 0.03999999910593033]","[0.0, -0.0, 1.4687462228928074]","[-0.09837540984153748, 0.06033487245440483, 0.03999999910593033]","[0.0, -0.0, 1.4704133245237396]","[0.026750000193715096, 0.05299999937415123, 0.03999999910593033]","[0.0, 0.0, -1.4687474899518769]","[0.09837542474269867, 0.060334768146276474, 0.03999999910593033]","[0.0, 0.0, -1.4704329951986796]",1.478871436205667,2.430095034515549,"(0.0, 0.0, 0.0, 0.0, 0.0, 0.0)",-0.394929862139441,0.0015009773446580906,-0.03990427298148066,"(0.0, 0.0, 0.0, 0.0, 0.0, 0.0)",-0.028911540991871522,-1.4788727430157742,-2.430060186246021,"(0.0, 0.0, 0.0, 0.0, 0.0, 0.0)",0.39491896790015035,-0.001517261081966714,0.04033852977267494,"(0.0, 0.0, 0.0, 0.0, 0.0, 0.0)",0.02890589200411927,False,,,,,False,,,,
28,Open,,,,,,"[-0.026750000193715096, 0.05299999937415123, 0.03999999910593033]","[0.0, -0.0, 1.4788714352834713]","[-0.09844600409269333, 0.05960927531123161, 0.03999999910593033]","[0.0, -0.0, 1.480372508787761]","[0.026750000193715096, 0.05299999937415123, 0.03999999910593033]","[0.0, 0.0, -1.4788727099725336]","[0.09844601899385452, 0.05960918217897415, 0.03999999910593033]","[0.0, 0.0, -1.4803900544382056]",1.4879842925851003,2.1870855310639947,"(0.0, 0.0, 0.0, 0.0, 0.0, 0.0)",-0.3554706611703565,0.001351290830885638,-0.035924763305388616,"(0.0, 0.0, 0.0, 0.0, 0.0, 0.0)",-0.026031844038894282,-1.487985468714197,-2.1870541676214206,"(0.0, 0.0, 0.0, 0.0, 0.0, 0.0)",0.3554608511915877,-0.001365946114079445,0.03631559229294455,"(0.0, 0.0, 0.0, 0.0, 0.0, 0.0)",0.026026755426892093,False,,,,,False,,,,
29,Close,,,"(3.819349109750643e-09, 0.16999994350316286, 7.914305593764796e-05)","(1.5700606283751846, 1.2357610516186277e-06, -4.058049624060407e-09)",,"[-0.026750000193715096, 0.05299999937415123, 0.03999999910593033]","[0.0, -0.0, 1.4879842849605203]","[-0.09850326180458069, 0.05895565450191498, 0.03999999910593033]","[0.0, -0.0, 1.4893357278409396]","[0.026750000193715096, 0.05299999937415123, 0.03999999910593033]","[0.0, 0.0, -1.4879853833286059]","[0.09850326925516129, 0.05895556882023811, 0.03999999910593033]","[0.0, 0.0, -1.4893513332680077]",1.4961858633265903,1.9683769779575933,"(0.0, 0.0, 0.0, 0.0, 0.0, 0.0)",-0.31995094896823073,0.0012165319928285922,-0.03234212113369103,"(0.0, 0.0, 0.0, 0.0, 0.0, 0.0)",-0.02343792779000599,-1.4961869218427772,-1.9683487508592754,"(0.0, 0.0, 0.0, 0.0, 0.0, 0.0)",0.31994211580738524,-0.0012297216752996233,0.03269386530715718,"(0.0, 0.0, 0.0, 0.0, 0.0, 0.0)",0.02343334437795369,False,,,,,False,,,,
30,Close,,,"(1.09441459674075e-09, 0.16999988769159868, 0.0001519632082907279)","(1.5701173533571526, -2.5467641220651055e-06, -4.573996600559749e-08)",,"[-0.026750000193715096, 0.05299999937415123, 0.03999999910593033]","[0.0, -0.0, 1.4961860174198076]","[-0.09854969382286072, 0.05836696922779083, 0.03999999910593033]","[0.0, -0.0, 1.4974025341106605]","[0.026750000193715096, 0.05299999937415123, 0.03999999910593033]","[0.0, 0.0, -1.4961870219527165]","[0.09854969382286072, 0.05836689472198486, 0.03999999910593033]","[0.0, 0.0, -1.4974167044724178]",1.4065672769939312,-21.50846071983817,"(0.0, 0.0, 0.0, 0.0, 0.0, 0.0)",-36.83524610171859,-0.08890468746940376,-21.629092670935766,"(0.0, 0.0, 0.0, 0.0, 0.0, 0.0)",-4.936581214831643,-1.4065682296584996,21.508486124226657,"(0.0, 0.0, 0.0, 0.0, 0.0, 0.0)",36.83523814678565,0.0888928167555427,21.629409223402156,"(0.0, 0.0, 0.0, 0.0, 0.0, 0.0)",4.936577085092772,False,,,,,False,,,,
31,Close,,,"(3.541182821644653e-08, 0.1699998011443987, 0.00021906657187154062)","(1.570205104748116, 3.3042409171564205e-05, -8.114212850492596e-08)",,"[-0.026750000193715096, 0.05299999937415123, 0.03999999910593033]","[0.0, -0.0, 1.4065674382065954]","[-0.0977812185883522, 0.06477140635251999, 0.03999999910593033]","[0.0, -0.0, 1.3176625934179576]","[0.026750000193715096, 0.05299999937415123, 0.03999999910593033]","[0.0, 0.0, -1.4065680331882469]","[0.0977812260389328, 0.06477133929729462, 0.03999999910593033]","[0.0, 0.0, -1.3176753491400532]",1.3259105492945382,-19.357614647854348,"(0.0, 0.0, 0.0, 0.0, 0.0, 0.0)",3.3395407019063446,-0.17001473426920377,-19.466411231952,"(0.0, 0.0, 0.0, 0.0, 0.0, 0.0)",0.4376834422569755,-1.3259114066926496,19.35763751180399,"(0.0, 0.0, 0.0, 0.0, 0.0, 0.0)",-3.3395473112045253,0.1700040506304986,19.466696129989415,"(0.0, 0.0, 0.0, 0.0, 0.0, 0.0)",-0.43768664266468643,False,,,,,False,,,,
32,Close,,,"(3.361538948490201e-08, 0.16999974452330968, 0.00028077538773600935)","(1.5702911774727688, 7.027968338074274e-05, -7.017997684986258e-06)",,"[-0.026750000193715096, 0.05299999937415123, 0.03999999910593033]","[0.0, -0.0, 1.325910602539969]","[-0.09660188108682632, 0.07045608013868332, 0.03999999910593033]","[0.0, -0.0, 1.1558959321658662]","[0.026750000193715096, 0.05299999937415123, 0.03999999910593033]","[0.0, 0.0, -1.3259115331240872]","[0.09660189598798752, 0.07045602053403854, 0.03999999910593033]","[0.0, 0.0, -1.1559073716167563]",1.2533194943650845,-17.42185318306892,"(0.0, 0.0, 0.0, 0.0, 0.0, 0.0)",3.0100864599566086,-0.2430137284658432,-17.519758607193467,"(0.0, 0.0, 0.0, 0.0, 0.0, 0.0)",0.39699812510351973,-1.2533202660233846,17.42187376062359,"(0.0, 0.0, 0.0, 0.0, 0.0, 0.0)",-3.0100924602349655,0.24300411319445853,17.52001501535039,"(0.0, 0.0, 0.0, 0.0, 0.0, 0.0)",-0.39700105403357716,False,,,,,False,,,,
33,Close,,,"(1.2478111664315067e-07, 0.16999960627903704, 0.000337513976604643)","(1.5703757790333803, 0.0001088681261817636, -5.122611399447184e-06)",,"[-0.026750000193715096, 0.05299999937415123, 0.03999999910593033]","[0.0, -0.0, 1.2533194489161892]","[-0.0951518788933754, 0.07547627389431, 0.03999999910593033]","[0.0, -0.0, 1.0103057011386807]","[0.026750000193715096, 0.05299999937415123, 0.03999999910593033]","[0.0, 0.0, -1.2533201846969224]","[0.09515189379453659, 0.07547622174024582, 0.03999999910593033]","[0.0, 0.0, -1.010316110149499]",1.1879875449285762,-15.679667864762028,"(0.0, 0.0, 0.0, 0.0, 0.0, 0.0)",2.712712783767229,-0.30871235561933186,-15.767670516837281,"(0.0, 0.0, 0.0, 0.0, 0.0, 0.0)",0.3597856734528228,-1.1879882394210461,15.679686384561233,"(0.0, 0.0, 0.0, 0.0, 0.0, 0.0)",-2.712718226071338,0.30870370187508567,15.767901283350515,"(0.0, 0.0, 0.0, 0.0, 0.0, 0.0)",-0.35978834883250516,False,,,,,False,,,,
34,Close,,,"(1.2869376016944667e-07, 0.16999954011037416, 0.00038973303114976833)","(1.5704582297133343, 0.0001496263682483943, -9.931543136061158e-06)",,"[-0.026750000193715096, 0.05299999937415123, 0.03999999910593033]","[0.0, -0.0, 1.1879876003522736]","[-0.09353857487440109, 0.07989397644996643, 0.03999999910593033]","[0.0, -0.0, 0.8792752425767008]","[0.026750000193715096, 0.05299999937415123, 0.03999999910593033]","[0.0, 0.0, -1.1879882623869136]","[0.09353859722614288, 0.07989392429590225, 0.03999999910593033]","[0.0, 0.0, -0.8792844680170303]",1.1291887904356523,-14.1117010783017,"(0.0, 0.0, 0.0, 0.0, 0.0, 0.0)",2.44436472036771,-0.36784112005739866,-14.190903465136039,"(0.0, 0.0, 0.0, 0.0, 0.0, 0.0)",0.3258007578595482,-1.1291894154788755,14.111717746120975,"(0.0, 0.0, 0.0, 0.0, 0.0, 0.0)",-2.444369652349295,0.3678333316875771,14.191111154997946,"(0.0, 0.0, 0.0, 0.0, 0.0, 0.0)",-0.32580319741325486,False,,,,,False,,,,
35,Close,,,"(2.2147778895778094e-07, 0.169999403724105, 0.00043775502472391954)","(1.5705392813318275, 0.0001916771605813282, -8.19762937926826e-06)",,"[-0.026750000193715096, 0.05299999937415123, 0.03999999910593033]","[0.0, -0.0, 1.1291888000608494]","[-0.09184273332357407, 0.08377231657505035, 0.03999999910593033]","[0.0, -0.0, 0.7613476921786614]","[0.026750000193715096, 0.05299999937415123, 0.03999999910593033]","[0.0, 0.0, -1.1291894580384154]","[0.09184275567531586, 0.08377227932214737, 0.03999999910593033]","[0.0, 0.0, -0.7613561373098183]",1.0762699113920273,-12.700530970470014,"(0.0, 0.0, 0.0, 0.0, 0.0, 0.0)",2.202305891359772,-0.4210570080516588,-12.77181311862243,"(0.0, 0.0, 0.0, 0.0, 0.0, 0.0)",0.2948453788489373,-1.0762704739309281,12.700545971507374,"(0.0, 0.0, 0.0, 0.0, 0.0, 0.0)",-2.2023103576802145,0.4210499985188194,12.77200003949815,"(0.0, 0.0, 0.0, 0.0, 0.0, 0.0)",-0.2948476002056522,False,,,,,False,,,,
36,Close,,,"(2.1912693722736075e-07, 0.16999934361709654, 0.000481956449276018)","(1.5706184388641253, 0.00023565575873296478, -1.2845786801691941e-05)",,"[-0.026750000193715096, 0.05299999937415123, 0.03999999910593033]","[0.0, -0.0, 1.0762698553554748]","[-0.09012393653392792, 0.08717226982116699, 0.03999999910593033]","[0.0, -0.0, 0.6552128934948661]","[0.026750000193715096, 0.05299999937415123, 0.03999999910593033]","[0.0, 0.0, -1.0762704893583]","[0.09012395888566971, 0.08717223256826401, 0.03999999910593033]","[0.0, 0.0, -0.6552204147476549]",1.0286429202528247,-11.430477873408655,"(0.0, 0.0, 0.0, 0.0, 0.0, 0.0)",1.9840011930578276,-0.46895130724721834,-11.494631806934295,"(0.0, 0.0, 0.0, 0.0, 0.0, 0.0)",0.26667684533441977,-1.0286434265378352,11.430491374342276,"(0.0, 0.0, 0.0, 0.0, 0.0, 0.0)",-1.984005235051249,0.4689449986676629,11.494800035722442,"(0.0, 0.0, 0.0, 0.0, 0.0, 0.0)",-0.26667886541975433,False,,,,,False,,,,
37,Close,,,"(3.1131510586280866e-07, 0.1699992121070205, 0.0005226007520893923)","(1.5706964879884222, 0.0002806415891397876, -1.1307759452448239e-05)",,"[-0.026750000193715096, 0.05299999937415123, 0.03999999910593033]","[0.0, -0.0, 1.0286429345076582]","[-0.0884251669049263, 0.09015069156885147, 0.03999999910593033]","[0.0, -0.0, 0.5596916647508587]","[0.026750000193715096, 0.05299999937415123, 0.03999999910593033]","[0.0, 0.0, -1.0286435120859125]","[0.08842518925666809, 0.09015065431594849, 0.03999999910593033]","[0.0, 0.0, -0.5596984028120249]",0.9857786282275423,-10.287430086067793,"(0.0, 0.0, 0.0, 0.0, 0.0, 0.0)",1.787161045327472,-0.5120561765231523,-10.345168626224153,"(0.0, 0.0, 0.0, 0.0, 0.0, 0.0)",0.24107512437447856,-0.9857790838840517,10.28744223690805,"(0.0, 0.0, 0.0, 0.0, 0.0, 0.0)",-1.787164701188607,0.5120504988015524,10.345320032133483,"(0.0, 0.0, 0.0, 0.0, 0.0, 0.0)",-0.24107695935135354,False,,,,,False,,,,
38,Close,,,"(3.0991842655903425e-07, 0.169999153087261, 0.0005600347082356065)","(1.570772558536085, 0.00032764712563817383, -1.5390013302753274e-05)",,"[-0.026750000193715096, 0.05299999937415123, 0.03999999910593033]","[0.0, -0.0, 0.9857786218799983]","[-0.08677656948566437, 0.09275941550731659, 0.03999999910593033]","[0.0, -0.0, 0.4737224893055005]","[0.026750000193715096, 0.05299999937415123, 0.03999999910593033]","[0.0, 0.0, -0.9857791586690391]","[0.08677658438682556, 0.0927593931555748, 0.03999999910593033]","[0.0, 0.0, -0.47372859204714834]",0.9472007654041954,-9.258687077603232,"(0.0, 0.0, 0.0, 0.0, 0.0, 0.0)",1.6097085175776904,-0.550850558870837,-9.310651763444346,"(0.0, 0.0, 0.0, 0.0, 0.0, 0.0)",0.21783104241587867,-0.9472011754950539,9.258698013359455,"(0.0, 0.0, 0.0, 0.0, 0.0, 0.0)",-1.609711822487034,0.5508454489213972,9.310788028762744,"(0.0, 0.0, 0.0, 0.0, 0.0, 0.0)",-0.21783270758412676,False,,,,,False,,,,
39,Close,,,"(4.0106165104263135e-07, 0.169999026405202, 0.0005944331352702725)","(1.570848092729261, 0.0003750986118602944, -1.4060502423520339e-05)",,"[-0.026750000193715096, 0.05299999937415123, 0.03999999910593033]","[0.0, -0.0, 0.9472008140782049]","[-0.08519845455884933, 0.09504495561122894, 0.03999999910593033]","[0.0, -0.0, 0.39635019782230363]","[0.026750000193715096, 0.05299999937415123, 0.03999999910593033]","[0.0, 0.0, -0.9472011867132297]","[0.08519846946001053, 0.09504493325948715, 0.03999999910593033]","[0.0, 0.0, -0.3963557154153113]",0.9124806888632406,-8.332818369829143,"(0.0, 0.0, 0.0, 0.0, 0.0, 0.0)",1.4497611633824499,-0.5857655029837533,-8.379586587099913,"(0.0, 0.0, 0.0, 0.0, 0.0, 0.0)",0.19674731686213875,-0.9124810579450133,8.332828212009746,"(0.0, 0.0, 0.0, 0.0, 0.0, 0.0)",-1.4497641496546352,0.5857609040292575,8.379709225886469,"(0.0, 0.0, 0.0, 0.0, 0.0, 0.0)",-0.1967488266016999,False,,,,,False,,,,
40,Close,,,"(3.70657372146465e-07, 0.16999903038777142, 0.0006260749884053443)","(1.5708440552876382, 0.00034508120830118214, -1.4055585689260766e-05)",,"[-0.026750000193715096, 0.05299999937415123, 0.03999999910593033]","[0.0, -0.0, 0.9124807402838544]","[-0.08370371162891388, 0.09704854339361191, 0.03999999910593033]","[0.0, -0.0, 0.32671521193417863]","[0.026750000193715096, 0.05299999937415123, 0.03999999910593033]","[0.0, 0.0, -0.9124811663733811]","[0.08370373398065567, 0.09704852104187012, 0.03999999910593033]","[0.0, 0.0, -0.32672018954414506]",0.8812326199769166,-7.499536532717775,"(0.0, 0.0, 0.0, 0.0, 0.0, 0.0)",1.3056085801322186,-0.6171891619197363,-7.541678144635914,"(0.0, 0.0, 0.0, 0.0, 0.0, 0.0)",0.17763358199117588,-0.881232952150512,7.499545390680321,"(0.0, 0.0, 0.0, 0.0, 0.0, 0.0)",-1.305611277336412,0.617185022862301,7.541788519930457,"(0.0, 0.0, 0.0, 0.0, 0.0, 0.0)",-0.17763494969582577,False,,,,,False,,,,
41,Close,,,"(3.427044292909036e-07, 0.1699990340506735, 0.0006551854712062516)","(1.5708403346470328, 0.0003174583455114455, -1.4051356821419932e-05)",,"[-0.026750000193715096, 0.05299999937415123, 0.03999999910593033]","[0.0, -0.0, 0.8812326035131218]","[-0.08229970186948776, 0.09880644828081131, 0.03999999910593033]","[0.0, -0.0, 0.26404346611112495]","[0.026750000193715096, 0.05299999937415123, 0.03999999910593033]","[0.0, 0.0, -0.8812328730718287]","[0.08229971677064896, 0.09880642592906952, 0.03999999910593033]","[0.0, 0.0, -0.2640479150919315]",0.8531093579792249,-6.749582879446001,"(0.0, 0.0, 0.0, 0.0, 0.0, 0.0)",1.1757252455852583,-0.6454704345862542,-6.78750543996429,"(0.0, 0.0, 0.0, 0.0, 0.0, 0.0)",0.16033509317806058,-0.8531096569354608,6.7495908516122896,"(0.0, 0.0, 0.0, 0.0, 0.0, 0.0)",-1.1757276808922346,0.645466709436021,6.787604777692787,"(0.0, 0.0, 0.0, 0.0, 0.0, 0.0)",-0.16033633143309114,False,,,,,False,,,,
42,Close,,,"(3.170084497545684e-07, 0.16999903740907119, 0.0006819671107693073)","(1.570836911771951, 0.00029204530032808255, -1.4047683015968837e-05)",,"[-0.026750000193715096, 0.05299999937415123, 0.03999999910593033]","[0.0, -0.0, 0.8531093567174074]","[-0.08098968118429184, 0.10035036504268646, 0.03999999910593033]","[0.0, -0.0, 0.2076389231904772]","[0.026750000193715096, 0.05299999937415123, 0.03999999910593033]","[0.0, 0.0, -0.8531096230941355]","[0.08098969608545303, 0.10035035014152527, 0.03999999910593033]","[0.0, 0.0, -0.2076429742570099]",0.8277984221813024,-6.0746245915014,"(0.0, 0.0, 0.0, 0.0, 0.0, 0.0)",1.0586966037970245,-0.6709235615380169,-6.1087504684230565,"(0.0, 0.0, 0.0, 0.0, 0.0, 0.0)",0.14467321668423558,-0.8277986912419147,6.074631766451059,"(0.0, 0.0, 0.0, 0.0, 0.0, 0.0)",-1.0586988018726124,0.6709202089041267,6.108839872345364,"(0.0, 0.0, 0.0, 0.0, 0.0, 0.0)",-0.14467433700617466,False,,,,,False,,,,
43,Close,,,"(2.93385406087929e-07, 0.16999904048782613, 0.0007066062149797113)","(1.5708337628331848, 0.0002686652895538331, -1.4044478861914954e-05)",,"[-0.026750000193715096, 0.05299999937415123, 0.03999999910593033]","[0.0, -0.0, 0.8277984323872327]","[-0.07977395504713058, 0.10170790553092957, 0.03999999910593033]","[0.0, -0.0, 0.15687485461046338]","[0.026750000193715096, 0.05299999937415123, 0.03999999910593033]","[0.0, 0.0, -0.8277987052452376]","[0.07977396249771118, 0.10170789808034897, 0.03999999910593033]","[0.0, 0.0, -0.15687847762667875]",0.8050185799631722,-5.467162132351259,"(0.0, 0.0, 0.0, 0.0, 0.0, 0.0)",0.9532674830029981,-0.6938313591081322,-5.497871416827678,"(0.0, 0.0, 0.0, 0.0, 0.0, 0.0)",0.1305069121449798,-0.8050188221177232,5.467168589805953,"(0.0, 0.0, 0.0, 0.0, 0.0, 0.0)",-0.9532694663734236,0.6938283417388244,5.49795188032743,"(0.0, 0.0, 0.0, 0.0, 0.0, 0.0)",-0.13050792520753388,False,,,,,False,,,,
44,Close,,,"(2.716665250887489e-07, 0.16999904330973556, 0.0007292741870466809)","(1.5708308659078907, 0.0002471556717650467, -1.4041672069322908e-05)",,"[-0.026750000193715096, 0.05299999937415123, 0.03999999910593033]","[0.0, -0.0, 0.8050185839979388]","[-0.07865073531866074, 0.10290304571390152, 0.03999999910593033]","[0.0, -0.0, 0.11118723016400785]","[0.026750000193715096, 0.05299999937415123, 0.03999999910593033]","[0.0, 0.0, -0.8050187952188965]","[0.07865074276924133, 0.10290303081274033, 0.03999999910593033]","[0.0, 0.0, -0.11119048022217565]",0.784516721966855,-4.920445919116134,"(0.0, 0.0, 0.0, 0.0, 0.0, 0.0)",0.8582975670224743,-0.7144483618360385,-4.948080654697517,"(0.0, 0.0, 0.0, 0.0, 0.0, 0.0)",0.11770004006048959,-0.784516939905951,4.92045173082536,"(0.0, 0.0, 0.0, 0.0, 0.0, 0.0)",-0.8582993561887614,0.7144456462047399,4.948153071819748,"(0.0, 0.0, 0.0, 0.0, 0.0, 0.0)",-0.11770095568272418,False,,,,,False,,,,
45,Close,,,"(2.51696986958339e-07, 0.1699990458957082, 0.0007501287178850499)","(1.5708282008276007, 0.000227366816649173, -1.4039201474218165e-05)",,"[-0.026750000193715096, 0.05299999937415123, 0.03999999910593033]","[0.0, -0.0, 0.7845167193080385]","[-0.07761679589748383, 0.10395654290914536, 0.03999999910593033]","[0.0, -0.0, 0.07006835685702544]","[0.026750000193715096, 0.05299999937415123, 0.03999999910593033]","[0.0, 0.0, -0.7845169946958266]","[0.07761680334806442, 0.10395653545856476, 0.03999999910593033]","[0.0, 0.0, -0.0700712989357174]",0.7660650497701694,-4.42840132720452,"(0.0, 0.0, 0.0, 0.0, 0.0, 0.0)",0.7727568402429666,-0.7330036506599046,-4.453269317727849,"(0.0, 0.0, 0.0, 0.0, 0.0, 0.0)",0.106127525293464,-0.7660652459153559,4.428406557742824,"(0.0, 0.0, 0.0, 0.0, 0.0, 0.0)",-0.7727584538402424,0.7330012065927102,4.453334493112861,"(0.0, 0.0, 0.0, 0.0, 0.0, 0.0)",-0.10612835248484857,False,,,,,False,,,,
46,Close,,,"(2.3333473952068603e-07, 0.16999904826492518, 0.0007693148831029557)","(1.5708257490378412, 0.00020916106414766092, -1.403701531280991e-05)",,"[-0.026750000193715096, 0.05299999937415123, 0.03999999910593033]","[0.0, -0.0, 0.7660649977175382]","[-0.07666795700788498, 0.10488639771938324, 0.03999999910593033]","[0.0, -0.0, 0.03306140223906952]","[0.026750000193715096, 0.05299999937415123, 0.03999999910593033]","[0.0, 0.0, -0.7660653079646047]","[0.07666796445846558, 0.10488638281822205, 0.03999999910593033]","[0.0, 0.0, -0.033064041138401834]",0.7494585447931524,-3.985561194484066,"(0.0, 0.0, 0.0, 0.0, 0.0, 0.0)",0.6957152666369016,-0.7497033982890566,-4.007939430996486,"(0.0, 0.0, 0.0, 0.0, 0.0, 0.0)",0.09567473522853766,-0.7494587213238203,3.985565901968542,"(0.0, 0.0, 0.0, 0.0, 0.0, 0.0)",-0.6957167215859875,0.7497011986294615,4.007998088820328,"(0.0, 0.0, 0.0, 0.0, 0.0, 0.0)",-0.09567548223716564,False,,,,,False,,,,
47,Close,,,"(2.1644941757498085e-07, 0.1699990504349868, 0.0007869661522299996)","(1.5708234934689855, 0.0001924117668631307, -1.4035069780186692e-05)",,"[-0.026750000193715096, 0.05299999937415123, 0.03999999910593033]","[0.0, -0.0, 0.7494586090384826]","[-0.07579945772886276, 0.10570816695690155, 0.03999999910593033]","[0.0, 0.0, -0.000244853492999894]","[0.026750000193715096, 0.05299999937415123, 0.03999999910593033]","[0.0, 0.0, -0.7494587081400255]","[0.07579946517944336, 0.10570815205574036, 0.03999999910593033]","[0.0, -0.0, 0.00024247731079752444]",0.7345126903138371,-3.587005075035659,"(0.0, 0.0, 0.0, 0.0, 0.0, 0.0)",0.626333365984163,-0.764733160038395,-3.6071428198412123,"(0.0, 0.0, 0.0, 0.0, 0.0, 0.0)",0.08623682787405348,-0.7345128491914382,3.587009311771688,"(0.0, 0.0, 0.0, 0.0, 0.0, 0.0)",-0.6263346776346612,0.7647311803455538,3.607195611862134,"(0.0, 0.0, 0.0, 0.0, 0.0, 0.0)",-0.08623750223625977,False,,,,,False,,,,
48,Close,,,"(1.9902478529523268e-07, 0.16999905216510106, 0.0008031506134026157)","(1.5708213694672628, 0.00017518801369688713, -1.4031269556480368e-05)",,"[-0.026750000193715096, 0.05299999937415123, 0.03999999910593033]","[0.0, -0.0, 0.7345126628086843]","[-0.07500623911619186, 0.10643533617258072, 0.03999999910593033]","[0.0, 0.0, -0.03022046980229406]","[0.026750000193715096, 0.05299999937415123, 0.03999999910593033]","[0.0, 0.0, -0.7345128981556924]","[0.07500624656677246, 0.10643532872200012, 0.03999999910593033]","[0.0, -0.0, 0.03021832986745902]",0.7210614212824534,-3.228304567532092,"(0.0, 0.0, 0.0, 0.0, 0.0, 0.0)",0.5638237707840803,-0.7782610712626786,-3.246698693828069,"(0.0, 0.0, 0.0, 0.0, 0.0, 0.0)",0.07768823801248652,-0.7210615642722944,3.2283083805945183,"(0.0, 0.0, 0.0, 0.0, 0.0, 0.0)",-0.5638249528147553,0.7782592895487316,3.2467462087626835,"(0.0, 0.0, 0.0, 0.0, 0.0, 0.0)",-0.07768884636877696,False,,,,,False,,,,
49,Close,,,"(1.829952775457341e-07, 0.16999905372445717, 0.0008180403399689366)","(1.5708194143492393, 0.00015934185659229473, -1.4027683329641553e-05)",,"[-0.026750000193715096, 0.05299999937415123, 0.03999999910593033]","[0.0, -0.0, 0.7210614193238458]","[-0.07428312301635742, 0.10707958787679672, 0.03999999910593033]","[0.0, 0.0, -0.05719964992344959]","[0.026750000193715096, 0.05299999937415123, 0.03999999910593033]","[0.0, 0.0, -0.7210615729227128]","[0.07428313046693802, 0.10707958042621613, 0.03999999910593033]","[0.0, -0.0, 0.05719773186848648]",0.7089552791542081,-2.905474110778883,"(0.0, 0.0, 0.0, 0.0, 0.0, 0.0)",0.5075985242705942,-0.7904360705014085,-2.921999817295172,"(0.0, 0.0, 0.0, 0.0, 0.0, 0.0)",0.07003713951344083,-0.7089554078450649,2.905477542535066,"(0.0, 0.0, 0.0, 0.0, 0.0, 0.0)",-0.5075995897946305,0.7904344669675306,2.9220425805117625,"(0.0, 0.0, 0.0, 0.0, 0.0, 0.0)",-0.07003768863744474,False,,,,,False,,,,
50,Close,,,"(1.682467379846132e-07, 0.1699990551245469, 0.0008317388481303276)","(1.570817615731277, 0.00014476218910829968, -1.4024269510216624e-05)",,"[-0.026750000193715096, 0.05299999937415123, 0.03999999910593033]","[0.0, -0.0, 0.7089552779168017]","[-0.07362496107816696, 0.10765105485916138, 0.03999999910593033]","[0.0, 0.0, -0.08148078223376223]","[0.026750000193715096, 0.05299999937415123, 0.03999999910593033]","[0.0, 0.0, -0.7089554724698194]","[0.07362496852874756, 0.10765104740858078, 0.03999999910593033]","[0.0, -0.0, 0.0814790502780401]",0.6980597512387873,-2.6149266997009946,"(0.0, 0.0, 0.0, 0.0, 0.0, 0.0)",0.45693917814201784,-0.8013934602632394,-2.6297735428394082,"(0.0, 0.0, 0.0, 0.0, 0.0, 0.0)",0.06310201359777694,-0.6980598670605584,2.614929788281559,"(0.0, 0.0, 0.0, 0.0, 0.0, 0.0)",-0.45694013827892466,0.8013920170905735,2.6298120295302843,"(0.0, 0.0, 0.0, 0.0, 0.0, 0.0)",-0.06310250889925509,False,,,,,False,,,,
51,Close,,,"(1.546756367802499e-07, 0.16999905637827734, 0.0008443414385910609)","(1.5708159610857961, 0.00013134778772512943, -1.402100024143693e-05)",,"[-0.026750000193715096, 0.05299999937415123, 0.03999999910593033]","[0.0, -0.0, 0.6980597686270504]","[-0.07302673906087875, 0.10815852880477905, 0.03999999910593033]","[0.0, 0.0, -0.10333370902653251]","[0.026750000193715096, 0.05299999937415123, 0.03999999910593033]","[0.0, 0.0, -0.6980598246378259]","[0.07302674651145935, 0.10815852135419846, 0.03999999910593033]","[0.0, -0.0, 0.10333215264877679]",0.6882537761149086,-2.3534340297308955,"(0.0, 0.0, 0.0, 0.0, 0.0, 0.0)",0.41132662822933225,-0.8112550122446371,-2.3667724755354502,"(0.0, 0.0, 0.0, 0.0, 0.0, 0.0)",0.056847326346645,-0.6882538803545026,2.353436809453404,"(0.0, 0.0, 0.0, 0.0, 0.0, 0.0)",-0.4113274932960819,0.8112537133962935,2.3668071133728046,"(0.0, 0.0, 0.0, 0.0, 0.0, 0.0)",-0.0568477730004364,False,,,,,False,,,,
52,Close,,,"(1.4218689550358636e-07, 0.1699990574974972, 0.0008559357877458743)","(1.5708144388885392, 0.00011900551991941484, -1.4017852050493115e-05)",,"[-0.026750000193715096, 0.05299999937415123, 0.03999999910593033]","[0.0, -0.0, 0.6882538042795985]","[-0.07248363643884659, 0.10860966145992279, 0.03999999910593033]","[0.0, 0.0, -0.12300123728040792]","[0.026750000193715096, 0.05299999937415123, 0.03999999910593033]","[0.0, 0.0, -0.688253900607872]","[0.07248364388942719, 0.1086096540093422, 0.03999999910593033]","[0.0, -0.0, 0.12299984676553348]",0.6794283985034177,-2.118090626757806,"(0.0, 0.0, 0.0, 0.0, 0.0, 0.0)",0.3702598465395096,-0.8201303199370257,-2.1300738461732434,"(0.0, 0.0, 0.0, 0.0, 0.0, 0.0)",0.051207533272865695,-0.6794284923190523,2.1180931285080637,"(0.0, 0.0, 0.0, 0.0, 0.0, 0.0)",-0.37026062586363284,0.8201291509798778,2.130105020060234,"(0.0, 0.0, 0.0, 0.0, 0.0, 0.0)",-0.051207935975855504,False,,,,,False,,,,
53,Close,,,"(1.3069318416839e-07, 0.16999905849308636, 0.0008666025576372722)","(1.5708130385376784, 0.00010764969663878531, -1.401480516953977e-05)",,"[-0.026750000193715096, 0.05299999937415123, 0.03999999910593033]","[0.0, -0.0, 0.6794284238724229]","[-0.07199108600616455, 0.10901110619306564, 0.03999999910593033]","[0.0, 0.0, -0.14070193198542613]","[0.026750000193715096, 0.05299999937415123, 0.03999999910593033]","[0.0, 0.0, -0.6794284800706577]","[0.07199109345674515, 0.10901109874248505, 0.03999999910593033]","[0.0, -0.0, 0.1407006814892172]",0.6714855586530759,-1.9062815640820263,"(0.0, 0.0, 0.0, 0.0, 0.0, 0.0)",0.33328720146674756,-0.82811801654313,-1.9170471854650495,"(0.0, 0.0, 0.0, 0.0, 0.0, 0.0)",0.0461231568532664,-0.6714856430871471,1.9062838156572566,"(0.0, 0.0, 0.0, 0.0, 0.0, 0.0)",-0.33328790347714454,0.8281169644874314,1.917075241812861,"(0.0, 0.0, 0.0, 0.0, 0.0, 0.0)",-0.04612351986457081,False,,,,,False,,,,
54,Close,,,"(1.201142787701026e-07, 0.1699990593750365, 0.0008764159571233717)","(1.5708117502799854, 9.720147739875066e-05, -1.4011842957469135e-05)",,"[-0.026750000193715096, 0.05299999937415123, 0.03999999910593033]","[0.0, -0.0, 0.6714856028191667]","[-0.07154478132724762, 0.10936867445707321, 0.03999999910593033]","[0.0, 0.0, -0.1566324602805662]","[0.026750000193715096, 0.05299999937415123, 0.03999999910593033]","[0.0, 0.0, -0.6714856028191667]","[0.07154478132724762, 0.10936867445707321, 0.03999999910593033]","[0.0, -0.0, 0.15663130155257995]",0.6643370027877683,-1.7156534076738226,"(0.0, 0.0, 0.0, 0.0, 0.0, 0.0)",0.30000166468946887,-0.8353068710937589,-1.7253250921509458,"(0.0, 0.0, 0.0, 0.0, 0.0, 0.0)",0.041540284771796165,-0.6643370787784324,1.7156554340915304,"(0.0, 0.0, 0.0, 0.0, 0.0, 0.0)",-0.3000022969997827,0.8353059242487986,1.725350342728124,"(0.0, 0.0, 0.0, 0.0, 0.0, 0.0)",-0.041540611950472935,False,,,,,False,,,,
55,Close,,,"(1.1037647424359984e-07, 0.16999906015252483, 0.0008854442581506275)","(1.5708105651429114, 8.758832292823178e-05, -1.4008951415989527e-05)",,"[-0.026750000193715096, 0.05299999937415123, 0.03999999910593033]","[0.0, -0.0, 0.6643370606126838]","[-0.07114068418741226, 0.1096874549984932, 0.03999999910593033]","[0.0, 0.0, -0.17096987637179278]","[0.026750000193715096, 0.05299999937415123, 0.03999999910593033]","[0.0, 0.0, -0.6643370606126838]","[0.07114069163799286, 0.1096874475479126, 0.03999999910593033]","[0.0, -0.0, 0.17096884643662202]",0.6579033025089914,-1.5440880669064398,"(0.0, 0.0, 0.0, 0.0, 0.0, 0.0)",0.2700364572532802,-0.8417767749452665,-1.5527769243618206,"(0.0, 0.0, 0.0, 0.0, 0.0, 0.0)",0.03741008611729049,-0.6579033709005891,1.5440898906823783,"(0.0, 0.0, 0.0, 0.0, 0.0, 0.0)",-0.27003702673818186,0.8417759227894597,1.5527996497586782,"(0.0, 0.0, 0.0, 0.0, 0.0, 0.0)",-0.03741038095743008,False,,,,,False,,,,
56,Close,,,"(1.0141204673652616e-07, 0.16999906083398159, 0.0008937502707232629)","(1.570809474872104, 7.87434915574051e-05, -1.4006118772737545e-05)",,"[-0.026750000193715096, 0.05299999937415123, 0.03999999910593033]","[0.0, -0.0, 0.6579033304946226]","[-0.07077505439519882, 0.10997187346220016, 0.03999999910593033]","[0.0, 0.0, -0.18387348897538708]","[0.026750000193715096, 0.05299999937415123, 0.03999999910593033]","[0.0, 0.0, -0.6579033304946226]","[0.07077506184577942, 0.10997187346220016, 0.03999999910593033]","[0.0, -0.0, 0.1838725619548152]",0.6521129722580923,-1.3896792602157946,"(0.0, 0.0, 0.0, 0.0, 0.0, 0.0)",0.24306111081870946,-0.8475996296201711,-1.3974851219770965,"(0.0, 0.0, 0.0, 0.0, 0.0, 0.0)",0.033688362136148925,-0.6521130338105302,1.38968090161414,"(0.0, 0.0, 0.0, 0.0, 0.0, 0.0)",-0.24306162368353448,0.8475988626841415,1.3975055747236533,"(0.0, 0.0, 0.0, 0.0, 0.0, 0.0)",-0.03368862779939208,False,,,,,False,,,,
57,Close,,,"(9.31587620256511e-08, 0.16999906142715163, 0.0009013917798737923)","(1.570808471873919, 7.060557585400826e-05, -1.4003335136779464e-05)",,"[-0.026750000193715096, 0.05299999937415123, 0.03999999910593033]","[0.0, -0.0, 0.6521129301518677]","[-0.07044443488121033, 0.11022583395242691, 0.03999999910593033]","[0.0, 0.0, -0.19548665573955404]","[0.026750000193715096, 0.05299999937415123, 0.03999999910593033]","[0.0, 0.0, -0.6521129866161153]","[0.07044444233179092, 0.11022583395242691, 0.03999999910593033]","[0.0, -0.0, 0.19548582525750646]",0.646901675032283,-1.2507113341942153,"(0.0, 0.0, 0.0, 0.0, 0.0, 0.0)",0.2187779064062842,-0.8528401458571484,-1.2577238968745574,"(0.0, 0.0, 0.0, 0.0, 0.0, 0.0)",0.03033513071724496,-0.6469017304294772,1.2507128114527255,"(0.0, 0.0, 0.0, 0.0, 0.0, 0.0)",-0.2187783682505172,0.8528394556185027,1.2577423042466835,"(0.0, 0.0, 0.0, 0.0, 0.0, 0.0)",-0.03033537006280305,False,,,,,False,,,,
58,Close,,,"(8.555942447331213e-08, 0.16999906193915107, 0.000908421947674647)","(1.5708075491625393, 6.311807629477444e-05, -1.4000592203169427e-05)",,"[-0.026750000193715096, 0.05299999937415123, 0.03999999910593033]","[0.0, -0.0, 0.6469017074975589]","[-0.0701456218957901, 0.11045276373624802, 0.03999999910593033]","[0.0, 0.0, -0.20593848593871938]","[0.026750000193715096, 0.05299999937415123, 0.03999999910593033]","[0.0, 0.0, -0.6469017640113621]","[0.0701456293463707, 0.11045276373624802, 0.03999999910593033]","[0.0, -0.0, 0.2059377054983325]",0.6422115075290548,-1.1256402007747932,"(0.0, 0.0, 0.0, 0.0, 0.0, 0.0)",0.19691865600140895,-0.8575565627499749,-1.1319400542783593,"(0.0, 0.0, 0.0, 0.0, 0.0, 0.0)",0.027314243362735774,-0.6422115573865295,1.1256415303074527,"(0.0, 0.0, 0.0, 0.0, 0.0, 0.0)",-0.19691907187647334,0.8575559415385998,1.1319566208232932,"(0.0, 0.0, 0.0, 0.0, 0.0, 0.0)",-0.027314458975022625,False,,,,,False,,,,
59,Move,,,"(7.856146500561274e-08, 0.16999906237651882, 0.0009148896830877347)","(1.5708067003113224, 5.6229009009845055e-05, -1.399788300299107e-05)","[0.0, 0.0, 0.0]","[-0.026750000193715096, 0.05299999937415123, 0.03999999910593033]","[0.0, -0.0, 0.6422115222668433]","[-0.06987567991018295, 0.11065566539764404, 0.03999999910593033]","[0.0, 0.0, -0.21534502689171695]","[0.026750000193715096, 0.05299999937415123, 0.03999999910593033]","[0.0, 0.0, -0.6422115222668433]","[0.06987568736076355, 0.11065565794706345, 0.03999999910593033]","[0.0, -0.0, 0.2153443918565048]",0.6379903567761492,-1.0130761806973148,"(0.0, 0.0, 0.0, 0.0, 0.0, 0.0)",0.17724179525373857,-0.861801294967015,-1.0187357320896053,"(0.0, 0.0, 0.0, 0.0, 0.0, 0.0)",0.024593033118920006,-0.6379904016478766,1.0130773772767077,"(0.0, 0.0, 0.0, 0.0, 0.0, 0.0)",-0.1772421697155535,0.8618007358798453,1.0187506418989196,"(0.0, 0.0, 0.0, 0.0, 0.0, 0.0)",-0.024593227332916724,False,,,,,False,,,,
60,Move,,,"(7.401516452493873e-08, 0.16999906300717518, 0.0009208949427311885)","(1.5708059692049072, 5.171406878091127e-05, -1.3997173418156156e-05)","[-4.546300480674002e-09, 6.306563604674409e-10, 6.005259643453772e-06]","[-0.026750000193715096, 0.05299999937415123, 0.03999999910593033]","[0.0, -0.0, 0.6379903239810443]","[-0.06963192671537399, 0.1108371913433075, 0.03999999910593033]","[0.0, 0.0, -0.2238109552587812]","[0.026750000193715096, 0.05299999937415123, 0.03999999910593033]","[0.0, 0.0, -0.6379904179642307]","[0.06963192671537399, 0.1108371838927269, 0.03999999910593033]","[0.0, -0.0, 0.22381033482023305]",0.615110639462399,-5.491132155300077,"(0.0, 0.0, 0.0, 0.0, 0.0, 0.0)",-6.452665348763696,-0.8613763884842398,0.10197755586604229,"(0.0, 0.0, 0.0, 0.0, 0.0, 0.0)",-0.36782542138199165,-0.6151107211023208,5.491123330933392,"(0.0, 0.0, 0.0, 0.0, 0.0, 0.0)",6.4526488408560905,0.8613758231880564,-0.10197904602934349,"(0.0, 0.0, 0.0, 0.0, 0.0, 0.0)",0.36782252911949487,False,,,,,False,,,,
61,Move,,,"(6.525734425186348e-05, 0.17034549853437667, 0.001059997142676121)","(1.5643418998519334, 0.00019756355969089426, -0.0007979474479338168)","[6.517878278685787e-05, 0.00034643615785784343, 0.00014510745958838623]","[-0.026750000193715096, 0.05299999937415123, 0.03999999910593033]","[0.0, -0.0, 0.6151107619663475]","[-0.06829752027988434, 0.1118030920624733, 0.03999999910593033]","[0.0, 0.0, -0.24626574387408112]","[0.026750000193715096, 0.05299999937415123, 0.03999999910593033]","[0.0, 0.0, -0.6151107619663475]","[0.06829752773046494, 0.1118030920624733, 0.03999999910593033]","[0.0, -0.0, 0.24626510812228053]",0.59557520589455,-4.68850405628373,"(0.0, 0.0, 0.0, 0.0, 0.0, 0.0)",-45.004877301260535,-0.841587039207075,4.749443826519566,"(0.0, 0.0, 0.0, 0.0, 0.0, 0.0)",-23.059879711313982,-0.5955448471476087,4.6958097491309045,"(0.0, 0.0, 0.0, 0.0, 0.0, 0.0)",43.2331221848827,0.8422035798107438,-4.601338410555013,"(0.0, 0.0, 0.0, 0.0, 0.0, 0.0)",22.069611273367745,True,"(-0.03288698015965098, 0.18306432161630465, 0.039999948285931244)","(0.9999999985648672, -1.399717339714095e-05, -5.171406875791205e-05)",0.0009292587523792685,356.63318049990795,True,"(0.032887031061809374, 0.18306436848012048, 0.04000005171406876)","(-0.9999999985648671, 1.3997173395198976e-05, 5.171406875668148e-05)",0.0009247539911204204,342.7710504396539
62,Move,"(0.0021000000000000003, 0.0, -0.0002)","(0.0, 0.0054262286444503715, 0.0)","(0.00016176697229314485, 0.17076934431250207, 0.001298992481510786)","(1.553459115144406, 0.0004787126916021603, -0.0016283617000435679)","[0.00016168841082813925, 0.0007702819359832469, 0.0003841027984230513]","[-0.026750000193715096, 0.05299999937415123, 0.03999999910593033]","[0.0, -0.0, 0.5955751094143519]","[-0.06714092195034027, 0.11260347068309784, 0.03999999910593033]","[0.0, 0.0, -0.24601185159459507]","[0.026750000193715096, 0.05299999937415123, 0.03999999910593033]","[0.0, 0.0, -0.5955448282145998]","[0.06713911145925522, 0.11260469257831573, 0.03999999910593033]","[0.0, -0.0, 0.24665872904210193]",0.5770970782178444,-4.434750642409365,"(0.0, 0.0, 0.0, 0.0, 0.0, 0.0)",-74.21698749878065,-0.811850997818181,7.136649933334551,"(0.0, 0.0, 0.0, 0.0, 0.0, 0.0)",-37.92588619525253,-0.5770027641966642,4.450099908226674,"(0.0, 0.0, 0.0, 0.0, 0.0, 0.0)",71.59541053355323,0.8135423707664626,-6.878690170627483,"(0.0, 0.0, 0.0, 0.0, 0.0, 0.0)",36.485404729774935,True,"(-0.03174847742362094, 0.1838726496858637, 0.03999980243644159)","(0.9999996621242782, -0.0007979473476813144, -0.0001975635584110712)",-0.00012778812911608492,569.3446982775357,True,"(0.031700570614753176, 0.18385320841010633, 0.0400001975635584)","(-0.9999996621242783, 0.0007979473476767542, 0.0001975635584049517)",-0.0003431682129125587,549.2893233704585
63,Move,"(-0.0003, 0.0, 0.001)","(0.0, 0.022656119020138393, 0.0)","(0.0002411494990266799, 0.1710910869865314, 0.0015710934709736654)","(1.545266919046648, 0.0004471256014078299, -0.0022382809627764125)","[0.0002410709375616743, 0.0010920246100125652, 0.0006562037878859307]","[-0.026750000193715096, 0.05299999937415123, 0.03999999910593033]","[0.0, -0.0, 0.5770971029289548]","[-0.06603273004293442, 0.11333960294723511, 0.03999999910593033]","[0.0, 0.0, -0.23475391897699402]","[0.026750000193715096, 0.05299999937415123, 0.03999999910593033]","[0.0, 0.0, -0.5770027543990871]","[0.06602703779935837, 0.11334330588579178, 0.03999999910593033]","[0.0, -0.0, 0.23653961426052006]",0.5789104429849842,0.43520754411355256,"(0.0, 0.0, 0.0, 0.0, 0.0, 0.0)",6.289159718106518,-0.814824599818899,-0.7136644801723016,"(0.0, 0.0, 0.0, 0.0, 0.0, 0.0)",-0.32624094945923293,-0.5797236436072015,-0.6530110585289695,"(0.0, 0.0, 0.0, 0.0, 0.0, 0.0)",-6.658183198141166,0.8164111171417991,0.6884991300807695,"(0.0, 0.0, 0.0, 0.0, 0.0, 0.0)",0.27228074044002454,True,"(-0.03144479909141533, 0.18499061278782541, 0.039999521287326686)","(0.9999985596366134, -0.0016283607938474471, -0.0004787126733201028)",-0.00031179486038545077,0.0,True,"(0.0313112124765586, 0.1849374824167095, 0.040000478712673315)","(-0.9999985596366132, 0.0016283607938671909, 0.0004787126733090728)",-0.0008521962835819142,0.03264534846723113
64,Move,"(-0.0009000000000000001, 0.0, 0.0018000000000000002)","(0.0, 0.044558255803415235, 0.0)","(0.00027445917759849993, 0.17134275814631744, 0.0017883748698128525)","(1.538781147741902, -0.0001615509544536321, -0.002247095261191439)","[0.00027438061613349433, 0.0013436957697986196, 0.0008734851867251178]","[-0.026750000193715096, 0.05299999937415123, 0.03999999910593033]","[0.0, -0.0, 0.5789104296098929]","[-0.06614208221435547, 0.11326826363801956, 0.03999999910593033]","[0.0, 0.0, -0.2359142085700375]","[0.026750000193715096, 0.05299999937415123, 0.03999999910593033]","[0.0, 0.0, -0.5797236794612536]","[0.06619107723236084, 0.1132362112402916, 0.03999999910593033]","[0.0, -0.0, 0.23668744858729418]",0.5794349517052925,0.1258820928739821,"(0.0, 0.0, 0.0, 0.0, 0.0, 0.0)",-0.3680969847938318,-0.8145272396188272,0.07136644801723058,"(0.0, 0.0, 0.0, 0.0, 0.0, 0.0)",0.05209514632641618,-0.5801059704929811,-0.09175845258709936,"(0.0, 0.0, 0.0, 0.0, 0.0, 0.0)",1.0578284279829606,0.8161179365711912,-0.07036333694589791,"(0.0, 0.0, 0.0, 0.0, 0.0, 0.0)",0.16503678862417553,True,"(-0.03147104187658098, 0.18487965160032088, 0.039999552874413494)","(0.9999973950898119, -0.0022382788701123296, -0.00044712558651374034)",-0.00019984542030992292,0.0,True,"(0.03146466910058347, 0.18482601477960026, 0.04000044712558648)","(-0.999997395089812, 0.0022382788701092297, 0.00044712558648132253)",-0.0007844862676420048,2.417744924895917
65,Move,"(-0.0015, 0.0, 0.0023)","(0.0, 0.044558255803415235, 0.0)","(0.0002838333613889852, 0.17152614487215528, 0.0019519580004708297)","(1.5340000504602824, -0.0001526823550648922, -0.0007624152929701658)","[0.0002837547999239796, 0.0015270824956364615, 0.001037068317383095]","[-0.026750000193715096, 0.05299999937415123, 0.03999999910593033]","[0.0, -0.0, 0.5794350391489869]","[-0.06617368757724762, 0.1132475957274437, 0.03999999910593033]","[0.0, 0.0, -0.23509226207021516]","[0.026750000193715096, 0.05299999937415123, 0.03999999910593033]","[0.0, 0.0, -0.580105937835983]","[0.06621410697698593, 0.11322113126516342, 0.03999999910593033]","[0.0, -0.0, 0.23601197661611187]",0.5799660110798105,0.1274542498843294,"(0.0, 0.0, 0.0, 0.0, 0.0, 0.0)",-0.006256329627781559,-0.8145569756388344,-0.0071366448017222694,"(0.0, 0.0, 0.0, 0.0, 0.0, 0.0)",-0.008421550303529968,-0.5804440513010724,-0.08113939394189543,"(0.0, 0.0, 0.0, 0.0, 0.0, 0.0)",0.304819927758224,0.8160981243397905,-0.004754935536193661,"(0.0, 0.0, 0.0, 0.0, 0.0, 0.0)",0.17613385187514796,True,"(-0.03156151599733535, 0.18488662199988304, 0.040000161550953754)","(0.9999974622331834, -0.0022470933407843755, 0.00016155095375583215)",-9.984363043746177e-05,0.0,True,"(0.03153606169811855, 0.1848337059151653, 0.03999983844904626)","(-0.9999974622331834, 0.002247093340755589, -0.00016155095374135537)",-0.0007226183234249036,2.1529294473696607
66,Move,"(0.0015, 0.0, 0.0032)","(0.0, 0.03126582822022642, 0.0)","(0.000298946843208812, 0.17164816976806693, 0.002065110521732093)","(1.5308005919125314, -0.00013699411620341832, 0.0004989764882760635)","[0.0002988682817438064, 0.0016491073915481103, 0.0011502208386443584]","[-0.026750000193715096, 0.05299999937415123, 0.03999999910593033]","[0.0, -0.0, 0.5799659737018228]","[-0.06620567291975021, 0.11322665214538574, 0.03999999910593033]","[0.0, 0.0, -0.23459095740996774]","[0.026750000193715096, 0.05299999937415123, 0.03999999910593033]","[0.0, 0.0, -0.58044407583896]","[0.06623446196317673, 0.11320778727531433, 0.03999999910593033]","[0.0, -0.0, 0.23565408645015898]",0.5807913204903284,0.19807425852431584,"(0.0, 0.0, 0.0, 0.0, 0.0, 0.0)",0.10457797544697811,-0.8145541377846157,0.0006810850124850569,"(0.0, 0.0, 0.0, 0.0, 0.0, 0.0)",0.008593354244165184,-0.580840521918858,-0.0951529482685558,"(0.0, 0.0, 0.0, 0.0, 0.0, 0.0)",-0.020022843456125164,0.8161001207796162,0.0004791455581902781,"(0.0, 0.0, 0.0, 0.0, 0.0, 0.0)",-0.0009632744549987109,True,"(-0.0316294229174494, 0.18488400342906516, 0.040000152682354476)","(0.9999996977055273, -0.0007624152102200343, 0.00015268235447197026)",-4.2377610551037405e-05,0.0,True,"(0.031582047809785185, 0.18483092429093123, 0.039999847317645526)","(-0.9999996977055272, 0.000762415210221085, -0.00015268235447346302)",-0.0006661287265357066,0.0
67,Move,"(0.0013000000000000002, 0.0, 0.004)","(0.0, 0.003220132469929538, 0.0)","(0.00031965911662371044, 0.17170866921542866, 0.0021281741109092115)","(1.529183264056962, -0.00012402426541240465, 0.0015391707918876475)","[0.00031958055515870484, 0.001709606838909833, 0.0012132844278214768]","[-0.026750000193715096, 0.05299999937415123, 0.03999999910593033]","[0.0, -0.0, 0.5807914058110627]","[-0.0662553682923317, 0.1131940707564354, 0.03999999910593033]","[0.0, 0.0, -0.2337628269549891]","[0.026750000193715096, 0.05299999937415123, 0.03999999910593033]","[0.0, 0.0, -0.5808404925775847]","[0.06625833362340927, 0.1131921261548996, 0.03999999910593033]","[0.0, -0.0, 0.23525959985681089]",0.5811758181479824,0.0922794378369396,"(0.0, 0.0, 0.0, 0.0, 0.0, 0.0)",-0.15536296691515994,-0.8145542373782886,-2.3902481478426914e-05,"(0.0, 0.0, 0.0, 0.0, 0.0, 0.0)",-0.011660042799123202,-0.5820236310422043,-0.283946189603105,"(0.0, 0.0, 0.0, 0.0, 0.0, 0.0)",-0.2772739823692119,0.8161002485817325,3.0672507883298765e-05,"(0.0, 0.0, 0.0, 0.0, 0.0, 0.0)",-0.020728591512450177,True,"(-0.03173846990667013, 0.18488046267913433, 0.04000013699411578)","(0.999999866127542, 0.0004989764628877975, 0.00013699411577682832)",6.561379404928726e-05,0.0,True,"(0.03163417095102178, 0.18482727317425002, 0.03999986300588423)","(-0.9999998661275418, -0.0004989764628934144, -0.00013699411577479764)",-0.0006130063756159223,0.0
68,Move,"(0.0008, 0.0, 0.0053)","(0.0, 0.05080304386705095, 0.0)","(0.00034541035682174206, 0.17170881153974543, 0.0021412387238036643)","(1.5291481796174815, -0.00011394724515415723, 0.0023711015565714734)","[0.00034533179535673646, 0.0017097491632266093, 0.0012263490407159296]","[-0.026750000193715096, 0.05299999937415123, 0.03999999910593033]","[0.0, -0.0, 0.5811758217830109]","[-0.06627850979566574, 0.11317887157201767, 0.03999999910593033]","[0.0, 0.0, -0.23337842033270406]","[0.026750000193715096, 0.05299999937415123, 0.03999999910593033]","[0.0, 0.0, -0.5820236104227363]","[0.06632951647043228, 0.11314533650875092, 0.03999999910593033]","[0.0, -0.0, 0.23407665395821292]",0.581908372010648,0.17581292703976992,"(0.0, 0.0, 0.0, 0.0, 0.0, 0.0)",0.12267255892188389,-0.8145543719587676,-3.229931495789426e-05,"(0.0, 0.0, 0.0, 0.0, 0.0, 0.0)",0.009149925566715521,-0.583141065777089,-0.2681843363723315,"(0.0, 0.0, 0.0, 0.0, 0.0, 0.0)",0.02306468765333463,0.8161002087059177,-9.570195531232981e-06,"(0.0, 0.0, 0.0, 0.0, 0.0, 0.0)",0.0017152553974153855,True,"(-0.031789170917490076, 0.18487918723650934, 0.0400001240242651)","(0.9999988077858705, 0.0015391701723174976, 0.00012402426510193731)",0.00012382385548437156,0.0,True,"(0.031790125334479634, 0.18481917481681628, 0.039999875975734914)","(-0.9999988077858702, -0.0015391701723304941, -0.00012402426508561928)",-0.000464694181301978,0.0
69,Move,"(0.0002, 0.0, 0.007)","(0.0, 0.08527329659393897, 0.0)","(0.0003711286356033743, 0.17170523395146026, 0.0021031779865753066)","(1.5307355220808563, -0.00010548150383870249, 0.0032022402638778613)","[0.0003710500741383687, 0.0017061715749414341, 0.001188288303487572]","[-0.026750000193715096, 0.05299999937415123, 0.03999999910593033]","[0.0, -0.0, 0.5819083095503993]","[-0.06632258743047714, 0.11314990371465683, 0.03999999910593033]","[0.0, 0.0, -0.23264602765001835]","[0.026750000193715096, 0.05299999937415123, 0.03999999910593033]","[0.0, 0.0, -0.5831410048179783]","[0.06639669835567474, 0.11310107260942459, 0.03999999910593033]","[0.0, -0.0, 0.2329591636550115]",0.5827437308847111,0.20048612977512456,"(0.0, 0.0, 0.0, 0.0, 0.0, 0.0)",0.036260591839770887,-0.8145549321596381,-0.00013444820894033038,"(0.0, 0.0, 0.0, 0.0, 0.0, 0.0)",0.0026949175551790805,-0.584477358969884,-0.32071036627078975,"(0.0, 0.0, 0.0, 0.0, 0.0, 0.0)",-0.07715905338763913,0.8161014315549076,0.00029348375756228475,"(0.0, 0.0, 0.0, 0.0, 0.0, 0.0)",-0.005725930341018473,True,"(-0.03188576874170821, 0.18487555526391034, 0.04000011394724491)","(0.9999971824480522, 0.0023710993194125942, 0.00011394724490766717)",0.00023555552511751656,0.0,True,"(0.031937427062324136, 0.1848115124791269, 0.03999988605275511)","(-0.9999971824480521, -0.002371099319406198, -0.00011394724489389973)",-0.0003326898015877511,0.0
70,Move,"(-0.0008, 0.0, 0.0091)","(0.0, 0.07666009673534695, 0.0)","(0.0003968456250607909, 0.17169812685110533, 0.002014062264952982)","(1.5339461728984363, -9.990288736654924e-05, 0.004033044755854841)","[0.0003967670635957853, 0.0016990644745865091, 0.0010991725818652472]","[-0.026750000193715096, 0.05299999937415123, 0.03999999910593033]","[0.0, -0.0, 0.5827436636246073]","[-0.0663728192448616, 0.11311682313680649, 0.03999999910593033]","[0.0, 0.0, -0.23181120574089575]","[0.026750000193715096, 0.05299999937415123, 0.03999999910593033]","[0.0, 0.0, -0.5844772859406278]","[0.0664769783616066, 0.11304803937673569, 0.03999999910593033]","[0.0, -0.0, 0.23162406673226585]",0.5837822097246353,0.24923492158182817,"(0.0, 0.0, 0.0, 0.0, 0.0, 0.0)",0.07161435206494843,-0.8145560107153986,-0.0002588533825189822,"(0.0, 0.0, 0.0, 0.0, 0.0, 0.0)",0.005329976177029345,-0.5859685854328697,-0.35789435111656953,"(0.0, 0.0, 0.0, 0.0, 0.0, 0.0)",-0.05469276523911756,0.8161021804826939,0.000179742668726496,"(0.0, 0.0, 0.0, 0.0, 0.0, 0.0)",-0.004092756661466233,True,"(-0.0319958901427997, 0.1848711961235081, 0.040000105481503644)","(0.999994867269882, 0.0032022347732595774, 0.00010548150364180762)",0.00036069553166387836,0.0,True,"(0.032113478047536344, 0.18480225464610328, 0.03999989451849636)","(-0.9999948672698821, -0.0032022347732543416, -0.00010548150364557676)",-0.00017187556402331022,0.0
71,Move,"(-0.0038, 0.0, 0.0088)","(0.0, 0.06804340621825093, 0.0)","(0.00042254482245156585, 0.17168788775283486, 0.0018739375898944412)","(1.5387809282818985, -9.820732067645806e-05, 0.0048624272214540165)","[0.00042246626098656025, 0.0016888253763160388, 0.0009590479068067065]","[-0.026750000193715096, 0.05299999937415123, 0.03999999910593033]","[0.0, -0.0, 0.5837822611622543]","[-0.06643522530794144, 0.11307564377784729, 0.03999999910593033]","[0.0, 0.0, -0.23077380457887092]","[0.026750000193715096, 0.05299999937415123, 0.03999999910593033]","[0.0, 0.0, -0.585968581210198]","[0.06656647473573685, 0.11298873275518417, 0.03999999910593033]","[0.0, -0.0, 0.23013359874635173]",0.5853777990259427,0.38294143231376493,"(0.0, 0.0, 0.0, 0.0, 0.0, 0.0)",0.1964077602425529,-0.8145561346779537,-2.9751013221891688e-05,"(0.0, 0.0, 0.0, 0.0, 0.0, 0.0)",0.014674975099012666,-0.5875006950050873,-0.36770629733223714,"(0.0, 0.0, 0.0, 0.0, 0.0, 0.0)",-0.014522141586501313,0.8161021230409179,-1.3786026236613827e-05,"(0.0, 0.0, 0.0, 0.0, 0.0, 0.0)",-0.0011047152699366321,True,"(-0.03213275445161429, 0.1848654336800034, 0.0400000999028872)","(0.9999918622957693, 0.004033033802522893, 9.990288720545749e-05)",0.0005124370632676418,0.0,True,"(0.0323099719112102, 0.18479176301309164, 0.0399999000971128)","(-0.9999918622957693, -0.004033033802519646, -9.990288719561616e-05)",9.469369897203965e-06,0.0
72,Move,"(-0.0006, 0.0, 0.010400000000000001)","(0.0, 0.07666009673534695, 0.0)","(0.00044816867093476346, 0.17167516733652863, 0.0016828218139955716)","(1.545240396583781, -9.946673683441401e-05, 0.005688066568846818)","[0.00044809010946975786, 0.0016761049600098055, 0.0007679321309078369]","[-0.026750000193715096, 0.05299999937415123, 0.03999999910593033]","[0.0, -0.0, 0.5853778267930758]","[-0.06653103232383728, 0.11301224678754807, 0.03999999910593033]","[0.0, 0.0, -0.229178329268949]","[0.026750000193715096, 0.05299999937415123, 0.03999999910593033]","[0.0, 0.0, -0.5875006524178433]","[0.06665834039449692, 0.11292766034603119, 0.03999999910593033]","[0.0, -0.0, 0.22860142195462438]",0.587566067820178,0.5251845106164623,"(0.0, 0.0, 0.0, 0.0, 0.0, 0.0)",0.20895098668276507,-0.8145563684903877,-5.6114984145568314e-05,"(0.0, 0.0, 0.0, 0.0, 0.0, 0.0)",0.01558595252707427,-0.5882939784719127,-0.19038803203810414,"(0.0, 0.0, 0.0, 0.0, 0.0, 0.0)",0.26024920217347575,0.8161018222442913,-7.219119038950192e-05,"(0.0, 0.0, 0.0, 0.0, 0.0, 0.0)",0.019405206342995217,True,"(-0.032343137660906594, 0.18485590684949296, 0.04000009820732052)","(0.9999881736017676, 0.004862408037479136, 9.820732051862228e-05)",0.0007375232445988887,0.0,True,"(0.032511897549958375, 0.18478073027744676, 0.039999901792679475)","(-0.9999881736017677, -0.00486240803747231, -9.820732051983476e-05)",0.00019638102877323803,0.0
73,Move,"(-0.0007, 0.0, 0.0115)","(0.0, 0.08109672369391652, 0.0)","(0.00047364975698470965, 0.1716608567876439, 0.0014407106085706101)","(1.553324937074315, -0.00010257761658986101, 0.006507639826112615)","[0.00047357119551970405, 0.0016617944111250726, 0.0005258209254828754]","[-0.026750000193715096, 0.05299999937415123, 0.03999999910593033]","[0.0, -0.0, 0.5875661016033225]","[-0.0666622593998909, 0.11292505264282227, 0.03999999910593033]","[0.0, 0.0, -0.22699030030193937]","[0.026750000193715096, 0.05299999937415123, 0.03999999910593033]","[0.0, 0.0, -0.5882940580458904]","[0.0667058676481247, 0.11289598047733307, 0.03999999910593033]","[0.0, -0.0, 0.22780785385010718]",0.5891724467475804,0.3855309425765858,"(0.0, 0.0, 0.0, 0.0, 0.0, 0.0)",-0.20489433588115258,-0.8145561039256595,6.349553478915548e-05,"(0.0, 0.0, 0.0, 0.0, 0.0, 0.0)",-0.015267837842006079,-0.590067573863175,-0.4256628939029588,"(0.0, 0.0, 0.0, 0.0, 0.0, 0.0)",-0.3454781899004892,0.8161022591433995,0.00010485578597543794,"(0.0, 0.0, 0.0, 0.0, 0.0, 0.0)",-0.02575322820608995,True,"(-0.032631634712836324, 0.18484198154876963, 0.040000099466736674)","(0.9999838180462345, 0.005688035868712813, 9.946673666926595e-05)",0.0010405642930592723,0.0,True,"(0.03261646472129759, 0.18477450904497184, 0.039999900533263334)","(-0.9999838180462345, -0.00568803586870707, -9.946673666554962e-05)",0.000286097115975718,0.0
74,Move,"(-0.001, 0.0, 0.014400000000000001)","(0.0, 0.059498274200486694, 0.0)","(0.0004989635117255581, 0.17164611523978185, 0.0011476431571737552)","(1.5630353773798156, -0.0001082503495244664, 0.0073195553935068635)","[0.0004988849502605525, 0.0016470528632630266, 0.00023275347408602048]","[-0.026750000193715096, 0.05299999937415123, 0.03999999910593033]","[0.0, -0.0, 0.5891725079125392]","[-0.06675846874713898, 0.11286085844039917, 0.03999999910593033]","[0.0, 0.0, -0.22538364648630446]","[0.026750000193715096, 0.05299999937415123, 0.03999999910593033]","[0.0, 0.0, -0.5900676301859106]","[0.06681203842163086, 0.11282502114772797, 0.03999999910593033]","[0.0, -0.0, 0.22603469026998513]",0.5909772652100302,0.43315643098794876,"(0.0, 0.0, 0.0, 0.0, 0.0, 0.0)",0.06999292708568805,-0.8145572350017763,-0.0002714582680610431,"(0.0, 0.0, 0.0, 0.0, 0.0, 0.0)",0.005189248828460137,-0.5918584159949083,-0.42980211161598264,"(0.0, 0.0, 0.0, 0.0, 0.0, 0.0)",-0.00620113880581137,0.8161023164376118,1.3750610947513861e-05,"(0.0, 0.0, 0.0, 0.0, 0.0, 0.0)",-0.00047440016598439673,True,"(-0.03284342882378924, 0.18483158523402715, 0.0400001025776164)","(0.9999788201257024, 0.006507593859559024, 0.00010257761640924884)",0.001266708658374862,0.0,True,"(0.03285015211546036, 0.1847612895243463, 0.03999989742238359)","(-0.9999788201257024, -0.006507593859558361, -0.00010257761640693697)",0.0005050250445536955,0.0
75,Move,"(-0.0047, 0.0, 0.0167)","(0.0, 0.024726079513003672, 0.0)","(0.000500417201831128, 0.17163782283116316, 0.0009534692018903033)","(1.5711195013591472, 0.0015043559170294343, 0.007287855646613672)","[0.0005003386403661225, 0.001638760454644339, 3.857951880256857e-05]","[-0.026750000193715096, 0.05299999937415123, 0.03999999910593033]","[0.0, -0.0, 0.5909773005327856]","[-0.0668664425611496, 0.11278855055570602, 0.03999999910593033]","[0.0, 0.0, -0.22357996321760018]","[0.026750000193715096, 0.05299999937415123, 0.03999999910593033]","[0.0, 0.0, -0.5918584151923267]","[0.06691911071538925, 0.11275318264961243, 0.03999999910593033]","[0.0, -0.0, 0.22424392648103517]",0.5933450391089737,0.5682657357464301,"(0.0, 0.0, 0.0, 0.0, 0.0, 0.0)",0.19852663286052,-0.8145571218941646,2.7145826805074992e-05,"(0.0, 0.0, 0.0, 0.0, 0.0, 0.0)",0.014841874480777012,-0.5939048283610716,-0.4911389678791939,"(0.0, 0.0, 0.0, 0.0, 0.0, 0.0)",-0.09017609879039362,0.8161023107081905,-1.37506109432195e-06,"(0.0, 0.0, 0.0, 0.0, 0.0, 0.0)",-0.006730793428178485,True,"(-0.0330812616254023, 0.18481934304006647, 0.04000010825034932)","(0.9999732063151073, 0.007319489992178009, 0.00010825034931641927)",0.001518699108409233,0.0,True,"(0.033086117415075444, 0.18474754924302958, 0.03999989174965069)","(-0.9999732063151072, -0.007319489992180068, -0.00010825034931177504)",0.000726383169187573,0.0
76,Move,"(-0.0044, 0.0, 0.0176)","(0.0, 0.014041173832294382, 0.0)","(0.0005006380529614891, 0.171635641573328, 0.001026103750775651)","(1.5733431448712771, 0.0013862803662252833, 0.007283894591118843)","[0.0005005594914964835, 0.0016365791968091792, 0.00011121406768791636]","[-0.026750000193715096, 0.05299999937415123, 0.03999999910593033]","[0.0, -0.0, 0.5933450566334956]","[-0.0670078918337822, 0.11269339919090271, 0.03999999910593033]","[0.0, 0.0, -0.22121209193376043]","[0.026750000193715096, 0.05299999937415123, 0.03999999910593033]","[0.0, 0.0, -0.5939047943564814]","[0.0670413076877594, 0.11267085373401642, 0.03999999910593033]","[0.0, -0.0, 0.2221974981205851]",0.5968894578066338,0.8506604874384209,"(0.0, 0.0, 0.0, 0.0, 0.0, 0.0)",0.4147869054386848,-0.8145571332049258,-2.714582681306872e-06,"(0.0, 0.0, 0.0, 0.0, 0.0, 0.0)",0.03094228513875058,-0.5953265273094739,-0.3412077476165343,"(0.0, 0.0, 0.0, 0.0, 0.0, 0.0)",0.2200081991373584,0.8161023112811326,1.3750611049801587e-07,"(0.0, 0.0, 0.0, 0.0, 0.0, 0.0)",0.016408014699985405,False,,,,,True,"(0.03335572796555851, 0.1847322925996569, 0.04000150435534962)","(-0.9999723121844778, -0.007287782887213005, 0.00150435534961634)",0.0009310894152841932,0.0
77,Move,"(-0.0044, 0.0, 0.0176)","(0.0, 0.014041173832294382, 0.0)","(0.0005006627138536195, 0.17163500754160435, 0.001047893457255121)","(1.5739334941618255, 0.0012784127747187404, 0.0072827342805121716)","[0.0005005841523886139, 0.0016359451650855283, 0.00013300377416738626]","[-0.026750000193715096, 0.05299999937415123, 0.03999999910593033]","[0.0, -0.0, 0.5968894864654783]","[-0.06721922010183334, 0.11255033314228058, 0.03999999910593033]","[0.0, 0.0, -0.21766767638820309]","[0.026750000193715096, 0.05299999937415123, 0.03999999910593033]","[0.0, 0.0, -0.5953265541055277]","[0.06712609529495239, 0.11261351406574249, 0.03999999910593033]","[0.0, -0.0, 0.22077581667826007]",0.6003823943559644,0.8383047718393422,"(0.0, 0.0, 0.0, 0.0, 0.0, 0.0)",-0.01789530742734522,-0.8145571320738497,2.7145826919648707e-07,"(0.0, 0.0, 0.0, 0.0, 0.0, 0.0)",-0.0013241956613221709,-0.596923823222018,-0.38335101901058194,"(0.0, 0.0, 0.0, 0.0, 0.0, 0.0)",-0.06196767377136113,0.8161023112238385,-1.3750611316244271e-08,"(0.0, 0.0, 0.0, 0.0, 0.0, 0.0)",-0.004624112233768984,False,,,,,True,"(0.033543013998102486, 0.18472135039041215, 0.04000138627992221)","(-0.9999725116960947, -0.007283823184370974, 0.0013862799222065752)",0.0011227518151218435,0.0
78,Move,"(-0.0044, 0.0, 0.0176)","(0.0, 0.014041173832294382, 0.0)","(-0.0005100413361738892, 0.17167954616735706, 0.001162020577216812)","(1.5679816427224476, -0.008254184457668406, 0.023177079992043527)","[-0.0005101198976388948, 0.0016804837908382386, 0.00024713089412907734]","[-0.026750000193715096, 0.05299999937415123, 0.03999999910593033]","[0.0, -0.0, 0.6003824026472216]","[-0.06742697954177856, 0.11240861564874649, 0.03999999910593033]","[0.0, 0.0, -0.21417473299312956]","[0.026750000193715096, 0.05299999937415123, 0.03999999910593033]","[0.0, 0.0, -0.5969237642004873]","[0.0672212690114975, 0.11254893988370895, 0.03999999910593033]","[0.0, -0.0, 0.21917848626935657]",0.5774528529539661,-5.5030899364795856,"(0.0, 0.0, 0.0, 0.0, 0.0, 0.0)",-9.31069360525212,-0.8145571321869574,-2.7145826919650062e-08,"(0.0, 0.0, 0.0, 0.0, 0.0, 0.0)",-0.6945131888108496,-0.5744584173959576,5.391697398254504,"(0.0, 0.0, 0.0, 0.0, 0.0, 0.0)",17.60251770359512,0.8157915748597127,-0.07457672739020581,"(0.0, 0.0, 0.0, 0.0, 0.0, 0.0)",5.918660685939822,False,,,,,True,"(0.033753413428263615, 0.1847087358081304, 0.0400012784124265)","(-0.9999726638600805, -0.007282663952299545, 0.0012784124264965913)",0.001337255601971135,69.78060310306539
79,Move,"(-0.0044, 0.0, 0.0176)","(0.0, 0.014041173832294382, 0.0)","(-0.0005304477194316422, 0.17212923272664443, 0.0013903272205273275)","(1.5548610817336432, -0.005885159740494114, 0.027931940731654836)","[-0.0005305262808966478, 0.0021301703501256097, 0.0004754375374395928]","[-0.026750000193715096, 0.05299999937415123, 0.03999999910593033]","[0.0, -0.0, 0.5774528839236691]","[-0.06605419516563416, 0.11332561820745468, 0.03999999910593033]","[0.0, 0.0, -0.23710427524100777]","[0.026750000193715096, 0.05299999937415123, 0.03999999910593033]","[0.0, 0.0, -0.5744584018277628]","[0.06587337702512741, 0.1134430468082428, 0.03999999910593033]","[0.0, -0.0, 0.24133319103376405]",0.5591786248520757,-4.385814744453695,"(0.0, 0.0, 0.0, 0.0, 0.0, 0.0)",-70.30601941359349,-0.785610992401438,6.947073548524654,"(0.0, 0.0, 0.0, 0.0, 0.0, 0.0)",-36.199620648286654,-0.556560827581785,4.295421555401414,"(0.0, 0.0, 0.0, 0.0, 0.0, 0.0)",66.52301274371914,0.7857975161923779,-7.198574080160345,"(0.0, 0.0, 0.0, 0.0, 0.0, 0.0)",34.21620532705887,True,"(-0.03129824855423516, 0.18492229418902886, 0.04000825409072952)","(0.9996973670667032, 0.023174215545087095, 0.008254090729519648)",-0.0018086401291673414,549.2136436617569,True,"(0.030815058553481822, 0.18484997837514383, 0.039991745909270425)","(-0.9996973670667024, -0.02317421554510271, -0.00825409072957585)",-1.8660795289899888e-05,519.8739776770061
80,Move,"(-0.0039, 0.0, 0.018000000000000002)","(0.0, 0.035192819037213656, 0.0)","(-0.0006007507015582763, 0.17236031122680778, 0.0017086739208880132)","(1.541099391116507, -0.005750716758034615, 0.02730787300179295)","[-0.0006008292630232819, 0.0023612488502889606, 0.0007937842378002785]","[-0.026750000193715096, 0.05299999937415123, 0.03999999910593033]","[0.0, -0.0, 0.5591786790343785]","[-0.064945288002491, 0.1140337586402893, 0.03999999910593033]","[0.0, 0.0, -0.22643240157107328]","[0.026750000193715096, 0.05299999937415123, 0.03999999910593033]","[0.0, 0.0, -0.5565607884470406]","[0.06478538364171982, 0.11413353681564331, 0.03999999910593033]","[0.0, -0.0, 0.22923670987883632]",0.5414087854158174,-4.264761464702004,"(0.0, 0.0, 0.0, 0.0, 0.0, 0.0)",-75.05692122441597,-0.7568104749077387,6.912124198487835,"(0.0, 0.0, 0.0, 0.0, 0.0, 0.0)",-38.331275592740305,-0.5386294146056749,4.3035391142664325,"(0.0, 0.0, 0.0, 0.0, 0.0, 0.0)",77.28765389019811,0.756108270164535,-7.125419046682319,"(0.0, 0.0, 0.0, 0.0, 0.0, 0.0)",39.65791558994305,True,"(-0.030955181750305587, 0.18599135066433864, 0.04000588565803911)","(0.9995926179578416, 0.02792782517273222, 0.005885125768363377)",-0.0021620558724920916,564.4424594407966,True,"(0.030593693153640328, 0.18594247416436444, 0.03999411487423163)","(-0.9995926179578472, -0.027927825172543812, -0.0058851257683709)",-0.00023557579436181232,578.4478483111104
81,Move,"(-0.001, 0.0, 0.019)","(0.0, 0.026628488397677487, 0.0)","(-0.0006553375265788722, 0.17248625761649103, 0.002066051595785365)","(1.530085964687838, -0.005310895572398305, 0.026623751169609036)","[-0.0006554160880438778, 0.0024871952399722064, 0.00115116191269763]","[-0.026750000193715096, 0.05299999937415123, 0.03999999910593033]","[0.0, -0.0, 0.5414088307624527]","[-0.06385475397109985, 0.11470281332731247, 0.03999999910593033]","[0.0, 0.0, -0.21540171007133976]","[0.026750000193715096, 0.05299999937415123, 0.03999999910593033]","[0.0, 0.0, -0.538629382783677]","[0.06368311494588852, 0.11480570584535599, 0.03999999910593033]","[0.0, -0.0, 0.2174788647375305]",0.5471096685125024,1.3682119432044155,"(0.0, 0.0, 0.0, 0.0, 0.0, 0.0)",7.436612037002902,-0.7596905077117014,-0.6912078729510522,"(0.0, 0.0, 0.0, 0.0, 0.0, 0.0)",-0.21562728212661164,-0.5429890933759717,-1.0463229048712277,"(0.0, 0.0, 0.0, 0.0, 0.0, 0.0)",-6.995229005359422,0.7590771708415287,0.7125361624784858,"(0.0, 0.0, 0.0, 0.0, 0.0, 0.0)",0.27231154986123796,True,"(-0.030660054359099548, 0.18701930511396303, 0.040005750633041584)","(0.9996106340451477, 0.02730402763664797, 0.005750685061374074)",-0.00253288360185076,0.0,True,"(0.030338329133542133, 0.187000554128202, 0.039994249314938654)","(-0.9996106340451738, -0.027304027635695897, -0.005750685061343707)",-0.00041306009478547605,0.0
82,Move,"(-0.0007, 0.0, 0.019899999999999998)","(0.0, 0.018053685782629343, 0.0)","(-0.0007010495569992235, 0.17255142694316283, 0.002372602974570772)","(1.5206515564703722, -0.004886019130127741, 0.025642040744900157)","[-0.0007011281184642291, 0.002552364566644011, 0.0014577132914830372]","[-0.026750000193715096, 0.05299999937415123, 0.03999999910593033]","[0.0, -0.0, 0.5471097033836977]","[-0.06420590728521347, 0.11449028551578522, 0.03999999910593033]","[0.0, 0.0, -0.212580839662584]","[0.026750000193715096, 0.05299999937415123, 0.03999999910593033]","[0.0, 0.0, -0.5429890913237377]","[0.06395221501588821, 0.11464410275220871, 0.03999999910593033]","[0.0, -0.0, 0.2160880848304356]",0.5499870842236624,0.6905797706783874,"(0.0, 0.0, 0.0, 0.0, 0.0, 0.0)",-0.9112874550193958,-0.7594026477763478,0.06908638448488347,"(0.0, 0.0, 0.0, 0.0, 0.0, 0.0)",0.00907428991990008,-0.5459135899620732,-0.7018791806643572,"(0.0, 0.0, 0.0, 0.0, 0.0, 0.0)",0.419632486614034,0.7587810407204413,-0.07107122906098862,"(0.0, 0.0, 0.0, 0.0, 0.0, 0.0)",-0.04810752960396753,True,"(-0.031215233891714447, 0.18689661782802602, 0.040005310870607415)","(0.9996315110961312, 0.026620230597358997, 0.005310870607413341)",-0.001996461415084345,0.0,True,"(0.03070788566572258, 0.18688454964953613, 0.03999468912939375)","(-0.9996315110961419, -0.0266202305971944, -0.005310870606254526)",-2.3613055876893657e-05,0.0
83,Move,"(-0.0003, 0.0, 0.0213)","(0.0, 0.009473647179825222, 0.0)","(-0.00073939981325649, 0.17257047290245692, 0.0026286921892939292)","(1.5128060813427402, -0.004493904889455789, 0.024426459066346762)","[-0.0007394783747214956, 0.002571410525938095, 0.0017138025062061945]","[-0.026750000193715096, 0.05299999937415123, 0.03999999910593033]","[0.0, -0.0, 0.5499871048195448]","[-0.06438268721103668, 0.11438225209712982, 0.03999999910593033]","[0.0, 0.0, -0.20941558204433036]","[0.026750000193715096, 0.05299999937415123, 0.03999999910593033]","[0.0, 0.0, -0.5459136344673465]","[0.06413233280181885, 0.11453504115343094, 0.03999999910593033]","[0.0, -0.0, 0.2128674833190092]",0.5528838332735709,0.6952197719780501,"(0.0, 0.0, 0.0, 0.0, 0.0, 0.0)",-0.001310288245492575,-0.7594313107516666,-0.006879114076507112,"(0.0, 0.0, 0.0, 0.0, 0.0, 0.0)",-0.0077875240224460395,-0.5488195698983855,-0.6974351847149781,"(0.0, 0.0, 0.0, 0.0, 0.0, 0.0)",0.014883037655779705,0.7588105112379777,0.007072924208755618,"(0.0, 0.0, 0.0, 0.0, 0.0, 0.0)",0.009020451892144473,True,"(-0.031621245502496315, 0.1868885036126185, 0.04000488599968935)","(0.9996593282426585, 0.025638924791663294, 0.004885999689346556)",-0.0016017954344042012,0.0,True,"(0.031120888543324142, 0.18687994291237014, 0.03999511400031065)","(-0.9996593282426587, -0.025638924791652022, -0.004885999689344988)",0.0004022893964626068,0.0
84,Move,"(-0.0004, 0.0, 0.0225)","(0.0, 0.009473647179825222, 0.0)","(-0.0007773224443499586, 0.1725869656438285, 0.0028334509720133925)","(1.5065822588443547, -0.004136450850966479, 0.02321101997695995)","[-0.0007774010058149642, 0.002587903267309677, 0.0019185612889256578]","[-0.026750000193715096, 0.05299999937415123, 0.03999999910593033]","[0.0, -0.0, 0.5528837347154266]","[-0.06456033885478973, 0.11427298188209534, 0.03999999910593033]","[0.0, 0.0, -0.20654747238243487]","[0.026750000193715096, 0.05299999937415123, 0.03999999910593033]","[0.0, 0.0, -0.5488195028683754]","[0.06431099772453308, 0.1144261434674263, 0.03999999910593033]","[0.0, -0.0, 0.20999096966555342]",0.5560370475975972,0.7567714377662984,"(0.0, 0.0, 0.0, 0.0, 0.0, 0.0)",0.0913957340991968,-0.7594285643250566,0.0006591423863926303,"(0.0, 0.0, 0.0, 0.0, 0.0, 0.0)",0.007588288221741076,-0.5520873273194553,-0.7842617810567374,"(0.0, 0.0, 0.0, 0.0, 0.0, 0.0)",-0.12852926449671523,0.7588077281384568,-0.0006679438850316043,"(0.0, 0.0, 0.0, 0.0, 0.0, 0.0)",-0.010378803936341274,True,"(-0.0320068750628954, 0.1868688159303128, 0.0400044938897636)","(0.9996915943201415, 0.024423783499819066, 0.004493889763599353)",-0.0012193493732903617,0.0,True,"(0.031507824471318814, 0.18686404874054505, 0.03999550611023641)","(-0.9996915943201417, -0.024423783499820256, -0.004493889763591014)",0.0007943054129509274,0.0
85,Move,"(-0.0006, 0.0, 0.023600000000000003)","(0.0, 0.03126582822022642, 0.0)","(-0.0008150015684889464, 0.1725999041953385, 0.0029870538869580156)","(1.501978740459451, -0.003805746194193223, 0.021990474553432074)","[-0.000815080129953952, 0.0026008418188196714, 0.002072164203870281]","[-0.026750000193715096, 0.05299999937415123, 0.03999999910593033]","[0.0, -0.0, 0.5560370369347293]","[-0.06475335359573364, 0.11415345221757889, 0.03999999910593033]","[0.0, 0.0, -0.2033914969759414]","[0.026750000193715096, 0.05299999937415123, 0.03999999910593033]","[0.0, 0.0, -0.5520873595718411]","[0.06451152265071869, 0.11430308222770691, 0.03999999910593033]","[0.0, -0.0, 0.20672041827346274]",0.5594051460807326,0.8083436359524736,"(0.0, 0.0, 0.0, 0.0, 0.0, 0.0)",0.07582699572772826,-0.7594300229783095,-0.00035007678072131187,"(0.0, 0.0, 0.0, 0.0, 0.0, 0.0)",0.0055622092276454045,-0.5555362960432065,-0.8277524937002907,"(0.0, 0.0, 0.0, 0.0, 0.0, 0.0)",-0.06397392849561168,0.7588090031392567,0.0003060001919917213,"(0.0, 0.0, 0.0, 0.0, 0.0, 0.0)",-0.004682224186655415,True,"(-0.03242905240946747, 0.18684729326133898, 0.040004136439055045)","(0.9997220835732877, 0.023208737316545224, 0.00413643905504625)",-0.0008017842321457182,0.0,True,"(0.031945479471212616, 0.1868458226609655, 0.03999586356094496)","(-0.9997220835732874, -0.02320873731654614, -0.004136439055047711)",0.0012383586443587937,0.0
86,Move,"(-0.0007, 0.0, 0.0247)","(0.0, 0.05316796500350326, 0.0)","(-0.0008523098026107459, 0.17260844717847595, 0.0030897023760787247)","(1.4989950319048482, -0.0035014464080357567, 0.020770983143736276)","[-0.0008523883640757515, 0.002609384801957132, 0.00217481269299099]","[-0.026750000193715096, 0.05299999937415123, 0.03999999910593033]","[0.0, -0.0, 0.5594051406662482]","[-0.06495910882949829, 0.11402510851621628, 0.03999999910593033]","[0.0, 0.0, -0.20002486939128186]","[0.026750000193715096, 0.05299999937415123, 0.03999999910593033]","[0.0, 0.0, -0.5555363490725923]","[0.06472273170948029, 0.11417247354984283, 0.03999999910593033]","[0.0, -0.0, 0.20327271895390564]",0.5628975587846509,0.8381790489404057,"(0.0, 0.0, 0.0, 0.0, 0.0, 0.0)",0.04407945443253468,-0.7594299297982942,2.236320369889349e-05,"(0.0, 0.0, 0.0, 0.0, 0.0, 0.0)",0.003335181794596243,-0.5592278652400365,-0.8859766072392112,"(0.0, 0.0, 0.0, 0.0, 0.0, 0.0)",-0.08576179457764273,0.7588089773516866,-6.189016812737378e-06,"(0.0, 0.0, 0.0, 0.0, 0.0, 0.0)",-0.006438791233900597,True,"(-0.03287961132099889, 0.1868227739494707, 0.04000380573700732)","(0.9997509791657053, 0.021988542995041476, 0.0038057370073157465)",-0.0003569903976507593,0.0,True,"(0.03240703025562142, 0.1868248397023866, 0.03999619426299269)","(-0.9997509791657051, -0.021988542995046642, -0.0038057370073166052)",0.0017073923183842557,0.0
87,Move,"(-0.001, 0.0, 0.0257)","(0.0, 0.06176196624032335, 0.0)","(-0.0008892841973463655, 0.1726121126790869, 0.0031415035002518377)","(1.4976303791244878, -0.0032207779541919054, 0.019552502251008307)","[-0.0008893627588113711, 0.0026130503025680873, 0.002226613817164103]","[-0.026750000193715096, 0.05299999937415123, 0.03999999910593033]","[0.0, -0.0, 0.5628975286715532]","[-0.06517200171947479, 0.11389129608869553, 0.03999999910593033]","[0.0, 0.0, -0.19653236377364702]","[0.026750000193715096, 0.05299999937415123, 0.03999999910593033]","[0.0, 0.0, -0.559227827477623]","[0.06494829058647156, 0.11403188109397888, 0.03999999910593033]","[0.0, -0.0, 0.19958114139819513]",0.5664860771790563,0.8612444146572997,"(0.0, 0.0, 0.0, 0.0, 0.0, 0.0)",0.03410447996099778,-0.7594299794078029,-1.1906282090443334e-05,"(0.0, 0.0, 0.0, 0.0, 0.0, 0.0)",0.002550606639618582,-0.5631616742752608,-0.9441141684538108,"(0.0, 0.0, 0.0, 0.0, 0.0, 0.0)",-0.08561659837080145,0.7588090809451491,2.486243099605065e-05,"(0.0, 0.0, 0.0, 0.0, 0.0, 0.0)",-0.006394617540068061,True,"(-0.03334683406397973, 0.1867958430365595, 0.040003501439253346)","(0.9997781621502358, 0.02076936230730088, 0.0035014392533418725)",0.00010340196739344451,0.0,False,,,,
88,Move,"(-0.001, 0.0, 0.0257)","(0.0, 0.06176196624032335, 0.0)","(-0.0009260304315766265, 0.17261066991866741, 0.0031426243983184877)","(1.4978857262955523, -0.002958024619910085, 0.018334259128747074)","[-0.0009261089930416321, 0.002611607542148592, 0.002227734715230753]","[-0.026750000193715096, 0.05299999937415123, 0.03999999910593033]","[0.0, -0.0, 0.5664861046665068]","[-0.06539026647806168, 0.11375302076339722, 0.03999999910593033]","[0.0, 0.0, -0.19294389359149305]","[0.026750000193715096, 0.05299999937415123, 0.03999999910593033]","[0.0, 0.0, -0.5631617020982003]","[0.06518808752298355, 0.11388114094734192, 0.03999999910593033]","[0.0, -0.0, 0.1956474479164482]",0.5702622287917712,0.9062763870515961,"(0.0, 0.0, 0.0, 0.0, 0.0, 0.0)",0.06634284834902275,-0.7594310249894819,-0.0002509396029739004,"(0.0, 0.0, 0.0, 0.0, 0.0, 0.0)",0.004935207463259863,-0.5672186094610738,-0.9736644445951262,"(0.0, 0.0, 0.0, 0.0, 0.0, 0.0)",-0.04365046610252835,0.7588097634212,0.00016379425220483732,"(0.0, 0.0, 0.0, 0.0, 0.0, 0.0)",-0.0032547812198829833,True,"(-0.033826809304510215, 0.1867665014479094, 0.040003220772385786)","(0.9998036702080917, 0.019551155046914962, 0.0032207723857821825)",0.0005756014504365097,0.0,False,,,,
89,Move,"(-0.001, 0.0, 0.0257)","(0.0, 0.06176196624032335, 0.0)","(0.00029645130614626913, 0.1726882492896701, 0.003259605436045764)","(1.5049954349347716, 0.00800996893903099, 0.005181375369025705)","[0.0002963727446812635, 0.002689186913151287, 0.002344715752958029]","[-0.026750000193715096, 0.05299999937415123, 0.03999999910593033]","[0.0, -0.0, 0.5702622076010003]","[-0.06561940163373947, 0.11360667645931244, 0.03999999910593033]","[0.0, 0.0, -0.18916879365720388]","[0.026750000193715096, 0.05299999937415123, 0.03999999910593033]","[0.0, 0.0, -0.5672186839208794]","[0.0654347613453865, 0.11372470110654831, 0.03999999910593033]","[0.0, -0.0, 0.1915911513115242]",0.5482544836833229,-5.281858826027621,"(0.0, 0.0, 0.0, 0.0, 0.0, 0.0)",-21.357006086428054,-0.7588785018559482,0.1326055520480822,"(0.0, 0.0, 0.0, 0.0, 0.0, 0.0)",-7.354057721126113,-0.544831224939011,5.372972285295058,"(0.0, 0.0, 0.0, 0.0, 0.0, 0.0)",9.318324649404104,0.7588096951735949,-1.6379425221479894e-05,"(0.0, 0.0, 0.0, 0.0, 0.0, 0.0)",0.6950606158138779,True,"(-0.03433169895386019, 0.1867337997643883, 0.04000295802030617)","(0.9998275579627621, 0.018333151777242502, 0.0029580203061702567)",0.0010719536935901537,91.75616392948585,False,,,,
90,Move,"(-0.001, 0.0, 0.0257)","(0.0, 0.06176196624032335, 0.0)","(0.00010046812057888866, 0.17349286544865347, 0.0033382572834789325)","(1.4992614146173533, 0.00717654086063105, 0.003180173045728816)","[0.00010038955911388304, 0.003493803072134649, 0.0024233676003911978]","[-0.026750000193715096, 0.05299999937415123, 0.03999999910593033]","[0.0, -0.0, 0.5482545401083553]","[-0.06427627801895142, 0.11444736272096634, 0.03999999910593033]","[0.0, 0.0, -0.21062403326349804]","[0.026750000193715096, 0.05299999937415123, 0.03999999910593033]","[0.0, 0.0, -0.5448312025751932]","[0.06406570971012115, 0.11457546055316925, 0.03999999910593033]","[0.0, -0.0, 0.21397844794974924]",0.5306757243945095,-4.21890222931521,"(0.0, 0.0, 0.0, 0.0, 0.0, 0.0)",-60.05460447482577,-0.7291358854101357,7.138227946994989,"(0.0, 0.0, 0.0, 0.0, 0.0, 0.0)",-31.852874978524618,-0.527103591832831,4.254631945483228,"(0.0, 0.0, 0.0, 0.0, 0.0, 0.0)",72.38060772893535,0.7294109274398851,-7.055704256090343,"(0.0, 0.0, 0.0, 0.0, 0.0, 0.0)",37.350324897331,True,"(-0.03142697666070521, 0.18689472053651668, 0.03999199011671343)","(0.9999544975056042, 0.005181185969435353, -0.008009883286571514)",-1.7398972402429772e-05,464.77932106638053,True,"(0.03097358280722806, 0.18690521555311995, 0.040008009883286566)","(-0.9999544975056044, -0.005181185969415258, 0.008009883286564271)",-0.0015049532581611134,555.3345021135477
91,Move,"(-0.0034, 0.0, 0.0273)","(0.0, 0.06176196624032335, 0.0)","(-7.62393898336064e-05, 0.1742266768941983, 0.0034286499484566814)","(1.4929274970678466, 0.006176576530860218, 0.0007101879391942839)","[-7.631795129861201e-05, 0.004227614517679473, 0.0025137602653689467]","[-0.026750000193715096, 0.05299999937415123, 0.03999999910593033]","[0.0, -0.0, 0.5306756774306983]","[-0.06319037079811096, 0.11509750038385391, 0.03999999910593033]","[0.0, 0.0, -0.19846018054091463]","[0.026750000193715096, 0.05299999937415123, 0.03999999910593033]","[0.0, 0.0, -0.5271035237084359]","[0.06296831369400024, 0.11522727459669113, 0.03999999910593033]","[0.0, -0.0, 0.20230737710393681]",0.5130840561424558,-4.222000380492881,"(0.0, 0.0, 0.0, 0.0, 0.0, 0.0)",-73.54583157197139,-0.6995741151711035,7.094824857367759,"(0.0, 0.0, 0.0, 0.0, 0.0, 0.0)",-39.821014238960785,-0.5098925135173487,4.1306587957157435,"(0.0, 0.0, 0.0, 0.0, 0.0, 0.0)",75.02526460378918,0.7006789749764614,-6.895668591221704,"(0.0, 0.0, 0.0, 0.0, 0.0, 0.0)",38.47275059117847,True,"(-0.031224562057346777, 0.18792489934135684, 0.03999282352074113)","(0.9999691921253387, 0.003180085791960991, -0.007176479258872634)",-0.00041877844004526273,545.0345104744757,True,"(0.03072257189925831, 0.18792864291944572, 0.040007176479258874)","(-0.9999691921253389, -0.0031800857919537617, 0.007176479258878101)",-0.0015560855392593807,554.4257711446373
92,Move,"(-0.0032, 0.0, 0.027899999999999998)","(0.0, 0.057002453370134806, 0.0)","(-0.00025354188540251154, 0.17488934864429836, 0.003487409436027383)","(1.4883679428447982, 0.003090316497084201, -0.004829801374823003)","[-0.00025362044686751714, 0.004890286267779542, 0.0025725197529396482]","[-0.026750000193715096, 0.05299999937415123, 0.03999999910593033]","[0.0, -0.0, 0.5130840537491121]","[-0.06209238991141319, 0.11572890728712082, 0.03999999910593033]","[0.0, 0.0, -0.1864900637597968]","[0.026750000193715096, 0.05299999937415123, 0.03999999910593033]","[0.0, 0.0, -0.5098924497634608]","[0.061892006546258926, 0.11584138125181198, 0.03999999910593033]","[0.0, -0.0, 0.19078646887938]",0.5202337633704509,1.7159297347188414,"(0.0, 0.0, 0.0, 0.0, 0.0, 0.0)",7.862416879927668,-0.7025300516615539,-0.7094247577081019,"(0.0, 0.0, 0.0, 0.0, 0.0, 0.0)",-0.20420555762087744,-0.5158570631999138,-1.4314919238156305,"(0.0, 0.0, 0.0, 0.0, 0.0, 0.0)",-7.334695922567884,0.7035519094578555,0.6895042755345928,"(0.0, 0.0, 0.0, 0.0, 0.0, 0.0)",0.2213814795542293,True,"(-0.03100048084748916, 0.18891927315780693, 0.0399938234627419)","(0.9999806728331885, 0.0007101743326778288, -0.006176537258105968)",-0.000820943557285145,0.0,True,"(0.030485925692822463, 0.1889003677440899, 0.040006176537258076)","(-0.9999806728331887, -0.0007101743326999933, 0.006176537258074338)",-0.001613926363365228,0.0
93,Move,"(-0.0004, 0.0, 0.0296)","(0.0, 0.05227784708498615, 0.0)","(-0.0004196838993546898, 0.17546657054507586, 0.003544641922575455)","(1.4859912948165652, 0.0021851569084750076, -0.007386737247247408)","[-0.0004197624608196954, 0.005467508168557039, 0.0026297522394877204]","[-0.026750000193715096, 0.05299999937415123, 0.03999999910593033]","[0.0, -0.0, 0.5202337731254166]","[-0.0625399723649025, 0.11547461897134781, 0.03999999910593033]","[0.0, 0.0, -0.18229628590307337]","[0.026750000193715096, 0.05299999937415123, 0.03999999910593033]","[0.0, 0.0, -0.5158570866092852]","[0.06226620078086853, 0.11563065648078918, 0.03999999910593033]","[0.0, -0.0, 0.1876948669148645]",0.5248801486510194,1.115132467336445,"(0.0, 0.0, 0.0, 0.0, 0.0, 0.0)",-0.7961507004172179,-0.7022347691483259,0.07086780317471264,"(0.0, 0.0, 0.0, 0.0, 0.0, 0.0)",0.01969608824627891,-0.5196798137056774,-0.9174601213832654,"(0.0, 0.0, 0.0, 0.0, 0.0, 0.0)",0.6712658686415717,0.7032650390945937,-0.06884888718284055,"(0.0, 0.0, 0.0, 0.0, 0.0, 0.0)",-0.02678289231614224,True,"(-0.03175526849570657, 0.18878499900812346, 0.039996909688421685)","(0.9999835615634802, -0.0048297595350593695, -0.0030903115783136037)",-0.00027885203642116465,0.0,True,"(0.031086133444329544, 0.18878883951650122, 0.04000309031157831)","(-0.9999835615634799, 0.004829759535074077, 0.003090311578305703)",-0.0008008150642841611,0.0
