OSUrobotics/InHand-Manipulation/AnalyseData/Data/Trial Data/Better/new_hand_expected_exp_2v2_e_n_1_kpNone_kdNone_dp1_step1_save_data.csv
,Phase,human_cube_pos,human_cube_orn,Cube_Pos,Cube_Orn,Cube_pos_in_start_pos,b'l_prox_pin'_link_pos,b'l_prox_pin'_link_orn,b'l_distal_pin'_link_pos,b'l_distal_pin'_link_orn,b'r_prox_pin'_link_pos,b'r_prox_pin'_link_orn,b'r_distal_pin'_link_pos,b'r_distal_pin'_link_orn,b'l_prox_pin'_joint_angle,b'l_prox_pin'_joint_vel,b'l_prox_pin'_joint_react_forces,b'l_prox_pin'_joint_motor_torque,b'l_distal_pin'_joint_angle,b'l_distal_pin'_joint_vel,b'l_distal_pin'_joint_react_forces,b'l_distal_pin'_joint_motor_torque,b'r_prox_pin'_joint_angle,b'r_prox_pin'_joint_vel,b'r_prox_pin'_joint_react_forces,b'r_prox_pin'_joint_motor_torque,b'r_distal_pin'_joint_angle,b'r_distal_pin'_joint_vel,b'r_distal_pin'_joint_react_forces,b'r_distal_pin'_joint_motor_torque,in_contact_l,contact_point_l_dist,contact_normal_l_dist,contact_distance_l_dist,contact_norm_force_l_dist,in_contact_r,contact_point_r_dist,contact_normal_r_dist,contact_distance_r_dist,contact_norm_force_r_dist
0,Open,,,,,,"[-0.026750000193715096, 0.05299999937415123, 0.03999999910593033]","[0.0, -0.0, 0.0]","[-0.026750000193715096, 0.125, 0.03999999910593033]","[0.0, -0.0, 0.0]","[0.026750000193715096, 0.05299999937415123, 0.03999999910593033]","[0.0, -0.0, 0.0]","[0.026750000193715096, 0.125, 0.03999999910593033]","[0.0, -0.0, 0.0]",0.0028636982559538428,0.6872875814289223,"(0.0, 0.0, 0.0, 0.0, 0.0, 0.0)",-74.42376671286476,0.025717978913313098,6.172314939195144,"(0.0, 0.0, 0.0, 0.0, 0.0, 0.0)",-28.347758017338414,-0.0028861714462846827,-0.6926811471083238,"(0.0, 0.0, 0.0, 0.0, 0.0, 0.0)",77.31812537484876,-0.025998027583603027,-6.239526620064726,"(0.0, 0.0, 0.0, 0.0, 0.0, 0.0)",29.325432325549183,False,,,,,False,,,,
1,Open,,,,,,"[-0.026750000193715096, 0.05299999937415123, 0.03999999910593033]","[0.0, -0.0, 0.0028636982488144678]","[-0.026956185698509216, 0.12499970197677612, 0.03999999910593033]","[0.0, -0.0, 0.028581675581217755]","[0.026750000193715096, 0.05299999937415123, 0.03999999910593033]","[0.0, 0.0, -0.0028861714423951343]","[0.026957804337143898, 0.12499970197677612, 0.03999999910593033]","[0.0, 0.0, -0.028884201286240394]",0.1595773284303585,37.61127124185712,"(0.0, 0.0, 0.0, 0.0, 0.0, 0.0)",53.472225824972774,0.02314589095046895,-0.6173011110825959,"(0.0, 0.0, 0.0, 0.0, 0.0, 0.0)",3.3014509125464437,-0.15959755430165623,-37.61073188528917,"(0.0, 0.0, 0.0, 0.0, 0.0, 0.0)",-53.45543824447724,-0.023397935520559333,0.6240220951304867,"(0.0, 0.0, 0.0, 0.0, 0.0, 0.0)",-3.2927232380167535,False,,,,,False,,,,
2,Open,,,,,,"[-0.026750000193715096, 0.05299999937415123, 0.03999999910593033]","[0.0, -0.0, 0.15957730699277592]","[-0.03819086775183678, 0.1240852028131485, 0.03999999910593033]","[0.0, -0.0, 0.1827232399786182]","[0.026750000193715096, 0.05299999937415123, 0.03999999910593033]","[0.0, 0.0, -0.15959754249378824]","[0.03819230571389198, 0.12408497184515, 0.03999999910593033]","[0.0, 0.0, -0.1829954723320542]",0.30061959558732265,33.8501441176714,"(0.0, 0.0, 0.0, 0.0, 0.0, 0.0)",-5.433290843096747,0.020831748867960086,-0.555394099802127,"(0.0, 0.0, 0.0, 0.0, 0.0, 0.0)",-0.37949999689540415,-0.30063779887149056,-33.849658696760244,"(0.0, 0.0, 0.0, 0.0, 0.0, 0.0)",5.433149501288634,-0.02105858889910766,0.5614431891484022,"(0.0, 0.0, 0.0, 0.0, 0.0, 0.0)",0.37943043762158307,False,,,,,False,,,,
3,Open,,,,,,"[-0.026750000193715096, 0.05299999937415123, 0.03999999910593033]","[0.0, -0.0, 0.30061964608852465]","[-0.048070069402456284, 0.12177103012800217, 0.03999999910593033]","[0.0, -0.0, 0.3214513597309629]","[0.026750000193715096, 0.05299999937415123, 0.03999999910593033]","[0.0, 0.0, -0.30063782483534385]","[0.04807132109999657, 0.12177064269781113, 0.03999999910593033]","[0.0, 0.0, -0.32169639446592324]",0.4275576360285904,30.465129705904268,"(0.0, 0.0, 0.0, 0.0, 0.0, 0.0)",-4.896562760502833,0.018748978964657985,-0.49986477679250463,"(0.0, 0.0, 0.0, 0.0, 0.0, 0.0)",-0.3438186216350169,-0.4275740189843415,-30.464692827084228,"(0.0, 0.0, 0.0, 0.0, 0.0, 0.0)",4.8964345239877005,-0.018953134917884834,0.505308955493478,"(0.0, 0.0, 0.0, 0.0, 0.0, 0.0)",0.34375511365495653,False,,,,,False,,,,
4,Open,,,,,,"[-0.026750000193715096, 0.05299999937415123, 0.03999999910593033]","[0.0, -0.0, 0.42755761853039154]","[-0.056604765355587006, 0.1185186430811882, 0.03999999910593033]","[0.0, -0.0, 0.4463066270391506]","[0.026750000193715096, 0.05299999937415123, 0.03999999910593033]","[0.0, 0.0, -0.42757404208311445]","[0.05660583823919296, 0.1185181587934494, 0.03999999910593033]","[0.0, 0.0, -0.4465272228574986]",0.5418018724257314,27.418616735313837,"(0.0, 0.0, 0.0, 0.0, 0.0, 0.0)",-4.412236817968903,0.016874447698417276,-0.44988750389777044,"(0.0, 0.0, 0.0, 0.0, 0.0, 0.0)",-0.3112578673856835,-0.5418166170859073,-27.418223544375806,"(0.0, 0.0, 0.0, 0.0, 0.0, 0.0)",4.412120589674461,-0.017058187988154127,0.4547872631353701,"(0.0, 0.0, 0.0, 0.0, 0.0, 0.0)",0.31119999541872967,False,,,,,False,,,,
5,Open,,,,,,"[-0.026750000193715096, 0.05299999937415123, 0.03999999910593033]","[0.0, -0.0, 0.5418019400761332]","[-0.06387900561094284, 0.11468822509050369, 0.03999999910593033]","[0.0, -0.0, 0.5586763123738882]","[0.026750000193715096, 0.05299999937415123, 0.03999999910593033]","[0.0, 0.0, -0.5418166677071254]","[0.06387991458177567, 0.11468767374753952, 0.03999999910593033]","[0.0, 0.0, -0.5588748551425957]",0.6446216851831583,24.67675506178245,"(0.0, 0.0, 0.0, 0.0, 0.0, 0.0)",-3.975330693632137,0.015187334633278446,-0.4049071356333192,"(0.0, 0.0, 0.0, 0.0, 0.0, 0.0)",-0.2816071653694913,-0.6446349553773166,-24.67640118993823,"(0.0, 0.0, 0.0, 0.0, 0.0, 0.0)",3.975225427671302,-0.01535270083200906,0.409316917474816,"(0.0, 0.0, 0.0, 0.0, 0.0, 0.0)",0.28155450162657786,False,,,,,False,,,,
6,Open,,,,,,"[-0.026750000193715096, 0.05299999937415123, 0.03999999910593033]","[0.0, -0.0, 0.6446216983098856]","[-0.07001452147960663, 0.11055155843496323, 0.03999999910593033]","[0.0, -0.0, 0.6598089287160823]","[0.026750000193715096, 0.05299999937415123, 0.03999999910593033]","[0.0, 0.0, -0.644634967879878]","[0.07001528143882751, 0.11055097728967667, 0.03999999910593033]","[0.0, 0.0, -0.6599877329949964]",0.7371595166648425,22.209079555604205,"(0.0, 0.0, 0.0, 0.0, 0.0, 0.0)",-3.5812948349547464,0.013668901111545678,-0.3644240452158641,"(0.0, 0.0, 0.0, 0.0, 0.0, 0.0)",-0.25464125660078457,-0.737171459839585,-22.20876107094441,"(0.0, 0.0, 0.0, 0.0, 0.0, 0.0)",3.5811995605906057,-0.01381773063402154,0.3683928475170044,"(0.0, 0.0, 0.0, 0.0, 0.0, 0.0)",0.2545933902665499,False,,,,,False,,,,
7,Open,,,,,,"[-0.026750000193715096, 0.05299999937415123, 0.03999999910593033]","[0.0, -0.0, 0.7371595400859692]","[-0.07514750957489014, 0.10630742460489273, 0.03999999910593033]","[0.0, -0.0, 0.7508283868993905]","[0.026750000193715096, 0.05299999937415123, 0.03999999910593033]","[0.0, 0.0, -0.7371714711336782]","[0.07514814287424088, 0.10630684345960617, 0.03999999910593033]","[0.0, 0.0, -0.750989167509555]",0.8204435649983582,19.988171600043785,"(0.0, 0.0, 0.0, 0.0, 0.0, 0.0)",-3.2259980823944012,0.01230228208777883,-0.32798856570404317,"(0.0, 0.0, 0.0, 0.0, 0.0, 0.0)",-0.23014491551259536,-0.8204543138556265,-19.987884963849964,"(0.0, 0.0, 0.0, 0.0, 0.0, 0.0)",3.225911902119173,-0.012436228606816148,0.33156048652929415,"(0.0, 0.0, 0.0, 0.0, 0.0, 0.0)",0.23010145595163894,False,,,,,False,,,,
8,Open,,,,,,"[-0.026750000193715096, 0.05299999937415123, 0.03999999910593033]","[0.0, -0.0, 0.8204435774406766]","[-0.07941428571939468, 0.1020965725183487, 0.03999999910593033]","[0.0, -0.0, 0.8327459142786269]","[0.026750000193715096, 0.05299999937415123, 0.03999999910593033]","[0.0, 0.0, -0.8204543695347751]","[0.07941480726003647, 0.10209600627422333, 0.03999999910593033]","[0.0, 0.0, -0.8328905496331522]",0.8953992084985224,17.9893544400394,"(0.0, 0.0, 0.0, 0.0, 0.0, 0.0)",-2.905692777507757,0.011072298781000885,-0.2951959936267068,"(0.0, 0.0, 0.0, 0.0, 0.0, 0.0)",-0.20791432075989408,-0.8954088824700639,-17.989096467464968,"(0.0, 0.0, 0.0, 0.0, 0.0, 0.0)",2.9056148642503405,-0.011192850601700187,0.29841072122783063,"(0.0, 0.0, 0.0, 0.0, 0.0, 0.0)",0.20787489947010138,False,,,,,False,,,,
9,Open,,,,,,"[-0.026750000193715096, 0.05299999937415123, 0.03999999910593033]","[0.0, -0.0, 0.8953992050914552]","[-0.08294302970170975, 0.09801492840051651, 0.03999999910593033]","[0.0, -0.0, 0.9064715399310761]","[0.026750000193715096, 0.05299999937415123, 0.03999999910593033]","[0.0, 0.0, -0.8954089117450801]","[0.08294346183538437, 0.09801438450813293, 0.03999999910593033]","[0.0, 0.0, -0.9066016844299951]",0.9628592876486701,16.190418996035465,"(0.0, 0.0, 0.0, 0.0, 0.0, 0.0)",-2.616982039675733,0.009965290062605858,-0.26568209241480656,"(0.0, 0.0, 0.0, 0.0, 0.0, 0.0)",-0.18775783729375353,-0.9628679942230576,-16.190186820718473,"(0.0, 0.0, 0.0, 0.0, 0.0, 0.0)",2.6169116334278195,-0.010073786659150813,0.26857534621184953,"(0.0, 0.0, 0.0, 0.0, 0.0, 0.0)",0.187722108909745,False,,,,,False,,,,
10,Open,,,,,,"[-0.026750000193715096, 0.05299999937415123, 0.03999999910593033]","[0.0, -0.0, 0.9628592963772022]","[-0.08584962040185928, 0.09412462264299393, 0.03999999910593033]","[0.0, -0.0, 0.9728246761305416]","[0.026750000193715096, 0.05299999937415123, 0.03999999910593033]","[0.0, 0.0, -0.9628681466677605]","[0.08584997802972794, 0.09412410855293274, 0.03999999910593033]","[0.0, 0.0, -0.9729417790417357]",1.0235733588838032,14.57137709643192,"(0.0, 0.0, 0.0, 0.0, 0.0, 0.0)",-2.356789246056587,0.008968960705874744,-0.23911904561546746,"(0.0, 0.0, 0.0, 0.0, 0.0, 0.0)",-0.16949635495257384,-1.0235811948007518,-14.571168138646623,"(0.0, 0.0, 0.0, 0.0, 0.0, 0.0)",2.3567256501387286,-0.009066607604651448,0.24172297307984775,"(0.0, 0.0, 0.0, 0.0, 0.0, 0.0)",0.16946399753760524,False,,,,,False,,,,
11,Open,,,,,,"[-0.026750000193715096, 0.05299999937415123, 0.03999999910593033]","[0.0, -0.0, 1.0235732790301837]","[-0.08823604136705399, 0.09046287834644318, 0.03999999910593033]","[0.0, -0.0, 1.0325423083164225]","[0.026750000193715096, 0.05299999937415123, 0.03999999910593033]","[0.0, 0.0, -1.0235812274279317]","[0.08823633193969727, 0.09046239405870438, 0.03999999910593033]","[0.0, 0.0, -1.0326479037372749]",1.078216022995423,13.114239386788727,"(0.0, 0.0, 0.0, 0.0, 0.0, 0.0)",-2.1223296975724493,0.008072244810550301,-0.215211814877866,"(0.0, 0.0, 0.0, 0.0, 0.0, 0.0)",-0.1529632973210469,-1.0782230753206767,-13.114051324781958,"(0.0, 0.0, 0.0, 0.0, 0.0, 0.0)",2.122272274708909,-0.008160126984954354,0.21755534872730237,"(0.0, 0.0, 0.0, 0.0, 0.0, 0.0)",0.15293401213466845,False,,,,,False,,,,
12,Open,,,,,,"[-0.026750000193715096, 0.05299999937415123, 0.03999999910593033]","[0.0, -0.0, 1.078215882979514]","[-0.09019032120704651, 0.08704887330532074, 0.03999999910593033]","[0.0, -0.0, 1.0862882926740116]","[0.026750000193715096, 0.05299999937415123, 0.03999999910593033]","[0.0, 0.0, -1.078222977413882]","[0.09019055962562561, 0.08704842627048492, 0.03999999910593033]","[0.0, 0.0, -1.0863833790205233]",1.1273944206958806,11.802815448109852,"(0.0, 0.0, 0.0, 0.0, 0.0, 0.0)",-1.9110844168611731,0.007265182884681461,-0.19369486220852175,"(0.0, 0.0, 0.0, 0.0, 0.0, 0.0)",-0.13800439004610457,-1.127400767788609,-11.802646192303762,"(0.0, 0.0, 0.0, 0.0, 0.0, 0.0)",1.9110325851897776,-0.007344276810443619,0.19580404188257655,"(0.0, 0.0, 0.0, 0.0, 0.0, 0.0)",0.13797790093405082,False,,,,,False,,,,
13,Open,,,,,,"[-0.026750000193715096, 0.05299999937415123, 0.03999999910593033]","[0.0, -0.0, 1.1273943743462997]","[-0.0917874127626419, 0.08388907462358475, 0.03999999910593033]","[0.0, -0.0, 1.1346596248576977]","[0.026750000193715096, 0.05299999937415123, 0.03999999910593033]","[0.0, 0.0, -1.127400718904607]","[0.09178761392831802, 0.08388865739107132, 0.03999999910593033]","[0.0, 0.0, -1.134745111288055]",1.1716549786262926,10.622533903298867,"(0.0, 0.0, 0.0, 0.0, 0.0, 0.0)",-1.7207759982695574,0.00653881121780902,-0.17432920004938585,"(0.0, 0.0, 0.0, 0.0, 0.0, 0.0)",-0.12447725819906867,-1.1716606910097482,-10.622381573073383,"(0.0, 0.0, 0.0, 0.0, 0.0, 0.0)",1.7207292273800263,-0.006609995722787257,0.17622746103752684,"(0.0, 0.0, 0.0, 0.0, 0.0, 0.0)",0.12445331071934837,False,,,,,False,,,,
14,Open,,,,,,"[-0.026750000193715096, 0.05299999937415123, 0.03999999910593033]","[0.0, -0.0, 1.17165497759142]","[-0.09309044480323792, 0.08098116517066956, 0.03999999910593033]","[0.0, -0.0, 1.1781937273122836]","[0.026750000193715096, 0.05299999937415123, 0.03999999910593033]","[0.0, 0.0, -1.1716605985979762]","[0.09309060126543045, 0.08098078519105911, 0.03999999910593033]","[0.0, 0.0, -1.178270796658152]",1.2114894807636634,9.56028051296898,"(0.0, 0.0, 0.0, 0.0, 0.0, 0.0)",-1.549346412635057,0.005885062316220725,-0.15689973638119079,"(0.0, 0.0, 0.0, 0.0, 0.0, 0.0)",-0.11225090666269867,-1.2114946219087734,-9.560143415766044,"(0.0, 0.0, 0.0, 0.0, 0.0, 0.0)",1.5493042197033076,-0.00594912834521185,0.1586081706180975,"(0.0, 0.0, 0.0, 0.0, 0.0, 0.0)",0.11222926703597672,False,,,,,False,,,,
15,Open,,,,,,"[-0.026750000193715096, 0.05299999937415123, 0.03999999910593033]","[0.0, -0.0, 1.2114893406881728]","[-0.09415213763713837, 0.07831703126430511, 0.03999999910593033]","[0.0, -0.0, 1.2173745989650702]","[0.026750000193715096, 0.05299999937415123, 0.03999999910593033]","[0.0, 0.0, -1.2114945655338818]","[0.09415226429700851, 0.07831668108701706, 0.03999999910593033]","[0.0, 0.0, -1.2174436451143456]",1.247340532687297,8.604252461672083,"(0.0, 0.0, 0.0, 0.0, 0.0, 0.0)",-1.3949366588174594,0.00529667529397997,-0.14121288533778104,"(0.0, 0.0, 0.0, 0.0, 0.0, 0.0)",-0.1012051251161189,-1.2473451597178962,-8.604129074189437,"(0.0, 0.0, 0.0, 0.0, 0.0, 0.0)",1.394898604883462,-0.005354334697048719,0.1427504755591516,"(0.0, 0.0, 0.0, 0.0, 0.0, 0.0)",0.1011855790679586,False,,,,,False,,,,
16,Open,,,,,,"[-0.026750000193715096, 0.05299999937415123, 0.03999999910593033]","[0.0, -0.0, 1.2473405247091465]","[-0.09501627087593079, 0.07588484138250351, 0.03999999910593033]","[0.0, -0.0, 1.2526371614229614]","[0.026750000193715096, 0.05299999937415123, 0.03999999910593033]","[0.0, 0.0, -1.2473450561350814]","[0.09501637518405914, 0.07588452845811844, 0.03999999910593033]","[0.0, 0.0, -1.252699591080442]",1.2796064794185673,7.743827215504874,"(0.0, 0.0, 0.0, 0.0, 0.0, 0.0)",-1.2558681481324276,0.004767115224099335,-0.12709441677135241,"(0.0, 0.0, 0.0, 0.0, 0.0, 0.0)",-0.09122984935698081,-1.2796106437461066,-7.743716166770495,"(0.0, 0.0, 0.0, 0.0, 0.0, 0.0)",1.2558338345532607,-0.004819008666073119,0.128478247434144,"(0.0, 0.0, 0.0, 0.0, 0.0, 0.0)",0.09121220090323832,False,,,,,False,,,,
17,Open,,,,,,"[-0.026750000193715096, 0.05299999937415123, 0.03999999910593033]","[0.0, -0.0, 1.279606409124563]","[-0.09571900963783264, 0.0736706405878067, 0.03999999910593033]","[0.0, -0.0, 1.2843736758198352]","[0.026750000193715096, 0.05299999937415123, 0.03999999910593033]","[0.0, 0.0, -1.2796106525936015]","[0.0957190990447998, 0.07367035001516342, 0.03999999910593033]","[0.0, 0.0, -1.2844295613342638]",1.3086458314767107,6.969444493954387,"(0.0, 0.0, 0.0, 0.0, 0.0, 0.0)",-1.1305941221975622,0.00429170208951155,-0.1140991523010686,"(0.0, 0.0, 0.0, 0.0, 0.0, 0.0)",-0.082192919359827,-1.3086495793714958,-6.969344550093446,"(0.0, 0.0, 0.0, 0.0, 0.0, 0.0)",1.1305631934145834,-0.004338405935744441,0.11534465527888274,"(0.0, 0.0, 0.0, 0.0, 0.0, 0.0)",0.08217699569254354,False,,,,,False,,,,
18,Open,,,,,,"[-0.026750000193715096, 0.05299999937415123, 0.03999999910593033]","[0.0, -0.0, 1.308645825919811]","[-0.09629011154174805, 0.0716593861579895, 0.03999999910593033]","[0.0, -0.0, 1.3129373548657892]","[0.026750000193715096, 0.05299999937415123, 0.03999999910593033]","[0.0, 0.0, -1.308649569130343]","[0.09629017859697342, 0.07165912538766861, 0.03999999910593033]","[0.0, 0.0, -1.3129881167123505]",1.3347812483290395,6.272500044558946,"(0.0, 0.0, 0.0, 0.0, 0.0, 0.0)",-1.0178482622338179,0.003863702481573626,-0.10271990590510163,"(0.0, 0.0, 0.0, 0.0, 0.0, 0.0)",-0.07410352518858664,-1.3347846214343462,-6.272410095084102,"(0.0, 0.0, 0.0, 0.0, 0.0, 0.0)",1.0178203769740246,-0.0039057357160976183,0.10384085271523745,"(0.0, 0.0, 0.0, 0.0, 0.0, 0.0)",0.0740891498002037,False,,,,,False,,,,
19,Open,,,,,,"[-0.026750000193715096, 0.05299999937415123, 0.03999999910593033]","[0.0, -0.0, 1.3347813147466918]","[-0.09675397723913193, 0.06983575969934464, 0.03999999910593033]","[0.0, -0.0, 1.3386449621367835]","[0.026750000193715096, 0.05299999937415123, 0.03999999910593033]","[0.0, 0.0, -1.3347844615433213]","[0.0967540368437767, 0.06983552873134613, 0.03999999910593033]","[0.0, 0.0, -1.3386905382854437]",1.3583031234961356,5.645250040103052,"(0.0, 0.0, 0.0, 0.0, 0.0, 0.0)",-0.9162890978823036,0.0034783869891320215,-0.09247571818598516,"(0.0, 0.0, 0.0, 0.0, 0.0, 0.0)",-0.06677007440367574,-1.3583061592909116,-5.645169085575695,"(0.0, 0.0, 0.0, 0.0, 0.0, 0.0)",0.9162639666346021,-0.003516216695348753,0.09348456497972772,"(0.0, 0.0, 0.0, 0.0, 0.0, 0.0)",0.06675710630673855,False,,,,,False,,,,
20,Open,,,,,,"[-0.026750000193715096, 0.05299999937415123, 0.03999999910593033]","[0.0, -0.0, 1.3583030429358363]","[-0.09713058918714523, 0.06818463653326035, 0.03999999910593033]","[0.0, -0.0, 1.3617816714487538]","[0.026750000193715096, 0.05299999937415123, 0.03999999910593033]","[0.0, 0.0, -1.358306171033049]","[0.09713063389062881, 0.06818442046642303, 0.03999999910593033]","[0.0, 0.0, -1.361822351334537]",1.379472811146522,5.0807250360927485,"(0.0, 0.0, 0.0, 0.0, 0.0, 0.0)",-0.8248429295126702,0.003131498553648039,-0.08325322451615583,"(0.0, 0.0, 0.0, 0.0, 0.0, 0.0)",-0.06015531267018523,-1.3794755433618204,-5.080652177018124,"(0.0, 0.0, 0.0, 0.0, 0.0, 0.0)",0.8248202834423316,-0.003165545104486833,0.08416118180686077,"(0.0, 0.0, 0.0, 0.0, 0.0, 0.0)",0.06014361689139186,False,,,,,False,,,,
21,Open,,,,,,"[-0.026750000193715096, 0.05299999937415123, 0.03999999910593033]","[0.0, -0.0, 1.3794728975130914]","[-0.09743624925613403, 0.06669140607118607, 0.03999999910593033]","[0.0, -0.0, 1.382604304378769]","[0.026750000193715096, 0.05299999937415123, 0.03999999910593033]","[0.0, 0.0, -1.379475506721758]","[0.09743628650903702, 0.06669121235609055, 0.03999999910593033]","[0.0, 0.0, -1.3826409668082853]",1.3985255300318697,4.572652532483473,"(0.0, 0.0, 0.0, 0.0, 0.0, 0.0)",-0.7425066286387145,0.0028192047313806493,-0.07495051734417352,"(0.0, 0.0, 0.0, 0.0, 0.0, 0.0)",-0.054190171953983096,-1.3985279890256384,-4.57258695931631,"(0.0, 0.0, 0.0, 0.0, 0.0, 0.0)",0.7424862245436853,-0.0028498464605416357,0.07576767454684734,"(0.0, 0.0, 0.0, 0.0, 0.0, 0.0)",0.0541796259205944,False,,,,,False,,,,
22,Open,,,,,,"[-0.026750000193715096, 0.05299999937415123, 0.03999999910593033]","[0.0, -0.0, 1.398525454133583]","[-0.09768425673246384, 0.0653422400355339, 0.03999999910593033]","[0.0, -0.0, 1.4013447262228373]","[0.026750000193715096, 0.05299999937415123, 0.03999999910593033]","[0.0, 0.0, -1.3985280648022782]","[0.09768428653478622, 0.06534206122159958, 0.03999999910593033]","[0.0, 0.0, -1.4013779844801912]",1.4156729770286829,4.1153872792351285,"(0.0, 0.0, 0.0, 0.0, 0.0, 0.0)",-0.6683758137814145,0.002538055332395241,-0.06747585575649792,"(0.0, 0.0, 0.0, 0.0, 0.0, 0.0)",-0.04881194552870251,-1.4156751901230746,-4.115328263384682,"(0.0, 0.0, 0.0, 0.0, 0.0, 0.0)",0.6683574317692884,-0.002565632738451909,0.06821129330153437,"(0.0, 0.0, 0.0, 0.0, 0.0, 0.0)",0.0488024380394442,False,,,,,False,,,,
23,Open,,,,,,"[-0.026750000193715096, 0.05299999937415123, 0.03999999910593033]","[0.0, -0.0, 1.4156730334745993]","[-0.09788545966148376, 0.06412414461374283, 0.03999999910593033]","[0.0, -0.0, 1.418211036917125]","[0.026750000193715096, 0.05299999937415123, 0.03999999910593033]","[0.0, 0.0, -1.4156752315845986]","[0.09788548201322556, 0.0641239807009697, 0.03999999910593033]","[0.0, 0.0, -1.418240879504808]",1.4311056793258146,3.703848551311612,"(0.0, 0.0, 0.0, 0.0, 0.0, 0.0)",-0.6016352863054336,0.002284944287465684,-0.060746650783093666,"(0.0, 0.0, 0.0, 0.0, 0.0, 0.0)",-0.04396376851645251,-1.431107671110767,-3.7037954370462103,"(0.0, 0.0, 0.0, 0.0, 0.0, 0.0)",0.6016187276545472,-0.0023097638175418747,0.061408541018408244,"(0.0, 0.0, 0.0, 0.0, 0.0, 0.0)",0.043955198772734246,False,,,,,False,,,,
24,Open,,,,,,"[-0.026750000193715096, 0.05299999937415123, 0.03999999910593033]","[0.0, -0.0, 1.4311058207082674]","[-0.09804865717887878, 0.06302504986524582, 0.03999999910593033]","[0.0, -0.0, 1.433390691262394]","[0.026750000193715096, 0.05299999937415123, 0.03999999910593033]","[0.0, 0.0, -1.4311075924426346]","[0.09804867953062057, 0.06302490830421448, 0.03999999910593033]","[0.0, 0.0, -1.433417470845748]",1.4449951113932331,3.333463696180452,"(0.0, 0.0, 0.0, 0.0, 0.0, 0.0)",-0.5415503506795546,0.0020570753203455715,-0.05468855210882702,"(0.0, 0.0, 0.0, 0.0, 0.0, 0.0)",-0.039594115216637325,-1.4449969039996904,-3.3334158933415914,"(0.0, 0.0, 0.0, 0.0, 0.0, 0.0)",0.541535435877482,-0.002079412775410495,0.055284250111531166,"(0.0, 0.0, 0.0, 0.0, 0.0, 0.0)",0.03958639191865308,False,,,,,False,,,,
25,Open,,,,,,"[-0.026750000193715096, 0.05299999937415123, 0.03999999910593033]","[0.0, -0.0, 1.444995076522675]","[-0.09818101674318314, 0.062033817172050476, 0.03999999910593033]","[0.0, -0.0, 1.4470522962768402]","[0.026750000193715096, 0.05299999937415123, 0.03999999910593033]","[0.0, 0.0, -1.4449971061677662]","[0.09818103164434433, 0.06203368678689003, 0.03999999910593033]","[0.0, 0.0, -1.4470761943538692]",1.45749560025391,3.0001173265624064,"(0.0, 0.0, 0.0, 0.0, 0.0, 0.0)",-0.4874589573784058,0.001851931045420989,-0.04923462598189979,"(0.0, 0.0, 0.0, 0.0, 0.0, 0.0)",-0.03565633120497695,-1.4574972135997213,-3.000074304007432,"(0.0, 0.0, 0.0, 0.0, 0.0, 0.0)",0.4874455243270462,-0.0018720346450414762,0.04977075128856451,"(0.0, 0.0, 0.0, 0.0, 0.0, 0.0)",0.03564937171228022,False,,,,,False,,,,
26,Open,,,,,,"[-0.026750000193715096, 0.05299999937415123, 0.03999999910593033]","[0.0, -0.0, 1.4574954921785264]","[-0.09828835725784302, 0.061140209436416626, 0.03999999910593033]","[0.0, -0.0, 1.4593474823067423]","[0.026750000193715096, 0.05299999937415123, 0.03999999910593033]","[0.0, 0.0, -1.4574971848934346]","[0.09828837215900421, 0.061140093952417374, 0.03999999910593033]","[0.0, 0.0, -1.4593694397653831]",1.4687460402285188,2.700105593906164,"(0.0, 0.0, 0.0, 0.0, 0.0, 0.0)",-0.4387645947805427,0.0016672451487475934,-0.044324615201614966,"(0.0, 0.0, 0.0, 0.0, 0.0, 0.0)",-0.032108199676446195,-1.4687474922397492,-2.70006687360669,"(0.0, 0.0, 0.0, 0.0, 0.0, 0.0)",0.4387524971567325,-0.0016853382893528596,0.04480712536526797,"(0.0, 0.0, 0.0, 0.0, 0.0, 0.0)",0.03210192923147444,False,,,,,False,,,,
27,Open,,,,,,"[-0.026750000193715096, 0.05299999937415123, 0.03999999910593033]","[0.0, -0.0, 1.4687462228928074]","[-0.09837540984153748, 0.06033487245440483, 0.03999999910593033]","[0.0, -0.0, 1.4704133245237396]","[0.026750000193715096, 0.05299999937415123, 0.03999999910593033]","[0.0, 0.0, -1.4687474899518769]","[0.09837542474269867, 0.060334768146276474, 0.03999999910593033]","[0.0, 0.0, -1.4704329951986796]",1.478871436205667,2.430095034515549,"(0.0, 0.0, 0.0, 0.0, 0.0, 0.0)",-0.394929862139441,0.0015009773446580906,-0.03990427298148066,"(0.0, 0.0, 0.0, 0.0, 0.0, 0.0)",-0.028911540991871522,-1.4788727430157742,-2.430060186246021,"(0.0, 0.0, 0.0, 0.0, 0.0, 0.0)",0.39491896790015035,-0.001517261081966714,0.04033852977267494,"(0.0, 0.0, 0.0, 0.0, 0.0, 0.0)",0.02890589200411927,False,,,,,False,,,,
28,Open,,,,,,"[-0.026750000193715096, 0.05299999937415123, 0.03999999910593033]","[0.0, -0.0, 1.4788714352834713]","[-0.09844600409269333, 0.05960927531123161, 0.03999999910593033]","[0.0, -0.0, 1.480372508787761]","[0.026750000193715096, 0.05299999937415123, 0.03999999910593033]","[0.0, 0.0, -1.4788727099725336]","[0.09844601899385452, 0.05960918217897415, 0.03999999910593033]","[0.0, 0.0, -1.4803900544382056]",1.4879842925851003,2.1870855310639947,"(0.0, 0.0, 0.0, 0.0, 0.0, 0.0)",-0.3554706611703565,0.001351290830885638,-0.035924763305388616,"(0.0, 0.0, 0.0, 0.0, 0.0, 0.0)",-0.026031844038894282,-1.487985468714197,-2.1870541676214206,"(0.0, 0.0, 0.0, 0.0, 0.0, 0.0)",0.3554608511915877,-0.001365946114079445,0.03631559229294455,"(0.0, 0.0, 0.0, 0.0, 0.0, 0.0)",0.026026755426892093,False,,,,,False,,,,
29,Close,,,"(3.819349109750643e-09, 0.16999994350316286, 7.914305593764796e-05)","(1.5700606283751846, 1.2357610516186277e-06, -4.058049624060407e-09)",,"[-0.026750000193715096, 0.05299999937415123, 0.03999999910593033]","[0.0, -0.0, 1.4879842849605203]","[-0.09850326180458069, 0.05895565450191498, 0.03999999910593033]","[0.0, -0.0, 1.4893357278409396]","[0.026750000193715096, 0.05299999937415123, 0.03999999910593033]","[0.0, 0.0, -1.4879853833286059]","[0.09850326925516129, 0.05895556882023811, 0.03999999910593033]","[0.0, 0.0, -1.4893513332680077]",1.4961858633265903,1.9683769779575933,"(0.0, 0.0, 0.0, 0.0, 0.0, 0.0)",-0.31995094896823073,0.0012165319928285922,-0.03234212113369103,"(0.0, 0.0, 0.0, 0.0, 0.0, 0.0)",-0.02343792779000599,-1.4961869218427772,-1.9683487508592754,"(0.0, 0.0, 0.0, 0.0, 0.0, 0.0)",0.31994211580738524,-0.0012297216752996233,0.03269386530715718,"(0.0, 0.0, 0.0, 0.0, 0.0, 0.0)",0.02343334437795369,False,,,,,False,,,,
30,Close,,,"(1.09441459674075e-09, 0.16999988769159868, 0.0001519632082907279)","(1.5701173533571526, -2.5467641220651055e-06, -4.573996600559749e-08)",,"[-0.026750000193715096, 0.05299999937415123, 0.03999999910593033]","[0.0, -0.0, 1.4961860174198076]","[-0.09854969382286072, 0.05836696922779083, 0.03999999910593033]","[0.0, -0.0, 1.4974025341106605]","[0.026750000193715096, 0.05299999937415123, 0.03999999910593033]","[0.0, 0.0, -1.4961870219527165]","[0.09854969382286072, 0.05836689472198486, 0.03999999910593033]","[0.0, 0.0, -1.4974167044724178]",1.4065672769939312,-21.50846071983817,"(0.0, 0.0, 0.0, 0.0, 0.0, 0.0)",-36.83524610171859,-0.08890468746940376,-21.629092670935766,"(0.0, 0.0, 0.0, 0.0, 0.0, 0.0)",-4.936581214831643,-1.4065682296584996,21.508486124226657,"(0.0, 0.0, 0.0, 0.0, 0.0, 0.0)",36.83523814678565,0.0888928167555427,21.629409223402156,"(0.0, 0.0, 0.0, 0.0, 0.0, 0.0)",4.936577085092772,False,,,,,False,,,,
31,Close,,,"(3.541182821644653e-08, 0.1699998011443987, 0.00021906657187154062)","(1.570205104748116, 3.3042409171564205e-05, -8.114212850492596e-08)",,"[-0.026750000193715096, 0.05299999937415123, 0.03999999910593033]","[0.0, -0.0, 1.4065674382065954]","[-0.0977812185883522, 0.06477140635251999, 0.03999999910593033]","[0.0, -0.0, 1.3176625934179576]","[0.026750000193715096, 0.05299999937415123, 0.03999999910593033]","[0.0, 0.0, -1.4065680331882469]","[0.0977812260389328, 0.06477133929729462, 0.03999999910593033]","[0.0, 0.0, -1.3176753491400532]",1.3259105492945382,-19.357614647854348,"(0.0, 0.0, 0.0, 0.0, 0.0, 0.0)",3.3395407019063446,-0.17001473426920377,-19.466411231952,"(0.0, 0.0, 0.0, 0.0, 0.0, 0.0)",0.4376834422569755,-1.3259114066926496,19.35763751180399,"(0.0, 0.0, 0.0, 0.0, 0.0, 0.0)",-3.3395473112045253,0.1700040506304986,19.466696129989415,"(0.0, 0.0, 0.0, 0.0, 0.0, 0.0)",-0.43768664266468643,False,,,,,False,,,,
32,Close,,,"(3.361538948490201e-08, 0.16999974452330968, 0.00028077538773600935)","(1.5702911774727688, 7.027968338074274e-05, -7.017997684986258e-06)",,"[-0.026750000193715096, 0.05299999937415123, 0.03999999910593033]","[0.0, -0.0, 1.325910602539969]","[-0.09660188108682632, 0.07045608013868332, 0.03999999910593033]","[0.0, -0.0, 1.1558959321658662]","[0.026750000193715096, 0.05299999937415123, 0.03999999910593033]","[0.0, 0.0, -1.3259115331240872]","[0.09660189598798752, 0.07045602053403854, 0.03999999910593033]","[0.0, 0.0, -1.1559073716167563]",1.2533194943650845,-17.42185318306892,"(0.0, 0.0, 0.0, 0.0, 0.0, 0.0)",3.0100864599566086,-0.2430137284658432,-17.519758607193467,"(0.0, 0.0, 0.0, 0.0, 0.0, 0.0)",0.39699812510351973,-1.2533202660233846,17.42187376062359,"(0.0, 0.0, 0.0, 0.0, 0.0, 0.0)",-3.0100924602349655,0.24300411319445853,17.52001501535039,"(0.0, 0.0, 0.0, 0.0, 0.0, 0.0)",-0.39700105403357716,False,,,,,False,,,,
33,Close,,,"(1.2478111664315067e-07, 0.16999960627903704, 0.000337513976604643)","(1.5703757790333803, 0.0001088681261817636, -5.122611399447184e-06)",,"[-0.026750000193715096, 0.05299999937415123, 0.03999999910593033]","[0.0, -0.0, 1.2533194489161892]","[-0.0951518788933754, 0.07547627389431, 0.03999999910593033]","[0.0, -0.0, 1.0103057011386807]","[0.026750000193715096, 0.05299999937415123, 0.03999999910593033]","[0.0, 0.0, -1.2533201846969224]","[0.09515189379453659, 0.07547622174024582, 0.03999999910593033]","[0.0, 0.0, -1.010316110149499]",1.1879875449285762,-15.679667864762028,"(0.0, 0.0, 0.0, 0.0, 0.0, 0.0)",2.712712783767229,-0.30871235561933186,-15.767670516837281,"(0.0, 0.0, 0.0, 0.0, 0.0, 0.0)",0.3597856734528228,-1.1879882394210461,15.679686384561233,"(0.0, 0.0, 0.0, 0.0, 0.0, 0.0)",-2.712718226071338,0.30870370187508567,15.767901283350515,"(0.0, 0.0, 0.0, 0.0, 0.0, 0.0)",-0.35978834883250516,False,,,,,False,,,,
34,Close,,,"(1.2869376016944667e-07, 0.16999954011037416, 0.00038973303114976833)","(1.5704582297133343, 0.0001496263682483943, -9.931543136061158e-06)",,"[-0.026750000193715096, 0.05299999937415123, 0.03999999910593033]","[0.0, -0.0, 1.1879876003522736]","[-0.09353857487440109, 0.07989397644996643, 0.03999999910593033]","[0.0, -0.0, 0.8792752425767008]","[0.026750000193715096, 0.05299999937415123, 0.03999999910593033]","[0.0, 0.0, -1.1879882623869136]","[0.09353859722614288, 0.07989392429590225, 0.03999999910593033]","[0.0, 0.0, -0.8792844680170303]",1.1291887904356523,-14.1117010783017,"(0.0, 0.0, 0.0, 0.0, 0.0, 0.0)",2.44436472036771,-0.36784112005739866,-14.190903465136039,"(0.0, 0.0, 0.0, 0.0, 0.0, 0.0)",0.3258007578595482,-1.1291894154788755,14.111717746120975,"(0.0, 0.0, 0.0, 0.0, 0.0, 0.0)",-2.444369652349295,0.3678333316875771,14.191111154997946,"(0.0, 0.0, 0.0, 0.0, 0.0, 0.0)",-0.32580319741325486,False,,,,,False,,,,
35,Close,,,"(2.2147778895778094e-07, 0.169999403724105, 0.00043775502472391954)","(1.5705392813318275, 0.0001916771605813282, -8.19762937926826e-06)",,"[-0.026750000193715096, 0.05299999937415123, 0.03999999910593033]","[0.0, -0.0, 1.1291888000608494]","[-0.09184273332357407, 0.08377231657505035, 0.03999999910593033]","[0.0, -0.0, 0.7613476921786614]","[0.026750000193715096, 0.05299999937415123, 0.03999999910593033]","[0.0, 0.0, -1.1291894580384154]","[0.09184275567531586, 0.08377227932214737, 0.03999999910593033]","[0.0, 0.0, -0.7613561373098183]",1.0762699113920273,-12.700530970470014,"(0.0, 0.0, 0.0, 0.0, 0.0, 0.0)",2.202305891359772,-0.4210570080516588,-12.77181311862243,"(0.0, 0.0, 0.0, 0.0, 0.0, 0.0)",0.2948453788489373,-1.0762704739309281,12.700545971507374,"(0.0, 0.0, 0.0, 0.0, 0.0, 0.0)",-2.2023103576802145,0.4210499985188194,12.77200003949815,"(0.0, 0.0, 0.0, 0.0, 0.0, 0.0)",-0.2948476002056522,False,,,,,False,,,,
36,Close,,,"(2.1912693722736075e-07, 0.16999934361709654, 0.000481956449276018)","(1.5706184388641253, 0.00023565575873296478, -1.2845786801691941e-05)",,"[-0.026750000193715096, 0.05299999937415123, 0.03999999910593033]","[0.0, -0.0, 1.0762698553554748]","[-0.09012393653392792, 0.08717226982116699, 0.03999999910593033]","[0.0, -0.0, 0.6552128934948661]","[0.026750000193715096, 0.05299999937415123, 0.03999999910593033]","[0.0, 0.0, -1.0762704893583]","[0.09012395888566971, 0.08717223256826401, 0.03999999910593033]","[0.0, 0.0, -0.6552204147476549]",1.0286429202528247,-11.430477873408655,"(0.0, 0.0, 0.0, 0.0, 0.0, 0.0)",1.9840011930578276,-0.46895130724721834,-11.494631806934295,"(0.0, 0.0, 0.0, 0.0, 0.0, 0.0)",0.26667684533441977,-1.0286434265378352,11.430491374342276,"(0.0, 0.0, 0.0, 0.0, 0.0, 0.0)",-1.984005235051249,0.4689449986676629,11.494800035722442,"(0.0, 0.0, 0.0, 0.0, 0.0, 0.0)",-0.26667886541975433,False,,,,,False,,,,
37,Close,,,"(3.1131510586280866e-07, 0.1699992121070205, 0.0005226007520893923)","(1.5706964879884222, 0.0002806415891397876, -1.1307759452448239e-05)",,"[-0.026750000193715096, 0.05299999937415123, 0.03999999910593033]","[0.0, -0.0, 1.0286429345076582]","[-0.0884251669049263, 0.09015069156885147, 0.03999999910593033]","[0.0, -0.0, 0.5596916647508587]","[0.026750000193715096, 0.05299999937415123, 0.03999999910593033]","[0.0, 0.0, -1.0286435120859125]","[0.08842518925666809, 0.09015065431594849, 0.03999999910593033]","[0.0, 0.0, -0.5596984028120249]",0.9857786282275423,-10.287430086067793,"(0.0, 0.0, 0.0, 0.0, 0.0, 0.0)",1.787161045327472,-0.5120561765231523,-10.345168626224153,"(0.0, 0.0, 0.0, 0.0, 0.0, 0.0)",0.24107512437447856,-0.9857790838840517,10.28744223690805,"(0.0, 0.0, 0.0, 0.0, 0.0, 0.0)",-1.787164701188607,0.5120504988015524,10.345320032133483,"(0.0, 0.0, 0.0, 0.0, 0.0, 0.0)",-0.24107695935135354,False,,,,,False,,,,
38,Close,,,"(3.0991842655903425e-07, 0.169999153087261, 0.0005600347082356065)","(1.570772558536085, 0.00032764712563817383, -1.5390013302753274e-05)",,"[-0.026750000193715096, 0.05299999937415123, 0.03999999910593033]","[0.0, -0.0, 0.9857786218799983]","[-0.08677656948566437, 0.09275941550731659, 0.03999999910593033]","[0.0, -0.0, 0.4737224893055005]","[0.026750000193715096, 0.05299999937415123, 0.03999999910593033]","[0.0, 0.0, -0.9857791586690391]","[0.08677658438682556, 0.0927593931555748, 0.03999999910593033]","[0.0, 0.0, -0.47372859204714834]",0.9472007654041954,-9.258687077603232,"(0.0, 0.0, 0.0, 0.0, 0.0, 0.0)",1.6097085175776904,-0.550850558870837,-9.310651763444346,"(0.0, 0.0, 0.0, 0.0, 0.0, 0.0)",0.21783104241587867,-0.9472011754950539,9.258698013359455,"(0.0, 0.0, 0.0, 0.0, 0.0, 0.0)",-1.609711822487034,0.5508454489213972,9.310788028762744,"(0.0, 0.0, 0.0, 0.0, 0.0, 0.0)",-0.21783270758412676,False,,,,,False,,,,
39,Close,,,"(4.0106165104263135e-07, 0.169999026405202, 0.0005944331352702725)","(1.570848092729261, 0.0003750986118602944, -1.4060502423520339e-05)",,"[-0.026750000193715096, 0.05299999937415123, 0.03999999910593033]","[0.0, -0.0, 0.9472008140782049]","[-0.08519845455884933, 0.09504495561122894, 0.03999999910593033]","[0.0, -0.0, 0.39635019782230363]","[0.026750000193715096, 0.05299999937415123, 0.03999999910593033]","[0.0, 0.0, -0.9472011867132297]","[0.08519846946001053, 0.09504493325948715, 0.03999999910593033]","[0.0, 0.0, -0.3963557154153113]",0.9124806888632406,-8.332818369829143,"(0.0, 0.0, 0.0, 0.0, 0.0, 0.0)",1.4497611633824499,-0.5857655029837533,-8.379586587099913,"(0.0, 0.0, 0.0, 0.0, 0.0, 0.0)",0.19674731686213875,-0.9124810579450133,8.332828212009746,"(0.0, 0.0, 0.0, 0.0, 0.0, 0.0)",-1.4497641496546352,0.5857609040292575,8.379709225886469,"(0.0, 0.0, 0.0, 0.0, 0.0, 0.0)",-0.1967488266016999,False,,,,,False,,,,
40,Close,,,"(3.70657372146465e-07, 0.16999903038777142, 0.0006260749884053443)","(1.5708440552876382, 0.00034508120830118214, -1.4055585689260766e-05)",,"[-0.026750000193715096, 0.05299999937415123, 0.03999999910593033]","[0.0, -0.0, 0.9124807402838544]","[-0.08370371162891388, 0.09704854339361191, 0.03999999910593033]","[0.0, -0.0, 0.32671521193417863]","[0.026750000193715096, 0.05299999937415123, 0.03999999910593033]","[0.0, 0.0, -0.9124811663733811]","[0.08370373398065567, 0.09704852104187012, 0.03999999910593033]","[0.0, 0.0, -0.32672018954414506]",0.8812326199769166,-7.499536532717775,"(0.0, 0.0, 0.0, 0.0, 0.0, 0.0)",1.3056085801322186,-0.6171891619197363,-7.541678144635914,"(0.0, 0.0, 0.0, 0.0, 0.0, 0.0)",0.17763358199117588,-0.881232952150512,7.499545390680321,"(0.0, 0.0, 0.0, 0.0, 0.0, 0.0)",-1.305611277336412,0.617185022862301,7.541788519930457,"(0.0, 0.0, 0.0, 0.0, 0.0, 0.0)",-0.17763494969582577,False,,,,,False,,,,
41,Close,,,"(3.427044292909036e-07, 0.1699990340506735, 0.0006551854712062516)","(1.5708403346470328, 0.0003174583455114455, -1.4051356821419932e-05)",,"[-0.026750000193715096, 0.05299999937415123, 0.03999999910593033]","[0.0, -0.0, 0.8812326035131218]","[-0.08229970186948776, 0.09880644828081131, 0.03999999910593033]","[0.0, -0.0, 0.26404346611112495]","[0.026750000193715096, 0.05299999937415123, 0.03999999910593033]","[0.0, 0.0, -0.8812328730718287]","[0.08229971677064896, 0.09880642592906952, 0.03999999910593033]","[0.0, 0.0, -0.2640479150919315]",0.8531093579792249,-6.749582879446001,"(0.0, 0.0, 0.0, 0.0, 0.0, 0.0)",1.1757252455852583,-0.6454704345862542,-6.78750543996429,"(0.0, 0.0, 0.0, 0.0, 0.0, 0.0)",0.16033509317806058,-0.8531096569354608,6.7495908516122896,"(0.0, 0.0, 0.0, 0.0, 0.0, 0.0)",-1.1757276808922346,0.645466709436021,6.787604777692787,"(0.0, 0.0, 0.0, 0.0, 0.0, 0.0)",-0.16033633143309114,False,,,,,False,,,,
42,Close,,,"(3.170084497545684e-07, 0.16999903740907119, 0.0006819671107693073)","(1.570836911771951, 0.00029204530032808255, -1.4047683015968837e-05)",,"[-0.026750000193715096, 0.05299999937415123, 0.03999999910593033]","[0.0, -0.0, 0.8531093567174074]","[-0.08098968118429184, 0.10035036504268646, 0.03999999910593033]","[0.0, -0.0, 0.2076389231904772]","[0.026750000193715096, 0.05299999937415123, 0.03999999910593033]","[0.0, 0.0, -0.8531096230941355]","[0.08098969608545303, 0.10035035014152527, 0.03999999910593033]","[0.0, 0.0, -0.2076429742570099]",0.8277984221813024,-6.0746245915014,"(0.0, 0.0, 0.0, 0.0, 0.0, 0.0)",1.0586966037970245,-0.6709235615380169,-6.1087504684230565,"(0.0, 0.0, 0.0, 0.0, 0.0, 0.0)",0.14467321668423558,-0.8277986912419147,6.074631766451059,"(0.0, 0.0, 0.0, 0.0, 0.0, 0.0)",-1.0586988018726124,0.6709202089041267,6.108839872345364,"(0.0, 0.0, 0.0, 0.0, 0.0, 0.0)",-0.14467433700617466,False,,,,,False,,,,
43,Close,,,"(2.93385406087929e-07, 0.16999904048782613, 0.0007066062149797113)","(1.5708337628331848, 0.0002686652895538331, -1.4044478861914954e-05)",,"[-0.026750000193715096, 0.05299999937415123, 0.03999999910593033]","[0.0, -0.0, 0.8277984323872327]","[-0.07977395504713058, 0.10170790553092957, 0.03999999910593033]","[0.0, -0.0, 0.15687485461046338]","[0.026750000193715096, 0.05299999937415123, 0.03999999910593033]","[0.0, 0.0, -0.8277987052452376]","[0.07977396249771118, 0.10170789808034897, 0.03999999910593033]","[0.0, 0.0, -0.15687847762667875]",0.8050185799631722,-5.467162132351259,"(0.0, 0.0, 0.0, 0.0, 0.0, 0.0)",0.9532674830029981,-0.6938313591081322,-5.497871416827678,"(0.0, 0.0, 0.0, 0.0, 0.0, 0.0)",0.1305069121449798,-0.8050188221177232,5.467168589805953,"(0.0, 0.0, 0.0, 0.0, 0.0, 0.0)",-0.9532694663734236,0.6938283417388244,5.49795188032743,"(0.0, 0.0, 0.0, 0.0, 0.0, 0.0)",-0.13050792520753388,False,,,,,False,,,,
44,Close,,,"(2.716665250887489e-07, 0.16999904330973556, 0.0007292741870466809)","(1.5708308659078907, 0.0002471556717650467, -1.4041672069322908e-05)",,"[-0.026750000193715096, 0.05299999937415123, 0.03999999910593033]","[0.0, -0.0, 0.8050185839979388]","[-0.07865073531866074, 0.10290304571390152, 0.03999999910593033]","[0.0, -0.0, 0.11118723016400785]","[0.026750000193715096, 0.05299999937415123, 0.03999999910593033]","[0.0, 0.0, -0.8050187952188965]","[0.07865074276924133, 0.10290303081274033, 0.03999999910593033]","[0.0, 0.0, -0.11119048022217565]",0.784516721966855,-4.920445919116134,"(0.0, 0.0, 0.0, 0.0, 0.0, 0.0)",0.8582975670224743,-0.7144483618360385,-4.948080654697517,"(0.0, 0.0, 0.0, 0.0, 0.0, 0.0)",0.11770004006048959,-0.784516939905951,4.92045173082536,"(0.0, 0.0, 0.0, 0.0, 0.0, 0.0)",-0.8582993561887614,0.7144456462047399,4.948153071819748,"(0.0, 0.0, 0.0, 0.0, 0.0, 0.0)",-0.11770095568272418,False,,,,,False,,,,
45,Close,,,"(2.51696986958339e-07, 0.1699990458957082, 0.0007501287178850499)","(1.5708282008276007, 0.000227366816649173, -1.4039201474218165e-05)",,"[-0.026750000193715096, 0.05299999937415123, 0.03999999910593033]","[0.0, -0.0, 0.7845167193080385]","[-0.07761679589748383, 0.10395654290914536, 0.03999999910593033]","[0.0, -0.0, 0.07006835685702544]","[0.026750000193715096, 0.05299999937415123, 0.03999999910593033]","[0.0, 0.0, -0.7845169946958266]","[0.07761680334806442, 0.10395653545856476, 0.03999999910593033]","[0.0, 0.0, -0.0700712989357174]",0.7660650497701694,-4.42840132720452,"(0.0, 0.0, 0.0, 0.0, 0.0, 0.0)",0.7727568402429666,-0.7330036506599046,-4.453269317727849,"(0.0, 0.0, 0.0, 0.0, 0.0, 0.0)",0.106127525293464,-0.7660652459153559,4.428406557742824,"(0.0, 0.0, 0.0, 0.0, 0.0, 0.0)",-0.7727584538402424,0.7330012065927102,4.453334493112861,"(0.0, 0.0, 0.0, 0.0, 0.0, 0.0)",-0.10612835248484857,False,,,,,False,,,,
46,Close,,,"(2.3333473952068603e-07, 0.16999904826492518, 0.0007693148831029557)","(1.5708257490378412, 0.00020916106414766092, -1.403701531280991e-05)",,"[-0.026750000193715096, 0.05299999937415123, 0.03999999910593033]","[0.0, -0.0, 0.7660649977175382]","[-0.07666795700788498, 0.10488639771938324, 0.03999999910593033]","[0.0, -0.0, 0.03306140223906952]","[0.026750000193715096, 0.05299999937415123, 0.03999999910593033]","[0.0, 0.0, -0.7660653079646047]","[0.07666796445846558, 0.10488638281822205, 0.03999999910593033]","[0.0, 0.0, -0.033064041138401834]",0.7494585447931524,-3.985561194484066,"(0.0, 0.0, 0.0, 0.0, 0.0, 0.0)",0.6957152666369016,-0.7497033982890566,-4.007939430996486,"(0.0, 0.0, 0.0, 0.0, 0.0, 0.0)",0.09567473522853766,-0.7494587213238203,3.985565901968542,"(0.0, 0.0, 0.0, 0.0, 0.0, 0.0)",-0.6957167215859875,0.7497011986294615,4.007998088820328,"(0.0, 0.0, 0.0, 0.0, 0.0, 0.0)",-0.09567548223716564,False,,,,,False,,,,
47,Close,,,"(2.1644941757498085e-07, 0.1699990504349868, 0.0007869661522299996)","(1.5708234934689855, 0.0001924117668631307, -1.4035069780186692e-05)",,"[-0.026750000193715096, 0.05299999937415123, 0.03999999910593033]","[0.0, -0.0, 0.7494586090384826]","[-0.07579945772886276, 0.10570816695690155, 0.03999999910593033]","[0.0, 0.0, -0.000244853492999894]","[0.026750000193715096, 0.05299999937415123, 0.03999999910593033]","[0.0, 0.0, -0.7494587081400255]","[0.07579946517944336, 0.10570815205574036, 0.03999999910593033]","[0.0, -0.0, 0.00024247731079752444]",0.7345126903138371,-3.587005075035659,"(0.0, 0.0, 0.0, 0.0, 0.0, 0.0)",0.626333365984163,-0.764733160038395,-3.6071428198412123,"(0.0, 0.0, 0.0, 0.0, 0.0, 0.0)",0.08623682787405348,-0.7345128491914382,3.587009311771688,"(0.0, 0.0, 0.0, 0.0, 0.0, 0.0)",-0.6263346776346612,0.7647311803455538,3.607195611862134,"(0.0, 0.0, 0.0, 0.0, 0.0, 0.0)",-0.08623750223625977,False,,,,,False,,,,
48,Close,,,"(1.9902478529523268e-07, 0.16999905216510106, 0.0008031506134026157)","(1.5708213694672628, 0.00017518801369688713, -1.4031269556480368e-05)",,"[-0.026750000193715096, 0.05299999937415123, 0.03999999910593033]","[0.0, -0.0, 0.7345126628086843]","[-0.07500623911619186, 0.10643533617258072, 0.03999999910593033]","[0.0, 0.0, -0.03022046980229406]","[0.026750000193715096, 0.05299999937415123, 0.03999999910593033]","[0.0, 0.0, -0.7345128981556924]","[0.07500624656677246, 0.10643532872200012, 0.03999999910593033]","[0.0, -0.0, 0.03021832986745902]",0.7210614212824534,-3.228304567532092,"(0.0, 0.0, 0.0, 0.0, 0.0, 0.0)",0.5638237707840803,-0.7782610712626786,-3.246698693828069,"(0.0, 0.0, 0.0, 0.0, 0.0, 0.0)",0.07768823801248652,-0.7210615642722944,3.2283083805945183,"(0.0, 0.0, 0.0, 0.0, 0.0, 0.0)",-0.5638249528147553,0.7782592895487316,3.2467462087626835,"(0.0, 0.0, 0.0, 0.0, 0.0, 0.0)",-0.07768884636877696,False,,,,,False,,,,
49,Close,,,"(1.829952775457341e-07, 0.16999905372445717, 0.0008180403399689366)","(1.5708194143492393, 0.00015934185659229473, -1.4027683329641553e-05)",,"[-0.026750000193715096, 0.05299999937415123, 0.03999999910593033]","[0.0, -0.0, 0.7210614193238458]","[-0.07428312301635742, 0.10707958787679672, 0.03999999910593033]","[0.0, 0.0, -0.05719964992344959]","[0.026750000193715096, 0.05299999937415123, 0.03999999910593033]","[0.0, 0.0, -0.7210615729227128]","[0.07428313046693802, 0.10707958042621613, 0.03999999910593033]","[0.0, -0.0, 0.05719773186848648]",0.7089552791542081,-2.905474110778883,"(0.0, 0.0, 0.0, 0.0, 0.0, 0.0)",0.5075985242705942,-0.7904360705014085,-2.921999817295172,"(0.0, 0.0, 0.0, 0.0, 0.0, 0.0)",0.07003713951344083,-0.7089554078450649,2.905477542535066,"(0.0, 0.0, 0.0, 0.0, 0.0, 0.0)",-0.5075995897946305,0.7904344669675306,2.9220425805117625,"(0.0, 0.0, 0.0, 0.0, 0.0, 0.0)",-0.07003768863744474,False,,,,,False,,,,
50,Close,,,"(1.682467379846132e-07, 0.1699990551245469, 0.0008317388481303276)","(1.570817615731277, 0.00014476218910829968, -1.4024269510216624e-05)",,"[-0.026750000193715096, 0.05299999937415123, 0.03999999910593033]","[0.0, -0.0, 0.7089552779168017]","[-0.07362496107816696, 0.10765105485916138, 0.03999999910593033]","[0.0, 0.0, -0.08148078223376223]","[0.026750000193715096, 0.05299999937415123, 0.03999999910593033]","[0.0, 0.0, -0.7089554724698194]","[0.07362496852874756, 0.10765104740858078, 0.03999999910593033]","[0.0, -0.0, 0.0814790502780401]",0.6980597512387873,-2.6149266997009946,"(0.0, 0.0, 0.0, 0.0, 0.0, 0.0)",0.45693917814201784,-0.8013934602632394,-2.6297735428394082,"(0.0, 0.0, 0.0, 0.0, 0.0, 0.0)",0.06310201359777694,-0.6980598670605584,2.614929788281559,"(0.0, 0.0, 0.0, 0.0, 0.0, 0.0)",-0.45694013827892466,0.8013920170905735,2.6298120295302843,"(0.0, 0.0, 0.0, 0.0, 0.0, 0.0)",-0.06310250889925509,False,,,,,False,,,,
51,Close,,,"(1.546756367802499e-07, 0.16999905637827734, 0.0008443414385910609)","(1.5708159610857961, 0.00013134778772512943, -1.402100024143693e-05)",,"[-0.026750000193715096, 0.05299999937415123, 0.03999999910593033]","[0.0, -0.0, 0.6980597686270504]","[-0.07302673906087875, 0.10815852880477905, 0.03999999910593033]","[0.0, 0.0, -0.10333370902653251]","[0.026750000193715096, 0.05299999937415123, 0.03999999910593033]","[0.0, 0.0, -0.6980598246378259]","[0.07302674651145935, 0.10815852135419846, 0.03999999910593033]","[0.0, -0.0, 0.10333215264877679]",0.6882537761149086,-2.3534340297308955,"(0.0, 0.0, 0.0, 0.0, 0.0, 0.0)",0.41132662822933225,-0.8112550122446371,-2.3667724755354502,"(0.0, 0.0, 0.0, 0.0, 0.0, 0.0)",0.056847326346645,-0.6882538803545026,2.353436809453404,"(0.0, 0.0, 0.0, 0.0, 0.0, 0.0)",-0.4113274932960819,0.8112537133962935,2.3668071133728046,"(0.0, 0.0, 0.0, 0.0, 0.0, 0.0)",-0.0568477730004364,False,,,,,False,,,,
52,Close,,,"(1.4218689550358636e-07, 0.1699990574974972, 0.0008559357877458743)","(1.5708144388885392, 0.00011900551991941484, -1.4017852050493115e-05)",,"[-0.026750000193715096, 0.05299999937415123, 0.03999999910593033]","[0.0, -0.0, 0.6882538042795985]","[-0.07248363643884659, 0.10860966145992279, 0.03999999910593033]","[0.0, 0.0, -0.12300123728040792]","[0.026750000193715096, 0.05299999937415123, 0.03999999910593033]","[0.0, 0.0, -0.688253900607872]","[0.07248364388942719, 0.1086096540093422, 0.03999999910593033]","[0.0, -0.0, 0.12299984676553348]",0.6794283985034177,-2.118090626757806,"(0.0, 0.0, 0.0, 0.0, 0.0, 0.0)",0.3702598465395096,-0.8201303199370257,-2.1300738461732434,"(0.0, 0.0, 0.0, 0.0, 0.0, 0.0)",0.051207533272865695,-0.6794284923190523,2.1180931285080637,"(0.0, 0.0, 0.0, 0.0, 0.0, 0.0)",-0.37026062586363284,0.8201291509798778,2.130105020060234,"(0.0, 0.0, 0.0, 0.0, 0.0, 0.0)",-0.051207935975855504,False,,,,,False,,,,
53,Close,,,"(1.3069318416839e-07, 0.16999905849308636, 0.0008666025576372722)","(1.5708130385376784, 0.00010764969663878531, -1.401480516953977e-05)",,"[-0.026750000193715096, 0.05299999937415123, 0.03999999910593033]","[0.0, -0.0, 0.6794284238724229]","[-0.07199108600616455, 0.10901110619306564, 0.03999999910593033]","[0.0, 0.0, -0.14070193198542613]","[0.026750000193715096, 0.05299999937415123, 0.03999999910593033]","[0.0, 0.0, -0.6794284800706577]","[0.07199109345674515, 0.10901109874248505, 0.03999999910593033]","[0.0, -0.0, 0.1407006814892172]",0.6714855586530759,-1.9062815640820263,"(0.0, 0.0, 0.0, 0.0, 0.0, 0.0)",0.33328720146674756,-0.82811801654313,-1.9170471854650495,"(0.0, 0.0, 0.0, 0.0, 0.0, 0.0)",0.0461231568532664,-0.6714856430871471,1.9062838156572566,"(0.0, 0.0, 0.0, 0.0, 0.0, 0.0)",-0.33328790347714454,0.8281169644874314,1.917075241812861,"(0.0, 0.0, 0.0, 0.0, 0.0, 0.0)",-0.04612351986457081,False,,,,,False,,,,
54,Close,,,"(1.201142787701026e-07, 0.1699990593750365, 0.0008764159571233717)","(1.5708117502799854, 9.720147739875066e-05, -1.4011842957469135e-05)",,"[-0.026750000193715096, 0.05299999937415123, 0.03999999910593033]","[0.0, -0.0, 0.6714856028191667]","[-0.07154478132724762, 0.10936867445707321, 0.03999999910593033]","[0.0, 0.0, -0.1566324602805662]","[0.026750000193715096, 0.05299999937415123, 0.03999999910593033]","[0.0, 0.0, -0.6714856028191667]","[0.07154478132724762, 0.10936867445707321, 0.03999999910593033]","[0.0, -0.0, 0.15663130155257995]",0.6643370027877683,-1.7156534076738226,"(0.0, 0.0, 0.0, 0.0, 0.0, 0.0)",0.30000166468946887,-0.8353068710937589,-1.7253250921509458,"(0.0, 0.0, 0.0, 0.0, 0.0, 0.0)",0.041540284771796165,-0.6643370787784324,1.7156554340915304,"(0.0, 0.0, 0.0, 0.0, 0.0, 0.0)",-0.3000022969997827,0.8353059242487986,1.725350342728124,"(0.0, 0.0, 0.0, 0.0, 0.0, 0.0)",-0.041540611950472935,False,,,,,False,,,,
55,Close,,,"(1.1037647424359984e-07, 0.16999906015252483, 0.0008854442581506275)","(1.5708105651429114, 8.758832292823178e-05, -1.4008951415989527e-05)",,"[-0.026750000193715096, 0.05299999937415123, 0.03999999910593033]","[0.0, -0.0, 0.6643370606126838]","[-0.07114068418741226, 0.1096874549984932, 0.03999999910593033]","[0.0, 0.0, -0.17096987637179278]","[0.026750000193715096, 0.05299999937415123, 0.03999999910593033]","[0.0, 0.0, -0.6643370606126838]","[0.07114069163799286, 0.1096874475479126, 0.03999999910593033]","[0.0, -0.0, 0.17096884643662202]",0.6579033025089914,-1.5440880669064398,"(0.0, 0.0, 0.0, 0.0, 0.0, 0.0)",0.2700364572532802,-0.8417767749452665,-1.5527769243618206,"(0.0, 0.0, 0.0, 0.0, 0.0, 0.0)",0.03741008611729049,-0.6579033709005891,1.5440898906823783,"(0.0, 0.0, 0.0, 0.0, 0.0, 0.0)",-0.27003702673818186,0.8417759227894597,1.5527996497586782,"(0.0, 0.0, 0.0, 0.0, 0.0, 0.0)",-0.03741038095743008,False,,,,,False,,,,
56,Close,,,"(1.0141204673652616e-07, 0.16999906083398159, 0.0008937502707232629)","(1.570809474872104, 7.87434915574051e-05, -1.4006118772737545e-05)",,"[-0.026750000193715096, 0.05299999937415123, 0.03999999910593033]","[0.0, -0.0, 0.6579033304946226]","[-0.07077505439519882, 0.10997187346220016, 0.03999999910593033]","[0.0, 0.0, -0.18387348897538708]","[0.026750000193715096, 0.05299999937415123, 0.03999999910593033]","[0.0, 0.0, -0.6579033304946226]","[0.07077506184577942, 0.10997187346220016, 0.03999999910593033]","[0.0, -0.0, 0.1838725619548152]",0.6521129722580923,-1.3896792602157946,"(0.0, 0.0, 0.0, 0.0, 0.0, 0.0)",0.24306111081870946,-0.8475996296201711,-1.3974851219770965,"(0.0, 0.0, 0.0, 0.0, 0.0, 0.0)",0.033688362136148925,-0.6521130338105302,1.38968090161414,"(0.0, 0.0, 0.0, 0.0, 0.0, 0.0)",-0.24306162368353448,0.8475988626841415,1.3975055747236533,"(0.0, 0.0, 0.0, 0.0, 0.0, 0.0)",-0.03368862779939208,False,,,,,False,,,,
57,Close,,,"(9.31587620256511e-08, 0.16999906142715163, 0.0009013917798737923)","(1.570808471873919, 7.060557585400826e-05, -1.4003335136779464e-05)",,"[-0.026750000193715096, 0.05299999937415123, 0.03999999910593033]","[0.0, -0.0, 0.6521129301518677]","[-0.07044443488121033, 0.11022583395242691, 0.03999999910593033]","[0.0, 0.0, -0.19548665573955404]","[0.026750000193715096, 0.05299999937415123, 0.03999999910593033]","[0.0, 0.0, -0.6521129866161153]","[0.07044444233179092, 0.11022583395242691, 0.03999999910593033]","[0.0, -0.0, 0.19548582525750646]",0.646901675032283,-1.2507113341942153,"(0.0, 0.0, 0.0, 0.0, 0.0, 0.0)",0.2187779064062842,-0.8528401458571484,-1.2577238968745574,"(0.0, 0.0, 0.0, 0.0, 0.0, 0.0)",0.03033513071724496,-0.6469017304294772,1.2507128114527255,"(0.0, 0.0, 0.0, 0.0, 0.0, 0.0)",-0.2187783682505172,0.8528394556185027,1.2577423042466835,"(0.0, 0.0, 0.0, 0.0, 0.0, 0.0)",-0.03033537006280305,False,,,,,False,,,,
58,Close,,,"(8.555942447331213e-08, 0.16999906193915107, 0.000908421947674647)","(1.5708075491625393, 6.311807629477444e-05, -1.4000592203169427e-05)",,"[-0.026750000193715096, 0.05299999937415123, 0.03999999910593033]","[0.0, -0.0, 0.6469017074975589]","[-0.0701456218957901, 0.11045276373624802, 0.03999999910593033]","[0.0, 0.0, -0.20593848593871938]","[0.026750000193715096, 0.05299999937415123, 0.03999999910593033]","[0.0, 0.0, -0.6469017640113621]","[0.0701456293463707, 0.11045276373624802, 0.03999999910593033]","[0.0, -0.0, 0.2059377054983325]",0.6422115075290548,-1.1256402007747932,"(0.0, 0.0, 0.0, 0.0, 0.0, 0.0)",0.19691865600140895,-0.8575565627499749,-1.1319400542783593,"(0.0, 0.0, 0.0, 0.0, 0.0, 0.0)",0.027314243362735774,-0.6422115573865295,1.1256415303074527,"(0.0, 0.0, 0.0, 0.0, 0.0, 0.0)",-0.19691907187647334,0.8575559415385998,1.1319566208232932,"(0.0, 0.0, 0.0, 0.0, 0.0, 0.0)",-0.027314458975022625,False,,,,,False,,,,
59,Move,,,"(7.856146500561274e-08, 0.16999906237651882, 0.0009148896830877347)","(1.5708067003113224, 5.6229009009845055e-05, -1.399788300299107e-05)","[0.0, 0.0, 0.0]","[-0.026750000193715096, 0.05299999937415123, 0.03999999910593033]","[0.0, -0.0, 0.6422115222668433]","[-0.06987567991018295, 0.11065566539764404, 0.03999999910593033]","[0.0, 0.0, -0.21534502689171695]","[0.026750000193715096, 0.05299999937415123, 0.03999999910593033]","[0.0, 0.0, -0.6422115222668433]","[0.06987568736076355, 0.11065565794706345, 0.03999999910593033]","[0.0, -0.0, 0.2153443918565048]",0.6379903567761492,-1.0130761806973148,"(0.0, 0.0, 0.0, 0.0, 0.0, 0.0)",0.17724179525373857,-0.861801294967015,-1.0187357320896053,"(0.0, 0.0, 0.0, 0.0, 0.0, 0.0)",0.024593033118920006,-0.6379904016478766,1.0130773772767077,"(0.0, 0.0, 0.0, 0.0, 0.0, 0.0)",-0.1772421697155535,0.8618007358798453,1.0187506418989196,"(0.0, 0.0, 0.0, 0.0, 0.0, 0.0)",-0.024593227332916724,False,,,,,False,,,,
60,Move,,,"(7.401516452493873e-08, 0.16999906300717518, 0.0009208949427311885)","(1.5708059692049072, 5.171406878091127e-05, -1.3997173418156156e-05)","[-4.546300480674002e-09, 6.306563604674409e-10, 6.005259643453772e-06]","[-0.026750000193715096, 0.05299999937415123, 0.03999999910593033]","[0.0, -0.0, 0.6379903239810443]","[-0.06963192671537399, 0.1108371913433075, 0.03999999910593033]","[0.0, 0.0, -0.2238109552587812]","[0.026750000193715096, 0.05299999937415123, 0.03999999910593033]","[0.0, 0.0, -0.6379904179642307]","[0.06963192671537399, 0.1108371838927269, 0.03999999910593033]","[0.0, -0.0, 0.22381033482023305]",0.615110639462399,-5.491132155300077,"(0.0, 0.0, 0.0, 0.0, 0.0, 0.0)",-6.452665348763696,-0.8613763884842398,0.10197755586604229,"(0.0, 0.0, 0.0, 0.0, 0.0, 0.0)",-0.36782542138199165,-0.6151107211023208,5.491123330933392,"(0.0, 0.0, 0.0, 0.0, 0.0, 0.0)",6.4526488408560905,0.8613758231880564,-0.10197904602934349,"(0.0, 0.0, 0.0, 0.0, 0.0, 0.0)",0.36782252911949487,False,,,,,False,,,,
61,Move,,,"(6.525734425186348e-05, 0.17034549853437667, 0.001059997142676121)","(1.5643418998519334, 0.00019756355969089426, -0.0007979474479338168)","[6.517878278685787e-05, 0.00034643615785784343, 0.00014510745958838623]","[-0.026750000193715096, 0.05299999937415123, 0.03999999910593033]","[0.0, -0.0, 0.6151107619663475]","[-0.06829752027988434, 0.1118030920624733, 0.03999999910593033]","[0.0, 0.0, -0.24626574387408112]","[0.026750000193715096, 0.05299999937415123, 0.03999999910593033]","[0.0, 0.0, -0.6151107619663475]","[0.06829752773046494, 0.1118030920624733, 0.03999999910593033]","[0.0, -0.0, 0.24626510812228053]",0.59557520589455,-4.68850405628373,"(0.0, 0.0, 0.0, 0.0, 0.0, 0.0)",-45.004877301260535,-0.841587039207075,4.749443826519566,"(0.0, 0.0, 0.0, 0.0, 0.0, 0.0)",-23.059879711313982,-0.5955448471476087,4.6958097491309045,"(0.0, 0.0, 0.0, 0.0, 0.0, 0.0)",43.2331221848827,0.8422035798107438,-4.601338410555013,"(0.0, 0.0, 0.0, 0.0, 0.0, 0.0)",22.069611273367745,True,"(-0.03288698015965098, 0.18306432161630465, 0.039999948285931244)","(0.9999999985648672, -1.399717339714095e-05, -5.171406875791205e-05)",0.0009292587523792685,356.63318049990795,True,"(0.032887031061809374, 0.18306436848012048, 0.04000005171406876)","(-0.9999999985648671, 1.3997173395198976e-05, 5.171406875668148e-05)",0.0009247539911204204,342.7710504396539
62,Move,"(0.0, 0.0, 0.0)","(0.0, -0.0, 0.0)","(0.00016176697229314485, 0.17076934431250207, 0.001298992481510786)","(1.553459115144406, 0.0004787126916021603, -0.0016283617000435679)","[0.00016168841082813925, 0.0007702819359832469, 0.0003841027984230513]","[-0.026750000193715096, 0.05299999937415123, 0.03999999910593033]","[0.0, -0.0, 0.5955751094143519]","[-0.06714092195034027, 0.11260347068309784, 0.03999999910593033]","[0.0, 0.0, -0.24601185159459507]","[0.026750000193715096, 0.05299999937415123, 0.03999999910593033]","[0.0, 0.0, -0.5955448282145998]","[0.06713911145925522, 0.11260469257831573, 0.03999999910593033]","[0.0, -0.0, 0.24665872904210193]",0.5770970782178444,-4.434750642409365,"(0.0, 0.0, 0.0, 0.0, 0.0, 0.0)",-74.21698749878065,-0.811850997818181,7.136649933334551,"(0.0, 0.0, 0.0, 0.0, 0.0, 0.0)",-37.92588619525253,-0.5770027641966642,4.450099908226674,"(0.0, 0.0, 0.0, 0.0, 0.0, 0.0)",71.59541053355323,0.8135423707664626,-6.878690170627483,"(0.0, 0.0, 0.0, 0.0, 0.0, 0.0)",36.485404729774935,True,"(-0.03174847742362094, 0.1838726496858637, 0.03999980243644159)","(0.9999996621242782, -0.0007979473476813144, -0.0001975635584110712)",-0.00012778812911608492,569.3446982775357,True,"(0.031700570614753176, 0.18385320841010633, 0.0400001975635584)","(-0.9999996621242783, 0.0007979473476767542, 0.0001975635584049517)",-0.0003431682129125587,549.2893233704585
63,Move,"(0.0, 0.0, -0.0006329113924050633)","(0.0, -0.0, 0.0)","(0.00020568050408397375, 0.17108007690663649, 0.0015665957858292871)","(1.5453980212159237, 0.00011151380297923225, -0.0017071234802152205)","[0.00020560194261896815, 0.0010810145301176632, 0.0006517061027415524]","[-0.026750000193715096, 0.05299999937415123, 0.03999999910593033]","[0.0, -0.0, 0.5770971029289548]","[-0.06603273004293442, 0.11333960294723511, 0.03999999910593033]","[0.0, 0.0, -0.23475391897699402]","[0.026750000193715096, 0.05299999937415123, 0.03999999910593033]","[0.0, 0.0, -0.5770027543990871]","[0.06602703779935837, 0.11334330588579178, 0.03999999910593033]","[0.0, -0.0, 0.23653961426052006]",0.579404895675538,0.5538761898464655,"(0.0, 0.0, 0.0, 0.0, 0.0, 0.0)",6.4633983195225495,-0.8148246019570704,-0.7136649933334551,"(0.0, 0.0, 0.0, 0.0, 0.0, 0.0)",-0.3132438216507522,-0.5792909153140746,-0.5491562681785016,"(0.0, 0.0, 0.0, 0.0, 0.0, 0.0)",-6.16852739973914,0.8163981315451861,0.6853825868936365,"(0.0, 0.0, 0.0, 0.0, 0.0, 0.0)",0.4843271556067679,True,"(-0.03144479909141533, 0.18499061278782541, 0.039999521287326686)","(0.9999985596366134, -0.0016283607938474471, -0.0004787126733201028)",-0.00031179486038545077,0.0,True,"(0.0313112124765586, 0.1849374824167095, 0.040000478712673315)","(-0.9999985596366132, 0.0016283607938671909, 0.0004787126733090728)",-0.0008521962835819142,2.606367117194445
64,Move,"(0.0, 0.0, -0.0012658227848101268)","(0.0, -0.0, 0.0)","(0.00022170983700722633, 0.17132368029805647, 0.001781096094229735)","(1.5390033338744402, -0.000620236042317419, -0.001457394876142627)","[0.00022163127554222073, 0.001324617921537652, 0.0008662064111420002]","[-0.026750000193715096, 0.05299999937415123, 0.03999999910593033]","[0.0, -0.0, 0.579404963823502]","[-0.06617187708616257, 0.1132487803697586, 0.03999999910593033]","[0.0, 0.0, -0.23541970778940716]","[0.026750000193715096, 0.05299999937415123, 0.03999999910593033]","[0.0, 0.0, -0.5792908612503161]","[0.0661650076508522, 0.11325327306985855, 0.03999999910593033]","[0.0, -0.0, 0.23710723316040327]",0.5796614889210164,0.0615823789148342,"(0.0, 0.0, 0.0, 0.0, 0.0, 0.0)",-0.6367115047417171,-0.8145272415431815,0.0713664993333446,"(0.0, 0.0, 0.0, 0.0, 0.0, 0.0)",0.03205871315859666,-0.5794828683225605,-0.04606872203659573,"(0.0, 0.0, 0.0, 0.0, 0.0, 0.0)",0.857562450285238,0.8161084888430127,-0.06951424852163923,"(0.0, 0.0, 0.0, 0.0, 0.0, 0.0)",0.09106503040765099,True,"(-0.03153624923514486, 0.18487733778001617, 0.039999888486197246)","(0.9999985366474105, -0.001707122640433851, -0.00011151380275540046)",-0.00019027644015300206,0.0,True,"(0.031408552968427136, 0.18482838253269274, 0.04000011151380275)","(-0.9999985366474103, 0.0017071226404405677, 0.0001115138027507468)",-0.000784928296535469,1.5382307630788579
65,Move,"(0.0, 0.0, -0.00189873417721519)","(0.0, -0.0, 0.0)","(0.00021804438096534654, 0.17146828183471538, 0.0019264999526749519)","(1.534797799133941, -0.0005853857432067106, 2.014080300933509e-05)","[0.00021796581950034094, 0.0014692194581965579, 0.0010116102695872172]","[-0.026750000193715096, 0.05299999937415123, 0.03999999910593033]","[0.0, -0.0, 0.5796614845356842]","[-0.06618733704090118, 0.11323866248130798, 0.03999999910593033]","[0.0, 0.0, -0.23486573483197695]","[0.026750000193715096, 0.05299999937415123, 0.03999999910593033]","[0.0, 0.0, -0.5794829153733247]","[0.06617657095193863, 0.11324571073055267, 0.03999999910593033]","[0.0, -0.0, 0.236625611854925]",0.5797559786820428,0.02267754264632446,"(0.0, 0.0, 0.0, 0.0, 0.0, 0.0)",-0.6571751513002644,-0.8142053765360555,0.07724760171023268,"(0.0, 0.0, 0.0, 0.0, 0.0, 0.0)",-0.35507148524447296,-0.5795073643066104,-0.005879036172001237,"(0.0, 0.0, 0.0, 0.0, 0.0, 0.0)",1.0233682941467928,0.815704967341409,-0.09684516038488905,"(0.0, 0.0, 0.0, 0.0, 0.0, 0.0)",0.5749168496037075,True,"(-0.03159139216384957, 0.18488609172621678, 0.04000062023600255)","(0.999998745654112, -0.001457394079905238, 0.0006202360025505803)",-0.00015087643930618446,4.57995855593475,True,"(0.03145459118669898, 0.1848368145288267, 0.039999379763997436)","(-0.9999987456541117, 0.0014573940799015644, -0.0006202360025588979)",-0.0007231466222664698,7.38265833572834
66,Move,"(0.0, 0.0, -0.002531645569620253)","(0.0, -0.0, 0.0)","(0.00020880748696050844, 0.17152941437747898, 0.0020077083010280688)","(1.532629194274271, -0.000557015156392403, 0.0009735374419808306)","[0.00020872892549550284, 0.0015303520009601612, 0.001092818617940334]","[-0.026750000193715096, 0.05299999937415123, 0.03999999910593033]","[0.0, -0.0, 0.5797559243050524]","[-0.06619302928447723, 0.11323493719100952, 0.03999999910593033]","[0.0, 0.0, -0.2344493909992363]","[0.026750000193715096, 0.05299999937415123, 0.03999999910593033]","[0.0, 0.0, -0.5795073730682068]","[0.06617804616689682, 0.11324474215507507, 0.03999999910593033]","[0.0, -0.0, 0.23619763406062955]",0.5798766518778784,0.02896156700056376,"(0.0, 0.0, 0.0, 0.0, 0.0, 0.0)",-0.4724521036341616,-0.8139750112837306,0.055287660557968535,"(0.0, 0.0, 0.0, 0.0, 0.0, 0.0)",-0.2777232658135395,-0.5795633069513543,-0.013426234738515792,"(0.0, 0.0, 0.0, 0.0, 0.0, 0.0)",0.7567393178152327,0.8153952440166717,-0.07433359793693775,"(0.0, 0.0, 0.0, 0.0, 0.0, 0.0)",0.4518616673455093,True,"(-0.03162691710791781, 0.18489782418848216, 0.04000058538570977)","(0.9999998284589449, 2.0140799562981264e-05, 0.0005853857097705046)",-0.00013760166986182175,3.6487497877072674,True,"(0.03148671057973937, 0.18484879822386296, 0.03999941461429023)","(-0.9999998284589449, -2.014079955524292e-05, -0.0005853857097750178)",-0.000668781519395853,5.8388335375201095
67,Move,"(0.0, 0.0, -0.0031645569620253164)","(0.0, -0.0, 0.0)","(0.00019067574855781392, 0.1715396488893989, 0.0020280621585713485)","(1.5323834455300276, -0.0005404970789493628, 0.0010289685435198492)","[0.00019059718709280832, 0.0015405865128800822, 0.0011131724754836138]","[-0.026750000193715096, 0.05299999937415123, 0.03999999910593033]","[0.0, -0.0, 0.579876580417577]","[-0.06620029360055923, 0.11323017627000809, 0.03999999910593033]","[0.0, 0.0, -0.23409834683242126]","[0.026750000193715096, 0.05299999937415123, 0.03999999910593033]","[0.0, 0.0, -0.579563345097245]","[0.06618142127990723, 0.11324253678321838, 0.03999999910593033]","[0.0, -0.0, 0.2358319524632873]",0.5799560358964944,0.01905216446783365,"(0.0, 0.0, 0.0, 0.0, 0.0, 0.0)",-0.4549599579419078,-0.8137291515652321,0.05900633243966066,"(0.0, 0.0, 0.0, 0.0, 0.0, 0.0)",-0.24425230148582802,-0.5795728256386558,-0.0022844849523510173,"(0.0, 0.0, 0.0, 0.0, 0.0, 0.0)",1.0098816103952806,0.8150534431898306,-0.08203219844186305,"(0.0, 0.0, 0.0, 0.0, 0.0, 0.0)",0.551137903277586,True,"(-0.03165934450968651, 0.1849057960094216, 0.040000557015127586)","(0.9999993709795973, 0.000973537137165273, 0.0005570151275837254)",-0.00012605223360517593,3.3454445092345444,True,"(0.03151626665167215, 0.18485795401264737, 0.039999442984872416)","(-0.9999993709795971, -0.0009735371371783194, -0.0005570151275923189)",-0.0006184219178383943,7.552918299777414
68,Move,"(0.0, 0.0, -0.00379746835443038)","(0.0, -0.0, 0.0)","(0.0001699986165345136, 0.1715606774792873, 0.0020191279805520396)","(1.5330333606426174, -0.0005189914034098696, 0.0012528673479421033)","[0.000169920055069508, 0.0015616151027684766, 0.001104238297464305]","[-0.026750000193715096, 0.05299999937415123, 0.03999999910593033]","[0.0, -0.0, 0.5799560511467442]","[-0.06620507687330246, 0.11322704702615738, 0.03999999910593033]","[0.0, 0.0, -0.23377313232466077]","[0.026750000193715096, 0.05299999937415123, 0.03999999910593033]","[0.0, 0.0, -0.5795729018998671]","[0.06618199497461319, 0.11324216425418854, 0.03999999910593033]","[0.0, -0.0, 0.2354806270526324]",0.57998158288809,0.006131277982955954,"(0.0, 0.0, 0.0, 0.0, 0.0, 0.0)",-0.7230354121143315,-0.8133769800350381,0.08452116724653742,"(0.0, 0.0, 0.0, 0.0, 0.0, 0.0)",-0.33343093858307704,-0.579517702007259,0.013229671535211329,"(0.0, 0.0, 0.0, 0.0, 0.0, 0.0)",1.1184669844055481,0.814738341754361,-0.07562434451271964,"(0.0, 0.0, 0.0, 0.0, 0.0, 0.0)",0.5220878134819277,True,"(-0.031687439248392194, 0.18491362472073558, 0.04000054049705264)","(0.9999993245434495, 0.0010289682116443241, 0.0005404970526390298)",-0.00011619113272924642,5.310200576793349,True,"(0.031542002439130454, 0.18486934604904354, 0.03999945950294738)","(-0.9999993245434496, -0.0010289682116460972, -0.0005404970526237445)",-0.000574454411670002,8.228057473634127
69,Move,"(0.0, 0.0, -0.004430379746835442)","(0.0, -0.0, 0.0)","(0.00014797112623208454, 0.17158985038764643, 0.0019868712678270508)","(1.5344688375243896, -0.00047474625635812387, 0.0014353520639785904)","[0.00014789256476707894, 0.0015907880111276085, 0.001071981584739316]","[-0.026750000193715096, 0.05299999937415123, 0.03999999910593033]","[0.0, -0.0, 0.5799815820839145]","[-0.06620661169290543, 0.1132260411977768, 0.03999999910593033]","[0.0, 0.0, -0.23339542539760327]","[0.026750000193715096, 0.05299999937415123, 0.03999999910593033]","[0.0, 0.0, -0.5795176383652179]","[0.06617867201566696, 0.11324433237314224, 0.03999999910593033]","[0.0, -0.0, 0.23522065293940045]",0.5799306810902617,-0.012216431478786875,"(0.0, 0.0, 0.0, 0.0, 0.0, 0.0)",-1.045182881918861,-0.8129068097840636,0.11284086023388115,"(0.0, 0.0, 0.0, 0.0, 0.0, 0.0)",-0.5015607726108361,-0.579388889565958,0.030914985912240938,"(0.0, 0.0, 0.0, 0.0, 0.0, 0.0)",1.2496998796134824,0.8143145559065696,-0.10170860346993366,"(0.0, 0.0, 0.0, 0.0, 0.0, 0.0)",0.6198158929260645,True,"(-0.03171605744984735, 0.18492549575953407, 0.04000051899138013)","(0.9999990804858772, 0.0012528668514395517, 0.0005189913801232903)",-0.00011042879441594323,7.691230320396194,True,"(0.031557304739138314, 0.1848800389238999, 0.03999948100861988)","(-0.9999990804858773, -0.0012528668514370932, -0.0005189913801158893)",-0.0005363230649767157,9.253655419194553
70,Move,"(0.0, 0.0, -0.005063291139240506)","(0.0, -0.0, 0.0)","(0.00012701005179907926, 0.17163025365736062, 0.0019340019350986483)","(1.5365592003788646, -0.00042952092693491334, 0.001517315818596311)","[0.00012693149033407366, 0.0016311912808417983, 0.0010191122520109136]","[-0.026750000193715096, 0.05299999937415123, 0.03999999910593033]","[0.0, -0.0, 0.5799306685289424]","[-0.06620354950428009, 0.11322804540395737, 0.03999999910593033]","[0.0, 0.0, -0.232976093787968]","[0.026750000193715096, 0.05299999937415123, 0.03999999910593033]","[0.0, 0.0, -0.5793888864505076]","[0.06617090851068497, 0.11324941366910934, 0.03999999910593033]","[0.0, -0.0, 0.2349256642151651]",0.5798007820761933,-0.031175763376405166,"(0.0, 0.0, 0.0, 0.0, 0.0, 0.0)",-1.3523381232866756,-0.8123196600671472,0.14091593205995046,"(0.0, 0.0, 0.0, 0.0, 0.0, 0.0)",-0.6668049804847502,-0.5791900124302586,0.04773051256785735,"(0.0, 0.0, 0.0, 0.0, 0.0, 0.0)",1.4371972057889775,0.8137919724264051,-0.1254200352394797,"(0.0, 0.0, 0.0, 0.0, 0.0, 0.0)",0.7210593177303561,True,"(-0.03174305574682603, 0.18494172181082474, 0.04000047474623852)","(0.9999988571905172, 0.001435351409365095, 0.0004747462385191576)",-0.00010622020381966873,10.010135532261996,True,"(0.03157067687538301, 0.18489484913597043, 0.03999952525376147)","(-0.9999988571905172, -0.0014353514093817818, -0.000474746238530408)",-0.0005001856365947799,10.680035778677082
71,Move,"(0.0, 0.0, -0.00569620253164557)","(0.0, -0.0, 0.0)","(0.00010819718340887063, 0.1716882855828388, 0.0018636527367787948)","(1.5391972977299906, -0.0003899421868479042, 0.0014588571195522852)","[0.00010811862194386502, 0.0016892232063199786, 0.0009487630536910601]","[-0.026750000193715096, 0.05299999937415123, 0.03999999910593033]","[0.0, -0.0, 0.5798008664635635]","[-0.06619572639465332, 0.11323317140340805, 0.03999999910593033]","[0.0, 0.0, -0.23251887716641856]","[0.026750000193715096, 0.05299999937415123, 0.03999999910593033]","[0.0, 0.0, -0.5791900612796536]","[0.06615892797708511, 0.11325725167989731, 0.03999999910593033]","[0.0, -0.0, 0.23460195751972102]",0.5795894865053143,-0.050710937010976016,"(0.0, 0.0, 0.0, 0.0, 0.0, 0.0)",-1.6475347669798293,-0.8116293351166234,0.1656779881257106,"(0.0, 0.0, 0.0, 0.0, 0.0, 0.0)",-0.8285703699277113,-0.5789195736728522,0.06490530177752817,"(0.0, 0.0, 0.0, 0.0, 0.0, 0.0)",1.6621673415736011,0.8131442018398323,-0.1554649407774878,"(0.0, 0.0, 0.0, 0.0, 0.0, 0.0)",0.8404051862145234,True,"(-0.03176802591999509, 0.18496222058055728, 0.040000429520913726)","(0.9999987566325685, 0.0015173150964310047, 0.000429520913722716)",-0.00010158199567221452,12.23785587242858,True,"(0.031581888272838046, 0.18491347875435776, 0.03999957047908626)","(-0.9999987566325684, -0.0015173150964177358, -0.0004295209137353077)",-0.00046865528196146763,12.382516733771666
72,Move,"(0.0, 0.0, -0.006329113924050633)","(0.0, -0.0, 0.0)","(9.134675642561613e-05, 0.17177014898994228, 0.0017782269543370759)","(1.542305342734147, -0.0003562739522307555, 0.0013023891076054798)","[9.126819496061052e-05, 0.001771086613423456, 0.0008633372712493412]","[-0.026750000193715096, 0.05299999937415123, 0.03999999910593033]","[0.0, -0.0, 0.5795895383932297]","[-0.06618299335241318, 0.11324150115251541, 0.03999999910593033]","[0.0, 0.0, -0.2320398658722993]","[0.026750000193715096, 0.05299999937415123, 0.03999999910593033]","[0.0, 0.0, -0.5789195184399191]","[0.06614263355731964, 0.11326790601015091, 0.03999999910593033]","[0.0, -0.0, 0.23422466756607127]",0.5792964819156979,-0.07032110150793197,"(0.0, 0.0, 0.0, 0.0, 0.0, 0.0)",-1.9285176910511457,-0.8108319670806953,0.19136832862274689,"(0.0, 0.0, 0.0, 0.0, 0.0, 0.0)",-0.9860381829672146,-0.5785759135002209,0.0824784414315193,"(0.0, 0.0, 0.0, 0.0, 0.0, 0.0)",1.920634493508616,0.8123696370150836,-0.18589555793967785,"(0.0, 0.0, 0.0, 0.0, 0.0, 0.0)",0.9809385441597064,True,"(-0.03178966136386322, 0.18498650010439788, 0.04000038994217696)","(0.9999988598407685, 0.0014588564911765425, 0.0003899421769629005)",-9.644831905053063e-05,14.368925843229151,True,"(0.03159263197013877, 0.1849368572960186, 0.039999610057823036)","(-0.9999988598407684, -0.0014588564911687024, -0.0003899421769618431)",-0.000441401716258951,14.335482745990292
73,Move,"(0.0, 0.0, -0.006962025316455696)","(0.0, -0.0, 0.0)","(7.605989695788065e-05, 0.17188024194902074, 0.001679476928109432)","(1.5458357000718994, -0.0003200947761279723, 0.0011072386086448535)","[7.598133549287503e-05, 0.0018811795725019176, 0.0007645872450216973]","[-0.026750000193715096, 0.05299999937415123, 0.03999999910593033]","[0.0, -0.0, 0.5792965019559712]","[-0.06616534292697906, 0.11325305700302124, 0.03999999910593033]","[0.0, 0.0, -0.2315354653512564]","[0.026750000193715096, 0.05299999937415123, 0.03999999910593033]","[0.0, 0.0, -0.5785760133766509]","[0.06612192094326019, 0.11328144371509552, 0.03999999910593033]","[0.0, -0.0, 0.23379374485938798]",0.5789223691003194,-0.08978707569086625,"(0.0, 0.0, 0.0, 0.0, 0.0, 0.0)",-2.20364050242987,-0.809919284778361,0.21904375256024877,"(0.0, 0.0, 0.0, 0.0, 0.0, 0.0)",-1.1421584152279083,-0.578158693171015,0.1001328790094086,"(0.0, 0.0, 0.0, 0.0, 0.0, 0.0)",2.192039709307729,0.8114734505189997,-0.2150847590601299,"(0.0, 0.0, 0.0, 0.0, 0.0, 0.0)",1.1325842574565024,True,"(-0.03180819746946292, 0.18501472835199895, 0.040000356273944694)","(0.9999990884259161, 0.0013023886567658652, 0.00035627394470278767)",-9.135118040203124e-05,16.459326915344473,True,"(0.03160280396314326, 0.18496499808025846, 0.039999643726055314)","(-0.9999990884259161, -0.0013023886567622087, -0.00035627394468564947)",-0.00041776859038294723,16.391410539925783
74,Move,"(0.0, 0.0, -0.00759493670886076)","(0.0, -0.0, 0.0)","(6.245710395254963e-05, 0.17202110846139404, 0.0015680192051784815)","(1.549763041085802, -0.0002870448443789389, 0.0008918487667672762)","[6.237854248754401e-05, 0.0020220460848752175, 0.0006531295220907468]","[-0.026750000193715096, 0.05299999937415123, 0.03999999910593033]","[0.0, -0.0, 0.5789222591963737]","[-0.06614279747009277, 0.11326779425144196, 0.03999999910593033]","[0.0, 0.0, -0.23099690554671112]","[0.026750000193715096, 0.05299999937415123, 0.03999999910593033]","[0.0, 0.0, -0.578158712320857]","[0.06609676033258438, 0.11329786479473114, 0.03999999910593033]","[0.0, -0.0, 0.23331478082634688]",0.5784684885670976,-0.10893132797320411,"(0.0, 0.0, 0.0, 0.0, 0.0, 0.0)",-2.4776607026282966,-0.8088891297163204,0.24723721488972128,"(0.0, 0.0, 0.0, 0.0, 0.0, 0.0)",-1.3001188085657647,-0.5776688572923758,0.11756061087338461,"(0.0, 0.0, 0.0, 0.0, 0.0, 0.0)",2.4626543323573813,0.8104584988947826,-0.2435883898120975,"(0.0, 0.0, 0.0, 0.0, 0.0, 0.0)",1.2865688471966799,True,"(-0.031824305806242244, 0.1850472295038145, 0.04000032009477066)","(0.9999993357810933, 0.0011072383256748863, 0.0003200947706623276)",-8.649996916608361e-05,18.542952246628207,True,"(0.03161198811297964, 0.18499766104632792, 0.039999679905229346)","(-0.9999993357810935, -0.0011072383256671482, -0.00032009477065296255)",-0.00039730171377658376,18.4464730010006
75,Move,"(0.0, 0.0, -0.008227848101265822)","(0.0, -0.0, 0.0)","(5.022658516503093e-05, 0.17219307491383562, 0.001458549285986511)","(1.554158874966906, -0.00021319056860678916, 0.0007232564838637776)","[5.0148023700025315e-05, 0.0021940125373167974, 0.0005436596028987762]","[-0.026750000193715096, 0.05299999937415123, 0.03999999910593033]","[0.0, -0.0, 0.5784685225983274]","[-0.06611543893814087, 0.11328566819429398, 0.03999999910593033]","[0.0, 0.0, -0.23042065406087858]","[0.026750000193715096, 0.05299999937415123, 0.03999999910593033]","[0.0, 0.0, -0.5776689169919863]","[0.06606722623109818, 0.11331713199615479, 0.03999999910593033]","[0.0, -0.0, 0.23278965039501837]",0.5779428758971005,-0.12614704079931105,"(0.0, 0.0, 0.0, 0.0, 0.0, 0.0)",-2.7475236772012317,-0.8078254834878992,0.25527509482110405,"(0.0, 0.0, 0.0, 0.0, 0.0, 0.0)",-1.4503902645576674,-0.5771150468851405,0.1329144977364872,"(0.0, 0.0, 0.0, 0.0, 0.0, 0.0)",2.7333845115264888,0.8093943286042965,-0.2554008697166567,"(0.0, 0.0, 0.0, 0.0, 0.0, 0.0)",1.4379111651668908,True,"(-0.0318383166954337, 0.18508407621098438, 0.04000028704484043)","(0.9999995611055602, 0.0008918486118079136, 0.00028704484043321464)",-8.192136430987451e-05,20.586568412901872,True,"(0.031620103001555086, 0.18503471615437134, 0.03999971295515956)","(-0.9999995611055601, -0.0008918486117969888, -0.00028704484043324754)",-0.00037972935429792025,20.50315981424477
76,Move,"(0.0, 0.0, -0.008860759493670885)","(0.0, -0.0, 0.0)","(3.866647471009693e-05, 0.17240170992603904, 0.0013678322583076808)","(1.5590120768546298, -0.00011453135902829743, 0.0005924256542838248)","[3.8587913245091314e-05, 0.002402647549520215, 0.0004529425752199461]","[-0.026750000193715096, 0.05299999937415123, 0.03999999910593033]","[0.0, -0.0, 0.5779429309688029]","[-0.06608375161886215, 0.11330635100603104, 0.03999999910593033]","[0.0, 0.0, -0.22988260908303912]","[0.026750000193715096, 0.05299999937415123, 0.03999999910593033]","[0.0, 0.0, -0.5771150984010855]","[0.06603381037712097, 0.1133388951420784, 0.03999999910593033]","[0.0, -0.0, 0.2322792910993638]",0.5773437007914766,-0.14380202534974312,"(0.0, 0.0, 0.0, 0.0, 0.0, 0.0)",-3.011664055940484,-0.8066637513249053,0.27881571911853886,"(0.0, 0.0, 0.0, 0.0, 0.0, 0.0)",-1.5864328610236373,-0.5764934831121364,0.1491753055209646,"(0.0, 0.0, 0.0, 0.0, 0.0, 0.0)",3.003960843453689,0.8082417232205764,-0.2766252920928284,"(0.0, 0.0, 0.0, 0.0, 0.0, 0.0)",1.5782560928747988,True,"(-0.03184525847928959, 0.18512248408234064, 0.040000213190566986)","(0.9999997157249373, 0.000723256404369604, 0.00021319056698759173)",-8.209118858366118e-05,22.58071249677991,True,"(0.03162329915474221, 0.18507371051006333, 0.039999786809433016)","(-0.9999997157249374, -0.0007232564043866117, -0.00021319056698535077)",-0.00036940296417322836,22.538329354589997
77,Move,"(0.0, 0.0, -0.00949367088607595)","(0.0, -0.0, 0.0)","(2.8928709688051427e-05, 0.1726521830312247, 0.0013006370509540518)","(1.5642472284308737, -0.00011254141399741701, 0.000533769510333148)","[2.8850148223045813e-05, 0.0026531206547058817, 0.00038574736786631714]","[-0.026750000193715096, 0.05299999937415123, 0.03999999910593033]","[0.0, -0.0, 0.5773437486802078]","[-0.06604760885238647, 0.11332990974187851, 0.03999999910593033]","[0.0, 0.0, -0.22932009026521566]","[0.026750000193715096, 0.05299999937415123, 0.03999999910593033]","[0.0, 0.0, -0.5764935012251993]","[0.06599629670381546, 0.11336329579353333, 0.03999999910593033]","[0.0, -0.0, 0.23174823044534662]",0.5766707578582675,-0.16150630397016985,"(0.0, 0.0, 0.0, 0.0, 0.0, 0.0)",-3.288932807652733,-0.8053024197101304,0.3267195875459803,"(0.0, 0.0, 0.0, 0.0, 0.0, 0.0)",-1.7318089093498057,-0.5757989959010609,0.166676930658124,"(0.0, 0.0, 0.0, 0.0, 0.0, 0.0)",3.2770536748262424,0.8069971404174019,-0.2986998727618971,"(0.0, 0.0, 0.0, 0.0, 0.0, 0.0)",1.7185832880478873,True,"(-0.031849522775340575, 0.18516459741103133, 0.04000011453135877)","(0.9999998179572123, 0.0005924256157511529, 0.0001145313587773602)",-8.380141300337605e-05,24.686182291262448,True,"(0.03162388626194429, 0.18511597933528484, 0.03999988546864122)","(-0.9999998179572123, -0.0005924256157399348, -0.00011453135877664472)",-0.00036282831097798977,24.57860295314298
78,Move,"(0.0, 0.0, -0.010126582278481011)","(0.0, -0.0, 0.0)","(2.4956995702128837e-05, 0.17292703016251648, 0.0012284368251714172)","(1.569982442977924, -0.00011705777205267108, 0.0005280005361826177)","[2.4878434237123223e-05, 0.0029279677859976594, 0.00031354714208368245]","[-0.026750000193715096, 0.05299999937415123, 0.03999999910593033]","[0.0, -0.0, 0.576670723933002]","[-0.06600700318813324, 0.1133563444018364, 0.03999999910593033]","[0.0, 0.0, -0.2286316621650772]","[0.026750000193715096, 0.05299999937415123, 0.03999999910593033]","[0.0, 0.0, -0.5757989525674633]","[0.06595437228679657, 0.11339054256677628, 0.03999999910593033]","[0.0, -0.0, 0.23119816648856048]",0.5759257274351757,-0.1788073015420348,"(0.0, 0.0, 0.0, 0.0, 0.0, 0.0)",-3.5726947343564803,-0.8038597674369651,0.34623654555966465,"(0.0, 0.0, 0.0, 0.0, 0.0, 0.0)",-1.9074357968497677,-0.5750391837660512,0.18235491240232124,"(0.0, 0.0, 0.0, 0.0, 0.0, 0.0)",3.5236625846309697,0.8055784214394246,-0.34049255471454737,"(0.0, 0.0, 0.0, 0.0, 0.0, 0.0)",1.8700619595699637,True,"(-0.03185837290090478, 0.18521380630431858, 0.04000011254141376)","(0.9999998512122743, 0.0005337694816180723, 0.00011254141375879278)",-8.376262745312594e-05,26.82431834148871,True,"(0.031621431434266906, 0.18516162664637875, 0.039999887458586236)","(-0.9999998512122744, -0.0005337694816099631, -0.0001125414137655143)",-0.00035646873719259205,26.490449517748043
79,Move,"(0.0, 0.0, -0.010759493670886076)","(0.0, -0.0, 0.0)","(2.1113974417626427e-05, 0.17321556945185348, 0.0011543755765876533)","(1.57596527132621, -0.000118775032925864, 0.0005164884132290773)","[2.1035412952620813e-05, 0.0032165070753346625, 0.00023948589349991859]","[-0.026750000193715096, 0.05299999937415123, 0.03999999910593033]","[0.0, -0.0, 0.5759257403852924]","[-0.06596202403306961, 0.11338557302951813, 0.03999999910593033]","[0.0, 0.0, -0.22793404565557562]","[0.026750000193715096, 0.05299999937415123, 0.03999999910593033]","[0.0, 0.0, -0.5750392161671898]","[0.06590846925973892, 0.11342031508684158, 0.03999999910593033]","[0.0, -0.0, 0.23053922797576706]",0.5751142463311303,-0.19475546497088791,"(0.0, 0.0, 0.0, 0.0, 0.0, 0.0)",-3.8084640868858837,-0.8022990694212973,0.3745675237602778,"(0.0, 0.0, 0.0, 0.0, 0.0, 0.0)",-2.026779033280907,-0.5742169859213988,0.19732748271658662,"(0.0, 0.0, 0.0, 0.0, 0.0, 0.0)",3.8039983207219583,0.8040693975718146,-0.3621657282263848,"(0.0, 0.0, 0.0, 0.0, 0.0, 0.0)",2.038702545446463,True,"(-0.03186353172467927, 0.18526613916094314, 0.04000011705777179)","(0.9999998537564602, 0.000528000508027632, 0.00011705777178378529)",-8.25687142010938e-05,28.608983694570366,True,"(0.03162283269735624, 0.18521335065500982, 0.03999988294222822)","(-0.9999998537564602, -0.0005280005080315716, -0.00011705777178284476)",-0.0003511024255586357,28.6067814686362
80,Move,"(0.0, 0.0, -0.01139240506329114)","(0.0, -0.0, 0.0)","(-1.602570487330829e-05, 0.1733075866206029, 0.0011714644857381679)","(1.5779220507159235, 0.0012088285307627611, 0.001986237125676449)","[-1.6104266338313905e-05, 0.0033085242440840656, 0.0002565748026504332]","[-0.026750000193715096, 0.05299999937415123, 0.03999999910593033]","[0.0, -0.0, 0.5751142672369202]","[-0.06591300666332245, 0.1134173721075058, 0.03999999910593033]","[0.0, 0.0, -0.22718482385586028]","[0.026750000193715096, 0.05299999937415123, 0.03999999910593033]","[0.0, 0.0, -0.5742170200949898]","[0.06585878133773804, 0.1134524866938591, 0.03999999910593033]","[0.0, -0.0, 0.22985241448839497]",0.5742414948579965,-0.20946035355212514,"(0.0, 0.0, 0.0, 0.0, 0.0, 0.0)",-4.001105709609971,-0.800673260641952,0.390194107042871,"(0.0, 0.0, 0.0, 0.0, 0.0, 0.0)",-2.089672657521871,-0.5733263363835648,0.21375588908015872,"(0.0, 0.0, 0.0, 0.0, 0.0, 0.0)",4.088719977615247,0.8023984541935391,-0.4010264107861258,"(0.0, 0.0, 0.0, 0.0, 0.0, 0.0)",2.3591454881257548,True,"(-0.03186838008843966, 0.1853227053510989, 0.04000011877503265)","(0.9999998595661092, 0.0005164883866212057, 0.0001187750326470326)",-8.137670379302603e-05,30.00976302193523,True,"(0.03162245954883776, 0.18526838226110148, 0.03999988122496736)","(-0.9999998595661092, -0.0005164883866177449, -0.00011877503263978606)",-0.0003478190382168946,30.915682593490242
81,Move,"(0.0, 0.0, -0.012025316455696204)","(0.0, -0.0, 0.0)","(-1.9573816490236418e-05, 0.17336484233542754, 0.0011731954404858766)","(1.5777497480479923, 0.0012135743900998075, 0.0019352105184854685)","[-1.9652377955242032e-05, 0.0033657799589087156, 0.00025830575739814194]","[-0.026750000193715096, 0.05299999937415123, 0.03999999910593033]","[0.0, -0.0, 0.5742414775786151]","[-0.06586026400327682, 0.1134515255689621, 0.03999999910593033]","[0.0, 0.0, -0.22643175279387764]","[0.026750000193715096, 0.05299999937415123, 0.03999999910593033]","[0.0, 0.0, -0.5733264608251543]","[0.06580492109060287, 0.11348729580640793, 0.03999999910593033]","[0.0, -0.0, 0.22907214427505387]",0.5733011460513995,-0.2256837135832861,"(0.0, 0.0, 0.0, 0.0, 0.0, 0.0)",-4.416211346501105,-0.7988984058165638,0.4259651580931667,"(0.0, 0.0, 0.0, 0.0, 0.0, 0.0)",-2.3885910957741467,-0.5723785665708818,0.22746475504392377,"(0.0, 0.0, 0.0, 0.0, 0.0, 0.0)",4.210475803858408,0.8006991892290789,-0.40782359147043706,"(0.0, 0.0, 0.0, 0.0, 0.0, 0.0)",2.209982184414134,True,"(-0.03186979620474695, 0.18538319576307843, 0.039998791171763644)","(0.9999972968000107, 0.001986234368467535, -0.0012088282363552332)",-8.336421707781203e-05,33.20967911471509,True,"(0.03162465264356824, 0.18532763298373695, 0.04000120882823635)","(-0.9999972968000106, -0.0019862343684678074, 0.0012088282363534987)",-0.00034247023359536787,31.60309178704403
82,Move,"(0.0, 0.0, -0.012658227848101266)","(0.0, -0.0, 0.0)","(-2.0102536348432523e-05, 0.17342694780902332, 0.0011747306487383548)","(1.5775959640568569, 0.0012160864630884971, 0.001942243658011886)","[-2.0181097813438137e-05, 0.003427885432504496, 0.00025984096565062013]","[-0.026750000193715096, 0.05299999937415123, 0.03999999910593033]","[0.0, -0.0, 0.5733012029796378]","[-0.0658034011721611, 0.11348827928304672, 0.03999999910593033]","[0.0, 0.0, -0.22559724540624335]","[0.026750000193715096, 0.05299999937415123, 0.03999999910593033]","[0.0, 0.0, -0.5723785912242466]","[0.06574758142232895, 0.11352428048849106, 0.03999999910593033]","[0.0, -0.0, 0.2283206054848212]",0.5723012038750119,-0.2399861223330004,"(0.0, 0.0, 0.0, 0.0, 0.0, 0.0)",-4.5955068560647545,-0.7970517717764414,0.4431921696293847,"(0.0, 0.0, 0.0, 0.0, 0.0, 0.0)",-2.4841863611973225,-0.5713540535739522,0.2458831192631129,"(0.0, 0.0, 0.0, 0.0, 0.0, 0.0)",4.579465486658094,0.7988439080184937,-0.44526749054043946,"(0.0, 0.0, 0.0, 0.0, 0.0, 0.0)",2.4315961482525386,True,"(-0.03187297053647517, 0.18544740098993562, 0.03999878642590779)","(0.999997391100778, 0.001935207885529394, -0.0012135740922122626)",-8.295010254845845e-05,34.54434324884024,True,"(0.03162130550671632, 0.18538958644273756, 0.04000121357409221)","(-0.999997391100778, -0.0019352078855227573, 0.0012135740922162984)",-0.0003430527106807813,34.37939480719427
83,Move,"(0.0, 0.0, -0.013291139240506327)","(0.0, -0.0, 0.0)","(-1.986167699347776e-05, 0.1734931014345925, 0.0011761200321976095)","(1.577453289435139, 0.0012184504676624709, 0.0019495597439028605)","[-1.9940238458483373e-05, 0.003494039058073689, 0.0002612303491098748]","[-0.026750000193715096, 0.05299999937415123, 0.03999999910593033]","[0.0, -0.0, 0.5723012432935147]","[-0.06574289500713348, 0.11352729797363281, 0.03999999910593033]","[0.0, 0.0, -0.224750594389023]","[0.026750000193715096, 0.05299999937415123, 0.03999999910593033]","[0.0, 0.0, -0.5713540229443699]","[0.06568554788827896, 0.11356420814990997, 0.03999999910593033]","[0.0, -0.0, 0.2274898625881548]",0.5712384344603617,-0.255064659516044,"(0.0, 0.0, 0.0, 0.0, 0.0, 0.0)",-4.841268243883218,-0.795104339412538,0.46738376733680664,"(0.0, 0.0, 0.0, 0.0, 0.0, 0.0)",-2.6153022769858536,-0.5702703681087544,0.2600845116474564,"(0.0, 0.0, 0.0, 0.0, 0.0, 0.0)",4.8353295608163815,0.7968878362604046,-0.4694572219413953,"(0.0, 0.0, 0.0, 0.0, 0.0, 0.0)",2.5758614763608025,True,"(-0.031873403618359435, 0.18551428505175682, 0.03999878391383664)","(0.9999973744137223, 0.0019422410007268818, -0.0012160861633532091)",-8.304486836162303e-05,36.37730853045097,True,"(0.031618993594999006, 0.18545699661824677, 0.04000121608616336)","(-0.9999973744137223, -0.001942241000732379, 0.001216086163365306)",-0.0003448372262839112,36.33139192543192
84,Move,"(0.0, 0.0, -0.013924050632911392)","(0.0, -0.0, 0.0)","(-1.9070909941708434e-05, 0.17356322699018628, 0.0011773784811978604)","(1.5773200496525597, 0.00122090034695479, 0.0019575591266390606)","[-1.9149471406714048e-05, 0.0035641646136674587, 0.0002624887981101257]","[-0.026750000193715096, 0.05299999937415123, 0.03999999910593033]","[0.0, -0.0, 0.5712384231719996]","[-0.06567854434251785, 0.11356870830059052, 0.03999999910593033]","[0.0, 0.0, -0.22386590534747097]","[0.026750000193715096, 0.05299999937415123, 0.03999999910593033]","[0.0, 0.0, -0.5702703711834336]","[0.06561989337205887, 0.11360636353492737, 0.03999999910593033]","[0.0, -0.0, 0.22661746283610212]",0.5701149322556779,-0.26964052912412695,"(0.0, 0.0, 0.0, 0.0, 0.0, 0.0)",-5.09091136567823,-0.7930563342671783,0.4915212348863276,"(0.0, 0.0, 0.0, 0.0, 0.0, 0.0)",-2.7511349610598437,-0.5691261592639344,0.274610122756795,"(0.0, 0.0, 0.0, 0.0, 0.0, 0.0)",5.0868970484129985,0.7948302800284929,-0.49381349565880805,"(0.0, 0.0, 0.0, 0.0, 0.0, 0.0)",2.71167880483438,True,"(-0.031872750417937135, 0.1855847488875132, 0.03999878154983383)","(0.9999973572997359, 0.0019495570617452877, -0.0012184501661752923)",-8.346450377721389e-05,38.24655971708016,True,"(0.03161607076915609, 0.18552796707288924, 0.04000121845016617)","(-0.9999973572997359, -0.0019495570617568826, 0.001218450166173326)",-0.00034799413724495316,38.206488516404086
85,Move,"(0.0, 0.0, -0.014556962025316457)","(0.0, -0.0, 0.0)","(-1.787057558246605e-05, 0.1736372475262662, 0.001178516318436962)","(1.5771952890896275, 0.0012234854518100016, 0.001965300417294943)","[-1.7949137047471665e-05, 0.0036381851497473694, 0.0002636266353492273]","[-0.026750000193715096, 0.05299999937415123, 0.03999999910593033]","[0.0, -0.0, 0.5701149554553423]","[-0.06561047583818436, 0.11361240595579147, 0.03999999910593033]","[0.0, 0.0, -0.2229414204445509]","[0.026750000193715096, 0.05299999937415123, 0.03999999910593033]","[0.0, 0.0, -0.5691261424103997]","[0.06555052101612091, 0.11365079879760742, 0.03999999910593033]","[0.0, -0.0, 0.2257041411109846]",0.5689316945907944,-0.2839770395720476,"(0.0, 0.0, 0.0, 0.0, 0.0, 0.0)",-5.340317943056768,-0.7909074034957668,0.5157433851387501,"(0.0, 0.0, 0.0, 0.0, 0.0, 0.0)",-2.886519555779259,-0.5679219877307078,0.2890011679743894,"(0.0, 0.0, 0.0, 0.0, 0.0, 0.0)",5.3369669491420435,0.7926725370008103,-0.5178583266438109,"(0.0, 0.0, 0.0, 0.0, 0.0, 0.0)",2.8470651644148357,True,"(-0.031871268058002306, 0.18565875323898254, 0.03999877909995636)","(0.9999973386844366, 0.0019575564174349512, -0.0012209000436408692)",-8.416743478903195e-05,40.10810430669245,True,"(0.03161240396789468, 0.1856025086234671, 0.04000122090004365)","(-0.9999973386844366, -0.001957556417423625, 0.0012209000436451132)",-0.00035244095016182507,40.07200439045256
86,Move,"(0.0, 0.0, -0.01518987341772152)","(0.0, -0.0, 0.0)","(-1.6328131079744163e-05, 0.17371508577713832, 0.0011795424795518275)","(1.577078233610702, 0.0012262222907900733, 0.0019725650439231628)","[-1.6406692544749777e-05, 0.0037160234006194948, 0.0002646527964640928]","[-0.026750000193715096, 0.05299999937415123, 0.03999999910593033]","[0.0, -0.0, 0.5689317214403469]","[-0.06553872674703598, 0.1136583462357521, 0.03999999910593033]","[0.0, 0.0, -0.22197571800273347]","[0.026750000193715096, 0.05299999937415123, 0.03999999910593033]","[0.0, 0.0, -0.5679220187361779]","[0.06547746062278748, 0.11369747668504715, 0.03999999910593033]","[0.0, -0.0, 0.22475056477467872]",0.5676896650552041,-0.2980870885416554,"(0.0, 0.0, 0.0, 0.0, 0.0, 0.0)",-5.588431680290171,-0.7886580047549829,0.5398556977881439,"(0.0, 0.0, 0.0, 0.0, 0.0, 0.0)",-3.0211561803536267,-0.5666586432378441,0.3032026782872971,"(0.0, 0.0, 0.0, 0.0, 0.0, 0.0)",5.585219222132473,0.7904154377804372,-0.5417038128895536,"(0.0, 0.0, 0.0, 0.0, 0.0, 0.0)",2.981427699294584,True,"(-0.031869110037046025, 0.18573628214615534, 0.03999877651485343)","(0.99999732034097, 0.0019652976812184744, -0.0012234851465712318)",-8.51272707259348e-05,41.9564344552584,True,"(0.03160796983850586, 0.18568055551937485, 0.04000122348514658)","(-0.9999973203409699, -0.001965297681204459, 0.0012234851465719283)",-0.0003580738414562479,41.9213186367613
87,Move,"(0.0, 0.0, -0.015822784810126587)","(0.0, -0.0, 0.0)","(-1.4500821499706209e-05, 0.17379666584113676, 0.0011804650089767335)","(1.576968205102194, 0.0012291167964000437, 0.001979262113687896)","[-1.4579382964711821e-05, 0.003797603464617938, 0.00026557532588899883]","[-0.026750000193715096, 0.05299999937415123, 0.03999999910593033]","[0.0, -0.0, 0.5676896416746778]","[-0.0654633566737175, 0.11370646953582764, 0.03999999910593033]","[0.0, 0.0, -0.22096837987111975]","[0.026750000193715096, 0.05299999937415123, 0.03999999910593033]","[0.0, 0.0, -0.5666586053214383]","[0.06540074944496155, 0.11374635249376297, 0.03999999910593033]","[0.0, -0.0, 0.2237567884921973]",0.5663897880738028,-0.31197047553630636,"(0.0, 0.0, 0.0, 0.0, 0.0, 0.0)",-5.834988994719587,-0.7863087407881169,0.5638233520478709,"(0.0, 0.0, 0.0, 0.0, 0.0, 0.0)",-3.1548675283734777,-0.5653369048718854,0.31721720783008484,"(0.0, 0.0, 0.0, 0.0, 0.0, 0.0)",5.831948846063665,0.7880597546281061,-0.565363956559482,"(0.0, 0.0, 0.0, 0.0, 0.0, 0.0)",3.114917065611254,True,"(-0.03186636438261567, 0.18581729315046097, 0.03999877377801651)","(0.9999973026852081, 0.0019725622817224602, -0.0012262219834961949)",-8.632020980836385e-05,43.78969587023019,True,"(0.03160280884315235, 0.18576205459397913, 0.040001226221983495)","(-0.9999973026852083, -0.001972562281712185, 0.0012262219834929186)",-0.0003647881070586759,43.755862120839204
88,Move,"(0.0, 0.0, -0.016455696202531643)","(0.0, -0.0, 0.0)","(-1.24343807372075e-05, 0.17388191226133157, 0.0011812912083614601)","(1.576864600913279, 0.001232168594307849, 0.0019854024485366126)","[-1.2512942202213112e-05, 0.0038828498848127446, 0.00026640152527372543]","[-0.026750000193715096, 0.05299999937415123, 0.03999999910593033]","[0.0, -0.0, 0.5663898121777385]","[-0.06538441777229309, 0.11375674605369568, 0.03999999910593033]","[0.0, 0.0, -0.21991894812464238]","[0.026750000193715096, 0.05299999937415123, 0.03999999910593033]","[0.0, 0.0, -0.5653369028148372]","[0.06532042473554611, 0.1137973889708519, 0.03999999910593033]","[0.0, -0.0, 0.22272283277023824]",0.5650329936639699,-0.3256306583599076,"(0.0, 0.0, 0.0, 0.0, 0.0, 0.0)",-6.079665734269412,-0.7838603509044711,0.5876135720749762,"(0.0, 0.0, 0.0, 0.0, 0.0, 0.0)",-3.2874810476048006,-0.5639575612858229,0.3310424606549929,"(0.0, 0.0, 0.0, 0.0, 0.0, 0.0)",6.076776141597122,0.7856062209411546,-0.5888480848683594,"(0.0, 0.0, 0.0, 0.0, 0.0, 0.0)",3.2473217986287946,True,"(-0.03186310878864738, 0.1859017383044046, 0.039998770883513085)","(0.999997285898907, 0.0019792593263404296, -0.0012291164869225942)",-8.772451979891978e-05,45.60531841287571,True,"(0.03159696414857563, 0.18584695375780902, 0.04000122911648692)","(-0.9999972858989072, -0.001979259326335655, 0.001229116486917425)",-0.00037248461187240004,45.5727211399632
89,Move,"(0.0, 0.0, -0.017088607594936706)","(0.0, -0.0, 0.0)","(-1.016948941353448e-05, 0.17397074867410212, 0.00118202779211642)","(1.5767668706166307, 0.001235376370968576, 0.0019910009250146184)","[-1.0248050878540092e-05, 0.003971686297583293, 0.00026713810902868527]","[-0.026750000193715096, 0.05299999937415123, 0.03999999910593033]","[0.0, -0.0, 0.5650330855339504]","[-0.06530194729566574, 0.11380910873413086, 0.03999999910593033]","[0.0, 0.0, -0.21882733713584182]","[0.026750000193715096, 0.05299999937415123, 0.03999999910593033]","[0.0, 0.0, -0.5639574827690927]","[0.06523652374744415, 0.11385053396224976, 0.03999999910593033]","[0.0, -0.0, 0.2216486930055183]",0.5636202010871181,-0.33907021844443896,"(0.0, 0.0, 0.0, 0.0, 0.0, 0.0)",-6.322524232610421,-0.7813136422684022,0.6112100726565661,"(0.0, 0.0, 0.0, 0.0, 0.0, 0.0)",-3.419028708606763,-0.5625214239335676,0.34467296454125584,"(0.0, 0.0, 0.0, 0.0, 0.0, 0.0)",6.319796397323989,0.7830556298224097,-0.6121418684987686,"(0.0, 0.0, 0.0, 0.0, 0.0, 0.0)",3.3786965857153377,True,"(-0.0318594092066371, 0.18598956458822158, 0.039998767831717484)","(0.9999972699710757, 0.0019853996370323237, -0.001232168282520645)",-8.932017107562909e-05,47.40370528828542,True,"(0.03159048293286995, 0.1859352012743032, 0.04000123216828253)","(-0.999997269971076, -0.0019853996370256754, 0.0012321682825242775)",-0.00038107025640073344,47.37254175633869
90,Move,"(0.0, 0.0, -0.01772151898734177)","(0.0, -0.0, 0.0)","(-7.739864012628983e-06, 0.17406309866800818, 0.0011826809017495708)","(1.5766745179187205, 0.0012387361068856712, 0.0019961180114542606)","[-7.818425477634596e-06, 0.0040640362914893535, 0.0002677912186618361]","[-0.026750000193715096, 0.05299999937415123, 0.03999999910593033]","[0.0, -0.0, 0.5636201868385554]","[-0.06521599739789963, 0.1138635128736496, 0.03999999910593033]","[0.0, 0.0, -0.2176934377446654]","[0.026750000193715096, 0.05299999937415123, 0.03999999910593033]","[0.0, 0.0, -0.5625214174540774]","[0.06514909863471985, 0.11390574276447296, 0.03999999910593033]","[0.0, -0.0, 0.2205342009872506]",0.5621523172339294,-0.3522921247652735,"(0.0, 0.0, 0.0, 0.0, 0.0, 0.0)",-6.563318244518335,-0.7786695055676132,0.6345928081893655,"(0.0, 0.0, 0.0, 0.0, 0.0, 0.0)",-3.5493799215545287,-0.5610293095738318,0.3581074463365946,"(0.0, 0.0, 0.0, 0.0, 0.0, 0.0)",6.560735709531792,0.7804087760213473,-0.6352449122549801,"(0.0, 0.0, 0.0, 0.0, 0.0, 0.0)",3.5088824258677596,True,"(-0.031855325288032026, 0.18608071608879995, 0.03999876462394327)","(0.9999972548825337, 0.001990998090316556, -0.001235376056734138)",-9.108846356930583e-05,49.182920920873315,True,"(0.03158341106720877, 0.18602674257953666, 0.04000123537605673)","(-0.9999972548825335, -0.001990998090307507, 0.0012353760567323517)",-0.00039045821899654794,49.15314239750028
91,Move,"(0.0, 0.0, -0.01835443037974684)","(0.0, -0.0, 0.0)","(-5.180815716809911e-06, 0.17415888422689627, 0.0011832562564498476)","(1.576587076842719, 0.0012422468945860862, 0.002000752370673716)","[-5.259377181815524e-06, 0.004159821850377443, 0.0002683665733621129]","[-0.026750000193715096, 0.05299999937415123, 0.03999999910593033]","[0.0, -0.0, 0.5621523063415407]","[-0.06512661278247833, 0.11391991376876831, 0.03999999910593033]","[0.0, 0.0, -0.21651717739622003]","[0.026750000193715096, 0.05299999937415123, 0.03999999910593033]","[0.0, 0.0, -0.5610294112298779]","[0.06505817919969559, 0.11396297067403793, 0.03999999910593033]","[0.0, -0.0, 0.21937946489295956]",0.5606302509239012,-0.36529591440678283,"(0.0, 0.0, 0.0, 0.0, 0.0, 0.0)",-6.8018394026621545,-0.7759288396285033,0.6577598253863524,"(0.0, 0.0, 0.0, 0.0, 0.0, 0.0)",-3.678417849306079,-0.5594820481651831,0.37134273807569806,"(0.0, 0.0, 0.0, 0.0, 0.0, 0.0)",6.799456493716645,0.7776665721964403,-0.6581289179776683,"(0.0, 0.0, 0.0, 0.0, 0.0, 0.0)",3.637811796186236,True,"(-0.03185090904274513, 0.18617513359730778, 0.03999876126420991)","(0.9999972405251589, 0.001996115154383278, -0.001238735790086612)",-9.301202896945265e-05,50.941377411350246,True,"(0.031575794995359355, 0.18612152227730178, 0.04000123873579007)","(-0.999997240525159, -0.0019961151543767164, 0.0012387357900757448)",-0.0004005674181826972,50.913421087775845
92,Move,"(0.0, 0.0, -0.0189873417721519)","(0.0, -0.0, 0.0)","(-2.517465754258575e-06, 0.17425802724740985, 0.0011837590437322092)","(1.576504136008018, 0.001245903038012147, 0.0020049900778006274)","[-2.596027219264188e-06, 0.00425896487089103, 0.0002688693606444745]","[-0.026750000193715096, 0.05299999937415123, 0.03999999910593033]","[0.0, -0.0, 0.5606301631861743]","[-0.06503384560346603, 0.11397825181484222, 0.03999999910593033]","[0.0, 0.0, -0.2152986071936747]","[0.026750000193715096, 0.05299999937415123, 0.03999999910593033]","[0.0, 0.0, -0.5594820690234524]","[0.06496380269527435, 0.1140221655368805, 0.03999999910593033]","[0.0, -0.0, 0.21818451427584826]",0.5590549023139908,-0.37808366637849267,"(0.0, 0.0, 0.0, 0.0, 0.0, 0.0)",-7.0382765717236735,-0.7730926684311361,0.6806810873681293,"(0.0, 0.0, 0.0, 0.0, 0.0, 0.0)",-3.8062544882834586,-0.5578804850856144,0.384375139096484,"(0.0, 0.0, 0.0, 0.0, 0.0, 0.0)",7.036028827105632,0.7748298966550707,-0.6808021299287067,"(0.0, 0.0, 0.0, 0.0, 0.0, 0.0)",3.7655084815756967,True,"(-0.03184621219375091, 0.18627275690249526, 0.03999875775342491)","(0.9999972269086134, 0.002000749492079961, -0.0012422465750878586)",-9.507450964452937e-05,52.68039066626328,True,"(0.03156767441253862, 0.1862194804596357, 0.0400012422465751)","(-0.9999972269086133, -0.0020007494920789284, 0.001242246575095542)",-0.00041132279329935366,52.65386650411266
