OSUrobotics/InHand-Manipulation/AnalyseData/Data/Trial Data/Better/new_hand_human_sub1_2v2_h_n_1_kpNone_kdNone_dp1_step1_save_data.csv
,Phase,human_cube_pos,human_cube_orn,Cube_Pos,Cube_Orn,Cube_pos_in_start_pos,b'l_prox_pin'_link_pos,b'l_prox_pin'_link_orn,b'l_distal_pin'_link_pos,b'l_distal_pin'_link_orn,b'r_prox_pin'_link_pos,b'r_prox_pin'_link_orn,b'r_distal_pin'_link_pos,b'r_distal_pin'_link_orn,b'l_prox_pin'_joint_angle,b'l_prox_pin'_joint_vel,b'l_prox_pin'_joint_react_forces,b'l_prox_pin'_joint_motor_torque,b'l_distal_pin'_joint_angle,b'l_distal_pin'_joint_vel,b'l_distal_pin'_joint_react_forces,b'l_distal_pin'_joint_motor_torque,b'r_prox_pin'_joint_angle,b'r_prox_pin'_joint_vel,b'r_prox_pin'_joint_react_forces,b'r_prox_pin'_joint_motor_torque,b'r_distal_pin'_joint_angle,b'r_distal_pin'_joint_vel,b'r_distal_pin'_joint_react_forces,b'r_distal_pin'_joint_motor_torque,in_contact_l,contact_point_l_dist,contact_normal_l_dist,contact_distance_l_dist,contact_norm_force_l_dist,in_contact_r,contact_point_r_dist,contact_normal_r_dist,contact_distance_r_dist,contact_norm_force_r_dist
0,Open,,,,,,"[-0.026750000193715096, 0.05299999937415123, 0.03999999910593033]","[0.0, -0.0, 0.0]","[-0.026750000193715096, 0.125, 0.03999999910593033]","[0.0, -0.0, 0.0]","[0.026750000193715096, 0.05299999937415123, 0.03999999910593033]","[0.0, -0.0, 0.0]","[0.026750000193715096, 0.125, 0.03999999910593033]","[0.0, -0.0, 0.0]",0.0,0.0,"(0.0, 0.0, 0.0, 0.0, 0.0, 0.0)",1.3400621000080305e-17,5.883223478113402e-32,1.4119736347472167e-29,"(0.0, 0.0, 0.0, 0.0, 0.0, 0.0)",1.0542555313129702e-18,-0.008068665190486622,-1.9364796457167894,"(0.0, 0.0, 0.0, 0.0, 0.0, 0.0)",193.26378306879909,-0.0700246186727924,-16.805908481470176,"(0.0, 0.0, 0.0, 0.0, 0.0, 0.0)",71.94009191575694,False,,,,,False,,,,
1,Open,,,,,,"[-0.026750000193715096, 0.05299999937415123, 0.03999999910593033]","[0.0, -0.0, 0.0]","[-0.026750000193715096, 0.125, 0.03999999910593033]","[0.0, -0.0, 5.883223447970011e-32]","[0.026750000193715096, 0.05299999937415123, 0.03999999910593033]","[0.0, 0.0, -0.008068665592501188]","[0.02733093686401844, 0.12499765306711197, 0.03999999910593033]","[0.0, 0.0, -0.0780932845685428]",0.157,37.68,"(0.0, 0.0, 0.0, 0.0, 0.0, 0.0)",54.702693795169004,5.294901130302062e-32,-1.4119736347472162e-30,"(0.0, 0.0, 0.0, 0.0, 0.0, 0.0)",3.9113724975844915,-0.1670280316324969,-38.150247946082466,"(0.0, 0.0, 0.0, 0.0, 0.0, 0.0)",-25.93345404555236,-0.0659493391739072,0.9780670797324476,"(0.0, 0.0, 0.0, 0.0, 0.0, 0.0)",-6.754749483880455,False,,,,,False,,,,
2,Open,,,,,,"[-0.026750000193715096, 0.05299999937415123, 0.03999999910593033]","[0.0, -0.0, 0.1569999988554567]","[-0.03800761699676514, 0.12411445379257202, 0.03999999910593033]","[0.0, -0.0, 0.1569999988554567]","[0.026750000193715096, 0.05299999937415123, 0.03999999910593033]","[0.0, 0.0, -0.16702801712980753]","[0.038720179349184036, 0.1239979937672615, 0.03999999910593033]","[0.0, 0.0, -0.23297739431320727]",0.29829999999999995,33.91199999999999,"(0.0, 0.0, 0.0, 0.0, 0.0, 0.0)",-5.390828189440958,5.294901130302062e-32,0.0,"(0.0, 0.0, 0.0, 0.0, 0.0, 0.0)",-0.3659219356209609,-0.3122944613104081,-34.863943122698686,"(0.0, 0.0, 0.0, 0.0, 0.0, 0.0)",95.8006544774165,-0.06705867534034729,-0.2662406799456205,"(0.0, 0.0, 0.0, 0.0, 0.0, 0.0)",9.049911776264722,False,,,,,False,,,,
3,Open,,,,,,"[-0.026750000193715096, 0.05299999937415123, 0.03999999910593033]","[0.0, -0.0, 0.29830000998707634]","[-0.04791048914194107, 0.12182030081748962, 0.03999999910593033]","[0.0, -0.0, 0.29830000998707634]","[0.026750000193715096, 0.05299999937415123, 0.03999999910593033]","[0.0, 0.0, -0.3122944642903269]","[0.048871491104364395, 0.12151744216680527, 0.03999999910593033]","[0.0, 0.0, -0.3793531994353912]",0.42546999999999996,30.5208,"(0.0, 0.0, 0.0, 0.0, 0.0, 0.0)",-4.858074537215091,5.294901130302062e-32,0.0,"(0.0, 0.0, 0.0, 0.0, 0.0, 0.0)",-0.33154044974508506,-0.44292449566296654,-31.35120824461403,"(0.0, 0.0, 0.0, 0.0, 0.0, 0.0)",100.88457241511576,-0.08373770380977785,-4.0029668326633345,"(0.0, 0.0, 0.0, 0.0, 0.0, 0.0)",24.077304806401806,False,,,,,False,,,,
4,Open,,,,,,"[-0.026750000193715096, 0.05299999937415123, 0.03999999910593033]","[0.0, -0.0, 0.4254700097131474]","[-0.056467924267053604, 0.11858082562685013, 0.03999999910593033]","[0.0, -0.0, 0.4254700097131474]","[0.026750000193715096, 0.05299999937415123, 0.03999999910593033]","[0.0, 0.0, -0.4429245237535421]","[0.057608019560575485, 0.1180521547794342, 0.03999999910593033]","[0.0, 0.0, -0.5266622746639338]",0.5399229999999999,27.46872,"(0.0, 0.0, 0.0, 0.0, 0.0, 0.0)",-4.377393708535371,5.294901130302062e-32,0.0,"(0.0, 0.0, 0.0, 0.0, 0.0, 0.0)",-0.30017707799641646,-0.5623038734984663,-28.651050680519948,"(0.0, 0.0, 0.0, 0.0, 0.0, 0.0)",144.45470973647488,-0.10456727132876567,-4.999096204557077,"(0.0, 0.0, 0.0, 0.0, 0.0, 0.0)",33.97911746732963,False,,,,,False,,,,
5,Open,,,,,,"[-0.026750000193715096, 0.05299999937415123, 0.03999999910593033]","[0.0, -0.0, 0.5399230359738098]","[-0.06376303732395172, 0.11475787311792374, 0.03999999910593033]","[0.0, -0.0, 0.5399230359738098]","[0.026750000193715096, 0.05299999937415123, 0.03999999910593033]","[0.0, 0.0, -0.5623038790270362]","[0.06513584405183792, 0.11391409486532211, 0.03999999910593033]","[0.0, 0.0, -0.6668711870723439]",0.6429307,24.721848,"(0.0, 0.0, 0.0, 0.0, 0.0, 0.0)",-3.943806903965684,5.294901130302062e-32,0.0,"(0.0, 0.0, 0.0, 0.0, 0.0, 0.0)",-0.2716098155097054,-0.6673401099248648,-25.208696742335626,"(0.0, 0.0, 0.0, 0.0, 0.0, 0.0)",94.97739775913854,-0.11755295807544866,-3.116564819203918,"(0.0, 0.0, 0.0, 0.0, 0.0, 0.0)",25.79194570087013,False,,,,,False,,,,
6,Open,,,,,,"[-0.026750000193715096, 0.05299999937415123, 0.03999999910593033]","[0.0, -0.0, 0.6429307111289271]","[-0.06991713494062424, 0.11062463372945786, 0.03999999910593033]","[0.0, -0.0, 0.6429307111289271]","[0.026750000193715096, 0.05299999937415123, 0.03999999910593033]","[0.0, 0.0, -0.6673401753977319]","[0.07131072133779526, 0.10955388844013214, 0.03999999910593033]","[0.0, 0.0, -0.7848931559948581]",0.73563763,22.249663200000004,"(0.0, 0.0, 0.0, 0.0, 0.0, 0.0)",-3.552789792259023,5.294901130302062e-32,0.0,"(0.0, 0.0, 0.0, 0.0, 0.0, 0.0)",-0.24562369466220793,-0.7579917869736262,-21.756402491702737,"(0.0, 0.0, 0.0, 0.0, 0.0, 0.0)",34.46450837185191,-0.10794166402774508,2.3067105714488583,"(0.0, 0.0, 0.0, 0.0, 0.0, 0.0)",8.765009015475858,False,,,,,False,,,,
7,Open,,,,,,"[-0.026750000193715096, 0.05299999937415123, 0.03999999910593033]","[0.0, -0.0, 0.7356376306875043]","[-0.07506632059812546, 0.10638101398944855, 0.03999999910593033]","[0.0, -0.0, 0.7356376306875043]","[0.026750000193715096, 0.05299999937415123, 0.03999999910593033]","[0.0, 0.0, -0.757991847340814]","[0.076247438788414, 0.10528770089149475, 0.03999999910593033]","[0.0, 0.0, -0.8659334873334429]",0.8190738670000001,20.024696880000004,"(0.0, 0.0, 0.0, 0.0, 0.0, 0.0)",-3.2002295086701533,2.3293280891773424e-07,5.5903874140256216e-05,"(0.0, 0.0, 0.0, 0.0, 0.0, 0.0)",-0.22200715926400075,-0.8391926082762636,-19.488197112632974,"(0.0, 0.0, 0.0, 0.0, 0.0, 0.0)",3.295349739497939,-0.09714776835574307,2.590534961280482,"(0.0, 0.0, 0.0, 0.0, 0.0, 0.0)",0.25803221970863044,False,,,,,False,,,,
8,Open,,,,,,"[-0.026750000193715096, 0.05299999937415123, 0.03999999910593033]","[0.0, -0.0, 0.8190738875671263]","[-0.07934698462486267, 0.10216865688562393, 0.03999999910593033]","[0.0, -0.0, 0.8190741465287105]","[0.026750000193715096, 0.05299999937415123, 0.03999999910593033]","[0.0, 0.0, -0.839192558822362]","[0.08032548427581787, 0.10110059380531311, 0.03999999910593033]","[0.0, 0.0, -0.9363403253067936]",0.8941664803,18.022227192,"(0.0, 0.0, 0.0, 0.0, 0.0, 0.0)",-2.8824197251771095,4.2009445145371055e-07,4.4918794208634316e-05,"(0.0, 0.0, 0.0, 0.0, 0.0, 0.0)",-0.2005835928406654,-0.9122733474486373,-17.539377401369673,"(0.0, 0.0, 0.0, 0.0, 0.0, 0.0)",2.7804978356880783,-0.0874331700712747,2.33150358827241,"(0.0, 0.0, 0.0, 0.0, 0.0, 0.0)",0.17017621517521792,False,,,,,False,,,,
9,Open,,,,,,"[-0.026750000193715096, 0.05299999937415123, 0.03999999910593033]","[0.0, -0.0, 0.894166469119967]","[-0.08288749307394028, 0.09808415919542313, 0.03999999910593033]","[0.0, -0.0, 0.894166894674561]","[0.026750000193715096, 0.05299999937415123, 0.03999999910593033]","[0.0, 0.0, -0.9122733503889549]","[0.08369457721710205, 0.09706035256385803, 0.03999999910593033]","[0.0, 0.0, -0.9997066729229968]",0.96174983227,16.220004472800003,"(0.0, 0.0, 0.0, 0.0, 0.0, 0.0)",-2.5959652512206968,5.681494863714967e-07,3.553320838026869e-05,"(0.0, 0.0, 0.0, 0.0, 0.0, 0.0)",-0.18114955764248034,-0.9780460127037736,-15.785439661232708,"(0.0, 0.0, 0.0, 0.0, 0.0, 0.0)",2.503992476159733,-0.0786900142246732,2.098357403184359,"(0.0, 0.0, 0.0, 0.0, 0.0, 0.0)",0.15360133560797545,False,,,,,False,,,,
10,Open,,,,,,"[-0.026750000193715096, 0.05299999937415123, 0.03999999910593033]","[0.0, -0.0, 0.9617498658906226]","[-0.08580395579338074, 0.09419016540050507, 0.03999999910593033]","[0.0, -0.0, 0.9617504517765805]","[0.026750000193715096, 0.05299999937415123, 0.03999999910593033]","[0.0, 0.0, -0.9780460255881384]","[0.08646733313798904, 0.09322238713502884, 0.03999999910593033]","[0.0, 0.0, -1.0567360258914282]",1.022574849043,14.598004025520002,"(0.0, 0.0, 0.0, 0.0, 0.0, 0.0)",-2.337816594086846,6.829231533297027e-07,2.7545680069969436e-05,"(0.0, 0.0, 0.0, 0.0, 0.0, 0.0)",-0.16354029854134106,-1.0372414114333963,-14.206895695109438,"(0.0, 0.0, 0.0, 0.0, 0.0, 0.0)",2.2548456713339484,-0.07082115822448021,1.8885254400463192,"(0.0, 0.0, 0.0, 0.0, 0.0, 0.0)",0.13860128234430863,False,,,,,False,,,,
11,Open,,,,,,"[-0.026750000193715096, 0.05299999937415123, 0.03999999910593033]","[0.0, -0.0, 1.0225748785172661]","[-0.08819860219955444, 0.09052424877882004, 0.03999999910593033]","[0.0, -0.0, 1.0225755149967983]","[0.026750000193715096, 0.05299999937415123, 0.03999999910593033]","[0.0, 0.0, -1.037241417801626]","[0.08874232321977615, 0.08961901068687439, 0.03999999910593033]","[0.0, 0.0, -1.1080626941470386]",1.0773173641387,13.138203622968001,"(0.0, 0.0, 0.0, 0.0, 0.0, 0.0)",-2.105207702642618,7.694903593429899e-07,2.0776129443188934e-05,"(0.0, 0.0, 0.0, 0.0, 0.0, 0.0)",-0.14759587787833617,-1.0905172702900567,-12.78620612559849,"(0.0, 0.0, 0.0, 0.0, 0.0, 0.0)",2.0303755786213302,-0.06373917358809339,1.6996763127328351,"(0.0, 0.0, 0.0, 0.0, 0.0, 0.0)",0.1250328149112744,False,,,,,False,,,,
12,Open,,,,,,"[-0.026750000193715096, 0.05299999937415123, 0.03999999910593033]","[0.0, -0.0, 1.0773173786594632]","[-0.09015969932079315, 0.08710587024688721, 0.03999999910593033]","[0.0, -0.0, 1.0773182784199262]","[0.026750000193715096, 0.05299999937415123, 0.03999999910593033]","[0.0, 0.0, -1.090517334189526]","[0.09060435742139816, 0.0862659215927124, 0.03999999910593033]","[0.0, 0.0, -1.1542564269670996]",1.1265856277248298,11.824383260671203,"(0.0, 0.0, 0.0, 0.0, 0.0, 0.0)",-1.895636869852492,8.322629993378343e-07,1.5065433598762668e-05,"(0.0, 0.0, 0.0, 0.0, 0.0, 0.0)",-0.13316806895824274,-1.138465543261051,-11.50758551303864,"(0.0, 0.0, 0.0, 0.0, 0.0, 0.0)",1.828159741200242,-0.05736537454460671,1.5297117704368035,"(0.0, 0.0, 0.0, 0.0, 0.0, 0.0)",0.11276577482950233,False,,,,,False,,,,
13,Open,,,,,,"[-0.026750000193715096, 0.05299999937415123, 0.03999999910593033]","[0.0, -0.0, 1.126585512342968]","[-0.09176240861415863, 0.08394166082143784, 0.03999999910593033]","[0.0, -0.0, 1.1265864725026016]","[0.026750000193715096, 0.05299999937415123, 0.03999999910593033]","[0.0, 0.0, -1.13846552283997]","[0.09212540090084076, 0.08316715806722641, 0.03999999910593033]","[0.0, 0.0, -1.1958309904194953]",1.1709270649523469,10.641944934604087,"(0.0, 0.0, 0.0, 0.0, 0.0, 0.0)",-1.7068426281171958,8.750681698751778e-07,1.0273240928962424e-05,"(0.0, 0.0, 0.0, 0.0, 0.0, 0.0)",-0.12011999884119333,-1.181618988934946,-10.356826961734775,"(0.0, 0.0, 0.0, 0.0, 0.0, 0.0)",1.6460093571929852,-0.051628943774705546,1.376743384776279,"(0.0, 0.0, 0.0, 0.0, 0.0, 0.0)",0.10168054944364863,False,,,,,False,,,,
14,Open,,,,,,"[-0.026750000193715096, 0.05299999937415123, 0.03999999910593033]","[0.0, -0.0, 1.170927100750299]","[-0.09307006001472473, 0.08102945238351822, 0.03999999910593033]","[0.0, -0.0, 1.1709279927689973]","[0.026750000193715096, 0.05299999937415123, 0.03999999910593033]","[0.0, 0.0, -1.181618964677462]","[0.09336595237255096, 0.08031877130270004, 0.03999999910593033]","[0.0, 0.0, -1.233247876832181]",1.2108343584571122,9.577750441143678,"(0.0, 0.0, 0.0, 0.0, 0.0, 0.0)",-1.5367816122769582,9.012180617793662e-07,6.275974057005224e-06,"(0.0, 0.0, 0.0, 0.0, 0.0, 0.0)",-0.1083256720668905,-1.2204570900414513,-9.3211442655613,"(0.0, 0.0, 0.0, 0.0, 0.0, 0.0)",1.4819475463743526,-0.046466145575958295,1.239071567699341,"(0.0, 0.0, 0.0, 0.0, 0.0, 0.0)",0.09166748660725833,False,,,,,False,,,,
15,Open,,,,,,"[-0.026750000193715096, 0.05299999937415123, 0.03999999910593033]","[0.0, -0.0, 1.2108343955497323]","[-0.09413553774356842, 0.07836118340492249, 0.03999999910593033]","[0.0, -0.0, 1.210835255049739]","[0.026750000193715096, 0.05299999937415123, 0.03999999910593033]","[0.0, 0.0, -1.2204571829136446]","[0.09437645971775055, 0.07771158218383789, 0.03999999910593033]","[0.0, 0.0, -1.2669233179031547]",1.2467509226114009,8.619975397029307,"(0.0, 0.0, 0.0, 0.0, 0.0, 0.0)",-1.3836082777937824,9.135722823677317e-07,2.9650129412077397e-06,"(0.0, 0.0, 0.0, 0.0, 0.0, 0.0)",-0.09766941677677543,-1.2554113810373062,-8.38902983900517,"(0.0, 0.0, 0.0, 0.0, 0.0, 0.0)",1.334189480132575,-0.04181961771093252,1.1151666876061868,"(0.0, 0.0, 0.0, 0.0, 0.0, 0.0)",0.08262627878010878,False,,,,,False,,,,
16,Open,,,,,,"[-0.026750000193715096, 0.05299999937415123, 0.03999999910593033]","[0.0, -0.0, 1.2467510110527222]","[-0.09500277042388916, 0.07592508941888809, 0.03999999910593033]","[0.0, -0.0, 1.246751870145374]","[0.026750000193715096, 0.05299999937415123, 0.03999999910593033]","[0.0, 0.0, -1.255411348379259]","[0.09519875049591064, 0.0753331333398819, 0.03999999910593033]","[0.0, 0.0, -1.2972309672073006]",1.2790758303502607,7.757977857326381,"(0.0, 0.0, 0.0, 0.0, 0.0, 0.0)",-1.2456264712746363,2.1141758111398655e-06,0.0002881448469053121,"(0.0, 0.0, 0.0, 0.0, 0.0, 0.0)",-0.088015399348708,-1.2868702429335757,-7.5501268551046525,"(0.0, 0.0, 0.0, 0.0, 0.0, 0.0)",1.2010989712673745,-0.037638748630864464,1.0034085792163332,"(0.0, 0.0, 0.0, 0.0, 0.0, 0.0)",0.07444006052486639,False,,,,,False,,,,
17,Open,,,,,,"[-0.026750000193715096, 0.05299999937415123, 0.03999999910593033]","[0.0, -0.0, 1.2790758758817962]","[-0.09570803493261337, 0.0737072303891182, 0.03999999910593033]","[0.0, -0.0, 1.2790780932516201]","[0.026750000193715096, 0.05299999937415123, 0.03999999910593033]","[0.0, 0.0, -1.2868702529032277]","[0.0958673357963562, 0.07316911965608597, 0.03999999910593033]","[0.0, 0.0, -1.3245087793274308]",1.3081682532711112,6.982181501004109,"(0.0, 0.0, 0.0, 0.0, 0.0, 0.0)",-1.12145472366965,1.9027582300258812e-06,-5.0740219467356254e-05,"(0.0, 0.0, 0.0, 0.0, 0.0, 0.0)",-0.07939114715284208,-1.315183223212741,-6.795115266999686,"(0.0, 0.0, 0.0, 0.0, 0.0, 0.0)",1.0813262344929835,-0.033874873767778015,0.9033299671407473,"(0.0, 0.0, 0.0, 0.0, 0.0, 0.0)",0.06713055017345074,False,,,,,False,,,,
18,Open,,,,,,"[-0.026750000193715096, 0.05299999937415123, 0.03999999910593033]","[0.0, -0.0, 1.3081682459906412]","[-0.09628119319677353, 0.07169260084629059, 0.03999999910593033]","[0.0, -0.0, 1.3081702011658356]","[0.026750000193715096, 0.05299999937415123, 0.03999999910593033]","[0.0, 0.0, -1.3151833180210462]","[0.0964106097817421, 0.07120437920093536, 0.03999999910593033]","[0.0, 0.0, -1.349058153261439]",1.334351427944,6.283961921493333,"(0.0, 0.0, 0.0, 0.0, 0.0, 0.0)",-1.0095234585863413,2.7618377923566443e-06,0.00020617909495938315,"(0.0, 0.0, 0.0, 0.0, 0.0, 0.0)",-0.07148780084672787,-1.3406649008914668,-6.11560264289422,"(0.0, 0.0, 0.0, 0.0, 0.0, 0.0)",0.9733796231570812,-0.030488273507324658,0.8127840625088054,"(0.0, 0.0, 0.0, 0.0, 0.0, 0.0)",0.060435192896783604,False,,,,,False,,,,
19,Open,,,,,,"[-0.026750000193715096, 0.05299999937415123, 0.03999999910593033]","[0.0, -0.0, 1.334351465706577]","[-0.09674673527479172, 0.06986585259437561, 0.03999999910593033]","[0.0, -0.0, 1.33435435145599]","[0.026750000193715096, 0.05299999937415123, 0.03999999910593033]","[0.0, 0.0, -1.3406650641721125]","[0.09685182571411133, 0.06942359358072281, 0.03999999910593033]","[0.0, 0.0, -1.3711530696282732]",1.3579162851496,5.655565729344001,"(0.0, 0.0, 0.0, 0.0, 0.0, 0.0)",-0.9088150211252332,3.4316066113876724e-06,0.0001607445165674468,"(0.0, 0.0, 0.0, 0.0, 0.0, 0.0)",-0.06444344013525093,-1.3635984108023202,-5.504042378604797,"(0.0, 0.0, 0.0, 0.0, 0.0, 0.0)",0.8762522980402716,-0.02744024570882781,0.7315266716392431,"(0.0, 0.0, 0.0, 0.0, 0.0, 0.0)",0.05446985052483407,False,,,,,False,,,,
20,Open,,,,,,"[-0.026750000193715096, 0.05299999937415123, 0.03999999910593033]","[0.0, -0.0, 1.3579163939939654]","[-0.09712471067905426, 0.0682118609547615, 0.03999999910593033]","[0.0, -0.0, 1.3579197824809437]","[0.026750000193715096, 0.05299999937415123, 0.03999999910593033]","[0.0, 0.0, -1.3635984874387626]","[0.09721000492572784, 0.06781173497438431, 0.03999999910593033]","[0.0, 0.0, -1.3910385869420074]",1.37912465663464,5.090009156409601,"(0.0, 0.0, 0.0, 0.0, 0.0, 0.0)",-0.8181093185961676,3.940702417530038e-06,0.0001221829934741677,"(0.0, 0.0, 0.0, 0.0, 0.0, 0.0)",-0.05806034967263589,-1.3842385697220883,-4.953638140744317,"(0.0, 0.0, 0.0, 0.0, 0.0, 0.0)",0.7887791417834831,-0.024696941374704916,0.6583930401894944,"(0.0, 0.0, 0.0, 0.0, 0.0, 0.0)",0.04906644857689494,False,,,,,False,,,,
21,Open,,,,,,"[-0.026750000193715096, 0.05299999937415123, 0.03999999910593033]","[0.0, -0.0, 1.3791247702213432]","[-0.0974314734339714, 0.0667160153388977, 0.03999999910593033]","[0.0, -0.0, 1.3791284782568445]","[0.026750000193715096, 0.05299999937415123, 0.03999999910593033]","[0.0, 0.0, -1.3842387704807777]","[0.09750068932771683, 0.06635437905788422, 0.03999999910593033]","[0.0, 0.0, -1.408935619520831]",1.398212190971176,4.581008240768642,"(0.0, 0.0, 0.0, 0.0, 0.0, 0.0)",-0.7364407507487188,4.314390796743166e-06,8.968521101115077e-05,"(0.0, 0.0, 0.0, 0.0, 0.0, 0.0)",-0.05230389643117988,-1.4028147127498793,-4.458274326669883,"(0.0, 0.0, 0.0, 0.0, 0.0, 0.0)",0.7100243788118592,-0.02222789596809768,0.5925708975857369,"(0.0, 0.0, 0.0, 0.0, 0.0, 0.0)",0.04419507766734469,False,,,,,False,,,,
22,Open,,,,,,"[-0.026750000193715096, 0.05299999937415123, 0.03999999910593033]","[0.0, -0.0, 1.3982120672717784]","[-0.09768038988113403, 0.06536446511745453, 0.03999999910593033]","[0.0, -0.0, 1.3982164487645397]","[0.026750000193715096, 0.05299999937415123, 0.03999999910593033]","[0.0, 0.0, -1.4028147367436141]","[0.09773654490709305, 0.06503787636756897, 0.03999999910593033]","[0.0, 0.0, -1.4250426427007885]",1.4153909718740585,4.122907416691778,"(0.0, 0.0, 0.0, 0.0, 0.0, 0.0)",-0.6629119687698639,4.574523674952359e-06,6.243189077020624e-05,"(0.0, 0.0, 0.0, 0.0, 0.0, 0.0)",-0.04711364623212332,-1.4195332414748913,-4.012446894002898,"(0.0, 0.0, 0.0, 0.0, 0.0, 0.0)",0.6391216750959775,-0.02000569064819732,0.5333292767760867,"(0.0, 0.0, 0.0, 0.0, 0.0, 0.0)",0.039804123486470444,False,,,,,False,,,,
23,Open,,,,,,"[-0.026750000193715096, 0.05299999937415123, 0.03999999910593033]","[0.0, -0.0, 1.415391158105469]","[-0.09788231551647186, 0.06414420157670975, 0.03999999910593033]","[0.0, -0.0, 1.415395709317307]","[0.026750000193715096, 0.05299999937415123, 0.03999999910593033]","[0.0, 0.0, -1.419533200978404]","[0.09792786836624146, 0.06384945660829544, 0.03999999910593033]","[0.0, 0.0, -1.4395389386881268]",1.4308518746866525,3.7106166750225977,"(0.0, 0.0, 0.0, 0.0, 0.0, 0.0)",-0.5967141397561109,4.7399630338636504e-06,3.9705446138709865e-05,"(0.0, 0.0, 0.0, 0.0, 0.0, 0.0)",-0.042434775014060074,-1.4345799173274023,-3.611202204602609,"(0.0, 0.0, 0.0, 0.0, 0.0, 0.0)",0.5752902758042565,-0.018005647771851804,0.4800102903229233,"(0.0, 0.0, 0.0, 0.0, 0.0, 0.0)",0.0358468230863414,False,,,,,False,,,,
24,Open,,,,,,"[-0.026750000193715096, 0.05299999937415123, 0.03999999910593033]","[0.0, -0.0, 1.4308518944899675]","[-0.09804610908031464, 0.06304314732551575, 0.03999999910593033]","[0.0, -0.0, 1.4308566269594332]","[0.026750000193715096, 0.05299999937415123, 0.03999999910593033]","[0.0, 0.0, -1.4345798203875788]","[0.09808305650949478, 0.06277728080749512, 0.03999999910593033]","[0.0, 0.0, -1.4525855975984745]",1.4447666872179874,3.339555007520341,"(0.0, 0.0, 0.0, 0.0, 0.0, 0.0)",-0.5371183361845069,4.8269553674989e-06,2.0878160072459843e-05,"(0.0, 0.0, 0.0, 0.0, 0.0, 0.0)",-0.03821759960562203,-1.448121925594662,-3.2500819841423465,"(0.0, 0.0, 0.0, 0.0, 0.0, 0.0)",0.5178266556878065,-0.016205556838873442,0.4320218239148067,"(0.0, 0.0, 0.0, 0.0, 0.0, 0.0)",0.0322808466635012,False,,,,,False,,,,
25,Open,,,,,,"[-0.026750000193715096, 0.05299999937415123, 0.03999999910593033]","[0.0, -0.0, 1.4447668540021588]","[-0.09817895293235779, 0.06205013021826744, 0.03999999910593033]","[0.0, -0.0, 1.4447715863131299]","[0.026750000193715096, 0.05299999937415123, 0.03999999910593033]","[0.0, 0.0, -1.448121993206969]","[0.09820891171693802, 0.06181041896343231, 0.03999999910593033]","[0.0, 0.0, -1.46432761016298]",1.4572900184961886,3.005599506768304,"(0.0, 0.0, 0.0, 0.0, 0.0, 0.0)",-0.483467731204937,4.849462099751187e-06,5.401615740548756e-06,"(0.0, 0.0, 0.0, 0.0, 0.0, 0.0)",-0.03441712855198442,-1.4603097330351957,-2.925073785728113,"(0.0, 0.0, 0.0, 0.0, 0.0, 0.0)",0.4660969568661882,-0.014585427836986846,0.38883096045278315,"(0.0, 0.0, 0.0, 0.0, 0.0, 0.0)",0.029067900465992856,False,,,,,False,,,,
26,Open,,,,,,"[-0.026750000193715096, 0.05299999937415123, 0.03999999910593033]","[0.0, -0.0, 1.4572900807517244]","[-0.0982866883277893, 0.061154916882514954, 0.03999999910593033]","[0.0, -0.0, 1.4572948921008348]","[0.026750000193715096, 0.05299999937415123, 0.03999999910593033]","[0.0, 0.0, -1.4603097470714805]","[0.09831098467111588, 0.06093886122107506, 0.03999999910593033]","[0.0, 0.0, -1.4748951413427742]",1.4685610166465697,2.705039556091476,"(0.0, 0.0, 0.0, 0.0, 0.0, 0.0)",-0.43517053908893033,4.819450845044722e-06,-7.202701129551542e-06,"(0.0, 0.0, 0.0, 0.0, 0.0, 0.0)",-0.030992645518402973,-1.471278759731676,-2.632566407155304,"(0.0, 0.0, 0.0, 0.0, 0.0, 0.0)",0.4195301522878829,-0.013127269246907155,0.3499580616191257,"(0.0, 0.0, 0.0, 0.0, 0.0, 0.0)",0.02617336062226555,False,,,,,False,,,,
27,Open,,,,,,"[-0.026750000193715096, 0.05299999937415123, 0.03999999910593033]","[0.0, -0.0, 1.4685611215819594]","[-0.09837405383586884, 0.06034812703728676, 0.03999999910593033]","[0.0, -0.0, 1.468565853091142]","[0.026750000193715096, 0.05299999937415123, 0.03999999910593033]","[0.0, 0.0, -1.4712788457263521]","[0.0983937606215477, 0.06015344336628914, 0.03999999910593033]","[0.0, 0.0, -1.4844061039497418]",1.4787049149819127,2.434535600482329,"(0.0, 0.0, 0.0, 0.0, 0.0, 0.0)",-0.39169363303347604,4.747151892642784e-06,-1.7351748576465223e-05,"(0.0, 0.0, 0.0, 0.0, 0.0, 0.0)",-0.02790732436186781,-1.4811508837585086,-2.3693097664397755,"(0.0, 0.0, 0.0, 0.0, 0.0, 0.0)",0.37761186810531283,-0.011814888241968555,0.3149714411852639,"(0.0, 0.0, 0.0, 0.0, 0.0, 0.0)",0.023565936472848985,False,,,,,False,,,,
28,Open,,,,,,"[-0.026750000193715096, 0.05299999937415123, 0.03999999910593033]","[0.0, -0.0, 1.4787049625213984]","[-0.09844490885734558, 0.059621214866638184, 0.03999999910593033]","[0.0, -0.0, 1.4787095898811649]","[0.026750000193715096, 0.05299999937415123, 0.03999999910593033]","[0.0, 0.0, -1.4811508165812142]","[0.09846089035272598, 0.059445831924676895, 0.03999999910593033]","[0.0, 0.0, -1.492965762433775]",1.4878344234837215,2.191082040434097,"(0.0, 0.0, 0.0, 0.0, 0.0, 0.0)",-0.35255677801820895,4.641283838470101e-06,-2.5408333001444004e-05,"(0.0, 0.0, 0.0, 0.0, 0.0, 0.0)",-0.02512787460267613,-1.4900357953826577,-2.132378789795796,"(0.0, 0.0, 0.0, 0.0, 0.0, 0.0)",0.33987880377374147,-0.010633710863257649,0.2834825708906175,"(0.0, 0.0, 0.0, 0.0, 0.0, 0.0)",0.021217361806457186,False,,,,,False,,,,
29,Close,,,"(0.010000165031897679, 0.16000264050809818, 0.003919197399597577)","(-5.388791991209616e-05, 3.3679978815229247e-06, -9.074720008653711e-11)",,"[-0.026750000193715096, 0.05299999937415123, 0.03999999910593033]","[0.0, -0.0, 1.487834617901085]","[-0.09850236773490906, 0.05896640568971634, 0.03999999910593033]","[0.0, -0.0, 1.4878390921106803]","[0.026750000193715096, 0.05299999937415123, 0.03999999910593033]","[0.0, 0.0, -1.4900358577435544]","[0.09851532429456711, 0.05880843847990036, 0.03999999910593033]","[0.0, 0.0, -1.5006695807985118]",1.4960509811353493,1.9719738363906854,"(0.0, 0.0, 0.0, 0.0, 0.0, 0.0)",-0.3173274216127963,4.509251873886308e-06,-3.168767150011037e-05,"(0.0, 0.0, 0.0, 0.0, 0.0, 0.0)",-0.022624215793833224,-1.498032215844392,-1.9191409108162163,"(0.0, 0.0, 0.0, 0.0, 0.0, 0.0)",0.30591369390909257,-0.00957062017308593,0.2551417656412126,"(0.0, 0.0, 0.0, 0.0, 0.0, 0.0)",0.019102112305110365,False,,,,,False,,,,
30,Close,,,"(0.010000330010418335, 0.1600052801621647, 0.0076635160840755065)","(-0.00010776674212266888, 6.7354271463595154e-06, -3.629275205618536e-10)",,"[-0.026750000193715096, 0.05299999937415123, 0.03999999910593033]","[0.0, -0.0, 1.4960509653323988]","[-0.09854896366596222, 0.058376654982566833, 0.03999999910593033]","[0.0, -0.0, 1.4960555203126162]","[0.026750000193715096, 0.05299999937415123, 0.03999999910593033]","[0.0, 0.0, -1.4980320325532246]","[0.09855947643518448, 0.05823439359664917, 0.03999999910593033]","[0.0, 0.0, -1.5076028800413472]",1.4064458830218143,-21.505223547248388,"(0.0, 0.0, 0.0, 0.0, 0.0, 0.0)",-36.32500847077206,-0.08999559064729075,-21.600023975799512,"(0.0, 0.0, 0.0, 0.0, 0.0, 0.0)",-4.679136399120495,-1.4082289942599528,21.552773180265405,"(0.0, 0.0, 0.0, 0.0, 0.0, 0.0)",36.31473208701179,0.08138609105625041,21.82961069504072,"(0.0, 0.0, 0.0, 0.0, 0.0, 0.0)",4.675963213372079,False,,,,,False,,,,
31,Close,,,"(0.010000494936733278, 0.16000791898094055, 0.011233038807318392)","(-0.00016163646818851668, 1.0102287881965475e-05, -8.164490687548302e-10)",,"[-0.026750000193715096, 0.05299999937415123, 0.03999999910593033]","[0.0, -0.0, 1.4064459844712927]","[-0.0977797880768776, 0.06478003412485123, 0.03999999910593033]","[0.0, -0.0, 1.316450240076391]","[0.026750000193715096, 0.05299999937415123, 0.03999999910593033]","[0.0, 0.0, -1.4082291009672807]","[0.09780067950487137, 0.06465335935354233, 0.03999999910593033]","[0.0, 0.0, -1.3268428349863826]",1.325801294719633,-19.354701192523546,"(0.0, 0.0, 0.0, 0.0, 0.0, 0.0)",3.2936342521930255,-0.17099646652613912,-19.44021021092361,"(0.0, 0.0, 0.0, 0.0, 0.0, 0.0)",0.4145426679866387,-1.3274060948339577,19.39749586223887,"(0.0, 0.0, 0.0, 0.0, 0.0, 0.0)",-3.3024243844052092,0.16324791947241268,19.646838819878944,"(0.0, 0.0, 0.0, 0.0, 0.0, 0.0)",-0.41699994760359754,False,,,,,False,,,,
32,Close,,,"(0.010000659812012168, 0.16001055698314023, 0.0146278458391823)","(-0.0002154970996661642, 1.346858017578936e-05, -1.4512199879406586e-09)",,"[-0.026750000193715096, 0.05299999937415123, 0.03999999910593033]","[0.0, -0.0, 1.3258013857525741]","[-0.09659997373819351, 0.07046370953321457, 0.03999999910593033]","[0.0, -0.0, 1.1548048042561467]","[0.026750000193715096, 0.05299999937415123, 0.03999999910593033]","[0.0, 0.0, -1.3274060658778382]","[0.09662791341543198, 0.07035159319639206, 0.03999999910593033]","[0.0, 0.0, -1.1641581075845935]",1.2532211652476697,-17.41923107327119,"(0.0, 0.0, 0.0, 0.0, 0.0, 0.0)",2.9685258329366073,-0.24389721437960032,-17.496179484830687,"(0.0, 0.0, 0.0, 0.0, 0.0, 0.0)",0.3760018756193849,-1.2546654853505619,17.457746276014984,"(0.0, 0.0, 0.0, 0.0, 0.0, 0.0)",-2.976480273609718,0.2369235243908578,17.682145180426822,"(0.0, 0.0, 0.0, 0.0, 0.0, 0.0)",-0.3782508099482112,False,,,,,False,,,,
33,Close,,,"(0.010000824637423049, 0.16001319418745247, 0.017848014970055004)","(-0.00026934863811186216, 1.6834304115272585e-05, -2.2671484573282825e-09)",,"[-0.026750000193715096, 0.05299999937415123, 0.03999999910593033]","[0.0, -0.0, 1.2532212515508983]","[-0.09514966607093811, 0.07548300176858902, 0.03999999910593033]","[0.0, -0.0, 1.0093239867956962]","[0.026750000193715096, 0.05299999937415123, 0.03999999910593033]","[0.0, 0.0, -1.254665405963893]","[0.09518206864595413, 0.07538418471813202, 0.03999999910593033]","[0.0, 0.0, -1.0177419933055243]",1.1878990487229026,-15.677307965944074,"(0.0, 0.0, 0.0, 0.0, 0.0, 0.0)",2.675103284419244,-0.30950785045582774,-15.746552658294572,"(0.0, 0.0, 0.0, 0.0, 0.0, 0.0)",0.34074508229325023,-1.1891989368155058,15.711971648413485,"(0.0, 0.0, 0.0, 0.0, 0.0, 0.0)",-2.6822973218910153,0.30323153162132754,15.913921735312746,"(0.0, 0.0, 0.0, 0.0, 0.0, 0.0)",-0.34279935345822066,False,,,,,False,,,,
34,Close,,,"(0.010000989414132393, 0.1600158306125408, 0.020893621515273818)","(-0.00032319108508158773, 2.0199459787849396e-05, -3.2641426920478403e-09)",,"[-0.026750000193715096, 0.05299999937415123, 0.03999999910593033]","[0.0, -0.0, 1.1878990574339587]","[-0.09353619813919067, 0.07989988476037979, 0.03999999910593033]","[0.0, -0.0, 0.8783912846834516]","[0.026750000193715096, 0.05299999937415123, 0.03999999910593033]","[0.0, 0.0, -1.1891990098250689]","[0.09357111155986786, 0.07981304824352264, 0.03999999910593033]","[0.0, 0.0, -0.8859674697633095]",1.1291091438506125,-14.109577169349663,"(0.0, 0.0, 0.0, 0.0, 0.0, 0.0)",2.4103712722760626,-0.36855738916456426,-14.17188929009676,"(0.0, 0.0, 0.0, 0.0, 0.0, 0.0)",0.3085687115248564,-1.1302790431339553,14.140774483572143,"(0.0, 0.0, 0.0, 0.0, 0.0, 0.0)",-2.4168742890236286,0.36290870417903687,14.322521413850238,"(0.0, 0.0, 0.0, 0.0, 0.0, 0.0)",-0.31044204201279674,False,,,,,False,,,,
35,Close,,,"(0.010001154143305145, 0.16001846627704427, 0.023764738319401603)","(-0.00037702444213104407, 2.3564047280946926e-05, -4.4421109431381166e-09)",,"[-0.026750000193715096, 0.05299999937415123, 0.03999999910593033]","[0.0, -0.0, 1.1291090274464952]","[-0.09184028208255768, 0.08377750217914581, 0.03999999910593033]","[0.0, -0.0, 0.7605517150898052]","[0.026750000193715096, 0.05299999937415123, 0.03999999910593033]","[0.0, 0.0, -1.130279133319625]","[0.09187624603509903, 0.08370133489370346, 0.03999999910593033]","[0.0, 0.0, -0.7673703325611945]",1.0761982294655512,-12.698619452414698,"(0.0, 0.0, 0.0, 0.0, 0.0, 0.0)",2.1715845710489208,-0.42170194324014043,-12.754692978138287,"(0.0, 0.0, 0.0, 0.0, 0.0, 0.0)",0.27924932151422227,-1.07725113882056,12.72669703521493,"(0.0, 0.0, 0.0, 0.0, 0.0, 0.0)",-2.177460276301377,0.41661812854294633,12.890261847338277,"(0.0, 0.0, 0.0, 0.0, 0.0, 0.0)",-0.2809551529003472,False,,,,,False,,,,
36,Close,,,"(0.010001318826104761, 0.16002110119957821, 0.02646143576036139)","(-0.0004308487108156613, 2.692806668198511e-05, -5.800961497533997e-09)",,"[-0.026750000193715096, 0.05299999937415123, 0.03999999910593033]","[0.0, -0.0, 1.076198055145404]","[-0.09012148529291153, 0.08717681467533112, 0.03999999910593033]","[0.0, -0.0, 0.6544962762796218]","[0.026750000193715096, 0.05299999937415123, 0.03999999910593033]","[0.0, 0.0, -1.0772510781061955]","[0.09015743434429169, 0.08711007237434387, 0.03999999910593033]","[0.0, 0.0, -0.6606329452337051]",1.028578406518996,-11.428757507173229,"(0.0, 0.0, 0.0, 0.0, 0.0, 0.0)",1.9562489498726314,-0.46953201391559385,-11.479216962108818,"(0.0, 0.0, 0.0, 0.0, 0.0, 0.0)",0.2525697399559188,-1.0295260249385039,11.454027331693439,"(0.0, 0.0, 0.0, 0.0, 0.0, 0.0)",-1.961555706583625,0.46495658231577774,11.601228905479532,"(0.0, 0.0, 0.0, 0.0, 0.0, 0.0)",-0.25412105363877113,False,,,,,False,,,,
37,Close,,,"(0.010001483463693249, 0.1600237353987347, 0.0289837817534302)","(-0.0004846638926905951, 3.0291518078376737e-05, -7.3406026780539124e-09)",,"[-0.026750000193715096, 0.05299999937415123, 0.03999999910593033]","[0.0, -0.0, 1.028578444789276]","[-0.08842276781797409, 0.09015467017889023, 0.03999999910593033]","[0.0, -0.0, 0.5590464126725148]","[0.026750000193715096, 0.05299999937415123, 0.03999999910593033]","[0.0, 0.0, -1.029526007298545]","[0.08845794945955276, 0.09009620547294617, 0.03999999910593033]","[0.0, 0.0, -0.564569399435659]",0.9857205658670964,-10.285881756455906,"(0.0, 0.0, 0.0, 0.0, 0.0, 0.0)",1.7621005438122825,-0.5125790520819234,-10.331289159919107,"(0.0, 0.0, 0.0, 0.0, 0.0, 0.0)",0.22832149176550065,-0.9865734224446535,10.308624598524094,"(0.0, 0.0, 0.0, 0.0, 0.0, 0.0)",-1.766891708603882,0.508461165120635,10.441099873165749,"(0.0, 0.0, 0.0, 0.0, 0.0, 0.0)",-0.22973068702752517,False,,,,,False,,,,
38,Close,,,"(0.010001648057231211, 0.16002636889308344, 0.03133184175509247)","(-0.0005384699893107284, 3.3654401557527444e-05, -9.06094284338731e-09)",,"[-0.026750000193715096, 0.05299999937415123, 0.03999999910593033]","[0.0, -0.0, 0.9857205423734198]","[-0.08677425980567932, 0.09276290237903595, 0.03999999910593033]","[0.0, -0.0, 0.47314147483112123]","[0.026750000193715096, 0.05299999937415123, 0.03999999910593033]","[0.0, 0.0, -0.9865734261287252]","[0.08680814504623413, 0.09271169453859329, 0.03999999910593033]","[0.0, 0.0, -0.4781122693565934]",0.9471485092803869,-9.257293580810316,"(0.0, 0.0, 0.0, 0.0, 0.0, 0.0)",1.587086438141582,-0.5513213633331018,-9.29815470028281,"(0.0, 0.0, 0.0, 0.0, 0.0, 0.0)",0.206306403170868,-0.9479160802001881,9.277762138671687,"(0.0, 0.0, 0.0, 0.0, 0.0, 0.0)",-1.5914107042435905,0.5476152664096928,9.396984309373877,"(0.0, 0.0, 0.0, 0.0, 0.0, 0.0)",-0.2075852193448244,False,,,,,False,,,,
39,Close,,,"(0.01000181260787789, 0.16002900170117218, 0.03350567876675359)","(-0.00059226700223067, 3.7016717206835695e-05, -1.0961890388082131e-08)",,"[-0.026750000193715096, 0.05299999937415123, 0.03999999910593033]","[0.0, -0.0, 0.9471486716739237]","[-0.08519625663757324, 0.09504801034927368, 0.03999999910593033]","[0.0, -0.0, 0.39582717163487297]","[0.026750000193715096, 0.05299999937415123, 0.03999999910593033]","[0.0, 0.0, -0.9479160840165974]","[0.08522851020097733, 0.09500313550233841, 0.03999999910593033]","[0.0, 0.0, -0.4003008647547732]",0.9124336583523481,-8.331564222729286,"(0.0, 0.0, 0.0, 0.0, 0.0, 0.0)",1.4293465062267445,-0.5861894225076075,-8.368334201881392,"(0.0, 0.0, 0.0, 0.0, 0.0, 0.0)",0.18633757536892917,-0.9131244721801693,8.349985924804516,"(0.0, 0.0, 0.0, 0.0, 0.0, 0.0)",-1.433248242084051,0.5828539364930729,8.45728082001123,"(0.0, 0.0, 0.0, 0.0, 0.0, 0.0)",-0.18749704763631705,False,,,,,False,,,,
40,Close,,,"(0.010001977116791199, 0.1600316338415276, 0.035505353338314005)","(-0.0006460549330047555, 4.037846511369274e-05, -1.3043353742532214e-08)",,"[-0.026750000193715096, 0.05299999937415123, 0.03999999910593033]","[0.0, -0.0, 0.9124336635104583]","[-0.08370164036750793, 0.0970512256026268, 0.03999999910593033]","[0.0, -0.0, 0.3262442150321584]","[0.026750000193715096, 0.05299999937415123, 0.03999999910593033]","[0.0, 0.0, -0.9131245532476111]","[0.08373206108808517, 0.09701187163591385, 0.03999999910593033]","[0.0, 0.0, -0.3302705841133475]",0.8811902925171133,-7.498407800456356,"(0.0, 0.0, 0.0, 0.0, 0.0, 0.0)",1.2871965063691413,-0.6175706567763247,-7.531496224492115,"(0.0, 0.0, 0.0, 0.0, 0.0, 0.0)",0.16823988009592084,-0.8818120249621524,7.514987332324067,"(0.0, 0.0, 0.0, 0.0, 0.0, 0.0)",-1.2907160846573733,0.6145687204653795,7.61154815335357,"(0.0, 0.0, 0.0, 0.0, 0.0, 0.0)",-0.16929032064296096,False,,,,,False,,,,
41,Close,,,"(0.010002141585127773, 0.16003426533265583, 0.03733092357160428)","(-0.0006998337831870475, 4.3739645365482716e-05, -1.5305241372964883e-08)",,"[-0.026750000193715096, 0.05299999937415123, 0.03999999910593033]","[0.0, -0.0, 0.8811903688816151]","[-0.08229776471853256, 0.09880879521369934, 0.03999999910593033]","[0.0, -0.0, 0.2636196251065186]","[0.026750000193715096, 0.05299999937415123, 0.03999999910593033]","[0.0, 0.0, -0.8818121535754343]","[0.08232623338699341, 0.098774254322052, 0.03999999910593033]","[0.0, 0.0, -0.26724331826119446]",0.853071263265402,-6.7485670204107215,"(0.0, 0.0, 0.0, 0.0, 0.0, 0.0)",1.1591124175888132,-0.6458137504217961,-6.77834247491313,"(0.0, 0.0, 0.0, 0.0, 0.0, 0.0)",0.1518500972569631,-0.8536308224659371,6.763488599091658,"(0.0, 0.0, 0.0, 0.0, 0.0, 0.0)",-1.1622865309865396,0.643112008739745,6.850389185847702,"(0.0, 0.0, 0.0, 0.0, 0.0, 0.0)",-0.15280109527428076,False,,,,,False,,,,
42,Close,,,"(0.010002306014043007, 0.16003689619304312, 0.038982445123681576)","(-0.0007536035543313348, 4.7100258049582536e-05, -1.7747461781428295e-08)",,"[-0.026750000193715096, 0.05299999937415123, 0.03999999910593033]","[0.0, -0.0, 0.8530713239495782]","[-0.08098787814378738, 0.10035242885351181, 0.03999999910593033]","[0.0, -0.0, 0.2072574956851119]","[0.026750000193715096, 0.05299999937415123, 0.03999999910593033]","[0.0, 0.0, -0.8536307856313979]","[0.08101436495780945, 0.10032207518815994, 0.03999999910593033]","[0.0, 0.0, -0.21051882644475053]",0.8277641369388617,-6.073710318369648,"(0.0, 0.0, 0.0, 0.0, 0.0, 0.0)",1.043715976216214,-0.6712325191394197,-6.100504492229669,"(0.0, 0.0, 0.0, 0.0, 0.0, 0.0)",0.1370167890019201,-0.8282677402193435,6.0871397391824935,"(0.0, 0.0, 0.0, 0.0, 0.0, 0.0)",-1.0465779375227178,0.6688009525283538,6.165346509266115,"(0.0, 0.0, 0.0, 0.0, 0.0, 0.0)",-0.1378772244212715,False,,,,,False,,,,
43,Close,,,"(0.010002470404691093, 0.16003952644115657, 0.04045997120998789)","(-0.0008073642479911328, 5.0460303253361964e-05, -2.0369923505779015e-08)",,"[-0.026750000193715096, 0.05299999937415123, 0.03999999910593033]","[0.0, -0.0, 0.8277641182932235]","[-0.07977228611707687, 0.10170972347259521, 0.03999999910593033]","[0.0, -0.0, 0.1565316389415725]","[0.026750000193715096, 0.05299999937415123, 0.03999999910593033]","[0.0, 0.0, -0.8282677342123946]","[0.07979680597782135, 0.10168302059173584, 0.03999999910593033]","[0.0, 0.0, -0.1594667900835625]",0.8049877232449756,-5.4663392865326825,"(0.0, 0.0, 0.0, 0.0, 0.0, 0.0)",0.9397613626777375,-0.6941093969081942,-5.49045066450586,"(0.0, 0.0, 0.0, 0.0, 0.0, 0.0)",0.12359998406321729,-0.8054409661974091,5.478425765264244,"(0.0, 0.0, 0.0, 0.0, 0.0, 0.0)",-0.9423413878167864,0.6919209877745929,5.54880845909737,"(0.0, 0.0, 0.0, 0.0, 0.0, 0.0)",-0.12437805104754245,False,,,,,False,,,,
44,Close,,,"(0.010002634758225062, 0.1600421560954447, 0.041763552607370504)","(-0.000861115865719684, 5.381978106418352e-05, -2.3172535119669436e-08)",,"[-0.026750000193715096, 0.05299999937415123, 0.03999999910593033]","[0.0, -0.0, 0.8049877164750058]","[-0.07864919304847717, 0.10290464758872986, 0.03999999910593033]","[0.0, -0.0, 0.11087832859978779]","[0.026750000193715096, 0.05299999937415123, 0.03999999910593033]","[0.0, 0.0, -0.805440964305088]","[0.07867180556058884, 0.10288111865520477, 0.03999999910593033]","[0.0, 0.0, -0.11351997099607207]",0.784488950920478,-4.919705357879415,"(0.0, 0.0, 0.0, 0.0, 0.0, 0.0)",0.8461229797239068,-0.7146985741739192,-4.941402543774016,"(0.0, 0.0, 0.0, 0.0, 0.0, 0.0)",0.11147072977230046,-0.7848968695776682,4.93058318873782,"(0.0, 0.0, 0.0, 0.0, 0.0, 0.0)",-0.8484484528940599,0.7127290066915236,4.993924540063379,"(0.0, 0.0, 0.0, 0.0, 0.0, 0.0)",-0.1121739668696123,False,,,,,False,,,,
45,Close,,,"(0.010002799075796832, 0.16004478517433812, 0.04289323765696492)","(-0.0009148584090699577, 5.7178691569402595e-05, -2.615520523253533e-08)",,"[-0.026750000193715096, 0.05299999937415123, 0.03999999910593033]","[0.0, -0.0, 0.7844889896573499]","[-0.07761538028717041, 0.10395795851945877, 0.03999999910593033]","[0.0, -0.0, 0.06979037514545033]","[0.026750000193715096, 0.05299999937415123, 0.03999999910593033]","[0.0, 0.0, -0.7848969068252226]","[0.07763615995645523, 0.10393720120191574, 0.03999999910593033]","[0.0, 0.0, -0.07216786709232846]",0.7660400558284302,-4.427734822091471,"(0.0, 0.0, 0.0, 0.0, 0.0, 0.0)",0.7617842585328375,-0.7332288222135146,-4.44725952950288,"(0.0, 0.0, 0.0, 0.0, 0.0, 0.0)",0.10051055612556806,-0.7664071826199014,4.437524869864038,"(0.0, 0.0, 0.0, 0.0, 0.0, 0.0)",-0.7638799793048979,0.7314562121459494,4.494529309062177,"(0.0, 0.0, 0.0, 0.0, 0.0, 0.0)",-0.10114588070786824,False,,,,,False,,,,
46,Close,,,"(0.010002963358557236, 0.16004741369625017, 0.04384907226694074)","(-0.0009685918795946493, 6.053703485636736e-05, -2.9317842489583264e-08)",,"[-0.026750000193715096, 0.05299999937415123, 0.03999999910593033]","[0.0, -0.0, 0.7660400058439011]","[-0.07666666060686111, 0.10488764196634293, 0.03999999910593033]","[0.0, -0.0, 0.0328112365488731]","[0.026750000193715096, 0.05299999937415123, 0.03999999910593033]","[0.0, 0.0, -0.7664072421942376]","[0.07668570429086685, 0.1048693135380745, 0.03999999910593033]","[0.0, 0.0, -0.03495097036229706]",0.7494360502455871,-3.984961339882325,"(0.0, 0.0, 0.0, 0.0, 0.0, 0.0)",0.6858274268188955,-0.7499060350622873,-4.002531083705426,"(0.0, 0.0, 0.0, 0.0, 0.0, 0.0)",0.09061088591719418,-0.7497664643579113,3.9937723828776335,"(0.0, 0.0, 0.0, 0.0, 0.0, 0.0)",-0.6877158393779155,0.7483106866034595,4.045073869802414,"(0.0, 0.0, 0.0, 0.0, 0.0, 0.0)",-0.09118463108881669,False,,,,,False,,,,
47,Close,,,"(0.010003127607656072, 0.16005004167957756, 0.04463109991511072)","(-0.0010223162788461832, 6.389481101241881e-05, -3.266035557177819e-08)",,"[-0.026750000193715096, 0.05299999937415123, 0.03999999910593033]","[0.0, -0.0, 0.7494360616149593]","[-0.07579827308654785, 0.1057092696428299, 0.03999999910593033]","[0.0, 0.0, -0.00046998485639781964]","[0.026750000193715096, 0.05299999937415123, 0.03999999910593033]","[0.0, 0.0, -0.7497665229086657]","[0.07581568509340286, 0.10569305717945099, 0.03999999910593033]","[0.0, 0.0, -0.0014557777936095985]",0.7344924452210284,-3.5864652058940925,"(0.0, 0.0, 0.0, 0.0, 0.0, 0.0)",0.6173964503690262,-0.7649166300024903,-3.602542785648727,"(0.0, 0.0, 0.0, 0.0, 0.0, 0.0)",0.08164469448201127,-0.7347898179221202,3.594395144589871,"(0.0, 0.0, 0.0, 0.0, 0.0, 0.0)",-0.61909767957405,0.7634808239898891,3.6408329727431203,"(0.0, 0.0, 0.0, 0.0, 0.0, 0.0)",-0.08216247127692902,False,,,,,False,,,,
48,Close,,,"(0.010003291824242136, 0.16005266914270105, 0.04523936165140331)","(-0.0010760316083767074, 6.725202012489063e-05, -3.618265319583079e-08)",,"[-0.026750000193715096, 0.05299999937415123, 0.03999999910593033]","[0.0, -0.0, 0.7344924171356654]","[-0.07500515878200531, 0.10643631219863892, 0.03999999910593033]","[0.0, 0.0, -0.03042418292779103]","[0.026750000193715096, 0.05299999937415123, 0.03999999910593033]","[0.0, 0.0, -0.7347898072320369]","[0.07502105087041855, 0.10642196238040924, 0.03999999910593033]","[0.0, -0.0, 0.028691003185096618]",0.7210432006989256,-3.227818685304683,"(0.0, 0.0, 0.0, 0.0, 0.0, 0.0)",0.5558325671900768,-0.77842604750784,-3.2422602012839143,"(0.0, 0.0, 0.0, 0.0, 0.0, 0.0)",0.07360992294062317,-0.7213108361299082,3.234955630130884,"(0.0, 0.0, 0.0, 0.0, 0.0, 0.0)",-0.5573653507703412,0.7771338289584356,3.2767211924511668,"(0.0, 0.0, 0.0, 0.0, 0.0, 0.0)",-0.07407739542501454,False,,,,,False,,,,
49,Close,,,"(0.010003456009463264, 0.16005529610398603, 0.04567389610019914)","(-0.0011297378697381003, 7.060866228110946e-05, -3.988464411418517e-08)",,"[-0.026750000193715096, 0.05299999937415123, 0.03999999910593033]","[0.0, -0.0, 0.7210432248946826]","[-0.07428213953971863, 0.10708045959472656, 0.03999999910593033]","[0.0, 0.0, -0.05738284539856889]","[0.026750000193715096, 0.05299999937415123, 0.03999999910593033]","[0.0, 0.0, -0.7213108742429458]","[0.07429660856723785, 0.10706773400306702, 0.03999999910593033]","[0.0, -0.0, 0.0558229905847104]",0.708938880629033,-2.905036816774215,"(0.0, 0.0, 0.0, 0.0, 0.0, 0.0)",0.5003668258645501,-0.7905844163893876,-2.9180085315714246,"(0.0, 0.0, 0.0, 0.0, 0.0, 0.0)",0.06632913423961855,-0.7091797525169173,2.911460067117798,"(0.0, 0.0, 0.0, 0.0, 0.0, 0.0)",-0.5017475327577147,0.7894214258858812,2.9490232625869344,"(0.0, 0.0, 0.0, 0.0, 0.0, 0.0)",-0.06675089596581112,False,,,,,False,,,,
50,Close,,,"(0.010001644182078712, 0.16005595153396976, 0.045940321410535084)","(-0.0011271805217326655, 1.767785898679914e-05, -1.508889111938428e-08)",,"[-0.026750000193715096, 0.05299999937415123, 0.03999999910593033]","[0.0, -0.0, 0.7089389671526269]","[-0.07362406700849533, 0.10765182226896286, 0.03999999910593033]","[0.0, 0.0, -0.08164554069303018]","[0.026750000193715096, 0.05299999937415123, 0.03999999910593033]","[0.0, 0.0, -0.7091797033714331]","[0.0736372321844101, 0.10764053463935852, 0.03999999910593033]","[0.0, -0.0, 0.08024167743029369]",0.6980449925661297,-2.6145331350967917,"(0.0, 0.0, 0.0, 0.0, 0.0, 0.0)",0.4504252929298086,-0.8015268519725993,-2.6261845399708146,"(0.0, 0.0, 0.0, 0.0, 0.0, 0.0)",0.059761147909024356,-0.6982617772652256,2.6203140604060167,"(0.0, 0.0, 0.0, 0.0, 0.0, 0.0)",-0.4516689022418484,0.8004801661036254,2.6540976522586175,"(0.0, 0.0, 0.0, 0.0, 0.0, 0.0)",-0.06014157277442886,False,,,,,False,,,,
51,Close,,,"(0.009998458164918766, 0.16005543218265145, 0.046184544665354044)","(-0.001116587313714928, -4.731063982249702e-05, 3.3486629919706074e-09)",,"[-0.026750000193715096, 0.05299999937415123, 0.03999999910593033]","[0.0, -0.0, 0.6980450466292163]","[-0.07302592694759369, 0.10815921425819397, 0.03999999910593033]","[0.0, 0.0, -0.1034818592301779]","[0.026750000193715096, 0.05299999937415123, 0.03999999910593033]","[0.0, 0.0, -0.6982617371246688]","[0.07303788512945175, 0.10814917832612991, 0.03999999910593033]","[0.0, -0.0, 0.10221840210156648]",0.6882404933095168,-2.3530798215871136,"(0.0, 0.0, 0.0, 0.0, 0.0, 0.0)",0.40545980991383274,-0.8113749570468809,-2.3635452178275753,"(0.0, 0.0, 0.0, 0.0, 0.0, 0.0)",0.0538375991228723,-0.688435599538703,2.358282654365416,"(0.0, 0.0, 0.0, 0.0, 0.0, 0.0)",-0.4065798463491374,0.810432944800545,2.3886668872606847,"(0.0, 0.0, 0.0, 0.0, 0.0, 0.0)",-0.0541806611811555,False,,,,,False,,,,
52,Close,,,"(0.0099979269032565, 0.16005188637635104, 0.04640949954916324)","(-0.0010442772263960227, -5.814874739306873e-05, 7.787963860925158e-09)",,"[-0.026750000193715096, 0.05299999937415123, 0.03999999910593033]","[0.0, -0.0, 0.688240548987758]","[-0.07248289883136749, 0.10861026495695114, 0.03999999910593033]","[0.0, 0.0, -0.12313446206189271]","[0.026750000193715096, 0.05299999937415123, 0.03999999910593033]","[0.0, 0.0, -0.6884356086136862]","[0.07249374687671661, 0.10860133916139603, 0.03999999910593033]","[0.0, -0.0, 0.1219973374555316]",0.679416393078237,-2.117784055507141,"(0.0, 0.0, 0.0, 0.0, 0.0, 0.0)",0.3649762140031281,-0.8202374613421928,-2.12700103087486,"(0.0, 0.0, 0.0, 0.0, 0.0, 0.0)",0.04851286211734207,-0.6795919883598663,2.1224666829208143,"(0.0, 0.0, 0.0, 0.0, 0.0, 0.0)",-0.36598488497268467,0.8193896503204905,2.149609324786922,"(0.0, 0.0, 0.0, 0.0, 0.0, 0.0)",-0.04882227338805697,False,,,,,False,,,,
53,Close,,,"(0.009997966950406065, 0.16004795201914346, 0.046616050094935475)","(-0.0009640430328522325, -5.7324486097668704e-05, 4.2980615420070005e-09)",,"[-0.026750000193715096, 0.05299999937415123, 0.03999999910593033]","[0.0, -0.0, 0.6794163791618646]","[-0.07199041545391083, 0.10901165008544922, 0.03999999910593033]","[0.0, 0.0, -0.1408210743259801]","[0.026750000193715096, 0.05299999937415123, 0.03999999910593033]","[0.0, 0.0, -0.6795920181483843]","[0.07200025022029877, 0.1090037003159523, 0.03999999910593033]","[0.0, -0.0, 0.13979766167419433]",0.6714747537704133,-1.9059934338776885,"(0.0, 0.0, 0.0, 0.0, 0.0, 0.0)",0.3285291326313333,-0.8282143561304102,-1.914454749172182,"(0.0, 0.0, 0.0, 0.0, 0.0, 0.0)",0.043663125146434535,-0.6716327895238797,1.9102077206367922,"(0.0, 0.0, 0.0, 0.0, 0.0, 0.0)",-0.3294374536237565,0.8274513303019508,1.934803195550486,"(0.0, 0.0, 0.0, 0.0, 0.0, 0.0)",-0.043941831288343336,False,,,,,False,,,,
54,Close,,,"(0.009998107600018924, 0.16004411888380865, 0.0468059782297436)","(-0.0008858309445970004, -5.447527859797503e-05, 4.128601528647624e-08)",,"[-0.026750000193715096, 0.05299999937415123, 0.03999999910593033]","[0.0, -0.0, 0.6714747449539094]","[-0.07154417037963867, 0.10936915874481201, 0.03999999910593033]","[0.0, 0.0, -0.15673960659097733]","[0.026750000193715096, 0.05299999937415123, 0.03999999910593033]","[0.0, 0.0, -0.6716327690441329]","[0.07155308127403259, 0.10936208069324493, 0.03999999910593033]","[0.0, -0.0, 0.15581855230220754]",0.664327278393372,-1.7153940904899205,"(0.0, 0.0, 0.0, 0.0, 0.0, 0.0)",0.2957170811345372,-0.8353934979980445,-1.7229940482322428,"(0.0, 0.0, 0.0, 0.0, 0.0, 0.0)",0.03934112702889199,-0.6644695105714917,1.7191869485731137,"(0.0, 0.0, 0.0, 0.0, 0.0, 0.0)",-0.2965349881453131,0.8347067784412298,1.7413075534269409,"(0.0, 0.0, 0.0, 0.0, 0.0, 0.0)",-0.039592428071821256,False,,,,,False,,,,
55,Close,,,"(0.009998248644105466, 0.16004048002584464, 0.0469807018618576)","(-0.0008115684428503489, -5.1596750749095254e-05, 7.881188886077776e-08)",,"[-0.026750000193715096, 0.05299999937415123, 0.03999999910593033]","[0.0, -0.0, 0.6643273336690038]","[-0.07114013284444809, 0.10968788713216782, 0.03999999910593033]","[0.0, 0.0, -0.17106622141763456]","[0.026750000193715096, 0.05299999937415123, 0.03999999910593033]","[0.0, 0.0, -0.6644694779113771]","[0.07114819437265396, 0.10968156903982162, 0.03999999910593033]","[0.0, -0.0, 0.17023725548976373]",0.6578945505540348,-1.543854681440929,"(0.0, 0.0, 0.0, 0.0, 0.0, 0.0)",0.2661784897251144,-0.8418546682622772,-1.5506808634158242,"(0.0, 0.0, 0.0, 0.0, 0.0, 0.0)",0.03542959308904228,-0.6580225595143425,1.547268253715802,"(0.0, 0.0, 0.0, 0.0, 0.0, 0.0)",-0.26691494494593054,0.8412366239853526,1.567162930589489,"(0.0, 0.0, 0.0, 0.0, 0.0, 0.0)",-0.035656056287006674,False,,,,,False,,,,
56,Close,,,"(0.009998390752654573, 0.16003702894197389, 0.04714144752999396)","(-0.0007411380797103218, -4.869650481896534e-05, 1.1687517768299383e-07)",,"[-0.026750000193715096, 0.05299999937415123, 0.03999999910593033]","[0.0, -0.0, 0.6578945475257985]","[-0.07077455520629883, 0.1099722608923912, 0.03999999910593033]","[0.0, 0.0, -0.18396012465064338]","[0.026750000193715096, 0.05299999937415123, 0.03999999910593033]","[0.0, 0.0, -0.6580225896942233]","[0.07078184932470322, 0.10996662080287933, 0.03999999910593033]","[0.0, -0.0, 0.18321406389742323]",0.6521050954986313,-1.3894692132968354,"(0.0, 0.0, 0.0, 0.0, 0.0, 0.0)",0.23958744527110798,-0.8476696697618468,-1.395600359896693,"(0.0, 0.0, 0.0, 0.0, 0.0, 0.0)",0.031904902566438624,-0.6522203035629083,1.392541428344221,"(0.0, 0.0, 0.0, 0.0, 0.0, 0.0)",-0.24025052935853647,0.8471134329078756,1.410434141405507,"(0.0, 0.0, 0.0, 0.0, 0.0, 0.0)",-0.032108956045352514,False,,,,,False,,,,
57,Close,,,"(0.009998534235924597, 0.16003375955333046, 0.04728933347451534)","(-0.0006744157946989166, -4.576820860538318e-05, 1.554405829918684e-07)",,"[-0.026750000193715096, 0.05299999937415123, 0.03999999910593033]","[0.0, -0.0, 0.6521051450040646]","[-0.07044398784637451, 0.11022617667913437, 0.03999999910593033]","[0.0, 0.0, -0.19556454293122102]","[0.026750000193715096, 0.05299999937415123, 0.03999999910593033]","[0.0, 0.0, -0.6522203497730787]","[0.07045057415962219, 0.11022114753723145, 0.03999999910593033]","[0.0, -0.0, 0.19489313608724637]",0.6468945859487681,-1.250522291967151,"(0.0, 0.0, 0.0, 0.0, 0.0, 0.0)",0.2156503992603495,-0.8529031244958994,-1.2560291361726517,"(0.0, 0.0, 0.0, 0.0, 0.0, 0.0)",0.02872919688306315,-0.6469982732066174,1.253287285509799,"(0.0, 0.0, 0.0, 0.0, 0.0, 0.0)",-0.2162473971085442,0.8524025140258721,1.2693794683191757,"(0.0, 0.0, 0.0, 0.0, 0.0, 0.0)",-0.02891303657535659,False,,,,,False,,,,
58,Close,,,"(0.009998679410322496, 0.16003066597344334, 0.0474253884764576)","(-0.0006112814540129935, -4.2805404436077314e-05, 1.9447426774393396e-07)",,"[-0.026750000193715096, 0.05299999937415123, 0.03999999910593033]","[0.0, -0.0, 0.6468945636476681]","[-0.07014521211385727, 0.11045306921005249, 0.03999999910593033]","[0.0, 0.0, -0.20600854729134555]","[0.026750000193715096, 0.05299999937415123, 0.03999999910593033]","[0.0, 0.0, -0.6469982503054421]","[0.07015117257833481, 0.11044856905937195, 0.03999999910593033]","[0.0, -0.0, 0.20540423443750838]",0.6422051273538913,-1.125470062770436,"(0.0, 0.0, 0.0, 0.0, 0.0, 0.0)",0.1941029233168818,-0.8576131917611358,-1.1304161436567226,"(0.0, 0.0, 0.0, 0.0, 0.0, 0.0)",0.025868240883426936,-0.6422984458859556,1.1279585569588184,"(0.0, 0.0, 0.0, 0.0, 0.0, 0.0)",-0.19464040126091972,0.8571626447690798,1.1424313783698345,"(0.0, 0.0, 0.0, 0.0, 0.0, 0.0)",-0.026033851694478666,False,,,,,False,,,,
59,Move,,,"(0.009998826598722164, 0.16002774252192944, 0.04755055901421763)","(-0.0005516191299448554, -3.980150267197137e-05, 2.339437659612592e-07)","[0.0, 0.0, 0.0]","[-0.026750000193715096, 0.05299999937415123, 0.03999999910593033]","[0.0, -0.0, 0.6422051137296667]","[-0.0698753148317337, 0.11065594106912613, 0.03999999910593033]","[0.0, 0.0, -0.2154080556264429]","[0.026750000193715096, 0.05299999937415123, 0.03999999910593033]","[0.0, 0.0, -0.6422983956794274]","[0.06988069415092468, 0.1106519103050232, 0.03999999910593033]","[0.0, -0.0, 0.21486417441436167]",0.6379846146185022,-1.0129230564933929,"(0.0, 0.0, 0.0, 0.0, 0.0, 0.0)",0.17470684718642912,-0.8618522144704561,-1.0173654502368856,"(0.0, 0.0, 0.0, 0.0, 0.0, 0.0)",0.023291096758263134,-0.6380686012973601,1.0151627012629356,"(0.0, 0.0, 0.0, 0.0, 0.0, 0.0)",-0.1751907229705418,0.8614467243673204,1.02817910357775,"(0.0, 0.0, 0.0, 0.0, 0.0, 0.0)",-0.023440272040621463,False,,,,,True,"(0.04276013174954747, 0.17974174897294792, 0.02399995643463635)","(-0.9999999990838299, -1.9447426661030803e-07, -4.2805404423670755e-05)",0.0013234533115717422,0.0
60,Move,,,"(0.008699259039732246, 0.1597652061907072, 0.04782485533738502)","(0.0040480273580015685, 0.009650479713711625, 0.017575803187450934)","[-0.0012995675589899183, -0.00026253633122225173, 0.00027429632316738894]","[-0.026750000193715096, 0.05299999937415123, 0.03999999910593033]","[0.0, -0.0, 0.6379846501970732]","[-0.06963159143924713, 0.1108374372124672, 0.03999999910593033]","[0.0, 0.0, -0.22386762157269943]","[0.026750000193715096, 0.05299999937415123, 0.03999999910593033]","[0.0, 0.0, -0.638068602671057]","[0.06963644921779633, 0.11083383113145828, 0.03999999910593033]","[0.0, -0.0, 0.22337816170537766]",0.6141590059460926,-5.718146081378296,"(0.0, 0.0, 0.0, 0.0, 0.0, 0.0)",-6.715100343954984,-0.8614283121995241,0.10173654502368734,"(0.0, 0.0, 0.0, 0.0, 0.0, 0.0)",-0.3723637437215536,-0.6186765363685498,4.654095582914465,"(0.0, 0.0, 0.0, 0.0, 0.0, 0.0)",16.91452213543579,0.8602423878670417,-0.28904076006690205,"(0.0, 0.0, 0.0, 0.0, 0.0, 0.0)",7.026754130549747,False,,,,,True,"(0.041928616181162004, 0.17969877893574898, 0.023999959438538117)","(-0.9999999992078928, -2.3394376620903917e-07, -3.980150265941498e-05)",0.0004918567139684023,94.17969713248019
61,Move,,,"(0.006953428279101256, 0.15936555806379668, 0.04799883027777207)","(0.0036027003309908674, 0.011726089522938334, 0.045571805054608026)","[-0.0030453983196209082, -0.000662184458132764, 0.0004482712635544353]","[-0.026750000193715096, 0.05299999937415123, 0.03999999910593033]","[0.0, -0.0, 0.6141590305095613]","[-0.06824154406785965, 0.11184260249137878, 0.03999999910593033]","[0.0, 0.0, -0.24726930604170874]","[0.026750000193715096, 0.05299999937415123, 0.03999999910593033]","[0.0, 0.0, -0.6186765449450942]","[0.06850694119930267, 0.11165456473827362, 0.03999999910593033]","[0.0, -0.0, 0.24156588090171732]",0.5923752537221402,-5.228100533748595,"(0.0, 0.0, 0.0, 0.0, 0.0, 0.0)",0.6968351830029371,-0.8614707024266173,-0.010173654502368734,"(0.0, 0.0, 0.0, 0.0, 0.0, 0.0)",0.03860943376531379,-0.6008618977467228,4.275513269238477,"(0.0, 0.0, 0.0, 0.0, 0.0, 0.0)",3.1840553339598543,0.8603207379647874,0.018804023458970476,"(0.0, 0.0, 0.0, 0.0, 0.0, 0.0)",2.2071937117843152,False,,,,,True,"(0.03955126028332891, 0.18000420521160232, 0.023999959438538117)","(-0.9999999992078928, -2.3394376620903917e-07, -3.980150265941498e-05)",-4.69285261207243e-06,0.0
62,Move,,,"(0.005232479171843643, 0.15895611509417099, 0.04805192961782931)","(0.0015613319654504138, 0.011710638263295036, 0.07400765980182708)","[-0.004766347426878521, -0.0010716274277584592, 0.0005013706036116755]","[-0.026750000193715096, 0.05299999937415123, 0.03999999910593033]","[0.0, -0.0, 0.5923752994005711]","[-0.0669499859213829, 0.1127324104309082, 0.03999999910593033]","[0.0, 0.0, -0.2690954538189607]","[0.026750000193715096, 0.05299999937415123, 0.03999999910593033]","[0.0, 0.0, -0.6008619062673114]","[0.0674554631114006, 0.11238910257816315, 0.03999999910593033]","[0.0, -0.0, 0.2594588653702835]",0.5711748754471921,-5.088090785987531,"(0.0, 0.0, 0.0, 0.0, 0.0, 0.0)",0.20179723839696584,-0.8614666854136499,0.0009640831121563087,"(0.0, 0.0, 0.0, 0.0, 0.0, 0.0)",0.015124512099487388,-0.5830478441846109,4.27537285490686,"(0.0, 0.0, 0.0, 0.0, 0.0, 0.0)",-0.00040728805220429705,0.8603129289032243,-0.001874174775147154,"(0.0, 0.0, 0.0, 0.0, 0.0, 0.0)",-0.0017677334094061982,False,,,,,True,"(0.03728150083157586, 0.18020972647077313, 0.023999959438538117)","(-0.9999999992078928, -2.3394376620903917e-07, -3.980150265941498e-05)",0.00010136561290409651,0.0
63,Move,,,"(0.003536438132730313, 0.15853702184869162, 0.04798413986117641)","(-0.002178499075898401, 0.009685758062407228, 0.10285468498251224)","[-0.006462388465991851, -0.0014907206732378275, 0.0004335808469587768]","[-0.026750000193715096, 0.05299999937415123, 0.03999999910593033]","[0.0, -0.0, 0.5711748797881039]","[-0.06567469984292984, 0.1135711818933487, 0.03999999910593033]","[0.0, 0.0, -0.2902918330000066]","[0.026750000193715096, 0.05299999937415123, 0.03999999910593033]","[0.0, 0.0, -0.5830479010023177]","[0.06639109551906586, 0.11310476809740067, 0.03999999910593033]","[0.0, -0.0, 0.2772650915613622]",0.5507922484404775,-4.891830481611522,"(0.0, 0.0, 0.0, 0.0, 0.0, 0.0)",0.282294284049585,-0.8614673765775518,-0.00016587933645189224,"(0.0, 0.0, 0.0, 0.0, 0.0, 0.0)",0.019719768305812027,-0.565275293151566,4.265412247930778,"(0.0, 0.0, 0.0, 0.0, 0.0, 0.0)",-0.012306804327906049,0.8603137161198487,0.00018893198985979812,"(0.0, 0.0, 0.0, 0.0, 0.0, 0.0)",-0.0004299034376783175,False,,,,,True,"(0.035014354147368115, 0.18037738642755824, 0.023999959438538117)","(-0.9999999992078928, -2.3394376620903917e-07, -3.980150265941498e-05)",0.0001657852207818292,0.0
64,Move,,,"(0.0033070809685918903, 0.15939336139403074, 0.0480245948749005)","(-0.003221721649284341, 0.008758192496794307, 0.10007245081902345)","[-0.006691745630130274, -0.0006343811278987088, 0.00047403586068286985]","[-0.026750000193715096, 0.05299999937415123, 0.03999999910593033]","[0.0, -0.0, 0.5507922756468575]","[-0.06443209946155548, 0.11435192823410034, 0.03999999910593033]","[0.0, 0.0, -0.31067510738133]","[0.026750000193715096, 0.05299999937415123, 0.03999999910593033]","[0.0, 0.0, -0.5652752430676895]","[0.06531667709350586, 0.11379976570606232, 0.03999999910593033]","[0.0, -0.0, 0.2950384296353975]",0.5330621314256022,-4.255228083570051,"(0.0, 0.0, 0.0, 0.0, 0.0, 0.0)",-63.6841566907319,-0.833899768100212,6.616226034561552,"(0.0, 0.0, 0.0, 0.0, 0.0, 0.0)",-32.0033096547166,-0.5494184347075574,3.805646026562078,"(0.0, 0.0, 0.0, 0.0, 0.0, 0.0)",54.08522476914028,0.834294882877888,-6.244519978070589,"(0.0, 0.0, 0.0, 0.0, 0.0, 0.0)",25.974823871813367,True,"(-0.030827226021807298, 0.18072875671023755, 0.023990313633420805)","(0.9946684597633704, 0.10266861339458756, -0.009685606619977753)",0.00023266339136997558,510.2877732171601,True,"(0.03274929454054999, 0.18050411530517568, 0.023999959438538117)","(-0.9999999992078928, -2.3394376620903917e-07, -3.980150265941498e-05)",0.00018643181396489492,418.4587664295024
65,Move,"(-0.0011, 0.0, 0.0014)","(0.0, 0.01321039710834508, 0.0)","(0.0031969503873777684, 0.16028143882127593, 0.048054583489053525)","(-0.004372781608329888, 0.007939463136719069, 0.09861198334618497)","[-0.006801876211344396, 0.00025369629934648974, 0.0005040244748358916]","[-0.026750000193715096, 0.05299999937415123, 0.03999999910593033]","[0.0, -0.0, 0.5330621158171134]","[-0.06333845853805542, 0.11501035839319229, 0.03999999910593033]","[0.0, 0.0, -0.30083767855036603]","[0.026750000193715096, 0.05299999937415123, 0.03999999910593033]","[0.0, 0.0, -0.549418426545043]","[0.0643477737903595, 0.11440364271402359, 0.03999999910593033]","[0.0, -0.0, 0.2848764361199625]",0.5161701590322703,-4.054073374399667,"(0.0, 0.0, 0.0, 0.0, 0.0, 0.0)",-68.88180562685734,-0.8061093417891989,6.669702314643141,"(0.0, 0.0, 0.0, 0.0, 0.0, 0.0)",-35.756361121383094,-0.5337544439677235,3.7593577775601132,"(0.0, 0.0, 0.0, 0.0, 0.0, 0.0)",68.77952387616044,0.8075007011486295,-6.430603615022057,"(0.0, 0.0, 0.0, 0.0, 0.0, 0.0)",33.85011913137436,True,"(-0.030386831991674287, 0.18170201039644102, 0.02399124115951112)","(0.9949587688124035, 0.09990167360330966, -0.008758080529661552)",-0.0003521033588324185,534.8399967547618,True,"(0.03245991098360225, 0.1814354915724969, 0.023999959438538117)","(-0.9999999992078928, -2.3394376620903917e-07, -3.980150265941498e-05)",3.895377007335016e-05,524.277520594291
66,Move,"(-0.0012, 0.0, 0.0023)","(0.0, 0.03511427922087392, 0.0)","(0.00308108664567153, 0.1610940768959463, 0.048062898952773506)","(-0.004764130897596771, 0.004333243935854365, 0.09509074613500586)","[-0.006917739953050634, 0.0010663343740168474, 0.0005123399385558725]","[-0.026750000193715096, 0.05299999937415123, 0.03999999910593033]","[0.0, -0.0, 0.5161702079325045]","[-0.062285806983709335, 0.11561953276395798, 0.03999999910593033]","[0.0, 0.0, -0.28993919682770425]","[0.026750000193715096, 0.05299999937415123, 0.03999999910593033]","[0.0, 0.0, -0.5337544427276155]","[0.0633813738822937, 0.11498501896858215, 0.03999999910593033]","[0.0, -0.0, 0.27374624928461355]",0.5168828788640224,0.17105275962050737,"(0.0, 0.0, 0.0, 0.0, 0.0, 0.0)",5.291129240347299,-0.8088863852960162,-0.6664904416361379,"(0.0, 0.0, 0.0, 0.0, 0.0, 0.0)",-0.36698901774937875,-0.5364964087993502,-0.6580715595904096,"(0.0, 0.0, 0.0, 0.0, 0.0, 0.0)",-5.677679279806111,0.8101801193215553,0.6430603615022044,"(0.0, 0.0, 0.0, 0.0, 0.0, 0.0)",0.2755607778037951,True,"(-0.03006166347399304, 0.18265404950541297, 0.023992059860314583)","(0.9951104129424696, 0.09844913561342714, -0.007939379726199769)",-0.0007346128178897825,0.6073125547259738,True,"(0.032241548852435555, 0.18236762460912842, 0.023999959438538117)","(-0.9999999992078928, -2.3394376620903917e-07, -3.980150265941498e-05)",-0.00012424112725224057,0.0
67,Move,"(-0.0017, 0.0, 0.003)","(0.0, 0.07426375967235874, 0.0)","(0.0029487804905008537, 0.16185956324505252, 0.04799718349903875)","(-0.0045324624210314555, -0.0008031411270332319, 0.09063865067595285)","[-0.007050046108221311, 0.0018318207231230732, 0.00044662448482111344]","[-0.026750000193715096, 0.05299999937415123, 0.03999999910593033]","[0.0, -0.0, 0.5168829046076575]","[-0.06233042851090431, 0.11559419333934784, 0.03999999910593033]","[0.0, 0.0, -0.29200351675625696]","[0.026750000193715096, 0.05299999937415123, 0.03999999910593033]","[0.0, 0.0, -0.5364963965420906]","[0.06355120241641998, 0.11488433927297592, 0.03999999910593033]","[0.0, -0.0, 0.27368374138580276]",0.5160116891167308,-0.20908553934998417,"(0.0, 0.0, 0.0, 0.0, 0.0, 0.0)",-0.4757476334874113,-0.8086088556807589,0.06660710766175926,"(0.0, 0.0, 0.0, 0.0, 0.0, 0.0)",0.036626117772998325,-0.5374390432854774,-0.22623227667053403,"(0.0, 0.0, 0.0, 0.0, 0.0, 0.0)",0.5533418305618506,0.8099122075123948,-0.0642988341985189,"(0.0, 0.0, 0.0, 0.0, 0.0, 0.0)",-0.028600608864502088,True,"(-0.029967811044973647, 0.18256059459511653, 0.023995666009665805)","(0.9954729346626957, 0.09494661378141692, -0.0043332303749764375)",-0.0006801789544163262,0.0,True,"(0.03241558628679021, 0.1822688973336458, 0.023999959438538117)","(-0.9999999992078928, -2.3394376620903917e-07, -3.980150265941498e-05)",3.472428180990087e-08,0.0
68,Move,"(-0.0028, 0.0, 0.0039)","(0.0, 0.1183525219069875, 0.0)","(0.0029842424151238106, 0.16240212538046123, 0.04806742189229183)","(-0.003838495897158886, -0.0008057831794593171, 0.08935514738484901)","[-0.007014584183598354, 0.0023743828585317817, 0.0005168628780741966]","[-0.026750000193715096, 0.05299999937415123, 0.03999999910593033]","[0.0, -0.0, 0.5160116645748286]","[-0.06227588281035423, 0.11562516540288925, 0.03999999910593033]","[0.0, 0.0, -0.2925971977712862]","[0.026750000193715096, 0.05299999937415123, 0.03999999910593033]","[0.0, 0.0, -0.5374389746726185]","[0.0636095181107521, 0.11484962701797485, 0.03999999910593033]","[0.0, -0.0, 0.27247316031575586]",0.5152559171314653,-0.18138527646370922,"(0.0, 0.0, 0.0, 0.0, 0.0, 0.0)",-1.8181240167119799,-0.8081180183131911,0.11780096821628946,"(0.0, 0.0, 0.0, 0.0, 0.0, 0.0)",-1.0199794004372014,-0.5381553754658012,-0.17191972327769525,"(0.0, 0.0, 0.0, 0.0, 0.0, 0.0)",0.5266645062659372,0.8094973494675519,-0.09956593076227763,"(0.0, 0.0, 0.0, 0.0, 0.0, 0.0)",0.27690617456644995,True,"(-0.029873516552662155, 0.18257234394717198, 0.023995666009665805)","(0.9954729346626957, 0.09494661378141692, -0.0043332303749764375)",-0.0005997705138273173,11.177345729916366,True,"(0.03264475692208158, 0.1811349915977945, 0.05600433399033419)","(-0.9954729346626966, -0.09494661378140914, 0.004333230374975362)",-0.0001141496053523809,3.674172014225886
69,Move,"(-0.0073, 0.0, 0.0081)","(0.0, 0.14557267692109105, 0.0)","(0.0029966111808097376, 0.1628264797231503, 0.04810635106851587)","(-0.0023923266902359597, -0.000740161072193435, 0.08801149941538518)","[-0.007002215417912427, 0.002798737201220869, 0.0005557920542982389]","[-0.026750000193715096, 0.05299999937415123, 0.03999999910593033]","[0.0, -0.0, 0.5152559185469087]","[-0.06222854554653168, 0.11565199494361877, 0.03999999910593033]","[0.0, 0.0, -0.2928620980619573]","[0.026750000193715096, 0.05299999937415123, 0.03999999910593033]","[0.0, 0.0, -0.5381553982346177]","[0.06365381181240082, 0.11482320725917816, 0.03999999910593033]","[0.0, -0.0, 0.27134196438608943]",0.5148535935778442,-0.09655765286906581,"(0.0, 0.0, 0.0, 0.0, 0.0, 0.0)",-0.42495882088138065,-0.8078760922751552,0.05806224912859744,"(0.0, 0.0, 0.0, 0.0, 0.0, 0.0)",-0.29665197601762033,-0.5386666615144171,-0.1227086516678233,"(0.0, 0.0, 0.0, 0.0, 0.0, 0.0)",0.7216553796893772,0.8092159084958664,-0.06754583320451113,"(0.0, 0.0, 0.0, 0.0, 0.0, 0.0)",0.40252839435945,True,"(-0.02980798450441896, 0.1825857330568178, 0.05600080654305147)","(0.9960101610014516, 0.08923625886079531, 0.0008057830922532965)",-0.0005831111086824504,4.127046682460008,True,"(0.032764053492681314, 0.18114355669125157, 0.05600433399033419)","(-0.9954729346626966, -0.09494661378140914, 0.004333230374975362)",-0.00010278470026396198,5.270923107079071
70,Move,"(-0.009800000000000001, 0.0, 0.0092)","(0.0, 0.13193991013376333, 0.0)","(0.002955201290065867, 0.16319395039696277, 0.048057428294004174)","(-0.000701549542522392, 0.0017590555675748153, 0.08835650691987151)","[-0.007043625308656298, 0.003166207875033328, 0.0005068692797865412]","[-0.026750000193715096, 0.05299999937415123, 0.03999999910593033]","[0.0, -0.0, 0.5148535703655615]","[-0.062203336507081985, 0.11566627025604248, 0.03999999910593033]","[0.0, 0.0, -0.2930224767340704]","[0.026750000193715096, 0.05299999937415123, 0.03999999910593033]","[0.0, 0.0, -0.5386666614166902]","[0.06368541717529297, 0.11480432748794556, 0.03999999910593033]","[0.0, -0.0, 0.27054925995406937]",0.5154886614894145,0.152416298776882,"(0.0, 0.0, 0.0, 0.0, 0.0, 0.0)",0.354800363094865,-0.8079002848789588,-0.005806224912860536,"(0.0, 0.0, 0.0, 0.0, 0.0, 0.0)",0.019214182941520688,-0.5381425950474067,0.1257759520825014,"(0.0, 0.0, 0.0, 0.0, 0.0, 0.0)",0.8774297908510162,0.8092183722089641,0.000591291143442127,"(0.0, 0.0, 0.0, 0.0, 0.0, 0.0)",0.3395949136221547,True,"(-0.02977193491837698, 0.1825936221975673, 0.05600074092096383)","(0.99612921451793, 0.08789789613852574, 0.0007401610046060615)",-0.000538627364862481,0.0,True,"(0.03284787808149548, 0.18115307449559476, 0.02399925907903617)","(-0.9961292145179304, -0.08789789613852095, -0.0007401610046024277)",-0.00010825505124319332,4.131721257183023
71,Move,"(-0.008199999999999999, 0.0, 0.0114)","(0.0, 0.10481400289926746, 0.0)","(0.002788557590850905, 0.16338962983368693, 0.04806875837678458)","(0.001427119621299364, 0.001621215888594948, 0.0857269637696884)","[-0.007210269007871259, 0.003361887311757489, 0.0005181993625669457]","[-0.026750000193715096, 0.05299999937415123, 0.03999999910593033]","[0.0, -0.0, 0.5154887412333972]","[-0.06224312633275986, 0.11564373970031738, 0.03999999910593033]","[0.0, 0.0, -0.2924116023132504]","[0.026750000193715096, 0.05299999937415123, 0.03999999910593033]","[0.0, 0.0, -0.5381426682378716]","[0.06365302205085754, 0.11482367664575577, 0.03999999910593033]","[0.0, -0.0, 0.27107576542588513]",0.516641618611943,0.2767097094068367,"(0.0, 0.0, 0.0, 0.0, 0.0, 0.0)",0.18114633117069245,-0.8078978656185785,0.00058062249128632,"(0.0, 0.0, 0.0, 0.0, 0.0, 0.0)",0.013568172873129078,-0.5372733524629927,0.20861822025935947,"(0.0, 0.0, 0.0, 0.0, 0.0, 0.0)",1.3152923388797475,0.809037974720224,-0.04329539729762537,"(0.0, 0.0, 0.0, 0.0, 0.0, 0.0)",0.7199027719660762,True,"(-0.029852615419005933, 0.1825908933393441, 0.05600074092096383)","(0.99612921451793, 0.08789789613852574, 0.0007401610046060615)",-0.0004548053903329981,0.0,True,"(0.032780553093859174, 0.18115617652981986, 0.02399925907903617)","(-0.9961292145179304, -0.08789789613852095, -0.0007401610046024277)",-0.00010031304933567658,8.638883255629919
72,Move,"(-0.0096, 0.0, 0.0127)","(0.0, 0.09629156016177917, 0.0)","(0.0026954148917063105, 0.1634886312664496, 0.048142466985740366)","(0.0015540356424729536, 0.001250569327005014, 0.08491557165743027)","[-0.007303411707015854, 0.003460888744520163, 0.0005919079715227329]","[-0.026750000193715096, 0.05299999937415123, 0.03999999910593033]","[0.0, -0.0, 0.5166416389102596]","[-0.06231532618403435, 0.1156027764081955, 0.03999999910593033]","[0.0, 0.0, -0.29125624728391475]","[0.026750000193715096, 0.05299999937415123, 0.03999999910593033]","[0.0, 0.0, -0.5372733974122057]","[0.06359926611185074, 0.11485572904348373, 0.03999999910593033]","[0.0, -0.0, 0.27176461884155473]",0.5174104595078634,0.18452181502087953,"(0.0, 0.0, 0.0, 0.0, 0.0, 0.0)",-0.20523982968954624,-0.8078966650024525,0.00028814787023929403,"(0.0, 0.0, 0.0, 0.0, 0.0, 0.0)",-0.047580246658758346,-0.5369634798956988,0.07436941615054146,"(0.0, 0.0, 0.0, 0.0, 0.0, 0.0)",-0.18990307616729563,0.809056014469098,0.004329539729762466,"(0.0, 0.0, 0.0, 0.0, 0.0, 0.0)",-0.00898865766403778,True,"(-0.030002188120155954, 0.18258730819844943, 0.05600074092096383)","(0.99612921451793, 0.08789789613852574, 0.0007401610046060615)",-0.00039592355000076613,0.547153610067702,True,"(0.032681113897716996, 0.18116694876307154, 0.02399925907903617)","(-0.9961292145179304, -0.08789789613852095, -0.0007401610046024277)",-9.429065005908136e-05,0.0
73,Move,"(-0.0137, 0.0, 0.0136)","(0.0, 0.09629156016177917, 0.0)","(0.0026147145916463233, 0.16353511142623717, 0.04821019631226397)","(0.0014324981256754958, 0.0011482430121376762, 0.08482654007804169)","[-0.007384112007075842, 0.0035073689043077227, 0.0006596372980463353]","[-0.026750000193715096, 0.05299999937415123, 0.03999999910593033]","[0.0, -0.0, 0.5174104608969426]","[-0.06236344948410988, 0.115575410425663, 0.03999999910593033]","[0.0, 0.0, -0.29048623601843204]","[0.026750000193715096, 0.05299999937415123, 0.03999999910593033]","[0.0, 0.0, -0.5369634901981338]","[0.06358010321855545, 0.11486714333295822, 0.03999999910593033]","[0.0, -0.0, 0.2720925389129744]",0.5185093611524605,0.263736394703324,"(0.0, 0.0, 0.0, 0.0, 0.0, 0.0)",0.11501478894420317,-0.807896785064065,-2.8814787023101474e-05,"(0.0, 0.0, 0.0, 0.0, 0.0, 0.0)",0.00819375561116547,-0.5363928557851964,0.13694978652058398,"(0.0, 0.0, 0.0, 0.0, 0.0, 0.0)",0.5989628821872399,0.8089850646363443,-0.017027959860880213,"(0.0, 0.0, 0.0, 0.0, 0.0, 0.0)",0.2880011094107279,True,"(-0.03010189962380188, 0.18258480821666653, 0.05600074092096383)","(0.99612921451793, 0.08789789613852574, 0.0007401610046060615)",-0.0003650353578854649,0.0,True,"(0.03264020213232943, 0.18116822236196156, 0.02399925907903617)","(-0.9961292145179304, -0.08789789613852095, -0.0007401610046024277)",-7.255647275354765e-05,4.0445149181035
74,Move,"(-0.012199999999999999, 0.0, 0.0148)","(0.0, 0.08774468281476293, 0.0)","(0.0024456217600761776, 0.16354529163969841, 0.04827257233572381)","(0.0013156858499384, 0.0010612540512765691, 0.08600571916986098)","[-0.007553204838645987, 0.00351754911776897, 0.0007220133215061764]","[-0.026750000193715096, 0.05299999937415123, 0.03999999910593033]","[0.0, -0.0, 0.5185093919777443]","[-0.062432192265987396, 0.11553624272346497, 0.03999999910593033]","[0.0, 0.0, -0.2893874121378378]","[0.026750000193715096, 0.05299999937415123, 0.03999999910593033]","[0.0, 0.0, -0.5363928623147566]","[0.06354479491710663, 0.11488815397024155, 0.03999999910593033]","[0.0, -0.0, 0.2725922239721477]",0.5204880322906068,0.4748810731551183,"(0.0, 0.0, 0.0, 0.0, 0.0, 0.0)",0.3066040597584293,-0.8078967730579037,2.8814787009778797e-06,"(0.0, 0.0, 0.0, 0.0, 0.0, 0.0)",0.02192692961451374,-0.5349425905695088,0.3480636517650326,"(0.0, 0.0, 0.0, 0.0, 0.0, 0.0)",1.727551571625061,0.8088999025416523,-0.020438902726073762,"(0.0, 0.0, 0.0, 0.0, 0.0, 0.0)",0.8112786138172982,True,"(-0.030244290480647022, 0.18258104270255193, 0.05600074092096383)","(0.99612921451793, 0.08789789613852574, 0.0007401610046060615)",-0.0002979290290757788,0.0,True,"(0.032571768174353324, 0.1811737602842637, 0.02399925907903617)","(-0.9961292145179304, -0.08789789613852095, -0.0007401610046024277)",-6.783400818524537e-05,10.848851133867992
75,Move,"(-0.0137, 0.0, 0.0158)","(0.0, 0.08280714636087097, 0.0)","(0.0023119551925339854, 0.16353903259700567, 0.04832993342535414)","(0.001763719002713818, 0.00042296108859645013, 0.08658981553547734)","[-0.007686871406188179, 0.0035112900750762233, 0.0007793744111365061]","[-0.026750000193715096, 0.05299999937415123, 0.03999999910593033]","[0.0, -0.0, 0.5204880613718447]","[-0.06255585700273514, 0.11546551436185837, 0.03999999910593033]","[0.0, 0.0, -0.2874087471768833]","[0.026750000193715096, 0.05299999937415123, 0.03999999910593033]","[0.0, 0.0, -0.5349426358771419]","[0.0634550005197525, 0.11494144797325134, 0.03999999910593033]","[0.0, -0.0, 0.27395732313581406]",0.5220259648496706,0.3691038141752889,"(0.0, 0.0, 0.0, 0.0, 0.0, 0.0)",-0.1534385077603759,-0.8078967742585199,-2.8814787089714516e-07,"(0.0, 0.0, 0.0, 0.0, 0.0, 0.0)",-0.010968420183800334,-0.5339688398694408,0.2337001680163236,"(0.0, 0.0, 0.0, 0.0, 0.0, 0.0)",0.22986572013759987,0.8088905065886446,-0.0022550287218524243,"(0.0, 0.0, 0.0, 0.0, 0.0, 0.0)",0.20529756532872004,True,"(-0.030500682547986407, 0.18257387537635594, 0.05600074092096383)","(0.99612921451793, 0.08789789613852574, 0.0007401610046060615)",-0.00023677619762651055,0.0,True,"(0.032391517473648344, 0.18118471426860272, 0.02399925907903617)","(-0.9961292145179304, -0.08789789613852095, -0.0007401610046024277)",-6.257159362682561e-05,3.1071102285462042
76,Move,"(-0.0152, 0.0, 0.017)","(0.0, 0.06938556441303458, 0.0)","(0.0021522934630098414, 0.16351760763670917, 0.048382662677972366)","(0.0021199669573485937, -0.00010881532281528375, 0.0878214927408281)","[-0.007846533135712323, 0.003489865114779722, 0.0008321036637547324]","[-0.026750000193715096, 0.05299999937415123, 0.03999999910593033]","[0.0, -0.0, 0.5220259584186591]","[-0.06265188753604889, 0.11541037261486053, 0.03999999910593033]","[0.0, 0.0, -0.2858708241255207]","[0.026750000193715096, 0.05299999937415123, 0.03999999910593033]","[0.0, 0.0, -0.5339688819652384]","[0.06339466571807861, 0.1149771586060524, 0.03999999910593033]","[0.0, -0.0, 0.27492169190403726]",0.5238856305015553,0.4463197564523575,"(0.0, 0.0, 0.0, 0.0, 0.0, 0.0)",0.11219587885127681,-0.8078967741384583,2.881478788907882e-08,"(0.0, 0.0, 0.0, 0.0, 0.0, 0.0)",0.008024176809740297,-0.5326674793672904,0.3123265205160918,"(0.0, 0.0, 0.0, 0.0, 0.0, 0.0)",1.0107230524627342,0.8088609135673991,-0.007102325098927473,"(0.0, 0.0, 0.0, 0.0, 0.0, 0.0)",0.4981420147972914,True,"(-0.030699953834920704, 0.1825679538070554, 0.05600074092096383)","(0.99612921451793, 0.08789789613852574, 0.0007401610046060615)",-0.00018974042213070174,0.0,True,"(0.032267316998981034, 0.18119043940160018, 0.02399925907903617)","(-0.9961292145179304, -0.08789789613852095, -0.0007401610046024277)",-5.839832366428205e-05,7.076260464854073
77,Move,"(-0.0165, 0.0, 0.0184)","(0.0, 0.05603030497677396, 0.0)","(0.0019815572913829634, 0.16350493308075426, 0.04843122083728303)","(0.001949838856849086, -9.904981641889159e-05, 0.08967296150735321)","[-0.008017269307339201, 0.003477190558824811, 0.0008806618230653984]","[-0.026750000193715096, 0.05299999937415123, 0.03999999910593033]","[0.0, -0.0, 0.5238856615798351]","[-0.0627678856253624, 0.11534349620342255, 0.03999999910593033]","[0.0, 0.0, -0.28401114861862303]","[0.026750000193715096, 0.05299999937415123, 0.03999999910593033]","[0.0, 0.0, -0.5326675153680315]","[0.06331398338079453, 0.11502479761838913, 0.03999999910593033]","[0.0, -0.0, 0.27619343810000163]",0.5260132964019562,0.5106398160961998,"(0.0, 0.0, 0.0, 0.0, 0.0, 0.0)",0.09349578906076209,-0.8078967741504645,-2.881479055357681e-09,"(0.0, 0.0, 0.0, 0.0, 0.0, 0.0)",0.006687908721291352,-0.531109922641912,0.37381361409082375,"(0.0, 0.0, 0.0, 0.0, 0.0, 0.0)",0.8080776730847111,0.8088244329344941,-0.008755351897197968,"(0.0, 0.0, 0.0, 0.0, 0.0, 0.0)",0.40744506376600553,True,"(-0.030940050483789033, 0.1825512221426244, 0.05600010957528182)","(0.9961461646893649, 0.0877086468593275, 0.00010881532259834152)",-0.00014243006075661125,0.0,True,"(0.032101919737353754, 0.1812042447018768, 0.023999890424718177)","(-0.9961461646893649, -0.08770864685932744, -0.00010881532259751659)",-5.417696352752863e-05,5.474659445040655
78,Move,"(-0.0198, 0.0, 0.019)","(0.0, 0.025689501260104535, 0.0)","(0.0017892120105682079, 0.1634886858345049, 0.04847588568968121)","(0.0017931640537501583, -8.98329432888898e-05, 0.09175121961533586)","[-0.008209614588153957, 0.0034609433125754596, 0.000925326675463578]","[-0.026750000193715096, 0.05299999937415123, 0.03999999910593033]","[0.0, -0.0, 0.5260132247987906]","[-0.06290044635534286, 0.11526672542095184, 0.03999999910593033]","[0.0, 0.0, -0.2818834446939762]","[0.026750000193715096, 0.05299999937415123, 0.03999999910593033]","[0.0, 0.0, -0.5311100294384155]","[0.06321732699871063, 0.11508166790008545, 0.03999999910593033]","[0.0, -0.0, 0.2777145475681613]",0.5283441714372754,0.5594100084766191,"(0.0, 0.0, 0.0, 0.0, 0.0, 0.0)",0.07093957354313765,-0.8078967741492639,2.8814817198963283e-10,"(0.0, 0.0, 0.0, 0.0, 0.0, 0.0)",0.005075936014235275,-0.5293472892844944,0.4230320057802342,"(0.0, 0.0, 0.0, 0.0, 0.0, 0.0)",0.8968000276890152,0.8087803061085582,-0.0105904382246309,"(0.0, 0.0, 0.0, 0.0, 0.0, 0.0)",0.46812255365418554,True,"(-0.0312156577353897, 0.18254173880093352, 0.05600009980977549)","(0.9959820686103469, 0.08955282907752374, 9.904981626097249e-05)",-7.871870628955034e-05,0.0,True,"(0.03190466998751668, 0.18121323838700737, 0.02399990019022452)","(-0.9959820686103468, -0.08955282907752597, -9.904981625314605e-05)",-5.070749296593983e-05,6.317597881033748
79,Move,"(-0.0179, 0.0, 0.0211)","(0.0, 0.008576547944300137, 0.0)","(0.001528836114578133, 0.16346181166201554, 0.04851697200899447)","(0.00164787543343429, -8.032302726770278e-05, 0.09446280817002345)","[-0.00846999048414403, 0.0034340691400860934, 0.0009664129947768371]","[-0.026750000193715096, 0.05299999937415123, 0.03999999910593033]","[0.0, -0.0, 0.5283441218827831]","[-0.06304548680782318, 0.1151822954416275, 0.03999999910593033]","[0.0, 0.0, -0.27955259050304093]","[0.026750000193715096, 0.05299999937415123, 0.03999999910593033]","[0.0, 0.0, -0.5293471991213367]","[0.06310784816741943, 0.11514585465192795, 0.03999999910593033]","[0.0, -0.0, 0.27943303207787473]",0.531295107759718,0.7082247173862104,"(0.0, 0.0, 0.0, 0.0, 0.0, 0.0)",0.21619558685979282,-0.8078967741493839,-2.8814284291911463e-11,"(0.0, 0.0, 0.0, 0.0, 0.0, 0.0)",0.015462803585362,-0.5269530661444848,0.5746135536023144,"(0.0, 0.0, 0.0, 0.0, 0.0, 0.0)",1.4137668398286984,0.8087060708574888,-0.017816460256674133,"(0.0, 0.0, 0.0, 0.0, 0.0, 0.0)",0.6908184471143355,True,"(-0.031517567758112174, 0.18253072647032154, 0.056000090592902396)","(0.9957938048174224, 0.0916225420804476, 8.983294317041821e-05)",-1.5671234698256716e-05,0.0,True,"(0.031681617829014824, 0.1812231535653316, 0.02399990940709761)","(-0.9957938048174221, -0.09162254208045077, -8.983294316809986e-05)",-4.764930379120742e-05,9.506394285938372
80,Move,"(-0.018600000000000002, 0.0, 0.0223)","(0.0, -0.0, 0.0)","(0.0013087754370055065, 0.1634724857805342, 0.04850639433296084)","(-8.23649716234299e-05, -8.165718308434367e-05, 0.09732362064403736)","[-0.008690051161716658, 0.003444743258604749, 0.0009558353187432075]","[-0.026750000193715096, 0.05299999937415123, 0.03999999910593033]","[0.0, -0.0, 0.5312951412694054]","[-0.06322882324457169, 0.11507491767406464, 0.03999999910593033]","[0.0, 0.0, -0.27660161989824644]","[0.026750000193715096, 0.05299999937415123, 0.03999999910593033]","[0.0, 0.0, -0.5269530655664085]","[0.06295894831418991, 0.11523272097110748, 0.03999999910593033]","[0.0, -0.0, 0.28175301281483683]",0.5336896694803558,0.5746948129530567,"(0.0, 0.0, 0.0, 0.0, 0.0, 0.0)",-0.19365850265291396,-0.8078967741493719,2.880362615087506e-12,"(0.0, 0.0, 0.0, 0.0, 0.0, 0.0)",-0.013840141403445241,-0.5251213146700344,0.4396203538680874,"(0.0, 0.0, 0.0, 0.0, 0.0, 0.0)",-0.19378996496300177,0.8087134943825958,0.001781646025666106,"(0.0, 0.0, 0.0, 0.0, 0.0, 0.0)",-0.011963591264567287,True,"(-0.0318997607657547, 0.1825158554459611, 0.05600008108298641)","(0.9955417024003681, 0.09432238509488705, 8.032302718301057e-05)",4.473822988007872e-05,0.0,True,"(0.03137954575813827, 0.1812365480681852, 0.02399991891701359)","(-0.9955417024003675, -0.09432238509489398, -8.032302718207068e-05)",-4.478755109430024e-05,0.0
81,Move,"(-0.019600000000000003, 0.0, 0.0235)","(0.0, -0.0, 0.0)","(0.0010871726752341051, 0.163467427235894, 0.04854500467802463)","(-0.00024736804330145816, 9.765255293587918e-05, 0.09918685442599132)","[-0.008911653923488059, 0.0034396847139645526, 0.000994445663806999]","[-0.026750000193715096, 0.05299999937415123, 0.03999999910593033]","[0.0, -0.0, 0.5336897502715751]","[-0.06337736546993256, 0.11498738825321198, 0.03999999910593033]","[0.0, 0.0, -0.27420709324966075]","[0.026750000193715096, 0.05299999937415123, 0.03999999910593033]","[0.0, 0.0, -0.5251213363078558]","[0.0628448948264122, 0.11529894173145294, 0.03999999910593033]","[0.0, -0.0, 0.28359216259581305]",0.5362013148111735,0.6027948793962538,"(0.0, 0.0, 0.0, 0.0, 0.0, 0.0)",0.0409502467191306,-0.8078967741493731,-2.877698079828406e-13,"(0.0, 0.0, 0.0, 0.0, 0.0, 0.0)",0.002932584186442021,-0.5231413378975974,0.47519442538488266,"(0.0, 0.0, 0.0, 0.0, 0.0, 0.0)",0.9544425916400023,0.80865487171828,-0.014069439435783232,"(0.0, 0.0, 0.0, 0.0, 0.0, 0.0)",0.5189968861817915,True,"(-0.0322099246124114, 0.1825036167756602, 0.056000082417142216)","(0.9952677901277174, 0.09717005334152438, 8.165718298723107e-05)",7.321450288765003e-05,0.0,True,"(0.03114424984003386, 0.18124356092102228, 0.023999917582857785)","(-0.995267790127718, -0.09717005334151664, -8.1657182987157e-05)",-1.7898229849266157e-05,6.31127548906601
82,Move,"(-0.023899999999999998, 0.0, 0.024399999999999998)","(0.0, 0.01321039710834508, 0.0)","(0.0008443964132771182, 0.1634498723863107, 0.04858057583915433)","(-0.0002301415790810899, 9.150982990267006e-05, 0.10126077799439169)","[-0.009154430185445046, 0.003422129864381257, 0.001030016824936697]","[-0.026750000193715096, 0.05299999937415123, 0.03999999910593033]","[0.0, -0.0, 0.5362012622528842]","[-0.06353293359279633, 0.11489519476890564, 0.03999999910593033]","[0.0, 0.0, -0.2716954752742173]","[0.026750000193715096, 0.05299999937415123, 0.03999999910593033]","[0.0, 0.0, -0.5231413485435072]","[0.06272147595882416, 0.11537028849124908, 0.03999999910593033]","[0.0, -0.0, 0.2855135406333662]",0.5388777166978237,0.6423364527960517,"(0.0, 0.0, 0.0, 0.0, 0.0, 0.0)",0.05756912135019916,-0.807896774149373,2.930988785010413e-14,"(0.0, 0.0, 0.0, 0.0, 0.0, 0.0)",0.0041213284426246145,-0.5209660488111152,0.5220693807557477,"(0.0, 0.0, 0.0, 0.0, 0.0, 0.0)",0.920285595533068,0.808607134103472,-0.011457027553914999,"(0.0, 0.0, 0.0, 0.0, 0.0, 0.0)",0.48698288119268246,True,"(-0.03253517420324404, 0.18248949491826894, 0.056000082417142216)","(0.9952677901277174, 0.09717005334152438, 8.165718298723107e-05)",0.00013729075461978098,0.0,True,"(0.03089418433733364, 0.18125387596458578, 0.023999917582857785)","(-0.995267790127718, -0.09717005334151664, -8.1657182987157e-05)",-1.2739665493664263e-05,6.435914616021834
83,Move,"(-0.0253, 0.0, 0.025500000000000002)","(0.0, 0.021800907686661174, 0.0)","(0.0005020257498605895, 0.1633996085963389, 0.04861327915647317)","(-0.0002167246508910914, 8.70125946328351e-05, 0.10449512561596828)","[-0.009496800848861574, 0.003371866074409452, 0.0010627201422555368]","[-0.026750000193715096, 0.05299999937415123, 0.03999999910593033]","[0.0, -0.0, 0.5388776983231143]","[-0.06369846314191818, 0.11479653418064117, 0.03999999910593033]","[0.0, 0.0, -0.2690190513021137]","[0.026750000193715096, 0.05299999937415123, 0.03999999910593033]","[0.0, 0.0, -0.52096609500894]","[0.06258571147918701, 0.11544839292764664, 0.03999999910593033]","[0.0, -0.0, 0.2876410822663819]",0.5424374150390716,0.8543276018994898,"(0.0, 0.0, 0.0, 0.0, 0.0, 0.0)",0.3079382489679992,-0.807896774149373,-2.6645352591003757e-15,"(0.0, 0.0, 0.0, 0.0, 0.0, 0.0)",0.02202399299434125,-0.5178294390838593,0.7527863345414374,"(0.0, 0.0, 0.0, 0.0, 0.0, 0.0)",1.837319509086767,0.8085161563758692,-0.02183465462468607,"(0.0, 0.0, 0.0, 0.0, 0.0, 0.0)",0.8724151609477737,True,"(-0.03288171899803899, 0.18247354771102614, 0.056000082417142216)","(0.9952677901277174, 0.09717005334152438, 8.165718298723107e-05)",0.00019451902520074182,0.0,True,"(0.03061832734495816, 0.1812641134372374, 0.023999917582857785)","(-0.995267790127718, -0.09717005334151664, -8.1657182987157e-05)",-1.2265706044646922e-05,11.319974137323745
84,Move,"(-0.0269, 0.0, 0.027)","(0.0, 0.03511427922087392, 0.0)","(0.00013471295129753363, 0.16334354815597096, 0.048643383459054855)","(-0.0002018412254069188, 8.159579877661735e-05, 0.1080368520598136)","[-0.00986411364742463, 0.0033158056340415187, 0.0010928244448372218]","[-0.026750000193715096, 0.05299999937415123, 0.03999999910593033]","[0.0, -0.0, 0.5424374556788402]","[-0.06391820311546326, 0.11466461420059204, 0.03999999910593033]","[0.0, 0.0, -0.2654593829195625]","[0.026750000193715096, 0.05299999937415123, 0.03999999910593033]","[0.0, 0.0, -0.5178294439082615]","[0.062389664351940155, 0.11556048691272736, 0.03999999910593033]","[0.0, -0.0, 0.2906867215071202]",0.5461600238916737,0.8934261246245078,"(0.0, 0.0, 0.0, 0.0, 0.0, 0.0)",0.057004928964471686,-0.807896774149373,0.0,"(0.0, 0.0, 0.0, 0.0, 0.0, 0.0)",0.004086030289251055,-0.5144824500091517,0.8032773779298009,"(0.0, 0.0, 0.0, 0.0, 0.0, 0.0)",0.9322337737042663,0.8084718625184595,-0.010630525778320837,"(0.0, 0.0, 0.0, 0.0, 0.0, 0.0)",0.495010410585323,True,"(-0.0333425659488599, 0.18245090037910205, 0.056000082417142216)","(0.9952677901277174, 0.09717005334152438, 8.165718298723107e-05)",0.00023848685623095484,0.0,True,"(0.030221973256170306, 0.1812785427145549, 0.023999917582857785)","(-0.995267790127718, -0.09717005334151664, -8.1657182987157e-05)",-1.1436710844905818e-05,6.369507339157869
85,Move,"(-0.028100000000000003, 0.0, 0.028399999999999998)","(0.0, 0.03511427922087392, 0.0)","(-0.00026970591498222494, 0.16328520553576403, 0.04867102129593998)","(-0.00034964621481091537, -8.601102956960912e-05, 0.11196274459152845)","[-0.01026853251370439, 0.0032574630138345884, 0.0011204622817223495]","[-0.026750000193715096, 0.05299999937415123, 0.03999999910593033]","[0.0, -0.0, 0.5461600426353834]","[-0.06414750218391418, 0.11452582478523254, 0.03999999910593033]","[0.0, 0.0, -0.2617367619691955]","[0.026750000193715096, 0.05299999937415123, 0.03999999910593033]","[0.0, 0.0, -0.5144824490467104]","[0.06218007579445839, 0.11567942053079605, 0.03999999910593033]","[0.0, -0.0, 0.2939894216907]",0.5501222814079368,0.9509418039031576,"(0.0, 0.0, 0.0, 0.0, 0.0, 0.0)",0.08375524949386748,-0.807896774149373,-1.3552527156068805e-20,"(0.0, 0.0, 0.0, 0.0, 0.0, 0.0)",0.005999681955359394,-0.5108161175388084,0.8799197928824051,"(0.0, 0.0, 0.0, 0.0, 0.0, 0.0)",1.0404910408345276,0.8084186432556435,-0.012772623075836221,"(0.0, 0.0, 0.0, 0.0, 0.0, 0.0)",0.5390313302578602,True,"(-0.033824414224354574, 0.1824254619390347, 0.056000082417142216)","(0.9952677901277174, 0.09717005334152438, 8.165718298723107e-05)",0.00027184356889635176,0.0,True,"(0.02979551388251294, 0.18129087934188243, 0.023999917582857785)","(-0.995267790127718, -0.09717005334151664, -8.1657182987157e-05)",-1.0432265239607043e-05,7.408386698394228
86,Move,"(-0.028800000000000003, 0.0, 0.0298)","(0.0, 0.021800907686661174, 0.0)","(-0.0006963583598558337, 0.16322311050024862, 0.04869637273398247)","(-0.00032141822152029567, -7.75461497718414e-05, 0.11587336471380807)","[-0.010695184958577998, 0.00319536797831918, 0.0011458137197648335]","[-0.026750000193715096, 0.05299999937415123, 0.03999999910593033]","[0.0, -0.0, 0.5501223204927632]","[-0.06439098715782166, 0.11437716335058212, 0.03999999910593033]","[0.0, 0.0, -0.2577744862748935]","[0.026750000193715096, 0.05299999937415123, 0.03999999910593033]","[0.0, 0.0, -0.5108160765297378]","[0.06195003166794777, 0.1158088967204094, 0.03999999910593033]","[0.0, -0.0, 0.2976025585908192]",0.5542160079746785,0.9824943760179935,"(0.0, 0.0, 0.0, 0.0, 0.0, 0.0)",0.04608196017589925,-0.807896774149373,0.0,"(0.0, 0.0, 0.0, 0.0, 0.0, 0.0)",0.0033074118918530303,-0.5069528542448881,0.9271831905408742,"(0.0, 0.0, 0.0, 0.0, 0.0, 0.0)",0.8876523315111877,0.8083719141088114,-0.011214995239722825,"(0.0, 0.0, 0.0, 0.0, 0.0, 0.0)",0.48047226555523614,True,"(-0.03433697237731305, 0.18239463332842007, 0.05600008677098869)","(0.993738713112127, 0.11172896967374599, 8.601102946170157e-05)",0.00028125437888552223,0.0,True,"(0.029328693004767564, 0.18130229425881886, 0.023999913229011315)","(-0.9937387131121272, -0.11172896967374295, -8.60110294627714e-05)",-1.3016471008231453e-05,6.292032754436221
87,Move,"(-0.0294, 0.0, 0.0316)","(0.0, 0.004012511950334963, 0.0)","(-0.0011484701527531011, 0.16313745262162735, 0.0486592052421236)","(0.0016990451305455463, -7.346716204830111e-05, 0.1184730794576675)","[-0.011147296751475265, 0.0031097100996979044, 0.0011086462279059697]","[-0.026750000193715096, 0.05299999937415123, 0.03999999910593033]","[0.0, -0.0, 0.5542160027623626]","[-0.06464193016290665, 0.11422255635261536, 0.03999999910593033]","[0.0, 0.0, -0.2536807830723392]","[0.026750000193715096, 0.05299999937415123, 0.03999999910593033]","[0.0, 0.0, -0.5069528473940238]","[0.06170712411403656, 0.11594441533088684, 0.03999999910593033]","[0.0, -0.0, 0.3014190439535866]",0.5583145317350063,0.9836457024786746,"(0.0, 0.0, 0.0, 0.0, 0.0, 0.0)",0.0019569997966011267,-0.807896774149373,0.0,"(0.0, 0.0, 0.0, 0.0, 0.0, 0.0)",0.00015321182912443054,-0.5030342346461278,0.9404687037024683,"(0.0, 0.0, 0.0, 0.0, 0.0, 0.0)",0.5766427002870117,0.8083464469875399,-0.006112109105171737,"(0.0, 0.0, 0.0, 0.0, 0.0, 0.0)",0.33353706700965974,True,"(-0.03486659238537265, 0.18236230831348527, 0.056000078306108925)","(0.9932941867679252, 0.115614240124825, 7.754614970029389e-05)",0.00029076453617952997,0.0,True,"(0.0288360748977183, 0.18131274161430222, 0.02399992169389108)","(-0.9932941867679255, -0.11561424012482398, -7.754614969342795e-05)",-1.3101979283742426e-05,4.341224010304867
88,Move,"(-0.0259, 0.0, 0.03270000000000001)","(0.0, 0.02991494337918281, 0.0)","(-0.0015845298849848086, 0.1630835122562872, 0.04866427444535402)","(0.0015658364947659191, 0.0006361923987958103, 0.12301324010142162)","[-0.011583356483706973, 0.003055769734357755, 0.0011137154311363848]","[-0.026750000193715096, 0.05299999937415123, 0.03999999910593033]","[0.0, -0.0, 0.5583144896035912]","[-0.06489253789186478, 0.11406674236059189, 0.03999999910593033]","[0.0, 0.0, -0.24958225024898645]","[0.026750000193715096, 0.05299999937415123, 0.03999999910593033]","[0.0, 0.0, -0.5030341953714402]","[0.06146020069718361, 0.11608091741800308, 0.03999999910593033]","[0.0, -0.0, 0.3053121905858138]",0.5623940898640827,0.9790939509783358,"(0.0, 0.0, 0.0, 0.0, 0.0, 0.0)",-0.006322167024422867,-0.807896774149373,0.0,"(0.0, 0.0, 0.0, 0.0, 0.0, 0.0)",-0.00043873711112004044,-0.4990803249204434,0.9489383341642657,"(0.0, 0.0, 0.0, 0.0, 0.0, 0.0)",0.535321833286994,0.808320724798858,-0.006173325283661392,"(0.0, 0.0, 0.0, 0.0, 0.0, 0.0)",0.3132410035662734,True,"(-0.035396538955580197, 0.18232646768461738, 0.056000074227121215)","(0.9929902667718569, 0.11819612810465847, 7.346716198470737e-05)",0.00030239228569776846,0.0,True,"(0.028334759094476566, 0.18132205886905683, 0.023999925772878794)","(-0.9929902667718575, -0.11819612810465253, -7.346716198117494e-05)",-1.2902018067091098e-05,0.0
89,Move,"(-0.0259, 0.0, 0.0337)","(0.0, 0.05146626898280879, 0.0)","(-0.0019318465576484973, 0.16305546789814415, 0.04869033896912899)","(0.001440519900123403, 0.0005853279587379232, 0.12661694765065912)","[-0.011930673156370662, 0.003027725376214707, 0.0011397799549113588]","[-0.026750000193715096, 0.05299999937415123, 0.03999999910593033]","[0.0, -0.0, 0.5623940543021759]","[-0.06514134258031845, 0.11391063034534454, 0.03999999910593033]","[0.0, 0.0, -0.245502677423089]","[0.026750000193715096, 0.05299999937415123, 0.03999999910593033]","[0.0, 0.0, -0.49908029235115764]","[0.0612105131149292, 0.11621766537427902, 0.03999999910593033]","[0.0, -0.0, 0.3092404192639805]",0.5656538387211854,0.7823397257046548,"(0.0, 0.0, 0.0, 0.0, 0.0, 0.0)",-0.28535749721571224,-0.8078967741488138,1.3420676278196736e-10,"(0.0, 0.0, 0.0, 0.0, 0.0, 0.0)",-0.020390548698064993,-0.49596582128175226,0.7474808732858764,"(0.0, 0.0, 0.0, 0.0, 0.0, 0.0)",-0.29148296139542484,0.8083236234761605,0.000695682552612543,"(0.0, 0.0, 0.0, 0.0, 0.0, 0.0)",-0.020167567169529138,True,"(-0.03592406038350101, 0.18229011754875396, 0.056000074227121215)","(0.9929902667718569, 0.11819612810465847, 7.346716198470737e-05)",0.00029178188139906535,0.0,True,"(0.027829048966272828, 0.18132818045913274, 0.023999925772878794)","(-0.9929902667718575, -0.11819612810465253, -7.346716198117494e-05)",9.014594726906793e-06,0.0
90,Move,"(-0.0263, 0.0, 0.0344)","(0.0, 0.06885672964968029, 0.0)","(-0.0022750828310502944, 0.16305290402475897, 0.048668956957807714)","(-0.00016868847575047114, 0.0005413164396219774, 0.13087847904072064)","[-0.012273909429772458, 0.0030251615028295264, 0.0011183979435900812]","[-0.026750000193715096, 0.05299999937415123, 0.03999999910593033]","[0.0, -0.0, 0.5656538375453832]","[-0.06533969193696976, 0.11378516256809235, 0.03999999910593033]","[0.0, 0.0, -0.24224298450467296]","[0.026750000193715096, 0.05299999937415123, 0.03999999910593033]","[0.0, 0.0, -0.49596584395109405]","[0.06101345643401146, 0.11632468551397324, 0.03999999910593033]","[0.0, -0.0, 0.31235779701336813]",0.5689077553800914,0.7809399981374449,"(0.0, 0.0, 0.0, 0.0, 0.0, 0.0)",-0.0018124702152020422,-0.8078967741488697,-1.3421264100088592e-11,"(0.0, 0.0, 0.0, 0.0, 0.0, 0.0)",-0.00012117454052153434,-0.4927731280365398,0.7662463788509984,"(0.0, 0.0, 0.0, 0.0, 0.0, 0.0)",0.3019353539968539,0.8083073277734155,-0.0039109686588058405,"(0.0, 0.0, 0.0, 0.0, 0.0, 0.0)",0.16569477013461126,True,"(-0.03634546420849456, 0.18225952555351255, 0.056000074227121215)","(0.9929902667718569, 0.11819612810465847, 7.346716198470737e-05)",0.0002827308436796667,0.0,True,"(0.027429177362031543, 0.1813308214062201, 0.023999925772878794)","(-0.9929902667718575, -0.11819612810465253, -7.346716198117494e-05)",1.2393137156808207e-05,0.0
91,Move,"(-0.027, 0.0, 0.0347)","(0.0, 0.06885672964968029, 0.0)","(-0.002649437382941296, 0.16304720760128244, 0.04869455973034633)","(-0.0013437087687997549, -0.0006838379965154104, 0.13448012770910667)","[-0.01264826398166346, 0.0030194650793529954, 0.0011440007161286972]","[-0.026750000193715096, 0.05299999937415123, 0.03999999910593033]","[0.0, -0.0, 0.5689077986242042]","[-0.06553727388381958, 0.11365927010774612, 0.03999999910593033]","[0.0, 0.0, -0.2389890122294725]","[0.026750000193715096, 0.05299999937415123, 0.03999999910593033]","[0.0, 0.0, -0.4927731733753874]","[0.060811106115579605, 0.1164337545633316, 0.03999999910593033]","[0.0, -0.0, 0.315534240326953]",0.5721901222059627,0.7877680382090926,"(0.0, 0.0, 0.0, 0.0, 0.0, 0.0)",0.010131909005601413,-0.8078967741488642,1.3429257705865894e-12,"(0.0, 0.0, 0.0, 0.0, 0.0, 0.0)",0.0007328468438450874,-0.4894785360374184,0.7907020797891271,"(0.0, 0.0, 0.0, 0.0, 0.0, 0.0)",1.0721181423220902,0.8082433222961576,-0.015361314541894707,"(0.0, 0.0, 0.0, 0.0, 0.0, 0.0)",0.5963889253039039,True,"(-0.03676601239157937, 0.18222761847015098, 0.056000074227121215)","(0.9929902667718569, 0.11819612810465847, 7.346716198470737e-05)",0.00026539621954516264,0.0,True,"(0.02702051122240206, 0.18133288640150091, 0.023999925772878794)","(-0.9929902667718575, -0.11819612810465253, -7.346716198117494e-05)",9.85181597380724e-06,8.277825942120021
92,Move,"(-0.0277, 0.0, 0.035)","(0.0, 0.07318514619462622, 0.0)","(-0.0030391919379260373, 0.16302048851370343, 0.048718119293043344)","(-0.0012378716476584692, -0.0006284914733125782, 0.13722025996386178)","[-0.013038018536648202, 0.0029927459917739874, 0.0011675602788257106]","[-0.026750000193715096, 0.05299999937415123, 0.03999999910593033]","[0.0, -0.0, 0.5721901777778942]","[-0.06573617458343506, 0.11353163421154022, 0.03999999910593033]","[0.0, 0.0, -0.23570665278502265]","[0.026750000193715096, 0.05299999937415123, 0.03999999910593033]","[0.0, 0.0, -0.4894785352587333]","[0.06060193106532097, 0.11654562503099442, 0.03999999910593033]","[0.0, -0.0, 0.318764766903626]",0.5755316840436782,0.8019748410517309,"(0.0, 0.0, 0.0, 0.0, 0.0, 0.0)",0.020846358136895973,-0.8078967741488647,-1.3322676295501878e-13,"(0.0, 0.0, 0.0, 0.0, 0.0, 0.0)",0.0014991027742053994,-0.4860711915903898,0.8177626672868621,"(0.0, 0.0, 0.0, 0.0, 0.0, 0.0)",0.8427574798208832,0.8081903330099829,-0.012717428681934661,"(0.0, 0.0, 0.0, 0.0, 0.0, 0.0)",0.4766061963870114,True,"(-0.03719041387518765, 0.1821961586433938, 0.056000684597902445)","(0.9909709353645539, 0.13407511934870062, 0.0006838379432206954)",0.00021970958530632235,0.0,True,"(0.026602192326958478, 0.18133272565034816, 0.02399931540209756)","(-0.9909709353645546, -0.1340751193486967, -0.0006838379432145294)",-1.473977159467631e-05,6.46822021496401
