OSUrobotics/InHand-Manipulation/AnalyseData/Data/Trial Data/Better/new_hand_expected_exp_2v2_d_n_1_kpNone_kdNone_dp1_step1_save_data.csv
,Phase,human_cube_pos,human_cube_orn,Cube_Pos,Cube_Orn,Cube_pos_in_start_pos,b'l_prox_pin'_link_pos,b'l_prox_pin'_link_orn,b'l_distal_pin'_link_pos,b'l_distal_pin'_link_orn,b'r_prox_pin'_link_pos,b'r_prox_pin'_link_orn,b'r_distal_pin'_link_pos,b'r_distal_pin'_link_orn,b'l_prox_pin'_joint_angle,b'l_prox_pin'_joint_vel,b'l_prox_pin'_joint_react_forces,b'l_prox_pin'_joint_motor_torque,b'l_distal_pin'_joint_angle,b'l_distal_pin'_joint_vel,b'l_distal_pin'_joint_react_forces,b'l_distal_pin'_joint_motor_torque,b'r_prox_pin'_joint_angle,b'r_prox_pin'_joint_vel,b'r_prox_pin'_joint_react_forces,b'r_prox_pin'_joint_motor_torque,b'r_distal_pin'_joint_angle,b'r_distal_pin'_joint_vel,b'r_distal_pin'_joint_react_forces,b'r_distal_pin'_joint_motor_torque,in_contact_l,contact_point_l_dist,contact_normal_l_dist,contact_distance_l_dist,contact_norm_force_l_dist,in_contact_r,contact_point_r_dist,contact_normal_r_dist,contact_distance_r_dist,contact_norm_force_r_dist
0,Open,,,,,,"[-0.026750000193715096, 0.05299999937415123, 0.03999999910593033]","[0.0, -0.0, 0.0]","[-0.026750000193715096, 0.125, 0.03999999910593033]","[0.0, -0.0, 0.0]","[0.026750000193715096, 0.05299999937415123, 0.03999999910593033]","[0.0, -0.0, 0.0]","[0.026750000193715096, 0.125, 0.03999999910593033]","[0.0, -0.0, 0.0]",0.0,0.0,"(0.0, 0.0, 0.0, 0.0, 0.0, 0.0)",1.3400621000080305e-17,5.883223478113402e-32,1.4119736347472167e-29,"(0.0, 0.0, 0.0, 0.0, 0.0, 0.0)",1.0542555313129702e-18,-0.008068665190486622,-1.9364796457167894,"(0.0, 0.0, 0.0, 0.0, 0.0, 0.0)",193.26378306879909,-0.0700246186727924,-16.805908481470176,"(0.0, 0.0, 0.0, 0.0, 0.0, 0.0)",71.94009191575694,False,,,,,False,,,,
1,Open,,,,,,"[-0.026750000193715096, 0.05299999937415123, 0.03999999910593033]","[0.0, -0.0, 0.0]","[-0.026750000193715096, 0.125, 0.03999999910593033]","[0.0, -0.0, 5.883223447970011e-32]","[0.026750000193715096, 0.05299999937415123, 0.03999999910593033]","[0.0, 0.0, -0.008068665592501188]","[0.02733093686401844, 0.12499765306711197, 0.03999999910593033]","[0.0, 0.0, -0.0780932845685428]",0.157,37.68,"(0.0, 0.0, 0.0, 0.0, 0.0, 0.0)",54.702693795169004,5.294901130302062e-32,-1.4119736347472162e-30,"(0.0, 0.0, 0.0, 0.0, 0.0, 0.0)",3.9113724975844915,-0.1670280316324969,-38.150247946082466,"(0.0, 0.0, 0.0, 0.0, 0.0, 0.0)",-25.93345404555236,-0.0659493391739072,0.9780670797324476,"(0.0, 0.0, 0.0, 0.0, 0.0, 0.0)",-6.754749483880455,False,,,,,False,,,,
2,Open,,,,,,"[-0.026750000193715096, 0.05299999937415123, 0.03999999910593033]","[0.0, -0.0, 0.1569999988554567]","[-0.03800761699676514, 0.12411445379257202, 0.03999999910593033]","[0.0, -0.0, 0.1569999988554567]","[0.026750000193715096, 0.05299999937415123, 0.03999999910593033]","[0.0, 0.0, -0.16702801712980753]","[0.038720179349184036, 0.1239979937672615, 0.03999999910593033]","[0.0, 0.0, -0.23297739431320727]",0.29829999999999995,33.91199999999999,"(0.0, 0.0, 0.0, 0.0, 0.0, 0.0)",-5.390828189440958,5.294901130302062e-32,0.0,"(0.0, 0.0, 0.0, 0.0, 0.0, 0.0)",-0.3659219356209609,-0.3122944613104081,-34.863943122698686,"(0.0, 0.0, 0.0, 0.0, 0.0, 0.0)",95.8006544774165,-0.06705867534034729,-0.2662406799456205,"(0.0, 0.0, 0.0, 0.0, 0.0, 0.0)",9.049911776264722,False,,,,,False,,,,
3,Open,,,,,,"[-0.026750000193715096, 0.05299999937415123, 0.03999999910593033]","[0.0, -0.0, 0.29830000998707634]","[-0.04791048914194107, 0.12182030081748962, 0.03999999910593033]","[0.0, -0.0, 0.29830000998707634]","[0.026750000193715096, 0.05299999937415123, 0.03999999910593033]","[0.0, 0.0, -0.3122944642903269]","[0.048871491104364395, 0.12151744216680527, 0.03999999910593033]","[0.0, 0.0, -0.3793531994353912]",0.42546999999999996,30.5208,"(0.0, 0.0, 0.0, 0.0, 0.0, 0.0)",-4.858074537215091,5.294901130302062e-32,0.0,"(0.0, 0.0, 0.0, 0.0, 0.0, 0.0)",-0.33154044974508506,-0.44292449566296654,-31.35120824461403,"(0.0, 0.0, 0.0, 0.0, 0.0, 0.0)",100.88457241511576,-0.08373770380977785,-4.0029668326633345,"(0.0, 0.0, 0.0, 0.0, 0.0, 0.0)",24.077304806401806,False,,,,,False,,,,
4,Open,,,,,,"[-0.026750000193715096, 0.05299999937415123, 0.03999999910593033]","[0.0, -0.0, 0.4254700097131474]","[-0.056467924267053604, 0.11858082562685013, 0.03999999910593033]","[0.0, -0.0, 0.4254700097131474]","[0.026750000193715096, 0.05299999937415123, 0.03999999910593033]","[0.0, 0.0, -0.4429245237535421]","[0.057608019560575485, 0.1180521547794342, 0.03999999910593033]","[0.0, 0.0, -0.5266622746639338]",0.5399229999999999,27.46872,"(0.0, 0.0, 0.0, 0.0, 0.0, 0.0)",-4.377393708535371,5.294901130302062e-32,0.0,"(0.0, 0.0, 0.0, 0.0, 0.0, 0.0)",-0.30017707799641646,-0.5623038734984663,-28.651050680519948,"(0.0, 0.0, 0.0, 0.0, 0.0, 0.0)",144.45470973647488,-0.10456727132876567,-4.999096204557077,"(0.0, 0.0, 0.0, 0.0, 0.0, 0.0)",33.97911746732963,False,,,,,False,,,,
5,Open,,,,,,"[-0.026750000193715096, 0.05299999937415123, 0.03999999910593033]","[0.0, -0.0, 0.5399230359738098]","[-0.06376303732395172, 0.11475787311792374, 0.03999999910593033]","[0.0, -0.0, 0.5399230359738098]","[0.026750000193715096, 0.05299999937415123, 0.03999999910593033]","[0.0, 0.0, -0.5623038790270362]","[0.06513584405183792, 0.11391409486532211, 0.03999999910593033]","[0.0, 0.0, -0.6668711870723439]",0.6429307,24.721848,"(0.0, 0.0, 0.0, 0.0, 0.0, 0.0)",-3.943806903965684,5.294901130302062e-32,0.0,"(0.0, 0.0, 0.0, 0.0, 0.0, 0.0)",-0.2716098155097054,-0.6673401099248648,-25.208696742335626,"(0.0, 0.0, 0.0, 0.0, 0.0, 0.0)",94.97739775913854,-0.11755295807544866,-3.116564819203918,"(0.0, 0.0, 0.0, 0.0, 0.0, 0.0)",25.79194570087013,False,,,,,False,,,,
6,Open,,,,,,"[-0.026750000193715096, 0.05299999937415123, 0.03999999910593033]","[0.0, -0.0, 0.6429307111289271]","[-0.06991713494062424, 0.11062463372945786, 0.03999999910593033]","[0.0, -0.0, 0.6429307111289271]","[0.026750000193715096, 0.05299999937415123, 0.03999999910593033]","[0.0, 0.0, -0.6673401753977319]","[0.07131072133779526, 0.10955388844013214, 0.03999999910593033]","[0.0, 0.0, -0.7848931559948581]",0.73563763,22.249663200000004,"(0.0, 0.0, 0.0, 0.0, 0.0, 0.0)",-3.552789792259023,5.294901130302062e-32,0.0,"(0.0, 0.0, 0.0, 0.0, 0.0, 0.0)",-0.24562369466220793,-0.7579917869736262,-21.756402491702737,"(0.0, 0.0, 0.0, 0.0, 0.0, 0.0)",34.46450837185191,-0.10794166402774508,2.3067105714488583,"(0.0, 0.0, 0.0, 0.0, 0.0, 0.0)",8.765009015475858,False,,,,,False,,,,
7,Open,,,,,,"[-0.026750000193715096, 0.05299999937415123, 0.03999999910593033]","[0.0, -0.0, 0.7356376306875043]","[-0.07506632059812546, 0.10638101398944855, 0.03999999910593033]","[0.0, -0.0, 0.7356376306875043]","[0.026750000193715096, 0.05299999937415123, 0.03999999910593033]","[0.0, 0.0, -0.757991847340814]","[0.076247438788414, 0.10528770089149475, 0.03999999910593033]","[0.0, 0.0, -0.8659334873334429]",0.8190738670000001,20.024696880000004,"(0.0, 0.0, 0.0, 0.0, 0.0, 0.0)",-3.2002295086701533,2.3293280891773424e-07,5.5903874140256216e-05,"(0.0, 0.0, 0.0, 0.0, 0.0, 0.0)",-0.22200715926400075,-0.8391926082762636,-19.488197112632974,"(0.0, 0.0, 0.0, 0.0, 0.0, 0.0)",3.295349739497939,-0.09714776835574307,2.590534961280482,"(0.0, 0.0, 0.0, 0.0, 0.0, 0.0)",0.25803221970863044,False,,,,,False,,,,
8,Open,,,,,,"[-0.026750000193715096, 0.05299999937415123, 0.03999999910593033]","[0.0, -0.0, 0.8190738875671263]","[-0.07934698462486267, 0.10216865688562393, 0.03999999910593033]","[0.0, -0.0, 0.8190741465287105]","[0.026750000193715096, 0.05299999937415123, 0.03999999910593033]","[0.0, 0.0, -0.839192558822362]","[0.08032548427581787, 0.10110059380531311, 0.03999999910593033]","[0.0, 0.0, -0.9363403253067936]",0.8941664803,18.022227192,"(0.0, 0.0, 0.0, 0.0, 0.0, 0.0)",-2.8824197251771095,4.2009445145371055e-07,4.4918794208634316e-05,"(0.0, 0.0, 0.0, 0.0, 0.0, 0.0)",-0.2005835928406654,-0.9122733474486373,-17.539377401369673,"(0.0, 0.0, 0.0, 0.0, 0.0, 0.0)",2.7804978356880783,-0.0874331700712747,2.33150358827241,"(0.0, 0.0, 0.0, 0.0, 0.0, 0.0)",0.17017621517521792,False,,,,,False,,,,
9,Open,,,,,,"[-0.026750000193715096, 0.05299999937415123, 0.03999999910593033]","[0.0, -0.0, 0.894166469119967]","[-0.08288749307394028, 0.09808415919542313, 0.03999999910593033]","[0.0, -0.0, 0.894166894674561]","[0.026750000193715096, 0.05299999937415123, 0.03999999910593033]","[0.0, 0.0, -0.9122733503889549]","[0.08369457721710205, 0.09706035256385803, 0.03999999910593033]","[0.0, 0.0, -0.9997066729229968]",0.96174983227,16.220004472800003,"(0.0, 0.0, 0.0, 0.0, 0.0, 0.0)",-2.5959652512206968,5.681494863714967e-07,3.553320838026869e-05,"(0.0, 0.0, 0.0, 0.0, 0.0, 0.0)",-0.18114955764248034,-0.9780460127037736,-15.785439661232708,"(0.0, 0.0, 0.0, 0.0, 0.0, 0.0)",2.503992476159733,-0.0786900142246732,2.098357403184359,"(0.0, 0.0, 0.0, 0.0, 0.0, 0.0)",0.15360133560797545,False,,,,,False,,,,
10,Open,,,,,,"[-0.026750000193715096, 0.05299999937415123, 0.03999999910593033]","[0.0, -0.0, 0.9617498658906226]","[-0.08580395579338074, 0.09419016540050507, 0.03999999910593033]","[0.0, -0.0, 0.9617504517765805]","[0.026750000193715096, 0.05299999937415123, 0.03999999910593033]","[0.0, 0.0, -0.9780460255881384]","[0.08646733313798904, 0.09322238713502884, 0.03999999910593033]","[0.0, 0.0, -1.0567360258914282]",1.022574849043,14.598004025520002,"(0.0, 0.0, 0.0, 0.0, 0.0, 0.0)",-2.337816594086846,6.829231533297027e-07,2.7545680069969436e-05,"(0.0, 0.0, 0.0, 0.0, 0.0, 0.0)",-0.16354029854134106,-1.0372414114333963,-14.206895695109438,"(0.0, 0.0, 0.0, 0.0, 0.0, 0.0)",2.2548456713339484,-0.07082115822448021,1.8885254400463192,"(0.0, 0.0, 0.0, 0.0, 0.0, 0.0)",0.13860128234430863,False,,,,,False,,,,
11,Open,,,,,,"[-0.026750000193715096, 0.05299999937415123, 0.03999999910593033]","[0.0, -0.0, 1.0225748785172661]","[-0.08819860219955444, 0.09052424877882004, 0.03999999910593033]","[0.0, -0.0, 1.0225755149967983]","[0.026750000193715096, 0.05299999937415123, 0.03999999910593033]","[0.0, 0.0, -1.037241417801626]","[0.08874232321977615, 0.08961901068687439, 0.03999999910593033]","[0.0, 0.0, -1.1080626941470386]",1.0773173641387,13.138203622968001,"(0.0, 0.0, 0.0, 0.0, 0.0, 0.0)",-2.105207702642618,7.694903593429899e-07,2.0776129443188934e-05,"(0.0, 0.0, 0.0, 0.0, 0.0, 0.0)",-0.14759587787833617,-1.0905172702900567,-12.78620612559849,"(0.0, 0.0, 0.0, 0.0, 0.0, 0.0)",2.0303755786213302,-0.06373917358809339,1.6996763127328351,"(0.0, 0.0, 0.0, 0.0, 0.0, 0.0)",0.1250328149112744,False,,,,,False,,,,
12,Open,,,,,,"[-0.026750000193715096, 0.05299999937415123, 0.03999999910593033]","[0.0, -0.0, 1.0773173786594632]","[-0.09015969932079315, 0.08710587024688721, 0.03999999910593033]","[0.0, -0.0, 1.0773182784199262]","[0.026750000193715096, 0.05299999937415123, 0.03999999910593033]","[0.0, 0.0, -1.090517334189526]","[0.09060435742139816, 0.0862659215927124, 0.03999999910593033]","[0.0, 0.0, -1.1542564269670996]",1.1265856277248298,11.824383260671203,"(0.0, 0.0, 0.0, 0.0, 0.0, 0.0)",-1.895636869852492,8.322629993378343e-07,1.5065433598762668e-05,"(0.0, 0.0, 0.0, 0.0, 0.0, 0.0)",-0.13316806895824274,-1.138465543261051,-11.50758551303864,"(0.0, 0.0, 0.0, 0.0, 0.0, 0.0)",1.828159741200242,-0.05736537454460671,1.5297117704368035,"(0.0, 0.0, 0.0, 0.0, 0.0, 0.0)",0.11276577482950233,False,,,,,False,,,,
13,Open,,,,,,"[-0.026750000193715096, 0.05299999937415123, 0.03999999910593033]","[0.0, -0.0, 1.126585512342968]","[-0.09176240861415863, 0.08394166082143784, 0.03999999910593033]","[0.0, -0.0, 1.1265864725026016]","[0.026750000193715096, 0.05299999937415123, 0.03999999910593033]","[0.0, 0.0, -1.13846552283997]","[0.09212540090084076, 0.08316715806722641, 0.03999999910593033]","[0.0, 0.0, -1.1958309904194953]",1.1709270649523469,10.641944934604087,"(0.0, 0.0, 0.0, 0.0, 0.0, 0.0)",-1.7068426281171958,8.750681698751778e-07,1.0273240928962424e-05,"(0.0, 0.0, 0.0, 0.0, 0.0, 0.0)",-0.12011999884119333,-1.181618988934946,-10.356826961734775,"(0.0, 0.0, 0.0, 0.0, 0.0, 0.0)",1.6460093571929852,-0.051628943774705546,1.376743384776279,"(0.0, 0.0, 0.0, 0.0, 0.0, 0.0)",0.10168054944364863,False,,,,,False,,,,
14,Open,,,,,,"[-0.026750000193715096, 0.05299999937415123, 0.03999999910593033]","[0.0, -0.0, 1.170927100750299]","[-0.09307006001472473, 0.08102945238351822, 0.03999999910593033]","[0.0, -0.0, 1.1709279927689973]","[0.026750000193715096, 0.05299999937415123, 0.03999999910593033]","[0.0, 0.0, -1.181618964677462]","[0.09336595237255096, 0.08031877130270004, 0.03999999910593033]","[0.0, 0.0, -1.233247876832181]",1.2108343584571122,9.577750441143678,"(0.0, 0.0, 0.0, 0.0, 0.0, 0.0)",-1.5367816122769582,9.012180617793662e-07,6.275974057005224e-06,"(0.0, 0.0, 0.0, 0.0, 0.0, 0.0)",-0.1083256720668905,-1.2204570900414513,-9.3211442655613,"(0.0, 0.0, 0.0, 0.0, 0.0, 0.0)",1.4819475463743526,-0.046466145575958295,1.239071567699341,"(0.0, 0.0, 0.0, 0.0, 0.0, 0.0)",0.09166748660725833,False,,,,,False,,,,
15,Open,,,,,,"[-0.026750000193715096, 0.05299999937415123, 0.03999999910593033]","[0.0, -0.0, 1.2108343955497323]","[-0.09413553774356842, 0.07836118340492249, 0.03999999910593033]","[0.0, -0.0, 1.210835255049739]","[0.026750000193715096, 0.05299999937415123, 0.03999999910593033]","[0.0, 0.0, -1.2204571829136446]","[0.09437645971775055, 0.07771158218383789, 0.03999999910593033]","[0.0, 0.0, -1.2669233179031547]",1.2467509226114009,8.619975397029307,"(0.0, 0.0, 0.0, 0.0, 0.0, 0.0)",-1.3836082777937824,9.135722823677317e-07,2.9650129412077397e-06,"(0.0, 0.0, 0.0, 0.0, 0.0, 0.0)",-0.09766941677677543,-1.2554113810373062,-8.38902983900517,"(0.0, 0.0, 0.0, 0.0, 0.0, 0.0)",1.334189480132575,-0.04181961771093252,1.1151666876061868,"(0.0, 0.0, 0.0, 0.0, 0.0, 0.0)",0.08262627878010878,False,,,,,False,,,,
16,Open,,,,,,"[-0.026750000193715096, 0.05299999937415123, 0.03999999910593033]","[0.0, -0.0, 1.2467510110527222]","[-0.09500277042388916, 0.07592508941888809, 0.03999999910593033]","[0.0, -0.0, 1.246751870145374]","[0.026750000193715096, 0.05299999937415123, 0.03999999910593033]","[0.0, 0.0, -1.255411348379259]","[0.09519875049591064, 0.0753331333398819, 0.03999999910593033]","[0.0, 0.0, -1.2972309672073006]",1.2790758303502607,7.757977857326381,"(0.0, 0.0, 0.0, 0.0, 0.0, 0.0)",-1.2456264712746363,2.1141758111398655e-06,0.0002881448469053121,"(0.0, 0.0, 0.0, 0.0, 0.0, 0.0)",-0.088015399348708,-1.2868702429335757,-7.5501268551046525,"(0.0, 0.0, 0.0, 0.0, 0.0, 0.0)",1.2010989712673745,-0.037638748630864464,1.0034085792163332,"(0.0, 0.0, 0.0, 0.0, 0.0, 0.0)",0.07444006052486639,False,,,,,False,,,,
17,Open,,,,,,"[-0.026750000193715096, 0.05299999937415123, 0.03999999910593033]","[0.0, -0.0, 1.2790758758817962]","[-0.09570803493261337, 0.0737072303891182, 0.03999999910593033]","[0.0, -0.0, 1.2790780932516201]","[0.026750000193715096, 0.05299999937415123, 0.03999999910593033]","[0.0, 0.0, -1.2868702529032277]","[0.0958673357963562, 0.07316911965608597, 0.03999999910593033]","[0.0, 0.0, -1.3245087793274308]",1.3081682532711112,6.982181501004109,"(0.0, 0.0, 0.0, 0.0, 0.0, 0.0)",-1.12145472366965,1.9027582300258812e-06,-5.0740219467356254e-05,"(0.0, 0.0, 0.0, 0.0, 0.0, 0.0)",-0.07939114715284208,-1.315183223212741,-6.795115266999686,"(0.0, 0.0, 0.0, 0.0, 0.0, 0.0)",1.0813262344929835,-0.033874873767778015,0.9033299671407473,"(0.0, 0.0, 0.0, 0.0, 0.0, 0.0)",0.06713055017345074,False,,,,,False,,,,
18,Open,,,,,,"[-0.026750000193715096, 0.05299999937415123, 0.03999999910593033]","[0.0, -0.0, 1.3081682459906412]","[-0.09628119319677353, 0.07169260084629059, 0.03999999910593033]","[0.0, -0.0, 1.3081702011658356]","[0.026750000193715096, 0.05299999937415123, 0.03999999910593033]","[0.0, 0.0, -1.3151833180210462]","[0.0964106097817421, 0.07120437920093536, 0.03999999910593033]","[0.0, 0.0, -1.349058153261439]",1.334351427944,6.283961921493333,"(0.0, 0.0, 0.0, 0.0, 0.0, 0.0)",-1.0095234585863413,2.7618377923566443e-06,0.00020617909495938315,"(0.0, 0.0, 0.0, 0.0, 0.0, 0.0)",-0.07148780084672787,-1.3406649008914668,-6.11560264289422,"(0.0, 0.0, 0.0, 0.0, 0.0, 0.0)",0.9733796231570812,-0.030488273507324658,0.8127840625088054,"(0.0, 0.0, 0.0, 0.0, 0.0, 0.0)",0.060435192896783604,False,,,,,False,,,,
19,Open,,,,,,"[-0.026750000193715096, 0.05299999937415123, 0.03999999910593033]","[0.0, -0.0, 1.334351465706577]","[-0.09674673527479172, 0.06986585259437561, 0.03999999910593033]","[0.0, -0.0, 1.33435435145599]","[0.026750000193715096, 0.05299999937415123, 0.03999999910593033]","[0.0, 0.0, -1.3406650641721125]","[0.09685182571411133, 0.06942359358072281, 0.03999999910593033]","[0.0, 0.0, -1.3711530696282732]",1.3579162851496,5.655565729344001,"(0.0, 0.0, 0.0, 0.0, 0.0, 0.0)",-0.9088150211252332,3.4316066113876724e-06,0.0001607445165674468,"(0.0, 0.0, 0.0, 0.0, 0.0, 0.0)",-0.06444344013525093,-1.3635984108023202,-5.504042378604797,"(0.0, 0.0, 0.0, 0.0, 0.0, 0.0)",0.8762522980402716,-0.02744024570882781,0.7315266716392431,"(0.0, 0.0, 0.0, 0.0, 0.0, 0.0)",0.05446985052483407,False,,,,,False,,,,
20,Open,,,,,,"[-0.026750000193715096, 0.05299999937415123, 0.03999999910593033]","[0.0, -0.0, 1.3579163939939654]","[-0.09712471067905426, 0.0682118609547615, 0.03999999910593033]","[0.0, -0.0, 1.3579197824809437]","[0.026750000193715096, 0.05299999937415123, 0.03999999910593033]","[0.0, 0.0, -1.3635984874387626]","[0.09721000492572784, 0.06781173497438431, 0.03999999910593033]","[0.0, 0.0, -1.3910385869420074]",1.37912465663464,5.090009156409601,"(0.0, 0.0, 0.0, 0.0, 0.0, 0.0)",-0.8181093185961676,3.940702417530038e-06,0.0001221829934741677,"(0.0, 0.0, 0.0, 0.0, 0.0, 0.0)",-0.05806034967263589,-1.3842385697220883,-4.953638140744317,"(0.0, 0.0, 0.0, 0.0, 0.0, 0.0)",0.7887791417834831,-0.024696941374704916,0.6583930401894944,"(0.0, 0.0, 0.0, 0.0, 0.0, 0.0)",0.04906644857689494,False,,,,,False,,,,
21,Open,,,,,,"[-0.026750000193715096, 0.05299999937415123, 0.03999999910593033]","[0.0, -0.0, 1.3791247702213432]","[-0.0974314734339714, 0.0667160153388977, 0.03999999910593033]","[0.0, -0.0, 1.3791284782568445]","[0.026750000193715096, 0.05299999937415123, 0.03999999910593033]","[0.0, 0.0, -1.3842387704807777]","[0.09750068932771683, 0.06635437905788422, 0.03999999910593033]","[0.0, 0.0, -1.408935619520831]",1.398212190971176,4.581008240768642,"(0.0, 0.0, 0.0, 0.0, 0.0, 0.0)",-0.7364407507487188,4.314390796743166e-06,8.968521101115077e-05,"(0.0, 0.0, 0.0, 0.0, 0.0, 0.0)",-0.05230389643117988,-1.4028147127498793,-4.458274326669883,"(0.0, 0.0, 0.0, 0.0, 0.0, 0.0)",0.7100243788118592,-0.02222789596809768,0.5925708975857369,"(0.0, 0.0, 0.0, 0.0, 0.0, 0.0)",0.04419507766734469,False,,,,,False,,,,
22,Open,,,,,,"[-0.026750000193715096, 0.05299999937415123, 0.03999999910593033]","[0.0, -0.0, 1.3982120672717784]","[-0.09768038988113403, 0.06536446511745453, 0.03999999910593033]","[0.0, -0.0, 1.3982164487645397]","[0.026750000193715096, 0.05299999937415123, 0.03999999910593033]","[0.0, 0.0, -1.4028147367436141]","[0.09773654490709305, 0.06503787636756897, 0.03999999910593033]","[0.0, 0.0, -1.4250426427007885]",1.4153909718740585,4.122907416691778,"(0.0, 0.0, 0.0, 0.0, 0.0, 0.0)",-0.6629119687698639,4.574523674952359e-06,6.243189077020624e-05,"(0.0, 0.0, 0.0, 0.0, 0.0, 0.0)",-0.04711364623212332,-1.4195332414748913,-4.012446894002898,"(0.0, 0.0, 0.0, 0.0, 0.0, 0.0)",0.6391216750959775,-0.02000569064819732,0.5333292767760867,"(0.0, 0.0, 0.0, 0.0, 0.0, 0.0)",0.039804123486470444,False,,,,,False,,,,
23,Open,,,,,,"[-0.026750000193715096, 0.05299999937415123, 0.03999999910593033]","[0.0, -0.0, 1.415391158105469]","[-0.09788231551647186, 0.06414420157670975, 0.03999999910593033]","[0.0, -0.0, 1.415395709317307]","[0.026750000193715096, 0.05299999937415123, 0.03999999910593033]","[0.0, 0.0, -1.419533200978404]","[0.09792786836624146, 0.06384945660829544, 0.03999999910593033]","[0.0, 0.0, -1.4395389386881268]",1.4308518746866525,3.7106166750225977,"(0.0, 0.0, 0.0, 0.0, 0.0, 0.0)",-0.5967141397561109,4.7399630338636504e-06,3.9705446138709865e-05,"(0.0, 0.0, 0.0, 0.0, 0.0, 0.0)",-0.042434775014060074,-1.4345799173274023,-3.611202204602609,"(0.0, 0.0, 0.0, 0.0, 0.0, 0.0)",0.5752902758042565,-0.018005647771851804,0.4800102903229233,"(0.0, 0.0, 0.0, 0.0, 0.0, 0.0)",0.0358468230863414,False,,,,,False,,,,
24,Open,,,,,,"[-0.026750000193715096, 0.05299999937415123, 0.03999999910593033]","[0.0, -0.0, 1.4308518944899675]","[-0.09804610908031464, 0.06304314732551575, 0.03999999910593033]","[0.0, -0.0, 1.4308566269594332]","[0.026750000193715096, 0.05299999937415123, 0.03999999910593033]","[0.0, 0.0, -1.4345798203875788]","[0.09808305650949478, 0.06277728080749512, 0.03999999910593033]","[0.0, 0.0, -1.4525855975984745]",1.4447666872179874,3.339555007520341,"(0.0, 0.0, 0.0, 0.0, 0.0, 0.0)",-0.5371183361845069,4.8269553674989e-06,2.0878160072459843e-05,"(0.0, 0.0, 0.0, 0.0, 0.0, 0.0)",-0.03821759960562203,-1.448121925594662,-3.2500819841423465,"(0.0, 0.0, 0.0, 0.0, 0.0, 0.0)",0.5178266556878065,-0.016205556838873442,0.4320218239148067,"(0.0, 0.0, 0.0, 0.0, 0.0, 0.0)",0.0322808466635012,False,,,,,False,,,,
25,Open,,,,,,"[-0.026750000193715096, 0.05299999937415123, 0.03999999910593033]","[0.0, -0.0, 1.4447668540021588]","[-0.09817895293235779, 0.06205013021826744, 0.03999999910593033]","[0.0, -0.0, 1.4447715863131299]","[0.026750000193715096, 0.05299999937415123, 0.03999999910593033]","[0.0, 0.0, -1.448121993206969]","[0.09820891171693802, 0.06181041896343231, 0.03999999910593033]","[0.0, 0.0, -1.46432761016298]",1.4572900184961886,3.005599506768304,"(0.0, 0.0, 0.0, 0.0, 0.0, 0.0)",-0.483467731204937,4.849462099751187e-06,5.401615740548756e-06,"(0.0, 0.0, 0.0, 0.0, 0.0, 0.0)",-0.03441712855198442,-1.4603097330351957,-2.925073785728113,"(0.0, 0.0, 0.0, 0.0, 0.0, 0.0)",0.4660969568661882,-0.014585427836986846,0.38883096045278315,"(0.0, 0.0, 0.0, 0.0, 0.0, 0.0)",0.029067900465992856,False,,,,,False,,,,
26,Open,,,,,,"[-0.026750000193715096, 0.05299999937415123, 0.03999999910593033]","[0.0, -0.0, 1.4572900807517244]","[-0.0982866883277893, 0.061154916882514954, 0.03999999910593033]","[0.0, -0.0, 1.4572948921008348]","[0.026750000193715096, 0.05299999937415123, 0.03999999910593033]","[0.0, 0.0, -1.4603097470714805]","[0.09831098467111588, 0.06093886122107506, 0.03999999910593033]","[0.0, 0.0, -1.4748951413427742]",1.4685610166465697,2.705039556091476,"(0.0, 0.0, 0.0, 0.0, 0.0, 0.0)",-0.43517053908893033,4.819450845044722e-06,-7.202701129551542e-06,"(0.0, 0.0, 0.0, 0.0, 0.0, 0.0)",-0.030992645518402973,-1.471278759731676,-2.632566407155304,"(0.0, 0.0, 0.0, 0.0, 0.0, 0.0)",0.4195301522878829,-0.013127269246907155,0.3499580616191257,"(0.0, 0.0, 0.0, 0.0, 0.0, 0.0)",0.02617336062226555,False,,,,,False,,,,
27,Open,,,,,,"[-0.026750000193715096, 0.05299999937415123, 0.03999999910593033]","[0.0, -0.0, 1.4685611215819594]","[-0.09837405383586884, 0.06034812703728676, 0.03999999910593033]","[0.0, -0.0, 1.468565853091142]","[0.026750000193715096, 0.05299999937415123, 0.03999999910593033]","[0.0, 0.0, -1.4712788457263521]","[0.0983937606215477, 0.06015344336628914, 0.03999999910593033]","[0.0, 0.0, -1.4844061039497418]",1.4787049149819127,2.434535600482329,"(0.0, 0.0, 0.0, 0.0, 0.0, 0.0)",-0.39169363303347604,4.747151892642784e-06,-1.7351748576465223e-05,"(0.0, 0.0, 0.0, 0.0, 0.0, 0.0)",-0.02790732436186781,-1.4811508837585086,-2.3693097664397755,"(0.0, 0.0, 0.0, 0.0, 0.0, 0.0)",0.37761186810531283,-0.011814888241968555,0.3149714411852639,"(0.0, 0.0, 0.0, 0.0, 0.0, 0.0)",0.023565936472848985,False,,,,,False,,,,
28,Open,,,,,,"[-0.026750000193715096, 0.05299999937415123, 0.03999999910593033]","[0.0, -0.0, 1.4787049625213984]","[-0.09844490885734558, 0.059621214866638184, 0.03999999910593033]","[0.0, -0.0, 1.4787095898811649]","[0.026750000193715096, 0.05299999937415123, 0.03999999910593033]","[0.0, 0.0, -1.4811508165812142]","[0.09846089035272598, 0.059445831924676895, 0.03999999910593033]","[0.0, 0.0, -1.492965762433775]",1.4878344234837215,2.191082040434097,"(0.0, 0.0, 0.0, 0.0, 0.0, 0.0)",-0.35255677801820895,4.641283838470101e-06,-2.5408333001444004e-05,"(0.0, 0.0, 0.0, 0.0, 0.0, 0.0)",-0.02512787460267613,-1.4900357953826577,-2.132378789795796,"(0.0, 0.0, 0.0, 0.0, 0.0, 0.0)",0.33987880377374147,-0.010633710863257649,0.2834825708906175,"(0.0, 0.0, 0.0, 0.0, 0.0, 0.0)",0.021217361806457186,False,,,,,False,,,,
29,Close,,,"(0.010000165031897679, 0.16000264050809818, 0.003919197399597577)","(-5.388791991209616e-05, 3.3679978815229247e-06, -9.074720008653711e-11)",,"[-0.026750000193715096, 0.05299999937415123, 0.03999999910593033]","[0.0, -0.0, 1.487834617901085]","[-0.09850236773490906, 0.05896640568971634, 0.03999999910593033]","[0.0, -0.0, 1.4878390921106803]","[0.026750000193715096, 0.05299999937415123, 0.03999999910593033]","[0.0, 0.0, -1.4900358577435544]","[0.09851532429456711, 0.05880843847990036, 0.03999999910593033]","[0.0, 0.0, -1.5006695807985118]",1.4960509811353493,1.9719738363906854,"(0.0, 0.0, 0.0, 0.0, 0.0, 0.0)",-0.3173274216127963,4.509251873886308e-06,-3.168767150011037e-05,"(0.0, 0.0, 0.0, 0.0, 0.0, 0.0)",-0.022624215793833224,-1.498032215844392,-1.9191409108162163,"(0.0, 0.0, 0.0, 0.0, 0.0, 0.0)",0.30591369390909257,-0.00957062017308593,0.2551417656412126,"(0.0, 0.0, 0.0, 0.0, 0.0, 0.0)",0.019102112305110365,False,,,,,False,,,,
30,Close,,,"(0.010000330010418335, 0.1600052801621647, 0.0076635160840755065)","(-0.00010776674212266888, 6.7354271463595154e-06, -3.629275205618536e-10)",,"[-0.026750000193715096, 0.05299999937415123, 0.03999999910593033]","[0.0, -0.0, 1.4960509653323988]","[-0.09854896366596222, 0.058376654982566833, 0.03999999910593033]","[0.0, -0.0, 1.4960555203126162]","[0.026750000193715096, 0.05299999937415123, 0.03999999910593033]","[0.0, 0.0, -1.4980320325532246]","[0.09855947643518448, 0.05823439359664917, 0.03999999910593033]","[0.0, 0.0, -1.5076028800413472]",1.4064458830218143,-21.505223547248388,"(0.0, 0.0, 0.0, 0.0, 0.0, 0.0)",-36.32500847077206,-0.08999559064729075,-21.600023975799512,"(0.0, 0.0, 0.0, 0.0, 0.0, 0.0)",-4.679136399120495,-1.4082289942599528,21.552773180265405,"(0.0, 0.0, 0.0, 0.0, 0.0, 0.0)",36.31473208701179,0.08138609105625041,21.82961069504072,"(0.0, 0.0, 0.0, 0.0, 0.0, 0.0)",4.675963213372079,False,,,,,False,,,,
31,Close,,,"(0.010000494936733278, 0.16000791898094055, 0.011233038807318392)","(-0.00016163646818851668, 1.0102287881965475e-05, -8.164490687548302e-10)",,"[-0.026750000193715096, 0.05299999937415123, 0.03999999910593033]","[0.0, -0.0, 1.4064459844712927]","[-0.0977797880768776, 0.06478003412485123, 0.03999999910593033]","[0.0, -0.0, 1.316450240076391]","[0.026750000193715096, 0.05299999937415123, 0.03999999910593033]","[0.0, 0.0, -1.4082291009672807]","[0.09780067950487137, 0.06465335935354233, 0.03999999910593033]","[0.0, 0.0, -1.3268428349863826]",1.325801294719633,-19.354701192523546,"(0.0, 0.0, 0.0, 0.0, 0.0, 0.0)",3.2936342521930255,-0.17099646652613912,-19.44021021092361,"(0.0, 0.0, 0.0, 0.0, 0.0, 0.0)",0.4145426679866387,-1.3274060948339577,19.39749586223887,"(0.0, 0.0, 0.0, 0.0, 0.0, 0.0)",-3.3024243844052092,0.16324791947241268,19.646838819878944,"(0.0, 0.0, 0.0, 0.0, 0.0, 0.0)",-0.41699994760359754,False,,,,,False,,,,
32,Close,,,"(0.010000659812012168, 0.16001055698314023, 0.0146278458391823)","(-0.0002154970996661642, 1.346858017578936e-05, -1.4512199879406586e-09)",,"[-0.026750000193715096, 0.05299999937415123, 0.03999999910593033]","[0.0, -0.0, 1.3258013857525741]","[-0.09659997373819351, 0.07046370953321457, 0.03999999910593033]","[0.0, -0.0, 1.1548048042561467]","[0.026750000193715096, 0.05299999937415123, 0.03999999910593033]","[0.0, 0.0, -1.3274060658778382]","[0.09662791341543198, 0.07035159319639206, 0.03999999910593033]","[0.0, 0.0, -1.1641581075845935]",1.2532211652476697,-17.41923107327119,"(0.0, 0.0, 0.0, 0.0, 0.0, 0.0)",2.9685258329366073,-0.24389721437960032,-17.496179484830687,"(0.0, 0.0, 0.0, 0.0, 0.0, 0.0)",0.3760018756193849,-1.2546654853505619,17.457746276014984,"(0.0, 0.0, 0.0, 0.0, 0.0, 0.0)",-2.976480273609718,0.2369235243908578,17.682145180426822,"(0.0, 0.0, 0.0, 0.0, 0.0, 0.0)",-0.3782508099482112,False,,,,,False,,,,
33,Close,,,"(0.010000824637423049, 0.16001319418745247, 0.017848014970055004)","(-0.00026934863811186216, 1.6834304115272585e-05, -2.2671484573282825e-09)",,"[-0.026750000193715096, 0.05299999937415123, 0.03999999910593033]","[0.0, -0.0, 1.2532212515508983]","[-0.09514966607093811, 0.07548300176858902, 0.03999999910593033]","[0.0, -0.0, 1.0093239867956962]","[0.026750000193715096, 0.05299999937415123, 0.03999999910593033]","[0.0, 0.0, -1.254665405963893]","[0.09518206864595413, 0.07538418471813202, 0.03999999910593033]","[0.0, 0.0, -1.0177419933055243]",1.1878990487229026,-15.677307965944074,"(0.0, 0.0, 0.0, 0.0, 0.0, 0.0)",2.675103284419244,-0.30950785045582774,-15.746552658294572,"(0.0, 0.0, 0.0, 0.0, 0.0, 0.0)",0.34074508229325023,-1.1891989368155058,15.711971648413485,"(0.0, 0.0, 0.0, 0.0, 0.0, 0.0)",-2.6822973218910153,0.30323153162132754,15.913921735312746,"(0.0, 0.0, 0.0, 0.0, 0.0, 0.0)",-0.34279935345822066,False,,,,,False,,,,
34,Close,,,"(0.010000989414132393, 0.1600158306125408, 0.020893621515273818)","(-0.00032319108508158773, 2.0199459787849396e-05, -3.2641426920478403e-09)",,"[-0.026750000193715096, 0.05299999937415123, 0.03999999910593033]","[0.0, -0.0, 1.1878990574339587]","[-0.09353619813919067, 0.07989988476037979, 0.03999999910593033]","[0.0, -0.0, 0.8783912846834516]","[0.026750000193715096, 0.05299999937415123, 0.03999999910593033]","[0.0, 0.0, -1.1891990098250689]","[0.09357111155986786, 0.07981304824352264, 0.03999999910593033]","[0.0, 0.0, -0.8859674697633095]",1.1291091438506125,-14.109577169349663,"(0.0, 0.0, 0.0, 0.0, 0.0, 0.0)",2.4103712722760626,-0.36855738916456426,-14.17188929009676,"(0.0, 0.0, 0.0, 0.0, 0.0, 0.0)",0.3085687115248564,-1.1302790431339553,14.140774483572143,"(0.0, 0.0, 0.0, 0.0, 0.0, 0.0)",-2.4168742890236286,0.36290870417903687,14.322521413850238,"(0.0, 0.0, 0.0, 0.0, 0.0, 0.0)",-0.31044204201279674,False,,,,,False,,,,
35,Close,,,"(0.010001154143305145, 0.16001846627704427, 0.023764738319401603)","(-0.00037702444213104407, 2.3564047280946926e-05, -4.4421109431381166e-09)",,"[-0.026750000193715096, 0.05299999937415123, 0.03999999910593033]","[0.0, -0.0, 1.1291090274464952]","[-0.09184028208255768, 0.08377750217914581, 0.03999999910593033]","[0.0, -0.0, 0.7605517150898052]","[0.026750000193715096, 0.05299999937415123, 0.03999999910593033]","[0.0, 0.0, -1.130279133319625]","[0.09187624603509903, 0.08370133489370346, 0.03999999910593033]","[0.0, 0.0, -0.7673703325611945]",1.0761982294655512,-12.698619452414698,"(0.0, 0.0, 0.0, 0.0, 0.0, 0.0)",2.1715845710489208,-0.42170194324014043,-12.754692978138287,"(0.0, 0.0, 0.0, 0.0, 0.0, 0.0)",0.27924932151422227,-1.07725113882056,12.72669703521493,"(0.0, 0.0, 0.0, 0.0, 0.0, 0.0)",-2.177460276301377,0.41661812854294633,12.890261847338277,"(0.0, 0.0, 0.0, 0.0, 0.0, 0.0)",-0.2809551529003472,False,,,,,False,,,,
36,Close,,,"(0.010001318826104761, 0.16002110119957821, 0.02646143576036139)","(-0.0004308487108156613, 2.692806668198511e-05, -5.800961497533997e-09)",,"[-0.026750000193715096, 0.05299999937415123, 0.03999999910593033]","[0.0, -0.0, 1.076198055145404]","[-0.09012148529291153, 0.08717681467533112, 0.03999999910593033]","[0.0, -0.0, 0.6544962762796218]","[0.026750000193715096, 0.05299999937415123, 0.03999999910593033]","[0.0, 0.0, -1.0772510781061955]","[0.09015743434429169, 0.08711007237434387, 0.03999999910593033]","[0.0, 0.0, -0.6606329452337051]",1.028578406518996,-11.428757507173229,"(0.0, 0.0, 0.0, 0.0, 0.0, 0.0)",1.9562489498726314,-0.46953201391559385,-11.479216962108818,"(0.0, 0.0, 0.0, 0.0, 0.0, 0.0)",0.2525697399559188,-1.0295260249385039,11.454027331693439,"(0.0, 0.0, 0.0, 0.0, 0.0, 0.0)",-1.961555706583625,0.46495658231577774,11.601228905479532,"(0.0, 0.0, 0.0, 0.0, 0.0, 0.0)",-0.25412105363877113,False,,,,,False,,,,
37,Close,,,"(0.010001483463693249, 0.1600237353987347, 0.0289837817534302)","(-0.0004846638926905951, 3.0291518078376737e-05, -7.3406026780539124e-09)",,"[-0.026750000193715096, 0.05299999937415123, 0.03999999910593033]","[0.0, -0.0, 1.028578444789276]","[-0.08842276781797409, 0.09015467017889023, 0.03999999910593033]","[0.0, -0.0, 0.5590464126725148]","[0.026750000193715096, 0.05299999937415123, 0.03999999910593033]","[0.0, 0.0, -1.029526007298545]","[0.08845794945955276, 0.09009620547294617, 0.03999999910593033]","[0.0, 0.0, -0.564569399435659]",0.9857205658670964,-10.285881756455906,"(0.0, 0.0, 0.0, 0.0, 0.0, 0.0)",1.7621005438122825,-0.5125790520819234,-10.331289159919107,"(0.0, 0.0, 0.0, 0.0, 0.0, 0.0)",0.22832149176550065,-0.9865734224446535,10.308624598524094,"(0.0, 0.0, 0.0, 0.0, 0.0, 0.0)",-1.766891708603882,0.508461165120635,10.441099873165749,"(0.0, 0.0, 0.0, 0.0, 0.0, 0.0)",-0.22973068702752517,False,,,,,False,,,,
38,Close,,,"(0.010001648057231211, 0.16002636889308344, 0.03133184175509247)","(-0.0005384699893107284, 3.3654401557527444e-05, -9.06094284338731e-09)",,"[-0.026750000193715096, 0.05299999937415123, 0.03999999910593033]","[0.0, -0.0, 0.9857205423734198]","[-0.08677425980567932, 0.09276290237903595, 0.03999999910593033]","[0.0, -0.0, 0.47314147483112123]","[0.026750000193715096, 0.05299999937415123, 0.03999999910593033]","[0.0, 0.0, -0.9865734261287252]","[0.08680814504623413, 0.09271169453859329, 0.03999999910593033]","[0.0, 0.0, -0.4781122693565934]",0.9471485092803869,-9.257293580810316,"(0.0, 0.0, 0.0, 0.0, 0.0, 0.0)",1.587086438141582,-0.5513213633331018,-9.29815470028281,"(0.0, 0.0, 0.0, 0.0, 0.0, 0.0)",0.206306403170868,-0.9479160802001881,9.277762138671687,"(0.0, 0.0, 0.0, 0.0, 0.0, 0.0)",-1.5914107042435905,0.5476152664096928,9.396984309373877,"(0.0, 0.0, 0.0, 0.0, 0.0, 0.0)",-0.2075852193448244,False,,,,,False,,,,
39,Close,,,"(0.01000181260787789, 0.16002900170117218, 0.03350567876675359)","(-0.00059226700223067, 3.7016717206835695e-05, -1.0961890388082131e-08)",,"[-0.026750000193715096, 0.05299999937415123, 0.03999999910593033]","[0.0, -0.0, 0.9471486716739237]","[-0.08519625663757324, 0.09504801034927368, 0.03999999910593033]","[0.0, -0.0, 0.39582717163487297]","[0.026750000193715096, 0.05299999937415123, 0.03999999910593033]","[0.0, 0.0, -0.9479160840165974]","[0.08522851020097733, 0.09500313550233841, 0.03999999910593033]","[0.0, 0.0, -0.4003008647547732]",0.9124336583523481,-8.331564222729286,"(0.0, 0.0, 0.0, 0.0, 0.0, 0.0)",1.4293465062267445,-0.5861894225076075,-8.368334201881392,"(0.0, 0.0, 0.0, 0.0, 0.0, 0.0)",0.18633757536892917,-0.9131244721801693,8.349985924804516,"(0.0, 0.0, 0.0, 0.0, 0.0, 0.0)",-1.433248242084051,0.5828539364930729,8.45728082001123,"(0.0, 0.0, 0.0, 0.0, 0.0, 0.0)",-0.18749704763631705,False,,,,,False,,,,
40,Close,,,"(0.010001977116791199, 0.1600316338415276, 0.035505353338314005)","(-0.0006460549330047555, 4.037846511369274e-05, -1.3043353742532214e-08)",,"[-0.026750000193715096, 0.05299999937415123, 0.03999999910593033]","[0.0, -0.0, 0.9124336635104583]","[-0.08370164036750793, 0.0970512256026268, 0.03999999910593033]","[0.0, -0.0, 0.3262442150321584]","[0.026750000193715096, 0.05299999937415123, 0.03999999910593033]","[0.0, 0.0, -0.9131245532476111]","[0.08373206108808517, 0.09701187163591385, 0.03999999910593033]","[0.0, 0.0, -0.3302705841133475]",0.8811902925171133,-7.498407800456356,"(0.0, 0.0, 0.0, 0.0, 0.0, 0.0)",1.2871965063691413,-0.6175706567763247,-7.531496224492115,"(0.0, 0.0, 0.0, 0.0, 0.0, 0.0)",0.16823988009592084,-0.8818120249621524,7.514987332324067,"(0.0, 0.0, 0.0, 0.0, 0.0, 0.0)",-1.2907160846573733,0.6145687204653795,7.61154815335357,"(0.0, 0.0, 0.0, 0.0, 0.0, 0.0)",-0.16929032064296096,False,,,,,False,,,,
41,Close,,,"(0.010002141585127773, 0.16003426533265583, 0.03733092357160428)","(-0.0006998337831870475, 4.3739645365482716e-05, -1.5305241372964883e-08)",,"[-0.026750000193715096, 0.05299999937415123, 0.03999999910593033]","[0.0, -0.0, 0.8811903688816151]","[-0.08229776471853256, 0.09880879521369934, 0.03999999910593033]","[0.0, -0.0, 0.2636196251065186]","[0.026750000193715096, 0.05299999937415123, 0.03999999910593033]","[0.0, 0.0, -0.8818121535754343]","[0.08232623338699341, 0.098774254322052, 0.03999999910593033]","[0.0, 0.0, -0.26724331826119446]",0.853071263265402,-6.7485670204107215,"(0.0, 0.0, 0.0, 0.0, 0.0, 0.0)",1.1591124175888132,-0.6458137504217961,-6.77834247491313,"(0.0, 0.0, 0.0, 0.0, 0.0, 0.0)",0.1518500972569631,-0.8536308224659371,6.763488599091658,"(0.0, 0.0, 0.0, 0.0, 0.0, 0.0)",-1.1622865309865396,0.643112008739745,6.850389185847702,"(0.0, 0.0, 0.0, 0.0, 0.0, 0.0)",-0.15280109527428076,False,,,,,False,,,,
42,Close,,,"(0.010002306014043007, 0.16003689619304312, 0.038982445123681576)","(-0.0007536035543313348, 4.7100258049582536e-05, -1.7747461781428295e-08)",,"[-0.026750000193715096, 0.05299999937415123, 0.03999999910593033]","[0.0, -0.0, 0.8530713239495782]","[-0.08098787814378738, 0.10035242885351181, 0.03999999910593033]","[0.0, -0.0, 0.2072574956851119]","[0.026750000193715096, 0.05299999937415123, 0.03999999910593033]","[0.0, 0.0, -0.8536307856313979]","[0.08101436495780945, 0.10032207518815994, 0.03999999910593033]","[0.0, 0.0, -0.21051882644475053]",0.8277641369388617,-6.073710318369648,"(0.0, 0.0, 0.0, 0.0, 0.0, 0.0)",1.043715976216214,-0.6712325191394197,-6.100504492229669,"(0.0, 0.0, 0.0, 0.0, 0.0, 0.0)",0.1370167890019201,-0.8282677402193435,6.0871397391824935,"(0.0, 0.0, 0.0, 0.0, 0.0, 0.0)",-1.0465779375227178,0.6688009525283538,6.165346509266115,"(0.0, 0.0, 0.0, 0.0, 0.0, 0.0)",-0.1378772244212715,False,,,,,False,,,,
43,Close,,,"(0.010002470404691093, 0.16003952644115657, 0.04045997120998789)","(-0.0008073642479911328, 5.0460303253361964e-05, -2.0369923505779015e-08)",,"[-0.026750000193715096, 0.05299999937415123, 0.03999999910593033]","[0.0, -0.0, 0.8277641182932235]","[-0.07977228611707687, 0.10170972347259521, 0.03999999910593033]","[0.0, -0.0, 0.1565316389415725]","[0.026750000193715096, 0.05299999937415123, 0.03999999910593033]","[0.0, 0.0, -0.8282677342123946]","[0.07979680597782135, 0.10168302059173584, 0.03999999910593033]","[0.0, 0.0, -0.1594667900835625]",0.8049877232449756,-5.4663392865326825,"(0.0, 0.0, 0.0, 0.0, 0.0, 0.0)",0.9397613626777375,-0.6941093969081942,-5.49045066450586,"(0.0, 0.0, 0.0, 0.0, 0.0, 0.0)",0.12359998406321729,-0.8054409661974091,5.478425765264244,"(0.0, 0.0, 0.0, 0.0, 0.0, 0.0)",-0.9423413878167864,0.6919209877745929,5.54880845909737,"(0.0, 0.0, 0.0, 0.0, 0.0, 0.0)",-0.12437805104754245,False,,,,,False,,,,
44,Close,,,"(0.010002634758225062, 0.1600421560954447, 0.041763552607370504)","(-0.000861115865719684, 5.381978106418352e-05, -2.3172535119669436e-08)",,"[-0.026750000193715096, 0.05299999937415123, 0.03999999910593033]","[0.0, -0.0, 0.8049877164750058]","[-0.07864919304847717, 0.10290464758872986, 0.03999999910593033]","[0.0, -0.0, 0.11087832859978779]","[0.026750000193715096, 0.05299999937415123, 0.03999999910593033]","[0.0, 0.0, -0.805440964305088]","[0.07867180556058884, 0.10288111865520477, 0.03999999910593033]","[0.0, 0.0, -0.11351997099607207]",0.784488950920478,-4.919705357879415,"(0.0, 0.0, 0.0, 0.0, 0.0, 0.0)",0.8461229797239068,-0.7146985741739192,-4.941402543774016,"(0.0, 0.0, 0.0, 0.0, 0.0, 0.0)",0.11147072977230046,-0.7848968695776682,4.93058318873782,"(0.0, 0.0, 0.0, 0.0, 0.0, 0.0)",-0.8484484528940599,0.7127290066915236,4.993924540063379,"(0.0, 0.0, 0.0, 0.0, 0.0, 0.0)",-0.1121739668696123,False,,,,,False,,,,
45,Close,,,"(0.010002799075796832, 0.16004478517433812, 0.04289323765696492)","(-0.0009148584090699577, 5.7178691569402595e-05, -2.615520523253533e-08)",,"[-0.026750000193715096, 0.05299999937415123, 0.03999999910593033]","[0.0, -0.0, 0.7844889896573499]","[-0.07761538028717041, 0.10395795851945877, 0.03999999910593033]","[0.0, -0.0, 0.06979037514545033]","[0.026750000193715096, 0.05299999937415123, 0.03999999910593033]","[0.0, 0.0, -0.7848969068252226]","[0.07763615995645523, 0.10393720120191574, 0.03999999910593033]","[0.0, 0.0, -0.07216786709232846]",0.7660400558284302,-4.427734822091471,"(0.0, 0.0, 0.0, 0.0, 0.0, 0.0)",0.7617842585328375,-0.7332288222135146,-4.44725952950288,"(0.0, 0.0, 0.0, 0.0, 0.0, 0.0)",0.10051055612556806,-0.7664071826199014,4.437524869864038,"(0.0, 0.0, 0.0, 0.0, 0.0, 0.0)",-0.7638799793048979,0.7314562121459494,4.494529309062177,"(0.0, 0.0, 0.0, 0.0, 0.0, 0.0)",-0.10114588070786824,False,,,,,False,,,,
46,Close,,,"(0.010002963358557236, 0.16004741369625017, 0.04384907226694074)","(-0.0009685918795946493, 6.053703485636736e-05, -2.9317842489583264e-08)",,"[-0.026750000193715096, 0.05299999937415123, 0.03999999910593033]","[0.0, -0.0, 0.7660400058439011]","[-0.07666666060686111, 0.10488764196634293, 0.03999999910593033]","[0.0, -0.0, 0.0328112365488731]","[0.026750000193715096, 0.05299999937415123, 0.03999999910593033]","[0.0, 0.0, -0.7664072421942376]","[0.07668570429086685, 0.1048693135380745, 0.03999999910593033]","[0.0, 0.0, -0.03495097036229706]",0.7494360502455871,-3.984961339882325,"(0.0, 0.0, 0.0, 0.0, 0.0, 0.0)",0.6858274268188955,-0.7499060350622873,-4.002531083705426,"(0.0, 0.0, 0.0, 0.0, 0.0, 0.0)",0.09061088591719418,-0.7497664643579113,3.9937723828776335,"(0.0, 0.0, 0.0, 0.0, 0.0, 0.0)",-0.6877158393779155,0.7483106866034595,4.045073869802414,"(0.0, 0.0, 0.0, 0.0, 0.0, 0.0)",-0.09118463108881669,False,,,,,False,,,,
47,Close,,,"(0.010003127607656072, 0.16005004167957756, 0.04463109991511072)","(-0.0010223162788461832, 6.389481101241881e-05, -3.266035557177819e-08)",,"[-0.026750000193715096, 0.05299999937415123, 0.03999999910593033]","[0.0, -0.0, 0.7494360616149593]","[-0.07579827308654785, 0.1057092696428299, 0.03999999910593033]","[0.0, 0.0, -0.00046998485639781964]","[0.026750000193715096, 0.05299999937415123, 0.03999999910593033]","[0.0, 0.0, -0.7497665229086657]","[0.07581568509340286, 0.10569305717945099, 0.03999999910593033]","[0.0, 0.0, -0.0014557777936095985]",0.7344924452210284,-3.5864652058940925,"(0.0, 0.0, 0.0, 0.0, 0.0, 0.0)",0.6173964503690262,-0.7649166300024903,-3.602542785648727,"(0.0, 0.0, 0.0, 0.0, 0.0, 0.0)",0.08164469448201127,-0.7347898179221202,3.594395144589871,"(0.0, 0.0, 0.0, 0.0, 0.0, 0.0)",-0.61909767957405,0.7634808239898891,3.6408329727431203,"(0.0, 0.0, 0.0, 0.0, 0.0, 0.0)",-0.08216247127692902,False,,,,,False,,,,
48,Close,,,"(0.010003291824242136, 0.16005266914270105, 0.04523936165140331)","(-0.0010760316083767074, 6.725202012489063e-05, -3.618265319583079e-08)",,"[-0.026750000193715096, 0.05299999937415123, 0.03999999910593033]","[0.0, -0.0, 0.7344924171356654]","[-0.07500515878200531, 0.10643631219863892, 0.03999999910593033]","[0.0, 0.0, -0.03042418292779103]","[0.026750000193715096, 0.05299999937415123, 0.03999999910593033]","[0.0, 0.0, -0.7347898072320369]","[0.07502105087041855, 0.10642196238040924, 0.03999999910593033]","[0.0, -0.0, 0.028691003185096618]",0.7210432006989256,-3.227818685304683,"(0.0, 0.0, 0.0, 0.0, 0.0, 0.0)",0.5558325671900768,-0.77842604750784,-3.2422602012839143,"(0.0, 0.0, 0.0, 0.0, 0.0, 0.0)",0.07360992294062317,-0.7213108361299082,3.234955630130884,"(0.0, 0.0, 0.0, 0.0, 0.0, 0.0)",-0.5573653507703412,0.7771338289584356,3.2767211924511668,"(0.0, 0.0, 0.0, 0.0, 0.0, 0.0)",-0.07407739542501454,False,,,,,False,,,,
49,Close,,,"(0.010003456009463264, 0.16005529610398603, 0.04567389610019914)","(-0.0011297378697381003, 7.060866228110946e-05, -3.988464411418517e-08)",,"[-0.026750000193715096, 0.05299999937415123, 0.03999999910593033]","[0.0, -0.0, 0.7210432248946826]","[-0.07428213953971863, 0.10708045959472656, 0.03999999910593033]","[0.0, 0.0, -0.05738284539856889]","[0.026750000193715096, 0.05299999937415123, 0.03999999910593033]","[0.0, 0.0, -0.7213108742429458]","[0.07429660856723785, 0.10706773400306702, 0.03999999910593033]","[0.0, -0.0, 0.0558229905847104]",0.708938880629033,-2.905036816774215,"(0.0, 0.0, 0.0, 0.0, 0.0, 0.0)",0.5003668258645501,-0.7905844163893876,-2.9180085315714246,"(0.0, 0.0, 0.0, 0.0, 0.0, 0.0)",0.06632913423961855,-0.7091797525169173,2.911460067117798,"(0.0, 0.0, 0.0, 0.0, 0.0, 0.0)",-0.5017475327577147,0.7894214258858812,2.9490232625869344,"(0.0, 0.0, 0.0, 0.0, 0.0, 0.0)",-0.06675089596581112,False,,,,,False,,,,
50,Close,,,"(0.010001644182078712, 0.16005595153396976, 0.045940321410535084)","(-0.0011271805217326655, 1.767785898679914e-05, -1.508889111938428e-08)",,"[-0.026750000193715096, 0.05299999937415123, 0.03999999910593033]","[0.0, -0.0, 0.7089389671526269]","[-0.07362406700849533, 0.10765182226896286, 0.03999999910593033]","[0.0, 0.0, -0.08164554069303018]","[0.026750000193715096, 0.05299999937415123, 0.03999999910593033]","[0.0, 0.0, -0.7091797033714331]","[0.0736372321844101, 0.10764053463935852, 0.03999999910593033]","[0.0, -0.0, 0.08024167743029369]",0.6980449925661297,-2.6145331350967917,"(0.0, 0.0, 0.0, 0.0, 0.0, 0.0)",0.4504252929298086,-0.8015268519725993,-2.6261845399708146,"(0.0, 0.0, 0.0, 0.0, 0.0, 0.0)",0.059761147909024356,-0.6982617772652256,2.6203140604060167,"(0.0, 0.0, 0.0, 0.0, 0.0, 0.0)",-0.4516689022418484,0.8004801661036254,2.6540976522586175,"(0.0, 0.0, 0.0, 0.0, 0.0, 0.0)",-0.06014157277442886,False,,,,,False,,,,
51,Close,,,"(0.009998458164918766, 0.16005543218265145, 0.046184544665354044)","(-0.001116587313714928, -4.731063982249702e-05, 3.3486629919706074e-09)",,"[-0.026750000193715096, 0.05299999937415123, 0.03999999910593033]","[0.0, -0.0, 0.6980450466292163]","[-0.07302592694759369, 0.10815921425819397, 0.03999999910593033]","[0.0, 0.0, -0.1034818592301779]","[0.026750000193715096, 0.05299999937415123, 0.03999999910593033]","[0.0, 0.0, -0.6982617371246688]","[0.07303788512945175, 0.10814917832612991, 0.03999999910593033]","[0.0, -0.0, 0.10221840210156648]",0.6882404933095168,-2.3530798215871136,"(0.0, 0.0, 0.0, 0.0, 0.0, 0.0)",0.40545980991383274,-0.8113749570468809,-2.3635452178275753,"(0.0, 0.0, 0.0, 0.0, 0.0, 0.0)",0.0538375991228723,-0.688435599538703,2.358282654365416,"(0.0, 0.0, 0.0, 0.0, 0.0, 0.0)",-0.4065798463491374,0.810432944800545,2.3886668872606847,"(0.0, 0.0, 0.0, 0.0, 0.0, 0.0)",-0.0541806611811555,False,,,,,False,,,,
52,Close,,,"(0.0099979269032565, 0.16005188637635104, 0.04640949954916324)","(-0.0010442772263960227, -5.814874739306873e-05, 7.787963860925158e-09)",,"[-0.026750000193715096, 0.05299999937415123, 0.03999999910593033]","[0.0, -0.0, 0.688240548987758]","[-0.07248289883136749, 0.10861026495695114, 0.03999999910593033]","[0.0, 0.0, -0.12313446206189271]","[0.026750000193715096, 0.05299999937415123, 0.03999999910593033]","[0.0, 0.0, -0.6884356086136862]","[0.07249374687671661, 0.10860133916139603, 0.03999999910593033]","[0.0, -0.0, 0.1219973374555316]",0.679416393078237,-2.117784055507141,"(0.0, 0.0, 0.0, 0.0, 0.0, 0.0)",0.3649762140031281,-0.8202374613421928,-2.12700103087486,"(0.0, 0.0, 0.0, 0.0, 0.0, 0.0)",0.04851286211734207,-0.6795919883598663,2.1224666829208143,"(0.0, 0.0, 0.0, 0.0, 0.0, 0.0)",-0.36598488497268467,0.8193896503204905,2.149609324786922,"(0.0, 0.0, 0.0, 0.0, 0.0, 0.0)",-0.04882227338805697,False,,,,,False,,,,
53,Close,,,"(0.009997966950406065, 0.16004795201914346, 0.046616050094935475)","(-0.0009640430328522325, -5.7324486097668704e-05, 4.2980615420070005e-09)",,"[-0.026750000193715096, 0.05299999937415123, 0.03999999910593033]","[0.0, -0.0, 0.6794163791618646]","[-0.07199041545391083, 0.10901165008544922, 0.03999999910593033]","[0.0, 0.0, -0.1408210743259801]","[0.026750000193715096, 0.05299999937415123, 0.03999999910593033]","[0.0, 0.0, -0.6795920181483843]","[0.07200025022029877, 0.1090037003159523, 0.03999999910593033]","[0.0, -0.0, 0.13979766167419433]",0.6714747537704133,-1.9059934338776885,"(0.0, 0.0, 0.0, 0.0, 0.0, 0.0)",0.3285291326313333,-0.8282143561304102,-1.914454749172182,"(0.0, 0.0, 0.0, 0.0, 0.0, 0.0)",0.043663125146434535,-0.6716327895238797,1.9102077206367922,"(0.0, 0.0, 0.0, 0.0, 0.0, 0.0)",-0.3294374536237565,0.8274513303019508,1.934803195550486,"(0.0, 0.0, 0.0, 0.0, 0.0, 0.0)",-0.043941831288343336,False,,,,,False,,,,
54,Close,,,"(0.009998107600018924, 0.16004411888380865, 0.0468059782297436)","(-0.0008858309445970004, -5.447527859797503e-05, 4.128601528647624e-08)",,"[-0.026750000193715096, 0.05299999937415123, 0.03999999910593033]","[0.0, -0.0, 0.6714747449539094]","[-0.07154417037963867, 0.10936915874481201, 0.03999999910593033]","[0.0, 0.0, -0.15673960659097733]","[0.026750000193715096, 0.05299999937415123, 0.03999999910593033]","[0.0, 0.0, -0.6716327690441329]","[0.07155308127403259, 0.10936208069324493, 0.03999999910593033]","[0.0, -0.0, 0.15581855230220754]",0.664327278393372,-1.7153940904899205,"(0.0, 0.0, 0.0, 0.0, 0.0, 0.0)",0.2957170811345372,-0.8353934979980445,-1.7229940482322428,"(0.0, 0.0, 0.0, 0.0, 0.0, 0.0)",0.03934112702889199,-0.6644695105714917,1.7191869485731137,"(0.0, 0.0, 0.0, 0.0, 0.0, 0.0)",-0.2965349881453131,0.8347067784412298,1.7413075534269409,"(0.0, 0.0, 0.0, 0.0, 0.0, 0.0)",-0.039592428071821256,False,,,,,False,,,,
55,Close,,,"(0.009998248644105466, 0.16004048002584464, 0.0469807018618576)","(-0.0008115684428503489, -5.1596750749095254e-05, 7.881188886077776e-08)",,"[-0.026750000193715096, 0.05299999937415123, 0.03999999910593033]","[0.0, -0.0, 0.6643273336690038]","[-0.07114013284444809, 0.10968788713216782, 0.03999999910593033]","[0.0, 0.0, -0.17106622141763456]","[0.026750000193715096, 0.05299999937415123, 0.03999999910593033]","[0.0, 0.0, -0.6644694779113771]","[0.07114819437265396, 0.10968156903982162, 0.03999999910593033]","[0.0, -0.0, 0.17023725548976373]",0.6578945505540348,-1.543854681440929,"(0.0, 0.0, 0.0, 0.0, 0.0, 0.0)",0.2661784897251144,-0.8418546682622772,-1.5506808634158242,"(0.0, 0.0, 0.0, 0.0, 0.0, 0.0)",0.03542959308904228,-0.6580225595143425,1.547268253715802,"(0.0, 0.0, 0.0, 0.0, 0.0, 0.0)",-0.26691494494593054,0.8412366239853526,1.567162930589489,"(0.0, 0.0, 0.0, 0.0, 0.0, 0.0)",-0.035656056287006674,False,,,,,False,,,,
56,Close,,,"(0.009998390752654573, 0.16003702894197389, 0.04714144752999396)","(-0.0007411380797103218, -4.869650481896534e-05, 1.1687517768299383e-07)",,"[-0.026750000193715096, 0.05299999937415123, 0.03999999910593033]","[0.0, -0.0, 0.6578945475257985]","[-0.07077455520629883, 0.1099722608923912, 0.03999999910593033]","[0.0, 0.0, -0.18396012465064338]","[0.026750000193715096, 0.05299999937415123, 0.03999999910593033]","[0.0, 0.0, -0.6580225896942233]","[0.07078184932470322, 0.10996662080287933, 0.03999999910593033]","[0.0, -0.0, 0.18321406389742323]",0.6521050954986313,-1.3894692132968354,"(0.0, 0.0, 0.0, 0.0, 0.0, 0.0)",0.23958744527110798,-0.8476696697618468,-1.395600359896693,"(0.0, 0.0, 0.0, 0.0, 0.0, 0.0)",0.031904902566438624,-0.6522203035629083,1.392541428344221,"(0.0, 0.0, 0.0, 0.0, 0.0, 0.0)",-0.24025052935853647,0.8471134329078756,1.410434141405507,"(0.0, 0.0, 0.0, 0.0, 0.0, 0.0)",-0.032108956045352514,False,,,,,False,,,,
57,Close,,,"(0.009998534235924597, 0.16003375955333046, 0.04728933347451534)","(-0.0006744157946989166, -4.576820860538318e-05, 1.554405829918684e-07)",,"[-0.026750000193715096, 0.05299999937415123, 0.03999999910593033]","[0.0, -0.0, 0.6521051450040646]","[-0.07044398784637451, 0.11022617667913437, 0.03999999910593033]","[0.0, 0.0, -0.19556454293122102]","[0.026750000193715096, 0.05299999937415123, 0.03999999910593033]","[0.0, 0.0, -0.6522203497730787]","[0.07045057415962219, 0.11022114753723145, 0.03999999910593033]","[0.0, -0.0, 0.19489313608724637]",0.6468945859487681,-1.250522291967151,"(0.0, 0.0, 0.0, 0.0, 0.0, 0.0)",0.2156503992603495,-0.8529031244958994,-1.2560291361726517,"(0.0, 0.0, 0.0, 0.0, 0.0, 0.0)",0.02872919688306315,-0.6469982732066174,1.253287285509799,"(0.0, 0.0, 0.0, 0.0, 0.0, 0.0)",-0.2162473971085442,0.8524025140258721,1.2693794683191757,"(0.0, 0.0, 0.0, 0.0, 0.0, 0.0)",-0.02891303657535659,False,,,,,False,,,,
58,Close,,,"(0.009998679410322496, 0.16003066597344334, 0.0474253884764576)","(-0.0006112814540129935, -4.2805404436077314e-05, 1.9447426774393396e-07)",,"[-0.026750000193715096, 0.05299999937415123, 0.03999999910593033]","[0.0, -0.0, 0.6468945636476681]","[-0.07014521211385727, 0.11045306921005249, 0.03999999910593033]","[0.0, 0.0, -0.20600854729134555]","[0.026750000193715096, 0.05299999937415123, 0.03999999910593033]","[0.0, 0.0, -0.6469982503054421]","[0.07015117257833481, 0.11044856905937195, 0.03999999910593033]","[0.0, -0.0, 0.20540423443750838]",0.6422051273538913,-1.125470062770436,"(0.0, 0.0, 0.0, 0.0, 0.0, 0.0)",0.1941029233168818,-0.8576131917611358,-1.1304161436567226,"(0.0, 0.0, 0.0, 0.0, 0.0, 0.0)",0.025868240883426936,-0.6422984458859556,1.1279585569588184,"(0.0, 0.0, 0.0, 0.0, 0.0, 0.0)",-0.19464040126091972,0.8571626447690798,1.1424313783698345,"(0.0, 0.0, 0.0, 0.0, 0.0, 0.0)",-0.026033851694478666,False,,,,,False,,,,
59,Move,,,"(0.009998826598722164, 0.16002774252192944, 0.04755055901421763)","(-0.0005516191299448554, -3.980150267197137e-05, 2.339437659612592e-07)","[0.0, 0.0, 0.0]","[-0.026750000193715096, 0.05299999937415123, 0.03999999910593033]","[0.0, -0.0, 0.6422051137296667]","[-0.0698753148317337, 0.11065594106912613, 0.03999999910593033]","[0.0, 0.0, -0.2154080556264429]","[0.026750000193715096, 0.05299999937415123, 0.03999999910593033]","[0.0, 0.0, -0.6422983956794274]","[0.06988069415092468, 0.1106519103050232, 0.03999999910593033]","[0.0, -0.0, 0.21486417441436167]",0.6379846146185022,-1.0129230564933929,"(0.0, 0.0, 0.0, 0.0, 0.0, 0.0)",0.17470684718642912,-0.8618522144704561,-1.0173654502368856,"(0.0, 0.0, 0.0, 0.0, 0.0, 0.0)",0.023291096758263134,-0.6380686012973601,1.0151627012629356,"(0.0, 0.0, 0.0, 0.0, 0.0, 0.0)",-0.1751907229705418,0.8614467243673204,1.02817910357775,"(0.0, 0.0, 0.0, 0.0, 0.0, 0.0)",-0.023440272040621463,False,,,,,True,"(0.04276013174954747, 0.17974174897294792, 0.02399995643463635)","(-0.9999999990838299, -1.9447426661030803e-07, -4.2805404423670755e-05)",0.0013234533115717422,0.0
60,Move,,,"(0.008699259039732246, 0.1597652061907072, 0.04782485533738502)","(0.0040480273580015685, 0.009650479713711625, 0.017575803187450934)","[-0.0012995675589899183, -0.00026253633122225173, 0.00027429632316738894]","[-0.026750000193715096, 0.05299999937415123, 0.03999999910593033]","[0.0, -0.0, 0.6379846501970732]","[-0.06963159143924713, 0.1108374372124672, 0.03999999910593033]","[0.0, 0.0, -0.22386762157269943]","[0.026750000193715096, 0.05299999937415123, 0.03999999910593033]","[0.0, 0.0, -0.638068602671057]","[0.06963644921779633, 0.11083383113145828, 0.03999999910593033]","[0.0, -0.0, 0.22337816170537766]",0.6141590059460926,-5.718146081378296,"(0.0, 0.0, 0.0, 0.0, 0.0, 0.0)",-6.715100343954984,-0.8614283121995241,0.10173654502368734,"(0.0, 0.0, 0.0, 0.0, 0.0, 0.0)",-0.3723637437215536,-0.6186765363685498,4.654095582914465,"(0.0, 0.0, 0.0, 0.0, 0.0, 0.0)",16.91452213543579,0.8602423878670417,-0.28904076006690205,"(0.0, 0.0, 0.0, 0.0, 0.0, 0.0)",7.026754130549747,False,,,,,True,"(0.041928616181162004, 0.17969877893574898, 0.023999959438538117)","(-0.9999999992078928, -2.3394376620903917e-07, -3.980150265941498e-05)",0.0004918567139684023,94.17969713248019
61,Move,,,"(0.006953428279101256, 0.15936555806379668, 0.04799883027777207)","(0.0036027003309908674, 0.011726089522938334, 0.045571805054608026)","[-0.0030453983196209082, -0.000662184458132764, 0.0004482712635544353]","[-0.026750000193715096, 0.05299999937415123, 0.03999999910593033]","[0.0, -0.0, 0.6141590305095613]","[-0.06824154406785965, 0.11184260249137878, 0.03999999910593033]","[0.0, 0.0, -0.24726930604170874]","[0.026750000193715096, 0.05299999937415123, 0.03999999910593033]","[0.0, 0.0, -0.6186765449450942]","[0.06850694119930267, 0.11165456473827362, 0.03999999910593033]","[0.0, -0.0, 0.24156588090171732]",0.5923752537221402,-5.228100533748595,"(0.0, 0.0, 0.0, 0.0, 0.0, 0.0)",0.6968351830029371,-0.8614707024266173,-0.010173654502368734,"(0.0, 0.0, 0.0, 0.0, 0.0, 0.0)",0.03860943376531379,-0.6008618977467228,4.275513269238477,"(0.0, 0.0, 0.0, 0.0, 0.0, 0.0)",3.1840553339598543,0.8603207379647874,0.018804023458970476,"(0.0, 0.0, 0.0, 0.0, 0.0, 0.0)",2.2071937117843152,False,,,,,True,"(0.03955126028332891, 0.18000420521160232, 0.023999959438538117)","(-0.9999999992078928, -2.3394376620903917e-07, -3.980150265941498e-05)",-4.69285261207243e-06,0.0
62,Move,,,"(0.005232479171843643, 0.15895611509417099, 0.04805192961782931)","(0.0015613319654504138, 0.011710638263295036, 0.07400765980182708)","[-0.004766347426878521, -0.0010716274277584592, 0.0005013706036116755]","[-0.026750000193715096, 0.05299999937415123, 0.03999999910593033]","[0.0, -0.0, 0.5923752994005711]","[-0.0669499859213829, 0.1127324104309082, 0.03999999910593033]","[0.0, 0.0, -0.2690954538189607]","[0.026750000193715096, 0.05299999937415123, 0.03999999910593033]","[0.0, 0.0, -0.6008619062673114]","[0.0674554631114006, 0.11238910257816315, 0.03999999910593033]","[0.0, -0.0, 0.2594588653702835]",0.5711748754471921,-5.088090785987531,"(0.0, 0.0, 0.0, 0.0, 0.0, 0.0)",0.20179723839696584,-0.8614666854136499,0.0009640831121563087,"(0.0, 0.0, 0.0, 0.0, 0.0, 0.0)",0.015124512099487388,-0.5830478441846109,4.27537285490686,"(0.0, 0.0, 0.0, 0.0, 0.0, 0.0)",-0.00040728805220429705,0.8603129289032243,-0.001874174775147154,"(0.0, 0.0, 0.0, 0.0, 0.0, 0.0)",-0.0017677334094061982,False,,,,,True,"(0.03728150083157586, 0.18020972647077313, 0.023999959438538117)","(-0.9999999992078928, -2.3394376620903917e-07, -3.980150265941498e-05)",0.00010136561290409651,0.0
63,Move,,,"(0.003536438132730313, 0.15853702184869162, 0.04798413986117641)","(-0.002178499075898401, 0.009685758062407228, 0.10285468498251224)","[-0.006462388465991851, -0.0014907206732378275, 0.0004335808469587768]","[-0.026750000193715096, 0.05299999937415123, 0.03999999910593033]","[0.0, -0.0, 0.5711748797881039]","[-0.06567469984292984, 0.1135711818933487, 0.03999999910593033]","[0.0, 0.0, -0.2902918330000066]","[0.026750000193715096, 0.05299999937415123, 0.03999999910593033]","[0.0, 0.0, -0.5830479010023177]","[0.06639109551906586, 0.11310476809740067, 0.03999999910593033]","[0.0, -0.0, 0.2772650915613622]",0.5507922484404775,-4.891830481611522,"(0.0, 0.0, 0.0, 0.0, 0.0, 0.0)",0.282294284049585,-0.8614673765775518,-0.00016587933645189224,"(0.0, 0.0, 0.0, 0.0, 0.0, 0.0)",0.019719768305812027,-0.565275293151566,4.265412247930778,"(0.0, 0.0, 0.0, 0.0, 0.0, 0.0)",-0.012306804327906049,0.8603137161198487,0.00018893198985979812,"(0.0, 0.0, 0.0, 0.0, 0.0, 0.0)",-0.0004299034376783175,False,,,,,True,"(0.035014354147368115, 0.18037738642755824, 0.023999959438538117)","(-0.9999999992078928, -2.3394376620903917e-07, -3.980150265941498e-05)",0.0001657852207818292,0.0
64,Move,,,"(0.0033070809685918903, 0.15939336139403074, 0.0480245948749005)","(-0.003221721649284341, 0.008758192496794307, 0.10007245081902345)","[-0.006691745630130274, -0.0006343811278987088, 0.00047403586068286985]","[-0.026750000193715096, 0.05299999937415123, 0.03999999910593033]","[0.0, -0.0, 0.5507922756468575]","[-0.06443209946155548, 0.11435192823410034, 0.03999999910593033]","[0.0, 0.0, -0.31067510738133]","[0.026750000193715096, 0.05299999937415123, 0.03999999910593033]","[0.0, 0.0, -0.5652752430676895]","[0.06531667709350586, 0.11379976570606232, 0.03999999910593033]","[0.0, -0.0, 0.2950384296353975]",0.5330621314256022,-4.255228083570051,"(0.0, 0.0, 0.0, 0.0, 0.0, 0.0)",-63.6841566907319,-0.833899768100212,6.616226034561552,"(0.0, 0.0, 0.0, 0.0, 0.0, 0.0)",-32.0033096547166,-0.5494184347075574,3.805646026562078,"(0.0, 0.0, 0.0, 0.0, 0.0, 0.0)",54.08522476914028,0.834294882877888,-6.244519978070589,"(0.0, 0.0, 0.0, 0.0, 0.0, 0.0)",25.974823871813367,True,"(-0.030827226021807298, 0.18072875671023755, 0.023990313633420805)","(0.9946684597633704, 0.10266861339458756, -0.009685606619977753)",0.00023266339136997558,510.2877732171601,True,"(0.03274929454054999, 0.18050411530517568, 0.023999959438538117)","(-0.9999999992078928, -2.3394376620903917e-07, -3.980150265941498e-05)",0.00018643181396489492,418.4587664295024
65,Move,"(0.0, 0.0, 0.0)","(0.0, -0.0, 0.0)","(0.0031969503873777684, 0.16028143882127593, 0.048054583489053525)","(-0.004372781608329888, 0.007939463136719069, 0.09861198334618497)","[-0.006801876211344396, 0.00025369629934648974, 0.0005040244748358916]","[-0.026750000193715096, 0.05299999937415123, 0.03999999910593033]","[0.0, -0.0, 0.5330621158171134]","[-0.06333845853805542, 0.11501035839319229, 0.03999999910593033]","[0.0, 0.0, -0.30083767855036603]","[0.026750000193715096, 0.05299999937415123, 0.03999999910593033]","[0.0, 0.0, -0.549418426545043]","[0.0643477737903595, 0.11440364271402359, 0.03999999910593033]","[0.0, -0.0, 0.2848764361199625]",0.5161701590322703,-4.054073374399667,"(0.0, 0.0, 0.0, 0.0, 0.0, 0.0)",-68.88180562685734,-0.8061093417891989,6.669702314643141,"(0.0, 0.0, 0.0, 0.0, 0.0, 0.0)",-35.756361121383094,-0.5337544439677235,3.7593577775601132,"(0.0, 0.0, 0.0, 0.0, 0.0, 0.0)",68.77952387616044,0.8075007011486295,-6.430603615022057,"(0.0, 0.0, 0.0, 0.0, 0.0, 0.0)",33.85011913137436,True,"(-0.030386831991674287, 0.18170201039644102, 0.02399124115951112)","(0.9949587688124035, 0.09990167360330966, -0.008758080529661552)",-0.0003521033588324185,534.8399967547618,True,"(0.03245991098360225, 0.1814354915724969, 0.023999959438538117)","(-0.9999999992078928, -2.3394376620903917e-07, -3.980150265941498e-05)",3.895377007335016e-05,524.277520594291
66,Move,"(0.0010126582278481011, 0.0, -0.0010126582278481011)","(0.0, -0.0, 0.0)","(0.003103231430513846, 0.16109440397195374, 0.048059086996620294)","(-0.004816457762876065, 0.004152668738523914, 0.09477766741003538)","[-0.006895595168208318, 0.0010666614500242921, 0.0005085279824026609]","[-0.026750000193715096, 0.05299999937415123, 0.03999999910593033]","[0.0, -0.0, 0.5161702079325045]","[-0.062285806983709335, 0.11561953276395798, 0.03999999910593033]","[0.0, 0.0, -0.28993919682770425]","[0.026750000193715096, 0.05299999937415123, 0.03999999910593033]","[0.0, 0.0, -0.5337544427276155]","[0.0633813738822937, 0.11498501896858215, 0.03999999910593033]","[0.0, -0.0, 0.27374624928461355]",0.5166144337824271,0.10662594003765413,"(0.0, 0.0, 0.0, 0.0, 0.0, 0.0)",5.0099850593155235,-0.8088825038537306,-0.6655588954876208,"(0.0, 0.0, 0.0, 0.0, 0.0, 0.0)",-0.47721716603763553,-0.5367630675167633,-0.7220696517695289,"(0.0, 0.0, 0.0, 0.0, 0.0, 0.0)",-5.770589790420478,0.8101801193215553,0.6430603615022044,"(0.0, 0.0, 0.0, 0.0, 0.0, 0.0)",0.2689174556793983,True,"(-0.03006166347399304, 0.18265404950541297, 0.023992059860314583)","(0.9951104129424696, 0.09844913561342714, -0.007939379726199769)",-0.0007346128178897825,2.032966651424181,True,"(0.032241548852435555, 0.18236762460912842, 0.023999959438538117)","(-0.9999999992078928, -2.3394376620903917e-07, -3.980150265941498e-05)",-0.00012424112725224057,0.0
67,Move,"(0.0020253164556962027, 0.0, -0.0020253164556962027)","(0.0, -0.0, 0.0)","(0.003000374754667792, 0.16186142795961503, 0.04798846308081075)","(-0.0046083527049340595, -0.0011701693448418634, 0.08997092999547027)","[-0.0069984518440543726, 0.0018336854376855838, 0.0004379040665931158]","[-0.026750000193715096, 0.05299999937415123, 0.03999999910593033]","[0.0, -0.0, 0.5166145167686849]","[-0.06231362372636795, 0.1156037449836731, 0.03999999910593033]","[0.0, 0.0, -0.29226808746388727]","[0.026750000193715096, 0.05299999937415123, 0.03999999910593033]","[0.0, 0.0, -0.5367630711600129]","[0.06356769800186157, 0.11487452685832977, 0.03999999910593033]","[0.0, -0.0, 0.27341709946321935]",0.5152138433418221,-0.3361417057452059,"(0.0, 0.0, 0.0, 0.0, 0.0, 0.0)",-0.6392934619080397,-0.8086040256360321,0.06683477224765277,"(0.0, 0.0, 0.0, 0.0, 0.0, 0.0)",-0.009472586141552096,-0.5382418350030355,-0.3549041967053155,"(0.0, 0.0, 0.0, 0.0, 0.0, 0.0)",0.4594311235495513,0.8099121775042627,-0.0643060361502199,"(0.0, 0.0, 0.0, 0.0, 0.0, 0.0)",-0.0353160346528932,True,"(-0.029933285562671302, 0.18256153119103405, 0.023995846583237473)","(0.9955033743714912, 0.09463502024329482, -0.004152656803312201)",-0.0006805043496028978,0.5527853079498845,True,"(0.032450056763315, 0.18226738195973757, 0.023999959438538117)","(-0.9999999992078928, -2.3394376620903917e-07, -3.980150265941498e-05)",9.451939916559619e-07,0.0
68,Move,"(0.003037974683544304, 0.0, -0.003037974683544304)","(0.0, -0.0, 0.0)","(0.0031309915265872795, 0.16240729963846595, 0.04805828801339215)","(-0.0039037124667597443, -0.0010944978139433238, 0.08747783105066703)","[-0.006867835072134885, 0.002379557116536507, 0.0005077289991745199]","[-0.026750000193715096, 0.05299999937415123, 0.03999999910593033]","[0.0, -0.0, 0.5152138185480992]","[-0.062225908041000366, 0.11565349251031876, 0.03999999910593033]","[0.0, 0.0, -0.2933902074858449]","[0.026750000193715096, 0.05299999937415123, 0.03999999910593033]","[0.0, 0.0, -0.5382417860027539]","[0.06365916132926941, 0.11482001096010208, 0.03999999910593033]","[0.0, -0.0, 0.2716703380278794]",0.5135776717110968,-0.39268119137406754,"(0.0, 0.0, 0.0, 0.0, 0.0, 0.0)",-2.4794049932610047,-0.8082154610955944,0.09325548970502935,"(0.0, 0.0, 0.0, 0.0, 0.0, 0.0)",-1.327881534869016,-0.5398896568966337,-0.3954772544635855,"(0.0, 0.0, 0.0, 0.0, 0.0, 0.0)",0.19959400383400655,0.8095931699465015,-0.07656181386267545,"(0.0, 0.0, 0.0, 0.0, 0.0, 0.0)",0.15274482827982822,True,"(-0.029770454754576, 0.18257490332303694, 0.023995846583237473)","(0.9955033743714912, 0.09463502024329482, -0.004152656803312201)",-0.0006260614477647827,14.793084927346465,True,"(0.032747617635191004, 0.181130265121565, 0.05600415341676252)","(-0.9955033743714903, -0.0946350202433038, 0.004152656803305648)",-7.196936254612699e-05,2.1169426109562655
69,Move,"(0.004050632911392405, 0.0, -0.004050632911392405)","(0.0, -0.0, 0.0)","(0.0032838833530005693, 0.16287535323760913, 0.048090976074595455)","(-0.002209647937622033, -0.001003340438498053, 0.08420227383059509)","[-0.006714943245721595, 0.0028476107156796826, 0.0005404170603778222]","[-0.026750000193715096, 0.05299999937415123, 0.03999999910593033]","[0.0, -0.0, 0.5135776525625887]","[-0.06212334707379341, 0.11571145057678223, 0.03999999910593033]","[0.0, 0.0, -0.29463780839367537]","[0.026750000193715096, 0.05299999937415123, 0.03999999910593033]","[0.0, 0.0, -0.539889745681643]","[0.06376097351312637, 0.11475910991430283, 0.03999999910593033]","[0.0, -0.0, 0.2697034917513873]",0.5118513343641734,-0.4143209632616281,"(0.0, 0.0, 0.0, 0.0, 0.0, 0.0)",-0.5129447467091826,-0.8081737566299355,0.010009071758119312,"(0.0, 0.0, 0.0, 0.0, 0.0, 0.0)",-0.27286841876825696,-0.5418852537015184,-0.4789432331723377,"(0.0, 0.0, 0.0, 0.0, 0.0, 0.0)",-0.03216530306898461,0.8095397697498364,-0.012816047199632627,"(0.0, 0.0, 0.0, 0.0, 0.0, 0.0)",0.04825933782963551,True,"(-0.02958397828243535, 0.18258741094187472, 0.05600109525755466)","(0.9961756571918484, 0.08736625260020278, 0.0010944975954327388)",-0.0006188976313931517,3.5994385180842388,True,"(0.03297991651204006, 0.1811300309311743, 0.05600415341676252)","(-0.9955033743714903, -0.0946350202433038, 0.004152656803305648)",-6.495738912535373e-05,0.672659220962691
70,Move,"(0.005063291139240506, 0.0, -0.005063291139240506)","(0.0, -0.0, 0.0)","(0.0034660459396414498, 0.16329788643990217, 0.04802835333641249)","(-0.00010005956117048203, 0.0015751440518050773, 0.08217326273808506)","[-0.006532780659080715, 0.0032701439179727287, 0.00047779432219485773]","[-0.026750000193715096, 0.05299999937415123, 0.03999999910593033]","[0.0, -0.0, 0.5118513185207049]","[-0.06201503425836563, 0.11577242612838745, 0.03999999910593033]","[0.0, 0.0, -0.29632242196601166]","[0.026750000193715096, 0.05299999937415123, 0.03999999910593033]","[0.0, 0.0, -0.5418852712075831]","[0.06388414651155472, 0.11468512564897537, 0.03999999910593033]","[0.0, -0.0, 0.2676545535037626]",0.5100112995768599,-0.4416083489552409,"(0.0, 0.0, 0.0, 0.0, 0.0, 0.0)",-0.31722380520967114,-0.8081728985846431,0.0002059308701587298,"(0.0, 0.0, 0.0, 0.0, 0.0, 0.0)",-0.15706825159127652,-0.5441084794436288,-0.5335741781064938,"(0.0, 0.0, 0.0, 0.0, 0.0, 0.0)",-0.07797584516050005,0.809545109769503,0.0012816047199626368,"(0.0, 0.0, 0.0, 0.0, 0.0, 0.0)",-0.004220250243640044,True,"(-0.029362914133676914, 0.18259188686119776, 0.05600100410022938)","(0.9964565810009812, 0.08410276742258332, 0.001003340270155499)",-0.0005720353830187396,2.1056921875544394,True,"(0.033238722954066824, 0.18112377403846136, 0.023998995899770625)","(-0.9964565810009808, -0.08410276742259025, -0.0010033402701523125)",-7.773280598657092e-05,0.0
71,Move,"(0.006075949367088608, 0.0, -0.006075949367088608)","(0.0, -0.0, 0.0)","(0.0036540029017908373, 0.1636253546352954, 0.04799298666888262)","(0.0035952091608487296, 0.0014547569963216653, 0.07852840549278363)","[-0.006344823696931327, 0.0035976121133659555, 0.0004424276546649841]","[-0.026750000193715096, 0.05299999937415123, 0.03999999910593033]","[0.0, -0.0, 0.5100112843145883]","[-0.061899472028017044, 0.1158372089266777, 0.03999999910593033]","[0.0, 0.0, -0.2981616125361457]","[0.026750000193715096, 0.05299999937415123, 0.03999999910593033]","[0.0, 0.0, -0.5441084371188055]","[0.06402119994163513, 0.11460241675376892, 0.03999999910593033]","[0.0, -0.0, 0.26543664035453757]",0.5080542317241562,-0.46969628464886926,"(0.0, 0.0, 0.0, 0.0, 0.0, 0.0)",-0.5046185041148873,-0.8081514929810384,0.0051373448651472605,"(0.0, 0.0, 0.0, 0.0, 0.0, 0.0)",-0.260574727513856,-0.5465621928224065,-0.5888912109066479,"(0.0, 0.0, 0.0, 0.0, 0.0, 0.0)",-0.0805971100752671,0.8095445757675364,-0.00012816047199759595,"(0.0, 0.0, 0.0, 0.0, 0.0, 0.0)",-0.005902636455867635,True,"(-0.029124513547435796, 0.18259650345243095, 0.05600100410022938)","(0.9964565810009812, 0.08410276742258332, 0.001003340270155499)",-0.0005268221085898712,1.6304309308927067,True,"(0.0335231996098337, 0.18110886865482662, 0.023998995899770625)","(-0.9964565810009808, -0.08410276742259025, -0.0010033402701523125)",1.78908832574542e-05,0.0
72,Move,"(0.0070886075949367095, 0.0, -0.0070886075949367095)","(0.0, -0.0, 0.0)","(0.0038172345288938407, 0.16384333829666334, 0.048072667188993126)","(0.003305436485351285, 0.0013399378115490856, 0.07266248297533726)","[-0.006181592069828323, 0.003815595774733893, 0.000522108174775493]","[-0.026750000193715096, 0.05299999937415123, 0.03999999910593033]","[0.0, -0.0, 0.5080541955033812]","[-0.061776429414749146, 0.11590587347745895, 0.03999999910593033]","[0.0, 0.0, -0.30009725554368033]","[0.026750000193715096, 0.05299999937415123, 0.03999999910593033]","[0.0, 0.0, -0.5465622013730624]","[0.06417223811149597, 0.11451078206300735, 0.03999999910593033]","[0.0, -0.0, 0.262982414257656]",0.5059756214254781,-0.49886647168274234,"(0.0, 0.0, 0.0, 0.0, 0.0, 0.0)",-0.5805910557160697,-0.8081187346685682,0.007861994992857073,"(0.0, 0.0, 0.0, 0.0, 0.0, 0.0)",-0.29969491861698755,-0.5492363011490916,-0.6417859984044397,"(0.0, 0.0, 0.0, 0.0, 0.0, 0.0)",-0.0769361029773798,0.8095446291677331,1.2816047199493141e-05,"(0.0, 0.0, 0.0, 0.0, 0.0, 0.0)",-0.005492302428475802,True,"(-0.02887230766609865, 0.18260160669677902, 0.05600100410022938)","(0.9964565810009812, 0.08410276742258332, 0.001003340270155499)",-0.00048270731892257154,2.094686856465712,True,"(0.03383755690407619, 0.18109187972685561, 0.023998995899770625)","(-0.9964565810009808, -0.08410276742259025, -0.0010033402701523125)",5.4512843963289244e-05,0.0
73,Move,"(0.00810126582278481, 0.0, -0.00810126582278481)","(0.0, -0.0, 0.0)","(0.003972442637232624, 0.16406897162509373, 0.04812823855858423)","(0.003044230315817324, 0.0006445639307099538, 0.06598779879961393)","[-0.0060263839614895405, 0.00404122910316429, 0.000577679544366598]","[-0.026750000193715096, 0.05299999937415123, 0.03999999910593033]","[0.0, -0.0, 0.5059756869054093]","[-0.06164559721946716, 0.11597854644060135, 0.03999999910593033]","[0.0, 0.0, -0.30214311076883366]","[0.026750000193715096, 0.05299999937415123, 0.03999999910593033]","[0.0, 0.0, -0.5492363718239263]","[0.06433659046888351, 0.11441048979759216, 0.03999999910593033]","[0.0, -0.0, 0.26030830920928366]",0.5037647109931365,-0.5306185037620056,"(0.0, 0.0, 0.0, 0.0, 0.0, 0.0)",-0.5208640868413692,-0.8081119808638084,0.0016209131423535923,"(0.0, 0.0, 0.0, 0.0, 0.0, 0.0)",-0.2673942215088761,-0.5521223445206633,-0.6926504091772161,"(0.0, 0.0, 0.0, 0.0, 0.0, 0.0)",-0.07402057792727999,0.8095446238277134,-1.2816047210151282e-06,"(0.0, 0.0, 0.0, 0.0, 0.0, 0.0)",-0.005299672652676751,True,"(-0.028605094652909294, 0.18260682055137878, 0.05600100410022938)","(0.9964565810009812, 0.08410276742258332, 0.001003340270155499)",-0.000436608550896398,3.6033867999408637,True,"(0.034180059157207586, 0.1810724672611678, 0.023998995899770625)","(-0.9964565810009808, -0.08410276742259025, -0.0010033402701523125)",0.00011930836978778846,0.0
74,Move,"(0.00911392405063291, 0.0, -0.00911392405063291)","(0.0, -0.0, 0.0)","(0.00410635640453176, 0.16429489862337834, 0.04813854622475848)","(0.0028077173400439326, -0.0013368222557133794, 0.058907040012450666)","[-0.0058924701941904046, 0.004267156101448899, 0.0005879872105408468]","[-0.026750000193715096, 0.05299999937415123, 0.03999999910593033]","[0.0, -0.0, 0.5037646868756547]","[-0.06150627136230469, 0.11605554074048996, 0.03999999910593033]","[0.0, 0.0, -0.30434731008815047]","[0.026750000193715096, 0.05299999937415123, 0.03999999910593033]","[0.0, 0.0, -0.552122385349962]","[0.0645136684179306, 0.11430175602436066, 0.03999999910593033]","[0.0, -0.0, 0.2574223226632588]",0.5013937256028437,-0.569036493670275,"(0.0, 0.0, 0.0, 0.0, 0.0, 0.0)",-0.3552516287247476,-0.8081113981944231,0.00013984065246005779,"(0.0, 0.0, 0.0, 0.0, 0.0, 0.0)",-0.17080747325760895,-0.5552176852429656,-0.7428817733525355,"(0.0, 0.0, 0.0, 0.0, 0.0, 0.0)",-0.07311559988668642,0.8095446243617154,1.2816047156860577e-07,"(0.0, 0.0, 0.0, 0.0, 0.0, 0.0)",-0.00523440435705816,True,"(-0.028318266794362258, 0.1826006655441206, 0.0239993546761547)","(0.9978233878404436, 0.0659399060965097, -0.0006445638860814218)",-0.0004541057790307928,2.2826836983745626,True,"(0.03454965075237915, 0.18105049060476863, 0.023998995899770625)","(-0.9964565810009808, -0.08410276742259025, -0.0010033402701523125)",0.0001931060168049702,0.0
75,Move,"(0.010126582278481011, 0.0, -0.010126582278481011)","(0.0, -0.0, 0.0)","(0.004320540665155173, 0.16446633047937376, 0.04808873659248793)","(-0.0012975005552326175, -0.0012409514355617756, 0.052067069254519684)","[-0.005678285933566992, 0.004438587957444312, 0.0005381775782702936]","[-0.026750000193715096, 0.05299999937415123, 0.03999999910593033]","[0.0, -0.0, 0.5013936415355446]","[-0.061356667429208755, 0.11613777279853821, 0.03999999910593033]","[0.0, 0.0, -0.3067176502302408]","[0.026750000193715096, 0.05299999937415123, 0.03999999910593033]","[0.0, 0.0, -0.5552176491213093]","[0.06470324099063873, 0.11418457329273224, 0.03999999910593033]","[0.0, -0.0, 0.2543269229909095]",0.49886304014375293,-0.6073645101817847,"(0.0, 0.0, 0.0, 0.0, 0.0, 0.0)",-0.6584678825067869,-0.8080906451022304,0.004980742126268314,"(0.0, 0.0, 0.0, 0.0, 0.0, 0.0)",-0.3296943555276075,-0.5585262201088858,-0.7940483678208451,"(0.0, 0.0, 0.0, 0.0, 0.0, 0.0)",-0.07448922581497776,0.8095446243083152,-1.2816046890407051e-08,"(0.0, 0.0, 0.0, 0.0, 0.0, 0.0)",-0.0053337634421460325,True,"(-0.028011020117477768, 0.18260403902824682, 0.0239993546761547)","(0.9978233878404436, 0.0659399060965097, -0.0006445638860814218)",-0.0004177182160573519,2.367496343511104,True,"(0.034878978861742765, 0.1821312225757872, 0.023998662418183235)","(-0.9982645899791405, -0.05887292502585356, -0.0013368218575421922)",0.00030002508246219776,0.0
76,Move,"(0.01113924050632911, 0.0, -0.01113924050632911)","(0.0, -0.0, 0.0)","(0.0046466172937785575, 0.164610379479573, 0.04816075624491212)","(-0.003633873520443727, 0.0012854479218293129, 0.04720849015729414)","[-0.005352209304943607, 0.004582636957643549, 0.0006101972306944842]","[-0.026750000193715096, 0.05299999937415123, 0.03999999910593033]","[0.0, -0.0, 0.4988630410584352]","[-0.06119677796959877, 0.11622515320777893, 0.03999999910593033]","[0.0, 0.0, -0.3092276289982241]","[0.026750000193715096, 0.05299999937415123, 0.03999999910593033]","[0.0, 0.0, -0.5585262305271655]","[0.06490545719861984, 0.11405866593122482, 0.03999999910593033]","[0.0, -0.0, 0.2510184238568451]",0.4961685905304648,-0.6466679071891512,"(0.0, 0.0, 0.0, 0.0, 0.0, 0.0)",-1.8823601632317977,-0.8080298324452627,0.014595037672227588,"(0.0, 0.0, 0.0, 0.0, 0.0, 0.0)",-0.9795057047317343,-0.5620499508781058,-0.8456953846128218,"(0.0, 0.0, 0.0, 0.0, 0.0, 0.0)",-0.07520294793541223,0.8095446243136553,1.2816041561472058e-09,"(0.0, 0.0, 0.0, 0.0, 0.0, 0.0)",-0.005385863344597087,True,"(-0.02768440700458194, 0.18260751075388987, 0.0239993546761547)","(0.9978233878404436, 0.0659399060965097, -0.0006445638860814218)",-0.00037908693716617626,13.989814349595905,True,"(0.035305978608244006, 0.18210714716455725, 0.023998758288923717)","(-0.9986440474107378, -0.05204350690936485, -0.0012409511170602989)",0.0003946185419926477,0.0
77,Move,"(0.012151898734177217, 0.0, -0.012151898734177217)","(0.0, -0.0, 0.0)","(0.0049660327638516855, 0.16473469503287416, 0.04822712111350266)","(-0.0033437104153934043, 0.001182980190237708, 0.04352713360857949)","[-0.005032793834870479, 0.0047069525109447174, 0.0006765620992850302]","[-0.026750000193715096, 0.05299999937415123, 0.03999999910593033]","[0.0, -0.0, 0.4961685799035437]","[-0.06102629378437996, 0.1163177341222763, 0.03999999910593033]","[0.0, 0.0, -0.3118612723195203]","[0.026750000193715096, 0.05299999937415123, 0.03999999910593033]","[0.0, 0.0, -0.562049948039091]","[0.06512037664651871, 0.11392384022474289, 0.03999999910593033]","[0.0, -0.0, 0.24749470530653042]",0.4933051269090135,-0.687231269148307,"(0.0, 0.0, 0.0, 0.0, 0.0, 0.0)",-0.6833726502765608,-0.8080248539130713,0.0011948477259325456,"(0.0, 0.0, 0.0, 0.0, 0.0, 0.0)",-0.3479983799972008,-0.5657599610270796,-0.8904024357536953,"(0.0, 0.0, 0.0, 0.0, 0.0, 0.0)",-0.0651444068980103,0.8095446243131212,-1.2816148141391644e-10,"(0.0, 0.0, 0.0, 0.0, 0.0, 0.0)",-0.004667820508538894,True,"(-0.027338620196733616, 0.18260035712793507, 0.02399871379247296)","(0.9988850608973592, 0.04719091798883817, -0.0012854475678213116)",-0.0003674467958464909,4.772193669164869,True,"(0.03576086337503611, 0.18207619672156744, 0.023998758288923717)","(-0.9986440474107378, -0.05204350690936485, -0.0012409511170602989)",0.0004980972920468072,0.0
78,Move,"(0.013164556962025316, 0.0, -0.013164556962025316)","(0.0, -0.0, 0.0)","(0.0053028657448800694, 0.1648264238379007, 0.04828816055359604)","(-0.0030784684833070576, 0.001088410394085634, 0.03986821405435194)","[-0.004695960853842095, 0.004798681315971248, 0.0007376015393784074]","[-0.026750000193715096, 0.05299999937415123, 0.03999999910593033]","[0.0, -0.0, 0.4933051640019318]","[-0.060844846069812775, 0.11641562730073929, 0.03999999910593033]","[0.0, 0.0, -0.3147197206653688]","[0.026750000193715096, 0.05299999937415123, 0.03999999910593033]","[0.0, 0.0, -0.5657599292509998]","[0.0653461441397667, 0.11378106474876404, 0.03999999910593033]","[0.0, -0.0, 0.24378469218196724]",0.49029770475546636,-0.721781316851313,"(0.0, 0.0, 0.0, 0.0, 0.0, 0.0)",-0.8288356068469825,-0.8079836748872719,0.009882966191882489,"(0.0, 0.0, 0.0, 0.0, 0.0, 0.0)",-0.4302069077099634,-0.5696283911645615,-0.9284232329956678,"(0.0, 0.0, 0.0, 0.0, 0.0, 0.0)",-0.05545216570646481,0.8095446243131746,1.2816414596272807e-11,"(0.0, 0.0, 0.0, 0.0, 0.0, 0.0)",-0.00397587003184703,True,"(-0.0269678056212502, 0.18260085788189462, 0.023998816260126465)","(0.9990521448169017, 0.04351335996301314, -0.0011829799143208233)",-0.00033950873817865647,5.972945290185549,True,"(0.036239674262869837, 0.18204187809101996, 0.023998758288923717)","(-0.9986440474107378, -0.05204350690936485, -0.0012409511170602989)",0.0005884490808642894,0.0
79,Move,"(0.01417721518987342, 0.0, -0.01417721518987342)","(0.0, -0.0, 0.0)","(0.005657413460412873, 0.16489203162703725, 0.048344313314494874)","(-0.002834460884370294, 0.0010014267248951848, 0.03613276432929121)","[-0.004341413138309292, 0.004864289105107805, 0.0007937543002772413]","[-0.026750000193715096, 0.05299999937415123, 0.03999999910593033]","[0.0, -0.0, 0.49029765530072705]","[-0.06065397337079048, 0.11651787161827087, 0.03999999910593033]","[0.0, 0.0, -0.3176860012616196]","[0.026750000193715096, 0.05299999937415123, 0.03999999910593033]","[0.0, 0.0, -0.5696284048217632]","[0.06558097898960114, 0.11363130062818527, 0.03999999910593033]","[0.0, -0.0, 0.2399162574795312]",0.48714632367211175,-0.7563314600051062,"(0.0, 0.0, 0.0, 0.0, 0.0, 0.0)",-0.8431586839445457,-0.8079473774292553,0.008711389923991286,"(0.0, 0.0, 0.0, 0.0, 0.0, 0.0)",-0.43812573343802136,-0.5736506841633026,-0.9653503196978336,"(0.0, 0.0, 0.0, 0.0, 0.0, 0.0)",-0.05387697440961122,0.8095446243131693,-1.2816414596272807e-12,"(0.0, 0.0, 0.0, 0.0, 0.0, 0.0)",-0.0038641916220235966,True,"(-0.026580734041814012, 0.18260163786774353, 0.02399891082986159)","(0.9992047761685038, 0.03985762970037598, -0.0010884101791953395)",-0.00031366947282519304,6.075923492779169,True,"(0.03673879150280948, 0.1820042025020347, 0.023998758288923717)","(-0.9986440474107378, -0.05204350690936485, -0.0012409511170602989)",0.0006841400687631912,0.0
80,Move,"(0.01518987341772152, 0.0, -0.01518987341772152)","(0.0, -0.0, 0.0)","(0.006032604011025495, 0.16492984849352896, 0.04839597832249337)","(-0.00266232677478634, 0.0008670876195853513, 0.03252302477711314)","[-0.003966222587696669, 0.004902105971599513, 0.0008454193082757383]","[-0.026750000193715096, 0.05299999937415123, 0.03999999910593033]","[0.0, -0.0, 0.48714633659996126]","[-0.060453638434410095, 0.11662440747022629, 0.03999999910593033]","[0.0, 0.0, -0.3208010453894255]","[0.026750000193715096, 0.05299999937415123, 0.03999999910593033]","[0.0, 0.0, -0.5736507066266618]","[0.06582453846931458, 0.11347462236881256, 0.03999999910593033]","[0.0, -0.0, 0.23589393718078175]",0.4838480349570073,-0.7915892916250677,"(0.0, 0.0, 0.0, 0.0, 0.0, 0.0)",-0.8653005546861788,-0.807914244041681,0.007952013017828989,"(0.0, 0.0, 0.0, 0.0, 0.0, 0.0)",-0.44894125371766025,-0.577818182234498,-1.0001995370868926,"(0.0, 0.0, 0.0, 0.0, 0.0, 0.0)",-0.05087278482395198,0.8095446243131699,1.2789769243681803e-13,"(0.0, 0.0, 0.0, 0.0, 0.0, 0.0)",-0.003650347134284784,True,"(-0.026174683500349752, 0.18260108522856555, 0.02399899781348327)","(0.9993467815895614, 0.03612488437954311, -0.0010014265575122275)",-0.0002898140061793992,6.239577062489763,True,"(0.03725760200073701, 0.18196298119641435, 0.023998758288923717)","(-0.9986440474107378, -0.05204350690936485, -0.0012409511170602989)",0.0007823743906523349,0.0
81,Move,"(0.01620253164556962, 0.0, -0.01620253164556962)","(0.0, -0.0, 0.0)","(0.006404887124912265, 0.1649724805920501, 0.048426039622400455)","(-0.0024445006320580197, 0.000229668025333208, 0.02800300988188943)","[-0.0035939394738098993, 0.004944738070120663, 0.0008754806081828215]","[-0.026750000193715096, 0.05299999937415123, 0.03999999910593033]","[0.0, -0.0, 0.4838479899528246]","[-0.060243602842092514, 0.11673521995544434, 0.03999999910593033]","[0.0, 0.0, -0.3240662262123702]","[0.026750000193715096, 0.05299999937415123, 0.03999999910593033]","[0.0, 0.0, -0.5778180609069654]","[0.06607622653245926, 0.11331125348806381, 0.03999999910593033]","[0.0, -0.0, 0.23172643482030733]",0.4804020857443054,-0.8270278110484539,"(0.0, 0.0, 0.0, 0.0, 0.0, 0.0)",-0.5936837800456306,-0.8078959430107038,0.004392247434537285,"(0.0, 0.0, 0.0, 0.0, 0.0, 0.0)",-0.30638640416828233,-0.5821231394814411,-1.0331897392663405,"(0.0, 0.0, 0.0, 0.0, 0.0, 0.0)",-0.048185747286567965,0.8095446243131699,-1.3322676295501878e-14,"(0.0, 0.0, 0.0, 0.0, 0.0, 0.0)",-0.0034591600466100363,True,"(-0.025749396510019354, 0.18259928127640943, 0.023999132152529853)","(0.9994707973242561, 0.03251727933367786, -0.0008670875109314449)",-0.0002675347766043556,0.0765660461764288,True,"(0.037794962172284396, 0.18191807099660393, 0.023998758288923717)","(-0.9986440474107378, -0.05204350690936485, -0.0012409511170602989)",0.0008809971953941669,0.0
82,Move,"(0.017215189873417722, 0.0, -0.017215189873417722)","(0.0, -0.0, 0.0)","(0.006805675493340741, 0.164997549289149, 0.048382721226918106)","(0.00010900358793023957, -0.0003370138989909409, 0.024025738565998274)","[-0.003193151105381423, 0.004969806767219559, 0.0008321622127004727]","[-0.026750000193715096, 0.05299999937415123, 0.03999999910593033]","[0.0, -0.0, 0.4804021130649116]","[-0.060023777186870575, 0.11685026437044144, 0.03999999910593033]","[0.0, 0.0, -0.32749385649889606]","[0.026750000193715096, 0.05299999937415123, 0.03999999910593033]","[0.0, 0.0, -0.582123096945454]","[0.06633549928665161, 0.11314140260219574, 0.03999999910593033]","[0.0, -0.0, 0.2274214889987609]",0.47680872161705073,-0.8624073905411093,"(0.0, 0.0, 0.0, 0.0, 0.0, 0.0)",-0.623371370754603,-0.8078639571756595,0.007676600410617479,"(0.0, 0.0, 0.0, 0.0, 0.0, 0.0)",-0.3220963819250333,-0.5865560293840218,-1.0638935766193878,"(0.0, 0.0, 0.0, 0.0, 0.0, 0.0)",-0.044877776448921776,0.8095446243131699,0.0,"(0.0, 0.0, 0.0, 0.0, 0.0, 0.0)",-0.003223555271037553,True,"(-0.025303982465590555, 0.18259460729471766, 0.023999769572017476)","(0.9996079149764276, 0.027999349440265987, -0.00022966802330711425)",-0.0002395810948104134,0.15530859513223896,True,"(0.03834984489596569, 0.1818693284581795, 0.023998758288923717)","(-0.9986440474107378, -0.05204350690936485, -0.0012409511170602989)",0.0009739212525632278,0.0
83,Move,"(0.01822784810126582, 0.0, -0.01822784810126582)","(0.0, -0.0, 0.0)","(0.00723799504099453, 0.1649808958764402, 0.04843129552945476)","(0.000810667681872666, 0.00040398346672807135, 0.01939401256610052)","[-0.002760831557727634, 0.004953153354510742, 0.0008807365152371238]","[-0.026750000193715096, 0.05299999937415123, 0.03999999910593033]","[0.0, -0.0, 0.47680875146101365]","[-0.05979412421584129, 0.11696941405534744, 0.03999999910593033]","[0.0, 0.0, -0.33105526388908446]","[0.026750000193715096, 0.05299999937415123, 0.03999999910593033]","[0.0, 0.0, -0.5865560357515935]","[0.0666017085313797, 0.11296533048152924, 0.03999999910593033]","[0.0, -0.0, 0.22298863335734376]",0.4730638918890613,-0.8987591347174647,"(0.0, 0.0, 0.0, 0.0, 0.0, 0.0)",-1.3130522311451263,-0.807848077020925,0.0038112371362815454,"(0.0, 0.0, 0.0, 0.0, 0.0, 0.0)",-0.6757300570772227,-0.5911191909468665,-1.095158775082714,"(0.0, 0.0, 0.0, 0.0, 0.0, 0.0)",-0.04570336208722274,0.8095446243131699,0.0,"(0.0, 0.0, 0.0, 0.0, 0.0, 0.0)",-0.0032834725393167067,True,"(-0.024840411092046454, 0.18258969261655633, 0.023999769572017476)","(0.9996079149764276, 0.027999349440265987, -0.00022966802330711425)",-0.00021357788436117395,9.674460186486913,True,"(0.03892099160880579, 0.18181665312009904, 0.023999662226148168)","(-0.9997113390535153, -0.02402342584777803, -0.00033701389261068463)",0.001064880646155533,0.0
84,Move,"(0.019240506329113925, 0.0, -0.019240506329113925)","(0.0, -0.0, 0.0)","(0.0076634784483819805, 0.16496827766828923, 0.04847579347144389)","(0.0007403394715076471, 0.00036942366563624113, 0.014431028269656393)","[-0.002335348150340184, 0.004940535146359781, 0.0009252344572262539]","[-0.026750000193715096, 0.05299999937415123, 0.03999999910593033]","[0.0, -0.0, 0.4730638124048755]","[-0.059554338455200195, 0.11709270626306534, 0.03999999910593033]","[0.0, 0.0, -0.3347841770068691]","[0.026750000193715096, 0.05299999937415123, 0.03999999910593033]","[0.0, 0.0, -0.5911191717667325]","[0.0668749287724495, 0.11278285831212997, 0.03999999910593033]","[0.0, -0.0, 0.2184254355964026]",0.4691760901368946,-0.9330724205200019,"(0.0, 0.0, 0.0, 0.0, 0.0, 0.0)",-0.6152827377820519,-0.8078120999331302,0.008634501070743893,"(0.0, 0.0, 0.0, 0.0, 0.0, 0.0)",-0.3145896261344692,-0.5958036815438013,-1.1242777432643305,"(0.0, 0.0, 0.0, 0.0, 0.0, 0.0)",-0.042598437860012585,0.8095446243131699,0.0,"(0.0, 0.0, 0.0, 0.0, 0.0, 0.0)",-0.0030623918749749473,True,"(-0.024356147874686207, 0.18258087343762386, 0.023999595256585047)","(0.9998118604469146, 0.019392795235523227, -0.00040398345573448787)",-0.00019998405179142808,4.336641219263785,True,"(0.03950867405436323, 0.1817597739753377, 0.023999662226148168)","(-0.9997113390535153, -0.02402342584777803, -0.00033701389261068463)",0.0011632447324004655,0.0
85,Move,"(0.020253164556962026, 0.0, -0.020253164556962026)","(0.0, -0.0, 0.0)","(0.00809212127046154, 0.16496873754721564, 0.04846236902967623)","(-0.0011141417934958044, 0.00033424994416363964, 0.0084599071351292)","[-0.0019067053282606251, 0.004940995025286193, 0.0009118100154585987]","[-0.026750000193715096, 0.05299999937415123, 0.03999999910593033]","[0.0, -0.0, 0.46917609318433345]","[-0.05930491164326668, 0.11721976101398468, 0.03999999910593033]","[0.0, 0.0, -0.33863601483587086]","[0.026750000193715096, 0.05299999937415123, 0.03999999910593033]","[0.0, 0.0, -0.5958036948309674]","[0.06715454161167145, 0.11259423941373825, 0.03999999910593033]","[0.0, -0.0, 0.21374095012679792]",0.46513566681118973,-0.9697015981691633,"(0.0, 0.0, 0.0, 0.0, 0.0, 0.0)",-0.38914659324845174,-0.8078094248403175,0.0006420222750558174,"(0.0, 0.0, 0.0, 0.0, 0.0, 0.0)",-0.18845829555508628,-0.6005973645250584,-1.1504839155017086,"(0.0, 0.0, 0.0, 0.0, 0.0, 0.0)",-0.03837997486347401,0.8095446243131699,2.710505431213761e-20,"(0.0, 0.0, 0.0, 0.0, 0.0, 0.0)",-0.002761650979949145,True,"(-0.023854716978636337, 0.1825707517341777, 0.023999629816383553)","(0.9998958062887933, 0.014430526402231554, -0.00036942365723077335)",-0.00018514370722288925,2.5679205524220112,True,"(0.04011170580796277, 0.18169859352652998, 0.023999662226148168)","(-0.9997113390535153, -0.02402342584777803, -0.00033701389261068463)",0.0012601408533896184,0.0
86,Move,"(0.02126582278481013, 0.0, -0.02126582278481013)","(0.0, -0.0, 0.0)","(0.008552670714877897, 0.16494726138296548, 0.04850445552204989)","(-0.0013539910570466958, -2.493898745645777e-05, 0.0034399397859280773)","[-0.001446155883844268, 0.004919518861036032, 0.0009538965078322581]","[-0.026750000193715096, 0.05299999937415123, 0.03999999910593033]","[0.0, -0.0, 0.46513568249270704]","[-0.05904517322778702, 0.11735077202320099, 0.03999999910593033]","[0.0, 0.0, -0.3426737246437921]","[0.026750000193715096, 0.05299999937415123, 0.03999999910593033]","[0.0, 0.0, -0.6005974386462094]","[0.06743974983692169, 0.1123998686671257, 0.03999999910593033]","[0.0, -0.0, 0.20894725668913286]",0.4609437216197816,-1.006066845937951,"(0.0, 0.0, 0.0, 0.0, 0.0, 0.0)",-1.1737056247343454,-0.8077759419751427,0.008035887641943198,"(0.0, 0.0, 0.0, 0.0, 0.0, 0.0)",-0.628763819883509,-0.6054999000105133,-1.1766085165091749,"(0.0, 0.0, 0.0, 0.0, 0.0, 0.0)",-0.03827084580394328,0.8095446243131699,-2.710505431213761e-20,"(0.0, 0.0, 0.0, 0.0, 0.0, 0.0)",-0.0027546682178840945,True,"(-0.02333137754644165, 0.18255615822722826, 0.023999664990102844)","(0.9999641593395469, 0.008459805750277232, -0.0003342499379371292)",-0.00017159033780086172,7.486879988192426,True,"(0.040728490180972174, 0.18163306328493461, 0.023999662226148168)","(-0.9997113390535153, -0.02402342584777803, -0.00033701389261068463)",0.0013529966842761292,0.0
87,Move,"(0.02227848101265822, 0.0, -0.02227848101265822)","(0.0, -0.0, 0.0)","(0.009037567021530087, 0.16491308344315822, 0.0485432873739066)","(-0.0012471120512756932, -2.354135975712472e-05, -0.0015394581026518105)","[-0.0009612595771920779, 0.004885340921228776, 0.0009927283596889644]","[-0.026750000193715096, 0.05299999937415123, 0.03999999910593033]","[0.0, -0.0, 0.46094368706991545]","[-0.05877513438463211, 0.11748558282852173, 0.03999999910593033]","[0.0, 0.0, -0.3468322111727113]","[0.026750000193715096, 0.05299999937415123, 0.03999999910593033]","[0.0, 0.0, -0.6054999575466858]","[0.06773047149181366, 0.11219967156648636, 0.03999999910593033]","[0.0, -0.0, 0.2040447349523569]",0.4565931881976861,-1.044128021302929,"(0.0, 0.0, 0.0, 0.0, 0.0, 0.0)",-0.9070950148199686,-0.8077408391545372,0.008424676945316654,"(0.0, 0.0, 0.0, 0.0, 0.0, 0.0)",-0.47201519594813574,-0.6105103493695427,-1.202507846167064,"(0.0, 0.0, 0.0, 0.0, 0.0, 0.0)",-0.037953136008643466,0.8095446243131699,0.0,"(0.0, 0.0, 0.0, 0.0, 0.0, 0.0)",-0.002732787695342023,True,"(-0.022790495110612922, 0.18254189419159506, 0.023999664990102844)","(0.9999641593395469, 0.008459805750277232, -0.0003342499379371292)",-0.00015321562021694158,5.999858717396112,False,,,,
88,Move,"(0.02227848101265822, 0.0, -0.02227848101265822)","(0.0, -0.0, 0.0)","(0.009537920220951358, 0.1648789918721235, 0.048579015714561725)","(-0.0011473299509893774, -2.1440125492253004e-05, -0.006747215268029806)","[-0.00046090637777080647, 0.004851249350194042, 0.0010284567003440923]","[-0.026750000193715096, 0.05299999937415123, 0.03999999910593033]","[0.0, -0.0, 0.4565931809755105]","[-0.05849428474903107, 0.11762429773807526, 0.03999999910593033]","[0.0, 0.0, -0.3511476495049506]","[0.026750000193715096, 0.05299999937415123, 0.03999999910593033]","[0.0, 0.0, -0.6105103769326047]","[0.0680265724658966, 0.11199359595775604, 0.03999999910593033]","[0.0, -0.0, 0.199034242755037]",0.45209298130876363,-1.080049653341383,"(0.0, 0.0, 0.0, 0.0, 0.0, 0.0)",-0.813102272239368,-0.8077126867226752,0.006756583646904062,"(0.0, 0.0, 0.0, 0.0, 0.0, 0.0)",-0.4234905209428959,-0.6156158457685582,-1.2253191357637139,"(0.0, 0.0, 0.0, 0.0, 0.0, 0.0)",-0.033479330731261116,0.8095446243131699,0.0,"(0.0, 0.0, 0.0, 0.0, 0.0, 0.0)",-0.0024137478032035314,True,"(-0.02222923618442362, 0.18252471540616594, 0.023999664990102844)","(0.9999641593395469, 0.008459805750277232, -0.0003342499379371292)",-0.00013970202797893914,4.957655672965988,False,,,,
89,Move,"(0.02227848101265822, 0.0, -0.02227848101265822)","(0.0, -0.0, 0.0)","(0.011725472970158576, 0.1644031016028338, 0.04868996332922817)","(0.0007955515557672532, -0.004391894927247498, -0.031361800212532924)","[0.0017266463714364112, 0.004375359080904362, 0.0011394043150105351]","[-0.026750000193715096, 0.05299999937415123, 0.03999999910593033]","[0.0, -0.0, 0.45209298924099156]","[-0.05820314213633537, 0.11776649951934814, 0.03999999910593033]","[0.0, 0.0, -0.35561969760035694]","[0.026750000193715096, 0.05299999937415123, 0.03999999910593033]","[0.0, 0.0, -0.6156158788912405]","[0.06832722574472427, 0.11178209632635117, 0.03999999910593033]","[0.0, -0.0, 0.1939287978213914]",0.43194684556051927,-4.835072579578642,"(0.0, 0.0, 0.0, 0.0, 0.0, 0.0)",-19.18418781104337,-0.8077465202719658,-0.008120051829761216,"(0.0, 0.0, 0.0, 0.0, 0.0, 0.0)",-8.090174745027767,-0.595124750254774,4.917862923308226,"(0.0, 0.0, 0.0, 0.0, 0.0, 0.0)",8.918116602393836,0.8095446243131699,0.0,"(0.0, 0.0, 0.0, 0.0, 0.0, 0.0)",0.6376458549174358,True,"(-0.02164821841815781, 0.18250408868190665, 0.023999664990102844)","(0.9999641593395469, 0.008459805750277232, -0.0003342499379371292)",-0.00012549352756786216,60.5095560592654,False,,,,
90,Move,"(0.02227848101265822, 0.0, -0.02227848101265822)","(0.0, -0.0, 0.0)","(0.011780092585981082, 0.16542308587576346, 0.04869706090316603)","(0.0008407645958158841, -0.004504009813400485, -0.0285285241612049)","[0.0017812659872589176, 0.0053953433538340145, 0.0011465018889483952]","[-0.026750000193715096, 0.05299999937415123, 0.03999999910593033]","[0.0, -0.0, 0.43194684420300333]","[-0.05689205229282379, 0.11838697642087936, 0.03999999910593033]","[0.0, 0.0, -0.375799662807471]","[0.026750000193715096, 0.05299999937415123, 0.03999999910593033]","[0.0, 0.0, -0.5951247221466609]","[0.06711407005786896, 0.11262165755033493, 0.03999999910593033]","[0.0, -0.0, 0.2144198633592889]",0.41552079438996115,-3.9422522809339458,"(0.0, 0.0, 0.0, 0.0, 0.0, 0.0)",-57.643647871763996,-0.779857818356883,6.693288459619882,"(0.0, 0.0, 0.0, 0.0, 0.0, 0.0)",-26.598585855688338,-0.5793139086380655,3.7946019880100286,"(0.0, 0.0, 0.0, 0.0, 0.0, 0.0)",73.38062340435789,0.7768651260939557,-7.843079572611401,"(0.0, 0.0, 0.0, 0.0, 0.0, 0.0)",38.33172977903196,True,"(-0.019038258314274054, 0.18237375394319089, 0.023999664990102844)","(0.9999641593395469, 0.008459805750277232, -0.0003342499379371292)",1.8631454149690885e-05,455.10259195347356,True,"(0.04002470709418151, 0.1817544481459351, 0.023995607476406944)","(-0.9994986194380278, 0.03135635700209654, -0.004391880808239547)",-0.003804484341944237,585.3335484120435
91,Move,"(0.02329113924050633, 0.0, -0.02329113924050633)","(0.0, -0.0, 0.0)","(0.011784626227211114, 0.16640649484623354, 0.04870608996562307)","(0.000909561980286723, -0.0044520331454846705, -0.027672271397573132)","[0.0017857996284889495, 0.006378752324304099, 0.0011555309514054354]","[-0.026750000193715096, 0.05299999937415123, 0.03999999910593033]","[0.0, -0.0, 0.41552084599266015]","[-0.0558139868080616, 0.1188732460141182, 0.03999999910593033]","[0.0, 0.0, -0.36433701893346065]","[0.026750000193715096, 0.05299999937415123, 0.03999999910593033]","[0.0, 0.0, -0.5793139491417012]","[0.06616639345884323, 0.11325237154960632, 0.03999999910593033]","[0.0, -0.0, 0.1975512248994607]",0.39891304429850644,-3.9858600219491356,"(0.0, 0.0, 0.0, 0.0, 0.0, 0.0)",-74.86055174873994,-0.7506603558640668,7.007390998275894,"(0.0, 0.0, 0.0, 0.0, 0.0, 0.0)",-37.28763567941497,-0.5641873615455916,3.6303713021937565,"(0.0, 0.0, 0.0, 0.0, 0.0, 0.0)",74.78519687915839,0.7460489301167235,-7.395887034535751,"(0.0, 0.0, 0.0, 0.0, 0.0, 0.0)",39.873703530073314,True,"(-0.018696119347628617, 0.1832897172727751, 0.023999664990102844)","(0.9999641593395469, 0.008459805750277232, -0.0003342499379371292)",-0.0003192926118393403,541.3161188529207,True,"(0.040246253374919744, 0.1828125762944488, 0.02399549534489789)","(-0.9995829503459032, 0.028524365208634172, -0.004503994585279957)",-0.0035899910024331095,576.4732792076754
92,Move,"(0.024303797468354434, 0.0, -0.024303797468354434)","(0.0, -0.0, 0.0)","(0.01226230644686489, 0.1671663426412675, 0.04864682685055453)","(-0.0017904213137141874, -0.004032767822234221, -0.03269115194544708)","[0.002263479848142725, 0.007138600119338062, 0.0010962678363368936]","[-0.026750000193715096, 0.05299999937415123, 0.03999999910593033]","[0.0, -0.0, 0.3989130385728338]","[-0.054716020822525024, 0.11934682726860046, 0.03999999910593033]","[0.0, 0.0, -0.35174728119992354]","[0.026750000193715096, 0.05299999937415123, 0.03999999910593033]","[0.0, 0.0, -0.5641874092014553]","[0.06525050848722458, 0.11384168267250061, 0.03999999910593033]","[0.0, -0.0, 0.18186159369010774]",0.3962012755416801,-0.6508245016383163,"(0.0, 0.0, 0.0, 0.0, 0.0, 0.0)",-1.0220136903695562,-0.7525626046892091,-0.4565397180341506,"(0.0, 0.0, 0.0, 0.0, 0.0, 0.0)",-3.250936100383473,-0.5714833094439421,-1.751027495604121,"(0.0, 0.0, 0.0, 0.0, 0.0, 0.0)",-5.655879608501239,0.7481563052130438,0.5057700231168605,"(0.0, 0.0, 0.0, 0.0, 0.0, 0.0)",1.0433672836167038,True,"(-0.018412060090456338, 0.18422548415337098, 0.023999664990102844)","(0.9999641593395469, 0.008459805750277232, -0.0003342499379371292)",-0.000615928084299508,20.518074707216712,True,"(0.040424294333441184, 0.1837834593194218, 0.023995547303622914)","(-0.9996072406407157, 0.027668465632870586, -0.004452018438504743)",-0.0033993862231964434,10.365677142261687
