OSUrobotics/InHand-Manipulation/AnalyseData/Data/Trial Data/Better/new_hand_expected_exp_2v2_g_n_1_kpNone_kdNone_dp5_step5_save_data.csv
,Phase,human_cube_pos,human_cube_orn,Cube_Pos,Cube_Orn,Cube_pos_in_start_pos,b'l_prox_pin'_link_pos,b'l_prox_pin'_link_orn,b'l_distal_pin'_link_pos,b'l_distal_pin'_link_orn,b'r_prox_pin'_link_pos,b'r_prox_pin'_link_orn,b'r_distal_pin'_link_pos,b'r_distal_pin'_link_orn,b'l_prox_pin'_joint_angle,b'l_prox_pin'_joint_vel,b'l_prox_pin'_joint_react_forces,b'l_prox_pin'_joint_motor_torque,b'l_distal_pin'_joint_angle,b'l_distal_pin'_joint_vel,b'l_distal_pin'_joint_react_forces,b'l_distal_pin'_joint_motor_torque,b'r_prox_pin'_joint_angle,b'r_prox_pin'_joint_vel,b'r_prox_pin'_joint_react_forces,b'r_prox_pin'_joint_motor_torque,b'r_distal_pin'_joint_angle,b'r_distal_pin'_joint_vel,b'r_distal_pin'_joint_react_forces,b'r_distal_pin'_joint_motor_torque,in_contact_l,contact_point_l_dist,contact_normal_l_dist,contact_distance_l_dist,contact_norm_force_l_dist,in_contact_r,contact_point_r_dist,contact_normal_r_dist,contact_distance_r_dist,contact_norm_force_r_dist
0,Open,,,,,,"[-0.026750000193715096, 0.05299999937415123, 0.03999999910593033]","[0.0, -0.0, 0.4254700097131474]","[-0.056467924267053604, 0.11858082562685013, 0.03999999910593033]","[0.0, -0.0, 0.4254700097131474]","[0.026750000193715096, 0.05299999937415123, 0.03999999910593033]","[0.0, 0.0, -0.4429245237535421]","[0.057608019560575485, 0.1180521547794342, 0.03999999910593033]","[0.0, 0.0, -0.5266622746639338]",0.5399229999999999,27.46872,"(0.0, 0.0, 0.0, 0.0, 0.0, 0.0)",-4.377393708535371,5.294901130302062e-32,0.0,"(0.0, 0.0, 0.0, 0.0, 0.0, 0.0)",-0.30017707799641646,-0.5623038734984663,-28.651050680519948,"(0.0, 0.0, 0.0, 0.0, 0.0, 0.0)",144.45470973647488,-0.10456727132876567,-4.999096204557077,"(0.0, 0.0, 0.0, 0.0, 0.0, 0.0)",33.97911746732963,False,,,,,False,,,,
1,Open,,,,,,"[-0.026750000193715096, 0.05299999937415123, 0.03999999910593033]","[0.0, -0.0, 0.894166469119967]","[-0.08288749307394028, 0.09808415919542313, 0.03999999910593033]","[0.0, -0.0, 0.894166894674561]","[0.026750000193715096, 0.05299999937415123, 0.03999999910593033]","[0.0, 0.0, -0.9122733503889549]","[0.08369457721710205, 0.09706035256385803, 0.03999999910593033]","[0.0, 0.0, -0.9997066729229968]",0.96174983227,16.220004472800003,"(0.0, 0.0, 0.0, 0.0, 0.0, 0.0)",-2.5959652512206968,5.681494863714967e-07,3.553320838026869e-05,"(0.0, 0.0, 0.0, 0.0, 0.0, 0.0)",-0.18114955764248034,-0.9780460127037736,-15.785439661232708,"(0.0, 0.0, 0.0, 0.0, 0.0, 0.0)",2.503992476159733,-0.0786900142246732,2.098357403184359,"(0.0, 0.0, 0.0, 0.0, 0.0, 0.0)",0.15360133560797545,False,,,,,False,,,,
2,Open,,,,,,"[-0.026750000193715096, 0.05299999937415123, 0.03999999910593033]","[0.0, -0.0, 1.170927100750299]","[-0.09307006001472473, 0.08102945238351822, 0.03999999910593033]","[0.0, -0.0, 1.1709279927689973]","[0.026750000193715096, 0.05299999937415123, 0.03999999910593033]","[0.0, 0.0, -1.181618964677462]","[0.09336595237255096, 0.08031877130270004, 0.03999999910593033]","[0.0, 0.0, -1.233247876832181]",1.2108343584571122,9.577750441143678,"(0.0, 0.0, 0.0, 0.0, 0.0, 0.0)",-1.5367816122769582,9.012180617793662e-07,6.275974057005224e-06,"(0.0, 0.0, 0.0, 0.0, 0.0, 0.0)",-0.1083256720668905,-1.2204570900414513,-9.3211442655613,"(0.0, 0.0, 0.0, 0.0, 0.0, 0.0)",1.4819475463743526,-0.046466145575958295,1.239071567699341,"(0.0, 0.0, 0.0, 0.0, 0.0, 0.0)",0.09166748660725833,False,,,,,False,,,,
3,Open,,,,,,"[-0.026750000193715096, 0.05299999937415123, 0.03999999910593033]","[0.0, -0.0, 1.334351465706577]","[-0.09674673527479172, 0.06986585259437561, 0.03999999910593033]","[0.0, -0.0, 1.33435435145599]","[0.026750000193715096, 0.05299999937415123, 0.03999999910593033]","[0.0, 0.0, -1.3406650641721125]","[0.09685182571411133, 0.06942359358072281, 0.03999999910593033]","[0.0, 0.0, -1.3711530696282732]",1.3579162851496,5.655565729344001,"(0.0, 0.0, 0.0, 0.0, 0.0, 0.0)",-0.9088150211252332,3.4316066113876724e-06,0.0001607445165674468,"(0.0, 0.0, 0.0, 0.0, 0.0, 0.0)",-0.06444344013525093,-1.3635984108023202,-5.504042378604797,"(0.0, 0.0, 0.0, 0.0, 0.0, 0.0)",0.8762522980402716,-0.02744024570882781,0.7315266716392431,"(0.0, 0.0, 0.0, 0.0, 0.0, 0.0)",0.05446985052483407,False,,,,,False,,,,
4,Open,,,,,,"[-0.026750000193715096, 0.05299999937415123, 0.03999999910593033]","[0.0, -0.0, 1.4308518944899675]","[-0.09804610908031464, 0.06304314732551575, 0.03999999910593033]","[0.0, -0.0, 1.4308566269594332]","[0.026750000193715096, 0.05299999937415123, 0.03999999910593033]","[0.0, 0.0, -1.4345798203875788]","[0.09808305650949478, 0.06277728080749512, 0.03999999910593033]","[0.0, 0.0, -1.4525855975984745]",1.4447666872179874,3.339555007520341,"(0.0, 0.0, 0.0, 0.0, 0.0, 0.0)",-0.5371183361845069,4.8269553674989e-06,2.0878160072459843e-05,"(0.0, 0.0, 0.0, 0.0, 0.0, 0.0)",-0.03821759960562203,-1.448121925594662,-3.2500819841423465,"(0.0, 0.0, 0.0, 0.0, 0.0, 0.0)",0.5178266556878065,-0.016205556838873442,0.4320218239148067,"(0.0, 0.0, 0.0, 0.0, 0.0, 0.0)",0.0322808466635012,False,,,,,False,,,,
5,Open,,,,,,"[-0.026750000193715096, 0.05299999937415123, 0.03999999910593033]","[0.0, -0.0, 1.487834617901085]","[-0.09850236773490906, 0.05896640568971634, 0.03999999910593033]","[0.0, -0.0, 1.4878390921106803]","[0.026750000193715096, 0.05299999937415123, 0.03999999910593033]","[0.0, 0.0, -1.4900358577435544]","[0.09851532429456711, 0.05880843847990036, 0.03999999910593033]","[0.0, 0.0, -1.5006695807985118]",1.4960509811353493,1.9719738363906854,"(0.0, 0.0, 0.0, 0.0, 0.0, 0.0)",-0.3173274216127963,4.509251873886308e-06,-3.168767150011037e-05,"(0.0, 0.0, 0.0, 0.0, 0.0, 0.0)",-0.022624215793833224,-1.498032215844392,-1.9191409108162163,"(0.0, 0.0, 0.0, 0.0, 0.0, 0.0)",0.30591369390909257,-0.00957062017308593,0.2551417656412126,"(0.0, 0.0, 0.0, 0.0, 0.0, 0.0)",0.019102112305110365,False,,,,,False,,,,
6,Open,,,,,,"[-0.026750000193715096, 0.05299999937415123, 0.03999999910593033]","[0.0, -0.0, 1.5214821319654974]","[-0.09866246581077576, 0.05654918774962425, 0.03999999910593033]","[0.0, -0.0, 1.5214858439169519]","[0.026750000193715096, 0.05299999937415123, 0.03999999910593033]","[0.0, 0.0, -1.5227821585534602]","[0.09866702556610107, 0.05645570904016495, 0.03999999910593033]","[0.0, 0.0, -1.529061933448946]",1.5263338438506127,1.164430830650334,"(0.0, 0.0, 0.0, 0.0, 0.0, 0.0)",-0.18743587261192823,3.6440993970645793e-06,-4.480530101024996e-05,"(0.0, 0.0, 0.0, 0.0, 0.0, 0.0)",-0.013379159967550349,-1.527503743133955,-1.1332335164278682,"(0.0, 0.0, 0.0, 0.0, 0.0, 0.0)",0.18068846528573543,-0.005652184024362593,0.1506807000213291,"(0.0, 0.0, 0.0, 0.0, 0.0, 0.0)",0.011293655891939093,False,,,,,False,,,,
7,Close,,,"(0.010000824637423049, 0.16001319418745247, 0.017848014970055004)","(-0.00026934863811186216, 1.6834304115272585e-05, -2.2671484573282825e-09)",,"[-0.026750000193715096, 0.05299999937415123, 0.03999999910593033]","[0.0, -0.0, 1.2784808254221978]","[-0.09569569677114487, 0.07374827563762665, 0.03999999910593033]","[0.0, -0.0, 1.034582661993943]","[0.026750000193715096, 0.05299999937415123, 0.03999999910593033]","[0.0, 0.0, -1.2792482299640686]","[0.0957116037607193, 0.0736953467130661, 0.03999999910593033]","[0.0, 0.0, -1.0390562259147462]",1.210632571455348,-16.283535238809286,"(0.0, 0.0, 0.0, 0.0, 0.0, 0.0)",2.771136716181199,-0.3095085607892871,-15.746535439217235,"(0.0, 0.0, 0.0, 0.0, 0.0, 0.0)",0.3469037989659341,-1.211323385283169,16.3019569408845,"(0.0, 0.0, 0.0, 0.0, 0.0, 0.0)",-2.7749564531312414,0.30617317599991634,15.835479338328643,"(0.0, 0.0, 0.0, 0.0, 0.0, 0.0)",-0.3479929302165593,False,,,,,False,,,,
8,Close,,,"(0.010001648057231211, 0.16002636889308344, 0.03133184175509247)","(-0.0005384699893107284, 3.3654401557527444e-05, -9.06094284338731e-09)",,"[-0.026750000193715096, 0.05299999937415123, 0.03999999910593033]","[0.0, -0.0, 1.0006360422079206]","[-0.08736064285039902, 0.0918632224202156, 0.03999999910593033]","[0.0, -0.0, 0.4880565025715103]","[0.026750000193715096, 0.05299999937415123, 0.03999999910593033]","[0.0, 0.0, -1.001089448203126]","[0.08737824857234955, 0.09183574467897415, 0.03999999910593033]","[0.0, 0.0, -0.49069812233338583]",0.9605724271186684,-9.615264723164493,"(0.0, 0.0, 0.0, 0.0, 0.0, 0.0)",1.6441783201079794,-0.5513218025251249,-9.298144061583436,"(0.0, 0.0, 0.0, 0.0, 0.0, 0.0)",0.21014173445603831,-0.9609803457758583,9.626142554022893,"(0.0, 0.0, 0.0, 0.0, 0.0, 0.0)",-1.6464751946207798,0.5493522946545342,9.350664461360347,"(0.0, 0.0, 0.0, 0.0, 0.0, 0.0)",-0.2108204377510729,False,,,,,False,,,,
9,Close,,,"(0.010002470404691093, 0.16003952644115657, 0.04045997120998789)","(-0.0008073642479911328, 5.0460303253361964e-05, -2.0369923505779015e-08)",,"[-0.026750000193715096, 0.05299999937415123, 0.03999999910593033]","[0.0, -0.0, 0.8365715799965936]","[-0.0801992267370224, 0.1012408509850502, 0.03999999910593033]","[0.0, -0.0, 0.16533874626364803]","[0.026750000193715096, 0.05299999937415123, 0.03999999910593033]","[0.0, 0.0, -0.8368392086626993]","[0.08021213859319687, 0.10122654587030411, 0.03999999910593033]","[0.0, 0.0, -0.1668985823484083]",0.8129144124893025,-5.677717666381402,"(0.0, 0.0, 0.0, 0.0, 0.0, 0.0)",0.9736078226475493,-0.6941096683608667,-5.490444078796776,"(0.0, 0.0, 0.0, 0.0, 0.0, 0.0)",0.12593397924105265,-0.8131552843771866,5.684140916724979,"(0.0, 0.0, 0.0, 0.0, 0.0, 0.0)",-0.9749785244213759,0.6929466958025952,5.521456795952681,"(0.0, 0.0, 0.0, 0.0, 0.0, 0.0)",-0.12634715317523504,False,,,,,False,,,,
10,Close,,,"(0.010003291824242136, 0.16005266914270105, 0.04523936165140331)","(-0.0010760316083767074, 6.725202012489063e-05, -3.618265319583079e-08)",,"[-0.026750000193715096, 0.05299999937415123, 0.03999999910593033]","[0.0, -0.0, 0.7396932119518481]","[-0.07528240978717804, 0.10618463158607483, 0.03999999910593033]","[0.0, 0.0, -0.025223688738047617]","[0.026750000193715096, 0.05299999937415123, 0.03999999910593033]","[0.0, 0.0, -0.7398511766938903]","[0.07529081404209137, 0.10617695748806, 0.03999999910593033]","[0.0, -0.0, 0.02430263317545323]",0.7257238314308083,-3.352635504821555,"(0.0, 0.0, 0.0, 0.0, 0.0, 0.0)",0.5758654822812497,-0.7784262532781683,-3.242260203768412,"(0.0, 0.0, 0.0, 0.0, 0.0, 0.0)",0.0750123771406224,-0.725866063871885,3.3564283699169333,"(0.0, 0.0, 0.0, 0.0, 0.0, 0.0)",-0.5766799137830688,0.7777395376647703,3.260573592131318,"(0.0, 0.0, 0.0, 0.0, 0.0, 0.0)",-0.0752606958188736,False,,,,,False,,,,
11,Close,,,"(0.009997966950406065, 0.16004795201914346, 0.046616050094935475)","(-0.0009640430328522325, -5.7324486097668704e-05, 4.2980615420070005e-09)",,"[-0.026750000193715096, 0.05299999937415123, 0.03999999910593033]","[0.0, -0.0, 0.682487397988505]","[-0.0721622109413147, 0.10887245088815689, 0.03999999910593033]","[0.0, 0.0, -0.13775029188859572]","[0.026750000193715096, 0.05299999937415123, 0.03999999910593033]","[0.0, 0.0, -0.6825807377410441]","[0.07216742634773254, 0.10886821150779724, 0.03999999910593033]","[0.0, -0.0, 0.1372064129763775]",0.6742386185346878,-1.979696494258342,"(0.0, 0.0, 0.0, 0.0, 0.0, 0.0)",0.34037467823530393,-0.8282145265472606,-1.9144534778819295,"(0.0, 0.0, 0.0, 0.0, 0.0, 0.0)",0.04449932044982575,-0.674322605213594,1.981936139029174,"(0.0, 0.0, 0.0, 0.0, 0.0, 0.0)",-0.3408573424145132,0.8278090365055835,1.9252671252731466,"(0.0, 0.0, 0.0, 0.0, 0.0, 0.0)",-0.04464739446319682,False,,,,,False,,,,
12,Close,,,"(0.009998679410322496, 0.16003066597344334, 0.0474253884764576)","(-0.0006112814540129935, -4.2805404436077314e-05, 1.9447426774393396e-07)",,"[-0.026750000193715096, 0.05299999937415123, 0.03999999910593033]","[0.0, -0.0, 0.6487079580530938]","[-0.07024932652711868, 0.11037428677082062, 0.03999999910593033]","[0.0, 0.0, -0.20419532625251113]","[0.026750000193715096, 0.05299999937415123, 0.03999999910593033]","[0.0, 0.0, -0.6487631098841893]","[0.07025248557329178, 0.11037188768386841, 0.03999999910593033]","[0.0, -0.0, 0.20387417727936794]",0.6438371618585478,-1.1689909828946077,"(0.0, 0.0, 0.0, 0.0, 0.0, 0.0)",0.20110328062585062,-0.8576133287829941,-1.1304144347684295,"(0.0, 0.0, 0.0, 0.0, 0.0, 0.0)",0.026365137971139978,-0.6438867551525752,1.1703134707353389,"(0.0, 0.0, 0.0, 0.0, 0.0, 0.0)",-0.20138889834359572,0.857373897412956,1.136799615752827,"(0.0, 0.0, 0.0, 0.0, 0.0, 0.0)",-0.026453134766811503,False,,,,,False,,,,
13,Close,,,"(0.008562352819313064, 0.15963169911231415, 0.04795936059784778)","(0.002880050037504477, -0.0018080766405500393, 0.027156574699580344)",,"[-0.026750000193715096, 0.05299999937415123, 0.03999999910593033]","[0.0, -0.0, 0.6287615983534538]","[-0.06909634172916412, 0.11123047024011612, 0.03999999910593033]","[0.0, 0.0, -0.24342883421715172]","[0.026750000193715096, 0.05299999937415123, 0.03999999910593033]","[0.0, 0.0, -0.6288059721302652]","[0.06909892708063126, 0.1112285852432251, 0.03999999910593033]","[0.0, -0.0, 0.24295585513718987]",0.6258854057058539,-0.6902774854894381,"(0.0, 0.0, 0.0, 0.0, 0.0, 0.0)",0.11878846609148704,-0.8749713231347032,-0.6674313830745814,"(0.0, 0.0, 0.0, 0.0, 0.0, 0.0)",0.015594191474811038,-0.6259255556368085,0.6912982329409242,"(0.0, 0.0, 0.0, 0.0, 0.0, 0.0)",0.23889456753769728,0.8745816224765113,0.6767593625972839,"(0.0, 0.0, 0.0, 0.0, 0.0, 0.0)",0.18939691443679915,False,,,,,True,"(0.040048198705117485, 0.17954190147604243, 0.02399995236517949)","(-0.9999968496142797, -0.00250969405768167, -4.6874861287478436e-05)",-8.481535683957195e-06,2.863336982423626
14,Move,,,"(0.003226703519616097, 0.15887842572556865, 0.048057042824217085)","(0.00733137607255103, 0.004060605831319912, 0.12411081910370701)","[0.0, 0.0, 0.0]","[-0.026750000193715096, 0.05299999937415123, 0.03999999910593033]","[0.0, -0.0, 0.5601465041237582]","[-0.06500434130430222, 0.11399676650762558, 0.03999999910593033]","[0.0, 0.0, -0.31665092698218517]","[0.026750000193715096, 0.05299999937415123, 0.03999999910593033]","[0.0, 0.0, -0.5704848668453074]","[0.0656328946352005, 0.11359802633523941, 0.03999999910593033]","[0.0, -0.0, 0.3056114929739557]",0.5446837312064112,-3.7110582962534506,"(0.0, 0.0, 0.0, 0.0, 0.0, 0.0)",-53.09089974488294,-0.8536776571297426,5.5487419201507295,"(0.0, 0.0, 0.0, 0.0, 0.0, 0.0)",-27.521806933097807,-0.5577558572400253,3.0549589579805563,"(0.0, 0.0, 0.0, 0.0, 0.0, 0.0)",39.845640952717,0.8551826533669656,-5.0192908628628805,"(0.0, 0.0, 0.0, 0.0, 0.0, 0.0)",19.520428399002,True,"(-0.031006456029053206, 0.18019920383377602, 0.023994329638221932)","(0.9922239401206523, 0.12433627092149606, -0.005669601818851313)",-0.0005148038489068186,428.5206410406488,True,"(0.03236246380961459, 0.17994971919477992, 0.023997959838382148)","(-0.9993845697424365, -0.035018889211399305, -0.00203940165862912)",0.0005577664042068458,310.72647358115125
15,Move,"(0.0, 0.0, 0.0)","(0.0, -0.0, 0.0)","(0.003504402033646404, 0.1613948858976077, 0.04817079317234074)","(-0.01182613504509735, 0.002137449988488053, 0.11742566033651587)","[0.00027769851403030687, 0.002516460172039048, 0.00011375034812365764]","[-0.026750000193715096, 0.05299999937415123, 0.03999999910593033]","[0.0, -0.0, 0.5308887471047733]","[-0.0632035955786705, 0.11508973687887192, 0.03999999910593033]","[0.0, 0.0, -0.30561217044041405]","[0.026750000193715096, 0.05299999937415123, 0.03999999910593033]","[0.0, 0.0, -0.5530530160976456]","[0.06457070261240005, 0.11426658928394318, 0.03999999910593033]","[0.0, -0.0, 0.28633845186065504]",0.5308886342742289,-2.743219973176496e-05,"(0.0, 0.0, 0.0, 0.0, 0.0, 0.0)",-1.479968393802807,-0.8377176048323264,-0.292020181278713,"(0.0, 0.0, 0.0, 0.0, 0.0, 0.0)",-0.7628834231627771,-0.5548130719939204,-0.42243279192450156,"(0.0, 0.0, 0.0, 0.0, 0.0, 0.0)",0.8255153500339152,0.8405146749784174,0.2695910008350374,"(0.0, 0.0, 0.0, 0.0, 0.0, 0.0)",0.4581689805558429,True,"(-0.02993623661702797, 0.18164521985802554, 0.02399768538251049)","(0.9931207992795509, 0.11707144870409551, -0.0023138575302940555)",-0.0007845701781099983,10.805815356635755,True,"(0.03269094966236777, 0.18010672723331056, 0.05600231461748951)","(-0.9931207992795511, -0.11707144870409283, 0.002313857530288821)",-0.00014723643191122778,5.690113724073641
16,Move,"(-0.005063291139240506, 0.0, 0.0)","(0.0, -0.0, 0.0)","(0.003686873852620478, 0.16145118299960992, 0.04850520696220248)","(-0.009920474942466902, 0.0014704937302783337, 0.11765595938020748)","[0.0004601703330043808, 0.0025727572740412707, 0.00044816413798539484]","[-0.026750000193715096, 0.05299999937415123, 0.03999999910593033]","[0.0, -0.0, 0.5306859657919776]","[-0.0631910040974617, 0.11509712785482407, 0.03999999910593033]","[0.0, 0.0, -0.306571665124817]","[0.026750000193715096, 0.05299999937415123, 0.03999999910593033]","[0.0, 0.0, -0.5562742483755694]","[0.06476785987615585, 0.11414443701505661, 0.03999999910593033]","[0.0, -0.0, 0.28388358274941233]",0.5306299250986802,-0.013431438203731765,"(0.0, 0.0, 0.0, 0.0, 0.0, 0.0)",-1.3402502668217493,-0.8368561808866644,0.09632580965076316,"(0.0, 0.0, 0.0, 0.0, 0.0, 0.0)",-0.6433988987871289,-0.5562407384063752,0.008040437943686658,"(0.0, 0.0, 0.0, 0.0, 0.0, 0.0)",0.6471774284042964,0.8398103301734519,-0.08339255575479818,"(0.0, 0.0, 0.0, 0.0, 0.0, 0.0)",0.3380298192516069,True,"(-0.02985998070791318, 0.18162226934125764, 0.023998415307168498)","(0.9930448077558203, 0.11772638169018061, -0.0015839328722880473)",-0.0005445244438475771,10.367098105208765,True,"(0.03305019770485204, 0.18005954692977522, 0.056001584692831494)","(-0.9930448077558204, -0.1177263816901798, 0.0015839328722800712)",-9.151424714944736e-05,4.844017796007822
17,Move,"(-0.010126582278481011, 0.0, 0.0)","(0.0, -0.0, 0.0)","(0.0033445143946967, 0.16123663175791572, 0.0486666691696437)","(-0.00474775157920056, -0.0009351383337092361, 0.11886341837584938)","[0.00011781087508060291, 0.002358206032347071, 0.0006096263454266129]","[-0.026750000193715096, 0.05299999937415123, 0.03999999910593033]","[0.0, -0.0, 0.5335147016264971]","[-0.06336651742458344, 0.11499379575252533, 0.03999999910593033]","[0.0, 0.0, -0.30231206009473366]","[0.026750000193715096, 0.05299999937415123, 0.03999999910593033]","[0.0, 0.0, -0.5534664112463115]","[0.064596027135849, 0.11425094306468964, 0.03999999910593033]","[0.0, -0.0, 0.2849417257610395]",0.5343051009010574,0.18970316049481586,"(0.0, 0.0, 0.0, 0.0, 0.0, 0.0)",-0.5744406362215349,-0.835633726786148,0.04631674543065695,"(0.0, 0.0, 0.0, 0.0, 0.0, 0.0)",-0.24663544434258594,-0.5527287542577618,0.17704201344546594,"(0.0, 0.0, 0.0, 0.0, 0.0, 0.0)",1.280251458607306,0.8381133025262921,-0.07075980605517045,"(0.0, 0.0, 0.0, 0.0, 0.0, 0.0)",0.6916641943265096,True,"(-0.030318844139301644, 0.18165766918101717, 0.02399980107177976)","(0.9929853425081125, 0.11823734728666253, -0.0001981682610222607)",-0.00033668164394211726,0.14844127296868526,True,"(0.032808629462521506, 0.18013249778121754, 0.05600019892822024)","(-0.9929853425081133, -0.11823734728665626, 0.00019816826102036624)",-2.2607108286666505e-05,4.092197712998684
18,Move,"(-0.01518987341772152, 0.0, 0.0)","(0.0, -0.0, 0.0)","(0.002555011859479001, 0.16106571539946307, 0.04877331050070391)","(-0.0022465719424677477, -0.0015868089823636892, 0.12398410625314822)","[-0.0006716916601370963, 0.0021872896738944214, 0.0007162676764868245]","[-0.026750000193715096, 0.05299999937415123, 0.03999999910593033]","[0.0, -0.0, 0.5404103310905926]","[-0.0637931302189827, 0.11473982781171799, 0.03999999910593033]","[0.0, 0.0, -0.29445527242348957]","[0.026750000193715096, 0.05299999937415123, 0.03999999910593033]","[0.0, 0.0, -0.5465436896470376]","[0.06417109817266464, 0.11451147496700287, 0.03999999910593033]","[0.0, -0.0, 0.29037706264663965]",0.5418594524440761,0.3477756268307091,"(0.0, 0.0, 0.0, 0.0, 0.0, 0.0)",-0.5093465760421166,-0.8347189637746326,0.03521059452216906,"(0.0, 0.0, 0.0, 0.0, 0.0, 0.0)",-0.20914644103706068,-0.545056220300199,0.35698631363122657,"(0.0, 0.0, 0.0, 0.0, 0.0, 0.0)",1.0932587093763542,0.8367118676791072,-0.05012608808054944,"(0.0, 0.0, 0.0, 0.0, 0.0, 0.0)",0.6187382755758316,True,"(-0.031270238119133584, 0.18166128741426862, 0.02399980107177976)","(0.9929853425081125, 0.11823734728666253, -0.0001981682610222607)",-0.00019861101099398587,1.2550243763122764,True,"(0.03202608154204019, 0.18021927898705425, 0.05600019892822024)","(-0.9929853425081133, -0.11823734728665626, 0.00019816826102036624)",1.5126864632464247e-05,0.4664519721265626
19,Move,"(-0.020253164556962026, 0.0, 0.0)","(0.0, -0.0, 0.0)","(0.0012889735171042122, 0.16093327991095563, 0.04879027785439572)","(0.0007810352835191888, -0.0016246690005484597, 0.12940355262970157)","[-0.001937730002511885, 0.0020548541853869784, 0.0007332350301786361]","[-0.026750000193715096, 0.05299999937415123, 0.03999999910593033]","[0.0, -0.0, 0.5507570128806364]","[-0.06442993134260178, 0.11435326188802719, 0.03999999910593033]","[0.0, 0.0, -0.28313674064724387]","[0.026750000193715096, 0.05299999937415123, 0.03999999910593033]","[0.0, 0.0, -0.5356363698694832]","[0.06349796056747437, 0.11491596698760986, 0.03999999910593033]","[0.0, -0.0, 0.2997743062440606]",0.552796339115193,0.48944464222452955,"(0.0, 0.0, 0.0, 0.0, 0.0, 0.0)",-0.5408608156360714,-0.8336999317199327,0.04651323856997639,"(0.0, 0.0, 0.0, 0.0, 0.0, 0.0)",-0.2449276681535121,-0.5334551594850807,0.5234783215367926,"(0.0, 0.0, 0.0, 0.0, 0.0, 0.0)",0.6801528995079272,0.8352234542494911,-0.044914708538965745,"(0.0, 0.0, 0.0, 0.0, 0.0, 0.0)",0.4032947938032054,True,"(-0.03266656126481631, 0.1816385362836327, 0.02399980107177976)","(0.9929853425081125, 0.11823734728666253, -0.0001981682610222607)",-0.00012797466940883437,3.1499324607313834,True,"(0.030736899985745678, 0.18031880624444718, 0.05600019892822024)","(-0.9929853425081133, -0.11823734728665626, 0.00019816826102036624)",1.3836762568847726e-05,1.7592368971317827
20,Move,"(-0.02531645569620253, 0.0, 0.0)","(0.0, -0.0, 0.0)","(-0.00034317848285868405, 0.1608327334224693, 0.04884006169109315)","(-0.00026567245982894944, -0.0013143378546862353, 0.13747346911016756)","[-0.003569882002474781, 0.0019543076969006368, 0.0007830188668760674]","[-0.026750000193715096, 0.05299999937415123, 0.03999999910593033]","[0.0, -0.0, 0.564135271802485]","[-0.06524734199047089, 0.11384368687868118, 0.03999999910593033]","[0.0, 0.0, -0.2685013048899248]","[0.026750000193715096, 0.05299999937415123, 0.03999999910593033]","[0.0, 0.0, -0.5210922869419273]","[0.06259360164403915, 0.11544386297464371, 0.03999999910593033]","[0.0, -0.0, 0.3123357280431737]",0.5666838829264352,0.611658510084979,"(0.0, 0.0, 0.0, 0.0, 0.0, 0.0)",-0.6775942786142599,-0.8324292221354493,0.04976404433651814,"(0.0, 0.0, 0.0, 0.0, 0.0, 0.0)",-0.28036378233531695,-0.5182897285459863,0.6726153092598064,"(0.0, 0.0, 0.0, 0.0, 0.0, 0.0)",1.106394024450778,0.8331219546474465,-0.07345327899839157,"(0.0, 0.0, 0.0, 0.0, 0.0, 0.0)",0.6585095834992776,True,"(-0.03447208754995927, 0.18158661642602458, 0.02399980107177976)","(0.9929853425081125, 0.11823734728666253, -0.0001981682610222607)",-8.74951995561677e-05,4.353038948602201,True,"(0.029013590229937672, 0.18043002725252236, 0.05600019892822024)","(-0.9929853425081133, -0.11823734728665626, 0.00019816826102036624)",5.975822766862984e-06,7.080765993362075
21,Move,"(-0.03037974683544304, 0.0, 0.0)","(0.0, -0.0, 0.0)","(-0.002420164126842076, 0.1607588727203358, 0.0488696295806031)","(0.0009717563847954711, -0.001802612932959447, 0.1430090337331851)","[-0.005646867646458173, 0.0018804469947671376, 0.0008125867563860134]","[-0.026750000193715096, 0.05299999937415123, 0.03999999910593033]","[0.0, -0.0, 0.5801116467037415]","[-0.06621444225311279, 0.11322090774774551, 0.03999999910593033]","[0.0, 0.0, -0.2508000183909697]","[0.026750000193715096, 0.05299999937415123, 0.03999999910593033]","[0.0, 0.0, -0.5031426786158337]","[0.061467040330171585, 0.11607715487480164, 0.03999999910593033]","[0.0, -0.0, 0.32768211390232044]",0.5831035511871404,0.7180782274425828,"(0.0, 0.0, 0.0, 0.0, 0.0, 0.0)",-1.1207139789408849,-0.8305642782127257,0.08335181915790338,"(0.0, 0.0, 0.0, 0.0, 0.0, 0.0)",-0.4904059889265157,-0.49974284873213365,0.8159616224314449,"(0.0, 0.0, 0.0, 0.0, 0.0, 0.0)",1.5215190779254901,0.8303453880252039,-0.11504986200897563,"(0.0, 0.0, 0.0, 0.0, 0.0, 0.0)",0.8799890672598878,True,"(-0.03664308046952241, 0.18149795373853644, 0.02399980107177976)","(0.9929853425081125, 0.11823734728666253, -0.0001981682610222607)",-4.8211438999240134e-05,6.397074744101439,True,"(0.02689372626793686, 0.18054034916578351, 0.05600019892822024)","(-0.9929853425081133, -0.11823734728665626, 0.00019816826102036624)",5.683939314623319e-06,9.493659107009647
22,Move,"(-0.03544303797468354, 0.0, 0.0)","(0.0, -0.0, 0.0)","(-0.004879117470738418, 0.16069564729084704, 0.04890714750814895)","(-0.0004387879766511368, -0.0021633652268985733, 0.14766862748885126)","[-0.008105820990354515, 0.0018172215652783874, 0.0008501046839318668]","[-0.026750000193715096, 0.05299999937415123, 0.03999999910593033]","[0.0, -0.0, 0.5983254175976809]","[-0.06730469316244125, 0.1124921590089798, 0.03999999910593033]","[0.0, 0.0, -0.22999787165864052]","[0.026750000193715096, 0.05299999937415123, 0.03999999910593033]","[0.0, 0.0, -0.48206283445652753]","[0.06012976914644241, 0.11679491400718689, 0.03999999910593033]","[0.0, -0.0, 0.3455792504952369]",0.6016867699218265,0.8067204696383153,"(0.0, 0.0, 0.0, 0.0, 0.0, 0.0)",-1.56500322615217,-0.8278344836885888,0.11731944337382168,"(0.0, 0.0, 0.0, 0.0, 0.0, 0.0)",-0.7683298462062897,-0.4781293629443563,0.9440336660854441,"(0.0, 0.0, 0.0, 0.0, 0.0, 0.0)",1.9179147571396307,0.827011668685179,-0.15129282311564285,"(0.0, 0.0, 0.0, 0.0, 0.0, 0.0)",1.0559503395047853,True,"(-0.039159934199750945, 0.18136953530810423, 0.02399980107177976)","(0.9929853425081125, 0.11823734728666253, -0.0001981682610222607)",-2.3835755199645503e-05,9.229485523081692,True,"(0.024408345835537325, 0.18062905673614163, 0.05600019892822024)","(-0.9929853425081133, -0.11823734728665626, 0.00019816826102036624)",1.1907282103023902e-05,10.09070816850569
23,Move,"(-0.04050632911392405, 0.0, 0.0)","(0.0, -0.0, 0.0)","(-0.007623829028251905, 0.16058621509535453, 0.048912000363035044)","(0.0006580818104333185, -0.0023751355587039425, 0.15213131354294035)","[-0.010850532547868002, 0.0017077893697858837, 0.0008549575388179589]","[-0.026750000193715096, 0.05299999937415123, 0.03999999910593033]","[0.0, -0.0, 0.6183559051058498]","[-0.06848812848329544, 0.11166795343160629, 0.03999999910593033]","[0.0, 0.0, -0.20666970585684633]","[0.026750000193715096, 0.05299999937415123, 0.03999999910593033]","[0.0, 0.0, -0.4581710310740785]","[0.05859621241688728, 0.11757413297891617, 0.03999999910593033]","[0.0, -0.0, 0.3651804602735194]",0.6220235884450718,0.8802453224335425,"(0.0, 0.0, 0.0, 0.0, 0.0, 0.0)",-2.07356209998456,-0.8243798406409174,0.15497980449557258,"(0.0, 0.0, 0.0, 0.0, 0.0, 0.0)",-1.0271957655795203,-0.4537500438011869,1.0610281088948539,"(0.0, 0.0, 0.0, 0.0, 0.0, 0.0)",2.5176915744393384,0.8225995754379496,-0.1804540690398925,"(0.0, 0.0, 0.0, 0.0, 0.0, 0.0)",1.3640713976569152,True,"(-0.041957671408474145, 0.18118309184592246, 0.02399980107177976)","(0.9929853425081125, 0.11823734728666253, -0.0001981682610222607)",-4.505075667626682e-06,11.529908306171006,True,"(0.02163049923544872, 0.18069587590266156, 0.05600019892822024)","(-0.9929853425081133, -0.11823734728665626, 0.00019816826102036624)",2.300258161809431e-05,11.980495354394142
24,Move,"(-0.04556962025316456, 0.0, 0.0)","(0.0, -0.0, 0.0)","(-0.010666115799270657, 0.1604738260327282, 0.04893934753931705)","(-0.00045411286581890437, -0.0024925400878922513, 0.15650150346054204)","[-0.013892819318886755, 0.0015954003071595446, 0.0008823047150999658]","[-0.026750000193715096, 0.05299999937415123, 0.03999999910593033]","[0.0, -0.0, 0.6399207316671374]","[-0.06974348425865173, 0.11075431108474731, 0.03999999910593033]","[0.0, 0.0, -0.18062385283037422]","[0.026750000193715096, 0.05299999937415123, 0.03999999910593033]","[0.0, 0.0, -0.43162341063873005]","[0.05687090381979942, 0.11839672178030014, 0.03999999910593033]","[0.0, -0.0, 0.3866251512528058]",0.643833240088071,0.9390327766627882,"(0.0, 0.0, 0.0, 0.0, 0.0, 0.0)",-2.663953406942918,-0.8197208895121612,0.19765860274949298,"(0.0, 0.0, 0.0, 0.0, 0.0, 0.0)",-1.37348219087783,-0.42674745326960345,1.170229439712208,"(0.0, 0.0, 0.0, 0.0, 0.0, 0.0)",3.178024646702808,0.8172479267204925,-0.24014905438832326,"(0.0, 0.0, 0.0, 0.0, 0.0, 0.0)",1.6812992483875635,True,"(-0.04503239888490941, 0.18093680227639003, 0.02399980107177976)","(0.9929853425081125, 0.11823734728666253, -0.0001981682610222607)",-1.16312614308114e-05,16.6214111165172,True,"(0.018560170309973673, 0.1807112928122274, 0.05600019892822024)","(-0.9929853425081133, -0.11823734728665626, 0.00019816826102036624)",3.7092405891582385e-05,13.263955380167806
25,Move,"(-0.05063291139240506, 0.0, 0.0)","(0.0, -0.0, 0.0)","(-0.013952581809947425, 0.16027101421153628, 0.04894275593646695)","(3.0088995903271685e-05, -0.002923826467335798, 0.16069581057513693)","[-0.01717928532956352, 0.0013925884859676274, 0.0008857131122498654]","[-0.026750000193715096, 0.05299999937415123, 0.03999999910593033]","[0.0, -0.0, 0.6626659488652861]","[-0.0710458904504776, 0.1097615584731102, 0.03999999910593033]","[0.0, 0.0, -0.1522356112441056]","[0.026750000193715096, 0.05299999937415123, 0.03999999910593033]","[0.0, 0.0, -0.40265575475178284]","[0.05496413633227348, 0.11924169957637787, 0.03999999910593033]","[0.0, -0.0, 0.4092560826632224]",0.666791357662726,0.9901230597132478,"(0.0, 0.0, 0.0, 0.0, 0.0, 0.0)",-3.9543073604891337,-0.8136697719203395,0.2956058029977368,"(0.0, 0.0, 0.0, 0.0, 0.0, 0.0)",-2.05577934721427,-0.3973434394680571,1.2749411139087738,"(0.0, 0.0, 0.0, 0.0, 0.0, 0.0)",3.4857532096713073,0.8108595917370611,-0.2525257007273174,"(0.0, 0.0, 0.0, 0.0, 0.0, 0.0)",1.848692792282556,True,"(-0.04833684738688293, 0.1806171828603461, 0.02399980107177976)","(0.9929853425081125, 0.11823734728666253, -0.0001981682610222607)",-6.060813624477343e-06,24.02763426229194,True,"(0.01525309751405253, 0.18067337723689617, 0.05600019892822024)","(-0.9929853425081133, -0.11823734728665626, 0.00019816826102036624)",4.86259600131102e-05,11.203751672340912
26,Move,"(-0.055696202531645575, 0.0, 0.0)","(0.0, -0.0, 0.0)","(-0.01743734544136364, 0.16001072106923112, 0.04894868112889626)","(0.0003327717760183441, -0.003494991177731381, 0.1646076541251143)","[-0.020664048960979738, 0.001132295343662465, 0.0008916383046791779]","[-0.026750000193715096, 0.05299999937415123, 0.03999999910593033]","[0.0, -0.0, 0.6863147573462718]","[-0.07237572968006134, 0.10869823396205902, 0.03999999910593033]","[0.0, 0.0, -0.12133415762197956]","[0.026750000193715096, 0.05299999937415123, 0.03999999910593033]","[0.0, 0.0, -0.3714001425691417]","[0.05288027226924896, 0.12009105086326599, 0.03999999910593033]","[0.0, -0.0, 0.4330435756312063]",0.690570009858176,1.0212547495976205,"(0.0, 0.0, 0.0, 0.0, 0.0, 0.0)",-4.11884864514138,-0.8063455132740588,0.31282219910723763,"(0.0, 0.0, 0.0, 0.0, 0.0, 0.0)",-2.195708398517233,-0.36570465005481795,1.3669106666204265,"(0.0, 0.0, 0.0, 0.0, 0.0, 0.0)",4.77546628557782,0.8030287189273163,-0.339593622224825,"(0.0, 0.0, 0.0, 0.0, 0.0, 0.0)",2.421120614988939,True,"(-0.05186672203860658, 0.1802216615128292, 0.02399980107177976)","(0.9929853425081125, 0.11823734728666253, -0.0001981682610222607)",2.939860105804065e-07,24.22456028169355,True,"(0.01171929825917667, 0.18056081288722498, 0.05600019892822024)","(-0.9929853425081133, -0.11823734728665626, 0.00019816826102036624)",6.389942518045143e-05,17.682660738263735
27,Move,"(-0.06075949367088608, 0.0, 0.0)","(0.0, -0.0, 0.0)","(-0.021123479315127886, 0.15966094530006708, 0.04895879460876605)","(0.0005138505448201817, -0.004150144471655143, 0.16841690818330238)","[-0.024350182834743984, 0.0007825195744984303, 0.0009017517845489667]","[-0.026750000193715096, 0.05299999937415123, 0.03999999910593033]","[0.0, -0.0, 0.7106080896788023]","[-0.07371523231267929, 0.107573501765728, 0.03999999910593033]","[0.0, 0.0, -0.08835501016976936]","[0.026750000193715096, 0.05299999937415123, 0.03999999910593033]","[0.0, 0.0, -0.3380031453749523]","[0.050625476986169815, 0.1209261491894722, 0.03999999910593033]","[0.0, -0.0, 0.45755439084853505]",0.7149635641150239,1.0452971889660032,"(0.0, 0.0, 0.0, 0.0, 0.0, 0.0)",-4.909296537378277,-0.7973911269651532,0.3772906821297173,"(0.0, 0.0, 0.0, 0.0, 0.0, 0.0)",-2.6702955696134625,-0.33193594743070276,1.4561216406294322,"(0.0, 0.0, 0.0, 0.0, 0.0, 0.0)",5.714705630000133,0.7938775288605723,-0.40317206096838776,"(0.0, 0.0, 0.0, 0.0, 0.0, 0.0)",2.8456417775148832,True,"(-0.055575730395016634, 0.17973428775138628, 0.02399980107177976)","(0.9929853425081125, 0.11823734728666253, -0.0001981682610222607)",9.367316431569298e-07,29.50445684704139,True,"(0.00799485983988553, 0.18036896414608283, 0.05600019892822024)","(-0.9929853425081133, -0.11823734728665626, 0.00019816826102036624)",7.908715207698588e-05,20.1696255081674
28,Move,"(-0.0658227848101266, 0.0, 0.0)","(0.0, -0.0, 0.0)","(-0.025002113084877303, 0.15920693929713658, 0.04896340968240577)","(0.0004124838412938537, -0.004639691756031547, 0.17260356854889003)","[-0.0282288166044934, 0.00032851357156793437, 0.0009063668581886855]","[-0.026750000193715096, 0.05299999937415123, 0.03999999910593033]","[0.0, -0.0, 0.7353388410987638]","[-0.07505036890506744, 0.10639545321464539, 0.03999999910593033]","[0.0, 0.0, -0.05305744481381176]","[0.026750000193715096, 0.05299999937415123, 0.03999999910593033]","[0.0, 0.0, -0.3025712011630187]","[0.048204243183135986, 0.1217292919754982, 0.03999999910593033]","[0.0, -0.0, 0.48295930195158576]",0.7397448647120148,1.0574545422889634,"(0.0, 0.0, 0.0, 0.0, 0.0, 0.0)",-5.957911815835691,-0.7863600370044316,0.4886921435415855,"(0.0, 0.0, 0.0, 0.0, 0.0, 0.0)",-3.3998422049283,-0.29616045568162225,1.5385820740570073,"(0.0, 0.0, 0.0, 0.0, 0.0, 0.0)",6.416800590560636,0.7836529214756744,-0.45061055935963745,"(0.0, 0.0, 0.0, 0.0, 0.0, 0.0)",3.0911279073292843,True,"(-0.05946873930138999, 0.17915143647930354, 0.02399980107177976)","(0.9929853425081125, 0.11823734728666253, -0.0001981682610222607)",-2.105408841984922e-05,38.91762794879645,True,"(0.004077401660618818, 0.18007001323939925, 0.05600019892822024)","(-0.9929853425081133, -0.11823734728665626, 0.00019816826102036624)",9.519045646238804e-05,19.333244322908534
29,Move,"(-0.07088607594936708, 0.0, 0.0)","(0.0, -0.0, 0.0)","(-0.028984424570215012, 0.15865340612578807, 0.04897699258776498)","(0.00020234729243879198, -0.0056173854267836856, 0.17644742628311832)","[-0.032211128089831106, -0.00022501959978057928, 0.0009199497635478948]","[-0.026750000193715096, 0.05299999937415123, 0.03999999910593033]","[0.0, -0.0, 0.7601663609688734]","[-0.0763610228896141, 0.10517994314432144, 0.03999999910593033]","[0.0, 0.0, -0.016064783770088825]","[0.026750000193715096, 0.05299999937415123, 0.03999999910593033]","[0.0, 0.0, -0.2653427613833516]","[0.0456312820315361, 0.12248019129037857, 0.03999999910593033]","[0.0, -0.0, 0.5082746625990712]",0.7645823509236764,1.0598421025839857,"(0.0, 0.0, 0.0, 0.0, 0.0, 0.0)",-6.95534156712659,-0.7737598852095905,0.5930975893252873,"(0.0, 0.0, 0.0, 0.0, 0.0, 0.0)",-3.9981782596345496,-0.2586109171379042,1.615641444312123,"(0.0, 0.0, 0.0, 0.0, 0.0, 0.0)",7.556395252617778,0.7714744728565562,-0.5143027940210807,"(0.0, 0.0, 0.0, 0.0, 0.0, 0.0)",3.562240275313553,True,"(-0.06348087943599658, 0.1784624231372372, 0.02399980107177976)","(0.9929853425081125, 0.11823734728666253, -0.0001981682610222607)",-1.1314208891341816e-05,44.470705106133785,True,"(4.1819937581254185e-05, 0.17968525225819598, 0.05600019892822024)","(-0.9929853425081133, -0.11823734728665626, 0.00019816826102036624)",0.00010747917047375235,23.644879199434545
30,Move,"(-0.07594936708860758, 0.0, 0.0)","(0.0, -0.0, 0.0)","(-0.03304677043006345, 0.1580190194010344, 0.048981047214492555)","(-2.7099554414833174e-07, -0.006468127246238132, 0.18060698759456012)","[-0.03627347394967955, -0.0008594063245342398, 0.0009240043902754708]","[-0.026750000193715096, 0.05299999937415123, 0.03999999910593033]","[0.0, -0.0, 0.7849449024425692]","[-0.07763860374689102, 0.10393475741147995, 0.03999999910593033]","[0.0, -0.0, 0.022843667120156053]","[0.026750000193715096, 0.05299999937415123, 0.03999999910593033]","[0.0, 0.0, -0.22642301195522688]","[0.042913515120744705, 0.12316224724054337, 0.03999999910593033]","[0.0, -0.0, 0.5334740461225976]",0.7893508084861401,1.0574148579948401,"(0.0, 0.0, 0.0, 0.0, 0.0, 0.0)",-7.640363320919766,-0.7594667892661184,0.6322693421810248,"(0.0, 0.0, 0.0, 0.0, 0.0, 0.0)",-4.371943834349836,-0.21939032737032918,1.6878462480721912,"(0.0, 0.0, 0.0, 0.0, 0.0, 0.0)",9.109686820235389,0.7573711200432005,-0.6062208643739097,"(0.0, 0.0, 0.0, 0.0, 0.0, 0.0)",4.304639114976825,True,"(-0.06761879897850312, 0.1776627978640739, 0.02399980107177976)","(0.9929853425081125, 0.11823734728666253, -0.0001981682610222607)",3.0501682804280417e-05,41.575686324691226,True,"(-0.004102851719173621, 0.17920043922838247, 0.05600019892822024)","(-0.9929853425081133, -0.11823734728665626, 0.00019816826102036624)",0.00010521651972246705,35.658888213009085
