OSUrobotics/InHand-Manipulation/AnalyseData/Data/Trial Data/Better/new_hand_expected_exp_2v2_a_n_1_kpNone_kdNone_dp1_step1_save_data.csv
,Phase,human_cube_pos,human_cube_orn,Cube_Pos,Cube_Orn,Cube_pos_in_start_pos,b'l_prox_pin'_link_pos,b'l_prox_pin'_link_orn,b'l_distal_pin'_link_pos,b'l_distal_pin'_link_orn,b'r_prox_pin'_link_pos,b'r_prox_pin'_link_orn,b'r_distal_pin'_link_pos,b'r_distal_pin'_link_orn,b'l_prox_pin'_joint_angle,b'l_prox_pin'_joint_vel,b'l_prox_pin'_joint_react_forces,b'l_prox_pin'_joint_motor_torque,b'l_distal_pin'_joint_angle,b'l_distal_pin'_joint_vel,b'l_distal_pin'_joint_react_forces,b'l_distal_pin'_joint_motor_torque,b'r_prox_pin'_joint_angle,b'r_prox_pin'_joint_vel,b'r_prox_pin'_joint_react_forces,b'r_prox_pin'_joint_motor_torque,b'r_distal_pin'_joint_angle,b'r_distal_pin'_joint_vel,b'r_distal_pin'_joint_react_forces,b'r_distal_pin'_joint_motor_torque,in_contact_l,contact_point_l_dist,contact_normal_l_dist,contact_distance_l_dist,contact_norm_force_l_dist,in_contact_r,contact_point_r_dist,contact_normal_r_dist,contact_distance_r_dist,contact_norm_force_r_dist
0,Open,,,,,,"[-0.026750000193715096, 0.05299999937415123, 0.03999999910593033]","[0.0, -0.0, 0.0]","[-0.026750000193715096, 0.125, 0.03999999910593033]","[0.0, -0.0, 0.0]","[0.026750000193715096, 0.05299999937415123, 0.03999999910593033]","[0.0, -0.0, 0.0]","[0.026750000193715096, 0.125, 0.03999999910593033]","[0.0, -0.0, 0.0]",0.0028636982559538428,0.6872875814289223,"(0.0, 0.0, 0.0, 0.0, 0.0, 0.0)",-74.42376671286476,0.025717978913313098,6.172314939195144,"(0.0, 0.0, 0.0, 0.0, 0.0, 0.0)",-28.347758017338414,-0.0028861714462846827,-0.6926811471083238,"(0.0, 0.0, 0.0, 0.0, 0.0, 0.0)",77.31812537484876,-0.025998027583603027,-6.239526620064726,"(0.0, 0.0, 0.0, 0.0, 0.0, 0.0)",29.325432325549183,False,,,,,False,,,,
1,Open,,,,,,"[-0.026750000193715096, 0.05299999937415123, 0.03999999910593033]","[0.0, -0.0, 0.0028636982488144678]","[-0.026956185698509216, 0.12499970197677612, 0.03999999910593033]","[0.0, -0.0, 0.028581675581217755]","[0.026750000193715096, 0.05299999937415123, 0.03999999910593033]","[0.0, 0.0, -0.0028861714423951343]","[0.026957804337143898, 0.12499970197677612, 0.03999999910593033]","[0.0, 0.0, -0.028884201286240394]",0.1595773284303585,37.61127124185712,"(0.0, 0.0, 0.0, 0.0, 0.0, 0.0)",53.472225824972774,0.02314589095046895,-0.6173011110825959,"(0.0, 0.0, 0.0, 0.0, 0.0, 0.0)",3.3014509125464437,-0.15959755430165623,-37.61073188528917,"(0.0, 0.0, 0.0, 0.0, 0.0, 0.0)",-53.45543824447724,-0.023397935520559333,0.6240220951304867,"(0.0, 0.0, 0.0, 0.0, 0.0, 0.0)",-3.2927232380167535,False,,,,,False,,,,
2,Open,,,,,,"[-0.026750000193715096, 0.05299999937415123, 0.03999999910593033]","[0.0, -0.0, 0.15957730699277592]","[-0.03819086775183678, 0.1240852028131485, 0.03999999910593033]","[0.0, -0.0, 0.1827232399786182]","[0.026750000193715096, 0.05299999937415123, 0.03999999910593033]","[0.0, 0.0, -0.15959754249378824]","[0.03819230571389198, 0.12408497184515, 0.03999999910593033]","[0.0, 0.0, -0.1829954723320542]",0.30061959558732265,33.8501441176714,"(0.0, 0.0, 0.0, 0.0, 0.0, 0.0)",-5.433290843096747,0.020831748867960086,-0.555394099802127,"(0.0, 0.0, 0.0, 0.0, 0.0, 0.0)",-0.37949999689540415,-0.30063779887149056,-33.849658696760244,"(0.0, 0.0, 0.0, 0.0, 0.0, 0.0)",5.433149501288634,-0.02105858889910766,0.5614431891484022,"(0.0, 0.0, 0.0, 0.0, 0.0, 0.0)",0.37943043762158307,False,,,,,False,,,,
3,Open,,,,,,"[-0.026750000193715096, 0.05299999937415123, 0.03999999910593033]","[0.0, -0.0, 0.30061964608852465]","[-0.048070069402456284, 0.12177103012800217, 0.03999999910593033]","[0.0, -0.0, 0.3214513597309629]","[0.026750000193715096, 0.05299999937415123, 0.03999999910593033]","[0.0, 0.0, -0.30063782483534385]","[0.04807132109999657, 0.12177064269781113, 0.03999999910593033]","[0.0, 0.0, -0.32169639446592324]",0.4275576360285904,30.465129705904268,"(0.0, 0.0, 0.0, 0.0, 0.0, 0.0)",-4.896562760502833,0.018748978964657985,-0.49986477679250463,"(0.0, 0.0, 0.0, 0.0, 0.0, 0.0)",-0.3438186216350169,-0.4275740189843415,-30.464692827084228,"(0.0, 0.0, 0.0, 0.0, 0.0, 0.0)",4.8964345239877005,-0.018953134917884834,0.505308955493478,"(0.0, 0.0, 0.0, 0.0, 0.0, 0.0)",0.34375511365495653,False,,,,,False,,,,
4,Open,,,,,,"[-0.026750000193715096, 0.05299999937415123, 0.03999999910593033]","[0.0, -0.0, 0.42755761853039154]","[-0.056604765355587006, 0.1185186430811882, 0.03999999910593033]","[0.0, -0.0, 0.4463066270391506]","[0.026750000193715096, 0.05299999937415123, 0.03999999910593033]","[0.0, 0.0, -0.42757404208311445]","[0.05660583823919296, 0.1185181587934494, 0.03999999910593033]","[0.0, 0.0, -0.4465272228574986]",0.5418018724257314,27.418616735313837,"(0.0, 0.0, 0.0, 0.0, 0.0, 0.0)",-4.412236817968903,0.016874447698417276,-0.44988750389777044,"(0.0, 0.0, 0.0, 0.0, 0.0, 0.0)",-0.3112578673856835,-0.5418166170859073,-27.418223544375806,"(0.0, 0.0, 0.0, 0.0, 0.0, 0.0)",4.412120589674461,-0.017058187988154127,0.4547872631353701,"(0.0, 0.0, 0.0, 0.0, 0.0, 0.0)",0.31119999541872967,False,,,,,False,,,,
5,Open,,,,,,"[-0.026750000193715096, 0.05299999937415123, 0.03999999910593033]","[0.0, -0.0, 0.5418019400761332]","[-0.06387900561094284, 0.11468822509050369, 0.03999999910593033]","[0.0, -0.0, 0.5586763123738882]","[0.026750000193715096, 0.05299999937415123, 0.03999999910593033]","[0.0, 0.0, -0.5418166677071254]","[0.06387991458177567, 0.11468767374753952, 0.03999999910593033]","[0.0, 0.0, -0.5588748551425957]",0.6446216851831583,24.67675506178245,"(0.0, 0.0, 0.0, 0.0, 0.0, 0.0)",-3.975330693632137,0.015187334633278446,-0.4049071356333192,"(0.0, 0.0, 0.0, 0.0, 0.0, 0.0)",-0.2816071653694913,-0.6446349553773166,-24.67640118993823,"(0.0, 0.0, 0.0, 0.0, 0.0, 0.0)",3.975225427671302,-0.01535270083200906,0.409316917474816,"(0.0, 0.0, 0.0, 0.0, 0.0, 0.0)",0.28155450162657786,False,,,,,False,,,,
6,Open,,,,,,"[-0.026750000193715096, 0.05299999937415123, 0.03999999910593033]","[0.0, -0.0, 0.6446216983098856]","[-0.07001452147960663, 0.11055155843496323, 0.03999999910593033]","[0.0, -0.0, 0.6598089287160823]","[0.026750000193715096, 0.05299999937415123, 0.03999999910593033]","[0.0, 0.0, -0.644634967879878]","[0.07001528143882751, 0.11055097728967667, 0.03999999910593033]","[0.0, 0.0, -0.6599877329949964]",0.7371595166648425,22.209079555604205,"(0.0, 0.0, 0.0, 0.0, 0.0, 0.0)",-3.5812948349547464,0.013668901111545678,-0.3644240452158641,"(0.0, 0.0, 0.0, 0.0, 0.0, 0.0)",-0.25464125660078457,-0.737171459839585,-22.20876107094441,"(0.0, 0.0, 0.0, 0.0, 0.0, 0.0)",3.5811995605906057,-0.01381773063402154,0.3683928475170044,"(0.0, 0.0, 0.0, 0.0, 0.0, 0.0)",0.2545933902665499,False,,,,,False,,,,
7,Open,,,,,,"[-0.026750000193715096, 0.05299999937415123, 0.03999999910593033]","[0.0, -0.0, 0.7371595400859692]","[-0.07514750957489014, 0.10630742460489273, 0.03999999910593033]","[0.0, -0.0, 0.7508283868993905]","[0.026750000193715096, 0.05299999937415123, 0.03999999910593033]","[0.0, 0.0, -0.7371714711336782]","[0.07514814287424088, 0.10630684345960617, 0.03999999910593033]","[0.0, 0.0, -0.750989167509555]",0.8204435649983582,19.988171600043785,"(0.0, 0.0, 0.0, 0.0, 0.0, 0.0)",-3.2259980823944012,0.01230228208777883,-0.32798856570404317,"(0.0, 0.0, 0.0, 0.0, 0.0, 0.0)",-0.23014491551259536,-0.8204543138556265,-19.987884963849964,"(0.0, 0.0, 0.0, 0.0, 0.0, 0.0)",3.225911902119173,-0.012436228606816148,0.33156048652929415,"(0.0, 0.0, 0.0, 0.0, 0.0, 0.0)",0.23010145595163894,False,,,,,False,,,,
8,Open,,,,,,"[-0.026750000193715096, 0.05299999937415123, 0.03999999910593033]","[0.0, -0.0, 0.8204435774406766]","[-0.07941428571939468, 0.1020965725183487, 0.03999999910593033]","[0.0, -0.0, 0.8327459142786269]","[0.026750000193715096, 0.05299999937415123, 0.03999999910593033]","[0.0, 0.0, -0.8204543695347751]","[0.07941480726003647, 0.10209600627422333, 0.03999999910593033]","[0.0, 0.0, -0.8328905496331522]",0.8953992084985224,17.9893544400394,"(0.0, 0.0, 0.0, 0.0, 0.0, 0.0)",-2.905692777507757,0.011072298781000885,-0.2951959936267068,"(0.0, 0.0, 0.0, 0.0, 0.0, 0.0)",-0.20791432075989408,-0.8954088824700639,-17.989096467464968,"(0.0, 0.0, 0.0, 0.0, 0.0, 0.0)",2.9056148642503405,-0.011192850601700187,0.29841072122783063,"(0.0, 0.0, 0.0, 0.0, 0.0, 0.0)",0.20787489947010138,False,,,,,False,,,,
9,Open,,,,,,"[-0.026750000193715096, 0.05299999937415123, 0.03999999910593033]","[0.0, -0.0, 0.8953992050914552]","[-0.08294302970170975, 0.09801492840051651, 0.03999999910593033]","[0.0, -0.0, 0.9064715399310761]","[0.026750000193715096, 0.05299999937415123, 0.03999999910593033]","[0.0, 0.0, -0.8954089117450801]","[0.08294346183538437, 0.09801438450813293, 0.03999999910593033]","[0.0, 0.0, -0.9066016844299951]",0.9628592876486701,16.190418996035465,"(0.0, 0.0, 0.0, 0.0, 0.0, 0.0)",-2.616982039675733,0.009965290062605858,-0.26568209241480656,"(0.0, 0.0, 0.0, 0.0, 0.0, 0.0)",-0.18775783729375353,-0.9628679942230576,-16.190186820718473,"(0.0, 0.0, 0.0, 0.0, 0.0, 0.0)",2.6169116334278195,-0.010073786659150813,0.26857534621184953,"(0.0, 0.0, 0.0, 0.0, 0.0, 0.0)",0.187722108909745,False,,,,,False,,,,
10,Open,,,,,,"[-0.026750000193715096, 0.05299999937415123, 0.03999999910593033]","[0.0, -0.0, 0.9628592963772022]","[-0.08584962040185928, 0.09412462264299393, 0.03999999910593033]","[0.0, -0.0, 0.9728246761305416]","[0.026750000193715096, 0.05299999937415123, 0.03999999910593033]","[0.0, 0.0, -0.9628681466677605]","[0.08584997802972794, 0.09412410855293274, 0.03999999910593033]","[0.0, 0.0, -0.9729417790417357]",1.0235733588838032,14.57137709643192,"(0.0, 0.0, 0.0, 0.0, 0.0, 0.0)",-2.356789246056587,0.008968960705874744,-0.23911904561546746,"(0.0, 0.0, 0.0, 0.0, 0.0, 0.0)",-0.16949635495257384,-1.0235811948007518,-14.571168138646623,"(0.0, 0.0, 0.0, 0.0, 0.0, 0.0)",2.3567256501387286,-0.009066607604651448,0.24172297307984775,"(0.0, 0.0, 0.0, 0.0, 0.0, 0.0)",0.16946399753760524,False,,,,,False,,,,
11,Open,,,,,,"[-0.026750000193715096, 0.05299999937415123, 0.03999999910593033]","[0.0, -0.0, 1.0235732790301837]","[-0.08823604136705399, 0.09046287834644318, 0.03999999910593033]","[0.0, -0.0, 1.0325423083164225]","[0.026750000193715096, 0.05299999937415123, 0.03999999910593033]","[0.0, 0.0, -1.0235812274279317]","[0.08823633193969727, 0.09046239405870438, 0.03999999910593033]","[0.0, 0.0, -1.0326479037372749]",1.078216022995423,13.114239386788727,"(0.0, 0.0, 0.0, 0.0, 0.0, 0.0)",-2.1223296975724493,0.008072244810550301,-0.215211814877866,"(0.0, 0.0, 0.0, 0.0, 0.0, 0.0)",-0.1529632973210469,-1.0782230753206767,-13.114051324781958,"(0.0, 0.0, 0.0, 0.0, 0.0, 0.0)",2.122272274708909,-0.008160126984954354,0.21755534872730237,"(0.0, 0.0, 0.0, 0.0, 0.0, 0.0)",0.15293401213466845,False,,,,,False,,,,
12,Open,,,,,,"[-0.026750000193715096, 0.05299999937415123, 0.03999999910593033]","[0.0, -0.0, 1.078215882979514]","[-0.09019032120704651, 0.08704887330532074, 0.03999999910593033]","[0.0, -0.0, 1.0862882926740116]","[0.026750000193715096, 0.05299999937415123, 0.03999999910593033]","[0.0, 0.0, -1.078222977413882]","[0.09019055962562561, 0.08704842627048492, 0.03999999910593033]","[0.0, 0.0, -1.0863833790205233]",1.1273944206958806,11.802815448109852,"(0.0, 0.0, 0.0, 0.0, 0.0, 0.0)",-1.9110844168611731,0.007265182884681461,-0.19369486220852175,"(0.0, 0.0, 0.0, 0.0, 0.0, 0.0)",-0.13800439004610457,-1.127400767788609,-11.802646192303762,"(0.0, 0.0, 0.0, 0.0, 0.0, 0.0)",1.9110325851897776,-0.007344276810443619,0.19580404188257655,"(0.0, 0.0, 0.0, 0.0, 0.0, 0.0)",0.13797790093405082,False,,,,,False,,,,
13,Open,,,,,,"[-0.026750000193715096, 0.05299999937415123, 0.03999999910593033]","[0.0, -0.0, 1.1273943743462997]","[-0.0917874127626419, 0.08388907462358475, 0.03999999910593033]","[0.0, -0.0, 1.1346596248576977]","[0.026750000193715096, 0.05299999937415123, 0.03999999910593033]","[0.0, 0.0, -1.127400718904607]","[0.09178761392831802, 0.08388865739107132, 0.03999999910593033]","[0.0, 0.0, -1.134745111288055]",1.1716549786262926,10.622533903298867,"(0.0, 0.0, 0.0, 0.0, 0.0, 0.0)",-1.7207759982695574,0.00653881121780902,-0.17432920004938585,"(0.0, 0.0, 0.0, 0.0, 0.0, 0.0)",-0.12447725819906867,-1.1716606910097482,-10.622381573073383,"(0.0, 0.0, 0.0, 0.0, 0.0, 0.0)",1.7207292273800263,-0.006609995722787257,0.17622746103752684,"(0.0, 0.0, 0.0, 0.0, 0.0, 0.0)",0.12445331071934837,False,,,,,False,,,,
14,Open,,,,,,"[-0.026750000193715096, 0.05299999937415123, 0.03999999910593033]","[0.0, -0.0, 1.17165497759142]","[-0.09309044480323792, 0.08098116517066956, 0.03999999910593033]","[0.0, -0.0, 1.1781937273122836]","[0.026750000193715096, 0.05299999937415123, 0.03999999910593033]","[0.0, 0.0, -1.1716605985979762]","[0.09309060126543045, 0.08098078519105911, 0.03999999910593033]","[0.0, 0.0, -1.178270796658152]",1.2114894807636634,9.56028051296898,"(0.0, 0.0, 0.0, 0.0, 0.0, 0.0)",-1.549346412635057,0.005885062316220725,-0.15689973638119079,"(0.0, 0.0, 0.0, 0.0, 0.0, 0.0)",-0.11225090666269867,-1.2114946219087734,-9.560143415766044,"(0.0, 0.0, 0.0, 0.0, 0.0, 0.0)",1.5493042197033076,-0.00594912834521185,0.1586081706180975,"(0.0, 0.0, 0.0, 0.0, 0.0, 0.0)",0.11222926703597672,False,,,,,False,,,,
15,Open,,,,,,"[-0.026750000193715096, 0.05299999937415123, 0.03999999910593033]","[0.0, -0.0, 1.2114893406881728]","[-0.09415213763713837, 0.07831703126430511, 0.03999999910593033]","[0.0, -0.0, 1.2173745989650702]","[0.026750000193715096, 0.05299999937415123, 0.03999999910593033]","[0.0, 0.0, -1.2114945655338818]","[0.09415226429700851, 0.07831668108701706, 0.03999999910593033]","[0.0, 0.0, -1.2174436451143456]",1.247340532687297,8.604252461672083,"(0.0, 0.0, 0.0, 0.0, 0.0, 0.0)",-1.3949366588174594,0.00529667529397997,-0.14121288533778104,"(0.0, 0.0, 0.0, 0.0, 0.0, 0.0)",-0.1012051251161189,-1.2473451597178962,-8.604129074189437,"(0.0, 0.0, 0.0, 0.0, 0.0, 0.0)",1.394898604883462,-0.005354334697048719,0.1427504755591516,"(0.0, 0.0, 0.0, 0.0, 0.0, 0.0)",0.1011855790679586,False,,,,,False,,,,
16,Open,,,,,,"[-0.026750000193715096, 0.05299999937415123, 0.03999999910593033]","[0.0, -0.0, 1.2473405247091465]","[-0.09501627087593079, 0.07588484138250351, 0.03999999910593033]","[0.0, -0.0, 1.2526371614229614]","[0.026750000193715096, 0.05299999937415123, 0.03999999910593033]","[0.0, 0.0, -1.2473450561350814]","[0.09501637518405914, 0.07588452845811844, 0.03999999910593033]","[0.0, 0.0, -1.252699591080442]",1.2796064794185673,7.743827215504874,"(0.0, 0.0, 0.0, 0.0, 0.0, 0.0)",-1.2558681481324276,0.004767115224099335,-0.12709441677135241,"(0.0, 0.0, 0.0, 0.0, 0.0, 0.0)",-0.09122984935698081,-1.2796106437461066,-7.743716166770495,"(0.0, 0.0, 0.0, 0.0, 0.0, 0.0)",1.2558338345532607,-0.004819008666073119,0.128478247434144,"(0.0, 0.0, 0.0, 0.0, 0.0, 0.0)",0.09121220090323832,False,,,,,False,,,,
17,Open,,,,,,"[-0.026750000193715096, 0.05299999937415123, 0.03999999910593033]","[0.0, -0.0, 1.279606409124563]","[-0.09571900963783264, 0.0736706405878067, 0.03999999910593033]","[0.0, -0.0, 1.2843736758198352]","[0.026750000193715096, 0.05299999937415123, 0.03999999910593033]","[0.0, 0.0, -1.2796106525936015]","[0.0957190990447998, 0.07367035001516342, 0.03999999910593033]","[0.0, 0.0, -1.2844295613342638]",1.3086458314767107,6.969444493954387,"(0.0, 0.0, 0.0, 0.0, 0.0, 0.0)",-1.1305941221975622,0.00429170208951155,-0.1140991523010686,"(0.0, 0.0, 0.0, 0.0, 0.0, 0.0)",-0.082192919359827,-1.3086495793714958,-6.969344550093446,"(0.0, 0.0, 0.0, 0.0, 0.0, 0.0)",1.1305631934145834,-0.004338405935744441,0.11534465527888274,"(0.0, 0.0, 0.0, 0.0, 0.0, 0.0)",0.08217699569254354,False,,,,,False,,,,
18,Open,,,,,,"[-0.026750000193715096, 0.05299999937415123, 0.03999999910593033]","[0.0, -0.0, 1.308645825919811]","[-0.09629011154174805, 0.0716593861579895, 0.03999999910593033]","[0.0, -0.0, 1.3129373548657892]","[0.026750000193715096, 0.05299999937415123, 0.03999999910593033]","[0.0, 0.0, -1.308649569130343]","[0.09629017859697342, 0.07165912538766861, 0.03999999910593033]","[0.0, 0.0, -1.3129881167123505]",1.3347812483290395,6.272500044558946,"(0.0, 0.0, 0.0, 0.0, 0.0, 0.0)",-1.0178482622338179,0.003863702481573626,-0.10271990590510163,"(0.0, 0.0, 0.0, 0.0, 0.0, 0.0)",-0.07410352518858664,-1.3347846214343462,-6.272410095084102,"(0.0, 0.0, 0.0, 0.0, 0.0, 0.0)",1.0178203769740246,-0.0039057357160976183,0.10384085271523745,"(0.0, 0.0, 0.0, 0.0, 0.0, 0.0)",0.0740891498002037,False,,,,,False,,,,
19,Open,,,,,,"[-0.026750000193715096, 0.05299999937415123, 0.03999999910593033]","[0.0, -0.0, 1.3347813147466918]","[-0.09675397723913193, 0.06983575969934464, 0.03999999910593033]","[0.0, -0.0, 1.3386449621367835]","[0.026750000193715096, 0.05299999937415123, 0.03999999910593033]","[0.0, 0.0, -1.3347844615433213]","[0.0967540368437767, 0.06983552873134613, 0.03999999910593033]","[0.0, 0.0, -1.3386905382854437]",1.3583031234961356,5.645250040103052,"(0.0, 0.0, 0.0, 0.0, 0.0, 0.0)",-0.9162890978823036,0.0034783869891320215,-0.09247571818598516,"(0.0, 0.0, 0.0, 0.0, 0.0, 0.0)",-0.06677007440367574,-1.3583061592909116,-5.645169085575695,"(0.0, 0.0, 0.0, 0.0, 0.0, 0.0)",0.9162639666346021,-0.003516216695348753,0.09348456497972772,"(0.0, 0.0, 0.0, 0.0, 0.0, 0.0)",0.06675710630673855,False,,,,,False,,,,
20,Open,,,,,,"[-0.026750000193715096, 0.05299999937415123, 0.03999999910593033]","[0.0, -0.0, 1.3583030429358363]","[-0.09713058918714523, 0.06818463653326035, 0.03999999910593033]","[0.0, -0.0, 1.3617816714487538]","[0.026750000193715096, 0.05299999937415123, 0.03999999910593033]","[0.0, 0.0, -1.358306171033049]","[0.09713063389062881, 0.06818442046642303, 0.03999999910593033]","[0.0, 0.0, -1.361822351334537]",1.379472811146522,5.0807250360927485,"(0.0, 0.0, 0.0, 0.0, 0.0, 0.0)",-0.8248429295126702,0.003131498553648039,-0.08325322451615583,"(0.0, 0.0, 0.0, 0.0, 0.0, 0.0)",-0.06015531267018523,-1.3794755433618204,-5.080652177018124,"(0.0, 0.0, 0.0, 0.0, 0.0, 0.0)",0.8248202834423316,-0.003165545104486833,0.08416118180686077,"(0.0, 0.0, 0.0, 0.0, 0.0, 0.0)",0.06014361689139186,False,,,,,False,,,,
21,Open,,,,,,"[-0.026750000193715096, 0.05299999937415123, 0.03999999910593033]","[0.0, -0.0, 1.3794728975130914]","[-0.09743624925613403, 0.06669140607118607, 0.03999999910593033]","[0.0, -0.0, 1.382604304378769]","[0.026750000193715096, 0.05299999937415123, 0.03999999910593033]","[0.0, 0.0, -1.379475506721758]","[0.09743628650903702, 0.06669121235609055, 0.03999999910593033]","[0.0, 0.0, -1.3826409668082853]",1.3985255300318697,4.572652532483473,"(0.0, 0.0, 0.0, 0.0, 0.0, 0.0)",-0.7425066286387145,0.0028192047313806493,-0.07495051734417352,"(0.0, 0.0, 0.0, 0.0, 0.0, 0.0)",-0.054190171953983096,-1.3985279890256384,-4.57258695931631,"(0.0, 0.0, 0.0, 0.0, 0.0, 0.0)",0.7424862245436853,-0.0028498464605416357,0.07576767454684734,"(0.0, 0.0, 0.0, 0.0, 0.0, 0.0)",0.0541796259205944,False,,,,,False,,,,
22,Open,,,,,,"[-0.026750000193715096, 0.05299999937415123, 0.03999999910593033]","[0.0, -0.0, 1.398525454133583]","[-0.09768425673246384, 0.0653422400355339, 0.03999999910593033]","[0.0, -0.0, 1.4013447262228373]","[0.026750000193715096, 0.05299999937415123, 0.03999999910593033]","[0.0, 0.0, -1.3985280648022782]","[0.09768428653478622, 0.06534206122159958, 0.03999999910593033]","[0.0, 0.0, -1.4013779844801912]",1.4156729770286829,4.1153872792351285,"(0.0, 0.0, 0.0, 0.0, 0.0, 0.0)",-0.6683758137814145,0.002538055332395241,-0.06747585575649792,"(0.0, 0.0, 0.0, 0.0, 0.0, 0.0)",-0.04881194552870251,-1.4156751901230746,-4.115328263384682,"(0.0, 0.0, 0.0, 0.0, 0.0, 0.0)",0.6683574317692884,-0.002565632738451909,0.06821129330153437,"(0.0, 0.0, 0.0, 0.0, 0.0, 0.0)",0.0488024380394442,False,,,,,False,,,,
23,Open,,,,,,"[-0.026750000193715096, 0.05299999937415123, 0.03999999910593033]","[0.0, -0.0, 1.4156730334745993]","[-0.09788545966148376, 0.06412414461374283, 0.03999999910593033]","[0.0, -0.0, 1.418211036917125]","[0.026750000193715096, 0.05299999937415123, 0.03999999910593033]","[0.0, 0.0, -1.4156752315845986]","[0.09788548201322556, 0.0641239807009697, 0.03999999910593033]","[0.0, 0.0, -1.418240879504808]",1.4311056793258146,3.703848551311612,"(0.0, 0.0, 0.0, 0.0, 0.0, 0.0)",-0.6016352863054336,0.002284944287465684,-0.060746650783093666,"(0.0, 0.0, 0.0, 0.0, 0.0, 0.0)",-0.04396376851645251,-1.431107671110767,-3.7037954370462103,"(0.0, 0.0, 0.0, 0.0, 0.0, 0.0)",0.6016187276545472,-0.0023097638175418747,0.061408541018408244,"(0.0, 0.0, 0.0, 0.0, 0.0, 0.0)",0.043955198772734246,False,,,,,False,,,,
24,Open,,,,,,"[-0.026750000193715096, 0.05299999937415123, 0.03999999910593033]","[0.0, -0.0, 1.4311058207082674]","[-0.09804865717887878, 0.06302504986524582, 0.03999999910593033]","[0.0, -0.0, 1.433390691262394]","[0.026750000193715096, 0.05299999937415123, 0.03999999910593033]","[0.0, 0.0, -1.4311075924426346]","[0.09804867953062057, 0.06302490830421448, 0.03999999910593033]","[0.0, 0.0, -1.433417470845748]",1.4449951113932331,3.333463696180452,"(0.0, 0.0, 0.0, 0.0, 0.0, 0.0)",-0.5415503506795546,0.0020570753203455715,-0.05468855210882702,"(0.0, 0.0, 0.0, 0.0, 0.0, 0.0)",-0.039594115216637325,-1.4449969039996904,-3.3334158933415914,"(0.0, 0.0, 0.0, 0.0, 0.0, 0.0)",0.541535435877482,-0.002079412775410495,0.055284250111531166,"(0.0, 0.0, 0.0, 0.0, 0.0, 0.0)",0.03958639191865308,False,,,,,False,,,,
25,Open,,,,,,"[-0.026750000193715096, 0.05299999937415123, 0.03999999910593033]","[0.0, -0.0, 1.444995076522675]","[-0.09818101674318314, 0.062033817172050476, 0.03999999910593033]","[0.0, -0.0, 1.4470522962768402]","[0.026750000193715096, 0.05299999937415123, 0.03999999910593033]","[0.0, 0.0, -1.4449971061677662]","[0.09818103164434433, 0.06203368678689003, 0.03999999910593033]","[0.0, 0.0, -1.4470761943538692]",1.45749560025391,3.0001173265624064,"(0.0, 0.0, 0.0, 0.0, 0.0, 0.0)",-0.4874589573784058,0.001851931045420989,-0.04923462598189979,"(0.0, 0.0, 0.0, 0.0, 0.0, 0.0)",-0.03565633120497695,-1.4574972135997213,-3.000074304007432,"(0.0, 0.0, 0.0, 0.0, 0.0, 0.0)",0.4874455243270462,-0.0018720346450414762,0.04977075128856451,"(0.0, 0.0, 0.0, 0.0, 0.0, 0.0)",0.03564937171228022,False,,,,,False,,,,
26,Open,,,,,,"[-0.026750000193715096, 0.05299999937415123, 0.03999999910593033]","[0.0, -0.0, 1.4574954921785264]","[-0.09828835725784302, 0.061140209436416626, 0.03999999910593033]","[0.0, -0.0, 1.4593474823067423]","[0.026750000193715096, 0.05299999937415123, 0.03999999910593033]","[0.0, 0.0, -1.4574971848934346]","[0.09828837215900421, 0.061140093952417374, 0.03999999910593033]","[0.0, 0.0, -1.4593694397653831]",1.4687460402285188,2.700105593906164,"(0.0, 0.0, 0.0, 0.0, 0.0, 0.0)",-0.4387645947805427,0.0016672451487475934,-0.044324615201614966,"(0.0, 0.0, 0.0, 0.0, 0.0, 0.0)",-0.032108199676446195,-1.4687474922397492,-2.70006687360669,"(0.0, 0.0, 0.0, 0.0, 0.0, 0.0)",0.4387524971567325,-0.0016853382893528596,0.04480712536526797,"(0.0, 0.0, 0.0, 0.0, 0.0, 0.0)",0.03210192923147444,False,,,,,False,,,,
27,Open,,,,,,"[-0.026750000193715096, 0.05299999937415123, 0.03999999910593033]","[0.0, -0.0, 1.4687462228928074]","[-0.09837540984153748, 0.06033487245440483, 0.03999999910593033]","[0.0, -0.0, 1.4704133245237396]","[0.026750000193715096, 0.05299999937415123, 0.03999999910593033]","[0.0, 0.0, -1.4687474899518769]","[0.09837542474269867, 0.060334768146276474, 0.03999999910593033]","[0.0, 0.0, -1.4704329951986796]",1.478871436205667,2.430095034515549,"(0.0, 0.0, 0.0, 0.0, 0.0, 0.0)",-0.394929862139441,0.0015009773446580906,-0.03990427298148066,"(0.0, 0.0, 0.0, 0.0, 0.0, 0.0)",-0.028911540991871522,-1.4788727430157742,-2.430060186246021,"(0.0, 0.0, 0.0, 0.0, 0.0, 0.0)",0.39491896790015035,-0.001517261081966714,0.04033852977267494,"(0.0, 0.0, 0.0, 0.0, 0.0, 0.0)",0.02890589200411927,False,,,,,False,,,,
28,Open,,,,,,"[-0.026750000193715096, 0.05299999937415123, 0.03999999910593033]","[0.0, -0.0, 1.4788714352834713]","[-0.09844600409269333, 0.05960927531123161, 0.03999999910593033]","[0.0, -0.0, 1.480372508787761]","[0.026750000193715096, 0.05299999937415123, 0.03999999910593033]","[0.0, 0.0, -1.4788727099725336]","[0.09844601899385452, 0.05960918217897415, 0.03999999910593033]","[0.0, 0.0, -1.4803900544382056]",1.4879842925851003,2.1870855310639947,"(0.0, 0.0, 0.0, 0.0, 0.0, 0.0)",-0.3554706611703565,0.001351290830885638,-0.035924763305388616,"(0.0, 0.0, 0.0, 0.0, 0.0, 0.0)",-0.026031844038894282,-1.487985468714197,-2.1870541676214206,"(0.0, 0.0, 0.0, 0.0, 0.0, 0.0)",0.3554608511915877,-0.001365946114079445,0.03631559229294455,"(0.0, 0.0, 0.0, 0.0, 0.0, 0.0)",0.026026755426892093,False,,,,,False,,,,
29,Close,,,"(3.819349109750643e-09, 0.16999994350316286, 7.914305593764796e-05)","(1.5700606283751846, 1.2357610516186277e-06, -4.058049624060407e-09)",,"[-0.026750000193715096, 0.05299999937415123, 0.03999999910593033]","[0.0, -0.0, 1.4879842849605203]","[-0.09850326180458069, 0.05895565450191498, 0.03999999910593033]","[0.0, -0.0, 1.4893357278409396]","[0.026750000193715096, 0.05299999937415123, 0.03999999910593033]","[0.0, 0.0, -1.4879853833286059]","[0.09850326925516129, 0.05895556882023811, 0.03999999910593033]","[0.0, 0.0, -1.4893513332680077]",1.4961858633265903,1.9683769779575933,"(0.0, 0.0, 0.0, 0.0, 0.0, 0.0)",-0.31995094896823073,0.0012165319928285922,-0.03234212113369103,"(0.0, 0.0, 0.0, 0.0, 0.0, 0.0)",-0.02343792779000599,-1.4961869218427772,-1.9683487508592754,"(0.0, 0.0, 0.0, 0.0, 0.0, 0.0)",0.31994211580738524,-0.0012297216752996233,0.03269386530715718,"(0.0, 0.0, 0.0, 0.0, 0.0, 0.0)",0.02343334437795369,False,,,,,False,,,,
30,Close,,,"(1.09441459674075e-09, 0.16999988769159868, 0.0001519632082907279)","(1.5701173533571526, -2.5467641220651055e-06, -4.573996600559749e-08)",,"[-0.026750000193715096, 0.05299999937415123, 0.03999999910593033]","[0.0, -0.0, 1.4961860174198076]","[-0.09854969382286072, 0.05836696922779083, 0.03999999910593033]","[0.0, -0.0, 1.4974025341106605]","[0.026750000193715096, 0.05299999937415123, 0.03999999910593033]","[0.0, 0.0, -1.4961870219527165]","[0.09854969382286072, 0.05836689472198486, 0.03999999910593033]","[0.0, 0.0, -1.4974167044724178]",1.4065672769939312,-21.50846071983817,"(0.0, 0.0, 0.0, 0.0, 0.0, 0.0)",-36.83524610171859,-0.08890468746940376,-21.629092670935766,"(0.0, 0.0, 0.0, 0.0, 0.0, 0.0)",-4.936581214831643,-1.4065682296584996,21.508486124226657,"(0.0, 0.0, 0.0, 0.0, 0.0, 0.0)",36.83523814678565,0.0888928167555427,21.629409223402156,"(0.0, 0.0, 0.0, 0.0, 0.0, 0.0)",4.936577085092772,False,,,,,False,,,,
31,Close,,,"(3.541182821644653e-08, 0.1699998011443987, 0.00021906657187154062)","(1.570205104748116, 3.3042409171564205e-05, -8.114212850492596e-08)",,"[-0.026750000193715096, 0.05299999937415123, 0.03999999910593033]","[0.0, -0.0, 1.4065674382065954]","[-0.0977812185883522, 0.06477140635251999, 0.03999999910593033]","[0.0, -0.0, 1.3176625934179576]","[0.026750000193715096, 0.05299999937415123, 0.03999999910593033]","[0.0, 0.0, -1.4065680331882469]","[0.0977812260389328, 0.06477133929729462, 0.03999999910593033]","[0.0, 0.0, -1.3176753491400532]",1.3259105492945382,-19.357614647854348,"(0.0, 0.0, 0.0, 0.0, 0.0, 0.0)",3.3395407019063446,-0.17001473426920377,-19.466411231952,"(0.0, 0.0, 0.0, 0.0, 0.0, 0.0)",0.4376834422569755,-1.3259114066926496,19.35763751180399,"(0.0, 0.0, 0.0, 0.0, 0.0, 0.0)",-3.3395473112045253,0.1700040506304986,19.466696129989415,"(0.0, 0.0, 0.0, 0.0, 0.0, 0.0)",-0.43768664266468643,False,,,,,False,,,,
32,Close,,,"(3.361538948490201e-08, 0.16999974452330968, 0.00028077538773600935)","(1.5702911774727688, 7.027968338074274e-05, -7.017997684986258e-06)",,"[-0.026750000193715096, 0.05299999937415123, 0.03999999910593033]","[0.0, -0.0, 1.325910602539969]","[-0.09660188108682632, 0.07045608013868332, 0.03999999910593033]","[0.0, -0.0, 1.1558959321658662]","[0.026750000193715096, 0.05299999937415123, 0.03999999910593033]","[0.0, 0.0, -1.3259115331240872]","[0.09660189598798752, 0.07045602053403854, 0.03999999910593033]","[0.0, 0.0, -1.1559073716167563]",1.2533194943650845,-17.42185318306892,"(0.0, 0.0, 0.0, 0.0, 0.0, 0.0)",3.0100864599566086,-0.2430137284658432,-17.519758607193467,"(0.0, 0.0, 0.0, 0.0, 0.0, 0.0)",0.39699812510351973,-1.2533202660233846,17.42187376062359,"(0.0, 0.0, 0.0, 0.0, 0.0, 0.0)",-3.0100924602349655,0.24300411319445853,17.52001501535039,"(0.0, 0.0, 0.0, 0.0, 0.0, 0.0)",-0.39700105403357716,False,,,,,False,,,,
33,Close,,,"(1.2478111664315067e-07, 0.16999960627903704, 0.000337513976604643)","(1.5703757790333803, 0.0001088681261817636, -5.122611399447184e-06)",,"[-0.026750000193715096, 0.05299999937415123, 0.03999999910593033]","[0.0, -0.0, 1.2533194489161892]","[-0.0951518788933754, 0.07547627389431, 0.03999999910593033]","[0.0, -0.0, 1.0103057011386807]","[0.026750000193715096, 0.05299999937415123, 0.03999999910593033]","[0.0, 0.0, -1.2533201846969224]","[0.09515189379453659, 0.07547622174024582, 0.03999999910593033]","[0.0, 0.0, -1.010316110149499]",1.1879875449285762,-15.679667864762028,"(0.0, 0.0, 0.0, 0.0, 0.0, 0.0)",2.712712783767229,-0.30871235561933186,-15.767670516837281,"(0.0, 0.0, 0.0, 0.0, 0.0, 0.0)",0.3597856734528228,-1.1879882394210461,15.679686384561233,"(0.0, 0.0, 0.0, 0.0, 0.0, 0.0)",-2.712718226071338,0.30870370187508567,15.767901283350515,"(0.0, 0.0, 0.0, 0.0, 0.0, 0.0)",-0.35978834883250516,False,,,,,False,,,,
34,Close,,,"(1.2869376016944667e-07, 0.16999954011037416, 0.00038973303114976833)","(1.5704582297133343, 0.0001496263682483943, -9.931543136061158e-06)",,"[-0.026750000193715096, 0.05299999937415123, 0.03999999910593033]","[0.0, -0.0, 1.1879876003522736]","[-0.09353857487440109, 0.07989397644996643, 0.03999999910593033]","[0.0, -0.0, 0.8792752425767008]","[0.026750000193715096, 0.05299999937415123, 0.03999999910593033]","[0.0, 0.0, -1.1879882623869136]","[0.09353859722614288, 0.07989392429590225, 0.03999999910593033]","[0.0, 0.0, -0.8792844680170303]",1.1291887904356523,-14.1117010783017,"(0.0, 0.0, 0.0, 0.0, 0.0, 0.0)",2.44436472036771,-0.36784112005739866,-14.190903465136039,"(0.0, 0.0, 0.0, 0.0, 0.0, 0.0)",0.3258007578595482,-1.1291894154788755,14.111717746120975,"(0.0, 0.0, 0.0, 0.0, 0.0, 0.0)",-2.444369652349295,0.3678333316875771,14.191111154997946,"(0.0, 0.0, 0.0, 0.0, 0.0, 0.0)",-0.32580319741325486,False,,,,,False,,,,
35,Close,,,"(2.2147778895778094e-07, 0.169999403724105, 0.00043775502472391954)","(1.5705392813318275, 0.0001916771605813282, -8.19762937926826e-06)",,"[-0.026750000193715096, 0.05299999937415123, 0.03999999910593033]","[0.0, -0.0, 1.1291888000608494]","[-0.09184273332357407, 0.08377231657505035, 0.03999999910593033]","[0.0, -0.0, 0.7613476921786614]","[0.026750000193715096, 0.05299999937415123, 0.03999999910593033]","[0.0, 0.0, -1.1291894580384154]","[0.09184275567531586, 0.08377227932214737, 0.03999999910593033]","[0.0, 0.0, -0.7613561373098183]",1.0762699113920273,-12.700530970470014,"(0.0, 0.0, 0.0, 0.0, 0.0, 0.0)",2.202305891359772,-0.4210570080516588,-12.77181311862243,"(0.0, 0.0, 0.0, 0.0, 0.0, 0.0)",0.2948453788489373,-1.0762704739309281,12.700545971507374,"(0.0, 0.0, 0.0, 0.0, 0.0, 0.0)",-2.2023103576802145,0.4210499985188194,12.77200003949815,"(0.0, 0.0, 0.0, 0.0, 0.0, 0.0)",-0.2948476002056522,False,,,,,False,,,,
36,Close,,,"(2.1912693722736075e-07, 0.16999934361709654, 0.000481956449276018)","(1.5706184388641253, 0.00023565575873296478, -1.2845786801691941e-05)",,"[-0.026750000193715096, 0.05299999937415123, 0.03999999910593033]","[0.0, -0.0, 1.0762698553554748]","[-0.09012393653392792, 0.08717226982116699, 0.03999999910593033]","[0.0, -0.0, 0.6552128934948661]","[0.026750000193715096, 0.05299999937415123, 0.03999999910593033]","[0.0, 0.0, -1.0762704893583]","[0.09012395888566971, 0.08717223256826401, 0.03999999910593033]","[0.0, 0.0, -0.6552204147476549]",1.0286429202528247,-11.430477873408655,"(0.0, 0.0, 0.0, 0.0, 0.0, 0.0)",1.9840011930578276,-0.46895130724721834,-11.494631806934295,"(0.0, 0.0, 0.0, 0.0, 0.0, 0.0)",0.26667684533441977,-1.0286434265378352,11.430491374342276,"(0.0, 0.0, 0.0, 0.0, 0.0, 0.0)",-1.984005235051249,0.4689449986676629,11.494800035722442,"(0.0, 0.0, 0.0, 0.0, 0.0, 0.0)",-0.26667886541975433,False,,,,,False,,,,
37,Close,,,"(3.1131510586280866e-07, 0.1699992121070205, 0.0005226007520893923)","(1.5706964879884222, 0.0002806415891397876, -1.1307759452448239e-05)",,"[-0.026750000193715096, 0.05299999937415123, 0.03999999910593033]","[0.0, -0.0, 1.0286429345076582]","[-0.0884251669049263, 0.09015069156885147, 0.03999999910593033]","[0.0, -0.0, 0.5596916647508587]","[0.026750000193715096, 0.05299999937415123, 0.03999999910593033]","[0.0, 0.0, -1.0286435120859125]","[0.08842518925666809, 0.09015065431594849, 0.03999999910593033]","[0.0, 0.0, -0.5596984028120249]",0.9857786282275423,-10.287430086067793,"(0.0, 0.0, 0.0, 0.0, 0.0, 0.0)",1.787161045327472,-0.5120561765231523,-10.345168626224153,"(0.0, 0.0, 0.0, 0.0, 0.0, 0.0)",0.24107512437447856,-0.9857790838840517,10.28744223690805,"(0.0, 0.0, 0.0, 0.0, 0.0, 0.0)",-1.787164701188607,0.5120504988015524,10.345320032133483,"(0.0, 0.0, 0.0, 0.0, 0.0, 0.0)",-0.24107695935135354,False,,,,,False,,,,
38,Close,,,"(3.0991842655903425e-07, 0.169999153087261, 0.0005600347082356065)","(1.570772558536085, 0.00032764712563817383, -1.5390013302753274e-05)",,"[-0.026750000193715096, 0.05299999937415123, 0.03999999910593033]","[0.0, -0.0, 0.9857786218799983]","[-0.08677656948566437, 0.09275941550731659, 0.03999999910593033]","[0.0, -0.0, 0.4737224893055005]","[0.026750000193715096, 0.05299999937415123, 0.03999999910593033]","[0.0, 0.0, -0.9857791586690391]","[0.08677658438682556, 0.0927593931555748, 0.03999999910593033]","[0.0, 0.0, -0.47372859204714834]",0.9472007654041954,-9.258687077603232,"(0.0, 0.0, 0.0, 0.0, 0.0, 0.0)",1.6097085175776904,-0.550850558870837,-9.310651763444346,"(0.0, 0.0, 0.0, 0.0, 0.0, 0.0)",0.21783104241587867,-0.9472011754950539,9.258698013359455,"(0.0, 0.0, 0.0, 0.0, 0.0, 0.0)",-1.609711822487034,0.5508454489213972,9.310788028762744,"(0.0, 0.0, 0.0, 0.0, 0.0, 0.0)",-0.21783270758412676,False,,,,,False,,,,
39,Close,,,"(4.0106165104263135e-07, 0.169999026405202, 0.0005944331352702725)","(1.570848092729261, 0.0003750986118602944, -1.4060502423520339e-05)",,"[-0.026750000193715096, 0.05299999937415123, 0.03999999910593033]","[0.0, -0.0, 0.9472008140782049]","[-0.08519845455884933, 0.09504495561122894, 0.03999999910593033]","[0.0, -0.0, 0.39635019782230363]","[0.026750000193715096, 0.05299999937415123, 0.03999999910593033]","[0.0, 0.0, -0.9472011867132297]","[0.08519846946001053, 0.09504493325948715, 0.03999999910593033]","[0.0, 0.0, -0.3963557154153113]",0.9124806888632406,-8.332818369829143,"(0.0, 0.0, 0.0, 0.0, 0.0, 0.0)",1.4497611633824499,-0.5857655029837533,-8.379586587099913,"(0.0, 0.0, 0.0, 0.0, 0.0, 0.0)",0.19674731686213875,-0.9124810579450133,8.332828212009746,"(0.0, 0.0, 0.0, 0.0, 0.0, 0.0)",-1.4497641496546352,0.5857609040292575,8.379709225886469,"(0.0, 0.0, 0.0, 0.0, 0.0, 0.0)",-0.1967488266016999,False,,,,,False,,,,
40,Close,,,"(3.70657372146465e-07, 0.16999903038777142, 0.0006260749884053443)","(1.5708440552876382, 0.00034508120830118214, -1.4055585689260766e-05)",,"[-0.026750000193715096, 0.05299999937415123, 0.03999999910593033]","[0.0, -0.0, 0.9124807402838544]","[-0.08370371162891388, 0.09704854339361191, 0.03999999910593033]","[0.0, -0.0, 0.32671521193417863]","[0.026750000193715096, 0.05299999937415123, 0.03999999910593033]","[0.0, 0.0, -0.9124811663733811]","[0.08370373398065567, 0.09704852104187012, 0.03999999910593033]","[0.0, 0.0, -0.32672018954414506]",0.8812326199769166,-7.499536532717775,"(0.0, 0.0, 0.0, 0.0, 0.0, 0.0)",1.3056085801322186,-0.6171891619197363,-7.541678144635914,"(0.0, 0.0, 0.0, 0.0, 0.0, 0.0)",0.17763358199117588,-0.881232952150512,7.499545390680321,"(0.0, 0.0, 0.0, 0.0, 0.0, 0.0)",-1.305611277336412,0.617185022862301,7.541788519930457,"(0.0, 0.0, 0.0, 0.0, 0.0, 0.0)",-0.17763494969582577,False,,,,,False,,,,
41,Close,,,"(3.427044292909036e-07, 0.1699990340506735, 0.0006551854712062516)","(1.5708403346470328, 0.0003174583455114455, -1.4051356821419932e-05)",,"[-0.026750000193715096, 0.05299999937415123, 0.03999999910593033]","[0.0, -0.0, 0.8812326035131218]","[-0.08229970186948776, 0.09880644828081131, 0.03999999910593033]","[0.0, -0.0, 0.26404346611112495]","[0.026750000193715096, 0.05299999937415123, 0.03999999910593033]","[0.0, 0.0, -0.8812328730718287]","[0.08229971677064896, 0.09880642592906952, 0.03999999910593033]","[0.0, 0.0, -0.2640479150919315]",0.8531093579792249,-6.749582879446001,"(0.0, 0.0, 0.0, 0.0, 0.0, 0.0)",1.1757252455852583,-0.6454704345862542,-6.78750543996429,"(0.0, 0.0, 0.0, 0.0, 0.0, 0.0)",0.16033509317806058,-0.8531096569354608,6.7495908516122896,"(0.0, 0.0, 0.0, 0.0, 0.0, 0.0)",-1.1757276808922346,0.645466709436021,6.787604777692787,"(0.0, 0.0, 0.0, 0.0, 0.0, 0.0)",-0.16033633143309114,False,,,,,False,,,,
42,Close,,,"(3.170084497545684e-07, 0.16999903740907119, 0.0006819671107693073)","(1.570836911771951, 0.00029204530032808255, -1.4047683015968837e-05)",,"[-0.026750000193715096, 0.05299999937415123, 0.03999999910593033]","[0.0, -0.0, 0.8531093567174074]","[-0.08098968118429184, 0.10035036504268646, 0.03999999910593033]","[0.0, -0.0, 0.2076389231904772]","[0.026750000193715096, 0.05299999937415123, 0.03999999910593033]","[0.0, 0.0, -0.8531096230941355]","[0.08098969608545303, 0.10035035014152527, 0.03999999910593033]","[0.0, 0.0, -0.2076429742570099]",0.8277984221813024,-6.0746245915014,"(0.0, 0.0, 0.0, 0.0, 0.0, 0.0)",1.0586966037970245,-0.6709235615380169,-6.1087504684230565,"(0.0, 0.0, 0.0, 0.0, 0.0, 0.0)",0.14467321668423558,-0.8277986912419147,6.074631766451059,"(0.0, 0.0, 0.0, 0.0, 0.0, 0.0)",-1.0586988018726124,0.6709202089041267,6.108839872345364,"(0.0, 0.0, 0.0, 0.0, 0.0, 0.0)",-0.14467433700617466,False,,,,,False,,,,
43,Close,,,"(2.93385406087929e-07, 0.16999904048782613, 0.0007066062149797113)","(1.5708337628331848, 0.0002686652895538331, -1.4044478861914954e-05)",,"[-0.026750000193715096, 0.05299999937415123, 0.03999999910593033]","[0.0, -0.0, 0.8277984323872327]","[-0.07977395504713058, 0.10170790553092957, 0.03999999910593033]","[0.0, -0.0, 0.15687485461046338]","[0.026750000193715096, 0.05299999937415123, 0.03999999910593033]","[0.0, 0.0, -0.8277987052452376]","[0.07977396249771118, 0.10170789808034897, 0.03999999910593033]","[0.0, 0.0, -0.15687847762667875]",0.8050185799631722,-5.467162132351259,"(0.0, 0.0, 0.0, 0.0, 0.0, 0.0)",0.9532674830029981,-0.6938313591081322,-5.497871416827678,"(0.0, 0.0, 0.0, 0.0, 0.0, 0.0)",0.1305069121449798,-0.8050188221177232,5.467168589805953,"(0.0, 0.0, 0.0, 0.0, 0.0, 0.0)",-0.9532694663734236,0.6938283417388244,5.49795188032743,"(0.0, 0.0, 0.0, 0.0, 0.0, 0.0)",-0.13050792520753388,False,,,,,False,,,,
44,Close,,,"(2.716665250887489e-07, 0.16999904330973556, 0.0007292741870466809)","(1.5708308659078907, 0.0002471556717650467, -1.4041672069322908e-05)",,"[-0.026750000193715096, 0.05299999937415123, 0.03999999910593033]","[0.0, -0.0, 0.8050185839979388]","[-0.07865073531866074, 0.10290304571390152, 0.03999999910593033]","[0.0, -0.0, 0.11118723016400785]","[0.026750000193715096, 0.05299999937415123, 0.03999999910593033]","[0.0, 0.0, -0.8050187952188965]","[0.07865074276924133, 0.10290303081274033, 0.03999999910593033]","[0.0, 0.0, -0.11119048022217565]",0.784516721966855,-4.920445919116134,"(0.0, 0.0, 0.0, 0.0, 0.0, 0.0)",0.8582975670224743,-0.7144483618360385,-4.948080654697517,"(0.0, 0.0, 0.0, 0.0, 0.0, 0.0)",0.11770004006048959,-0.784516939905951,4.92045173082536,"(0.0, 0.0, 0.0, 0.0, 0.0, 0.0)",-0.8582993561887614,0.7144456462047399,4.948153071819748,"(0.0, 0.0, 0.0, 0.0, 0.0, 0.0)",-0.11770095568272418,False,,,,,False,,,,
45,Close,,,"(2.51696986958339e-07, 0.1699990458957082, 0.0007501287178850499)","(1.5708282008276007, 0.000227366816649173, -1.4039201474218165e-05)",,"[-0.026750000193715096, 0.05299999937415123, 0.03999999910593033]","[0.0, -0.0, 0.7845167193080385]","[-0.07761679589748383, 0.10395654290914536, 0.03999999910593033]","[0.0, -0.0, 0.07006835685702544]","[0.026750000193715096, 0.05299999937415123, 0.03999999910593033]","[0.0, 0.0, -0.7845169946958266]","[0.07761680334806442, 0.10395653545856476, 0.03999999910593033]","[0.0, 0.0, -0.0700712989357174]",0.7660650497701694,-4.42840132720452,"(0.0, 0.0, 0.0, 0.0, 0.0, 0.0)",0.7727568402429666,-0.7330036506599046,-4.453269317727849,"(0.0, 0.0, 0.0, 0.0, 0.0, 0.0)",0.106127525293464,-0.7660652459153559,4.428406557742824,"(0.0, 0.0, 0.0, 0.0, 0.0, 0.0)",-0.7727584538402424,0.7330012065927102,4.453334493112861,"(0.0, 0.0, 0.0, 0.0, 0.0, 0.0)",-0.10612835248484857,False,,,,,False,,,,
46,Close,,,"(2.3333473952068603e-07, 0.16999904826492518, 0.0007693148831029557)","(1.5708257490378412, 0.00020916106414766092, -1.403701531280991e-05)",,"[-0.026750000193715096, 0.05299999937415123, 0.03999999910593033]","[0.0, -0.0, 0.7660649977175382]","[-0.07666795700788498, 0.10488639771938324, 0.03999999910593033]","[0.0, -0.0, 0.03306140223906952]","[0.026750000193715096, 0.05299999937415123, 0.03999999910593033]","[0.0, 0.0, -0.7660653079646047]","[0.07666796445846558, 0.10488638281822205, 0.03999999910593033]","[0.0, 0.0, -0.033064041138401834]",0.7494585447931524,-3.985561194484066,"(0.0, 0.0, 0.0, 0.0, 0.0, 0.0)",0.6957152666369016,-0.7497033982890566,-4.007939430996486,"(0.0, 0.0, 0.0, 0.0, 0.0, 0.0)",0.09567473522853766,-0.7494587213238203,3.985565901968542,"(0.0, 0.0, 0.0, 0.0, 0.0, 0.0)",-0.6957167215859875,0.7497011986294615,4.007998088820328,"(0.0, 0.0, 0.0, 0.0, 0.0, 0.0)",-0.09567548223716564,False,,,,,False,,,,
47,Close,,,"(2.1644941757498085e-07, 0.1699990504349868, 0.0007869661522299996)","(1.5708234934689855, 0.0001924117668631307, -1.4035069780186692e-05)",,"[-0.026750000193715096, 0.05299999937415123, 0.03999999910593033]","[0.0, -0.0, 0.7494586090384826]","[-0.07579945772886276, 0.10570816695690155, 0.03999999910593033]","[0.0, 0.0, -0.000244853492999894]","[0.026750000193715096, 0.05299999937415123, 0.03999999910593033]","[0.0, 0.0, -0.7494587081400255]","[0.07579946517944336, 0.10570815205574036, 0.03999999910593033]","[0.0, -0.0, 0.00024247731079752444]",0.7345126903138371,-3.587005075035659,"(0.0, 0.0, 0.0, 0.0, 0.0, 0.0)",0.626333365984163,-0.764733160038395,-3.6071428198412123,"(0.0, 0.0, 0.0, 0.0, 0.0, 0.0)",0.08623682787405348,-0.7345128491914382,3.587009311771688,"(0.0, 0.0, 0.0, 0.0, 0.0, 0.0)",-0.6263346776346612,0.7647311803455538,3.607195611862134,"(0.0, 0.0, 0.0, 0.0, 0.0, 0.0)",-0.08623750223625977,False,,,,,False,,,,
48,Close,,,"(1.9902478529523268e-07, 0.16999905216510106, 0.0008031506134026157)","(1.5708213694672628, 0.00017518801369688713, -1.4031269556480368e-05)",,"[-0.026750000193715096, 0.05299999937415123, 0.03999999910593033]","[0.0, -0.0, 0.7345126628086843]","[-0.07500623911619186, 0.10643533617258072, 0.03999999910593033]","[0.0, 0.0, -0.03022046980229406]","[0.026750000193715096, 0.05299999937415123, 0.03999999910593033]","[0.0, 0.0, -0.7345128981556924]","[0.07500624656677246, 0.10643532872200012, 0.03999999910593033]","[0.0, -0.0, 0.03021832986745902]",0.7210614212824534,-3.228304567532092,"(0.0, 0.0, 0.0, 0.0, 0.0, 0.0)",0.5638237707840803,-0.7782610712626786,-3.246698693828069,"(0.0, 0.0, 0.0, 0.0, 0.0, 0.0)",0.07768823801248652,-0.7210615642722944,3.2283083805945183,"(0.0, 0.0, 0.0, 0.0, 0.0, 0.0)",-0.5638249528147553,0.7782592895487316,3.2467462087626835,"(0.0, 0.0, 0.0, 0.0, 0.0, 0.0)",-0.07768884636877696,False,,,,,False,,,,
49,Close,,,"(1.829952775457341e-07, 0.16999905372445717, 0.0008180403399689366)","(1.5708194143492393, 0.00015934185659229473, -1.4027683329641553e-05)",,"[-0.026750000193715096, 0.05299999937415123, 0.03999999910593033]","[0.0, -0.0, 0.7210614193238458]","[-0.07428312301635742, 0.10707958787679672, 0.03999999910593033]","[0.0, 0.0, -0.05719964992344959]","[0.026750000193715096, 0.05299999937415123, 0.03999999910593033]","[0.0, 0.0, -0.7210615729227128]","[0.07428313046693802, 0.10707958042621613, 0.03999999910593033]","[0.0, -0.0, 0.05719773186848648]",0.7089552791542081,-2.905474110778883,"(0.0, 0.0, 0.0, 0.0, 0.0, 0.0)",0.5075985242705942,-0.7904360705014085,-2.921999817295172,"(0.0, 0.0, 0.0, 0.0, 0.0, 0.0)",0.07003713951344083,-0.7089554078450649,2.905477542535066,"(0.0, 0.0, 0.0, 0.0, 0.0, 0.0)",-0.5075995897946305,0.7904344669675306,2.9220425805117625,"(0.0, 0.0, 0.0, 0.0, 0.0, 0.0)",-0.07003768863744474,False,,,,,False,,,,
50,Close,,,"(1.682467379846132e-07, 0.1699990551245469, 0.0008317388481303276)","(1.570817615731277, 0.00014476218910829968, -1.4024269510216624e-05)",,"[-0.026750000193715096, 0.05299999937415123, 0.03999999910593033]","[0.0, -0.0, 0.7089552779168017]","[-0.07362496107816696, 0.10765105485916138, 0.03999999910593033]","[0.0, 0.0, -0.08148078223376223]","[0.026750000193715096, 0.05299999937415123, 0.03999999910593033]","[0.0, 0.0, -0.7089554724698194]","[0.07362496852874756, 0.10765104740858078, 0.03999999910593033]","[0.0, -0.0, 0.0814790502780401]",0.6980597512387873,-2.6149266997009946,"(0.0, 0.0, 0.0, 0.0, 0.0, 0.0)",0.45693917814201784,-0.8013934602632394,-2.6297735428394082,"(0.0, 0.0, 0.0, 0.0, 0.0, 0.0)",0.06310201359777694,-0.6980598670605584,2.614929788281559,"(0.0, 0.0, 0.0, 0.0, 0.0, 0.0)",-0.45694013827892466,0.8013920170905735,2.6298120295302843,"(0.0, 0.0, 0.0, 0.0, 0.0, 0.0)",-0.06310250889925509,False,,,,,False,,,,
51,Close,,,"(1.546756367802499e-07, 0.16999905637827734, 0.0008443414385910609)","(1.5708159610857961, 0.00013134778772512943, -1.402100024143693e-05)",,"[-0.026750000193715096, 0.05299999937415123, 0.03999999910593033]","[0.0, -0.0, 0.6980597686270504]","[-0.07302673906087875, 0.10815852880477905, 0.03999999910593033]","[0.0, 0.0, -0.10333370902653251]","[0.026750000193715096, 0.05299999937415123, 0.03999999910593033]","[0.0, 0.0, -0.6980598246378259]","[0.07302674651145935, 0.10815852135419846, 0.03999999910593033]","[0.0, -0.0, 0.10333215264877679]",0.6882537761149086,-2.3534340297308955,"(0.0, 0.0, 0.0, 0.0, 0.0, 0.0)",0.41132662822933225,-0.8112550122446371,-2.3667724755354502,"(0.0, 0.0, 0.0, 0.0, 0.0, 0.0)",0.056847326346645,-0.6882538803545026,2.353436809453404,"(0.0, 0.0, 0.0, 0.0, 0.0, 0.0)",-0.4113274932960819,0.8112537133962935,2.3668071133728046,"(0.0, 0.0, 0.0, 0.0, 0.0, 0.0)",-0.0568477730004364,False,,,,,False,,,,
52,Close,,,"(1.4218689550358636e-07, 0.1699990574974972, 0.0008559357877458743)","(1.5708144388885392, 0.00011900551991941484, -1.4017852050493115e-05)",,"[-0.026750000193715096, 0.05299999937415123, 0.03999999910593033]","[0.0, -0.0, 0.6882538042795985]","[-0.07248363643884659, 0.10860966145992279, 0.03999999910593033]","[0.0, 0.0, -0.12300123728040792]","[0.026750000193715096, 0.05299999937415123, 0.03999999910593033]","[0.0, 0.0, -0.688253900607872]","[0.07248364388942719, 0.1086096540093422, 0.03999999910593033]","[0.0, -0.0, 0.12299984676553348]",0.6794283985034177,-2.118090626757806,"(0.0, 0.0, 0.0, 0.0, 0.0, 0.0)",0.3702598465395096,-0.8201303199370257,-2.1300738461732434,"(0.0, 0.0, 0.0, 0.0, 0.0, 0.0)",0.051207533272865695,-0.6794284923190523,2.1180931285080637,"(0.0, 0.0, 0.0, 0.0, 0.0, 0.0)",-0.37026062586363284,0.8201291509798778,2.130105020060234,"(0.0, 0.0, 0.0, 0.0, 0.0, 0.0)",-0.051207935975855504,False,,,,,False,,,,
53,Close,,,"(1.3069318416839e-07, 0.16999905849308636, 0.0008666025576372722)","(1.5708130385376784, 0.00010764969663878531, -1.401480516953977e-05)",,"[-0.026750000193715096, 0.05299999937415123, 0.03999999910593033]","[0.0, -0.0, 0.6794284238724229]","[-0.07199108600616455, 0.10901110619306564, 0.03999999910593033]","[0.0, 0.0, -0.14070193198542613]","[0.026750000193715096, 0.05299999937415123, 0.03999999910593033]","[0.0, 0.0, -0.6794284800706577]","[0.07199109345674515, 0.10901109874248505, 0.03999999910593033]","[0.0, -0.0, 0.1407006814892172]",0.6714855586530759,-1.9062815640820263,"(0.0, 0.0, 0.0, 0.0, 0.0, 0.0)",0.33328720146674756,-0.82811801654313,-1.9170471854650495,"(0.0, 0.0, 0.0, 0.0, 0.0, 0.0)",0.0461231568532664,-0.6714856430871471,1.9062838156572566,"(0.0, 0.0, 0.0, 0.0, 0.0, 0.0)",-0.33328790347714454,0.8281169644874314,1.917075241812861,"(0.0, 0.0, 0.0, 0.0, 0.0, 0.0)",-0.04612351986457081,False,,,,,False,,,,
54,Close,,,"(1.201142787701026e-07, 0.1699990593750365, 0.0008764159571233717)","(1.5708117502799854, 9.720147739875066e-05, -1.4011842957469135e-05)",,"[-0.026750000193715096, 0.05299999937415123, 0.03999999910593033]","[0.0, -0.0, 0.6714856028191667]","[-0.07154478132724762, 0.10936867445707321, 0.03999999910593033]","[0.0, 0.0, -0.1566324602805662]","[0.026750000193715096, 0.05299999937415123, 0.03999999910593033]","[0.0, 0.0, -0.6714856028191667]","[0.07154478132724762, 0.10936867445707321, 0.03999999910593033]","[0.0, -0.0, 0.15663130155257995]",0.6643370027877683,-1.7156534076738226,"(0.0, 0.0, 0.0, 0.0, 0.0, 0.0)",0.30000166468946887,-0.8353068710937589,-1.7253250921509458,"(0.0, 0.0, 0.0, 0.0, 0.0, 0.0)",0.041540284771796165,-0.6643370787784324,1.7156554340915304,"(0.0, 0.0, 0.0, 0.0, 0.0, 0.0)",-0.3000022969997827,0.8353059242487986,1.725350342728124,"(0.0, 0.0, 0.0, 0.0, 0.0, 0.0)",-0.041540611950472935,False,,,,,False,,,,
55,Close,,,"(1.1037647424359984e-07, 0.16999906015252483, 0.0008854442581506275)","(1.5708105651429114, 8.758832292823178e-05, -1.4008951415989527e-05)",,"[-0.026750000193715096, 0.05299999937415123, 0.03999999910593033]","[0.0, -0.0, 0.6643370606126838]","[-0.07114068418741226, 0.1096874549984932, 0.03999999910593033]","[0.0, 0.0, -0.17096987637179278]","[0.026750000193715096, 0.05299999937415123, 0.03999999910593033]","[0.0, 0.0, -0.6643370606126838]","[0.07114069163799286, 0.1096874475479126, 0.03999999910593033]","[0.0, -0.0, 0.17096884643662202]",0.6579033025089914,-1.5440880669064398,"(0.0, 0.0, 0.0, 0.0, 0.0, 0.0)",0.2700364572532802,-0.8417767749452665,-1.5527769243618206,"(0.0, 0.0, 0.0, 0.0, 0.0, 0.0)",0.03741008611729049,-0.6579033709005891,1.5440898906823783,"(0.0, 0.0, 0.0, 0.0, 0.0, 0.0)",-0.27003702673818186,0.8417759227894597,1.5527996497586782,"(0.0, 0.0, 0.0, 0.0, 0.0, 0.0)",-0.03741038095743008,False,,,,,False,,,,
56,Close,,,"(1.0141204673652616e-07, 0.16999906083398159, 0.0008937502707232629)","(1.570809474872104, 7.87434915574051e-05, -1.4006118772737545e-05)",,"[-0.026750000193715096, 0.05299999937415123, 0.03999999910593033]","[0.0, -0.0, 0.6579033304946226]","[-0.07077505439519882, 0.10997187346220016, 0.03999999910593033]","[0.0, 0.0, -0.18387348897538708]","[0.026750000193715096, 0.05299999937415123, 0.03999999910593033]","[0.0, 0.0, -0.6579033304946226]","[0.07077506184577942, 0.10997187346220016, 0.03999999910593033]","[0.0, -0.0, 0.1838725619548152]",0.6521129722580923,-1.3896792602157946,"(0.0, 0.0, 0.0, 0.0, 0.0, 0.0)",0.24306111081870946,-0.8475996296201711,-1.3974851219770965,"(0.0, 0.0, 0.0, 0.0, 0.0, 0.0)",0.033688362136148925,-0.6521130338105302,1.38968090161414,"(0.0, 0.0, 0.0, 0.0, 0.0, 0.0)",-0.24306162368353448,0.8475988626841415,1.3975055747236533,"(0.0, 0.0, 0.0, 0.0, 0.0, 0.0)",-0.03368862779939208,False,,,,,False,,,,
57,Close,,,"(9.31587620256511e-08, 0.16999906142715163, 0.0009013917798737923)","(1.570808471873919, 7.060557585400826e-05, -1.4003335136779464e-05)",,"[-0.026750000193715096, 0.05299999937415123, 0.03999999910593033]","[0.0, -0.0, 0.6521129301518677]","[-0.07044443488121033, 0.11022583395242691, 0.03999999910593033]","[0.0, 0.0, -0.19548665573955404]","[0.026750000193715096, 0.05299999937415123, 0.03999999910593033]","[0.0, 0.0, -0.6521129866161153]","[0.07044444233179092, 0.11022583395242691, 0.03999999910593033]","[0.0, -0.0, 0.19548582525750646]",0.646901675032283,-1.2507113341942153,"(0.0, 0.0, 0.0, 0.0, 0.0, 0.0)",0.2187779064062842,-0.8528401458571484,-1.2577238968745574,"(0.0, 0.0, 0.0, 0.0, 0.0, 0.0)",0.03033513071724496,-0.6469017304294772,1.2507128114527255,"(0.0, 0.0, 0.0, 0.0, 0.0, 0.0)",-0.2187783682505172,0.8528394556185027,1.2577423042466835,"(0.0, 0.0, 0.0, 0.0, 0.0, 0.0)",-0.03033537006280305,False,,,,,False,,,,
58,Close,,,"(8.555942447331213e-08, 0.16999906193915107, 0.000908421947674647)","(1.5708075491625393, 6.311807629477444e-05, -1.4000592203169427e-05)",,"[-0.026750000193715096, 0.05299999937415123, 0.03999999910593033]","[0.0, -0.0, 0.6469017074975589]","[-0.0701456218957901, 0.11045276373624802, 0.03999999910593033]","[0.0, 0.0, -0.20593848593871938]","[0.026750000193715096, 0.05299999937415123, 0.03999999910593033]","[0.0, 0.0, -0.6469017640113621]","[0.0701456293463707, 0.11045276373624802, 0.03999999910593033]","[0.0, -0.0, 0.2059377054983325]",0.6422115075290548,-1.1256402007747932,"(0.0, 0.0, 0.0, 0.0, 0.0, 0.0)",0.19691865600140895,-0.8575565627499749,-1.1319400542783593,"(0.0, 0.0, 0.0, 0.0, 0.0, 0.0)",0.027314243362735774,-0.6422115573865295,1.1256415303074527,"(0.0, 0.0, 0.0, 0.0, 0.0, 0.0)",-0.19691907187647334,0.8575559415385998,1.1319566208232932,"(0.0, 0.0, 0.0, 0.0, 0.0, 0.0)",-0.027314458975022625,False,,,,,False,,,,
59,Move,,,"(7.856146500561274e-08, 0.16999906237651882, 0.0009148896830877347)","(1.5708067003113224, 5.6229009009845055e-05, -1.399788300299107e-05)","[0.0, 0.0, 0.0]","[-0.026750000193715096, 0.05299999937415123, 0.03999999910593033]","[0.0, -0.0, 0.6422115222668433]","[-0.06987567991018295, 0.11065566539764404, 0.03999999910593033]","[0.0, 0.0, -0.21534502689171695]","[0.026750000193715096, 0.05299999937415123, 0.03999999910593033]","[0.0, 0.0, -0.6422115222668433]","[0.06987568736076355, 0.11065565794706345, 0.03999999910593033]","[0.0, -0.0, 0.2153443918565048]",0.6379903567761492,-1.0130761806973148,"(0.0, 0.0, 0.0, 0.0, 0.0, 0.0)",0.17724179525373857,-0.861801294967015,-1.0187357320896053,"(0.0, 0.0, 0.0, 0.0, 0.0, 0.0)",0.024593033118920006,-0.6379904016478766,1.0130773772767077,"(0.0, 0.0, 0.0, 0.0, 0.0, 0.0)",-0.1772421697155535,0.8618007358798453,1.0187506418989196,"(0.0, 0.0, 0.0, 0.0, 0.0, 0.0)",-0.024593227332916724,False,,,,,False,,,,
60,Move,,,"(7.401516452493873e-08, 0.16999906300717518, 0.0009208949427311885)","(1.5708059692049072, 5.171406878091127e-05, -1.3997173418156156e-05)","[-4.546300480674002e-09, 6.306563604674409e-10, 6.005259643453772e-06]","[-0.026750000193715096, 0.05299999937415123, 0.03999999910593033]","[0.0, -0.0, 0.6379903239810443]","[-0.06963192671537399, 0.1108371913433075, 0.03999999910593033]","[0.0, 0.0, -0.2238109552587812]","[0.026750000193715096, 0.05299999937415123, 0.03999999910593033]","[0.0, 0.0, -0.6379904179642307]","[0.06963192671537399, 0.1108371838927269, 0.03999999910593033]","[0.0, -0.0, 0.22381033482023305]",0.615110639462399,-5.491132155300077,"(0.0, 0.0, 0.0, 0.0, 0.0, 0.0)",-6.452665348763696,-0.8613763884842398,0.10197755586604229,"(0.0, 0.0, 0.0, 0.0, 0.0, 0.0)",-0.36782542138199165,-0.6151107211023208,5.491123330933392,"(0.0, 0.0, 0.0, 0.0, 0.0, 0.0)",6.4526488408560905,0.8613758231880564,-0.10197904602934349,"(0.0, 0.0, 0.0, 0.0, 0.0, 0.0)",0.36782252911949487,False,,,,,False,,,,
61,Move,,,"(6.525734425186348e-05, 0.17034549853437667, 0.001059997142676121)","(1.5643418998519334, 0.00019756355969089426, -0.0007979474479338168)","[6.517878278685787e-05, 0.00034643615785784343, 0.00014510745958838623]","[-0.026750000193715096, 0.05299999937415123, 0.03999999910593033]","[0.0, -0.0, 0.6151107619663475]","[-0.06829752027988434, 0.1118030920624733, 0.03999999910593033]","[0.0, 0.0, -0.24626574387408112]","[0.026750000193715096, 0.05299999937415123, 0.03999999910593033]","[0.0, 0.0, -0.6151107619663475]","[0.06829752773046494, 0.1118030920624733, 0.03999999910593033]","[0.0, -0.0, 0.24626510812228053]",0.59557520589455,-4.68850405628373,"(0.0, 0.0, 0.0, 0.0, 0.0, 0.0)",-45.004877301260535,-0.841587039207075,4.749443826519566,"(0.0, 0.0, 0.0, 0.0, 0.0, 0.0)",-23.059879711313982,-0.5955448471476087,4.6958097491309045,"(0.0, 0.0, 0.0, 0.0, 0.0, 0.0)",43.2331221848827,0.8422035798107438,-4.601338410555013,"(0.0, 0.0, 0.0, 0.0, 0.0, 0.0)",22.069611273367745,True,"(-0.03288698015965098, 0.18306432161630465, 0.039999948285931244)","(0.9999999985648672, -1.399717339714095e-05, -5.171406875791205e-05)",0.0009292587523792685,356.63318049990795,True,"(0.032887031061809374, 0.18306436848012048, 0.04000005171406876)","(-0.9999999985648671, 1.3997173395198976e-05, 5.171406875668148e-05)",0.0009247539911204204,342.7710504396539
62,Move,"(0.0, 0.0, 0.0)","(0.0, -0.0, 0.0)","(0.00016176697229314485, 0.17076934431250207, 0.001298992481510786)","(1.553459115144406, 0.0004787126916021603, -0.0016283617000435679)","[0.00016168841082813925, 0.0007702819359832469, 0.0003841027984230513]","[-0.026750000193715096, 0.05299999937415123, 0.03999999910593033]","[0.0, -0.0, 0.5955751094143519]","[-0.06714092195034027, 0.11260347068309784, 0.03999999910593033]","[0.0, 0.0, -0.24601185159459507]","[0.026750000193715096, 0.05299999937415123, 0.03999999910593033]","[0.0, 0.0, -0.5955448282145998]","[0.06713911145925522, 0.11260469257831573, 0.03999999910593033]","[0.0, -0.0, 0.24665872904210193]",0.5770970782178444,-4.434750642409365,"(0.0, 0.0, 0.0, 0.0, 0.0, 0.0)",-74.21698749878065,-0.811850997818181,7.136649933334551,"(0.0, 0.0, 0.0, 0.0, 0.0, 0.0)",-37.92588619525253,-0.5770027641966642,4.450099908226674,"(0.0, 0.0, 0.0, 0.0, 0.0, 0.0)",71.59541053355323,0.8135423707664626,-6.878690170627483,"(0.0, 0.0, 0.0, 0.0, 0.0, 0.0)",36.485404729774935,True,"(-0.03174847742362094, 0.1838726496858637, 0.03999980243644159)","(0.9999996621242782, -0.0007979473476813144, -0.0001975635584110712)",-0.00012778812911608492,569.3446982775357,True,"(0.031700570614753176, 0.18385320841010633, 0.0400001975635584)","(-0.9999996621242783, 0.0007979473476767542, 0.0001975635584049517)",-0.0003431682129125587,549.2893233704585
63,Move,"(0.0, 0.0, 0.0006329113924050633)","(0.0, -0.0, 0.0)","(0.00020568050408397375, 0.17108007690663649, 0.0015665957858292871)","(1.5453980212159237, 0.00011151380297923225, -0.0017071234802152205)","[0.00020560194261896815, 0.0010810145301176632, 0.0006517061027415524]","[-0.026750000193715096, 0.05299999937415123, 0.03999999910593033]","[0.0, -0.0, 0.5770971029289548]","[-0.06603273004293442, 0.11333960294723511, 0.03999999910593033]","[0.0, 0.0, -0.23475391897699402]","[0.026750000193715096, 0.05299999937415123, 0.03999999910593033]","[0.0, 0.0, -0.5770027543990871]","[0.06602703779935837, 0.11334330588579178, 0.03999999910593033]","[0.0, -0.0, 0.23653961426052006]",0.579404895675538,0.5538761898464655,"(0.0, 0.0, 0.0, 0.0, 0.0, 0.0)",6.4633983195225495,-0.8148246019570704,-0.7136649933334551,"(0.0, 0.0, 0.0, 0.0, 0.0, 0.0)",-0.3132438216507522,-0.5792909153140746,-0.5491562681785016,"(0.0, 0.0, 0.0, 0.0, 0.0, 0.0)",-6.16852739973914,0.8163981315451861,0.6853825868936365,"(0.0, 0.0, 0.0, 0.0, 0.0, 0.0)",0.4843271556067679,True,"(-0.03144479909141533, 0.18499061278782541, 0.039999521287326686)","(0.9999985596366134, -0.0016283607938474471, -0.0004787126733201028)",-0.00031179486038545077,0.0,True,"(0.0313112124765586, 0.1849374824167095, 0.040000478712673315)","(-0.9999985596366132, 0.0016283607938671909, 0.0004787126733090728)",-0.0008521962835819142,2.606367117194445
64,Move,"(0.0, 0.0, 0.0012658227848101268)","(0.0, -0.0, 0.0)","(0.0002355667706498993, 0.17132703597068377, 0.0017824730331815115)","(1.53895893052323, -0.0004026348588691806, -0.0015503448983507034)","[0.0002354882091848937, 0.0013279735941649495, 0.0008675833500937768]","[-0.026750000193715096, 0.05299999937415123, 0.03999999910593033]","[0.0, -0.0, 0.579404963823502]","[-0.06617187708616257, 0.1132487803697586, 0.03999999910593033]","[0.0, 0.0, -0.23541970778940716]","[0.026750000193715096, 0.05299999937415123, 0.03999999910593033]","[0.0, 0.0, -0.5792908612503161]","[0.0661650076508522, 0.11325327306985855, 0.03999999910593033]","[0.0, -0.0, 0.23710723316040327]",0.5798413844181909,0.10475729823669244,"(0.0, 0.0, 0.0, 0.0, 0.0, 0.0)",-0.5733186856947697,-0.8145272415431815,0.07136649933334471,"(0.0, 0.0, 0.0, 0.0, 0.0, 0.0)",0.03678744641145794,-0.5796624993828075,-0.08918017649588106,"(0.0, 0.0, 0.0, 0.0, 0.0, 0.0)",0.6754952876005793,0.8161111003330838,-0.06888749090457291,"(0.0, 0.0, 0.0, 0.0, 0.0, 0.0)",0.016619609851140863,True,"(-0.03153624923514486, 0.18487733778001617, 0.039999888486197246)","(0.9999985366474105, -0.001707122640433851, -0.00011151380275540046)",-0.00019027644015300206,0.0,True,"(0.031408552968427136, 0.18482838253269274, 0.04000011151380275)","(-0.9999985366474103, 0.0017071226404405677, 0.0001115138027507468)",-0.000784928296535469,0.6320511653750213
65,Move,"(0.0, 0.0, 0.00189873417721519)","(0.0, -0.0, 0.0)","(0.0002444578052290941, 0.1715063787053705, 0.0019449608496424538)","(1.53421292990217, -0.0003731545237388818, -9.297553947423194e-05)","[0.0002443792437640885, 0.0015073163288516767, 0.001030071166554719]","[-0.026750000193715096, 0.05299999937415123, 0.03999999910593033]","[0.0, -0.0, 0.5798413894721629]","[-0.06619817018508911, 0.11323156952857971, 0.03999999910593033]","[0.0, 0.0, -0.2346858570525985]","[0.026750000193715096, 0.05299999937415123, 0.03999999910593033]","[0.0, 0.0, -0.5796625347098215]","[0.06618739664554596, 0.113238625228405, 0.03999999910593033]","[0.0, -0.0, 0.23644863370930538]",0.5802605816641028,0.10060733901885754,"(0.0, 0.0, 0.0, 0.0, 0.0, 0.0)",-0.014663477088291918,-0.8145569775845704,-0.007136649933334724,"(0.0, 0.0, 0.0, 0.0, 0.0, 0.0)",-0.009048800886656161,-0.5800100126309002,-0.08340317954228293,"(0.0, 0.0, 0.0, 0.0, 0.0, 0.0)",0.2705692135053456,0.8160960456759352,-0.0036131177156539795,"(0.0, 0.0, 0.0, 0.0, 0.0, 0.0)",0.1594530914365631,True,"(-0.03161511807391685, 0.18488494580213066, 0.04000040263484799)","(0.9999987171582726, -0.0015503441516295743, 0.0004026348479925523)",-0.00010372364766184371,0.0,True,"(0.03147808587665156, 0.18483579259909386, 0.039999597365152004)","(-0.9999987171582725, 0.0015503441516352856, -0.00040263484799849534)",-0.0007230758377748385,1.9462238766326017
66,Move,"(0.0, 0.0, 0.002531645569620253)","(0.0, -0.0, 0.0)","(0.0002591246819487695, 0.17162435248047028, 0.0020570356517220917)","(1.5310490421532412, -0.00034028267090096534, 0.0011355495056303165)","[0.0002590461204837639, 0.00162529010395146, 0.001142145968634357]","[-0.026750000193715096, 0.05299999937415123, 0.03999999910593033]","[0.0, -0.0, 0.5802606314945971]","[-0.06622341275215149, 0.11321502923965454, 0.03999999910593033]","[0.0, 0.0, -0.23429639531271385]","[0.026750000193715096, 0.05299999937415123, 0.03999999910593033]","[0.0, 0.0, -0.5800100821367413]","[0.06620832532644272, 0.11322491616010666, 0.03999999910593033]","[0.0, -0.0, 0.23608604176132647]",0.5808784365302402,0.1482851678729764,"(0.0, 0.0, 0.0, 0.0, 0.0, 0.0)",0.07085529422946148,-0.8145552917691797,0.0004045956937410288,"(0.0, 0.0, 0.0, 0.0, 0.0, 0.0)",0.006049735118453389,-0.5805499486904805,-0.12958465429925425,"(0.0, 0.0, 0.0, 0.0, 0.0, 0.0)",-0.06736710021390427,0.8160985300575739,0.0005962515932867859,"(0.0, 0.0, 0.0, 0.0, 0.0, 0.0)",-0.004598721684953269,True,"(-0.03166827166654035, 0.18488293517658194, 0.04000037315451508)","(0.9999999260556264, -9.297553287161964e-05, 0.00037315451508596476)",-6.022893323706e-05,0.0,True,"(0.03152497649427993, 0.18483284378412254, 0.0399996268454849)","(-0.9999999260556263, 9.297553287302341e-05, -0.00037315451509631147)",-0.0006665215775040691,0.0
67,Move,"(0.0, 0.0, 0.0031645569620253164)","(0.0, -0.0, 0.0)","(0.00027943226089208455, 0.17168080631306373, 0.002119014747553085)","(1.5294674716474055, -0.0003114554152425367, 0.002140215239967996)","[0.00027935369942707895, 0.0016817439365449105, 0.0012041250644653505]","[-0.026750000193715096, 0.05299999937415123, 0.03999999910593033]","[0.0, -0.0, 0.5808784352250281]","[-0.06626061350107193, 0.11319062858819962, 0.03999999910593033]","[0.0, 0.0, -0.23367687202796716]","[0.026750000193715096, 0.05299999937415123, 0.03999999910593033]","[0.0, 0.0, -0.5805499111831911]","[0.0662408396601677, 0.11320360004901886, 0.03999999910593033]","[0.0, -0.0, 0.23554858539739032]",0.5816242602622688,0.17899769568687063,"(0.0, 0.0, 0.0, 0.0, 0.0, 0.0)",0.04506479234981478,-0.8145561627477667,-0.00020903486086344653,"(0.0, 0.0, 0.0, 0.0, 0.0, 0.0)",0.003299699654307576,-0.5812049009878196,-0.1571885513614042,"(0.0, 0.0, 0.0, 0.0, 0.0, 0.0)",-0.040617390170110165,0.8160989373716434,9.77553766613056e-05,"(0.0, 0.0, 0.0, 0.0, 0.0, 0.0)",-0.0030805730520710416,True,"(-0.03174987658510941, 0.18488053838883933, 0.04000034028266433)","(0.9999992973676193, 0.0011355491958451114, 0.0003402826643321852)",2.10150876749688e-05,0.0,True,"(0.0315959795874684, 0.1848283943384198, 0.03999965971733567)","(-0.9999992973676192, -0.0011355491958401891, -0.00034028266432563445)",-0.0005952612452275832,0.0
68,Move,"(0.0, 0.0, 0.00379746835443038)","(0.0, -0.0, 0.0)","(0.00030453417616571187, 0.17168088070561638, 0.002130925571083247)","(1.5294714103755698, -0.00028716640455049173, 0.002949752780716154)","[0.00030445561470070627, 0.0016818183290975564, 0.0012160358879955125]","[-0.026750000193715096, 0.05299999937415123, 0.03999999910593033]","[0.0, -0.0, 0.5816242595008614]","[-0.0663054957985878, 0.11316113919019699, 0.03999999910593033]","[0.0, 0.0, -0.23293189670452266]","[0.026750000193715096, 0.05299999937415123, 0.03999999910593033]","[0.0, 0.0, -0.5812049952544819]","[0.06628026068210602, 0.11317772418260574, 0.03999999910593033]","[0.0, -0.0, 0.23489406470346358]",0.5824852871473304,0.20664645241477864,"(0.0, 0.0, 0.0, 0.0, 0.0, 0.0)",0.040649729134802366,-0.8145567228186694,-0.00013441701666273804,"(0.0, 0.0, 0.0, 0.0, 0.0, 0.0)",0.0030402498770806864,-0.5819615912095927,-0.1816056532255423,"(0.0, 0.0, 0.0, 0.0, 0.0, 0.0)",-0.03588768163241988,0.816099465934643,0.0001268551198890144,"(0.0, 0.0, 0.0, 0.0, 0.0, 0.0)",-0.002674414082427578,True,"(-0.03184817287067172, 0.18487700238399643, 0.04000031145541021)","(0.9999976612381112, 0.002140213502281511, 0.00031145541021389495)",0.00012748979214949953,0.0,True,"(0.03168229283381454, 0.18482351887720433, 0.0399996885445898)","(-0.9999976612381111, -0.0021402135022803837, -0.00031145541019802825)",-0.0005172857079890957,0.0
69,Move,"(0.0, 0.0, 0.004430379746835442)","(0.0, -0.0, 0.0)","(0.0003295903681436493, 0.1716772420873087, 0.0020916926393994817)","(1.5310976032423886, -0.00026470047652600673, 0.0037580220367293355)","[0.0003295118066786437, 0.0016781797107898733, 0.001176802956311747]","[-0.026750000193715096, 0.05299999937415123, 0.03999999910593033]","[0.0, -0.0, 0.5824853159058134]","[-0.06635727733373642, 0.11312706023454666, 0.03999999910593033]","[0.0, 0.0, -0.23207143693288704]","[0.026750000193715096, 0.05299999937415123, 0.03999999910593033]","[0.0, 0.0, -0.5819616439533831]","[0.06632578372955322, 0.1131477952003479, 0.03999999910593033]","[0.0, -0.0, 0.23413788566389782]",0.5834483201526433,0.23112792127509518,"(0.0, 0.0, 0.0, 0.0, 0.0, 0.0)",0.0359995792665149,-0.8145572387936897,-0.00012383400486483268,"(0.0, 0.0, 0.0, 0.0, 0.0, 0.0)",0.0026870402974594598,-0.5828060846436701,-0.20267842417858883,"(0.0, 0.0, 0.0, 0.0, 0.0, 0.0)",-0.030989199481949937,0.816099905704289,0.00010554471505042382,"(0.0, 0.0, 0.0, 0.0, 0.0, 0.0)",-0.0023142433025003417,True,"(-0.031961680270047685, 0.18487249364300057, 0.04000028716640061)","(0.9999956082503284, 0.0029497483814471706, 0.00028716640060345833)",0.0002562868051228138,0.0,True,"(0.03178200648227064, 0.1848181649661786, 0.0399997128335994)","(-0.9999956082503286, -0.00294974838143327, -0.0002871664006092902)",-0.0004330387975369913,0.0
70,Move,"(0.0, 0.0, 0.005063291139240506)","(0.0, -0.0, 0.0)","(0.0003546391199611209, 0.17167009584928314, 0.0020013980666763785)","(1.5343471030183684, -0.00024512129895157785, 0.00456553844421073)","[0.0003545605584961153, 0.0016710334727643161, 0.0010865083835886438]","[-0.026750000193715096, 0.05299999937415123, 0.03999999910593033]","[0.0, -0.0, 0.5834483936274792]","[-0.06641516089439392, 0.11308889091014862, 0.03999999910593033]","[0.0, 0.0, -0.23110891488959262]","[0.026750000193715096, 0.05299999937415123, 0.03999999910593033]","[0.0, 0.0, -0.5828061324690351]","[0.06637656688690186, 0.11311434954404831, 0.03999999910593033]","[0.0, -0.0, 0.23329382603885593]",0.5844997795693156,0.2523502600013776,"(0.0, 0.0, 0.0, 0.0, 0.0, 0.0)",0.031221533706416466,-0.8145576834830515,-0.00010672544681516376,"(0.0, 0.0, 0.0, 0.0, 0.0, 0.0)",0.0023314414514440567,-0.583724232356498,-0.22035545107866653,"(0.0, 0.0, 0.0, 0.0, 0.0, 0.0)",-0.026008394430605694,0.8161002751938814,8.867750216267022e-05,"(0.0, 0.0, 0.0, 0.0, 0.0, 0.0)",-0.0019423707134969936,True,"(-0.03208863776386693, 0.18486724151401446, 0.04000026470047343)","(0.9999929036105728, 0.0037580130594971083, 0.00026470047343212704)",0.0003983962837863595,0.0,True,"(0.03189329755641538, 0.1848122009856512, 0.03999973529952657)","(-0.9999929036105728, -0.003758013059482513, -0.0002647004734270857)",-0.000337120364952047,0.0
71,Move,"(0.0, 0.0, 0.00569620253164557)","(0.0, -0.0, 0.0)","(0.0003796861053253093, 0.17165984085514674, 0.001860082554862573)","(1.5392206304742535, -0.0002306164126964346, 0.005372206045556815)","[0.0003796075438603037, 0.0016607784786279167, 0.0009451928717748384]","[-0.026750000193715096, 0.05299999937415123, 0.03999999910593033]","[0.0, -0.0, 0.5844998025560566]","[-0.06647832691669464, 0.11304715275764465, 0.03999999910593033]","[0.0, 0.0, -0.2300578907796276]","[0.026750000193715096, 0.05299999937415123, 0.03999999910593033]","[0.0, 0.0, -0.5837242568112896]","[0.06643174588680267, 0.11307794600725174, 0.03999999910593033]","[0.0, -0.0, 0.23237605461390273]",0.5856330840863763,0.27199308409454837,"(0.0, 0.0, 0.0, 0.0, 0.0, 0.0)",0.02890700573000572,-0.8145580983660902,-9.957192929020985e-05,"(0.0, 0.0, 0.0, 0.0, 0.0, 0.0)",0.0021579298451469575,-0.5847096758673941,-0.2365064426150694,"(0.0, 0.0, 0.0, 0.0, 0.0, 0.0)",-0.02377137283455009,0.8161006159981857,8.179303304831422e-05,"(0.0, 0.0, 0.0, 0.0, 0.0, 0.0)",-0.0017745978817977283,True,"(-0.03222725475861707, 0.18486129653338607, 0.04000024512129649)","(0.9999895479055482, 0.004565522446284969, 0.0002451212964902833)",0.0005520150912930732,0.0,True,"(0.03201429832265998, 0.1848056851214671, 0.0399997548787035)","(-0.9999895479055483, -0.004565522446284294, -0.00024512129650371606)",-0.0002313858616764352,0.0
72,Move,"(0.0, 0.0, 0.006329113924050633)","(0.0, -0.0, 0.0)","(0.0004046971165949614, 0.17164714087906902, 0.0016677796457556934)","(1.545719002828894, -0.00022121267463760564, 0.006176282134223786)","[0.0004046185551299558, 0.0016480785025501932, 0.0007528899626679587]","[-0.026750000193715096, 0.05299999937415123, 0.03999999910593033]","[0.0, -0.0, 0.585633183139993]","[-0.06654635071754456, 0.11300208419561386, 0.03999999910593033]","[0.0, 0.0, -0.22892504628488689]","[0.026750000193715096, 0.05299999937415123, 0.03999999910593033]","[0.0, 0.0, -0.5847097372195197]","[0.06649092584848404, 0.1130388081073761, 0.03999999910593033]","[0.0, -0.0, 0.2313909396733198]",0.5868407827329002,0.28984767516574456,"(0.0, 0.0, 0.0, 0.0, 0.0, 0.0)",0.026286956272846274,-0.814558474703713,-9.03210294774032e-05,"(0.0, 0.0, 0.0, 0.0, 0.0, 0.0)",0.0019628500291265804,-0.5857551144051107,-0.2509052490519874,"(0.0, 0.0, 0.0, 0.0, 0.0, 0.0)",-0.02120325549615028,0.8161009189628089,7.271150956932966e-05,"(0.0, 0.0, 0.0, 0.0, 0.0, 0.0)",-0.0015833600815263003,True,"(-0.03237665859244217, 0.18485466406379275, 0.04000023061641065)","(0.9999855431442266, 0.0053721800618881, 0.00023061641064688225)",0.0007161912450263644,0.0,True,"(0.032144166363055476, 0.18479862999790764, 0.039999769383589345)","(-0.9999855431442266, -0.005372180061888985, -0.0002306164106527018)",-0.00011659856681044966,0.0
73,Move,"(0.0, 0.0, 0.006962025316455696)","(0.0, -0.0, 0.0)","(0.00042960482821898573, 0.17163290072066847, 0.0014245006148042917)","(1.5538427815620097, -0.0002155219044025546, 0.006975149239425417)","[0.00042952626675398013, 0.0016338383441496518, 0.000509610931716557]","[-0.026750000193715096, 0.05299999937415123, 0.03999999910593033]","[0.0, -0.0, 0.5868407828844215]","[-0.06661878526210785, 0.11295398324728012, 0.03999999910593033]","[0.0, 0.0, -0.2277176833642287]","[0.026750000193715096, 0.05299999937415123, 0.03999999910593033]","[0.0, 0.0, -0.5857551637744096]","[0.06655367463827133, 0.11299723386764526, 0.03999999910593033]","[0.0, -0.0, 0.2303458183368291]",0.5881150752368961,0.3058302009590266,"(0.0, 0.0, 0.0, 0.0, 0.0, 0.0)",0.02354316616089609,-0.8145588113647987,-8.07986605529913e-05,"(0.0, 0.0, 0.0, 0.0, 0.0, 0.0)",0.0017583510409717544,-0.586852922980061,-0.26347405798804774,"(0.0, 0.0, 0.0, 0.0, 0.0, 0.0)",-0.018520224706186895,0.8161011831349664,6.340131780215858e-05,"(0.0, 0.0, 0.0, 0.0, 0.0, 0.0)",-0.0013833457956445951,True,"(-0.032535865519409624, 0.18484735653543016, 0.04000022121267283)","(0.9999809023630737, 0.006176242715964045, 0.0002212126728341199)",0.0008899270026664194,0.0,True,"(0.03228193871495859, 0.18479105913645102, 0.03999977878732716)","(-0.9999809023630737, -0.006176242715957659, -0.00022121267283719604)",6.293182978108427e-06,0.0
74,Move,"(0.0, 0.0, 0.00759493670886076)","(0.0, -0.0, 0.0)","(0.0004543302644897492, 0.17161826369950278, 0.0011302384356236767)","(1.5635921491794937, -0.00021202336122016466, 0.007766288878706415)","[0.0004542517030247436, 0.0016192013229839597, 0.00021534875253594195]","[-0.026750000193715096, 0.05299999937415123, 0.03999999910593033]","[0.0, -0.0, 0.5881149980057009]","[-0.06669515371322632, 0.11290312558412552, 0.03999999910593033]","[0.0, 0.0, -0.22644372806575808]","[0.026750000193715096, 0.05299999937415123, 0.03999999910593033]","[0.0, 0.0, -0.5868529089110304]","[0.06661951541900635, 0.11295349895954132, 0.03999999910593033]","[0.0, -0.0, 0.22924830052838938]",0.5894478302274745,0.3198611977388053,"(0.0, 0.0, 0.0, 0.0, 0.0, 0.0)",0.0206822324654707,-0.8145591066040039,-7.085740923463318e-05,"(0.0, 0.0, 0.0, 0.0, 0.0, 0.0)",0.001545121456941285,-0.5879951766330314,-0.27414087671289167,"(0.0, 0.0, 0.0, 0.0, 0.0, 0.0)",-0.015731028548214593,0.816101406925784,5.370979623360617e-05,"(0.0, 0.0, 0.0, 0.0, 0.0, 0.0)",-0.0011754197483898477,True,"(-0.032703845228254716, 0.1848393900842007, 0.040000215521902735)","(0.9999756505208917, 0.006975092517584415, 0.00021552190273443642)",0.0010722136888237218,0.0,True,"(0.0324266091596125, 0.1847830013021482, 0.03999978447809725)","(-0.9999756505208918, -0.006975092517585627, -0.00021552190274457913)",0.0001362630189723227,0.0
75,Move,"(0.0, 0.0, 0.008227848101265822)","(0.0, -0.0, 0.0)","(0.0004561550061830433, 0.1716102960825335, 0.0009548693505725129)","(1.5713929762609151, 0.0017325014790826015, 0.007737940789253013)","[0.0004560764447180377, 0.0016112337060146809, 3.997966748477816e-05]","[-0.026750000193715096, 0.05299999937415123, 0.03999999910593033]","[0.0, -0.0, 0.5894477789293009]","[-0.06677494943141937, 0.11284983903169632, 0.03999999910593033]","[0.0, 0.0, -0.22511126823518054]","[0.026750000193715096, 0.05299999937415123, 0.03999999910593033]","[0.0, 0.0, -0.5879951521951694]","[0.06668797135353088, 0.11290791630744934, 0.03999999910593033]","[0.0, -0.0, 0.22810626769907888]",0.5908304293241083,0.33182378319213246,"(0.0, 0.0, 0.0, 0.0, 0.0, 0.0)",0.017656568680444667,-0.8145590770800833,7.085740924672734e-06,"(0.0, 0.0, 0.0, 0.0, 0.0, 0.0)",0.001326443239446766,-0.589173502057334,-0.2827981018326176,"(0.0, 0.0, 0.0, 0.0, 0.0, 0.0)",-0.012788704589193947,0.8161013845467022,-5.370979623720018e-06,"(0.0, 0.0, 0.0, 0.0, 0.0, 0.0)",-0.0009610280013270452,True,"(-0.03287952389058921, 0.1848307866708399, 0.04000021202335963)","(0.9999698200538315, 0.007766210633443809, 0.00021202335963223316)",0.0012619963735906496,0.0,True,"(0.0325771320988733, 0.18477449044635363, 0.039999787976640375)","(-0.9999698200538314, -0.007766210633448108, -0.00021202335962956136)",0.00027224846171110733,0.0
76,Move,"(0.0, 0.0, 0.008860759493670885)","(0.0, -0.0, 0.0)","(0.00045638228352193225, 0.17160812510645385, 0.0010271807321289683)","(1.5735878859965977, 0.0015962141782515159, 0.0077337337231360385)","[0.00045630372205692664, 0.0016090627299350235, 0.00011229104904123357]","[-0.026750000193715096, 0.05299999937415123, 0.03999999910593033]","[0.0, -0.0, 0.5908304385935083]","[-0.06685766577720642, 0.11279444396495819, 0.03999999910593033]","[0.0, 0.0, -0.22372864933437317]","[0.026750000193715096, 0.05299999937415123, 0.03999999910593033]","[0.0, 0.0, -0.5891734673028621]","[0.06675853580236435, 0.11286081373691559, 0.03999999910593033]","[0.0, -0.0, 0.226927884136629]",0.5922536927656511,0.3415832259702583,"(0.0, 0.0, 0.0, 0.0, 0.0, 0.0)",0.01441568791257558,-0.8145590800324753,-7.08574092733727e-07,"(0.0, 0.0, 0.0, 0.0, 0.0, 0.0)",0.0010761166402495134,-0.5903789688714944,-0.2893120353985127,"(0.0, 0.0, 0.0, 0.0, 0.0, 0.0)",-0.009637009411576865,0.8161013867846104,5.370979634378159e-07,"(0.0, 0.0, 0.0, 0.0, 0.0, 0.0)",-0.0007194137939314236,True,"(-0.03306177879200241, 0.18482077605688274, 0.03999826749938762)","(0.9999685615501679, 0.0077378519575127536, -0.001732500612381751)",0.0015223028303975547,0.0,True,"(0.03273241257474091, 0.18476638351164118, 0.04000173250061238)","(-0.999968561550168, -0.007737851957508921, 0.0017325006123807966)",0.0003493948068202505,0.0
77,Move,"(0.0, 0.0, 0.00949367088607595)","(0.0, -0.0, 0.0)","(0.00045639274310643957, 0.17160751626969506, 0.0010486148477740584)","(1.5741499655734312, 0.0014715412387612868, 0.00773250763053669)","[0.00045631418164143397, 0.001608453893176237, 0.00013372516468632373]","[-0.026750000193715096, 0.05299999937415123, 0.03999999910593033]","[0.0, -0.0, 0.5922537501168016]","[-0.0669427216053009, 0.11273729801177979, 0.03999999910593033]","[0.0, 0.0, -0.2223053842977385]","[0.026750000193715096, 0.05299999937415123, 0.03999999910593033]","[0.0, 0.0, -0.5903789938224501]","[0.06683066487312317, 0.11281254142522812, 0.03999999910593033]","[0.0, -0.0, 0.2257224182965227]",0.5937388393668077,0.35643518427759024,"(0.0, 0.0, 0.0, 0.0, 0.0, 0.0)",0.021896591214645312,-0.8145590797372362,7.085740794109829e-08,"(0.0, 0.0, 0.0, 0.0, 0.0, 0.0)",0.0016351113498119848,-0.5916145830616658,-0.2965474056411244,"(0.0, 0.0, 0.0, 0.0, 0.0, 0.0)",-0.010698780103944905,0.8161013865608197,-5.370979661023173e-08,"(0.0, 0.0, 0.0, 0.0, 0.0, 0.0)",-0.0007993277050102929,True,"(-0.03324937552930224, 0.18481023171057312, 0.03999840378649958)","(0.9999688209189208, 0.007733646777819013, -0.0015962135004212563)",0.001704813672655553,0.0,True,"(0.03289125637292099, 0.18475787487261386, 0.04000159621350042)","(-0.9999688209189209, -0.007733646777821421, 0.0015962135004206211)",0.0005133476427951511,0.0
78,Move,"(0.0, 0.0, 0.010126582278481011)","(0.0, -0.0, 0.0)","(0.00045631006053622374, 0.17160869637802503, 0.001019133845019725)","(1.5730804148278128, 0.0013543336957432444, 0.007731632150083769)","[0.00045623149907121814, 0.0016096340015062105, 0.00010424416193199025]","[-0.026750000193715096, 0.05299999937415123, 0.03999999910593033]","[0.0, -0.0, 0.5937388523503503]","[-0.06703139841556549, 0.11267754435539246, 0.03999999910593033]","[0.0, 0.0, -0.22082026646297076]","[0.026750000193715096, 0.05299999937415123, 0.03999999910593033]","[0.0, 0.0, -0.5916145435973805]","[0.06690453737974167, 0.11276297271251678, 0.03999999910593033]","[0.0, -0.0, 0.22448681951165878]",0.595299325624633,0.3745167018780625,"(0.0, 0.0, 0.0, 0.0, 0.0, 0.0)",0.026642567286173743,-0.8145590797667601,-7.085739994760093e-09,"(0.0, 0.0, 0.0, 0.0, 0.0, 0.0)",0.001989195317423857,-0.5929311984466488,-0.3159876923959081,"(0.0, 0.0, 0.0, 0.0, 0.0, 0.0)",-0.028620921414811637,0.8161013865831988,5.370978328762658e-09,"(0.0, 0.0, 0.0, 0.0, 0.0, 0.0)",-0.002136209537960952,False,,,,,True,"(0.03305406215115342, 0.1847489517215421, 0.040001471540707684)","(-0.999969021627587, -0.007732422202127886, 0.0014715407076779526)",0.0006809548094754995,0.0
79,Move,"(0.0, 0.0, 0.010126582278481011)","(0.0, -0.0, 0.0)","(0.0004560466328796299, 0.17160980683368504, 0.000989784301169137)","(1.5720206757805393, 0.0012288187320352124, 0.0077249896942233175)","[0.0004559680714146243, 0.0016107444571662188, 7.48946180814023e-05]","[-0.026750000193715096, 0.05299999937415123, 0.03999999910593033]","[0.0, -0.0, 0.5952992528429838]","[-0.06712447851896286, 0.11261460930109024, 0.03999999910593033]","[0.0, 0.0, -0.21925974568317005]","[0.026750000193715096, 0.05299999937415123, 0.03999999910593033]","[0.0, 0.0, -0.5929311642154127]","[0.0669831857085228, 0.11271005123853683, 0.03999999910593033]","[0.0, -0.0, 0.22317019119760792]",0.5969437770783894,0.39466834890155106,"(0.0, 0.0, 0.0, 0.0, 0.0, 0.0)",0.029687219629496296,-0.8145590797638077,7.085745323820447e-10,"(0.0, 0.0, 0.0, 0.0, 0.0, 0.0)",0.0022165069639487936,-0.5943338190058908,-0.33662893421808104,"(0.0, 0.0, 0.0, 0.0, 0.0, 0.0)",-0.030389645277529964,0.8161013865809609,-5.3709836578264e-10,"(0.0, 0.0, 0.0, 0.0, 0.0, 0.0)",-0.002268323498126836,False,,,,,True,"(0.03322752847378893, 0.18473922179943264, 0.04000135433328172)","(-0.9999691939987122, -0.0077315480292074875, 0.0013543332817199858)",0.0008589340436170062,0.0
80,Move,"(0.0, 0.0, 0.010126582278481011)","(0.0, -0.0, 0.0)","(-0.0007065310714437802, 0.1716546141213311, 0.0011592919875261037)","(1.5652253448951217, -0.010882295479771705, 0.025407413395130564)","[-0.0007066096329087858, 0.0016555517448122725, 0.00024440230443836895]","[-0.026750000193715096, 0.05299999937415123, 0.03999999910593033]","[0.0, -0.0, 0.5969437909543692]","[-0.06722245365381241, 0.11254813522100449, 0.03999999910593033]","[0.0, 0.0, -0.21761530011771485]","[0.026750000193715096, 0.05299999937415123, 0.03999999910593033]","[0.0, 0.0, -0.5943337832316904]","[0.06706690043210983, 0.11265356093645096, 0.03999999910593033]","[0.0, -0.0, 0.22176758131999205]",0.574248989552062,-5.446749006318573,"(0.0, 0.0, 0.0, 0.0, 0.0, 0.0)",-8.576724583021704,-0.8145590797641029,-7.085798614525629e-11,"(0.0, 0.0, 0.0, 0.0, 0.0, 0.0)",-0.6397712172197809,-0.5719385747045312,5.37485863232629,"(0.0, 0.0, 0.0, 0.0, 0.0, 0.0)",19.295768163892035,0.8157469174833047,-0.08507258343746242,"(0.0, 0.0, 0.0, 0.0, 0.0, 0.0)",6.896953946303224,False,,,,,True,"(0.03341231182989449, 0.18472861075618693, 0.04000122881842278)","(-0.9999694074403777, -0.007724907030101263, 0.0012288184227815442)",0.001048661350651378,83.34357934170554
81,Move,"(0.0, 0.0, 0.010126582278481011)","(0.0, -0.0, 0.0)","(-0.000500042848011489, 0.17195334470693738, 0.0014735251650184879)","(1.551387489024662, -0.006511316537596401, 0.030989516840793666)","[-0.0005001214094764946, 0.0019542823304185553, 0.0005586354819307532]","[-0.026750000193715096, 0.05299999937415123, 0.03999999910593033]","[0.0, -0.0, 0.5742489112381349]","[-0.06586071848869324, 0.11345123499631882, 0.03999999910593033]","[0.0, 0.0, -0.240310103830818]","[0.026750000193715096, 0.05299999937415123, 0.03999999910593033]","[0.0, 0.0, -0.5719385506064864]","[0.06572094559669495, 0.11354143917560577, 0.03999999910593033]","[0.0, -0.0, 0.24380837932761565]",0.5561307530387823,-4.348376763187126,"(0.0, 0.0, 0.0, 0.0, 0.0, 0.0)",-74.53381758906761,-0.7844502278972998,7.226124448032743,"(0.0, 0.0, 0.0, 0.0, 0.0, 0.0)",-38.23468874299047,-0.5540152738403132,4.301592207412314,"(0.0, 0.0, 0.0, 0.0, 0.0, 0.0)",63.2214438562865,0.7856105209081721,-7.232735178031852,"(0.0, 0.0, 0.0, 0.0, 0.0, 0.0)",31.986477888851088,True,"(-0.030875574193166673, 0.1849415558661215, 0.04001088208914847)","(0.999618056552625, 0.025403175662607632, 0.010882080692922208)",-0.0025627955890814985,581.076638548171,True,"(0.030486070387896157, 0.1848572638776556, 0.04000122881842278)","(-0.9999694074403777, -0.007724907030101263, 0.0012288184227815442)",-2.797764648615244e-06,492.0045985025173
82,Move,"(0.0, 0.0, 0.010759493670886076)","(0.0, -0.0, 0.0)","(-0.0003887905484006662, 0.1720999675006837, 0.0018509005626393042)","(1.5358850706977365, -0.00322294344123241, 0.0330058492912368)","[-0.0003888691098656718, 0.002100905124164887, 0.0009360108795515695]","[-0.026750000193715096, 0.05299999937415123, 0.03999999910593033]","[0.0, -0.0, 0.5561307981760956]","[-0.06475909054279327, 0.11414989084005356, 0.03999999910593033]","[0.0, 0.0, -0.228319480368138]","[0.026750000193715096, 0.05299999937415123, 0.03999999910593033]","[0.0, 0.0, -0.5540153312978177]","[0.06462964415550232, 0.11423016339540482, 0.03999999910593033]","[0.0, -0.0, 0.2315952772552348]",0.5385559231140447,-4.217959181937051,"(0.0, 0.0, 0.0, 0.0, 0.0, 0.0)",-78.08567269427408,-0.7543087699113784,7.233949916621145,"(0.0, 0.0, 0.0, 0.0, 0.0, 0.0)",-39.81429944713896,-0.5360551050328596,4.310440513788876,"(0.0, 0.0, 0.0, 0.0, 0.0, 0.0)",75.8217876121438,0.7566783359503323,-6.943724389881537,"(0.0, 0.0, 0.0, 0.0, 0.0, 0.0)",38.84257288008446,True,"(-0.03063339537358256, 0.18604815431662552, 0.04000651123627216)","(0.999498674981311, 0.030983900121230395, 0.006511270527428698)",-0.002529364136416495,587.2874110063641,True,"(0.030268706360810242, 0.18595755579259887, 0.03999348872947263)","(-0.9994986749813443, -0.030983900120170677, -0.006511270527374774)",-0.0005219561427171439,566.4806673353994
83,Move,"(0.0, 0.0, 0.01139240506329114)","(0.0, -0.0, 0.0)","(-0.0003352456777503413, 0.17215634990501602, 0.002268756917590725)","(1.5231779693636667, -0.0027276513058449073, 0.03365168576569008)","[-0.0003353242392153469, 0.002157287528497198, 0.0013538672345029903]","[-0.026750000193715096, 0.05299999937415123, 0.03999999910593033]","[0.0, -0.0, 0.5385559231629929]","[-0.06367857754230499, 0.11480841785669327, 0.03999999910593033]","[0.0, 0.0, -0.21575285381581727]","[0.026750000193715096, 0.05299999937415123, 0.03999999910593033]","[0.0, 0.0, -0.5360551016714914]","[0.06352388858795166, 0.11490057408809662, 0.03999999910593033]","[0.0, -0.0, 0.2206232520208808]",0.5424575507083184,0.9363906226256837,"(0.0, 0.0, 0.0, 0.0, 0.0, 0.0)",6.695154832145437,-0.7573229157099706,-0.7233949916621132,"(0.0, 0.0, 0.0, 0.0, 0.0, 0.0)",-0.30677695468153393,-0.540087141371613,-0.9676887213008021,"(0.0, 0.0, 0.0, 0.0, 0.0, 0.0)",-6.9117689600360475,0.7595715544461162,0.6943724389881556,"(0.0, 0.0, 0.0, 0.0, 0.0, 0.0)",0.25830081625680984,True,"(-0.030458651498069617, 0.187119292357267, 0.040003222926188894)","(0.9994501655538915, 0.03299968554152, 0.0032229378615869744)",-0.002525267246017825,0.0,True,"(0.02995232709483195, 0.18698766860311503, 0.03999677706213842)","(-0.9994501655538917, -0.03299968554151644, -0.0032229378615780827)",-0.0010213328927118042,0.0
84,Move,"(0.0, 0.0, 0.012025316455696204)","(0.0, -0.0, 0.0)","(-0.00030361253624445924, 0.17218473757034866, 0.00263009356626529)","(1.5120057100865454, -0.0024872270118803247, 0.03470422435431474)","[-0.00030369109770946484, 0.002185675193829839, 0.0017152038831775552]","[-0.026750000193715096, 0.05299999937415123, 0.03999999910593033]","[0.0, -0.0, 0.5424575817119688]","[-0.06391944736242294, 0.11466386914253235, 0.03999999910593033]","[0.0, 0.0, -0.21486535556868355]","[0.026750000193715096, 0.05299999937415123, 0.03999999910593033]","[0.0, 0.0, -0.5400871650480972]","[0.06377317011356354, 0.11475180089473724, 0.03999999910593033]","[0.0, -0.0, 0.21948442855028688]",0.5444040596508388,0.46716214620489804,"(0.0, 0.0, 0.0, 0.0, 0.0, 0.0)",-0.601558878548903,-0.7570215042725078,0.07233874499107029,"(0.0, 0.0, 0.0, 0.0, 0.0, 0.0)",0.03576520644349039,-0.5419753082741765,-0.4531600566152437,"(0.0, 0.0, 0.0, 0.0, 0.0, 0.0)",0.6715579779248443,0.7592822349959385,-0.06943666804266901,"(0.0, 0.0, 0.0, 0.0, 0.0, 0.0)",-0.027308794464266057,True,"(-0.030763701334072024, 0.18700395497457376, 0.040002727569110844)","(0.9994301175219464, 0.03364520956798283, 0.002727647923539299)",-0.002151359946988268,0.0,True,"(0.030283785666550052, 0.18687529358970933, 0.0399972723520765)","(-0.9994301175219837, -0.033645209566877346, -0.0027276479234996293)",-0.0007602850422802706,0.0
85,Move,"(0.0, 0.0, 0.012658227848101266)","(0.0, -0.0, 0.0)","(-0.00027334789381668967, 0.17221258450424473, 0.00293948532656954)","(1.5024540447397696, -0.002278733443223308, 0.03571218965954216)","[-0.00027342645528169527, 0.0022135221277259087, 0.0020245956434818053]","[-0.026750000193715096, 0.05299999937415123, 0.03999999910593033]","[0.0, -0.0, 0.5444040622412132]","[-0.06403940171003342, 0.11459139734506607, 0.03999999910593033]","[0.0, 0.0, -0.21261742547130125]","[0.026750000193715096, 0.05299999937415123, 0.03999999910593033]","[0.0, 0.0, -0.5419753344382198]","[0.06388970464468002, 0.11468178033828735, 0.03999999910593033]","[0.0, -0.0, 0.21730694345854074]",0.5463250491897667,0.4610374893426741,"(0.0, 0.0, 0.0, 0.0, 0.0, 0.0)",-0.017575625174488105,-0.7570514974482053,-0.007198362167393113,"(0.0, 0.0, 0.0, 0.0, 0.0, 0.0)",-0.009366943909823506,-0.5438106844287053,-0.4404902770868961,"(0.0, 0.0, 0.0, 0.0, 0.0, 0.0)",0.026840148115644318,0.7593110131643611,0.006906760421416719,"(0.0, 0.0, 0.0, 0.0, 0.0, 0.0)",0.009734647131965249,True,"(-0.031046315612442296, 0.1870046395084421, 0.04000248722444747)","(0.9993947775576455, 0.03469715125269188, 0.0024872244474703252)",-0.0018430641966844887,0.0,True,"(0.03055755073092748, 0.1868748009996313, 0.03999751277555258)","(-0.9993947775576463, -0.03469715125267362, -0.0024872244474247462)",-0.0005148692789035896,0.0
86,Move,"(0.0, 0.0, 0.013291139240506327)","(0.0, -0.0, 0.0)","(-0.00024381779234285361, 0.17223813596525933, 0.003197421882268397)","(1.4945236484682636, -0.002085525901412319, 0.03668981005613515)","[-0.00024389635380785921, 0.002239073588740509, 0.0022825321991806623]","[-0.026750000193715096, 0.05299999937415123, 0.03999999910593033]","[0.0, -0.0, 0.5463250777274177]","[-0.0641576498746872, 0.1145196482539177, 0.03999999910593033]","[0.0, 0.0, -0.2107264485094714]","[0.026750000193715096, 0.05299999937415123, 0.03999999910593033]","[0.0, 0.0, -0.5438107638683379]","[0.06400284916162491, 0.11461351066827774, 0.03999999910593033]","[0.0, -0.0, 0.21550031924120405]",0.5484466201157834,0.5091770222440113,"(0.0, 0.0, 0.0, 0.0, 0.0, 0.0)",0.07163894983638669,-0.7570498003522419,0.00040730303120910336,"(0.0, 0.0, 0.0, 0.0, 0.0, 0.0)",0.0061175373635758545,-0.5458278454362678,-0.48411864181500697,"(0.0, 0.0, 0.0, 0.0, 0.0, 0.0)",-0.0649771330391448,0.7593093253953787,-0.00040506455578987344,"(0.0, 0.0, 0.0, 0.0, 0.0, 0.0)",-0.005590570922124633,True,"(-0.031301522838108685, 0.18699427122462936, 0.04000227873147114)","(0.9993597928681739, 0.03570450645735033, 0.002278731471139258)",-0.0015639176860737906,0.0,True,"(0.030801271508762787, 0.18686381886116823, 0.03999772126852888)","(-0.9993597928681736, -0.0357045064573556, -0.0022787314711242637)",-0.00029771311895134114,0.0
87,Move,"(0.0, 0.0, 0.013924050632911392)","(0.0, -0.0, 0.0)","(-0.00021494011994780768, 0.1722602070067249, 0.0034041617172182767)","(1.4882130585839846, -0.0019088158036461625, 0.03763952129090106)","[-0.00021501868141281328, 0.0022611446302060745, 0.002489272034130542]","[-0.026750000193715096, 0.05299999937415123, 0.03999999910593033]","[0.0, -0.0, 0.5484466324666032]","[-0.06428808718919754, 0.11444015055894852, 0.03999999910593033]","[0.0, 0.0, -0.20860318787674537]","[0.026750000193715096, 0.05299999937415123, 0.03999999910593033]","[0.0, 0.0, -0.5458278211612922]","[0.06412705779075623, 0.11453824490308762, 0.03999999910593033]","[0.0, -0.0, 0.2134815135553677]",0.5507006466796334,0.5409663753240023,"(0.0, 0.0, 0.0, 0.0, 0.0, 0.0)",0.046745556423458554,-0.7570506996680367,-0.0002158357907647639,"(0.0, 0.0, 0.0, 0.0, 0.0, 0.0)",0.003427521981063224,-0.5479562306441528,-0.5108124498923914,"(0.0, 0.0, 0.0, 0.0, 0.0, 0.0)",-0.039259820403384625,0.7593101055046546,0.00018722622622899596,"(0.0, 0.0, 0.0, 0.0, 0.0, 0.0)",-0.0028718987950040486,True,"(-0.03158587074486701, 0.1869832239601023, 0.0400020855243896)","(0.9993248311749626, 0.0366814992217191, 0.0020855243895989742)",-0.0012567363708069006,0.0,True,"(0.031071515020920357, 0.1868524356280113, 0.0399979144756104)","(-0.9993248311749623, -0.03668149922172623, -0.002085524389601154)",-5.298676542049644e-05,0.0
88,Move,"(0.0, 0.0, 0.014556962025316457)","(0.0, -0.0, 0.0)","(-0.00018660015079828614, 0.17227779465983176, 0.003559931513881709)","(1.4835209309646347, -0.0017478444196269342, 0.03856466375848663)","[-0.00018667871226329174, 0.002278732283312934, 0.0026450418307939743]","[-0.026750000193715096, 0.05299999937415123, 0.03999999910593033]","[0.0, -0.0, 0.5507007495689132]","[-0.0644264817237854, 0.11435538530349731, 0.03999999910593033]","[0.0, 0.0, -0.2063500471105716]","[0.026750000193715096, 0.05299999937415123, 0.03999999910593033]","[0.0, 0.0, -0.547956265330936]","[0.06425794959068298, 0.11445855349302292, 0.03999999910593033]","[0.0, -0.0, 0.2113538775758804]",0.5530820759563174,0.5715430264041624,"(0.0, 0.0, 0.0, 0.0, 0.0, 0.0)",0.045049862264454545,-0.7570513273655494,-0.00015064740304302488,"(0.0, 0.0, 0.0, 0.0, 0.0, 0.0)",0.0033712562923110495,-0.5501923074185575,-0.536658425857124,"(0.0, 0.0, 0.0, 0.0, 0.0, 0.0)",-0.038094337964768916,0.7593106344759256,0.00012695310504577028,"(0.0, 0.0, 0.0, 0.0, 0.0, 0.0)",-0.0028514626549635018,True,"(-0.03188774439540612, 0.18697065172147803, 0.040001908814644487)","(0.9992898963471387, 0.037630565836534666, 0.0019088146444853763)",-0.0009331065612731788,0.0,True,"(0.03135644881055119, 0.18683983362560647, 0.0399980911853555)","(-0.9992898963471386, -0.03763056583654161, -0.0019088146445019885)",0.00020746141093508616,0.0
89,Move,"(0.0, 0.0, 0.01518987341772152)","(0.0, -0.0, 0.0)","(-0.00015867909681734985, 0.1722901176839653, 0.0036649116811869856)","(1.4804460782956368, -0.0016015494150198762, 0.039468922791002656)","[-0.00015875765828235545, 0.0022910553074464712, 0.002750021998099251]","[-0.026750000193715096, 0.05299999937415123, 0.03999999910593033]","[0.0, -0.0, 0.5530820892533324]","[-0.06457248330116272, 0.11426548659801483, 0.03999999910593033]","[0.0, 0.0, -0.2039692614128935]","[0.026750000193715096, 0.05299999937415123, 0.03999999910593033]","[0.0, 0.0, -0.5501923546858755]","[0.06439528614282608, 0.11437452584505081, 0.03999999910593033]","[0.0, -0.0, 0.20911837966480648]",0.5555853500706436,0.6007857874382889,"(0.0, 0.0, 0.0, 0.0, 0.0, 0.0)",0.04309359940121342,-0.7570519498868643,-0.000149405115598977,"(0.0, 0.0, 0.0, 0.0, 0.0, 0.0)",0.0032193396901294053,-0.5525317604464652,-0.5614687266978562,"(0.0, 0.0, 0.0, 0.0, 0.0, 0.0)",-0.036574825170288414,0.7593111632171425,0.0001268978920491707,"(0.0, 0.0, 0.0, 0.0, 0.0, 0.0)",-0.0027324030594368972,True,"(-0.03220666805281118, 0.18695656183343426, 0.040001747843529695)","(0.9992549491670312, 0.038555046468519365, 0.0017478435296934837)",-0.0005934230083909492,0.0,True,"(0.03165579143694734, 0.1868260228074763, 0.03999825215647031)","(-0.9992549491670312, -0.03855504646852203, -0.0017478435296930143)",0.0004832642938238445,0.0
90,Move,"(0.0, 0.0, 0.015822784810126587)","(0.0, -0.0, 0.0)","(-0.00013105788646875348, 0.1722966347432232, 0.0037192446092613593)","(1.478987738816774, -0.0014688450287932162, 0.04035603473597568)","[-0.00013113644793375908, 0.002297572366704387, 0.0028043549261736246]","[-0.026750000193715096, 0.05299999937415123, 0.03999999910593033]","[0.0, -0.0, 0.5555853583409607]","[-0.06472572684288025, 0.1141706109046936, 0.03999999910593033]","[0.0, 0.0, -0.20146659042263715]","[0.026750000193715096, 0.05299999937415123, 0.03999999910593033]","[0.0, 0.0, -0.5525317527458179]","[0.06453876197338104, 0.11428628861904144, 0.03999999910593033]","[0.0, -0.0, 0.20677942797315188]",0.5582041268574554,0.628506428834812,"(0.0, 0.0, 0.0, 0.0, 0.0, 0.0)",0.040868424082841914,-0.7570525378499339,-0.00014111113668420237,"(0.0, 0.0, 0.0, 0.0, 0.0, 0.0)",0.0030545613489009293,-0.5549693709121856,-0.5850265117728686,"(0.0, 0.0, 0.0, 0.0, 0.0, 0.0)",-0.03474402997115688,0.7593116631420916,0.00011998198777689832,"(0.0, 0.0, 0.0, 0.0, 0.0, 0.0)",-0.002596922792072973,True,"(-0.032541870705897, 0.18694086548095676, 0.040001601548730364)","(0.9992199216940747, 0.03945862556338707, 0.0016015487303704821)",-0.00023836235602020173,0.0,True,"(0.03196894154384379, 0.18681092164670737, 0.03999839845126963)","(-0.9992199216940747, -0.03945862556338537, -0.0016015487303666482)",0.0007737202080492049,0.0
91,Move,"(0.0, 0.0, 0.016455696202531643)","(0.0, -0.0, 0.0)","(-0.00010362030382621095, 0.17229704580929983, 0.003723031073488305)","(1.4791456192839347, -0.0013486775564130863, 0.04122971839086255)","[-0.00010369886529121656, 0.002297983432781009, 0.0028081413904005705]","[-0.026750000193715096, 0.05299999937415123, 0.03999999910593033]","[0.0, -0.0, 0.5582042145407934]","[-0.06488579511642456, 0.11407095193862915, 0.03999999910593033]","[0.0, 0.0, -0.19884842817113665]","[0.026750000193715096, 0.05299999937415123, 0.03999999910593033]","[0.0, 0.0, -0.5549693928537499]","[0.06468804180622101, 0.11419399082660675, 0.03999999910593033]","[0.0, -0.0, 0.20434228845834737]",0.5609324089586141,0.6547877042780845,"(0.0, 0.0, 0.0, 0.0, 0.0, 0.0)",0.03876347622554711,-0.7570530959251173,-0.00013393804402265556,"(0.0, 0.0, 0.0, 0.0, 0.0, 0.0)",0.002897920271373125,-0.5575001982489367,-0.6073985608202684,"(0.0, 0.0, 0.0, 0.0, 0.0, 0.0)",-0.03301010497166005,0.75931213847699,0.00011408037561212806,"(0.0, 0.0, 0.0, 0.0, 0.0, 0.0)",-0.0024678671747125173,True,"(-0.032892497297424925, 0.18692349019280036, 0.04000146884450062)","(0.9991847278652202, 0.040345038068378754, 0.001468844500617092)",0.0001313167480563311,0.0,True,"(0.03229519671341005, 0.18679446443369402, 0.03999853115549938)","(-0.9991847278652203, -0.0403450380683784, -0.0014688445006229545)",0.0010780233105882084,0.0
92,Move,"(0.0, 0.0, 0.017088607594936706)","(0.0, -0.0, 0.0)","(-7.625471142792142e-05, 0.17229130583781685, 0.0036763585673282883)","(1.4809203195126075, -0.0012396681328816373, 0.04209302776184998)","[-7.633327289292704e-05, 0.002292243461298027, 0.0027614688842405536]","[-0.026750000193715096, 0.05299999937415123, 0.03999999910593033]","[0.0, -0.0, 0.5609324318809963]","[-0.06505227088928223, 0.1139666810631752, 0.03999999910593033]","[0.0, 0.0, -0.1961207126381586]","[0.026750000193715096, 0.05299999937415123, 0.03999999910593033]","[0.0, 0.0, -0.5575002187764313]","[0.06484279036521912, 0.11409778147935867, 0.03999999910593033]","[0.0, -0.0, 0.20181194294652569]",0.5637643161255533,0.6796577200654309,"(0.0, 0.0, 0.0, 0.0, 0.0, 0.0)",0.03669954302947872,-0.757053624318676,-0.00012681445409599016,"(0.0, 0.0, 0.0, 0.0, 0.0, 0.0)",0.002744442189659104,-0.560119331295763,-0.6285919312383134,"(0.0, 0.0, 0.0, 0.0, 0.0, 0.0)",-0.03128635203126161,0.7593125889828365,0.00010812140316579225,"(0.0, 0.0, 0.0, 0.0, 0.0, 0.0)",-0.0023396741643415854,True,"(-0.03325773603251604, 0.18690436318959536, 0.04000134867714755)","(0.9991492668623695, 0.041218000901804816, 0.0013486771475530739)",0.0005148990761520637,0.0,True,"(0.03263388908223022, 0.18677658534243952, 0.039998651322852435)","(-0.9991492668623695, -0.04121800090180748, -0.0013486771475552882)",0.001395401086775777,0.0
93,Move,"(0.0, 0.0, 0.01772151898734177)","(0.0, -0.0, 0.0)","(-4.887117322386218e-05, 0.17227959887176697, 0.003579253482536981)","(1.4843124385894246, -0.0011406248430876865, 0.042948861656195075)","[-4.8949734688867796e-05, 0.0022805364952481477, 0.0026643637994492463]","[-0.026750000193715096, 0.05299999937415123, 0.03999999910593033]","[0.0, -0.0, 0.5637643586756979]","[-0.06522476673126221, 0.11385796964168549, 0.03999999910593033]","[0.0, 0.0, -0.19328931301155006]","[0.026750000193715096, 0.05299999937415123, 0.03999999910593033]","[0.0, 0.0, -0.5601193385263262]","[0.0650026872754097, 0.11399780213832855, 0.03999999910593033]","[0.0, -0.0, 0.19919325567529236]",0.566693982621722,0.703119959080489,"(0.0, 0.0, 0.0, 0.0, 0.0, 0.0)",0.03464035417144686,-0.7570541230844635,-0.00011970378900579329,"(0.0, 0.0, 0.0, 0.0, 0.0, 0.0)",0.0025913139961057257,-0.562821813297883,-0.6485956805087919,"(0.0, 0.0, 0.0, 0.0, 0.0, 0.0)",-0.029546218756660643,0.7593130144219571,0.00010210538893965294,"(0.0, 0.0, 0.0, 0.0, 0.0, 0.0)",-0.0022102523386506577,True,"(-0.03363679067593295, 0.1868834140475225, 0.04000123966781537)","(0.9991134515979059, 0.04208056629640908, 0.001239667815365876)",0.000911708773271325,0.0,True,"(0.0329843547219471, 0.1867572222448255, 0.03999876033218463)","(-0.999113451597906, -0.04208056629640793, -0.001239667815371847)",0.001725062080976945,0.0
