OSUrobotics/InHand-Manipulation/AnalyseData/Data/Trial Data/Better/new_hand_human_sub1_2v2_f_n_1_kpNone_kdNone_dp1_step1_save_data.csv
,Phase,human_cube_pos,human_cube_orn,Cube_Pos,Cube_Orn,Cube_pos_in_start_pos,b'l_prox_pin'_link_pos,b'l_prox_pin'_link_orn,b'l_distal_pin'_link_pos,b'l_distal_pin'_link_orn,b'r_prox_pin'_link_pos,b'r_prox_pin'_link_orn,b'r_distal_pin'_link_pos,b'r_distal_pin'_link_orn,b'l_prox_pin'_joint_angle,b'l_prox_pin'_joint_vel,b'l_prox_pin'_joint_react_forces,b'l_prox_pin'_joint_motor_torque,b'l_distal_pin'_joint_angle,b'l_distal_pin'_joint_vel,b'l_distal_pin'_joint_react_forces,b'l_distal_pin'_joint_motor_torque,b'r_prox_pin'_joint_angle,b'r_prox_pin'_joint_vel,b'r_prox_pin'_joint_react_forces,b'r_prox_pin'_joint_motor_torque,b'r_distal_pin'_joint_angle,b'r_distal_pin'_joint_vel,b'r_distal_pin'_joint_react_forces,b'r_distal_pin'_joint_motor_torque,in_contact_l,contact_point_l_dist,contact_normal_l_dist,contact_distance_l_dist,contact_norm_force_l_dist,in_contact_r,contact_point_r_dist,contact_normal_r_dist,contact_distance_r_dist,contact_norm_force_r_dist
0,Open,,,,,,"[-0.026750000193715096, 0.05299999937415123, 0.03999999910593033]","[0.0, -0.0, 0.0]","[-0.026750000193715096, 0.125, 0.03999999910593033]","[0.0, -0.0, 0.0]","[0.026750000193715096, 0.05299999937415123, 0.03999999910593033]","[0.0, -0.0, 0.0]","[0.026750000193715096, 0.125, 0.03999999910593033]","[0.0, -0.0, 0.0]",0.0028636982559538428,0.6872875814289223,"(0.0, 0.0, 0.0, 0.0, 0.0, 0.0)",-74.42376671286476,0.025717978913313098,6.172314939195144,"(0.0, 0.0, 0.0, 0.0, 0.0, 0.0)",-28.347758017338414,-0.0028861714462846827,-0.6926811471083238,"(0.0, 0.0, 0.0, 0.0, 0.0, 0.0)",77.31812537484876,-0.025998027583603027,-6.239526620064726,"(0.0, 0.0, 0.0, 0.0, 0.0, 0.0)",29.325432325549183,False,,,,,False,,,,
1,Open,,,,,,"[-0.026750000193715096, 0.05299999937415123, 0.03999999910593033]","[0.0, -0.0, 0.0028636982488144678]","[-0.026956185698509216, 0.12499970197677612, 0.03999999910593033]","[0.0, -0.0, 0.028581675581217755]","[0.026750000193715096, 0.05299999937415123, 0.03999999910593033]","[0.0, 0.0, -0.0028861714423951343]","[0.026957804337143898, 0.12499970197677612, 0.03999999910593033]","[0.0, 0.0, -0.028884201286240394]",0.1595773284303585,37.61127124185712,"(0.0, 0.0, 0.0, 0.0, 0.0, 0.0)",53.472225824972774,0.02314589095046895,-0.6173011110825959,"(0.0, 0.0, 0.0, 0.0, 0.0, 0.0)",3.3014509125464437,-0.15959755430165623,-37.61073188528917,"(0.0, 0.0, 0.0, 0.0, 0.0, 0.0)",-53.45543824447724,-0.023397935520559333,0.6240220951304867,"(0.0, 0.0, 0.0, 0.0, 0.0, 0.0)",-3.2927232380167535,False,,,,,False,,,,
2,Open,,,,,,"[-0.026750000193715096, 0.05299999937415123, 0.03999999910593033]","[0.0, -0.0, 0.15957730699277592]","[-0.03819086775183678, 0.1240852028131485, 0.03999999910593033]","[0.0, -0.0, 0.1827232399786182]","[0.026750000193715096, 0.05299999937415123, 0.03999999910593033]","[0.0, 0.0, -0.15959754249378824]","[0.03819230571389198, 0.12408497184515, 0.03999999910593033]","[0.0, 0.0, -0.1829954723320542]",0.30061959558732265,33.8501441176714,"(0.0, 0.0, 0.0, 0.0, 0.0, 0.0)",-5.433290843096747,0.020831748867960086,-0.555394099802127,"(0.0, 0.0, 0.0, 0.0, 0.0, 0.0)",-0.37949999689540415,-0.30063779887149056,-33.849658696760244,"(0.0, 0.0, 0.0, 0.0, 0.0, 0.0)",5.433149501288634,-0.02105858889910766,0.5614431891484022,"(0.0, 0.0, 0.0, 0.0, 0.0, 0.0)",0.37943043762158307,False,,,,,False,,,,
3,Open,,,,,,"[-0.026750000193715096, 0.05299999937415123, 0.03999999910593033]","[0.0, -0.0, 0.30061964608852465]","[-0.048070069402456284, 0.12177103012800217, 0.03999999910593033]","[0.0, -0.0, 0.3214513597309629]","[0.026750000193715096, 0.05299999937415123, 0.03999999910593033]","[0.0, 0.0, -0.30063782483534385]","[0.04807132109999657, 0.12177064269781113, 0.03999999910593033]","[0.0, 0.0, -0.32169639446592324]",0.4275576360285904,30.465129705904268,"(0.0, 0.0, 0.0, 0.0, 0.0, 0.0)",-4.896562760502833,0.018748978964657985,-0.49986477679250463,"(0.0, 0.0, 0.0, 0.0, 0.0, 0.0)",-0.3438186216350169,-0.4275740189843415,-30.464692827084228,"(0.0, 0.0, 0.0, 0.0, 0.0, 0.0)",4.8964345239877005,-0.018953134917884834,0.505308955493478,"(0.0, 0.0, 0.0, 0.0, 0.0, 0.0)",0.34375511365495653,False,,,,,False,,,,
4,Open,,,,,,"[-0.026750000193715096, 0.05299999937415123, 0.03999999910593033]","[0.0, -0.0, 0.42755761853039154]","[-0.056604765355587006, 0.1185186430811882, 0.03999999910593033]","[0.0, -0.0, 0.4463066270391506]","[0.026750000193715096, 0.05299999937415123, 0.03999999910593033]","[0.0, 0.0, -0.42757404208311445]","[0.05660583823919296, 0.1185181587934494, 0.03999999910593033]","[0.0, 0.0, -0.4465272228574986]",0.5418018724257314,27.418616735313837,"(0.0, 0.0, 0.0, 0.0, 0.0, 0.0)",-4.412236817968903,0.016874447698417276,-0.44988750389777044,"(0.0, 0.0, 0.0, 0.0, 0.0, 0.0)",-0.3112578673856835,-0.5418166170859073,-27.418223544375806,"(0.0, 0.0, 0.0, 0.0, 0.0, 0.0)",4.412120589674461,-0.017058187988154127,0.4547872631353701,"(0.0, 0.0, 0.0, 0.0, 0.0, 0.0)",0.31119999541872967,False,,,,,False,,,,
5,Open,,,,,,"[-0.026750000193715096, 0.05299999937415123, 0.03999999910593033]","[0.0, -0.0, 0.5418019400761332]","[-0.06387900561094284, 0.11468822509050369, 0.03999999910593033]","[0.0, -0.0, 0.5586763123738882]","[0.026750000193715096, 0.05299999937415123, 0.03999999910593033]","[0.0, 0.0, -0.5418166677071254]","[0.06387991458177567, 0.11468767374753952, 0.03999999910593033]","[0.0, 0.0, -0.5588748551425957]",0.6446216851831583,24.67675506178245,"(0.0, 0.0, 0.0, 0.0, 0.0, 0.0)",-3.975330693632137,0.015187334633278446,-0.4049071356333192,"(0.0, 0.0, 0.0, 0.0, 0.0, 0.0)",-0.2816071653694913,-0.6446349553773166,-24.67640118993823,"(0.0, 0.0, 0.0, 0.0, 0.0, 0.0)",3.975225427671302,-0.01535270083200906,0.409316917474816,"(0.0, 0.0, 0.0, 0.0, 0.0, 0.0)",0.28155450162657786,False,,,,,False,,,,
6,Open,,,,,,"[-0.026750000193715096, 0.05299999937415123, 0.03999999910593033]","[0.0, -0.0, 0.6446216983098856]","[-0.07001452147960663, 0.11055155843496323, 0.03999999910593033]","[0.0, -0.0, 0.6598089287160823]","[0.026750000193715096, 0.05299999937415123, 0.03999999910593033]","[0.0, 0.0, -0.644634967879878]","[0.07001528143882751, 0.11055097728967667, 0.03999999910593033]","[0.0, 0.0, -0.6599877329949964]",0.7371595166648425,22.209079555604205,"(0.0, 0.0, 0.0, 0.0, 0.0, 0.0)",-3.5812948349547464,0.013668901111545678,-0.3644240452158641,"(0.0, 0.0, 0.0, 0.0, 0.0, 0.0)",-0.25464125660078457,-0.737171459839585,-22.20876107094441,"(0.0, 0.0, 0.0, 0.0, 0.0, 0.0)",3.5811995605906057,-0.01381773063402154,0.3683928475170044,"(0.0, 0.0, 0.0, 0.0, 0.0, 0.0)",0.2545933902665499,False,,,,,False,,,,
7,Open,,,,,,"[-0.026750000193715096, 0.05299999937415123, 0.03999999910593033]","[0.0, -0.0, 0.7371595400859692]","[-0.07514750957489014, 0.10630742460489273, 0.03999999910593033]","[0.0, -0.0, 0.7508283868993905]","[0.026750000193715096, 0.05299999937415123, 0.03999999910593033]","[0.0, 0.0, -0.7371714711336782]","[0.07514814287424088, 0.10630684345960617, 0.03999999910593033]","[0.0, 0.0, -0.750989167509555]",0.8204435649983582,19.988171600043785,"(0.0, 0.0, 0.0, 0.0, 0.0, 0.0)",-3.2259980823944012,0.01230228208777883,-0.32798856570404317,"(0.0, 0.0, 0.0, 0.0, 0.0, 0.0)",-0.23014491551259536,-0.8204543138556265,-19.987884963849964,"(0.0, 0.0, 0.0, 0.0, 0.0, 0.0)",3.225911902119173,-0.012436228606816148,0.33156048652929415,"(0.0, 0.0, 0.0, 0.0, 0.0, 0.0)",0.23010145595163894,False,,,,,False,,,,
8,Open,,,,,,"[-0.026750000193715096, 0.05299999937415123, 0.03999999910593033]","[0.0, -0.0, 0.8204435774406766]","[-0.07941428571939468, 0.1020965725183487, 0.03999999910593033]","[0.0, -0.0, 0.8327459142786269]","[0.026750000193715096, 0.05299999937415123, 0.03999999910593033]","[0.0, 0.0, -0.8204543695347751]","[0.07941480726003647, 0.10209600627422333, 0.03999999910593033]","[0.0, 0.0, -0.8328905496331522]",0.8953992084985224,17.9893544400394,"(0.0, 0.0, 0.0, 0.0, 0.0, 0.0)",-2.905692777507757,0.011072298781000885,-0.2951959936267068,"(0.0, 0.0, 0.0, 0.0, 0.0, 0.0)",-0.20791432075989408,-0.8954088824700639,-17.989096467464968,"(0.0, 0.0, 0.0, 0.0, 0.0, 0.0)",2.9056148642503405,-0.011192850601700187,0.29841072122783063,"(0.0, 0.0, 0.0, 0.0, 0.0, 0.0)",0.20787489947010138,False,,,,,False,,,,
9,Open,,,,,,"[-0.026750000193715096, 0.05299999937415123, 0.03999999910593033]","[0.0, -0.0, 0.8953992050914552]","[-0.08294302970170975, 0.09801492840051651, 0.03999999910593033]","[0.0, -0.0, 0.9064715399310761]","[0.026750000193715096, 0.05299999937415123, 0.03999999910593033]","[0.0, 0.0, -0.8954089117450801]","[0.08294346183538437, 0.09801438450813293, 0.03999999910593033]","[0.0, 0.0, -0.9066016844299951]",0.9628592876486701,16.190418996035465,"(0.0, 0.0, 0.0, 0.0, 0.0, 0.0)",-2.616982039675733,0.009965290062605858,-0.26568209241480656,"(0.0, 0.0, 0.0, 0.0, 0.0, 0.0)",-0.18775783729375353,-0.9628679942230576,-16.190186820718473,"(0.0, 0.0, 0.0, 0.0, 0.0, 0.0)",2.6169116334278195,-0.010073786659150813,0.26857534621184953,"(0.0, 0.0, 0.0, 0.0, 0.0, 0.0)",0.187722108909745,False,,,,,False,,,,
10,Open,,,,,,"[-0.026750000193715096, 0.05299999937415123, 0.03999999910593033]","[0.0, -0.0, 0.9628592963772022]","[-0.08584962040185928, 0.09412462264299393, 0.03999999910593033]","[0.0, -0.0, 0.9728246761305416]","[0.026750000193715096, 0.05299999937415123, 0.03999999910593033]","[0.0, 0.0, -0.9628681466677605]","[0.08584997802972794, 0.09412410855293274, 0.03999999910593033]","[0.0, 0.0, -0.9729417790417357]",1.0235733588838032,14.57137709643192,"(0.0, 0.0, 0.0, 0.0, 0.0, 0.0)",-2.356789246056587,0.008968960705874744,-0.23911904561546746,"(0.0, 0.0, 0.0, 0.0, 0.0, 0.0)",-0.16949635495257384,-1.0235811948007518,-14.571168138646623,"(0.0, 0.0, 0.0, 0.0, 0.0, 0.0)",2.3567256501387286,-0.009066607604651448,0.24172297307984775,"(0.0, 0.0, 0.0, 0.0, 0.0, 0.0)",0.16946399753760524,False,,,,,False,,,,
11,Open,,,,,,"[-0.026750000193715096, 0.05299999937415123, 0.03999999910593033]","[0.0, -0.0, 1.0235732790301837]","[-0.08823604136705399, 0.09046287834644318, 0.03999999910593033]","[0.0, -0.0, 1.0325423083164225]","[0.026750000193715096, 0.05299999937415123, 0.03999999910593033]","[0.0, 0.0, -1.0235812274279317]","[0.08823633193969727, 0.09046239405870438, 0.03999999910593033]","[0.0, 0.0, -1.0326479037372749]",1.078216022995423,13.114239386788727,"(0.0, 0.0, 0.0, 0.0, 0.0, 0.0)",-2.1223296975724493,0.008072244810550301,-0.215211814877866,"(0.0, 0.0, 0.0, 0.0, 0.0, 0.0)",-0.1529632973210469,-1.0782230753206767,-13.114051324781958,"(0.0, 0.0, 0.0, 0.0, 0.0, 0.0)",2.122272274708909,-0.008160126984954354,0.21755534872730237,"(0.0, 0.0, 0.0, 0.0, 0.0, 0.0)",0.15293401213466845,False,,,,,False,,,,
12,Open,,,,,,"[-0.026750000193715096, 0.05299999937415123, 0.03999999910593033]","[0.0, -0.0, 1.078215882979514]","[-0.09019032120704651, 0.08704887330532074, 0.03999999910593033]","[0.0, -0.0, 1.0862882926740116]","[0.026750000193715096, 0.05299999937415123, 0.03999999910593033]","[0.0, 0.0, -1.078222977413882]","[0.09019055962562561, 0.08704842627048492, 0.03999999910593033]","[0.0, 0.0, -1.0863833790205233]",1.1273944206958806,11.802815448109852,"(0.0, 0.0, 0.0, 0.0, 0.0, 0.0)",-1.9110844168611731,0.007265182884681461,-0.19369486220852175,"(0.0, 0.0, 0.0, 0.0, 0.0, 0.0)",-0.13800439004610457,-1.127400767788609,-11.802646192303762,"(0.0, 0.0, 0.0, 0.0, 0.0, 0.0)",1.9110325851897776,-0.007344276810443619,0.19580404188257655,"(0.0, 0.0, 0.0, 0.0, 0.0, 0.0)",0.13797790093405082,False,,,,,False,,,,
13,Open,,,,,,"[-0.026750000193715096, 0.05299999937415123, 0.03999999910593033]","[0.0, -0.0, 1.1273943743462997]","[-0.0917874127626419, 0.08388907462358475, 0.03999999910593033]","[0.0, -0.0, 1.1346596248576977]","[0.026750000193715096, 0.05299999937415123, 0.03999999910593033]","[0.0, 0.0, -1.127400718904607]","[0.09178761392831802, 0.08388865739107132, 0.03999999910593033]","[0.0, 0.0, -1.134745111288055]",1.1716549786262926,10.622533903298867,"(0.0, 0.0, 0.0, 0.0, 0.0, 0.0)",-1.7207759982695574,0.00653881121780902,-0.17432920004938585,"(0.0, 0.0, 0.0, 0.0, 0.0, 0.0)",-0.12447725819906867,-1.1716606910097482,-10.622381573073383,"(0.0, 0.0, 0.0, 0.0, 0.0, 0.0)",1.7207292273800263,-0.006609995722787257,0.17622746103752684,"(0.0, 0.0, 0.0, 0.0, 0.0, 0.0)",0.12445331071934837,False,,,,,False,,,,
14,Open,,,,,,"[-0.026750000193715096, 0.05299999937415123, 0.03999999910593033]","[0.0, -0.0, 1.17165497759142]","[-0.09309044480323792, 0.08098116517066956, 0.03999999910593033]","[0.0, -0.0, 1.1781937273122836]","[0.026750000193715096, 0.05299999937415123, 0.03999999910593033]","[0.0, 0.0, -1.1716605985979762]","[0.09309060126543045, 0.08098078519105911, 0.03999999910593033]","[0.0, 0.0, -1.178270796658152]",1.2114894807636634,9.56028051296898,"(0.0, 0.0, 0.0, 0.0, 0.0, 0.0)",-1.549346412635057,0.005885062316220725,-0.15689973638119079,"(0.0, 0.0, 0.0, 0.0, 0.0, 0.0)",-0.11225090666269867,-1.2114946219087734,-9.560143415766044,"(0.0, 0.0, 0.0, 0.0, 0.0, 0.0)",1.5493042197033076,-0.00594912834521185,0.1586081706180975,"(0.0, 0.0, 0.0, 0.0, 0.0, 0.0)",0.11222926703597672,False,,,,,False,,,,
15,Open,,,,,,"[-0.026750000193715096, 0.05299999937415123, 0.03999999910593033]","[0.0, -0.0, 1.2114893406881728]","[-0.09415213763713837, 0.07831703126430511, 0.03999999910593033]","[0.0, -0.0, 1.2173745989650702]","[0.026750000193715096, 0.05299999937415123, 0.03999999910593033]","[0.0, 0.0, -1.2114945655338818]","[0.09415226429700851, 0.07831668108701706, 0.03999999910593033]","[0.0, 0.0, -1.2174436451143456]",1.247340532687297,8.604252461672083,"(0.0, 0.0, 0.0, 0.0, 0.0, 0.0)",-1.3949366588174594,0.00529667529397997,-0.14121288533778104,"(0.0, 0.0, 0.0, 0.0, 0.0, 0.0)",-0.1012051251161189,-1.2473451597178962,-8.604129074189437,"(0.0, 0.0, 0.0, 0.0, 0.0, 0.0)",1.394898604883462,-0.005354334697048719,0.1427504755591516,"(0.0, 0.0, 0.0, 0.0, 0.0, 0.0)",0.1011855790679586,False,,,,,False,,,,
16,Open,,,,,,"[-0.026750000193715096, 0.05299999937415123, 0.03999999910593033]","[0.0, -0.0, 1.2473405247091465]","[-0.09501627087593079, 0.07588484138250351, 0.03999999910593033]","[0.0, -0.0, 1.2526371614229614]","[0.026750000193715096, 0.05299999937415123, 0.03999999910593033]","[0.0, 0.0, -1.2473450561350814]","[0.09501637518405914, 0.07588452845811844, 0.03999999910593033]","[0.0, 0.0, -1.252699591080442]",1.2796064794185673,7.743827215504874,"(0.0, 0.0, 0.0, 0.0, 0.0, 0.0)",-1.2558681481324276,0.004767115224099335,-0.12709441677135241,"(0.0, 0.0, 0.0, 0.0, 0.0, 0.0)",-0.09122984935698081,-1.2796106437461066,-7.743716166770495,"(0.0, 0.0, 0.0, 0.0, 0.0, 0.0)",1.2558338345532607,-0.004819008666073119,0.128478247434144,"(0.0, 0.0, 0.0, 0.0, 0.0, 0.0)",0.09121220090323832,False,,,,,False,,,,
17,Open,,,,,,"[-0.026750000193715096, 0.05299999937415123, 0.03999999910593033]","[0.0, -0.0, 1.279606409124563]","[-0.09571900963783264, 0.0736706405878067, 0.03999999910593033]","[0.0, -0.0, 1.2843736758198352]","[0.026750000193715096, 0.05299999937415123, 0.03999999910593033]","[0.0, 0.0, -1.2796106525936015]","[0.0957190990447998, 0.07367035001516342, 0.03999999910593033]","[0.0, 0.0, -1.2844295613342638]",1.3086458314767107,6.969444493954387,"(0.0, 0.0, 0.0, 0.0, 0.0, 0.0)",-1.1305941221975622,0.00429170208951155,-0.1140991523010686,"(0.0, 0.0, 0.0, 0.0, 0.0, 0.0)",-0.082192919359827,-1.3086495793714958,-6.969344550093446,"(0.0, 0.0, 0.0, 0.0, 0.0, 0.0)",1.1305631934145834,-0.004338405935744441,0.11534465527888274,"(0.0, 0.0, 0.0, 0.0, 0.0, 0.0)",0.08217699569254354,False,,,,,False,,,,
18,Open,,,,,,"[-0.026750000193715096, 0.05299999937415123, 0.03999999910593033]","[0.0, -0.0, 1.308645825919811]","[-0.09629011154174805, 0.0716593861579895, 0.03999999910593033]","[0.0, -0.0, 1.3129373548657892]","[0.026750000193715096, 0.05299999937415123, 0.03999999910593033]","[0.0, 0.0, -1.308649569130343]","[0.09629017859697342, 0.07165912538766861, 0.03999999910593033]","[0.0, 0.0, -1.3129881167123505]",1.3347812483290395,6.272500044558946,"(0.0, 0.0, 0.0, 0.0, 0.0, 0.0)",-1.0178482622338179,0.003863702481573626,-0.10271990590510163,"(0.0, 0.0, 0.0, 0.0, 0.0, 0.0)",-0.07410352518858664,-1.3347846214343462,-6.272410095084102,"(0.0, 0.0, 0.0, 0.0, 0.0, 0.0)",1.0178203769740246,-0.0039057357160976183,0.10384085271523745,"(0.0, 0.0, 0.0, 0.0, 0.0, 0.0)",0.0740891498002037,False,,,,,False,,,,
19,Open,,,,,,"[-0.026750000193715096, 0.05299999937415123, 0.03999999910593033]","[0.0, -0.0, 1.3347813147466918]","[-0.09675397723913193, 0.06983575969934464, 0.03999999910593033]","[0.0, -0.0, 1.3386449621367835]","[0.026750000193715096, 0.05299999937415123, 0.03999999910593033]","[0.0, 0.0, -1.3347844615433213]","[0.0967540368437767, 0.06983552873134613, 0.03999999910593033]","[0.0, 0.0, -1.3386905382854437]",1.3583031234961356,5.645250040103052,"(0.0, 0.0, 0.0, 0.0, 0.0, 0.0)",-0.9162890978823036,0.0034783869891320215,-0.09247571818598516,"(0.0, 0.0, 0.0, 0.0, 0.0, 0.0)",-0.06677007440367574,-1.3583061592909116,-5.645169085575695,"(0.0, 0.0, 0.0, 0.0, 0.0, 0.0)",0.9162639666346021,-0.003516216695348753,0.09348456497972772,"(0.0, 0.0, 0.0, 0.0, 0.0, 0.0)",0.06675710630673855,False,,,,,False,,,,
20,Open,,,,,,"[-0.026750000193715096, 0.05299999937415123, 0.03999999910593033]","[0.0, -0.0, 1.3583030429358363]","[-0.09713058918714523, 0.06818463653326035, 0.03999999910593033]","[0.0, -0.0, 1.3617816714487538]","[0.026750000193715096, 0.05299999937415123, 0.03999999910593033]","[0.0, 0.0, -1.358306171033049]","[0.09713063389062881, 0.06818442046642303, 0.03999999910593033]","[0.0, 0.0, -1.361822351334537]",1.379472811146522,5.0807250360927485,"(0.0, 0.0, 0.0, 0.0, 0.0, 0.0)",-0.8248429295126702,0.003131498553648039,-0.08325322451615583,"(0.0, 0.0, 0.0, 0.0, 0.0, 0.0)",-0.06015531267018523,-1.3794755433618204,-5.080652177018124,"(0.0, 0.0, 0.0, 0.0, 0.0, 0.0)",0.8248202834423316,-0.003165545104486833,0.08416118180686077,"(0.0, 0.0, 0.0, 0.0, 0.0, 0.0)",0.06014361689139186,False,,,,,False,,,,
21,Open,,,,,,"[-0.026750000193715096, 0.05299999937415123, 0.03999999910593033]","[0.0, -0.0, 1.3794728975130914]","[-0.09743624925613403, 0.06669140607118607, 0.03999999910593033]","[0.0, -0.0, 1.382604304378769]","[0.026750000193715096, 0.05299999937415123, 0.03999999910593033]","[0.0, 0.0, -1.379475506721758]","[0.09743628650903702, 0.06669121235609055, 0.03999999910593033]","[0.0, 0.0, -1.3826409668082853]",1.3985255300318697,4.572652532483473,"(0.0, 0.0, 0.0, 0.0, 0.0, 0.0)",-0.7425066286387145,0.0028192047313806493,-0.07495051734417352,"(0.0, 0.0, 0.0, 0.0, 0.0, 0.0)",-0.054190171953983096,-1.3985279890256384,-4.57258695931631,"(0.0, 0.0, 0.0, 0.0, 0.0, 0.0)",0.7424862245436853,-0.0028498464605416357,0.07576767454684734,"(0.0, 0.0, 0.0, 0.0, 0.0, 0.0)",0.0541796259205944,False,,,,,False,,,,
22,Open,,,,,,"[-0.026750000193715096, 0.05299999937415123, 0.03999999910593033]","[0.0, -0.0, 1.398525454133583]","[-0.09768425673246384, 0.0653422400355339, 0.03999999910593033]","[0.0, -0.0, 1.4013447262228373]","[0.026750000193715096, 0.05299999937415123, 0.03999999910593033]","[0.0, 0.0, -1.3985280648022782]","[0.09768428653478622, 0.06534206122159958, 0.03999999910593033]","[0.0, 0.0, -1.4013779844801912]",1.4156729770286829,4.1153872792351285,"(0.0, 0.0, 0.0, 0.0, 0.0, 0.0)",-0.6683758137814145,0.002538055332395241,-0.06747585575649792,"(0.0, 0.0, 0.0, 0.0, 0.0, 0.0)",-0.04881194552870251,-1.4156751901230746,-4.115328263384682,"(0.0, 0.0, 0.0, 0.0, 0.0, 0.0)",0.6683574317692884,-0.002565632738451909,0.06821129330153437,"(0.0, 0.0, 0.0, 0.0, 0.0, 0.0)",0.0488024380394442,False,,,,,False,,,,
23,Open,,,,,,"[-0.026750000193715096, 0.05299999937415123, 0.03999999910593033]","[0.0, -0.0, 1.4156730334745993]","[-0.09788545966148376, 0.06412414461374283, 0.03999999910593033]","[0.0, -0.0, 1.418211036917125]","[0.026750000193715096, 0.05299999937415123, 0.03999999910593033]","[0.0, 0.0, -1.4156752315845986]","[0.09788548201322556, 0.0641239807009697, 0.03999999910593033]","[0.0, 0.0, -1.418240879504808]",1.4311056793258146,3.703848551311612,"(0.0, 0.0, 0.0, 0.0, 0.0, 0.0)",-0.6016352863054336,0.002284944287465684,-0.060746650783093666,"(0.0, 0.0, 0.0, 0.0, 0.0, 0.0)",-0.04396376851645251,-1.431107671110767,-3.7037954370462103,"(0.0, 0.0, 0.0, 0.0, 0.0, 0.0)",0.6016187276545472,-0.0023097638175418747,0.061408541018408244,"(0.0, 0.0, 0.0, 0.0, 0.0, 0.0)",0.043955198772734246,False,,,,,False,,,,
24,Open,,,,,,"[-0.026750000193715096, 0.05299999937415123, 0.03999999910593033]","[0.0, -0.0, 1.4311058207082674]","[-0.09804865717887878, 0.06302504986524582, 0.03999999910593033]","[0.0, -0.0, 1.433390691262394]","[0.026750000193715096, 0.05299999937415123, 0.03999999910593033]","[0.0, 0.0, -1.4311075924426346]","[0.09804867953062057, 0.06302490830421448, 0.03999999910593033]","[0.0, 0.0, -1.433417470845748]",1.4449951113932331,3.333463696180452,"(0.0, 0.0, 0.0, 0.0, 0.0, 0.0)",-0.5415503506795546,0.0020570753203455715,-0.05468855210882702,"(0.0, 0.0, 0.0, 0.0, 0.0, 0.0)",-0.039594115216637325,-1.4449969039996904,-3.3334158933415914,"(0.0, 0.0, 0.0, 0.0, 0.0, 0.0)",0.541535435877482,-0.002079412775410495,0.055284250111531166,"(0.0, 0.0, 0.0, 0.0, 0.0, 0.0)",0.03958639191865308,False,,,,,False,,,,
25,Open,,,,,,"[-0.026750000193715096, 0.05299999937415123, 0.03999999910593033]","[0.0, -0.0, 1.444995076522675]","[-0.09818101674318314, 0.062033817172050476, 0.03999999910593033]","[0.0, -0.0, 1.4470522962768402]","[0.026750000193715096, 0.05299999937415123, 0.03999999910593033]","[0.0, 0.0, -1.4449971061677662]","[0.09818103164434433, 0.06203368678689003, 0.03999999910593033]","[0.0, 0.0, -1.4470761943538692]",1.45749560025391,3.0001173265624064,"(0.0, 0.0, 0.0, 0.0, 0.0, 0.0)",-0.4874589573784058,0.001851931045420989,-0.04923462598189979,"(0.0, 0.0, 0.0, 0.0, 0.0, 0.0)",-0.03565633120497695,-1.4574972135997213,-3.000074304007432,"(0.0, 0.0, 0.0, 0.0, 0.0, 0.0)",0.4874455243270462,-0.0018720346450414762,0.04977075128856451,"(0.0, 0.0, 0.0, 0.0, 0.0, 0.0)",0.03564937171228022,False,,,,,False,,,,
26,Open,,,,,,"[-0.026750000193715096, 0.05299999937415123, 0.03999999910593033]","[0.0, -0.0, 1.4574954921785264]","[-0.09828835725784302, 0.061140209436416626, 0.03999999910593033]","[0.0, -0.0, 1.4593474823067423]","[0.026750000193715096, 0.05299999937415123, 0.03999999910593033]","[0.0, 0.0, -1.4574971848934346]","[0.09828837215900421, 0.061140093952417374, 0.03999999910593033]","[0.0, 0.0, -1.4593694397653831]",1.4687460402285188,2.700105593906164,"(0.0, 0.0, 0.0, 0.0, 0.0, 0.0)",-0.4387645947805427,0.0016672451487475934,-0.044324615201614966,"(0.0, 0.0, 0.0, 0.0, 0.0, 0.0)",-0.032108199676446195,-1.4687474922397492,-2.70006687360669,"(0.0, 0.0, 0.0, 0.0, 0.0, 0.0)",0.4387524971567325,-0.0016853382893528596,0.04480712536526797,"(0.0, 0.0, 0.0, 0.0, 0.0, 0.0)",0.03210192923147444,False,,,,,False,,,,
27,Open,,,,,,"[-0.026750000193715096, 0.05299999937415123, 0.03999999910593033]","[0.0, -0.0, 1.4687462228928074]","[-0.09837540984153748, 0.06033487245440483, 0.03999999910593033]","[0.0, -0.0, 1.4704133245237396]","[0.026750000193715096, 0.05299999937415123, 0.03999999910593033]","[0.0, 0.0, -1.4687474899518769]","[0.09837542474269867, 0.060334768146276474, 0.03999999910593033]","[0.0, 0.0, -1.4704329951986796]",1.478871436205667,2.430095034515549,"(0.0, 0.0, 0.0, 0.0, 0.0, 0.0)",-0.394929862139441,0.0015009773446580906,-0.03990427298148066,"(0.0, 0.0, 0.0, 0.0, 0.0, 0.0)",-0.028911540991871522,-1.4788727430157742,-2.430060186246021,"(0.0, 0.0, 0.0, 0.0, 0.0, 0.0)",0.39491896790015035,-0.001517261081966714,0.04033852977267494,"(0.0, 0.0, 0.0, 0.0, 0.0, 0.0)",0.02890589200411927,False,,,,,False,,,,
28,Open,,,,,,"[-0.026750000193715096, 0.05299999937415123, 0.03999999910593033]","[0.0, -0.0, 1.4788714352834713]","[-0.09844600409269333, 0.05960927531123161, 0.03999999910593033]","[0.0, -0.0, 1.480372508787761]","[0.026750000193715096, 0.05299999937415123, 0.03999999910593033]","[0.0, 0.0, -1.4788727099725336]","[0.09844601899385452, 0.05960918217897415, 0.03999999910593033]","[0.0, 0.0, -1.4803900544382056]",1.4879842925851003,2.1870855310639947,"(0.0, 0.0, 0.0, 0.0, 0.0, 0.0)",-0.3554706611703565,0.001351290830885638,-0.035924763305388616,"(0.0, 0.0, 0.0, 0.0, 0.0, 0.0)",-0.026031844038894282,-1.487985468714197,-2.1870541676214206,"(0.0, 0.0, 0.0, 0.0, 0.0, 0.0)",0.3554608511915877,-0.001365946114079445,0.03631559229294455,"(0.0, 0.0, 0.0, 0.0, 0.0, 0.0)",0.026026755426892093,False,,,,,False,,,,
29,Close,,,"(3.819349109750643e-09, 0.16999994350316286, 7.914305593764796e-05)","(1.5700606283751846, 1.2357610516186277e-06, -4.058049624060407e-09)",,"[-0.026750000193715096, 0.05299999937415123, 0.03999999910593033]","[0.0, -0.0, 1.4879842849605203]","[-0.09850326180458069, 0.05895565450191498, 0.03999999910593033]","[0.0, -0.0, 1.4893357278409396]","[0.026750000193715096, 0.05299999937415123, 0.03999999910593033]","[0.0, 0.0, -1.4879853833286059]","[0.09850326925516129, 0.05895556882023811, 0.03999999910593033]","[0.0, 0.0, -1.4893513332680077]",1.4961858633265903,1.9683769779575933,"(0.0, 0.0, 0.0, 0.0, 0.0, 0.0)",-0.31995094896823073,0.0012165319928285922,-0.03234212113369103,"(0.0, 0.0, 0.0, 0.0, 0.0, 0.0)",-0.02343792779000599,-1.4961869218427772,-1.9683487508592754,"(0.0, 0.0, 0.0, 0.0, 0.0, 0.0)",0.31994211580738524,-0.0012297216752996233,0.03269386530715718,"(0.0, 0.0, 0.0, 0.0, 0.0, 0.0)",0.02343334437795369,False,,,,,False,,,,
30,Close,,,"(1.09441459674075e-09, 0.16999988769159868, 0.0001519632082907279)","(1.5701173533571526, -2.5467641220651055e-06, -4.573996600559749e-08)",,"[-0.026750000193715096, 0.05299999937415123, 0.03999999910593033]","[0.0, -0.0, 1.4961860174198076]","[-0.09854969382286072, 0.05836696922779083, 0.03999999910593033]","[0.0, -0.0, 1.4974025341106605]","[0.026750000193715096, 0.05299999937415123, 0.03999999910593033]","[0.0, 0.0, -1.4961870219527165]","[0.09854969382286072, 0.05836689472198486, 0.03999999910593033]","[0.0, 0.0, -1.4974167044724178]",1.4065672769939312,-21.50846071983817,"(0.0, 0.0, 0.0, 0.0, 0.0, 0.0)",-36.83524610171859,-0.08890468746940376,-21.629092670935766,"(0.0, 0.0, 0.0, 0.0, 0.0, 0.0)",-4.936581214831643,-1.4065682296584996,21.508486124226657,"(0.0, 0.0, 0.0, 0.0, 0.0, 0.0)",36.83523814678565,0.0888928167555427,21.629409223402156,"(0.0, 0.0, 0.0, 0.0, 0.0, 0.0)",4.936577085092772,False,,,,,False,,,,
31,Close,,,"(3.541182821644653e-08, 0.1699998011443987, 0.00021906657187154062)","(1.570205104748116, 3.3042409171564205e-05, -8.114212850492596e-08)",,"[-0.026750000193715096, 0.05299999937415123, 0.03999999910593033]","[0.0, -0.0, 1.4065674382065954]","[-0.0977812185883522, 0.06477140635251999, 0.03999999910593033]","[0.0, -0.0, 1.3176625934179576]","[0.026750000193715096, 0.05299999937415123, 0.03999999910593033]","[0.0, 0.0, -1.4065680331882469]","[0.0977812260389328, 0.06477133929729462, 0.03999999910593033]","[0.0, 0.0, -1.3176753491400532]",1.3259105492945382,-19.357614647854348,"(0.0, 0.0, 0.0, 0.0, 0.0, 0.0)",3.3395407019063446,-0.17001473426920377,-19.466411231952,"(0.0, 0.0, 0.0, 0.0, 0.0, 0.0)",0.4376834422569755,-1.3259114066926496,19.35763751180399,"(0.0, 0.0, 0.0, 0.0, 0.0, 0.0)",-3.3395473112045253,0.1700040506304986,19.466696129989415,"(0.0, 0.0, 0.0, 0.0, 0.0, 0.0)",-0.43768664266468643,False,,,,,False,,,,
32,Close,,,"(3.361538948490201e-08, 0.16999974452330968, 0.00028077538773600935)","(1.5702911774727688, 7.027968338074274e-05, -7.017997684986258e-06)",,"[-0.026750000193715096, 0.05299999937415123, 0.03999999910593033]","[0.0, -0.0, 1.325910602539969]","[-0.09660188108682632, 0.07045608013868332, 0.03999999910593033]","[0.0, -0.0, 1.1558959321658662]","[0.026750000193715096, 0.05299999937415123, 0.03999999910593033]","[0.0, 0.0, -1.3259115331240872]","[0.09660189598798752, 0.07045602053403854, 0.03999999910593033]","[0.0, 0.0, -1.1559073716167563]",1.2533194943650845,-17.42185318306892,"(0.0, 0.0, 0.0, 0.0, 0.0, 0.0)",3.0100864599566086,-0.2430137284658432,-17.519758607193467,"(0.0, 0.0, 0.0, 0.0, 0.0, 0.0)",0.39699812510351973,-1.2533202660233846,17.42187376062359,"(0.0, 0.0, 0.0, 0.0, 0.0, 0.0)",-3.0100924602349655,0.24300411319445853,17.52001501535039,"(0.0, 0.0, 0.0, 0.0, 0.0, 0.0)",-0.39700105403357716,False,,,,,False,,,,
33,Close,,,"(1.2478111664315067e-07, 0.16999960627903704, 0.000337513976604643)","(1.5703757790333803, 0.0001088681261817636, -5.122611399447184e-06)",,"[-0.026750000193715096, 0.05299999937415123, 0.03999999910593033]","[0.0, -0.0, 1.2533194489161892]","[-0.0951518788933754, 0.07547627389431, 0.03999999910593033]","[0.0, -0.0, 1.0103057011386807]","[0.026750000193715096, 0.05299999937415123, 0.03999999910593033]","[0.0, 0.0, -1.2533201846969224]","[0.09515189379453659, 0.07547622174024582, 0.03999999910593033]","[0.0, 0.0, -1.010316110149499]",1.1879875449285762,-15.679667864762028,"(0.0, 0.0, 0.0, 0.0, 0.0, 0.0)",2.712712783767229,-0.30871235561933186,-15.767670516837281,"(0.0, 0.0, 0.0, 0.0, 0.0, 0.0)",0.3597856734528228,-1.1879882394210461,15.679686384561233,"(0.0, 0.0, 0.0, 0.0, 0.0, 0.0)",-2.712718226071338,0.30870370187508567,15.767901283350515,"(0.0, 0.0, 0.0, 0.0, 0.0, 0.0)",-0.35978834883250516,False,,,,,False,,,,
34,Close,,,"(1.2869376016944667e-07, 0.16999954011037416, 0.00038973303114976833)","(1.5704582297133343, 0.0001496263682483943, -9.931543136061158e-06)",,"[-0.026750000193715096, 0.05299999937415123, 0.03999999910593033]","[0.0, -0.0, 1.1879876003522736]","[-0.09353857487440109, 0.07989397644996643, 0.03999999910593033]","[0.0, -0.0, 0.8792752425767008]","[0.026750000193715096, 0.05299999937415123, 0.03999999910593033]","[0.0, 0.0, -1.1879882623869136]","[0.09353859722614288, 0.07989392429590225, 0.03999999910593033]","[0.0, 0.0, -0.8792844680170303]",1.1291887904356523,-14.1117010783017,"(0.0, 0.0, 0.0, 0.0, 0.0, 0.0)",2.44436472036771,-0.36784112005739866,-14.190903465136039,"(0.0, 0.0, 0.0, 0.0, 0.0, 0.0)",0.3258007578595482,-1.1291894154788755,14.111717746120975,"(0.0, 0.0, 0.0, 0.0, 0.0, 0.0)",-2.444369652349295,0.3678333316875771,14.191111154997946,"(0.0, 0.0, 0.0, 0.0, 0.0, 0.0)",-0.32580319741325486,False,,,,,False,,,,
35,Close,,,"(2.2147778895778094e-07, 0.169999403724105, 0.00043775502472391954)","(1.5705392813318275, 0.0001916771605813282, -8.19762937926826e-06)",,"[-0.026750000193715096, 0.05299999937415123, 0.03999999910593033]","[0.0, -0.0, 1.1291888000608494]","[-0.09184273332357407, 0.08377231657505035, 0.03999999910593033]","[0.0, -0.0, 0.7613476921786614]","[0.026750000193715096, 0.05299999937415123, 0.03999999910593033]","[0.0, 0.0, -1.1291894580384154]","[0.09184275567531586, 0.08377227932214737, 0.03999999910593033]","[0.0, 0.0, -0.7613561373098183]",1.0762699113920273,-12.700530970470014,"(0.0, 0.0, 0.0, 0.0, 0.0, 0.0)",2.202305891359772,-0.4210570080516588,-12.77181311862243,"(0.0, 0.0, 0.0, 0.0, 0.0, 0.0)",0.2948453788489373,-1.0762704739309281,12.700545971507374,"(0.0, 0.0, 0.0, 0.0, 0.0, 0.0)",-2.2023103576802145,0.4210499985188194,12.77200003949815,"(0.0, 0.0, 0.0, 0.0, 0.0, 0.0)",-0.2948476002056522,False,,,,,False,,,,
36,Close,,,"(2.1912693722736075e-07, 0.16999934361709654, 0.000481956449276018)","(1.5706184388641253, 0.00023565575873296478, -1.2845786801691941e-05)",,"[-0.026750000193715096, 0.05299999937415123, 0.03999999910593033]","[0.0, -0.0, 1.0762698553554748]","[-0.09012393653392792, 0.08717226982116699, 0.03999999910593033]","[0.0, -0.0, 0.6552128934948661]","[0.026750000193715096, 0.05299999937415123, 0.03999999910593033]","[0.0, 0.0, -1.0762704893583]","[0.09012395888566971, 0.08717223256826401, 0.03999999910593033]","[0.0, 0.0, -0.6552204147476549]",1.0286429202528247,-11.430477873408655,"(0.0, 0.0, 0.0, 0.0, 0.0, 0.0)",1.9840011930578276,-0.46895130724721834,-11.494631806934295,"(0.0, 0.0, 0.0, 0.0, 0.0, 0.0)",0.26667684533441977,-1.0286434265378352,11.430491374342276,"(0.0, 0.0, 0.0, 0.0, 0.0, 0.0)",-1.984005235051249,0.4689449986676629,11.494800035722442,"(0.0, 0.0, 0.0, 0.0, 0.0, 0.0)",-0.26667886541975433,False,,,,,False,,,,
37,Close,,,"(3.1131510586280866e-07, 0.1699992121070205, 0.0005226007520893923)","(1.5706964879884222, 0.0002806415891397876, -1.1307759452448239e-05)",,"[-0.026750000193715096, 0.05299999937415123, 0.03999999910593033]","[0.0, -0.0, 1.0286429345076582]","[-0.0884251669049263, 0.09015069156885147, 0.03999999910593033]","[0.0, -0.0, 0.5596916647508587]","[0.026750000193715096, 0.05299999937415123, 0.03999999910593033]","[0.0, 0.0, -1.0286435120859125]","[0.08842518925666809, 0.09015065431594849, 0.03999999910593033]","[0.0, 0.0, -0.5596984028120249]",0.9857786282275423,-10.287430086067793,"(0.0, 0.0, 0.0, 0.0, 0.0, 0.0)",1.787161045327472,-0.5120561765231523,-10.345168626224153,"(0.0, 0.0, 0.0, 0.0, 0.0, 0.0)",0.24107512437447856,-0.9857790838840517,10.28744223690805,"(0.0, 0.0, 0.0, 0.0, 0.0, 0.0)",-1.787164701188607,0.5120504988015524,10.345320032133483,"(0.0, 0.0, 0.0, 0.0, 0.0, 0.0)",-0.24107695935135354,False,,,,,False,,,,
38,Close,,,"(3.0991842655903425e-07, 0.169999153087261, 0.0005600347082356065)","(1.570772558536085, 0.00032764712563817383, -1.5390013302753274e-05)",,"[-0.026750000193715096, 0.05299999937415123, 0.03999999910593033]","[0.0, -0.0, 0.9857786218799983]","[-0.08677656948566437, 0.09275941550731659, 0.03999999910593033]","[0.0, -0.0, 0.4737224893055005]","[0.026750000193715096, 0.05299999937415123, 0.03999999910593033]","[0.0, 0.0, -0.9857791586690391]","[0.08677658438682556, 0.0927593931555748, 0.03999999910593033]","[0.0, 0.0, -0.47372859204714834]",0.9472007654041954,-9.258687077603232,"(0.0, 0.0, 0.0, 0.0, 0.0, 0.0)",1.6097085175776904,-0.550850558870837,-9.310651763444346,"(0.0, 0.0, 0.0, 0.0, 0.0, 0.0)",0.21783104241587867,-0.9472011754950539,9.258698013359455,"(0.0, 0.0, 0.0, 0.0, 0.0, 0.0)",-1.609711822487034,0.5508454489213972,9.310788028762744,"(0.0, 0.0, 0.0, 0.0, 0.0, 0.0)",-0.21783270758412676,False,,,,,False,,,,
39,Close,,,"(4.0106165104263135e-07, 0.169999026405202, 0.0005944331352702725)","(1.570848092729261, 0.0003750986118602944, -1.4060502423520339e-05)",,"[-0.026750000193715096, 0.05299999937415123, 0.03999999910593033]","[0.0, -0.0, 0.9472008140782049]","[-0.08519845455884933, 0.09504495561122894, 0.03999999910593033]","[0.0, -0.0, 0.39635019782230363]","[0.026750000193715096, 0.05299999937415123, 0.03999999910593033]","[0.0, 0.0, -0.9472011867132297]","[0.08519846946001053, 0.09504493325948715, 0.03999999910593033]","[0.0, 0.0, -0.3963557154153113]",0.9124806888632406,-8.332818369829143,"(0.0, 0.0, 0.0, 0.0, 0.0, 0.0)",1.4497611633824499,-0.5857655029837533,-8.379586587099913,"(0.0, 0.0, 0.0, 0.0, 0.0, 0.0)",0.19674731686213875,-0.9124810579450133,8.332828212009746,"(0.0, 0.0, 0.0, 0.0, 0.0, 0.0)",-1.4497641496546352,0.5857609040292575,8.379709225886469,"(0.0, 0.0, 0.0, 0.0, 0.0, 0.0)",-0.1967488266016999,False,,,,,False,,,,
40,Close,,,"(3.70657372146465e-07, 0.16999903038777142, 0.0006260749884053443)","(1.5708440552876382, 0.00034508120830118214, -1.4055585689260766e-05)",,"[-0.026750000193715096, 0.05299999937415123, 0.03999999910593033]","[0.0, -0.0, 0.9124807402838544]","[-0.08370371162891388, 0.09704854339361191, 0.03999999910593033]","[0.0, -0.0, 0.32671521193417863]","[0.026750000193715096, 0.05299999937415123, 0.03999999910593033]","[0.0, 0.0, -0.9124811663733811]","[0.08370373398065567, 0.09704852104187012, 0.03999999910593033]","[0.0, 0.0, -0.32672018954414506]",0.8812326199769166,-7.499536532717775,"(0.0, 0.0, 0.0, 0.0, 0.0, 0.0)",1.3056085801322186,-0.6171891619197363,-7.541678144635914,"(0.0, 0.0, 0.0, 0.0, 0.0, 0.0)",0.17763358199117588,-0.881232952150512,7.499545390680321,"(0.0, 0.0, 0.0, 0.0, 0.0, 0.0)",-1.305611277336412,0.617185022862301,7.541788519930457,"(0.0, 0.0, 0.0, 0.0, 0.0, 0.0)",-0.17763494969582577,False,,,,,False,,,,
41,Close,,,"(3.427044292909036e-07, 0.1699990340506735, 0.0006551854712062516)","(1.5708403346470328, 0.0003174583455114455, -1.4051356821419932e-05)",,"[-0.026750000193715096, 0.05299999937415123, 0.03999999910593033]","[0.0, -0.0, 0.8812326035131218]","[-0.08229970186948776, 0.09880644828081131, 0.03999999910593033]","[0.0, -0.0, 0.26404346611112495]","[0.026750000193715096, 0.05299999937415123, 0.03999999910593033]","[0.0, 0.0, -0.8812328730718287]","[0.08229971677064896, 0.09880642592906952, 0.03999999910593033]","[0.0, 0.0, -0.2640479150919315]",0.8531093579792249,-6.749582879446001,"(0.0, 0.0, 0.0, 0.0, 0.0, 0.0)",1.1757252455852583,-0.6454704345862542,-6.78750543996429,"(0.0, 0.0, 0.0, 0.0, 0.0, 0.0)",0.16033509317806058,-0.8531096569354608,6.7495908516122896,"(0.0, 0.0, 0.0, 0.0, 0.0, 0.0)",-1.1757276808922346,0.645466709436021,6.787604777692787,"(0.0, 0.0, 0.0, 0.0, 0.0, 0.0)",-0.16033633143309114,False,,,,,False,,,,
42,Close,,,"(3.170084497545684e-07, 0.16999903740907119, 0.0006819671107693073)","(1.570836911771951, 0.00029204530032808255, -1.4047683015968837e-05)",,"[-0.026750000193715096, 0.05299999937415123, 0.03999999910593033]","[0.0, -0.0, 0.8531093567174074]","[-0.08098968118429184, 0.10035036504268646, 0.03999999910593033]","[0.0, -0.0, 0.2076389231904772]","[0.026750000193715096, 0.05299999937415123, 0.03999999910593033]","[0.0, 0.0, -0.8531096230941355]","[0.08098969608545303, 0.10035035014152527, 0.03999999910593033]","[0.0, 0.0, -0.2076429742570099]",0.8277984221813024,-6.0746245915014,"(0.0, 0.0, 0.0, 0.0, 0.0, 0.0)",1.0586966037970245,-0.6709235615380169,-6.1087504684230565,"(0.0, 0.0, 0.0, 0.0, 0.0, 0.0)",0.14467321668423558,-0.8277986912419147,6.074631766451059,"(0.0, 0.0, 0.0, 0.0, 0.0, 0.0)",-1.0586988018726124,0.6709202089041267,6.108839872345364,"(0.0, 0.0, 0.0, 0.0, 0.0, 0.0)",-0.14467433700617466,False,,,,,False,,,,
43,Close,,,"(2.93385406087929e-07, 0.16999904048782613, 0.0007066062149797113)","(1.5708337628331848, 0.0002686652895538331, -1.4044478861914954e-05)",,"[-0.026750000193715096, 0.05299999937415123, 0.03999999910593033]","[0.0, -0.0, 0.8277984323872327]","[-0.07977395504713058, 0.10170790553092957, 0.03999999910593033]","[0.0, -0.0, 0.15687485461046338]","[0.026750000193715096, 0.05299999937415123, 0.03999999910593033]","[0.0, 0.0, -0.8277987052452376]","[0.07977396249771118, 0.10170789808034897, 0.03999999910593033]","[0.0, 0.0, -0.15687847762667875]",0.8050185799631722,-5.467162132351259,"(0.0, 0.0, 0.0, 0.0, 0.0, 0.0)",0.9532674830029981,-0.6938313591081322,-5.497871416827678,"(0.0, 0.0, 0.0, 0.0, 0.0, 0.0)",0.1305069121449798,-0.8050188221177232,5.467168589805953,"(0.0, 0.0, 0.0, 0.0, 0.0, 0.0)",-0.9532694663734236,0.6938283417388244,5.49795188032743,"(0.0, 0.0, 0.0, 0.0, 0.0, 0.0)",-0.13050792520753388,False,,,,,False,,,,
44,Close,,,"(2.716665250887489e-07, 0.16999904330973556, 0.0007292741870466809)","(1.5708308659078907, 0.0002471556717650467, -1.4041672069322908e-05)",,"[-0.026750000193715096, 0.05299999937415123, 0.03999999910593033]","[0.0, -0.0, 0.8050185839979388]","[-0.07865073531866074, 0.10290304571390152, 0.03999999910593033]","[0.0, -0.0, 0.11118723016400785]","[0.026750000193715096, 0.05299999937415123, 0.03999999910593033]","[0.0, 0.0, -0.8050187952188965]","[0.07865074276924133, 0.10290303081274033, 0.03999999910593033]","[0.0, 0.0, -0.11119048022217565]",0.784516721966855,-4.920445919116134,"(0.0, 0.0, 0.0, 0.0, 0.0, 0.0)",0.8582975670224743,-0.7144483618360385,-4.948080654697517,"(0.0, 0.0, 0.0, 0.0, 0.0, 0.0)",0.11770004006048959,-0.784516939905951,4.92045173082536,"(0.0, 0.0, 0.0, 0.0, 0.0, 0.0)",-0.8582993561887614,0.7144456462047399,4.948153071819748,"(0.0, 0.0, 0.0, 0.0, 0.0, 0.0)",-0.11770095568272418,False,,,,,False,,,,
45,Close,,,"(2.51696986958339e-07, 0.1699990458957082, 0.0007501287178850499)","(1.5708282008276007, 0.000227366816649173, -1.4039201474218165e-05)",,"[-0.026750000193715096, 0.05299999937415123, 0.03999999910593033]","[0.0, -0.0, 0.7845167193080385]","[-0.07761679589748383, 0.10395654290914536, 0.03999999910593033]","[0.0, -0.0, 0.07006835685702544]","[0.026750000193715096, 0.05299999937415123, 0.03999999910593033]","[0.0, 0.0, -0.7845169946958266]","[0.07761680334806442, 0.10395653545856476, 0.03999999910593033]","[0.0, 0.0, -0.0700712989357174]",0.7660650497701694,-4.42840132720452,"(0.0, 0.0, 0.0, 0.0, 0.0, 0.0)",0.7727568402429666,-0.7330036506599046,-4.453269317727849,"(0.0, 0.0, 0.0, 0.0, 0.0, 0.0)",0.106127525293464,-0.7660652459153559,4.428406557742824,"(0.0, 0.0, 0.0, 0.0, 0.0, 0.0)",-0.7727584538402424,0.7330012065927102,4.453334493112861,"(0.0, 0.0, 0.0, 0.0, 0.0, 0.0)",-0.10612835248484857,False,,,,,False,,,,
46,Close,,,"(2.3333473952068603e-07, 0.16999904826492518, 0.0007693148831029557)","(1.5708257490378412, 0.00020916106414766092, -1.403701531280991e-05)",,"[-0.026750000193715096, 0.05299999937415123, 0.03999999910593033]","[0.0, -0.0, 0.7660649977175382]","[-0.07666795700788498, 0.10488639771938324, 0.03999999910593033]","[0.0, -0.0, 0.03306140223906952]","[0.026750000193715096, 0.05299999937415123, 0.03999999910593033]","[0.0, 0.0, -0.7660653079646047]","[0.07666796445846558, 0.10488638281822205, 0.03999999910593033]","[0.0, 0.0, -0.033064041138401834]",0.7494585447931524,-3.985561194484066,"(0.0, 0.0, 0.0, 0.0, 0.0, 0.0)",0.6957152666369016,-0.7497033982890566,-4.007939430996486,"(0.0, 0.0, 0.0, 0.0, 0.0, 0.0)",0.09567473522853766,-0.7494587213238203,3.985565901968542,"(0.0, 0.0, 0.0, 0.0, 0.0, 0.0)",-0.6957167215859875,0.7497011986294615,4.007998088820328,"(0.0, 0.0, 0.0, 0.0, 0.0, 0.0)",-0.09567548223716564,False,,,,,False,,,,
47,Close,,,"(2.1644941757498085e-07, 0.1699990504349868, 0.0007869661522299996)","(1.5708234934689855, 0.0001924117668631307, -1.4035069780186692e-05)",,"[-0.026750000193715096, 0.05299999937415123, 0.03999999910593033]","[0.0, -0.0, 0.7494586090384826]","[-0.07579945772886276, 0.10570816695690155, 0.03999999910593033]","[0.0, 0.0, -0.000244853492999894]","[0.026750000193715096, 0.05299999937415123, 0.03999999910593033]","[0.0, 0.0, -0.7494587081400255]","[0.07579946517944336, 0.10570815205574036, 0.03999999910593033]","[0.0, -0.0, 0.00024247731079752444]",0.7345126903138371,-3.587005075035659,"(0.0, 0.0, 0.0, 0.0, 0.0, 0.0)",0.626333365984163,-0.764733160038395,-3.6071428198412123,"(0.0, 0.0, 0.0, 0.0, 0.0, 0.0)",0.08623682787405348,-0.7345128491914382,3.587009311771688,"(0.0, 0.0, 0.0, 0.0, 0.0, 0.0)",-0.6263346776346612,0.7647311803455538,3.607195611862134,"(0.0, 0.0, 0.0, 0.0, 0.0, 0.0)",-0.08623750223625977,False,,,,,False,,,,
48,Close,,,"(1.9902478529523268e-07, 0.16999905216510106, 0.0008031506134026157)","(1.5708213694672628, 0.00017518801369688713, -1.4031269556480368e-05)",,"[-0.026750000193715096, 0.05299999937415123, 0.03999999910593033]","[0.0, -0.0, 0.7345126628086843]","[-0.07500623911619186, 0.10643533617258072, 0.03999999910593033]","[0.0, 0.0, -0.03022046980229406]","[0.026750000193715096, 0.05299999937415123, 0.03999999910593033]","[0.0, 0.0, -0.7345128981556924]","[0.07500624656677246, 0.10643532872200012, 0.03999999910593033]","[0.0, -0.0, 0.03021832986745902]",0.7210614212824534,-3.228304567532092,"(0.0, 0.0, 0.0, 0.0, 0.0, 0.0)",0.5638237707840803,-0.7782610712626786,-3.246698693828069,"(0.0, 0.0, 0.0, 0.0, 0.0, 0.0)",0.07768823801248652,-0.7210615642722944,3.2283083805945183,"(0.0, 0.0, 0.0, 0.0, 0.0, 0.0)",-0.5638249528147553,0.7782592895487316,3.2467462087626835,"(0.0, 0.0, 0.0, 0.0, 0.0, 0.0)",-0.07768884636877696,False,,,,,False,,,,
49,Close,,,"(1.829952775457341e-07, 0.16999905372445717, 0.0008180403399689366)","(1.5708194143492393, 0.00015934185659229473, -1.4027683329641553e-05)",,"[-0.026750000193715096, 0.05299999937415123, 0.03999999910593033]","[0.0, -0.0, 0.7210614193238458]","[-0.07428312301635742, 0.10707958787679672, 0.03999999910593033]","[0.0, 0.0, -0.05719964992344959]","[0.026750000193715096, 0.05299999937415123, 0.03999999910593033]","[0.0, 0.0, -0.7210615729227128]","[0.07428313046693802, 0.10707958042621613, 0.03999999910593033]","[0.0, -0.0, 0.05719773186848648]",0.7089552791542081,-2.905474110778883,"(0.0, 0.0, 0.0, 0.0, 0.0, 0.0)",0.5075985242705942,-0.7904360705014085,-2.921999817295172,"(0.0, 0.0, 0.0, 0.0, 0.0, 0.0)",0.07003713951344083,-0.7089554078450649,2.905477542535066,"(0.0, 0.0, 0.0, 0.0, 0.0, 0.0)",-0.5075995897946305,0.7904344669675306,2.9220425805117625,"(0.0, 0.0, 0.0, 0.0, 0.0, 0.0)",-0.07003768863744474,False,,,,,False,,,,
50,Close,,,"(1.682467379846132e-07, 0.1699990551245469, 0.0008317388481303276)","(1.570817615731277, 0.00014476218910829968, -1.4024269510216624e-05)",,"[-0.026750000193715096, 0.05299999937415123, 0.03999999910593033]","[0.0, -0.0, 0.7089552779168017]","[-0.07362496107816696, 0.10765105485916138, 0.03999999910593033]","[0.0, 0.0, -0.08148078223376223]","[0.026750000193715096, 0.05299999937415123, 0.03999999910593033]","[0.0, 0.0, -0.7089554724698194]","[0.07362496852874756, 0.10765104740858078, 0.03999999910593033]","[0.0, -0.0, 0.0814790502780401]",0.6980597512387873,-2.6149266997009946,"(0.0, 0.0, 0.0, 0.0, 0.0, 0.0)",0.45693917814201784,-0.8013934602632394,-2.6297735428394082,"(0.0, 0.0, 0.0, 0.0, 0.0, 0.0)",0.06310201359777694,-0.6980598670605584,2.614929788281559,"(0.0, 0.0, 0.0, 0.0, 0.0, 0.0)",-0.45694013827892466,0.8013920170905735,2.6298120295302843,"(0.0, 0.0, 0.0, 0.0, 0.0, 0.0)",-0.06310250889925509,False,,,,,False,,,,
51,Close,,,"(1.546756367802499e-07, 0.16999905637827734, 0.0008443414385910609)","(1.5708159610857961, 0.00013134778772512943, -1.402100024143693e-05)",,"[-0.026750000193715096, 0.05299999937415123, 0.03999999910593033]","[0.0, -0.0, 0.6980597686270504]","[-0.07302673906087875, 0.10815852880477905, 0.03999999910593033]","[0.0, 0.0, -0.10333370902653251]","[0.026750000193715096, 0.05299999937415123, 0.03999999910593033]","[0.0, 0.0, -0.6980598246378259]","[0.07302674651145935, 0.10815852135419846, 0.03999999910593033]","[0.0, -0.0, 0.10333215264877679]",0.6882537761149086,-2.3534340297308955,"(0.0, 0.0, 0.0, 0.0, 0.0, 0.0)",0.41132662822933225,-0.8112550122446371,-2.3667724755354502,"(0.0, 0.0, 0.0, 0.0, 0.0, 0.0)",0.056847326346645,-0.6882538803545026,2.353436809453404,"(0.0, 0.0, 0.0, 0.0, 0.0, 0.0)",-0.4113274932960819,0.8112537133962935,2.3668071133728046,"(0.0, 0.0, 0.0, 0.0, 0.0, 0.0)",-0.0568477730004364,False,,,,,False,,,,
52,Close,,,"(1.4218689550358636e-07, 0.1699990574974972, 0.0008559357877458743)","(1.5708144388885392, 0.00011900551991941484, -1.4017852050493115e-05)",,"[-0.026750000193715096, 0.05299999937415123, 0.03999999910593033]","[0.0, -0.0, 0.6882538042795985]","[-0.07248363643884659, 0.10860966145992279, 0.03999999910593033]","[0.0, 0.0, -0.12300123728040792]","[0.026750000193715096, 0.05299999937415123, 0.03999999910593033]","[0.0, 0.0, -0.688253900607872]","[0.07248364388942719, 0.1086096540093422, 0.03999999910593033]","[0.0, -0.0, 0.12299984676553348]",0.6794283985034177,-2.118090626757806,"(0.0, 0.0, 0.0, 0.0, 0.0, 0.0)",0.3702598465395096,-0.8201303199370257,-2.1300738461732434,"(0.0, 0.0, 0.0, 0.0, 0.0, 0.0)",0.051207533272865695,-0.6794284923190523,2.1180931285080637,"(0.0, 0.0, 0.0, 0.0, 0.0, 0.0)",-0.37026062586363284,0.8201291509798778,2.130105020060234,"(0.0, 0.0, 0.0, 0.0, 0.0, 0.0)",-0.051207935975855504,False,,,,,False,,,,
53,Close,,,"(1.3069318416839e-07, 0.16999905849308636, 0.0008666025576372722)","(1.5708130385376784, 0.00010764969663878531, -1.401480516953977e-05)",,"[-0.026750000193715096, 0.05299999937415123, 0.03999999910593033]","[0.0, -0.0, 0.6794284238724229]","[-0.07199108600616455, 0.10901110619306564, 0.03999999910593033]","[0.0, 0.0, -0.14070193198542613]","[0.026750000193715096, 0.05299999937415123, 0.03999999910593033]","[0.0, 0.0, -0.6794284800706577]","[0.07199109345674515, 0.10901109874248505, 0.03999999910593033]","[0.0, -0.0, 0.1407006814892172]",0.6714855586530759,-1.9062815640820263,"(0.0, 0.0, 0.0, 0.0, 0.0, 0.0)",0.33328720146674756,-0.82811801654313,-1.9170471854650495,"(0.0, 0.0, 0.0, 0.0, 0.0, 0.0)",0.0461231568532664,-0.6714856430871471,1.9062838156572566,"(0.0, 0.0, 0.0, 0.0, 0.0, 0.0)",-0.33328790347714454,0.8281169644874314,1.917075241812861,"(0.0, 0.0, 0.0, 0.0, 0.0, 0.0)",-0.04612351986457081,False,,,,,False,,,,
54,Close,,,"(1.201142787701026e-07, 0.1699990593750365, 0.0008764159571233717)","(1.5708117502799854, 9.720147739875066e-05, -1.4011842957469135e-05)",,"[-0.026750000193715096, 0.05299999937415123, 0.03999999910593033]","[0.0, -0.0, 0.6714856028191667]","[-0.07154478132724762, 0.10936867445707321, 0.03999999910593033]","[0.0, 0.0, -0.1566324602805662]","[0.026750000193715096, 0.05299999937415123, 0.03999999910593033]","[0.0, 0.0, -0.6714856028191667]","[0.07154478132724762, 0.10936867445707321, 0.03999999910593033]","[0.0, -0.0, 0.15663130155257995]",0.6643370027877683,-1.7156534076738226,"(0.0, 0.0, 0.0, 0.0, 0.0, 0.0)",0.30000166468946887,-0.8353068710937589,-1.7253250921509458,"(0.0, 0.0, 0.0, 0.0, 0.0, 0.0)",0.041540284771796165,-0.6643370787784324,1.7156554340915304,"(0.0, 0.0, 0.0, 0.0, 0.0, 0.0)",-0.3000022969997827,0.8353059242487986,1.725350342728124,"(0.0, 0.0, 0.0, 0.0, 0.0, 0.0)",-0.041540611950472935,False,,,,,False,,,,
55,Close,,,"(1.1037647424359984e-07, 0.16999906015252483, 0.0008854442581506275)","(1.5708105651429114, 8.758832292823178e-05, -1.4008951415989527e-05)",,"[-0.026750000193715096, 0.05299999937415123, 0.03999999910593033]","[0.0, -0.0, 0.6643370606126838]","[-0.07114068418741226, 0.1096874549984932, 0.03999999910593033]","[0.0, 0.0, -0.17096987637179278]","[0.026750000193715096, 0.05299999937415123, 0.03999999910593033]","[0.0, 0.0, -0.6643370606126838]","[0.07114069163799286, 0.1096874475479126, 0.03999999910593033]","[0.0, -0.0, 0.17096884643662202]",0.6579033025089914,-1.5440880669064398,"(0.0, 0.0, 0.0, 0.0, 0.0, 0.0)",0.2700364572532802,-0.8417767749452665,-1.5527769243618206,"(0.0, 0.0, 0.0, 0.0, 0.0, 0.0)",0.03741008611729049,-0.6579033709005891,1.5440898906823783,"(0.0, 0.0, 0.0, 0.0, 0.0, 0.0)",-0.27003702673818186,0.8417759227894597,1.5527996497586782,"(0.0, 0.0, 0.0, 0.0, 0.0, 0.0)",-0.03741038095743008,False,,,,,False,,,,
56,Close,,,"(1.0141204673652616e-07, 0.16999906083398159, 0.0008937502707232629)","(1.570809474872104, 7.87434915574051e-05, -1.4006118772737545e-05)",,"[-0.026750000193715096, 0.05299999937415123, 0.03999999910593033]","[0.0, -0.0, 0.6579033304946226]","[-0.07077505439519882, 0.10997187346220016, 0.03999999910593033]","[0.0, 0.0, -0.18387348897538708]","[0.026750000193715096, 0.05299999937415123, 0.03999999910593033]","[0.0, 0.0, -0.6579033304946226]","[0.07077506184577942, 0.10997187346220016, 0.03999999910593033]","[0.0, -0.0, 0.1838725619548152]",0.6521129722580923,-1.3896792602157946,"(0.0, 0.0, 0.0, 0.0, 0.0, 0.0)",0.24306111081870946,-0.8475996296201711,-1.3974851219770965,"(0.0, 0.0, 0.0, 0.0, 0.0, 0.0)",0.033688362136148925,-0.6521130338105302,1.38968090161414,"(0.0, 0.0, 0.0, 0.0, 0.0, 0.0)",-0.24306162368353448,0.8475988626841415,1.3975055747236533,"(0.0, 0.0, 0.0, 0.0, 0.0, 0.0)",-0.03368862779939208,False,,,,,False,,,,
57,Close,,,"(9.31587620256511e-08, 0.16999906142715163, 0.0009013917798737923)","(1.570808471873919, 7.060557585400826e-05, -1.4003335136779464e-05)",,"[-0.026750000193715096, 0.05299999937415123, 0.03999999910593033]","[0.0, -0.0, 0.6521129301518677]","[-0.07044443488121033, 0.11022583395242691, 0.03999999910593033]","[0.0, 0.0, -0.19548665573955404]","[0.026750000193715096, 0.05299999937415123, 0.03999999910593033]","[0.0, 0.0, -0.6521129866161153]","[0.07044444233179092, 0.11022583395242691, 0.03999999910593033]","[0.0, -0.0, 0.19548582525750646]",0.646901675032283,-1.2507113341942153,"(0.0, 0.0, 0.0, 0.0, 0.0, 0.0)",0.2187779064062842,-0.8528401458571484,-1.2577238968745574,"(0.0, 0.0, 0.0, 0.0, 0.0, 0.0)",0.03033513071724496,-0.6469017304294772,1.2507128114527255,"(0.0, 0.0, 0.0, 0.0, 0.0, 0.0)",-0.2187783682505172,0.8528394556185027,1.2577423042466835,"(0.0, 0.0, 0.0, 0.0, 0.0, 0.0)",-0.03033537006280305,False,,,,,False,,,,
58,Close,,,"(8.555942447331213e-08, 0.16999906193915107, 0.000908421947674647)","(1.5708075491625393, 6.311807629477444e-05, -1.4000592203169427e-05)",,"[-0.026750000193715096, 0.05299999937415123, 0.03999999910593033]","[0.0, -0.0, 0.6469017074975589]","[-0.0701456218957901, 0.11045276373624802, 0.03999999910593033]","[0.0, 0.0, -0.20593848593871938]","[0.026750000193715096, 0.05299999937415123, 0.03999999910593033]","[0.0, 0.0, -0.6469017640113621]","[0.0701456293463707, 0.11045276373624802, 0.03999999910593033]","[0.0, -0.0, 0.2059377054983325]",0.6422115075290548,-1.1256402007747932,"(0.0, 0.0, 0.0, 0.0, 0.0, 0.0)",0.19691865600140895,-0.8575565627499749,-1.1319400542783593,"(0.0, 0.0, 0.0, 0.0, 0.0, 0.0)",0.027314243362735774,-0.6422115573865295,1.1256415303074527,"(0.0, 0.0, 0.0, 0.0, 0.0, 0.0)",-0.19691907187647334,0.8575559415385998,1.1319566208232932,"(0.0, 0.0, 0.0, 0.0, 0.0, 0.0)",-0.027314458975022625,False,,,,,False,,,,
59,Move,,,"(7.856146500561274e-08, 0.16999906237651882, 0.0009148896830877347)","(1.5708067003113224, 5.6229009009845055e-05, -1.399788300299107e-05)","[0.0, 0.0, 0.0]","[-0.026750000193715096, 0.05299999937415123, 0.03999999910593033]","[0.0, -0.0, 0.6422115222668433]","[-0.06987567991018295, 0.11065566539764404, 0.03999999910593033]","[0.0, 0.0, -0.21534502689171695]","[0.026750000193715096, 0.05299999937415123, 0.03999999910593033]","[0.0, 0.0, -0.6422115222668433]","[0.06987568736076355, 0.11065565794706345, 0.03999999910593033]","[0.0, -0.0, 0.2153443918565048]",0.6379903567761492,-1.0130761806973148,"(0.0, 0.0, 0.0, 0.0, 0.0, 0.0)",0.17724179525373857,-0.861801294967015,-1.0187357320896053,"(0.0, 0.0, 0.0, 0.0, 0.0, 0.0)",0.024593033118920006,-0.6379904016478766,1.0130773772767077,"(0.0, 0.0, 0.0, 0.0, 0.0, 0.0)",-0.1772421697155535,0.8618007358798453,1.0187506418989196,"(0.0, 0.0, 0.0, 0.0, 0.0, 0.0)",-0.024593227332916724,False,,,,,False,,,,
60,Move,,,"(7.401516452493873e-08, 0.16999906300717518, 0.0009208949427311885)","(1.5708059692049072, 5.171406878091127e-05, -1.3997173418156156e-05)","[-4.546300480674002e-09, 6.306563604674409e-10, 6.005259643453772e-06]","[-0.026750000193715096, 0.05299999937415123, 0.03999999910593033]","[0.0, -0.0, 0.6379903239810443]","[-0.06963192671537399, 0.1108371913433075, 0.03999999910593033]","[0.0, 0.0, -0.2238109552587812]","[0.026750000193715096, 0.05299999937415123, 0.03999999910593033]","[0.0, 0.0, -0.6379904179642307]","[0.06963192671537399, 0.1108371838927269, 0.03999999910593033]","[0.0, -0.0, 0.22381033482023305]",0.615110639462399,-5.491132155300077,"(0.0, 0.0, 0.0, 0.0, 0.0, 0.0)",-6.452665348763696,-0.8613763884842398,0.10197755586604229,"(0.0, 0.0, 0.0, 0.0, 0.0, 0.0)",-0.36782542138199165,-0.6151107211023208,5.491123330933392,"(0.0, 0.0, 0.0, 0.0, 0.0, 0.0)",6.4526488408560905,0.8613758231880564,-0.10197904602934349,"(0.0, 0.0, 0.0, 0.0, 0.0, 0.0)",0.36782252911949487,False,,,,,False,,,,
61,Move,,,"(6.525734425186348e-05, 0.17034549853437667, 0.001059997142676121)","(1.5643418998519334, 0.00019756355969089426, -0.0007979474479338168)","[6.517878278685787e-05, 0.00034643615785784343, 0.00014510745958838623]","[-0.026750000193715096, 0.05299999937415123, 0.03999999910593033]","[0.0, -0.0, 0.6151107619663475]","[-0.06829752027988434, 0.1118030920624733, 0.03999999910593033]","[0.0, 0.0, -0.24626574387408112]","[0.026750000193715096, 0.05299999937415123, 0.03999999910593033]","[0.0, 0.0, -0.6151107619663475]","[0.06829752773046494, 0.1118030920624733, 0.03999999910593033]","[0.0, -0.0, 0.24626510812228053]",0.59557520589455,-4.68850405628373,"(0.0, 0.0, 0.0, 0.0, 0.0, 0.0)",-45.004877301260535,-0.841587039207075,4.749443826519566,"(0.0, 0.0, 0.0, 0.0, 0.0, 0.0)",-23.059879711313982,-0.5955448471476087,4.6958097491309045,"(0.0, 0.0, 0.0, 0.0, 0.0, 0.0)",43.2331221848827,0.8422035798107438,-4.601338410555013,"(0.0, 0.0, 0.0, 0.0, 0.0, 0.0)",22.069611273367745,True,"(-0.03288698015965098, 0.18306432161630465, 0.039999948285931244)","(0.9999999985648672, -1.399717339714095e-05, -5.171406875791205e-05)",0.0009292587523792685,356.63318049990795,True,"(0.032887031061809374, 0.18306436848012048, 0.04000005171406876)","(-0.9999999985648671, 1.3997173395198976e-05, 5.171406875668148e-05)",0.0009247539911204204,342.7710504396539
62,Move,"(-0.0070999999999999995, 0.0, -0.0011)","(0.0, 0.12507378485641765, 0.0)","(0.00016176697229314485, 0.17076934431250207, 0.001298992481510786)","(1.553459115144406, 0.0004787126916021603, -0.0016283617000435679)","[0.00016168841082813925, 0.0007702819359832469, 0.0003841027984230513]","[-0.026750000193715096, 0.05299999937415123, 0.03999999910593033]","[0.0, -0.0, 0.5955751094143519]","[-0.06714092195034027, 0.11260347068309784, 0.03999999910593033]","[0.0, 0.0, -0.24601185159459507]","[0.026750000193715096, 0.05299999937415123, 0.03999999910593033]","[0.0, 0.0, -0.5955448282145998]","[0.06713911145925522, 0.11260469257831573, 0.03999999910593033]","[0.0, -0.0, 0.24665872904210193]",0.5770970782178444,-4.434750642409365,"(0.0, 0.0, 0.0, 0.0, 0.0, 0.0)",-74.21698749878065,-0.811850997818181,7.136649933334551,"(0.0, 0.0, 0.0, 0.0, 0.0, 0.0)",-37.92588619525253,-0.5770027641966642,4.450099908226674,"(0.0, 0.0, 0.0, 0.0, 0.0, 0.0)",71.59541053355323,0.8135423707664626,-6.878690170627483,"(0.0, 0.0, 0.0, 0.0, 0.0, 0.0)",36.485404729774935,True,"(-0.03174847742362094, 0.1838726496858637, 0.03999980243644159)","(0.9999996621242782, -0.0007979473476813144, -0.0001975635584110712)",-0.00012778812911608492,569.3446982775357,True,"(0.031700570614753176, 0.18385320841010633, 0.0400001975635584)","(-0.9999996621242783, 0.0007979473476767542, 0.0001975635584049517)",-0.0003431682129125587,549.2893233704585
63,Move,"(-0.0116, 0.0, -0.0009000000000000001)","(0.0, 0.14231763786612162, 0.0)","(9.1307064665816e-05, 0.17105262662523824, 0.001554808081396648)","(1.5457772423104266, -0.0017981483868449392, -0.0010101550786509692)","[9.122850320081038e-05, 0.001053564248719413, 0.0006399183983089134]","[-0.026750000193715096, 0.05299999937415123, 0.03999999910593033]","[0.0, -0.0, 0.5770971029289548]","[-0.06603273004293442, 0.11333960294723511, 0.03999999910593033]","[0.0, 0.0, -0.23475391897699402]","[0.026750000193715096, 0.05299999937415123, 0.03999999910593033]","[0.0, 0.0, -0.5770027543990871]","[0.06602703779935837, 0.11334330588579178, 0.03999999910593033]","[0.0, -0.0, 0.23653961426052006]",0.5802614822271583,0.7594569622353555,"(0.0, 0.0, 0.0, 0.0, 0.0, 0.0)",6.765248210808457,-0.8148246019570704,-0.7136649933334551,"(0.0, 0.0, 0.0, 0.0, 0.0, 0.0)",-0.2907275865352392,-0.5777743152285127,-0.1851722476436528,"(0.0, 0.0, 0.0, 0.0, 0.0, 0.0)",-4.595718680743438,0.8163711041018056,0.6788960004823128,"(0.0, 0.0, 0.0, 0.0, 0.0, 0.0)",1.1309326724870559,True,"(-0.03144479909141533, 0.18499061278782541, 0.039999521287326686)","(0.9999985596366134, -0.0016283607938474471, -0.0004787126733201028)",-0.00031179486038545077,0.0,True,"(0.0313112124765586, 0.1849374824167095, 0.040000478712673315)","(-0.9999985596366132, 0.0016283607938671909, 0.0004787126733090728)",-0.0008521962835819142,10.519831570328742
64,Move,"(-0.010199999999999999, 0.0, -0.0012)","(0.0, 0.1595161123152738, 0.0)","(-7.969281294822734e-05, 0.17125596958165856, 0.0017903472922070369)","(1.5409169117005137, -0.003875812116881189, 0.0008559003585703554)","[-7.977137441323295e-05, 0.00125690720513974, 0.0008754576091193021]","[-0.026750000193715096, 0.05299999937415123, 0.03999999910593033]","[0.0, -0.0, 0.580261476280081]","[-0.06622347235679626, 0.11321499198675156, 0.03999999910593033]","[0.0, 0.0, -0.2345631142209553]","[0.026750000193715096, 0.05299999937415123, 0.03999999910593033]","[0.0, 0.0, -0.5777743292911399]","[0.06607358157634735, 0.1133129820227623, 0.03999999910593033]","[0.0, -0.0, 0.23859677680043773]",0.5822433248096172,0.47564221979010884,"(0.0, 0.0, 0.0, 0.0, 0.0, 0.0)",-0.5072351441101368,-0.8142967719187976,0.12667920918549236,"(0.0, 0.0, 0.0, 0.0, 0.0, 0.0)",-0.046644144749540796,-0.5758257863331423,0.46764693488890197,"(0.0, 0.0, 0.0, 0.0, 0.0, 0.0)",2.4807408364998036,0.8158071609270764,-0.13534636193499405,"(0.0, 0.0, 0.0, 0.0, 0.0, 0.0)",0.9040191098075849,True,"(-0.03164921357835386, 0.1848730299454667, 0.04000179814741783)","(0.9999978731258518, -0.0010101532737783454, 0.0017981474178356304)",-0.0002747186841061688,1.3938014701624157,True,"(0.031210551926350097, 0.18483703097143078, 0.03999820185258216)","(-0.9999978731258518, 0.0010101532737879268, -0.001798147417836521)",-0.0007856179857484442,12.269692741706729
65,Move,"(-0.011800000000000001, 0.0, -0.0019)","(0.0, 0.16421802932014654, 0.0)","(-0.00023489675978183929, 0.17137313533004558, 0.0019077065427192637)","(1.5384492283671956, -0.004639592017511117, 0.002018133639059845)","[-0.0002349753212468449, 0.0013740729535267615, 0.000992816859631529]","[-0.026750000193715096, 0.05299999937415123, 0.03999999910593033]","[0.0, -0.0, 0.5822434103389712]","[-0.06634272634983063, 0.1131366416811943, 0.03999999910593033]","[0.0, 0.0, -0.23205344115931947]","[0.026750000193715096, 0.05299999937415123, 0.03999999910593033]","[0.0, 0.0, -0.5758258421281696]","[0.0659559890627861, 0.11338949203491211, 0.03999999910593033]","[0.0, -0.0, 0.23998139052478204]",0.5835430610306105,0.3119366930384062,"(0.0, 0.0, 0.0, 0.0, 0.0, 0.0)",-1.7570005980232466,-0.8135849626677559,0.17083422024999667,"(0.0, 0.0, 0.0, 0.0, 0.0, 0.0)",-0.9016078905756674,-0.57421874700773,0.3856894380989594,"(0.0, 0.0, 0.0, 0.0, 0.0, 0.0)",1.8206758164000563,0.8149425399900686,-0.20750902488187167,"(0.0, 0.0, 0.0, 0.0, 0.0, 0.0)",1.1018232344729326,True,"(-0.03194842466149475, 0.184880582225254, 0.04000387580241321)","(0.9999921227696813, 0.0008558938254570867, 0.003875802413202314)",-0.00025128768542742916,11.59152859290245,True,"(0.03099396422412362, 0.18486471870183074, 0.0399961241975868)","(-0.9999921227696813, -0.0008558938254469739, -0.0038758024132004194)",-0.0007268612393902633,14.847023797568452
66,Move,"(-0.0132, 0.0, -0.0019)","(0.0, 0.1595161123152738, 0.0)","(-0.0004532493547723212, 0.17143411001096498, 0.0019317622859749927)","(1.53849593316883, -0.004968778155088597, 0.0025941672047717908)","[-0.0004533279162373268, 0.0014350476344461571, 0.001016872602887258]","[-0.026750000193715096, 0.05299999937415123, 0.03999999910593033]","[0.0, -0.0, 0.583543095988202]","[-0.06642086058855057, 0.11308512836694717, 0.03999999910593033]","[0.0, 0.0, -0.2300419058810277]","[0.026750000193715096, 0.05299999937415123, 0.03999999910593033]","[0.0, 0.0, -0.5742187323340003]","[0.0658588856458664, 0.11345241963863373, 0.03999999910593033]","[0.0, -0.0, 0.24072380705357785]",0.5851458145217081,0.38466083786344063,"(0.0, 0.0, 0.0, 0.0, 0.0, 0.0)",-1.0552807391366947,-0.8129346191200378,0.15608245145235283,"(0.0, 0.0, 0.0, 0.0, 0.0, 0.0)",-0.6606831567062958,-0.5723048151334911,0.4593436498173406,"(0.0, 0.0, 0.0, 0.0, 0.0, 0.0)",2.4600376153113275,0.8141441253439458,-0.19161951506948724,"(0.0, 0.0, 0.0, 0.0, 0.0, 0.0)",1.3320740375165143,True,"(-0.03217093983154656, 0.18489726254236105, 0.04000463957537236)","(0.9999872007031788, 0.0020181105481923067, 0.004639575372358431)",-0.0002284116519538621,8.826586713669592,True,"(0.03084381448099558, 0.18490125030877028, 0.03999536042462763)","(-0.9999872007031787, -0.0020181105481907923, -0.004639575372365124)",-0.0006776739611759627,17.88054733282351
67,Move,"(-0.014199999999999999, 0.0, -0.0025)","(0.0, 0.15092211107845369, 0.0)","(-0.0007281267000782852, 0.17150053576935725, 0.001911541061294963)","(1.5398212806376965, -0.005051703165880895, 0.0030079985618296397)","[-0.0007282052615432908, 0.0015014733928384316, 0.0009966513782072282]","[-0.026750000193715096, 0.05299999937415123, 0.03999999910593033]","[0.0, -0.0, 0.5851458548102004]","[-0.06651710718870163, 0.11302147060632706, 0.03999999910593033]","[0.0, 0.0, -0.2277888093790493]","[0.026750000193715096, 0.05299999937415123, 0.03999999910593033]","[0.0, 0.0, -0.5723047717944773]","[0.06574311852455139, 0.11352715641260147, 0.03999999910593033]","[0.0, -0.0, 0.24183930681103694]",0.5870588148504731,0.4591200789036022,"(0.0, 0.0, 0.0, 0.0, 0.0, 0.0)",-1.008289299317099,-0.8123226940016319,0.14686202841741253,"(0.0, 0.0, 0.0, 0.0, 0.0, 0.0)",-0.5744658583232685,-0.570169352829858,0.5125109528719322,"(0.0, 0.0, 0.0, 0.0, 0.0, 0.0)",2.024888129246513,0.8135649443851171,-0.1390034301188888,"(0.0, 0.0, 0.0, 0.0, 0.0, 0.0)",1.0552477425299376,True,"(-0.032429072812170695, 0.18490891179841074, 0.04000496875770962)","(0.999984290838901, 0.002594132271827733, 0.0049687577096153585)",-0.00020881000110417377,8.446430574647264,True,"(0.030648360546884218, 0.18493742640330155, 0.03999503124229037)","(-0.9999842908389007, -0.002594132271852889, -0.004968757709630372)",-0.0006347213174144538,14.708532806134938
68,Move,"(-0.0157, 0.0, -0.004200000000000001)","(0.0, 0.1469584683471746, 0.0)","(-0.001021463715754964, 0.17158870586684516, 0.0018703621190203643)","(1.5419486616886415, -0.005283524309727386, 0.003504750489105615)","[-0.0010215422772199697, 0.0015896434903263368, 0.0009554724359326296]","[-0.026750000193715096, 0.05299999937415123, 0.03999999910593033]","[0.0, -0.0, 0.58705883626112]","[-0.06663185358047485, 0.11294528841972351, 0.03999999910593033]","[0.0, 0.0, -0.22526388441307788]","[0.026750000193715096, 0.05299999937415123, 0.03999999910593033]","[0.0, 0.0, -0.5701694102311575]","[0.0656137689948082, 0.11361028999090195, 0.03999999910593033]","[0.0, -0.0, 0.2433955805396982]",0.5890852781278991,0.4863511865822556,"(0.0, 0.0, 0.0, 0.0, 0.0, 0.0)",-1.393285765102113,-0.8115976869852527,0.17400168393100346,"(0.0, 0.0, 0.0, 0.0, 0.0, 0.0)",-0.7499144831882485,-0.5678173061184849,0.5644912107295446,"(0.0, 0.0, 0.0, 0.0, 0.0, 0.0)",1.8433059121075532,0.8129955490725163,-0.13665487502418605,"(0.0, 0.0, 0.0, 0.0, 0.0, 0.0)",0.9288765682660158,True,"(-0.032725431802525254, 0.1849164569822943, 0.04000505168167958)","(0.9999827162081605, 0.003007955644263396, 0.005051681679579769)",-0.0001960379067419482,10.870220064660428,True,"(0.030407922674762687, 0.18496699532113595, 0.039994948318320414)","(-0.9999827162081603, -0.0030079556442712107, -0.005051681679583513)",-0.0005915961991826154,13.34382342550495
69,Move,"(-0.017, 0.0, -0.0054)","(0.0, 0.13830861657429064, 0.0)","(-0.0013349600792018634, 0.17170819303549903, 0.001820275824506133)","(1.5445972647598631, -0.005770541075840633, 0.004216408810601123)","[-0.0013350386406668691, 0.0017091306589802069, 0.0009053861414183983]","[-0.026750000193715096, 0.05299999937415123, 0.03999999910593033]","[0.0, -0.0, 0.5890853184127364]","[-0.06675325334072113, 0.11286434531211853, 0.03999999910593033]","[0.0, 0.0, -0.22251243826533787]","[0.026750000193715096, 0.05299999937415123, 0.03999999910593033]","[0.0, 0.0, -0.5678172766862553]","[0.0654711052775383, 0.11370152980089188, 0.03999999910593033]","[0.0, -0.0, 0.24517824053401277]",0.5911572597235768,0.49727558296264607,"(0.0, 0.0, 0.0, 0.0, 0.0, 0.0)",-2.1776335602019836,-0.8105296591021325,0.25632669194884555,"(0.0, 0.0, 0.0, 0.0, 0.0, 0.0)",-1.1555781226318653,-0.5650097257786614,0.6738192815576537,"(0.0, 0.0, 0.0, 0.0, 0.0, 0.0)",2.573578074075433,0.8121234449630316,-0.20930498627631708,"(0.0, 0.0, 0.0, 0.0, 0.0, 0.0)",1.2762328352974037,True,"(-0.03304497213910175, 0.18492628013713883, 0.040005283499727616)","(0.9999799006719191, 0.0035046943956982507, 0.005283499727617418)",-0.00018536438496082617,16.674439534122133,True,"(0.03013810481442908, 0.18499664976510868, 0.03999471650027238)","(-0.999979900671919, -0.0035046943957001446, -0.005283499727616978)",-0.0005526361831607484,18.289532519462043
70,Move,"(-0.0182, 0.0, -0.006900000000000001)","(0.0, 0.12965178348439882, 0.0)","(-0.0016646980391865959, 0.17185325927346637, 0.001761291541333557)","(1.5477642999149834, -0.0063283779864847295, 0.004905468441937104)","[-0.0016647766006516016, 0.0018541968969475464, 0.0008464018582458224]","[-0.026750000193715096, 0.05299999937415123, 0.03999999910593033]","[0.0, -0.0, 0.5911572402858023]","[-0.06687720119953156, 0.1127813309431076, 0.03999999910593033]","[0.0, 0.0, -0.21937238246558854]","[0.026750000193715096, 0.05299999937415123, 0.03999999910593033]","[0.0, 0.0, -0.5650098161126176]","[0.06530053168535233, 0.11381000280380249, 0.03999999910593033]","[0.0, -0.0, 0.24711371185780295]",0.5933271554795865,0.5207749814423182,"(0.0, 0.0, 0.0, 0.0, 0.0, 0.0)",-2.647875453893951,-0.8093723615822399,0.2777514047742128,"(0.0, 0.0, 0.0, 0.0, 0.0, 0.0)",-1.4277614438483597,-0.5618847878906282,0.7499850931279521,"(0.0, 0.0, 0.0, 0.0, 0.0, 0.0)",2.9135537456591485,0.8110869056579045,-0.24876943323049794,"(0.0, 0.0, 0.0, 0.0, 0.0, 0.0)",1.498637739825843,True,"(-0.033395354469593616, 0.1849463262910071, 0.040005770509050215)","(0.9999744615835858, 0.004216326116321549, 0.005770509050212352)",-0.000176589599731955,20.332841233839474,True,"(0.029829601044817036, 0.18503782711755945, 0.03999422949094978)","(-0.9999744615835857, -0.004216326116316891, -0.0057705090502149945)",-0.0005197487288853851,21.210625859579608
71,Move,"(-0.02, 0.0, -0.0085)","(0.0, 0.11230670137807913, 0.0)","(-0.002015644576250754, 0.17202973519298972, 0.001703780287499047)","(1.5514043358078982, -0.006658126073792768, 0.005616046112571444)","[-0.00201572313771576, 0.002030672816470902, 0.0007888906044113122]","[-0.026750000193715096, 0.05299999937415123, 0.03999999910593033]","[0.0, -0.0, 0.5933271861763932]","[-0.06700682640075684, 0.11269412189722061, 0.03999999910593033]","[0.0, 0.0, -0.2160452314521088]","[0.026750000193715096, 0.05299999937415123, 0.03999999910593033]","[0.0, 0.0, -0.5618848090929864]","[0.06511031836271286, 0.11393017321825027, 0.03999999910593033]","[0.0, -0.0, 0.24920211463943157]",0.5955159825781025,0.5253185036438258,"(0.0, 0.0, 0.0, 0.0, 0.0, 0.0)",-3.239064465174128,-0.8081046371538902,0.30425386280390787,"(0.0, 0.0, 0.0, 0.0, 0.0, 0.0)",-1.7319791597343601,-0.5584263474188829,0.8300257132188809,"(0.0, 0.0, 0.0, 0.0, 0.0, 0.0)",3.514499014091587,0.8096641853206464,-0.3414528809419488,"(0.0, 0.0, 0.0, 0.0, 0.0, 0.0)",1.8106314380926989,True,"(-0.03376525787877232, 0.18496747665401825, 0.040006328335746376)","(0.9999679443375937, 0.004905350540790554, 0.006328335746368686)",-0.00016682562069130584,24.599625096330254,True,"(0.029490706547019054, 0.18508516462110483, 0.03999367166425364)","(-0.999967944337594, -0.00490535054079216, -0.006328335746354782)",-0.0004987388378533383,25.751944097640397
72,Move,"(-0.0209, 0.0, -0.0111)","(0.0, 0.08624544498729982, 0.0)","(-0.002416306359324954, 0.1722362755718541, 0.0016472989847223594)","(1.5555249530649755, -0.006777995680944124, 0.0062907511511178325)","[-0.0024163849207899596, 0.0022372131953352914, 0.0007324093016346247]","[-0.026750000193715096, 0.05299999937415123, 0.03999999910593033]","[0.0, -0.0, 0.5955159974885991]","[-0.06713739037513733, 0.11260586231946945, 0.03999999910593033]","[0.0, 0.0, -0.21258864571307037]","[0.026750000193715096, 0.05299999937415123, 0.03999999910593033]","[0.0, 0.0, -0.558426394185815]","[0.06489936262369156, 0.11406248062849045, 0.03999999910593033]","[0.0, -0.0, 0.2512378498475307]",0.5978897198648906,0.5696969488291448,"(0.0, 0.0, 0.0, 0.0, 0.0, 0.0)",-3.6789447829357917,-0.806640178085845,0.35147017633086025,"(0.0, 0.0, 0.0, 0.0, 0.0, 0.0)",-1.989112576852816,-0.5544736755935878,0.9486412380708008,"(0.0, 0.0, 0.0, 0.0, 0.0, 0.0)",4.288730436708377,0.8079578299990581,-0.4095252771812026,"(0.0, 0.0, 0.0, 0.0, 0.0, 0.0)",2.2155633218579798,True,"(-0.034145819063471944, 0.1849909418485301, 0.04000665807688073)","(0.9999620651645003, 0.005615892110606696, 0.006658076880729636)",-0.00015885579771919317,28.375608829858812,True,"(0.029134970256473866, 0.18514613299450294, 0.039993341923119256)","(-0.9999620651645001, -0.0056158921106064, -0.006658076880740022)",-0.00048197092947291375,31.16608106148568
73,Move,"(-0.0247, 0.0, -0.012400000000000001)","(0.0, 0.06015975398699254, 0.0)","(-0.002851699043597424, 0.17247559061671036, 0.001588566543305429)","(1.5600513217650018, -0.006788079824493932, 0.0067714554822887)","[-0.0028517776050624296, 0.002476528240191539, 0.0006736768602176944]","[-0.026750000193715096, 0.05299999937415123, 0.03999999910593033]","[0.0, -0.0, 0.5978896976413944]","[-0.06727876514196396, 0.1125098243355751, 0.03999999910593033]","[0.0, 0.0, -0.2087504713077536]","[0.026750000193715096, 0.05299999937415123, 0.03999999910593033]","[0.0, 0.0, -0.5544737155106183]","[0.06465770304203033, 0.11421278864145279, 0.03999999910593033]","[0.0, -0.0, 0.2534841861731723]",0.6001451663690827,0.5413071610060929,"(0.0, 0.0, 0.0, 0.0, 0.0, 0.0)",-4.862413293006214,-0.8045977578605034,0.4901808540819832,"(0.0, 0.0, 0.0, 0.0, 0.0, 0.0)",-2.5851925791695507,-0.5500936441180202,1.0512075541362242,"(0.0, 0.0, 0.0, 0.0, 0.0, 0.0)",5.2391116820392245,0.805932879263967,-0.48598817642185943,"(0.0, 0.0, 0.0, 0.0, 0.0, 0.0)",2.728792964438655,True,"(-0.034565240186279336, 0.1850178362691489, 0.04000677794378283)","(0.9999572432199569, 0.006290565159074433, 0.0067779437828248456)",-0.0001528415790425959,36.58936688054546,True,"(0.02873371659785226, 0.18521750162773157, 0.03999322205621718)","(-0.999957243219957, -0.00629056515906574, -0.006777943782821587)",-0.0004697423470552078,38.51526100291605
74,Move,"(-0.0251, 0.0, -0.0156)","(0.0, 0.03408628029144926, 0.0)","(-0.0033844970704063997, 0.1727387143274112, 0.00152413951277011)","(1.565092297246496, -0.006802992274711891, 0.007437079043788812)","[-0.0033845756318714054, 0.0027396519508923745, 0.0006092498296823754]","[-0.026750000193715096, 0.05299999937415123, 0.03999999910593033]","[0.0, -0.0, 0.6001451927950016]","[-0.06741288304328918, 0.1124182641506195, 0.03999999910593033]","[0.0, 0.0, -0.20445259127291046]","[0.026750000193715096, 0.05299999937415123, 0.03999999910593033]","[0.0, 0.0, -0.5500936313985335]","[0.06438922882080078, 0.11437824368476868, 0.03999999910593033]","[0.0, -0.0, 0.2558392221092007]",0.6030602725133077,0.6996254746140101,"(0.0, 0.0, 0.0, 0.0, 0.0, 0.0)",-4.945680839506676,-0.8024060900699765,0.5260002697264302,"(0.0, 0.0, 0.0, 0.0, 0.0, 0.0)",-2.7621165451759158,-0.5447935606866955,1.2720200235179355,"(0.0, 0.0, 0.0, 0.0, 0.0, 0.0)",6.236112703872583,0.803637697861692,-0.5508435365459916,"(0.0, 0.0, 0.0, 0.0, 0.0, 0.0)",3.2063480154399544,True,"(-0.03501125609853144, 0.18506238586046592, 0.04000678802769439)","(0.9999540353857376, 0.006771247728388387, 0.00678802769438807)",-0.00014793259558899181,39.192873703126935,True,"(0.0282981034515603, 0.1853000244177206, 0.0399932119723056)","(-0.9999540353857375, -0.006771247728395168, -0.006788027694401782)",-0.00046409926727071304,44.73289212951908
75,Move,"(-0.0268, 0.0, -0.018000000000000002)","(0.0, 0.01672374489260967, 0.0)","(-0.003920664797627748, 0.17303557240803308, 0.0014560574043396366)","(1.5704868159876997, -0.0068126652468973635, 0.007988321002576258)","[-0.003920743359092753, 0.0030365100315142557, 0.0005411677212519019]","[-0.026750000193715096, 0.05299999937415123, 0.03999999910593033]","[0.0, -0.0, 0.6030602669580641]","[-0.06758592277765274, 0.11229947209358215, 0.03999999910593033]","[0.0, 0.0, -0.19934583359364874]","[0.026750000193715096, 0.05299999937415123, 0.03999999910593033]","[0.0, 0.0, -0.5447935983501303]","[0.06406339257955551, 0.11457686871290207, 0.03999999910593033]","[0.0, -0.0, 0.2588441980228186]",0.6055836818370508,0.6056182376983221,"(0.0, 0.0, 0.0, 0.0, 0.0, 0.0)",-7.039528337403896,-0.799518131834491,0.693109976516509,"(0.0, 0.0, 0.0, 0.0, 0.0, 0.0)",-3.7571446435896743,-0.539146341477495,1.3553326102081342,"(0.0, 0.0, 0.0, 0.0, 0.0, 0.0)",7.060195233560476,0.8008427900710153,-0.6707778697623963,"(0.0, 0.0, 0.0, 0.0, 0.0, 0.0)",3.690617298432743,True,"(-0.035555648840607634, 0.18510367592755556, 0.04000680293980029)","(0.9999492054323589, 0.0074368383919495625, 0.006802939800284294)",-0.0001442330021159981,52.3366257858324,True,"(0.02775929673717517, 0.18539222126709481, 0.03999319706019972)","(-0.999949205432359, -0.007436838391953204, -0.006802939800280223)",-0.00046198254786954985,52.455494619194454
76,Move,"(-0.0272, 0.0, -0.0211)","(0.0, 0.004593706591249077, 0.0)","(-0.00449160774759964, 0.17336134786807925, 0.0013839918545124456)","(1.576292732515685, -0.006822997193208529, 0.008583041578361721)","[-0.004491686309064645, 0.003362285491560424, 0.0004691021714247109]","[-0.026750000193715096, 0.05299999937415123, 0.03999999910593033]","[0.0, -0.0, 0.6055836804154865]","[-0.06773542612791061, 0.11219623684883118, 0.03999999910593033]","[0.0, 0.0, -0.19393446170675674]","[0.026750000193715096, 0.05299999937415123, 0.03999999910593033]","[0.0, 0.0, -0.5391463502504745]","[0.06371506303548813, 0.11478660255670547, 0.03999999910593033]","[0.0, -0.0, 0.2616965134170978]",0.6081136027463624,0.6071810182347841,"(0.0, 0.0, 0.0, 0.0, 0.0, 0.0)",-7.9245732454958056,-0.7961944146861997,0.7976921155899195,"(0.0, 0.0, 0.0, 0.0, 0.0, 0.0)",-4.316189570202603,-0.5329559098304127,1.4857035952997337,"(0.0, 0.0, 0.0, 0.0, 0.0, 0.0)",8.390830847040794,0.7976021665964765,-0.7777496338893107,"(0.0, 0.0, 0.0, 0.0, 0.0, 0.0)",4.378241390357677,True,"(-0.03609954229229612, 0.18516784252553883, 0.04000681261254831)","(0.9999448881597484, 0.007988050666775149, 0.0068126125483151416)",-0.00014243967834872133,60.00792542093332,True,"(0.027209105079416887, 0.18550041758533717, 0.039993187387451674)","(-0.9999448881597482, -0.0079880506667814, -0.006812612548325141)",-0.0004698365805116347,61.93688724439425
77,Move,"(-0.024399999999999998, 0.0, -0.024300000000000002)","(0.0, 0.025689501260104535, 0.0)","(-0.005041306729981289, 0.17349228390836308, 0.0013802441892908387)","(1.5765376028013895, -0.006815052609235676, 0.00944319707364816)","[-0.005041385291446294, 0.003493221531844254, 0.00046535450620310403]","[-0.026750000193715096, 0.05299999937415123, 0.03999999910593033]","[0.0, -0.0, 0.6081136290708925]","[-0.06788505613803864, 0.11209236085414886, 0.03999999910593033]","[0.0, 0.0, -0.18808081343884303]","[0.026750000193715096, 0.05299999937415123, 0.03999999910593033]","[0.0, 0.0, -0.5329558947150246]","[0.06333187222480774, 0.11501424759626389, 0.03999999910593033]","[0.0, -0.0, 0.264646254043097]",0.6102443329068349,0.5113752385134107,"(0.0, 0.0, 0.0, 0.0, 0.0, 0.0)",-8.805225868826293,-0.7924080505570613,0.9087273909931955,"(0.0, 0.0, 0.0, 0.0, 0.0, 0.0)",-4.548465131276581,-0.5264724038425501,1.5560414370870423,"(0.0, 0.0, 0.0, 0.0, 0.0, 0.0)",10.409432911023533,0.793600639847652,-0.9603664197179139,"(0.0, 0.0, 0.0, 0.0, 0.0, 0.0)",6.040304721876821,True,"(-0.03667680279805647, 0.18524263862529827, 0.0400068229442545)","(0.9999398902270805, 0.008582736414123712, 0.006822944254497652)",-0.00014223419339490242,65.06956159469772,True,"(0.026617457528815988, 0.1856224237892104, 0.039993177055745496)","(-0.9999398902270804, -0.008582736414115999, -0.006822944254507434)",-0.0004841419700903233,77.97931743186513
78,Move,"(-0.029, 0.0, -0.026600000000000002)","(0.0, 0.034222415973104825, 0.0)","(-0.005497127904865009, 0.17363141162481266, 0.0013794674901215082)","(1.5765161492599782, -0.006798911908861485, 0.009887848179685946)","[-0.005497206466330015, 0.003632349248293837, 0.00046457780703377345]","[-0.026750000193715096, 0.05299999937415123, 0.03999999910593033]","[0.0, -0.0, 0.6102443303992825]","[-0.06801087409257889, 0.11200457811355591, 0.03999999910593033]","[0.0, 0.0, -0.18216372059984967]","[0.026750000193715096, 0.05299999937415123, 0.03999999910593033]","[0.0, 0.0, -0.5264724886183036]","[0.06292903423309326, 0.1152501180768013, 0.03999999910593033]","[0.0, -0.0, 0.2671282508355627]",0.6112324687264458,0.2371525967066141,"(0.0, 0.0, 0.0, 0.0, 0.0, 0.0)",-11.309990518368723,-0.7879398245976031,1.0723742302699588,"(0.0, 0.0, 0.0, 0.0, 0.0, 0.0)",-6.014795220435975,-0.5205458847500558,1.4223645821986244,"(0.0, 0.0, 0.0, 0.0, 0.0, 0.0)",10.213308519087748,0.7893745481197686,-1.0142620146919945,"(0.0, 0.0, 0.0, 0.0, 0.0, 0.0)",5.530383923084003,True,"(-0.03723593951099945, 0.18533318093870904, 0.040006814999855235)","(0.9999321920001015, 0.009442837436117364, 0.0068149998552403165)",-0.00014260120165661327,82.45552757684864,True,"(0.026039470281428945, 0.18576857739225833, 0.03999318500014476)","(-0.9999321920001017, -0.009442837436101902, -0.006814999855245401)",-0.0005022594729722505,78.39098412541155
79,Move,"(-0.0291, 0.0, -0.028100000000000003)","(0.0, 0.04274660403984511, 0.0)","(-0.006066135054909129, 0.1737794937524091, 0.0013785928083336714)","(1.5764953094454655, -0.006782345694942804, 0.010485593032784313)","[-0.006066213616374134, 0.003780431375890264, 0.00046370312524593666]","[-0.026750000193715096, 0.05299999937415123, 0.03999999910593033]","[0.0, -0.0, 0.6112324882741722]","[-0.06806915998458862, 0.11196377873420715, 0.03999999910593033]","[0.0, 0.0, -0.1767073645042578]","[0.026750000193715096, 0.05299999937415123, 0.03999999910593033]","[0.0, 0.0, -0.520545918471124]","[0.06255947053432465, 0.11546344310045242, 0.03999999910593033]","[0.0, -0.0, 0.26882866953820767]",0.6128376557632003,0.38524488882109204,"(0.0, 0.0, 0.0, 0.0, 0.0, 0.0)",-11.11504480044874,-0.7830472109761574,1.1742272691469784,"(0.0, 0.0, 0.0, 0.0, 0.0, 0.0)",-6.158920187407968,-0.5134815445516957,1.6954416476064134,"(0.0, 0.0, 0.0, 0.0, 0.0, 0.0)",12.742942299398164,0.7846835171189347,-1.125847440200145,"(0.0, 0.0, 0.0, 0.0, 0.0, 0.0)",6.645815849895326,True,"(-0.037694725189685876, 0.18545419637379962, 0.0400067988595288)","(0.9999280042447737, 0.009887458529447193, 0.006798859528801157)",-0.0001442390881542279,85.47292298785248,True,"(0.025550039104574894, 0.18592032437878517, 0.03999320114047118)","(-0.9999280042447737, -0.00988745852944825, -0.006798859528812187)",-0.0005310319773791104,92.93362346876016
80,Move,"(-0.029500000000000002, 0.0, -0.0294)","(0.0, 0.047499135593025675, 0.0)","(-0.006610452987630512, 0.17393344950695014, 0.001377590992659118)","(1.5764786379113034, -0.006764500134443653, 0.01102571771978195)","[-0.0066105315490955175, 0.003934387130431316, 0.0004627013095713833]","[-0.026750000193715096, 0.05299999937415123, 0.03999999910593033]","[0.0, -0.0, 0.612837631129682]","[-0.06816375255584717, 0.11189737915992737, 0.03999999910593033]","[0.0, 0.0, -0.17020957531834188]","[0.026750000193715096, 0.05299999937415123, 0.03999999910593033]","[0.0, 0.0, -0.5134815418202663]","[0.0621173195540905, 0.11571485549211502, 0.03999999910593033]","[0.0, -0.0, 0.2712019457136367]",0.6141073958745568,0.3047376267255675,"(0.0, 0.0, 0.0, 0.0, 0.0, 0.0)",-12.505475249651688,-0.7779169334664088,1.2312666023396657,"(0.0, 0.0, 0.0, 0.0, 0.0, 0.0)",-6.828756315257074,-0.5065121362555275,1.6726579910803665,"(0.0, 0.0, 0.0, 0.0, 0.0, 0.0)",12.339465431574224,0.779801655955638,-1.171646679191215,"(0.0, 0.0, 0.0, 0.0, 0.0, 0.0)",6.575962773365921,True,"(-0.03826740438457498, 0.18557771028331388, 0.040006782293696835)","(0.9999220279190525, 0.010485159725025315, 0.006782293696838108)",-0.00014693456995748067,93.36308789348358,True,"(0.024940754352039032, 0.18608547619741256, 0.03999321770630315)","(-0.9999220279190523, -0.010485159725033753, -0.006782293696845804)",-0.0005646015349629524,92.95785727481491
81,Move,"(-0.0294, 0.0, -0.0298)","(0.0, 0.047499135593025675, 0.0)","(-0.007146115918823328, 0.17409202193506054, 0.00137655167238022)","(1.5764603769817709, -0.00674596251000716, 0.011541855310246948)","[-0.007146194480288333, 0.00409295955854172, 0.0004616619892924853]","[-0.026750000193715096, 0.05299999937415123, 0.03999999910593033]","[0.0, -0.0, 0.6141074005056733]","[-0.0682385042309761, 0.1118447408080101, 0.03999999910593033]","[0.0, 0.0, -0.1638095296807817]","[0.026750000193715096, 0.05299999937415123, 0.03999999910593033]","[0.0, 0.0, -0.506512176088373]","[0.061679378151893616, 0.11595981568098068, 0.03999999910593033]","[0.0, -0.0, 0.2732895151077044]",0.615180085849381,0.257445593957829,"(0.0, 0.0, 0.0, 0.0, 0.0, 0.0)",-12.909147152066033,-0.7725729802438592,1.2825487734118806,"(0.0, 0.0, 0.0, 0.0, 0.0, 0.0)",-7.079151159550973,-0.49951744193792386,1.6787266362248765,"(0.0, 0.0, 0.0, 0.0, 0.0, 0.0)",12.962284829218953,0.7747266268095381,-1.2180069950639818,"(0.0, 0.0, 0.0, 0.0, 0.0, 0.0)",6.880236939646609,True,"(-0.038814237939935284, 0.18570904581903042, 0.0400067644485457)","(0.9999163396370088, 0.01102524207438066, 0.0067644485456984475)",-0.00015004227293116218,96.65245094386232,True,"(0.02435597428005202, 0.18625422655798157, 0.0399932355514543)","(-0.9999163396370088, -0.011025242074375479, -0.006764448545694692)",-0.0005991094934346855,97.1935734551322
82,Move,"(-0.029500000000000002, 0.0, -0.0299)","(0.0, 0.052286573731246115, 0.0)","(-0.007665545948605342, 0.17424925218021356, 0.0013754699240536843)","(1.576443806183722, -0.00672704413785801, 0.012027250081946392)","[-0.007665624510070347, 0.004250189803694737, 0.0004605802409659496]","[-0.026750000193715096, 0.05299999937415123, 0.03999999910593033]","[0.0, -0.0, 0.6151800357969798]","[-0.06830160319805145, 0.11180020868778229, 0.03999999910593033]","[0.0, 0.0, -0.1573928909103455]","[0.026750000193715096, 0.05299999937415123, 0.03999999910593033]","[0.0, 0.0, -0.49951742463199017]","[0.06123814359307289, 0.11620259284973145, 0.03999999910593033]","[0.0, -0.0, 0.27520917071512635]",0.6161038132052704,0.2216945654134692,"(0.0, 0.0, 0.0, 0.0, 0.0, 0.0)",-13.010460119734775,-0.7671979565537606,1.2900056856236963,"(0.0, 0.0, 0.0, 0.0, 0.0, 0.0)",-7.158603202092148,-0.4926691184738071,1.6435976313880107,"(0.0, 0.0, 0.0, 0.0, 0.0, 0.0)",12.983126451230879,0.7696378106671712,-1.2213158741680512,"(0.0, 0.0, 0.0, 0.0, 0.0, 0.0)",6.913419115065261,True,"(-0.03935181395449, 0.1858458910421086, 0.04000674591134423)","(0.9999106411241713, 0.011541336438415215, 0.006745911344235693)",-0.00015343024144998143,97.40149479273543,True,"(0.02377984854643314, 0.1864266301960522, 0.03999325408865577)","(-0.9999106411241712, -0.01154133643841511, -0.0067459113442316)",-0.0006339355182598326,97.63271971243998
83,Move,"(-0.0253, 0.0, -0.03270000000000001)","(0.0, 0.060845668383026325, 0.0)","(-0.008172757579829971, 0.17440369630272848, 0.0013743726480967666)","(1.5764276219574653, -0.006707896157470395, 0.01248898224721427)","[-0.008172836141294977, 0.004404633926209656, 0.0004594829650090319]","[-0.026750000193715096, 0.05299999937415123, 0.03999999910593033]","[0.0, -0.0, 0.6161038425928901]","[-0.06835590302944183, 0.11176180094480515, 0.03999999910593033]","[0.0, 0.0, -0.15109415403202464]","[0.026750000193715096, 0.05299999937415123, 0.03999999910593033]","[0.0, 0.0, -0.4926690882655249]","[0.06080450490117073, 0.11643729358911514, 0.03999999910593033]","[0.0, -0.0, 0.2769686882322604]",0.61693335890638,0.1990909682663125,"(0.0, 0.0, 0.0, 0.0, 0.0, 0.0)",-12.947139304574216,-0.7618321160792842,1.2878017138743045,"(0.0, 0.0, 0.0, 0.0, 0.0, 0.0)",-7.140182863064666,-0.48595906770624236,1.6104121842155366,"(0.0, 0.0, 0.0, 0.0, 0.0, 0.0)",12.979134483738777,0.7645712053603435,-1.2159852736386512,"(0.0, 0.0, 0.0, 0.0, 0.0, 0.0)",6.900539384933658,True,"(-0.039872991169376204, 0.18598254850389462, 0.04000672699340135)","(0.9999050486600081, 0.012026687989853084, 0.006726993401351713)",-0.00015659701346000524,96.94921564984254,True,"(0.023222693463102642, 0.1865965894013032, 0.03999327300659865)","(-0.9999050486600081, -0.012026687989844792, -0.006726993401349644)",-0.000666413378020579,97.44285221813293
84,Move,"(-0.024, 0.0, -0.0324)","(0.0, 0.0730402838667107, 0.0)","(-0.008539062025495878, 0.1745797280621572, 0.0013731852662057478)","(1.5764078773350623, -0.006686388475223409, 0.01274445947553411)","[-0.008539140586960883, 0.004580665685638391, 0.00045829558311801313]","[-0.026750000193715096, 0.05299999937415123, 0.03999999910593033]","[0.0, -0.0, 0.6169334097662075]","[-0.06840462982654572, 0.1117272675037384, 0.03999999910593033]","[0.0, 0.0, -0.14489875771524954]","[0.026750000193715096, 0.05299999937415123, 0.03999999910593033]","[0.0, 0.0, -0.4859590717691278]","[0.060378074645996094, 0.11666437238454819, 0.03999999910593033]","[0.0, -0.0, 0.27861214440814114]",0.6164130009191604,-0.12488591693270643,"(0.0, 0.0, 0.0, 0.0, 0.0, 0.0)",-14.813319622543041,-0.7560037445010034,1.3988091787874077,"(0.0, 0.0, 0.0, 0.0, 0.0, 0.0)",-8.004839149831412,-0.4801020153246565,1.4056925715806066,"(0.0, 0.0, 0.0, 0.0, 0.0, 0.0)",13.095930342162875,0.7591172642372341,-1.3089458695462388,"(0.0, 0.0, 0.0, 0.0, 0.0, 0.0)",6.9748383024735245,True,"(-0.04038200416814198, 0.18611731855532007, 0.04000670784585297)","(0.9998995175783344, 0.012488376620953484, 0.006707845852976346)",-0.0001594129392991439,107.68664501464124,True,"(0.022680994780996375, 0.1867629902397839, 0.039993292154147014)","(-0.9998995175783344, -0.012488376620948632, -0.006707845852982853)",-0.0006959498111988878,100.15900758470167
85,Move,"(-0.027800000000000002, 0.0, -0.0332)","(0.0, 0.08151385738514316, 0.0)","(-0.00886043351167537, 0.1747514622180723, 0.0013720184236052427)","(1.5763899600054516, -0.006665798508497854, 0.01296903432405841)","[-0.008860512073140375, 0.004752399841553484, 0.000457128740517508]","[-0.026750000193715096, 0.05299999937415123, 0.03999999910593033]","[0.0, -0.0, 0.6164130811180464]","[-0.06837406754493713, 0.11174893379211426, 0.03999999910593033]","[0.0, 0.0, -0.13959076227975648]","[0.026750000193715096, 0.05299999937415123, 0.03999999910593033]","[0.0, 0.0, -0.4801019985348288]","[0.06000461429357529, 0.11686024069786072, 0.03999999910593033]","[0.0, -0.0, 0.27901525914087766]",0.6156442763140588,-0.1844939052243687,"(0.0, 0.0, 0.0, 0.0, 0.0, 0.0)",-13.843001029893777,-0.75033912617301,1.3595083987184033,"(0.0, 0.0, 0.0, 0.0, 0.0, 0.0)",-7.636699160896814,-0.47469524075162306,1.297625897528029,"(0.0, 0.0, 0.0, 0.0, 0.0, 0.0)",13.445753867236453,0.7537955412286869,-1.277213522051355,"(0.0, 0.0, 0.0, 0.0, 0.0, 0.0)",7.1595369498873875,True,"(-0.04074661836474793, 0.18628162992226788, 0.04000668633865307)","(0.9998964384787308, 0.012743829603629974, 0.0066863386530663866)",-0.00016322202792688441,103.00792357168199,True,"(0.02227927802040655, 0.1869438043168834, 0.03999331366134694)","(-0.9998964384787309, -0.012743829603623106, -0.00668633865306044)",-0.0007290577987854982,101.45931724193619
86,Move,"(-0.027100000000000003, 0.0, -0.034)","(0.0, 0.08996648695255173, 0.0)","(-0.0092786677539852, 0.17492103332743406, 0.001370857036151794)","(1.5763688658519728, -0.006645251354040111, 0.013303014906596458)","[-0.009278746315450205, 0.004921970950915233, 0.0004559673530640594]","[-0.026750000193715096, 0.05299999937415123, 0.03999999910593033]","[0.0, -0.0, 0.6156443247748218]","[-0.06832889467477798, 0.11178091168403625, 0.03999999910593033]","[0.0, 0.0, -0.1346948714469733]","[0.026750000193715096, 0.05299999937415123, 0.03999999910593033]","[0.0, 0.0, -0.474695311218602]","[0.059658851474523544, 0.11703910678625107, 0.03999999910593033]","[0.0, -0.0, 0.2791002904175685]",0.6155002318211663,-0.034570678294212676,"(0.0, 0.0, 0.0, 0.0, 0.0, 0.0)",-13.43999728242786,-0.7444855745835915,1.4048523814604401,"(0.0, 0.0, 0.0, 0.0, 0.0, 0.0)",-7.509497793777281,-0.4684651341583373,1.4952255823885805,"(0.0, 0.0, 0.0, 0.0, 0.0, 0.0)",14.886829695179953,0.748286700369713,-1.3221218061537336,"(0.0, 0.0, 0.0, 0.0, 0.0, 0.0)",7.7491226093459025,True,"(-0.04106660651628275, 0.1864433065939217, 0.04000666574914518)","(0.9998936887687943, 0.012968382654254554, 0.006665749145180947)",-0.0001664032412625962,102.13028914883695,True,"(0.021927556782069917, 0.1871193218700734, 0.03999333425085482)","(-0.999893688768794, -0.012968382654266326, -0.006665749145179342)",-0.0007574508646474029,108.78277619774188
87,Move,"(-0.0268, 0.0, -0.0349)","(0.0, 0.09839817256893633, 0.0)","(-0.009653213881186352, 0.17509451471775522, 0.0013701607727529212)","(1.5763510236080798, -0.0066181568021998205, 0.013569794216452769)","[-0.009653292442651357, 0.0050954523412364006, 0.00045527108966518645]","[-0.026750000193715096, 0.05299999937415123, 0.03999999910593033]","[0.0, -0.0, 0.6155002159442898]","[-0.06832042336463928, 0.11178690195083618, 0.03999999910593033]","[0.0, 0.0, -0.1289853443200755]","[0.026750000193715096, 0.05299999937415123, 0.03999999910593033]","[0.0, 0.0, -0.46846512499359283]","[0.05925924703478813, 0.11724288761615753, 0.03999999910593033]","[0.0, -0.0, 0.27982158454896905]",0.6149580281122136,-0.13012889014865042,"(0.0, 0.0, 0.0, 0.0, 0.0, 0.0)",-14.526252556038274,-0.7385100126122961,1.4341348731108983,"(0.0, 0.0, 0.0, 0.0, 0.0, 0.0)",-7.995503693466014,-0.46254758190684286,1.4202125403586645,"(0.0, 0.0, 0.0, 0.0, 0.0, 0.0)",14.12495565315326,0.7427122960806247,-1.3378570293811858,"(0.0, 0.0, 0.0, 0.0, 0.0, 0.0)",7.461572721229272,True,"(-0.041484866526782765, 0.1866037316326804, 0.04000666574914518)","(0.9998936887687943, 0.012968382654254554, 0.006665749145180947)",-0.00016951080344850957,107.43497484256393,True,"(0.021477408227405508, 0.18729625811876255, 0.0399933547975542)","(-0.9998894385542851, -0.01330232882057109, -0.006645202445797151)",-0.0007860500176252093,105.92280331128755
88,Move,"(-0.0265, 0.0, -0.0361)","(0.0, 0.09839817256893633, 0.0)","(-0.010001994544933786, 0.17527244780471876, 0.0013692716335074978)","(1.5763473858978003, -0.006590405537346398, 0.013800858745321224)","[-0.010002073106398791, 0.005273385428199939, 0.0004543819504197631]","[-0.026750000193715096, 0.05299999937415123, 0.03999999910593033]","[0.0, -0.0, 0.6149580712225452]","[-0.06828854233026505, 0.11180943250656128, 0.03999999910593033]","[0.0, 0.0, -0.12355198268865138]","[0.026750000193715096, 0.05299999937415123, 0.03999999910593033]","[0.0, 0.0, -0.46254759193082745]","[0.058878518640995026, 0.11743413656949997, 0.03999999910593033]","[0.0, -0.0, 0.28016473655734075]",0.614145328703621,-0.1950478580621981,"(0.0, 0.0, 0.0, 0.0, 0.0, 0.0)",-14.708487487801829,-0.7324120824522636,1.4635032384077835,"(0.0, 0.0, 0.0, 0.0, 0.0, 0.0)",-8.118135326262456,-0.4567811842555276,1.3839354363156664,"(0.0, 0.0, 0.0, 0.0, 0.0, 0.0)",14.537633306317693,0.7370283857636255,-1.3641384760798243,"(0.0, 0.0, 0.0, 0.0, 0.0, 0.0)",7.6446487566888575,True,"(-0.04185988669914266, 0.18677096477478433, 0.04000666574914518)","(0.9998936887687943, 0.012968382654254554, 0.006665749145180947)",-0.00017113470592182293,108.96505813112867,True,"(0.021072642931363565, 0.18747461482722944, 0.03999338189151025)","(-0.9998860338517495, -0.013569080596558066, -0.006618108489756299)",-0.0008140448400164849,108.4322576252769
89,Move,"(-0.0267, 0.0, -0.0368)","(0.0, 0.10333396369357628, 0.0)","(-0.010331909017009738, 0.1754551172196972, 0.0013683613219820172)","(1.5763432859924973, -0.006561845500376901, 0.014000852028902885)","[-0.010331987578474743, 0.005456054843178376, 0.0004534716388942825]","[-0.026750000193715096, 0.05299999937415123, 0.03999999910593033]","[0.0, -0.0, 0.6141453833474868]","[-0.06824073940515518, 0.11184316873550415, 0.03999999910593033]","[0.0, 0.0, -0.1182667682487806]","[0.026750000193715096, 0.05299999937415123, 0.03999999910593033]","[0.0, 0.0, -0.45678114212987]","[0.05850643292069435, 0.11761832982301712, 0.03999999910593033]","[0.0, -0.0, 0.28024717626516077]",0.6130912046405934,-0.2529897751266301,"(0.0, 0.0, 0.0, 0.0, 0.0, 0.0)",-15.047847609324396,-0.726150500772622,1.5027796031139826,"(0.0, 0.0, 0.0, 0.0, 0.0, 0.0)",-8.312787834704604,-0.4510919482705478,1.3654166363951483,"(0.0, 0.0, 0.0, 0.0, 0.0, 0.0)",14.965174616544031,0.7312019368253,-1.3983477451981134,"(0.0, 0.0, 0.0, 0.0, 0.0, 0.0)",7.847579891320629,True,"(-0.042208634875528825, 0.18694333763717033, 0.04000666574914518)","(0.9998936887687943, 0.012968382654254554, 0.006665749145180947)",-0.0001728158306318237,111.41167657055085,True,"(0.02069478249870009, 0.18765554105266824, 0.03999340964216987)","(-0.9998830550845662, -0.013800120956903087, -0.006590357830129061)",-0.0008413769021433533,111.26865708879778
90,Move,"(-0.0269, 0.0, -0.0371)","(0.0, 0.11176215865145692, 0.0)","(-0.010654620928103382, 0.17563882356013943, 0.0013674239576373993)","(1.5763401008576519, -0.006532763480811491, 0.014187996658320627)","[-0.010654699489568388, 0.005639761183620612, 0.00045253427454966457]","[-0.026750000193715096, 0.05299999937415123, 0.03999999910593033]","[0.0, -0.0, 0.6130912690668807]","[-0.0681786835193634, 0.1118868738412857, 0.03999999910593033]","[0.0, 0.0, -0.11305930560372726]","[0.026750000193715096, 0.05299999937415123, 0.03999999910593033]","[0.0, 0.0, -0.451091914318446]","[0.05813829228281975, 0.11779795587062836, 0.03999999910593033]","[0.0, -0.0, 0.2801099752552219]",0.6119349742889525,-0.2774952843938239,"(0.0, 0.0, 0.0, 0.0, 0.0, 0.0)",-15.152486287315275,-0.7198117341963702,1.5213039783004223,"(0.0, 0.0, 0.0, 0.0, 0.0, 0.0)",-8.396588113185853,-0.44544010821123,1.3564416142362778,"(0.0, 0.0, 0.0, 0.0, 0.0, 0.0)",15.231388451573855,0.7253111779572138,-1.4137821283406828,"(0.0, 0.0, 0.0, 0.0, 0.0, 0.0)",7.9800599276065025,True,"(-0.0425380159659014, 0.18712158351136005, 0.04000666574914518)","(0.9998936887687943, 0.012968382654254554, 0.006665749145180947)",-0.00017460437365481935,112.36325982883321,True,"(0.020336256448440615, 0.1878400145841612, 0.03999343820158931)","(-0.9998804629513894, -0.014000093204423879, -0.006561798410690624)",-0.0008686600198054702,112.96070485965406
91,Move,"(-0.0212, 0.0, -0.0351)","(0.0, 0.11675554564141268, 0.0)","(-0.010967911914900286, 0.1758217216030053, 0.0013664642926702478)","(1.5763379177829742, -0.006503299923260948, 0.01436076397903806)","[-0.010967990476365291, 0.005822659226486476, 0.0004515746095825131]","[-0.026750000193715096, 0.05299999937415123, 0.03999999910593033]","[0.0, -0.0, 0.6119349934663759]","[-0.06811057031154633, 0.11193473637104034, 0.03999999910593033]","[0.0, 0.0, -0.10787677243903429]","[0.026750000193715096, 0.05299999937415123, 0.03999999910593033]","[0.0, 0.0, -0.4454401110437956]","[0.05777156725525856, 0.11797431856393814, 0.03999999910593033]","[0.0, -0.0, 0.27987107790733995]",0.6106956746313422,-0.29743191782646633,"(0.0, 0.0, 0.0, 0.0, 0.0, 0.0)",-15.19366403230317,-0.7134567858150018,1.52518761152842,"(0.0, 0.0, 0.0, 0.0, 0.0, 0.0)",-8.428230541346144,-0.43987906347246003,1.334650737304785,"(0.0, 0.0, 0.0, 0.0, 0.0, 0.0)",15.247608355650152,0.7194156023512822,-1.4149381454235754,"(0.0, 0.0, 0.0, 0.0, 0.0, 0.0)",7.9894397321338415,True,"(-0.04286015069437628, 0.1873013179999722, 0.04000666574914518)","(0.9998936887687943, 0.012968382654254554, 0.006665749145180947)",-0.0001762660856166806,112.54216571754134,True,"(0.019986270603005715, 0.18802498392810568, 0.039993467282985556)","(-0.9998780157880004, -0.014187217918272094, -0.006532717014444494)",-0.0008947871959364954,113.04671039169382
92,Move,"(-0.0209, 0.0, -0.0354)","(0.0, 0.11331201102722786, 0.0)","(-0.011112607185597192, 0.17600067240086786, 0.0013654014812895506)","(1.5763449151981004, -0.00647354490702438, 0.014329833929603637)","[-0.011112685747062197, 0.006001610024349041, 0.00045051179820181585]","[-0.026750000193715096, 0.05299999937415123, 0.03999999910593033]","[0.0, -0.0, 0.6106956657237886]","[-0.0680375024676323, 0.1119859516620636, 0.03999999910593033]","[0.0, 0.0, -0.10276112070195981]","[0.026750000193715096, 0.05299999937415123, 0.03999999910593033]","[0.0, 0.0, -0.4398790830418466]","[0.05740976333618164, 0.11814583092927933, 0.03999999910593033]","[0.0, -0.0, 0.27953657473692967]",0.608464895010208,-0.5353871090722293,"(0.0, 0.0, 0.0, 0.0, 0.0, 0.0)",-14.946836659479994,-0.7075943076405026,1.406994761879815,"(0.0, 0.0, 0.0, 0.0, 0.0, 0.0)",-8.200655163709667,-0.4359240504661164,0.9492031215224714,"(0.0, 0.0, 0.0, 0.0, 0.0, 0.0)",12.880988760835221,0.7140344133019014,-1.2914853718513861,"(0.0, 0.0, 0.0, 0.0, 0.0, 0.0)",6.9354746597809385,True,"(-0.04317295882938567, 0.1874807164274661, 0.04000666574914518)","(0.9998936887687943, 0.012968382654254554, 0.006665749145180947)",-0.000177650297435367,108.26666525304033,True,"(0.019647910871147943, 0.18820861987411727, 0.03999349674591721)","(-0.999875741801171, -0.014359966709321985, -0.006503254082789802)",-0.0009189038164157118,99.26649763983573
