OSUrobotics/InHand-Manipulation/AnalyseData/Data/Trial Data/Better/new_hand_human_sub1_2v2_e_n_1_kpNone_kdNone_dp1_step1_save_data.csv
,Phase,human_cube_pos,human_cube_orn,Cube_Pos,Cube_Orn,Cube_pos_in_start_pos,b'l_prox_pin'_link_pos,b'l_prox_pin'_link_orn,b'l_distal_pin'_link_pos,b'l_distal_pin'_link_orn,b'r_prox_pin'_link_pos,b'r_prox_pin'_link_orn,b'r_distal_pin'_link_pos,b'r_distal_pin'_link_orn,b'l_prox_pin'_joint_angle,b'l_prox_pin'_joint_vel,b'l_prox_pin'_joint_react_forces,b'l_prox_pin'_joint_motor_torque,b'l_distal_pin'_joint_angle,b'l_distal_pin'_joint_vel,b'l_distal_pin'_joint_react_forces,b'l_distal_pin'_joint_motor_torque,b'r_prox_pin'_joint_angle,b'r_prox_pin'_joint_vel,b'r_prox_pin'_joint_react_forces,b'r_prox_pin'_joint_motor_torque,b'r_distal_pin'_joint_angle,b'r_distal_pin'_joint_vel,b'r_distal_pin'_joint_react_forces,b'r_distal_pin'_joint_motor_torque,in_contact_l,contact_point_l_dist,contact_normal_l_dist,contact_distance_l_dist,contact_norm_force_l_dist,in_contact_r,contact_point_r_dist,contact_normal_r_dist,contact_distance_r_dist,contact_norm_force_r_dist
0,Open,,,,,,"[-0.026750000193715096, 0.05299999937415123, 0.03999999910593033]","[0.0, -0.0, 0.0]","[-0.026750000193715096, 0.125, 0.03999999910593033]","[0.0, -0.0, 0.0]","[0.026750000193715096, 0.05299999937415123, 0.03999999910593033]","[0.0, -0.0, 0.0]","[0.026750000193715096, 0.125, 0.03999999910593033]","[0.0, -0.0, 0.0]",0.0,0.0,"(0.0, 0.0, 0.0, 0.0, 0.0, 0.0)",1.3400621000080305e-17,5.883223478113402e-32,1.4119736347472167e-29,"(0.0, 0.0, 0.0, 0.0, 0.0, 0.0)",1.0542555313129702e-18,-0.008068665190486622,-1.9364796457167894,"(0.0, 0.0, 0.0, 0.0, 0.0, 0.0)",193.26378306879909,-0.0700246186727924,-16.805908481470176,"(0.0, 0.0, 0.0, 0.0, 0.0, 0.0)",71.94009191575694,False,,,,,False,,,,
1,Open,,,,,,"[-0.026750000193715096, 0.05299999937415123, 0.03999999910593033]","[0.0, -0.0, 0.0]","[-0.026750000193715096, 0.125, 0.03999999910593033]","[0.0, -0.0, 5.883223447970011e-32]","[0.026750000193715096, 0.05299999937415123, 0.03999999910593033]","[0.0, 0.0, -0.008068665592501188]","[0.02733093686401844, 0.12499765306711197, 0.03999999910593033]","[0.0, 0.0, -0.0780932845685428]",0.157,37.68,"(0.0, 0.0, 0.0, 0.0, 0.0, 0.0)",54.702693795169004,5.294901130302062e-32,-1.4119736347472162e-30,"(0.0, 0.0, 0.0, 0.0, 0.0, 0.0)",3.9113724975844915,-0.1670280316324969,-38.150247946082466,"(0.0, 0.0, 0.0, 0.0, 0.0, 0.0)",-25.93345404555236,-0.0659493391739072,0.9780670797324476,"(0.0, 0.0, 0.0, 0.0, 0.0, 0.0)",-6.754749483880455,False,,,,,False,,,,
2,Open,,,,,,"[-0.026750000193715096, 0.05299999937415123, 0.03999999910593033]","[0.0, -0.0, 0.1569999988554567]","[-0.03800761699676514, 0.12411445379257202, 0.03999999910593033]","[0.0, -0.0, 0.1569999988554567]","[0.026750000193715096, 0.05299999937415123, 0.03999999910593033]","[0.0, 0.0, -0.16702801712980753]","[0.038720179349184036, 0.1239979937672615, 0.03999999910593033]","[0.0, 0.0, -0.23297739431320727]",0.29829999999999995,33.91199999999999,"(0.0, 0.0, 0.0, 0.0, 0.0, 0.0)",-5.390828189440958,5.294901130302062e-32,0.0,"(0.0, 0.0, 0.0, 0.0, 0.0, 0.0)",-0.3659219356209609,-0.3122944613104081,-34.863943122698686,"(0.0, 0.0, 0.0, 0.0, 0.0, 0.0)",95.8006544774165,-0.06705867534034729,-0.2662406799456205,"(0.0, 0.0, 0.0, 0.0, 0.0, 0.0)",9.049911776264722,False,,,,,False,,,,
3,Open,,,,,,"[-0.026750000193715096, 0.05299999937415123, 0.03999999910593033]","[0.0, -0.0, 0.29830000998707634]","[-0.04791048914194107, 0.12182030081748962, 0.03999999910593033]","[0.0, -0.0, 0.29830000998707634]","[0.026750000193715096, 0.05299999937415123, 0.03999999910593033]","[0.0, 0.0, -0.3122944642903269]","[0.048871491104364395, 0.12151744216680527, 0.03999999910593033]","[0.0, 0.0, -0.3793531994353912]",0.42546999999999996,30.5208,"(0.0, 0.0, 0.0, 0.0, 0.0, 0.0)",-4.858074537215091,5.294901130302062e-32,0.0,"(0.0, 0.0, 0.0, 0.0, 0.0, 0.0)",-0.33154044974508506,-0.44292449566296654,-31.35120824461403,"(0.0, 0.0, 0.0, 0.0, 0.0, 0.0)",100.88457241511576,-0.08373770380977785,-4.0029668326633345,"(0.0, 0.0, 0.0, 0.0, 0.0, 0.0)",24.077304806401806,False,,,,,False,,,,
4,Open,,,,,,"[-0.026750000193715096, 0.05299999937415123, 0.03999999910593033]","[0.0, -0.0, 0.4254700097131474]","[-0.056467924267053604, 0.11858082562685013, 0.03999999910593033]","[0.0, -0.0, 0.4254700097131474]","[0.026750000193715096, 0.05299999937415123, 0.03999999910593033]","[0.0, 0.0, -0.4429245237535421]","[0.057608019560575485, 0.1180521547794342, 0.03999999910593033]","[0.0, 0.0, -0.5266622746639338]",0.5399229999999999,27.46872,"(0.0, 0.0, 0.0, 0.0, 0.0, 0.0)",-4.377393708535371,5.294901130302062e-32,0.0,"(0.0, 0.0, 0.0, 0.0, 0.0, 0.0)",-0.30017707799641646,-0.5623038734984663,-28.651050680519948,"(0.0, 0.0, 0.0, 0.0, 0.0, 0.0)",144.45470973647488,-0.10456727132876567,-4.999096204557077,"(0.0, 0.0, 0.0, 0.0, 0.0, 0.0)",33.97911746732963,False,,,,,False,,,,
5,Open,,,,,,"[-0.026750000193715096, 0.05299999937415123, 0.03999999910593033]","[0.0, -0.0, 0.5399230359738098]","[-0.06376303732395172, 0.11475787311792374, 0.03999999910593033]","[0.0, -0.0, 0.5399230359738098]","[0.026750000193715096, 0.05299999937415123, 0.03999999910593033]","[0.0, 0.0, -0.5623038790270362]","[0.06513584405183792, 0.11391409486532211, 0.03999999910593033]","[0.0, 0.0, -0.6668711870723439]",0.6429307,24.721848,"(0.0, 0.0, 0.0, 0.0, 0.0, 0.0)",-3.943806903965684,5.294901130302062e-32,0.0,"(0.0, 0.0, 0.0, 0.0, 0.0, 0.0)",-0.2716098155097054,-0.6673401099248648,-25.208696742335626,"(0.0, 0.0, 0.0, 0.0, 0.0, 0.0)",94.97739775913854,-0.11755295807544866,-3.116564819203918,"(0.0, 0.0, 0.0, 0.0, 0.0, 0.0)",25.79194570087013,False,,,,,False,,,,
6,Open,,,,,,"[-0.026750000193715096, 0.05299999937415123, 0.03999999910593033]","[0.0, -0.0, 0.6429307111289271]","[-0.06991713494062424, 0.11062463372945786, 0.03999999910593033]","[0.0, -0.0, 0.6429307111289271]","[0.026750000193715096, 0.05299999937415123, 0.03999999910593033]","[0.0, 0.0, -0.6673401753977319]","[0.07131072133779526, 0.10955388844013214, 0.03999999910593033]","[0.0, 0.0, -0.7848931559948581]",0.73563763,22.249663200000004,"(0.0, 0.0, 0.0, 0.0, 0.0, 0.0)",-3.552789792259023,5.294901130302062e-32,0.0,"(0.0, 0.0, 0.0, 0.0, 0.0, 0.0)",-0.24562369466220793,-0.7579917869736262,-21.756402491702737,"(0.0, 0.0, 0.0, 0.0, 0.0, 0.0)",34.46450837185191,-0.10794166402774508,2.3067105714488583,"(0.0, 0.0, 0.0, 0.0, 0.0, 0.0)",8.765009015475858,False,,,,,False,,,,
7,Open,,,,,,"[-0.026750000193715096, 0.05299999937415123, 0.03999999910593033]","[0.0, -0.0, 0.7356376306875043]","[-0.07506632059812546, 0.10638101398944855, 0.03999999910593033]","[0.0, -0.0, 0.7356376306875043]","[0.026750000193715096, 0.05299999937415123, 0.03999999910593033]","[0.0, 0.0, -0.757991847340814]","[0.076247438788414, 0.10528770089149475, 0.03999999910593033]","[0.0, 0.0, -0.8659334873334429]",0.8190738670000001,20.024696880000004,"(0.0, 0.0, 0.0, 0.0, 0.0, 0.0)",-3.2002295086701533,2.3293280891773424e-07,5.5903874140256216e-05,"(0.0, 0.0, 0.0, 0.0, 0.0, 0.0)",-0.22200715926400075,-0.8391926082762636,-19.488197112632974,"(0.0, 0.0, 0.0, 0.0, 0.0, 0.0)",3.295349739497939,-0.09714776835574307,2.590534961280482,"(0.0, 0.0, 0.0, 0.0, 0.0, 0.0)",0.25803221970863044,False,,,,,False,,,,
8,Open,,,,,,"[-0.026750000193715096, 0.05299999937415123, 0.03999999910593033]","[0.0, -0.0, 0.8190738875671263]","[-0.07934698462486267, 0.10216865688562393, 0.03999999910593033]","[0.0, -0.0, 0.8190741465287105]","[0.026750000193715096, 0.05299999937415123, 0.03999999910593033]","[0.0, 0.0, -0.839192558822362]","[0.08032548427581787, 0.10110059380531311, 0.03999999910593033]","[0.0, 0.0, -0.9363403253067936]",0.8941664803,18.022227192,"(0.0, 0.0, 0.0, 0.0, 0.0, 0.0)",-2.8824197251771095,4.2009445145371055e-07,4.4918794208634316e-05,"(0.0, 0.0, 0.0, 0.0, 0.0, 0.0)",-0.2005835928406654,-0.9122733474486373,-17.539377401369673,"(0.0, 0.0, 0.0, 0.0, 0.0, 0.0)",2.7804978356880783,-0.0874331700712747,2.33150358827241,"(0.0, 0.0, 0.0, 0.0, 0.0, 0.0)",0.17017621517521792,False,,,,,False,,,,
9,Open,,,,,,"[-0.026750000193715096, 0.05299999937415123, 0.03999999910593033]","[0.0, -0.0, 0.894166469119967]","[-0.08288749307394028, 0.09808415919542313, 0.03999999910593033]","[0.0, -0.0, 0.894166894674561]","[0.026750000193715096, 0.05299999937415123, 0.03999999910593033]","[0.0, 0.0, -0.9122733503889549]","[0.08369457721710205, 0.09706035256385803, 0.03999999910593033]","[0.0, 0.0, -0.9997066729229968]",0.96174983227,16.220004472800003,"(0.0, 0.0, 0.0, 0.0, 0.0, 0.0)",-2.5959652512206968,5.681494863714967e-07,3.553320838026869e-05,"(0.0, 0.0, 0.0, 0.0, 0.0, 0.0)",-0.18114955764248034,-0.9780460127037736,-15.785439661232708,"(0.0, 0.0, 0.0, 0.0, 0.0, 0.0)",2.503992476159733,-0.0786900142246732,2.098357403184359,"(0.0, 0.0, 0.0, 0.0, 0.0, 0.0)",0.15360133560797545,False,,,,,False,,,,
10,Open,,,,,,"[-0.026750000193715096, 0.05299999937415123, 0.03999999910593033]","[0.0, -0.0, 0.9617498658906226]","[-0.08580395579338074, 0.09419016540050507, 0.03999999910593033]","[0.0, -0.0, 0.9617504517765805]","[0.026750000193715096, 0.05299999937415123, 0.03999999910593033]","[0.0, 0.0, -0.9780460255881384]","[0.08646733313798904, 0.09322238713502884, 0.03999999910593033]","[0.0, 0.0, -1.0567360258914282]",1.022574849043,14.598004025520002,"(0.0, 0.0, 0.0, 0.0, 0.0, 0.0)",-2.337816594086846,6.829231533297027e-07,2.7545680069969436e-05,"(0.0, 0.0, 0.0, 0.0, 0.0, 0.0)",-0.16354029854134106,-1.0372414114333963,-14.206895695109438,"(0.0, 0.0, 0.0, 0.0, 0.0, 0.0)",2.2548456713339484,-0.07082115822448021,1.8885254400463192,"(0.0, 0.0, 0.0, 0.0, 0.0, 0.0)",0.13860128234430863,False,,,,,False,,,,
11,Open,,,,,,"[-0.026750000193715096, 0.05299999937415123, 0.03999999910593033]","[0.0, -0.0, 1.0225748785172661]","[-0.08819860219955444, 0.09052424877882004, 0.03999999910593033]","[0.0, -0.0, 1.0225755149967983]","[0.026750000193715096, 0.05299999937415123, 0.03999999910593033]","[0.0, 0.0, -1.037241417801626]","[0.08874232321977615, 0.08961901068687439, 0.03999999910593033]","[0.0, 0.0, -1.1080626941470386]",1.0773173641387,13.138203622968001,"(0.0, 0.0, 0.0, 0.0, 0.0, 0.0)",-2.105207702642618,7.694903593429899e-07,2.0776129443188934e-05,"(0.0, 0.0, 0.0, 0.0, 0.0, 0.0)",-0.14759587787833617,-1.0905172702900567,-12.78620612559849,"(0.0, 0.0, 0.0, 0.0, 0.0, 0.0)",2.0303755786213302,-0.06373917358809339,1.6996763127328351,"(0.0, 0.0, 0.0, 0.0, 0.0, 0.0)",0.1250328149112744,False,,,,,False,,,,
12,Open,,,,,,"[-0.026750000193715096, 0.05299999937415123, 0.03999999910593033]","[0.0, -0.0, 1.0773173786594632]","[-0.09015969932079315, 0.08710587024688721, 0.03999999910593033]","[0.0, -0.0, 1.0773182784199262]","[0.026750000193715096, 0.05299999937415123, 0.03999999910593033]","[0.0, 0.0, -1.090517334189526]","[0.09060435742139816, 0.0862659215927124, 0.03999999910593033]","[0.0, 0.0, -1.1542564269670996]",1.1265856277248298,11.824383260671203,"(0.0, 0.0, 0.0, 0.0, 0.0, 0.0)",-1.895636869852492,8.322629993378343e-07,1.5065433598762668e-05,"(0.0, 0.0, 0.0, 0.0, 0.0, 0.0)",-0.13316806895824274,-1.138465543261051,-11.50758551303864,"(0.0, 0.0, 0.0, 0.0, 0.0, 0.0)",1.828159741200242,-0.05736537454460671,1.5297117704368035,"(0.0, 0.0, 0.0, 0.0, 0.0, 0.0)",0.11276577482950233,False,,,,,False,,,,
13,Open,,,,,,"[-0.026750000193715096, 0.05299999937415123, 0.03999999910593033]","[0.0, -0.0, 1.126585512342968]","[-0.09176240861415863, 0.08394166082143784, 0.03999999910593033]","[0.0, -0.0, 1.1265864725026016]","[0.026750000193715096, 0.05299999937415123, 0.03999999910593033]","[0.0, 0.0, -1.13846552283997]","[0.09212540090084076, 0.08316715806722641, 0.03999999910593033]","[0.0, 0.0, -1.1958309904194953]",1.1709270649523469,10.641944934604087,"(0.0, 0.0, 0.0, 0.0, 0.0, 0.0)",-1.7068426281171958,8.750681698751778e-07,1.0273240928962424e-05,"(0.0, 0.0, 0.0, 0.0, 0.0, 0.0)",-0.12011999884119333,-1.181618988934946,-10.356826961734775,"(0.0, 0.0, 0.0, 0.0, 0.0, 0.0)",1.6460093571929852,-0.051628943774705546,1.376743384776279,"(0.0, 0.0, 0.0, 0.0, 0.0, 0.0)",0.10168054944364863,False,,,,,False,,,,
14,Open,,,,,,"[-0.026750000193715096, 0.05299999937415123, 0.03999999910593033]","[0.0, -0.0, 1.170927100750299]","[-0.09307006001472473, 0.08102945238351822, 0.03999999910593033]","[0.0, -0.0, 1.1709279927689973]","[0.026750000193715096, 0.05299999937415123, 0.03999999910593033]","[0.0, 0.0, -1.181618964677462]","[0.09336595237255096, 0.08031877130270004, 0.03999999910593033]","[0.0, 0.0, -1.233247876832181]",1.2108343584571122,9.577750441143678,"(0.0, 0.0, 0.0, 0.0, 0.0, 0.0)",-1.5367816122769582,9.012180617793662e-07,6.275974057005224e-06,"(0.0, 0.0, 0.0, 0.0, 0.0, 0.0)",-0.1083256720668905,-1.2204570900414513,-9.3211442655613,"(0.0, 0.0, 0.0, 0.0, 0.0, 0.0)",1.4819475463743526,-0.046466145575958295,1.239071567699341,"(0.0, 0.0, 0.0, 0.0, 0.0, 0.0)",0.09166748660725833,False,,,,,False,,,,
15,Open,,,,,,"[-0.026750000193715096, 0.05299999937415123, 0.03999999910593033]","[0.0, -0.0, 1.2108343955497323]","[-0.09413553774356842, 0.07836118340492249, 0.03999999910593033]","[0.0, -0.0, 1.210835255049739]","[0.026750000193715096, 0.05299999937415123, 0.03999999910593033]","[0.0, 0.0, -1.2204571829136446]","[0.09437645971775055, 0.07771158218383789, 0.03999999910593033]","[0.0, 0.0, -1.2669233179031547]",1.2467509226114009,8.619975397029307,"(0.0, 0.0, 0.0, 0.0, 0.0, 0.0)",-1.3836082777937824,9.135722823677317e-07,2.9650129412077397e-06,"(0.0, 0.0, 0.0, 0.0, 0.0, 0.0)",-0.09766941677677543,-1.2554113810373062,-8.38902983900517,"(0.0, 0.0, 0.0, 0.0, 0.0, 0.0)",1.334189480132575,-0.04181961771093252,1.1151666876061868,"(0.0, 0.0, 0.0, 0.0, 0.0, 0.0)",0.08262627878010878,False,,,,,False,,,,
16,Open,,,,,,"[-0.026750000193715096, 0.05299999937415123, 0.03999999910593033]","[0.0, -0.0, 1.2467510110527222]","[-0.09500277042388916, 0.07592508941888809, 0.03999999910593033]","[0.0, -0.0, 1.246751870145374]","[0.026750000193715096, 0.05299999937415123, 0.03999999910593033]","[0.0, 0.0, -1.255411348379259]","[0.09519875049591064, 0.0753331333398819, 0.03999999910593033]","[0.0, 0.0, -1.2972309672073006]",1.2790758303502607,7.757977857326381,"(0.0, 0.0, 0.0, 0.0, 0.0, 0.0)",-1.2456264712746363,2.1141758111398655e-06,0.0002881448469053121,"(0.0, 0.0, 0.0, 0.0, 0.0, 0.0)",-0.088015399348708,-1.2868702429335757,-7.5501268551046525,"(0.0, 0.0, 0.0, 0.0, 0.0, 0.0)",1.2010989712673745,-0.037638748630864464,1.0034085792163332,"(0.0, 0.0, 0.0, 0.0, 0.0, 0.0)",0.07444006052486639,False,,,,,False,,,,
17,Open,,,,,,"[-0.026750000193715096, 0.05299999937415123, 0.03999999910593033]","[0.0, -0.0, 1.2790758758817962]","[-0.09570803493261337, 0.0737072303891182, 0.03999999910593033]","[0.0, -0.0, 1.2790780932516201]","[0.026750000193715096, 0.05299999937415123, 0.03999999910593033]","[0.0, 0.0, -1.2868702529032277]","[0.0958673357963562, 0.07316911965608597, 0.03999999910593033]","[0.0, 0.0, -1.3245087793274308]",1.3081682532711112,6.982181501004109,"(0.0, 0.0, 0.0, 0.0, 0.0, 0.0)",-1.12145472366965,1.9027582300258812e-06,-5.0740219467356254e-05,"(0.0, 0.0, 0.0, 0.0, 0.0, 0.0)",-0.07939114715284208,-1.315183223212741,-6.795115266999686,"(0.0, 0.0, 0.0, 0.0, 0.0, 0.0)",1.0813262344929835,-0.033874873767778015,0.9033299671407473,"(0.0, 0.0, 0.0, 0.0, 0.0, 0.0)",0.06713055017345074,False,,,,,False,,,,
18,Open,,,,,,"[-0.026750000193715096, 0.05299999937415123, 0.03999999910593033]","[0.0, -0.0, 1.3081682459906412]","[-0.09628119319677353, 0.07169260084629059, 0.03999999910593033]","[0.0, -0.0, 1.3081702011658356]","[0.026750000193715096, 0.05299999937415123, 0.03999999910593033]","[0.0, 0.0, -1.3151833180210462]","[0.0964106097817421, 0.07120437920093536, 0.03999999910593033]","[0.0, 0.0, -1.349058153261439]",1.334351427944,6.283961921493333,"(0.0, 0.0, 0.0, 0.0, 0.0, 0.0)",-1.0095234585863413,2.7618377923566443e-06,0.00020617909495938315,"(0.0, 0.0, 0.0, 0.0, 0.0, 0.0)",-0.07148780084672787,-1.3406649008914668,-6.11560264289422,"(0.0, 0.0, 0.0, 0.0, 0.0, 0.0)",0.9733796231570812,-0.030488273507324658,0.8127840625088054,"(0.0, 0.0, 0.0, 0.0, 0.0, 0.0)",0.060435192896783604,False,,,,,False,,,,
19,Open,,,,,,"[-0.026750000193715096, 0.05299999937415123, 0.03999999910593033]","[0.0, -0.0, 1.334351465706577]","[-0.09674673527479172, 0.06986585259437561, 0.03999999910593033]","[0.0, -0.0, 1.33435435145599]","[0.026750000193715096, 0.05299999937415123, 0.03999999910593033]","[0.0, 0.0, -1.3406650641721125]","[0.09685182571411133, 0.06942359358072281, 0.03999999910593033]","[0.0, 0.0, -1.3711530696282732]",1.3579162851496,5.655565729344001,"(0.0, 0.0, 0.0, 0.0, 0.0, 0.0)",-0.9088150211252332,3.4316066113876724e-06,0.0001607445165674468,"(0.0, 0.0, 0.0, 0.0, 0.0, 0.0)",-0.06444344013525093,-1.3635984108023202,-5.504042378604797,"(0.0, 0.0, 0.0, 0.0, 0.0, 0.0)",0.8762522980402716,-0.02744024570882781,0.7315266716392431,"(0.0, 0.0, 0.0, 0.0, 0.0, 0.0)",0.05446985052483407,False,,,,,False,,,,
20,Open,,,,,,"[-0.026750000193715096, 0.05299999937415123, 0.03999999910593033]","[0.0, -0.0, 1.3579163939939654]","[-0.09712471067905426, 0.0682118609547615, 0.03999999910593033]","[0.0, -0.0, 1.3579197824809437]","[0.026750000193715096, 0.05299999937415123, 0.03999999910593033]","[0.0, 0.0, -1.3635984874387626]","[0.09721000492572784, 0.06781173497438431, 0.03999999910593033]","[0.0, 0.0, -1.3910385869420074]",1.37912465663464,5.090009156409601,"(0.0, 0.0, 0.0, 0.0, 0.0, 0.0)",-0.8181093185961676,3.940702417530038e-06,0.0001221829934741677,"(0.0, 0.0, 0.0, 0.0, 0.0, 0.0)",-0.05806034967263589,-1.3842385697220883,-4.953638140744317,"(0.0, 0.0, 0.0, 0.0, 0.0, 0.0)",0.7887791417834831,-0.024696941374704916,0.6583930401894944,"(0.0, 0.0, 0.0, 0.0, 0.0, 0.0)",0.04906644857689494,False,,,,,False,,,,
21,Open,,,,,,"[-0.026750000193715096, 0.05299999937415123, 0.03999999910593033]","[0.0, -0.0, 1.3791247702213432]","[-0.0974314734339714, 0.0667160153388977, 0.03999999910593033]","[0.0, -0.0, 1.3791284782568445]","[0.026750000193715096, 0.05299999937415123, 0.03999999910593033]","[0.0, 0.0, -1.3842387704807777]","[0.09750068932771683, 0.06635437905788422, 0.03999999910593033]","[0.0, 0.0, -1.408935619520831]",1.398212190971176,4.581008240768642,"(0.0, 0.0, 0.0, 0.0, 0.0, 0.0)",-0.7364407507487188,4.314390796743166e-06,8.968521101115077e-05,"(0.0, 0.0, 0.0, 0.0, 0.0, 0.0)",-0.05230389643117988,-1.4028147127498793,-4.458274326669883,"(0.0, 0.0, 0.0, 0.0, 0.0, 0.0)",0.7100243788118592,-0.02222789596809768,0.5925708975857369,"(0.0, 0.0, 0.0, 0.0, 0.0, 0.0)",0.04419507766734469,False,,,,,False,,,,
22,Open,,,,,,"[-0.026750000193715096, 0.05299999937415123, 0.03999999910593033]","[0.0, -0.0, 1.3982120672717784]","[-0.09768038988113403, 0.06536446511745453, 0.03999999910593033]","[0.0, -0.0, 1.3982164487645397]","[0.026750000193715096, 0.05299999937415123, 0.03999999910593033]","[0.0, 0.0, -1.4028147367436141]","[0.09773654490709305, 0.06503787636756897, 0.03999999910593033]","[0.0, 0.0, -1.4250426427007885]",1.4153909718740585,4.122907416691778,"(0.0, 0.0, 0.0, 0.0, 0.0, 0.0)",-0.6629119687698639,4.574523674952359e-06,6.243189077020624e-05,"(0.0, 0.0, 0.0, 0.0, 0.0, 0.0)",-0.04711364623212332,-1.4195332414748913,-4.012446894002898,"(0.0, 0.0, 0.0, 0.0, 0.0, 0.0)",0.6391216750959775,-0.02000569064819732,0.5333292767760867,"(0.0, 0.0, 0.0, 0.0, 0.0, 0.0)",0.039804123486470444,False,,,,,False,,,,
23,Open,,,,,,"[-0.026750000193715096, 0.05299999937415123, 0.03999999910593033]","[0.0, -0.0, 1.415391158105469]","[-0.09788231551647186, 0.06414420157670975, 0.03999999910593033]","[0.0, -0.0, 1.415395709317307]","[0.026750000193715096, 0.05299999937415123, 0.03999999910593033]","[0.0, 0.0, -1.419533200978404]","[0.09792786836624146, 0.06384945660829544, 0.03999999910593033]","[0.0, 0.0, -1.4395389386881268]",1.4308518746866525,3.7106166750225977,"(0.0, 0.0, 0.0, 0.0, 0.0, 0.0)",-0.5967141397561109,4.7399630338636504e-06,3.9705446138709865e-05,"(0.0, 0.0, 0.0, 0.0, 0.0, 0.0)",-0.042434775014060074,-1.4345799173274023,-3.611202204602609,"(0.0, 0.0, 0.0, 0.0, 0.0, 0.0)",0.5752902758042565,-0.018005647771851804,0.4800102903229233,"(0.0, 0.0, 0.0, 0.0, 0.0, 0.0)",0.0358468230863414,False,,,,,False,,,,
24,Open,,,,,,"[-0.026750000193715096, 0.05299999937415123, 0.03999999910593033]","[0.0, -0.0, 1.4308518944899675]","[-0.09804610908031464, 0.06304314732551575, 0.03999999910593033]","[0.0, -0.0, 1.4308566269594332]","[0.026750000193715096, 0.05299999937415123, 0.03999999910593033]","[0.0, 0.0, -1.4345798203875788]","[0.09808305650949478, 0.06277728080749512, 0.03999999910593033]","[0.0, 0.0, -1.4525855975984745]",1.4447666872179874,3.339555007520341,"(0.0, 0.0, 0.0, 0.0, 0.0, 0.0)",-0.5371183361845069,4.8269553674989e-06,2.0878160072459843e-05,"(0.0, 0.0, 0.0, 0.0, 0.0, 0.0)",-0.03821759960562203,-1.448121925594662,-3.2500819841423465,"(0.0, 0.0, 0.0, 0.0, 0.0, 0.0)",0.5178266556878065,-0.016205556838873442,0.4320218239148067,"(0.0, 0.0, 0.0, 0.0, 0.0, 0.0)",0.0322808466635012,False,,,,,False,,,,
25,Open,,,,,,"[-0.026750000193715096, 0.05299999937415123, 0.03999999910593033]","[0.0, -0.0, 1.4447668540021588]","[-0.09817895293235779, 0.06205013021826744, 0.03999999910593033]","[0.0, -0.0, 1.4447715863131299]","[0.026750000193715096, 0.05299999937415123, 0.03999999910593033]","[0.0, 0.0, -1.448121993206969]","[0.09820891171693802, 0.06181041896343231, 0.03999999910593033]","[0.0, 0.0, -1.46432761016298]",1.4572900184961886,3.005599506768304,"(0.0, 0.0, 0.0, 0.0, 0.0, 0.0)",-0.483467731204937,4.849462099751187e-06,5.401615740548756e-06,"(0.0, 0.0, 0.0, 0.0, 0.0, 0.0)",-0.03441712855198442,-1.4603097330351957,-2.925073785728113,"(0.0, 0.0, 0.0, 0.0, 0.0, 0.0)",0.4660969568661882,-0.014585427836986846,0.38883096045278315,"(0.0, 0.0, 0.0, 0.0, 0.0, 0.0)",0.029067900465992856,False,,,,,False,,,,
26,Open,,,,,,"[-0.026750000193715096, 0.05299999937415123, 0.03999999910593033]","[0.0, -0.0, 1.4572900807517244]","[-0.0982866883277893, 0.061154916882514954, 0.03999999910593033]","[0.0, -0.0, 1.4572948921008348]","[0.026750000193715096, 0.05299999937415123, 0.03999999910593033]","[0.0, 0.0, -1.4603097470714805]","[0.09831098467111588, 0.06093886122107506, 0.03999999910593033]","[0.0, 0.0, -1.4748951413427742]",1.4685610166465697,2.705039556091476,"(0.0, 0.0, 0.0, 0.0, 0.0, 0.0)",-0.43517053908893033,4.819450845044722e-06,-7.202701129551542e-06,"(0.0, 0.0, 0.0, 0.0, 0.0, 0.0)",-0.030992645518402973,-1.471278759731676,-2.632566407155304,"(0.0, 0.0, 0.0, 0.0, 0.0, 0.0)",0.4195301522878829,-0.013127269246907155,0.3499580616191257,"(0.0, 0.0, 0.0, 0.0, 0.0, 0.0)",0.02617336062226555,False,,,,,False,,,,
27,Open,,,,,,"[-0.026750000193715096, 0.05299999937415123, 0.03999999910593033]","[0.0, -0.0, 1.4685611215819594]","[-0.09837405383586884, 0.06034812703728676, 0.03999999910593033]","[0.0, -0.0, 1.468565853091142]","[0.026750000193715096, 0.05299999937415123, 0.03999999910593033]","[0.0, 0.0, -1.4712788457263521]","[0.0983937606215477, 0.06015344336628914, 0.03999999910593033]","[0.0, 0.0, -1.4844061039497418]",1.4787049149819127,2.434535600482329,"(0.0, 0.0, 0.0, 0.0, 0.0, 0.0)",-0.39169363303347604,4.747151892642784e-06,-1.7351748576465223e-05,"(0.0, 0.0, 0.0, 0.0, 0.0, 0.0)",-0.02790732436186781,-1.4811508837585086,-2.3693097664397755,"(0.0, 0.0, 0.0, 0.0, 0.0, 0.0)",0.37761186810531283,-0.011814888241968555,0.3149714411852639,"(0.0, 0.0, 0.0, 0.0, 0.0, 0.0)",0.023565936472848985,False,,,,,False,,,,
28,Open,,,,,,"[-0.026750000193715096, 0.05299999937415123, 0.03999999910593033]","[0.0, -0.0, 1.4787049625213984]","[-0.09844490885734558, 0.059621214866638184, 0.03999999910593033]","[0.0, -0.0, 1.4787095898811649]","[0.026750000193715096, 0.05299999937415123, 0.03999999910593033]","[0.0, 0.0, -1.4811508165812142]","[0.09846089035272598, 0.059445831924676895, 0.03999999910593033]","[0.0, 0.0, -1.492965762433775]",1.4878344234837215,2.191082040434097,"(0.0, 0.0, 0.0, 0.0, 0.0, 0.0)",-0.35255677801820895,4.641283838470101e-06,-2.5408333001444004e-05,"(0.0, 0.0, 0.0, 0.0, 0.0, 0.0)",-0.02512787460267613,-1.4900357953826577,-2.132378789795796,"(0.0, 0.0, 0.0, 0.0, 0.0, 0.0)",0.33987880377374147,-0.010633710863257649,0.2834825708906175,"(0.0, 0.0, 0.0, 0.0, 0.0, 0.0)",0.021217361806457186,False,,,,,False,,,,
29,Close,,,"(0.010000165031897679, 0.16000264050809818, 0.003919197399597577)","(-5.388791991209616e-05, 3.3679978815229247e-06, -9.074720008653711e-11)",,"[-0.026750000193715096, 0.05299999937415123, 0.03999999910593033]","[0.0, -0.0, 1.487834617901085]","[-0.09850236773490906, 0.05896640568971634, 0.03999999910593033]","[0.0, -0.0, 1.4878390921106803]","[0.026750000193715096, 0.05299999937415123, 0.03999999910593033]","[0.0, 0.0, -1.4900358577435544]","[0.09851532429456711, 0.05880843847990036, 0.03999999910593033]","[0.0, 0.0, -1.5006695807985118]",1.4960509811353493,1.9719738363906854,"(0.0, 0.0, 0.0, 0.0, 0.0, 0.0)",-0.3173274216127963,4.509251873886308e-06,-3.168767150011037e-05,"(0.0, 0.0, 0.0, 0.0, 0.0, 0.0)",-0.022624215793833224,-1.498032215844392,-1.9191409108162163,"(0.0, 0.0, 0.0, 0.0, 0.0, 0.0)",0.30591369390909257,-0.00957062017308593,0.2551417656412126,"(0.0, 0.0, 0.0, 0.0, 0.0, 0.0)",0.019102112305110365,False,,,,,False,,,,
30,Close,,,"(0.010000330010418335, 0.1600052801621647, 0.0076635160840755065)","(-0.00010776674212266888, 6.7354271463595154e-06, -3.629275205618536e-10)",,"[-0.026750000193715096, 0.05299999937415123, 0.03999999910593033]","[0.0, -0.0, 1.4960509653323988]","[-0.09854896366596222, 0.058376654982566833, 0.03999999910593033]","[0.0, -0.0, 1.4960555203126162]","[0.026750000193715096, 0.05299999937415123, 0.03999999910593033]","[0.0, 0.0, -1.4980320325532246]","[0.09855947643518448, 0.05823439359664917, 0.03999999910593033]","[0.0, 0.0, -1.5076028800413472]",1.4064458830218143,-21.505223547248388,"(0.0, 0.0, 0.0, 0.0, 0.0, 0.0)",-36.32500847077206,-0.08999559064729075,-21.600023975799512,"(0.0, 0.0, 0.0, 0.0, 0.0, 0.0)",-4.679136399120495,-1.4082289942599528,21.552773180265405,"(0.0, 0.0, 0.0, 0.0, 0.0, 0.0)",36.31473208701179,0.08138609105625041,21.82961069504072,"(0.0, 0.0, 0.0, 0.0, 0.0, 0.0)",4.675963213372079,False,,,,,False,,,,
31,Close,,,"(0.010000494936733278, 0.16000791898094055, 0.011233038807318392)","(-0.00016163646818851668, 1.0102287881965475e-05, -8.164490687548302e-10)",,"[-0.026750000193715096, 0.05299999937415123, 0.03999999910593033]","[0.0, -0.0, 1.4064459844712927]","[-0.0977797880768776, 0.06478003412485123, 0.03999999910593033]","[0.0, -0.0, 1.316450240076391]","[0.026750000193715096, 0.05299999937415123, 0.03999999910593033]","[0.0, 0.0, -1.4082291009672807]","[0.09780067950487137, 0.06465335935354233, 0.03999999910593033]","[0.0, 0.0, -1.3268428349863826]",1.325801294719633,-19.354701192523546,"(0.0, 0.0, 0.0, 0.0, 0.0, 0.0)",3.2936342521930255,-0.17099646652613912,-19.44021021092361,"(0.0, 0.0, 0.0, 0.0, 0.0, 0.0)",0.4145426679866387,-1.3274060948339577,19.39749586223887,"(0.0, 0.0, 0.0, 0.0, 0.0, 0.0)",-3.3024243844052092,0.16324791947241268,19.646838819878944,"(0.0, 0.0, 0.0, 0.0, 0.0, 0.0)",-0.41699994760359754,False,,,,,False,,,,
32,Close,,,"(0.010000659812012168, 0.16001055698314023, 0.0146278458391823)","(-0.0002154970996661642, 1.346858017578936e-05, -1.4512199879406586e-09)",,"[-0.026750000193715096, 0.05299999937415123, 0.03999999910593033]","[0.0, -0.0, 1.3258013857525741]","[-0.09659997373819351, 0.07046370953321457, 0.03999999910593033]","[0.0, -0.0, 1.1548048042561467]","[0.026750000193715096, 0.05299999937415123, 0.03999999910593033]","[0.0, 0.0, -1.3274060658778382]","[0.09662791341543198, 0.07035159319639206, 0.03999999910593033]","[0.0, 0.0, -1.1641581075845935]",1.2532211652476697,-17.41923107327119,"(0.0, 0.0, 0.0, 0.0, 0.0, 0.0)",2.9685258329366073,-0.24389721437960032,-17.496179484830687,"(0.0, 0.0, 0.0, 0.0, 0.0, 0.0)",0.3760018756193849,-1.2546654853505619,17.457746276014984,"(0.0, 0.0, 0.0, 0.0, 0.0, 0.0)",-2.976480273609718,0.2369235243908578,17.682145180426822,"(0.0, 0.0, 0.0, 0.0, 0.0, 0.0)",-0.3782508099482112,False,,,,,False,,,,
33,Close,,,"(0.010000824637423049, 0.16001319418745247, 0.017848014970055004)","(-0.00026934863811186216, 1.6834304115272585e-05, -2.2671484573282825e-09)",,"[-0.026750000193715096, 0.05299999937415123, 0.03999999910593033]","[0.0, -0.0, 1.2532212515508983]","[-0.09514966607093811, 0.07548300176858902, 0.03999999910593033]","[0.0, -0.0, 1.0093239867956962]","[0.026750000193715096, 0.05299999937415123, 0.03999999910593033]","[0.0, 0.0, -1.254665405963893]","[0.09518206864595413, 0.07538418471813202, 0.03999999910593033]","[0.0, 0.0, -1.0177419933055243]",1.1878990487229026,-15.677307965944074,"(0.0, 0.0, 0.0, 0.0, 0.0, 0.0)",2.675103284419244,-0.30950785045582774,-15.746552658294572,"(0.0, 0.0, 0.0, 0.0, 0.0, 0.0)",0.34074508229325023,-1.1891989368155058,15.711971648413485,"(0.0, 0.0, 0.0, 0.0, 0.0, 0.0)",-2.6822973218910153,0.30323153162132754,15.913921735312746,"(0.0, 0.0, 0.0, 0.0, 0.0, 0.0)",-0.34279935345822066,False,,,,,False,,,,
34,Close,,,"(0.010000989414132393, 0.1600158306125408, 0.020893621515273818)","(-0.00032319108508158773, 2.0199459787849396e-05, -3.2641426920478403e-09)",,"[-0.026750000193715096, 0.05299999937415123, 0.03999999910593033]","[0.0, -0.0, 1.1878990574339587]","[-0.09353619813919067, 0.07989988476037979, 0.03999999910593033]","[0.0, -0.0, 0.8783912846834516]","[0.026750000193715096, 0.05299999937415123, 0.03999999910593033]","[0.0, 0.0, -1.1891990098250689]","[0.09357111155986786, 0.07981304824352264, 0.03999999910593033]","[0.0, 0.0, -0.8859674697633095]",1.1291091438506125,-14.109577169349663,"(0.0, 0.0, 0.0, 0.0, 0.0, 0.0)",2.4103712722760626,-0.36855738916456426,-14.17188929009676,"(0.0, 0.0, 0.0, 0.0, 0.0, 0.0)",0.3085687115248564,-1.1302790431339553,14.140774483572143,"(0.0, 0.0, 0.0, 0.0, 0.0, 0.0)",-2.4168742890236286,0.36290870417903687,14.322521413850238,"(0.0, 0.0, 0.0, 0.0, 0.0, 0.0)",-0.31044204201279674,False,,,,,False,,,,
35,Close,,,"(0.010001154143305145, 0.16001846627704427, 0.023764738319401603)","(-0.00037702444213104407, 2.3564047280946926e-05, -4.4421109431381166e-09)",,"[-0.026750000193715096, 0.05299999937415123, 0.03999999910593033]","[0.0, -0.0, 1.1291090274464952]","[-0.09184028208255768, 0.08377750217914581, 0.03999999910593033]","[0.0, -0.0, 0.7605517150898052]","[0.026750000193715096, 0.05299999937415123, 0.03999999910593033]","[0.0, 0.0, -1.130279133319625]","[0.09187624603509903, 0.08370133489370346, 0.03999999910593033]","[0.0, 0.0, -0.7673703325611945]",1.0761982294655512,-12.698619452414698,"(0.0, 0.0, 0.0, 0.0, 0.0, 0.0)",2.1715845710489208,-0.42170194324014043,-12.754692978138287,"(0.0, 0.0, 0.0, 0.0, 0.0, 0.0)",0.27924932151422227,-1.07725113882056,12.72669703521493,"(0.0, 0.0, 0.0, 0.0, 0.0, 0.0)",-2.177460276301377,0.41661812854294633,12.890261847338277,"(0.0, 0.0, 0.0, 0.0, 0.0, 0.0)",-0.2809551529003472,False,,,,,False,,,,
36,Close,,,"(0.010001318826104761, 0.16002110119957821, 0.02646143576036139)","(-0.0004308487108156613, 2.692806668198511e-05, -5.800961497533997e-09)",,"[-0.026750000193715096, 0.05299999937415123, 0.03999999910593033]","[0.0, -0.0, 1.076198055145404]","[-0.09012148529291153, 0.08717681467533112, 0.03999999910593033]","[0.0, -0.0, 0.6544962762796218]","[0.026750000193715096, 0.05299999937415123, 0.03999999910593033]","[0.0, 0.0, -1.0772510781061955]","[0.09015743434429169, 0.08711007237434387, 0.03999999910593033]","[0.0, 0.0, -0.6606329452337051]",1.028578406518996,-11.428757507173229,"(0.0, 0.0, 0.0, 0.0, 0.0, 0.0)",1.9562489498726314,-0.46953201391559385,-11.479216962108818,"(0.0, 0.0, 0.0, 0.0, 0.0, 0.0)",0.2525697399559188,-1.0295260249385039,11.454027331693439,"(0.0, 0.0, 0.0, 0.0, 0.0, 0.0)",-1.961555706583625,0.46495658231577774,11.601228905479532,"(0.0, 0.0, 0.0, 0.0, 0.0, 0.0)",-0.25412105363877113,False,,,,,False,,,,
37,Close,,,"(0.010001483463693249, 0.1600237353987347, 0.0289837817534302)","(-0.0004846638926905951, 3.0291518078376737e-05, -7.3406026780539124e-09)",,"[-0.026750000193715096, 0.05299999937415123, 0.03999999910593033]","[0.0, -0.0, 1.028578444789276]","[-0.08842276781797409, 0.09015467017889023, 0.03999999910593033]","[0.0, -0.0, 0.5590464126725148]","[0.026750000193715096, 0.05299999937415123, 0.03999999910593033]","[0.0, 0.0, -1.029526007298545]","[0.08845794945955276, 0.09009620547294617, 0.03999999910593033]","[0.0, 0.0, -0.564569399435659]",0.9857205658670964,-10.285881756455906,"(0.0, 0.0, 0.0, 0.0, 0.0, 0.0)",1.7621005438122825,-0.5125790520819234,-10.331289159919107,"(0.0, 0.0, 0.0, 0.0, 0.0, 0.0)",0.22832149176550065,-0.9865734224446535,10.308624598524094,"(0.0, 0.0, 0.0, 0.0, 0.0, 0.0)",-1.766891708603882,0.508461165120635,10.441099873165749,"(0.0, 0.0, 0.0, 0.0, 0.0, 0.0)",-0.22973068702752517,False,,,,,False,,,,
38,Close,,,"(0.010001648057231211, 0.16002636889308344, 0.03133184175509247)","(-0.0005384699893107284, 3.3654401557527444e-05, -9.06094284338731e-09)",,"[-0.026750000193715096, 0.05299999937415123, 0.03999999910593033]","[0.0, -0.0, 0.9857205423734198]","[-0.08677425980567932, 0.09276290237903595, 0.03999999910593033]","[0.0, -0.0, 0.47314147483112123]","[0.026750000193715096, 0.05299999937415123, 0.03999999910593033]","[0.0, 0.0, -0.9865734261287252]","[0.08680814504623413, 0.09271169453859329, 0.03999999910593033]","[0.0, 0.0, -0.4781122693565934]",0.9471485092803869,-9.257293580810316,"(0.0, 0.0, 0.0, 0.0, 0.0, 0.0)",1.587086438141582,-0.5513213633331018,-9.29815470028281,"(0.0, 0.0, 0.0, 0.0, 0.0, 0.0)",0.206306403170868,-0.9479160802001881,9.277762138671687,"(0.0, 0.0, 0.0, 0.0, 0.0, 0.0)",-1.5914107042435905,0.5476152664096928,9.396984309373877,"(0.0, 0.0, 0.0, 0.0, 0.0, 0.0)",-0.2075852193448244,False,,,,,False,,,,
39,Close,,,"(0.01000181260787789, 0.16002900170117218, 0.03350567876675359)","(-0.00059226700223067, 3.7016717206835695e-05, -1.0961890388082131e-08)",,"[-0.026750000193715096, 0.05299999937415123, 0.03999999910593033]","[0.0, -0.0, 0.9471486716739237]","[-0.08519625663757324, 0.09504801034927368, 0.03999999910593033]","[0.0, -0.0, 0.39582717163487297]","[0.026750000193715096, 0.05299999937415123, 0.03999999910593033]","[0.0, 0.0, -0.9479160840165974]","[0.08522851020097733, 0.09500313550233841, 0.03999999910593033]","[0.0, 0.0, -0.4003008647547732]",0.9124336583523481,-8.331564222729286,"(0.0, 0.0, 0.0, 0.0, 0.0, 0.0)",1.4293465062267445,-0.5861894225076075,-8.368334201881392,"(0.0, 0.0, 0.0, 0.0, 0.0, 0.0)",0.18633757536892917,-0.9131244721801693,8.349985924804516,"(0.0, 0.0, 0.0, 0.0, 0.0, 0.0)",-1.433248242084051,0.5828539364930729,8.45728082001123,"(0.0, 0.0, 0.0, 0.0, 0.0, 0.0)",-0.18749704763631705,False,,,,,False,,,,
40,Close,,,"(0.010001977116791199, 0.1600316338415276, 0.035505353338314005)","(-0.0006460549330047555, 4.037846511369274e-05, -1.3043353742532214e-08)",,"[-0.026750000193715096, 0.05299999937415123, 0.03999999910593033]","[0.0, -0.0, 0.9124336635104583]","[-0.08370164036750793, 0.0970512256026268, 0.03999999910593033]","[0.0, -0.0, 0.3262442150321584]","[0.026750000193715096, 0.05299999937415123, 0.03999999910593033]","[0.0, 0.0, -0.9131245532476111]","[0.08373206108808517, 0.09701187163591385, 0.03999999910593033]","[0.0, 0.0, -0.3302705841133475]",0.8811902925171133,-7.498407800456356,"(0.0, 0.0, 0.0, 0.0, 0.0, 0.0)",1.2871965063691413,-0.6175706567763247,-7.531496224492115,"(0.0, 0.0, 0.0, 0.0, 0.0, 0.0)",0.16823988009592084,-0.8818120249621524,7.514987332324067,"(0.0, 0.0, 0.0, 0.0, 0.0, 0.0)",-1.2907160846573733,0.6145687204653795,7.61154815335357,"(0.0, 0.0, 0.0, 0.0, 0.0, 0.0)",-0.16929032064296096,False,,,,,False,,,,
41,Close,,,"(0.010002141585127773, 0.16003426533265583, 0.03733092357160428)","(-0.0006998337831870475, 4.3739645365482716e-05, -1.5305241372964883e-08)",,"[-0.026750000193715096, 0.05299999937415123, 0.03999999910593033]","[0.0, -0.0, 0.8811903688816151]","[-0.08229776471853256, 0.09880879521369934, 0.03999999910593033]","[0.0, -0.0, 0.2636196251065186]","[0.026750000193715096, 0.05299999937415123, 0.03999999910593033]","[0.0, 0.0, -0.8818121535754343]","[0.08232623338699341, 0.098774254322052, 0.03999999910593033]","[0.0, 0.0, -0.26724331826119446]",0.853071263265402,-6.7485670204107215,"(0.0, 0.0, 0.0, 0.0, 0.0, 0.0)",1.1591124175888132,-0.6458137504217961,-6.77834247491313,"(0.0, 0.0, 0.0, 0.0, 0.0, 0.0)",0.1518500972569631,-0.8536308224659371,6.763488599091658,"(0.0, 0.0, 0.0, 0.0, 0.0, 0.0)",-1.1622865309865396,0.643112008739745,6.850389185847702,"(0.0, 0.0, 0.0, 0.0, 0.0, 0.0)",-0.15280109527428076,False,,,,,False,,,,
42,Close,,,"(0.010002306014043007, 0.16003689619304312, 0.038982445123681576)","(-0.0007536035543313348, 4.7100258049582536e-05, -1.7747461781428295e-08)",,"[-0.026750000193715096, 0.05299999937415123, 0.03999999910593033]","[0.0, -0.0, 0.8530713239495782]","[-0.08098787814378738, 0.10035242885351181, 0.03999999910593033]","[0.0, -0.0, 0.2072574956851119]","[0.026750000193715096, 0.05299999937415123, 0.03999999910593033]","[0.0, 0.0, -0.8536307856313979]","[0.08101436495780945, 0.10032207518815994, 0.03999999910593033]","[0.0, 0.0, -0.21051882644475053]",0.8277641369388617,-6.073710318369648,"(0.0, 0.0, 0.0, 0.0, 0.0, 0.0)",1.043715976216214,-0.6712325191394197,-6.100504492229669,"(0.0, 0.0, 0.0, 0.0, 0.0, 0.0)",0.1370167890019201,-0.8282677402193435,6.0871397391824935,"(0.0, 0.0, 0.0, 0.0, 0.0, 0.0)",-1.0465779375227178,0.6688009525283538,6.165346509266115,"(0.0, 0.0, 0.0, 0.0, 0.0, 0.0)",-0.1378772244212715,False,,,,,False,,,,
43,Close,,,"(0.010002470404691093, 0.16003952644115657, 0.04045997120998789)","(-0.0008073642479911328, 5.0460303253361964e-05, -2.0369923505779015e-08)",,"[-0.026750000193715096, 0.05299999937415123, 0.03999999910593033]","[0.0, -0.0, 0.8277641182932235]","[-0.07977228611707687, 0.10170972347259521, 0.03999999910593033]","[0.0, -0.0, 0.1565316389415725]","[0.026750000193715096, 0.05299999937415123, 0.03999999910593033]","[0.0, 0.0, -0.8282677342123946]","[0.07979680597782135, 0.10168302059173584, 0.03999999910593033]","[0.0, 0.0, -0.1594667900835625]",0.8049877232449756,-5.4663392865326825,"(0.0, 0.0, 0.0, 0.0, 0.0, 0.0)",0.9397613626777375,-0.6941093969081942,-5.49045066450586,"(0.0, 0.0, 0.0, 0.0, 0.0, 0.0)",0.12359998406321729,-0.8054409661974091,5.478425765264244,"(0.0, 0.0, 0.0, 0.0, 0.0, 0.0)",-0.9423413878167864,0.6919209877745929,5.54880845909737,"(0.0, 0.0, 0.0, 0.0, 0.0, 0.0)",-0.12437805104754245,False,,,,,False,,,,
44,Close,,,"(0.010002634758225062, 0.1600421560954447, 0.041763552607370504)","(-0.000861115865719684, 5.381978106418352e-05, -2.3172535119669436e-08)",,"[-0.026750000193715096, 0.05299999937415123, 0.03999999910593033]","[0.0, -0.0, 0.8049877164750058]","[-0.07864919304847717, 0.10290464758872986, 0.03999999910593033]","[0.0, -0.0, 0.11087832859978779]","[0.026750000193715096, 0.05299999937415123, 0.03999999910593033]","[0.0, 0.0, -0.805440964305088]","[0.07867180556058884, 0.10288111865520477, 0.03999999910593033]","[0.0, 0.0, -0.11351997099607207]",0.784488950920478,-4.919705357879415,"(0.0, 0.0, 0.0, 0.0, 0.0, 0.0)",0.8461229797239068,-0.7146985741739192,-4.941402543774016,"(0.0, 0.0, 0.0, 0.0, 0.0, 0.0)",0.11147072977230046,-0.7848968695776682,4.93058318873782,"(0.0, 0.0, 0.0, 0.0, 0.0, 0.0)",-0.8484484528940599,0.7127290066915236,4.993924540063379,"(0.0, 0.0, 0.0, 0.0, 0.0, 0.0)",-0.1121739668696123,False,,,,,False,,,,
45,Close,,,"(0.010002799075796832, 0.16004478517433812, 0.04289323765696492)","(-0.0009148584090699577, 5.7178691569402595e-05, -2.615520523253533e-08)",,"[-0.026750000193715096, 0.05299999937415123, 0.03999999910593033]","[0.0, -0.0, 0.7844889896573499]","[-0.07761538028717041, 0.10395795851945877, 0.03999999910593033]","[0.0, -0.0, 0.06979037514545033]","[0.026750000193715096, 0.05299999937415123, 0.03999999910593033]","[0.0, 0.0, -0.7848969068252226]","[0.07763615995645523, 0.10393720120191574, 0.03999999910593033]","[0.0, 0.0, -0.07216786709232846]",0.7660400558284302,-4.427734822091471,"(0.0, 0.0, 0.0, 0.0, 0.0, 0.0)",0.7617842585328375,-0.7332288222135146,-4.44725952950288,"(0.0, 0.0, 0.0, 0.0, 0.0, 0.0)",0.10051055612556806,-0.7664071826199014,4.437524869864038,"(0.0, 0.0, 0.0, 0.0, 0.0, 0.0)",-0.7638799793048979,0.7314562121459494,4.494529309062177,"(0.0, 0.0, 0.0, 0.0, 0.0, 0.0)",-0.10114588070786824,False,,,,,False,,,,
46,Close,,,"(0.010002963358557236, 0.16004741369625017, 0.04384907226694074)","(-0.0009685918795946493, 6.053703485636736e-05, -2.9317842489583264e-08)",,"[-0.026750000193715096, 0.05299999937415123, 0.03999999910593033]","[0.0, -0.0, 0.7660400058439011]","[-0.07666666060686111, 0.10488764196634293, 0.03999999910593033]","[0.0, -0.0, 0.0328112365488731]","[0.026750000193715096, 0.05299999937415123, 0.03999999910593033]","[0.0, 0.0, -0.7664072421942376]","[0.07668570429086685, 0.1048693135380745, 0.03999999910593033]","[0.0, 0.0, -0.03495097036229706]",0.7494360502455871,-3.984961339882325,"(0.0, 0.0, 0.0, 0.0, 0.0, 0.0)",0.6858274268188955,-0.7499060350622873,-4.002531083705426,"(0.0, 0.0, 0.0, 0.0, 0.0, 0.0)",0.09061088591719418,-0.7497664643579113,3.9937723828776335,"(0.0, 0.0, 0.0, 0.0, 0.0, 0.0)",-0.6877158393779155,0.7483106866034595,4.045073869802414,"(0.0, 0.0, 0.0, 0.0, 0.0, 0.0)",-0.09118463108881669,False,,,,,False,,,,
47,Close,,,"(0.010003127607656072, 0.16005004167957756, 0.04463109991511072)","(-0.0010223162788461832, 6.389481101241881e-05, -3.266035557177819e-08)",,"[-0.026750000193715096, 0.05299999937415123, 0.03999999910593033]","[0.0, -0.0, 0.7494360616149593]","[-0.07579827308654785, 0.1057092696428299, 0.03999999910593033]","[0.0, 0.0, -0.00046998485639781964]","[0.026750000193715096, 0.05299999937415123, 0.03999999910593033]","[0.0, 0.0, -0.7497665229086657]","[0.07581568509340286, 0.10569305717945099, 0.03999999910593033]","[0.0, 0.0, -0.0014557777936095985]",0.7344924452210284,-3.5864652058940925,"(0.0, 0.0, 0.0, 0.0, 0.0, 0.0)",0.6173964503690262,-0.7649166300024903,-3.602542785648727,"(0.0, 0.0, 0.0, 0.0, 0.0, 0.0)",0.08164469448201127,-0.7347898179221202,3.594395144589871,"(0.0, 0.0, 0.0, 0.0, 0.0, 0.0)",-0.61909767957405,0.7634808239898891,3.6408329727431203,"(0.0, 0.0, 0.0, 0.0, 0.0, 0.0)",-0.08216247127692902,False,,,,,False,,,,
48,Close,,,"(0.010003291824242136, 0.16005266914270105, 0.04523936165140331)","(-0.0010760316083767074, 6.725202012489063e-05, -3.618265319583079e-08)",,"[-0.026750000193715096, 0.05299999937415123, 0.03999999910593033]","[0.0, -0.0, 0.7344924171356654]","[-0.07500515878200531, 0.10643631219863892, 0.03999999910593033]","[0.0, 0.0, -0.03042418292779103]","[0.026750000193715096, 0.05299999937415123, 0.03999999910593033]","[0.0, 0.0, -0.7347898072320369]","[0.07502105087041855, 0.10642196238040924, 0.03999999910593033]","[0.0, -0.0, 0.028691003185096618]",0.7210432006989256,-3.227818685304683,"(0.0, 0.0, 0.0, 0.0, 0.0, 0.0)",0.5558325671900768,-0.77842604750784,-3.2422602012839143,"(0.0, 0.0, 0.0, 0.0, 0.0, 0.0)",0.07360992294062317,-0.7213108361299082,3.234955630130884,"(0.0, 0.0, 0.0, 0.0, 0.0, 0.0)",-0.5573653507703412,0.7771338289584356,3.2767211924511668,"(0.0, 0.0, 0.0, 0.0, 0.0, 0.0)",-0.07407739542501454,False,,,,,False,,,,
49,Close,,,"(0.010003456009463264, 0.16005529610398603, 0.04567389610019914)","(-0.0011297378697381003, 7.060866228110946e-05, -3.988464411418517e-08)",,"[-0.026750000193715096, 0.05299999937415123, 0.03999999910593033]","[0.0, -0.0, 0.7210432248946826]","[-0.07428213953971863, 0.10708045959472656, 0.03999999910593033]","[0.0, 0.0, -0.05738284539856889]","[0.026750000193715096, 0.05299999937415123, 0.03999999910593033]","[0.0, 0.0, -0.7213108742429458]","[0.07429660856723785, 0.10706773400306702, 0.03999999910593033]","[0.0, -0.0, 0.0558229905847104]",0.708938880629033,-2.905036816774215,"(0.0, 0.0, 0.0, 0.0, 0.0, 0.0)",0.5003668258645501,-0.7905844163893876,-2.9180085315714246,"(0.0, 0.0, 0.0, 0.0, 0.0, 0.0)",0.06632913423961855,-0.7091797525169173,2.911460067117798,"(0.0, 0.0, 0.0, 0.0, 0.0, 0.0)",-0.5017475327577147,0.7894214258858812,2.9490232625869344,"(0.0, 0.0, 0.0, 0.0, 0.0, 0.0)",-0.06675089596581112,False,,,,,False,,,,
50,Close,,,"(0.010001644182078712, 0.16005595153396976, 0.045940321410535084)","(-0.0011271805217326655, 1.767785898679914e-05, -1.508889111938428e-08)",,"[-0.026750000193715096, 0.05299999937415123, 0.03999999910593033]","[0.0, -0.0, 0.7089389671526269]","[-0.07362406700849533, 0.10765182226896286, 0.03999999910593033]","[0.0, 0.0, -0.08164554069303018]","[0.026750000193715096, 0.05299999937415123, 0.03999999910593033]","[0.0, 0.0, -0.7091797033714331]","[0.0736372321844101, 0.10764053463935852, 0.03999999910593033]","[0.0, -0.0, 0.08024167743029369]",0.6980449925661297,-2.6145331350967917,"(0.0, 0.0, 0.0, 0.0, 0.0, 0.0)",0.4504252929298086,-0.8015268519725993,-2.6261845399708146,"(0.0, 0.0, 0.0, 0.0, 0.0, 0.0)",0.059761147909024356,-0.6982617772652256,2.6203140604060167,"(0.0, 0.0, 0.0, 0.0, 0.0, 0.0)",-0.4516689022418484,0.8004801661036254,2.6540976522586175,"(0.0, 0.0, 0.0, 0.0, 0.0, 0.0)",-0.06014157277442886,False,,,,,False,,,,
51,Close,,,"(0.009998458164918766, 0.16005543218265145, 0.046184544665354044)","(-0.001116587313714928, -4.731063982249702e-05, 3.3486629919706074e-09)",,"[-0.026750000193715096, 0.05299999937415123, 0.03999999910593033]","[0.0, -0.0, 0.6980450466292163]","[-0.07302592694759369, 0.10815921425819397, 0.03999999910593033]","[0.0, 0.0, -0.1034818592301779]","[0.026750000193715096, 0.05299999937415123, 0.03999999910593033]","[0.0, 0.0, -0.6982617371246688]","[0.07303788512945175, 0.10814917832612991, 0.03999999910593033]","[0.0, -0.0, 0.10221840210156648]",0.6882404933095168,-2.3530798215871136,"(0.0, 0.0, 0.0, 0.0, 0.0, 0.0)",0.40545980991383274,-0.8113749570468809,-2.3635452178275753,"(0.0, 0.0, 0.0, 0.0, 0.0, 0.0)",0.0538375991228723,-0.688435599538703,2.358282654365416,"(0.0, 0.0, 0.0, 0.0, 0.0, 0.0)",-0.4065798463491374,0.810432944800545,2.3886668872606847,"(0.0, 0.0, 0.0, 0.0, 0.0, 0.0)",-0.0541806611811555,False,,,,,False,,,,
52,Close,,,"(0.0099979269032565, 0.16005188637635104, 0.04640949954916324)","(-0.0010442772263960227, -5.814874739306873e-05, 7.787963860925158e-09)",,"[-0.026750000193715096, 0.05299999937415123, 0.03999999910593033]","[0.0, -0.0, 0.688240548987758]","[-0.07248289883136749, 0.10861026495695114, 0.03999999910593033]","[0.0, 0.0, -0.12313446206189271]","[0.026750000193715096, 0.05299999937415123, 0.03999999910593033]","[0.0, 0.0, -0.6884356086136862]","[0.07249374687671661, 0.10860133916139603, 0.03999999910593033]","[0.0, -0.0, 0.1219973374555316]",0.679416393078237,-2.117784055507141,"(0.0, 0.0, 0.0, 0.0, 0.0, 0.0)",0.3649762140031281,-0.8202374613421928,-2.12700103087486,"(0.0, 0.0, 0.0, 0.0, 0.0, 0.0)",0.04851286211734207,-0.6795919883598663,2.1224666829208143,"(0.0, 0.0, 0.0, 0.0, 0.0, 0.0)",-0.36598488497268467,0.8193896503204905,2.149609324786922,"(0.0, 0.0, 0.0, 0.0, 0.0, 0.0)",-0.04882227338805697,False,,,,,False,,,,
53,Close,,,"(0.009997966950406065, 0.16004795201914346, 0.046616050094935475)","(-0.0009640430328522325, -5.7324486097668704e-05, 4.2980615420070005e-09)",,"[-0.026750000193715096, 0.05299999937415123, 0.03999999910593033]","[0.0, -0.0, 0.6794163791618646]","[-0.07199041545391083, 0.10901165008544922, 0.03999999910593033]","[0.0, 0.0, -0.1408210743259801]","[0.026750000193715096, 0.05299999937415123, 0.03999999910593033]","[0.0, 0.0, -0.6795920181483843]","[0.07200025022029877, 0.1090037003159523, 0.03999999910593033]","[0.0, -0.0, 0.13979766167419433]",0.6714747537704133,-1.9059934338776885,"(0.0, 0.0, 0.0, 0.0, 0.0, 0.0)",0.3285291326313333,-0.8282143561304102,-1.914454749172182,"(0.0, 0.0, 0.0, 0.0, 0.0, 0.0)",0.043663125146434535,-0.6716327895238797,1.9102077206367922,"(0.0, 0.0, 0.0, 0.0, 0.0, 0.0)",-0.3294374536237565,0.8274513303019508,1.934803195550486,"(0.0, 0.0, 0.0, 0.0, 0.0, 0.0)",-0.043941831288343336,False,,,,,False,,,,
54,Close,,,"(0.009998107600018924, 0.16004411888380865, 0.0468059782297436)","(-0.0008858309445970004, -5.447527859797503e-05, 4.128601528647624e-08)",,"[-0.026750000193715096, 0.05299999937415123, 0.03999999910593033]","[0.0, -0.0, 0.6714747449539094]","[-0.07154417037963867, 0.10936915874481201, 0.03999999910593033]","[0.0, 0.0, -0.15673960659097733]","[0.026750000193715096, 0.05299999937415123, 0.03999999910593033]","[0.0, 0.0, -0.6716327690441329]","[0.07155308127403259, 0.10936208069324493, 0.03999999910593033]","[0.0, -0.0, 0.15581855230220754]",0.664327278393372,-1.7153940904899205,"(0.0, 0.0, 0.0, 0.0, 0.0, 0.0)",0.2957170811345372,-0.8353934979980445,-1.7229940482322428,"(0.0, 0.0, 0.0, 0.0, 0.0, 0.0)",0.03934112702889199,-0.6644695105714917,1.7191869485731137,"(0.0, 0.0, 0.0, 0.0, 0.0, 0.0)",-0.2965349881453131,0.8347067784412298,1.7413075534269409,"(0.0, 0.0, 0.0, 0.0, 0.0, 0.0)",-0.039592428071821256,False,,,,,False,,,,
55,Close,,,"(0.009998248644105466, 0.16004048002584464, 0.0469807018618576)","(-0.0008115684428503489, -5.1596750749095254e-05, 7.881188886077776e-08)",,"[-0.026750000193715096, 0.05299999937415123, 0.03999999910593033]","[0.0, -0.0, 0.6643273336690038]","[-0.07114013284444809, 0.10968788713216782, 0.03999999910593033]","[0.0, 0.0, -0.17106622141763456]","[0.026750000193715096, 0.05299999937415123, 0.03999999910593033]","[0.0, 0.0, -0.6644694779113771]","[0.07114819437265396, 0.10968156903982162, 0.03999999910593033]","[0.0, -0.0, 0.17023725548976373]",0.6578945505540348,-1.543854681440929,"(0.0, 0.0, 0.0, 0.0, 0.0, 0.0)",0.2661784897251144,-0.8418546682622772,-1.5506808634158242,"(0.0, 0.0, 0.0, 0.0, 0.0, 0.0)",0.03542959308904228,-0.6580225595143425,1.547268253715802,"(0.0, 0.0, 0.0, 0.0, 0.0, 0.0)",-0.26691494494593054,0.8412366239853526,1.567162930589489,"(0.0, 0.0, 0.0, 0.0, 0.0, 0.0)",-0.035656056287006674,False,,,,,False,,,,
56,Close,,,"(0.009998390752654573, 0.16003702894197389, 0.04714144752999396)","(-0.0007411380797103218, -4.869650481896534e-05, 1.1687517768299383e-07)",,"[-0.026750000193715096, 0.05299999937415123, 0.03999999910593033]","[0.0, -0.0, 0.6578945475257985]","[-0.07077455520629883, 0.1099722608923912, 0.03999999910593033]","[0.0, 0.0, -0.18396012465064338]","[0.026750000193715096, 0.05299999937415123, 0.03999999910593033]","[0.0, 0.0, -0.6580225896942233]","[0.07078184932470322, 0.10996662080287933, 0.03999999910593033]","[0.0, -0.0, 0.18321406389742323]",0.6521050954986313,-1.3894692132968354,"(0.0, 0.0, 0.0, 0.0, 0.0, 0.0)",0.23958744527110798,-0.8476696697618468,-1.395600359896693,"(0.0, 0.0, 0.0, 0.0, 0.0, 0.0)",0.031904902566438624,-0.6522203035629083,1.392541428344221,"(0.0, 0.0, 0.0, 0.0, 0.0, 0.0)",-0.24025052935853647,0.8471134329078756,1.410434141405507,"(0.0, 0.0, 0.0, 0.0, 0.0, 0.0)",-0.032108956045352514,False,,,,,False,,,,
57,Close,,,"(0.009998534235924597, 0.16003375955333046, 0.04728933347451534)","(-0.0006744157946989166, -4.576820860538318e-05, 1.554405829918684e-07)",,"[-0.026750000193715096, 0.05299999937415123, 0.03999999910593033]","[0.0, -0.0, 0.6521051450040646]","[-0.07044398784637451, 0.11022617667913437, 0.03999999910593033]","[0.0, 0.0, -0.19556454293122102]","[0.026750000193715096, 0.05299999937415123, 0.03999999910593033]","[0.0, 0.0, -0.6522203497730787]","[0.07045057415962219, 0.11022114753723145, 0.03999999910593033]","[0.0, -0.0, 0.19489313608724637]",0.6468945859487681,-1.250522291967151,"(0.0, 0.0, 0.0, 0.0, 0.0, 0.0)",0.2156503992603495,-0.8529031244958994,-1.2560291361726517,"(0.0, 0.0, 0.0, 0.0, 0.0, 0.0)",0.02872919688306315,-0.6469982732066174,1.253287285509799,"(0.0, 0.0, 0.0, 0.0, 0.0, 0.0)",-0.2162473971085442,0.8524025140258721,1.2693794683191757,"(0.0, 0.0, 0.0, 0.0, 0.0, 0.0)",-0.02891303657535659,False,,,,,False,,,,
58,Close,,,"(0.009998679410322496, 0.16003066597344334, 0.0474253884764576)","(-0.0006112814540129935, -4.2805404436077314e-05, 1.9447426774393396e-07)",,"[-0.026750000193715096, 0.05299999937415123, 0.03999999910593033]","[0.0, -0.0, 0.6468945636476681]","[-0.07014521211385727, 0.11045306921005249, 0.03999999910593033]","[0.0, 0.0, -0.20600854729134555]","[0.026750000193715096, 0.05299999937415123, 0.03999999910593033]","[0.0, 0.0, -0.6469982503054421]","[0.07015117257833481, 0.11044856905937195, 0.03999999910593033]","[0.0, -0.0, 0.20540423443750838]",0.6422051273538913,-1.125470062770436,"(0.0, 0.0, 0.0, 0.0, 0.0, 0.0)",0.1941029233168818,-0.8576131917611358,-1.1304161436567226,"(0.0, 0.0, 0.0, 0.0, 0.0, 0.0)",0.025868240883426936,-0.6422984458859556,1.1279585569588184,"(0.0, 0.0, 0.0, 0.0, 0.0, 0.0)",-0.19464040126091972,0.8571626447690798,1.1424313783698345,"(0.0, 0.0, 0.0, 0.0, 0.0, 0.0)",-0.026033851694478666,False,,,,,False,,,,
59,Move,,,"(0.009998826598722164, 0.16002774252192944, 0.04755055901421763)","(-0.0005516191299448554, -3.980150267197137e-05, 2.339437659612592e-07)","[0.0, 0.0, 0.0]","[-0.026750000193715096, 0.05299999937415123, 0.03999999910593033]","[0.0, -0.0, 0.6422051137296667]","[-0.0698753148317337, 0.11065594106912613, 0.03999999910593033]","[0.0, 0.0, -0.2154080556264429]","[0.026750000193715096, 0.05299999937415123, 0.03999999910593033]","[0.0, 0.0, -0.6422983956794274]","[0.06988069415092468, 0.1106519103050232, 0.03999999910593033]","[0.0, -0.0, 0.21486417441436167]",0.6379846146185022,-1.0129230564933929,"(0.0, 0.0, 0.0, 0.0, 0.0, 0.0)",0.17470684718642912,-0.8618522144704561,-1.0173654502368856,"(0.0, 0.0, 0.0, 0.0, 0.0, 0.0)",0.023291096758263134,-0.6380686012973601,1.0151627012629356,"(0.0, 0.0, 0.0, 0.0, 0.0, 0.0)",-0.1751907229705418,0.8614467243673204,1.02817910357775,"(0.0, 0.0, 0.0, 0.0, 0.0, 0.0)",-0.023440272040621463,False,,,,,True,"(0.04276013174954747, 0.17974174897294792, 0.02399995643463635)","(-0.9999999990838299, -1.9447426661030803e-07, -4.2805404423670755e-05)",0.0013234533115717422,0.0
60,Move,,,"(0.008699259039732246, 0.1597652061907072, 0.04782485533738502)","(0.0040480273580015685, 0.009650479713711625, 0.017575803187450934)","[-0.0012995675589899183, -0.00026253633122225173, 0.00027429632316738894]","[-0.026750000193715096, 0.05299999937415123, 0.03999999910593033]","[0.0, -0.0, 0.6379846501970732]","[-0.06963159143924713, 0.1108374372124672, 0.03999999910593033]","[0.0, 0.0, -0.22386762157269943]","[0.026750000193715096, 0.05299999937415123, 0.03999999910593033]","[0.0, 0.0, -0.638068602671057]","[0.06963644921779633, 0.11083383113145828, 0.03999999910593033]","[0.0, -0.0, 0.22337816170537766]",0.6141590059460926,-5.718146081378296,"(0.0, 0.0, 0.0, 0.0, 0.0, 0.0)",-6.715100343954984,-0.8614283121995241,0.10173654502368734,"(0.0, 0.0, 0.0, 0.0, 0.0, 0.0)",-0.3723637437215536,-0.6186765363685498,4.654095582914465,"(0.0, 0.0, 0.0, 0.0, 0.0, 0.0)",16.91452213543579,0.8602423878670417,-0.28904076006690205,"(0.0, 0.0, 0.0, 0.0, 0.0, 0.0)",7.026754130549747,False,,,,,True,"(0.041928616181162004, 0.17969877893574898, 0.023999959438538117)","(-0.9999999992078928, -2.3394376620903917e-07, -3.980150265941498e-05)",0.0004918567139684023,94.17969713248019
61,Move,,,"(0.006953428279101256, 0.15936555806379668, 0.04799883027777207)","(0.0036027003309908674, 0.011726089522938334, 0.045571805054608026)","[-0.0030453983196209082, -0.000662184458132764, 0.0004482712635544353]","[-0.026750000193715096, 0.05299999937415123, 0.03999999910593033]","[0.0, -0.0, 0.6141590305095613]","[-0.06824154406785965, 0.11184260249137878, 0.03999999910593033]","[0.0, 0.0, -0.24726930604170874]","[0.026750000193715096, 0.05299999937415123, 0.03999999910593033]","[0.0, 0.0, -0.6186765449450942]","[0.06850694119930267, 0.11165456473827362, 0.03999999910593033]","[0.0, -0.0, 0.24156588090171732]",0.5923752537221402,-5.228100533748595,"(0.0, 0.0, 0.0, 0.0, 0.0, 0.0)",0.6968351830029371,-0.8614707024266173,-0.010173654502368734,"(0.0, 0.0, 0.0, 0.0, 0.0, 0.0)",0.03860943376531379,-0.6008618977467228,4.275513269238477,"(0.0, 0.0, 0.0, 0.0, 0.0, 0.0)",3.1840553339598543,0.8603207379647874,0.018804023458970476,"(0.0, 0.0, 0.0, 0.0, 0.0, 0.0)",2.2071937117843152,False,,,,,True,"(0.03955126028332891, 0.18000420521160232, 0.023999959438538117)","(-0.9999999992078928, -2.3394376620903917e-07, -3.980150265941498e-05)",-4.69285261207243e-06,0.0
62,Move,,,"(0.005232479171843643, 0.15895611509417099, 0.04805192961782931)","(0.0015613319654504138, 0.011710638263295036, 0.07400765980182708)","[-0.004766347426878521, -0.0010716274277584592, 0.0005013706036116755]","[-0.026750000193715096, 0.05299999937415123, 0.03999999910593033]","[0.0, -0.0, 0.5923752994005711]","[-0.0669499859213829, 0.1127324104309082, 0.03999999910593033]","[0.0, 0.0, -0.2690954538189607]","[0.026750000193715096, 0.05299999937415123, 0.03999999910593033]","[0.0, 0.0, -0.6008619062673114]","[0.0674554631114006, 0.11238910257816315, 0.03999999910593033]","[0.0, -0.0, 0.2594588653702835]",0.5711748754471921,-5.088090785987531,"(0.0, 0.0, 0.0, 0.0, 0.0, 0.0)",0.20179723839696584,-0.8614666854136499,0.0009640831121563087,"(0.0, 0.0, 0.0, 0.0, 0.0, 0.0)",0.015124512099487388,-0.5830478441846109,4.27537285490686,"(0.0, 0.0, 0.0, 0.0, 0.0, 0.0)",-0.00040728805220429705,0.8603129289032243,-0.001874174775147154,"(0.0, 0.0, 0.0, 0.0, 0.0, 0.0)",-0.0017677334094061982,False,,,,,True,"(0.03728150083157586, 0.18020972647077313, 0.023999959438538117)","(-0.9999999992078928, -2.3394376620903917e-07, -3.980150265941498e-05)",0.00010136561290409651,0.0
63,Move,,,"(0.003536438132730313, 0.15853702184869162, 0.04798413986117641)","(-0.002178499075898401, 0.009685758062407228, 0.10285468498251224)","[-0.006462388465991851, -0.0014907206732378275, 0.0004335808469587768]","[-0.026750000193715096, 0.05299999937415123, 0.03999999910593033]","[0.0, -0.0, 0.5711748797881039]","[-0.06567469984292984, 0.1135711818933487, 0.03999999910593033]","[0.0, 0.0, -0.2902918330000066]","[0.026750000193715096, 0.05299999937415123, 0.03999999910593033]","[0.0, 0.0, -0.5830479010023177]","[0.06639109551906586, 0.11310476809740067, 0.03999999910593033]","[0.0, -0.0, 0.2772650915613622]",0.5507922484404775,-4.891830481611522,"(0.0, 0.0, 0.0, 0.0, 0.0, 0.0)",0.282294284049585,-0.8614673765775518,-0.00016587933645189224,"(0.0, 0.0, 0.0, 0.0, 0.0, 0.0)",0.019719768305812027,-0.565275293151566,4.265412247930778,"(0.0, 0.0, 0.0, 0.0, 0.0, 0.0)",-0.012306804327906049,0.8603137161198487,0.00018893198985979812,"(0.0, 0.0, 0.0, 0.0, 0.0, 0.0)",-0.0004299034376783175,False,,,,,True,"(0.035014354147368115, 0.18037738642755824, 0.023999959438538117)","(-0.9999999992078928, -2.3394376620903917e-07, -3.980150265941498e-05)",0.0001657852207818292,0.0
64,Move,,,"(0.0033070809685918903, 0.15939336139403074, 0.0480245948749005)","(-0.003221721649284341, 0.008758192496794307, 0.10007245081902345)","[-0.006691745630130274, -0.0006343811278987088, 0.00047403586068286985]","[-0.026750000193715096, 0.05299999937415123, 0.03999999910593033]","[0.0, -0.0, 0.5507922756468575]","[-0.06443209946155548, 0.11435192823410034, 0.03999999910593033]","[0.0, 0.0, -0.31067510738133]","[0.026750000193715096, 0.05299999937415123, 0.03999999910593033]","[0.0, 0.0, -0.5652752430676895]","[0.06531667709350586, 0.11379976570606232, 0.03999999910593033]","[0.0, -0.0, 0.2950384296353975]",0.5330621314256022,-4.255228083570051,"(0.0, 0.0, 0.0, 0.0, 0.0, 0.0)",-63.6841566907319,-0.833899768100212,6.616226034561552,"(0.0, 0.0, 0.0, 0.0, 0.0, 0.0)",-32.0033096547166,-0.5494184347075574,3.805646026562078,"(0.0, 0.0, 0.0, 0.0, 0.0, 0.0)",54.08522476914028,0.834294882877888,-6.244519978070589,"(0.0, 0.0, 0.0, 0.0, 0.0, 0.0)",25.974823871813367,True,"(-0.030827226021807298, 0.18072875671023755, 0.023990313633420805)","(0.9946684597633704, 0.10266861339458756, -0.009685606619977753)",0.00023266339136997558,510.2877732171601,True,"(0.03274929454054999, 0.18050411530517568, 0.023999959438538117)","(-0.9999999992078928, -2.3394376620903917e-07, -3.980150265941498e-05)",0.00018643181396489492,418.4587664295024
65,Move,"(0.0028, 0.0, -0.0019)","(0.0, 0.03882310388136187, 0.0)","(0.0031969503873777684, 0.16028143882127593, 0.048054583489053525)","(-0.004372781608329888, 0.007939463136719069, 0.09861198334618497)","[-0.006801876211344396, 0.00025369629934648974, 0.0005040244748358916]","[-0.026750000193715096, 0.05299999937415123, 0.03999999910593033]","[0.0, -0.0, 0.5330621158171134]","[-0.06333845853805542, 0.11501035839319229, 0.03999999910593033]","[0.0, 0.0, -0.30083767855036603]","[0.026750000193715096, 0.05299999937415123, 0.03999999910593033]","[0.0, 0.0, -0.549418426545043]","[0.0643477737903595, 0.11440364271402359, 0.03999999910593033]","[0.0, -0.0, 0.2848764361199625]",0.5161701590322703,-4.054073374399667,"(0.0, 0.0, 0.0, 0.0, 0.0, 0.0)",-68.88180562685734,-0.8061093417891989,6.669702314643141,"(0.0, 0.0, 0.0, 0.0, 0.0, 0.0)",-35.756361121383094,-0.5337544439677235,3.7593577775601132,"(0.0, 0.0, 0.0, 0.0, 0.0, 0.0)",68.77952387616044,0.8075007011486295,-6.430603615022057,"(0.0, 0.0, 0.0, 0.0, 0.0, 0.0)",33.85011913137436,True,"(-0.030386831991674287, 0.18170201039644102, 0.02399124115951112)","(0.9949587688124035, 0.09990167360330966, -0.008758080529661552)",-0.0003521033588324185,534.8399967547618,True,"(0.03245991098360225, 0.1814354915724969, 0.023999959438538117)","(-0.9999999992078928, -2.3394376620903917e-07, -3.980150265941498e-05)",3.895377007335016e-05,524.277520594291
66,Move,"(0.0032, 0.0, -0.0023)","(0.0, 0.03468318289563132, 0.0)","(0.003149369680985342, 0.1610963566103055, 0.04805074084626773)","(-0.004901095844956295, 0.003787213542987612, 0.09411289295578187)","[-0.006849456917736823, 0.001068614088376052, 0.0005001818320500978]","[-0.026750000193715096, 0.05299999937415123, 0.03999999910593033]","[0.0, -0.0, 0.5161702079325045]","[-0.062285806983709335, 0.11561953276395798, 0.03999999910593033]","[0.0, 0.0, -0.28993919682770425]","[0.026750000193715096, 0.05299999937415123, 0.03999999910593033]","[0.0, 0.0, -0.5337544427276155]","[0.0633813738822937, 0.11498501896858215, 0.03999999910593033]","[0.0, -0.0, 0.27374624928461355]",0.5160551452773663,-0.0276033011769643,"(0.0, 0.0, 0.0, 0.0, 0.0, 0.0)",4.434607377287076,-0.8088774200154456,-0.6643387742992095,"(0.0, 0.0, 0.0, 0.0, 0.0, 0.0)",-0.7006093277005243,-0.5373049917951173,-0.8521314785744942,"(0.0, 0.0, 0.0, 0.0, 0.0, 0.0)",-5.959409649394798,0.8101801193215553,0.6430603615022044,"(0.0, 0.0, 0.0, 0.0, 0.0, 0.0)",0.2554163874110717,True,"(-0.03006166347399304, 0.18265404950541297, 0.023992059860314583)","(0.9951104129424696, 0.09844913561342714, -0.007939379726199769)",-0.0007346128178897825,4.924774288532161,True,"(0.032241548852435555, 0.18236762460912842, 0.023999959438538117)","(-0.9999999992078928, -2.3394376620903917e-07, -3.980150265941498e-05)",-0.00012424112725224057,0.0
67,Move,"(0.0045000000000000005, 0.0, -0.0029)","(0.0, 0.021678734639021566, 0.0)","(0.003082477211667453, 0.16186616174202925, 0.04797368859140825)","(-0.004681706469591798, -0.0017346877242364303, 0.08894180934682284)","[-0.006916349387054712, 0.0018384192200998073, 0.000423129577190616]","[-0.026750000193715096, 0.05299999937415123, 0.03999999910593033]","[0.0, -0.0, 0.5160551237165719]","[-0.06227860599756241, 0.11562362313270569, 0.03999999910593033]","[0.0, 0.0, -0.29282228613544276]","[0.026750000193715096, 0.05299999937415123, 0.03999999910593033]","[0.0, 0.0, -0.5373050152387541]","[0.06360122561454773, 0.11485456675291061, 0.03999999910593033]","[0.0, -0.0, 0.2728751471966285]",0.5142768567192261,-0.4267892539536587,"(0.0, 0.0, 0.0, 0.0, 0.0, 0.0)",-0.5274783202661543,-0.80860176404508,0.06615743288774845,"(0.0, 0.0, 0.0, 0.0, 0.0, 0.0)",0.021442316557768293,-0.5391481572742229,-0.4423597149853606,"(0.0, 0.0, 0.0, 0.0, 0.0, 0.0)",0.5212469670532098,0.809912177504267,-0.06430603614918018,"(0.0, 0.0, 0.0, 0.0, 0.0, 0.0)",-0.03089618509620082,True,"(-0.029861151263256044, 0.18256334616559533, 0.023996212035551114)","(0.995567509753206, 0.09397335050935264, -0.0037872044896691483)",-0.0006812223170984386,0.18108252515595114,True,"(0.0325201090555676, 0.18226427397899456, 0.023999959438538117)","(-0.9999999992078928, -2.3394376620903917e-07, -3.980150265941498e-05)",1.1159908048446488e-06,0.0
68,Move,"(0.0032, 0.0, -0.0043)","(0.0, 0.004553564018453207, 0.0)","(0.0032629027783409206, 0.16241341202919915, 0.048041246733268206)","(-0.003836858725546896, -0.0016283697745926218, 0.08591238694580214)","[-0.006735923820381243, 0.0023856695072697054, 0.0004906877190505726]","[-0.026750000193715096, 0.05299999937415123, 0.03999999910593033]","[0.0, -0.0, 0.5142768062006718]","[-0.06216718629002571, 0.11568670719861984, 0.03999999910593033]","[0.0, 0.0, -0.29432493232766893]","[0.026750000193715096, 0.05299999937415123, 0.03999999910593033]","[0.0, 0.0, -0.5391481433498522]","[0.06371517479419708, 0.1147865355014801, 0.03999999910593033]","[0.0, -0.0, 0.27076404077409777]",0.5121780271570884,-0.5037190949130465,"(0.0, 0.0, 0.0, 0.0, 0.0, 0.0)",-2.7021354624440006,-0.8082219490037054,0.09115560992990653,"(0.0, 0.0, 0.0, 0.0, 0.0, 0.0)",-1.4367096482296744,-0.5412480849822308,-0.5039826499218782,"(0.0, 0.0, 0.0, 0.0, 0.0, 0.0)",0.15604855314603386,0.8095980686472588,-0.07538612568196727,"(0.0, 0.0, 0.0, 0.0, 0.0, 0.0)",0.1427005772534359,True,"(-0.029649183099631, 0.18257764015086228, 0.023996212035551114)","(0.995567509753206, 0.09397335050935264, -0.0037872044896691483)",-0.0006266339289167812,16.03386199707083,True,"(0.03286372973029333, 0.18112489891907196, 0.05600378796444889)","(-0.995567509753206, -0.09397335050935278, 0.003787204489668658)",-5.166659410022954e-05,2.0104746462594996
69,Move,"(0.004200000000000001, 0.0, -0.0050999999999999995)","(0.0, 0.0039671333897831115, 0.0)","(0.0034199411116873856, 0.16288288569848108, 0.04807206168117449)","(-0.002041747691575832, -0.0014947176476963818, 0.08302947268200857)","[-0.006578885487034778, 0.002855143176551639, 0.0005215026669568579]","[-0.026750000193715096, 0.05299999937415123, 0.03999999910593033]","[0.0, -0.0, 0.5121780523010839]","[-0.062035541981458664, 0.11576090008020401, 0.03999999910593033]","[0.0, 0.0, -0.2960439058343951]","[0.026750000193715096, 0.05299999937415123, 0.03999999910593033]","[0.0, 0.0, -0.5412480837727894]","[0.06384483724832535, 0.11470877379179001, 0.03999999910593033]","[0.0, -0.0, 0.26834999245053076]",0.5104961377581954,-0.4036534557343203,"(0.0, 0.0, 0.0, 0.0, 0.0, 0.0)",-0.08234732329157463,-0.8081658594737916,0.013461487179311796,"(0.0, 0.0, 0.0, 0.0, 0.0, 0.0)",-0.11920765818210743,-0.5432048137894534,-0.46961491373343583,"(0.0, 0.0, 0.0, 0.0, 0.0, 0.0)",0.23759793283806296,0.8095281188920195,-0.01678794125743513,"(0.0, 0.0, 0.0, 0.0, 0.0, 0.0)",0.12059995865653515,True,"(-0.029402152704793648, 0.182590880065503, 0.056001629129014185)","(0.9963104793493097, 0.08580662650966761, 0.0016283690549580582)",-0.0006367859135313142,1.6706255779470773,True,"(0.033153628363980496, 0.18112142169912251, 0.05600378796444889)","(-0.995567509753206, -0.09397335050935278, 0.003787204489668658)",-4.630316213557232e-05,1.4827527358525956
70,Move,"(0.0048, 0.0, -0.0057)","(0.0, 0.008576547944300137, 0.0)","(0.0036099244239675876, 0.1633061788795521, 0.04800737414022432)","(0.0001649831068705522, 0.0011319994219619984, 0.08132449237212283)","[-0.006388902174754577, 0.0032784363576226494, 0.00045681512600668356]","[-0.026750000193715096, 0.05299999937415123, 0.03999999910593033]","[0.0, -0.0, 0.5104961737520791]","[-0.06192993372678757, 0.11582015454769135, 0.03999999910593033]","[0.0, 0.0, -0.2976697384301211]","[0.026750000193715096, 0.05299999937415123, 0.03999999910593033]","[0.0, 0.0, -0.5432047990231483]","[0.06396551430225372, 0.11463607102632523, 0.03999999910593033]","[0.0, -0.0, 0.2663233222181495]",0.5086627934880867,-0.440002624826075,"(0.0, 0.0, 0.0, 0.0, 0.0, 0.0)",-0.35669317255067556,-0.8081659441679455,-2.03265969302268e-05,"(0.0, 0.0, 0.0, 0.0, 0.0, 0.0)",-0.17263530865524848,-0.5454255136924565,-0.5329679767207488,"(0.0, 0.0, 0.0, 0.0, 0.0, 0.0)",-0.09018225759364679,0.8095351138675434,0.0016787941257438987,"(0.0, 0.0, 0.0, 0.0, 0.0, 0.0)",-0.004671933692966742,True,"(-0.029187831705936786, 0.18259574129012604, 0.05600149547705035)","(0.9965539198764216, 0.08293401352735848, 0.0014947170911226433)",-0.0005883147685189036,2.303236214785547,True,"(0.03340857255079459, 0.1811152984392007, 0.023998504522949653)","(-0.9965539198764216, -0.08293401352735666, -0.0014947170911233983)",-7.560787592594092e-05,0.0
71,Move,"(0.005200000000000001, 0.0, -0.005900000000000001)","(0.0, 0.017139133254584316, 0.0)","(0.003829448885836925, 0.1635673569377468, 0.048085714122232774)","(-0.0024693997365586896, 0.003677606661778732, 0.07755611780785958)","[-0.006169377712885239, 0.0035396144158173493, 0.0005351551080151409]","[-0.026750000193715096, 0.05299999937415123, 0.03999999910593033]","[0.0, -0.0, 0.5086627719071507]","[-0.06181470304727554, 0.11588454991579056, 0.03999999910593033]","[0.0, 0.0, -0.2995032054286591]","[0.026750000193715096, 0.05299999937415123, 0.03999999910593033]","[0.0, 0.0, -0.5454255223715695]","[0.06410229951143265, 0.11455328017473221, 0.03999999910593033]","[0.0, -0.0, 0.2641095766747484]",0.5068264711608411,-0.44071735853896116,"(0.0, 0.0, 0.0, 0.0, 0.0, 0.0)",-1.4335371510822255,-0.8078407777715481,0.07803993513539999,"(0.0, 0.0, 0.0, 0.0, 0.0, 0.0)",-0.7699297613641316,-0.5477922852559143,-0.5680251752298695,"(0.0, 0.0, 0.0, 0.0, 0.0, 0.0)",0.38523793368174825,0.8092530925503918,-0.06768511611637314,"(0.0, 0.0, 0.0, 0.0, 0.0, 0.0)",0.2569289089747364,True,"(-0.028950228481942786, 0.18259999009360275, 0.05600149547705035)","(0.9965539198764216, 0.08293401352735848, 0.0014947170911226433)",-0.000541806256093546,0.0,True,"(0.033692596036048676, 0.18109998314576242, 0.023998504522949653)","(-0.9965539198764216, -0.08293401352735666, -0.0014947170911233983)",1.842092083811956e-05,0.0
72,Move,"(0.0053, 0.0, -0.006200000000000001)","(0.0, 0.008576547944300137, 0.0)","(0.0040301228440972415, 0.16377927769389794, 0.04816997453780739)","(-0.002397645898049775, 0.0036498989890960364, 0.07457695353821449)","[-0.005968703754624923, 0.0037515351719684953, 0.00061941552358976]","[-0.026750000193715096, 0.05299999937415123, 0.03999999910593033]","[0.0, -0.0, 0.5068265526992978]","[-0.061699166893959045, 0.11594883352518082, 0.03999999910593033]","[0.0, 0.0, -0.30101432021152386]","[0.026750000193715096, 0.05299999937415123, 0.03999999910593033]","[0.0, 0.0, -0.5477922955666469]","[0.06424787640571594, 0.11446470022201538, 0.03999999910593033]","[0.0, -0.0, 0.26146080256749116]",0.5049949289679802,-0.4395701262866393,"(0.0, 0.0, 0.0, 0.0, 0.0, 0.0)",-0.5045115042419316,-0.8078702012488244,-0.007061634546325024,"(0.0, 0.0, 0.0, 0.0, 0.0, 0.0)",-0.2794645529619731,-0.5502220057173951,-0.583132910755392,"(0.0, 0.0, 0.0, 0.0, 0.0, 0.0)",-0.014360300667544516,0.809281294682107,0.006768511611638495,"(0.0, 0.0, 0.0, 0.0, 0.0, 0.0)",0.006142410432116852,True,"(-0.028733913253244654, 0.18261453462667776, 0.05600149547705035)","(0.9965539198764216, 0.08293401352735848, 0.0014947170911226433)",-0.00041290793300866995,0.0,True,"(0.03401454874348112, 0.18109172193160514, 0.023998504522949653)","(-0.9965539198764216, -0.08293401352735666, -0.0014947170911233983)",0.00010134586456580652,0.0
73,Move,"(0.0054, 0.0, -0.0063)","(0.0, 0.008576547944300137, 0.0)","(0.004212326306522597, 0.16394756247112932, 0.0482354144907392)","(-0.002206917062565317, 0.0033549694500903476, 0.0714001797160709)","[-0.0057865002921995675, 0.003919819949199876, 0.0006848554765215634]","[-0.026750000193715096, 0.05299999937415123, 0.03999999910593033]","[0.0, -0.0, 0.5049949465376881]","[-0.06158381700515747, 0.11601273715496063, 0.03999999910593033]","[0.0, 0.0, -0.3028752889927828]","[0.026750000193715096, 0.05299999937415123, 0.03999999910593033]","[0.0, 0.0, -0.5502220587341584]","[0.06439710408449173, 0.11437340825796127, 0.03999999910593033]","[0.0, -0.0, 0.25905927998624545]",0.5032005482444015,-0.43065137365887246,"(0.0, 0.0, 0.0, 0.0, 0.0, 0.0)",-0.37593027163343923,-0.8078382522829393,0.007667751812418253,"(0.0, 0.0, 0.0, 0.0, 0.0, 0.0)",-0.21155053075324304,-0.5526800857131038,-0.5899391989700895,"(0.0, 0.0, 0.0, 0.0, 0.0, 0.0)",-0.010811716826240055,0.8092784744689354,-0.0006768511611641159,"(0.0, 0.0, 0.0, 0.0, 0.0, 0.0)",-0.0014951115183726824,True,"(-0.028494555826808737, 0.18261697727425735, 0.05600149547705035)","(0.9965539198764216, 0.08293401352735848, 0.0014947170911226433)",-0.00036693906400808035,0.7990185770183427,True,"(0.03432387299347889, 0.18107284492626152, 0.023998504522949653)","(-0.9965539198764216, -0.08293401352735666, -0.0014947170911233983)",0.00014362281788954015,0.0
74,Move,"(0.0057, 0.0, -0.006500000000000001)","(0.0, 0.008576547944300137, 0.0)","(0.004356031005578514, 0.164094206868014, 0.04826177164701765)","(-0.0020278575347669947, 0.0019624415814105903, 0.06781116477046466)","[-0.0056427955931436504, 0.004066464346084542, 0.0007112126328000165]","[-0.026750000193715096, 0.05299999937415123, 0.03999999910593033]","[0.0, -0.0, 0.5032005619921567]","[-0.06147069111466408, 0.11607514321804047, 0.03999999910593033]","[0.0, 0.0, -0.30463771685318924]","[0.026750000193715096, 0.05299999937415123, 0.03999999910593033]","[0.0, 0.0, -0.5526800909067471]","[0.06454785168170929, 0.11428068578243256, 0.03999999910593033]","[0.0, -0.0, 0.2565983895101331]",0.5014471409087621,-0.4208177605534646,"(0.0, 0.0, 0.0, 0.0, 0.0, 0.0)",-0.17981597138975952,-0.8078400706976517,-0.0004364195309982614,"(0.0, 0.0, 0.0, 0.0, 0.0, 0.0)",-0.10773912378635786,-0.5551492654488269,-0.5926031365735636,"(0.0, 0.0, 0.0, 0.0, 0.0, 0.0)",-0.003950144713594918,0.8092787564902526,6.768511611721095e-05,"(0.0, 0.0, 0.0, 0.0, 0.0, 0.0)",-0.00021549661282834208,True,"(-0.028263758119688967, 0.18261631099099163, 0.023996644276884502)","(0.9974464763129983, 0.07133912750379892, -0.003354963156280257)",-0.00045697653249162306,1.4707186546255389,True,"(0.034638851407960664, 0.18105392519140104, 0.023998504522949653)","(-0.9965539198764216, -0.08293401352735666, -0.0014947170911233983)",0.00020429749988033413,0.0
75,Move,"(0.0055, 0.0, -0.0063)","(0.0, 0.004593706591249077, 0.0)","(0.0044639040238510916, 0.16422938626610417, 0.04825136153487527)","(-0.001860573773805743, -0.00045790752271405863, 0.06365230795696947)","[-0.005534922574871073, 0.004201643744174727, 0.0007008025206576354]","[-0.026750000193715096, 0.05299999937415123, 0.03999999910593033]","[0.0, -0.0, 0.5014471591863092]","[-0.06136004254221916, 0.11613592505455017, 0.03999999910593033]","[0.0, 0.0, -0.30639297043794844]","[0.026750000193715096, 0.05299999937415123, 0.03999999910593033]","[0.0, 0.0, -0.555149268439895]","[0.06469905376434326, 0.11418716609477997, 0.03999999910593033]","[0.0, -0.0, 0.25412952720994675]",0.4996790696595755,-0.4243370998047861,"(0.0, 0.0, 0.0, 0.0, 0.0, 0.0)",-0.22668925140925092,-0.8078386425043478,0.0003427663929457487,"(0.0, 0.0, 0.0, 0.0, 0.0, 0.0)",-0.12075202578802803,-0.5576753292754607,-0.6062553183921109,"(0.0, 0.0, 0.0, 0.0, 0.0, 0.0)",-0.01998833583663933,0.8092787282881209,-6.768511612520469e-06,"(0.0, 0.0, 0.0, 0.0, 0.0, 0.0)",-0.0014412190776837228,True,"(-0.02803623519867847, 0.18261687618102287, 0.023998036799718996)","(0.9976997827047511, 0.06775907628410954, -0.001962440321792879)",-0.00042193823712967984,1.6931758513269546,True,"(0.03495499634303108, 0.18103404746820811, 0.023998504522949653)","(-0.9965539198764216, -0.08293401352735666, -0.0014947170911233983)",0.00027369394457062575,0.0
76,Move,"(0.0060999999999999995, 0.0, -0.006500000000000001)","(0.0, 0.004593706591249077, 0.0)","(0.004629512596167694, 0.1643145079020796, 0.04831042292918155)","(-0.001709155995548657, -0.0004225554410202452, 0.05997353026597666)","[-0.0053693140025544706, 0.004286765380150159, 0.0007598639149639166]","[-0.026750000193715096, 0.05299999937415123, 0.03999999910593033]","[0.0, -0.0, 0.4996791062234705]","[-0.061248358339071274, 0.11619701981544495, 0.03999999910593033]","[0.0, 0.0, -0.3081595904448456]","[0.026750000193715096, 0.05299999937415123, 0.03999999910593033]","[0.0, 0.0, -0.5576753049108613]","[0.0648534893989563, 0.11409111320972443, 0.03999999910593033]","[0.0, -0.0, 0.251603391901723]",0.4980006516250087,-0.4028203282960338,"(0.0, 0.0, 0.0, 0.0, 0.0, 0.0)",-1.265800094454023,-0.807792725627079,0.011020050544500228,"(0.0, 0.0, 0.0, 0.0, 0.0, 0.0)",-0.7013124374192329,-0.560157710669508,-0.5957715345713616,"(0.0, 0.0, 0.0, 0.0, 0.0, 0.0)",0.01505591984181125,0.809278731108334,6.768511617849526e-07,"(0.0, 0.0, 0.0, 0.0, 0.0, 0.0)",0.001072194247584032,True,"(-0.02780715629884848, 0.1826189954998352, 0.023998036799718996)","(0.9976997827047511, 0.06775907628410954, -0.001962440321792879)",-0.0003885985413483492,8.682205923187244,True,"(0.035278085807321016, 0.18101756053844129, 0.023999541332534065)","(-0.9979747711092859, -0.06360932753994243, -0.0004579075067085728)",0.000371555301998681,0.0
77,Move,"(0.006500000000000001, 0.0, -0.0067)","(0.0, 0.01321039710834508, 0.0)","(0.004808814659037866, 0.1643915869979707, 0.048364806858195476)","(-0.001570468073573815, -0.00038838422388370734, 0.056229787369196996)","[-0.005190011939684299, 0.004363844476041268, 0.0008142478439778431]","[-0.026750000193715096, 0.05299999937415123, 0.03999999910593033]","[0.0, -0.0, 0.49800066037238644]","[-0.06114223971962929, 0.11625483632087708, 0.03999999910593033]","[0.0, 0.0, -0.3097920796835316]","[0.026750000193715096, 0.05299999937415123, 0.03999999910593033]","[0.0, 0.0, -0.5601577289612942]","[0.06500502675771713, 0.11399633437395096, 0.03999999910593033]","[0.0, -0.0, 0.24912104247599234]",0.49621333030605547,-0.4289571165487755,"(0.0, 0.0, 0.0, 0.0, 0.0, 0.0)",-0.7558342246935156,-0.8077773234633012,0.0036965193066654783,"(0.0, 0.0, 0.0, 0.0, 0.0, 0.0)",-0.3935084657347897,-0.5627799771956009,-0.6293439662623008,"(0.0, 0.0, 0.0, 0.0, 0.0, 0.0)",-0.04890126138713689,0.8092787308263127,-6.768511617849526e-08,"(0.0, 0.0, 0.0, 0.0, 0.0, 0.0)",-0.0035015117857855015,True,"(-0.027592647395841635, 0.1826221278376921, 0.023998036799718996)","(0.9976997827047511, 0.06775907628410954, -0.001962440321792879)",-0.00035602234563711984,4.3693033483954515,True,"(0.03559577498725167, 0.18099719028379635, 0.023999576684612327)","(-0.9982020377007724, -0.059937579004627886, -0.0004225554284492335)",0.0004632330361250355,0.0
78,Move,"(0.007, 0.0, -0.0067)","(0.0, 0.021800907686661174, 0.0)","(0.004990504187406254, 0.16446649316086517, 0.0484148682876364)","(-0.0014419402805980737, -0.0003561781470531115, 0.052475454911696584)","[-0.00500832241131591, 0.004438750638935729, 0.0008643092734187674]","[-0.026750000193715096, 0.05299999937415123, 0.03999999910593033]","[0.0, -0.0, 0.4962133369821667]","[-0.06102912873029709, 0.11631619930267334, 0.03999999910593033]","[0.0, 0.0, -0.3115640390062638]","[0.026750000193715096, 0.05299999937415123, 0.03999999910593033]","[0.0, 0.0, -0.5627800312702357]","[0.06516484171152115, 0.11389581114053726, 0.03999999910593033]","[0.0, -0.0, 0.2464987580905356]",0.49439861607330743,-0.4355314158595302,"(0.0, 0.0, 0.0, 0.0, 0.0, 0.0)",-0.6361913720985811,-0.8077652133223671,0.002906433824192661,"(0.0, 0.0, 0.0, 0.0, 0.0, 0.0)",-0.3425460396472376,-0.5654478449970426,-0.6402882723460142,"(0.0, 0.0, 0.0, 0.0, 0.0, 0.0)",-0.016060502850984173,0.8092787308545148,6.7685110849424746e-09,"(0.0, 0.0, 0.0, 0.0, 0.0, 0.0)",-0.0011538065777490457,True,"(-0.027361991059506166, 0.18262394543313806, 0.023998036799718996)","(0.9976997827047511, 0.06775907628410954, -0.001962440321792879)",-0.00032449742410761283,3.3262998490253723,True,"(0.03593132328720729, 0.1809746739340248, 0.02399961085582666)","(-0.9984194466982595, -0.05620015669411933, -0.0003883842141159066)",0.000558826775331629,0.0
79,Move,"(0.0077, 0.0, -0.0070999999999999995)","(0.0, 0.025689501260104535, 0.0)","(0.005177023527639785, 0.16454060286194108, 0.048460950677213836)","(-0.0013225597832410704, -0.00032587071946415836, 0.048654420202647056)","[-0.004821803071082379, 0.004512860340011637, 0.0009103916629962031]","[-0.026750000193715096, 0.05299999937415123, 0.03999999910593033]","[0.0, -0.0, 0.494398665447858]","[-0.06091416999697685, 0.1163783073425293, 0.03999999910593033]","[0.0, 0.0, -0.31336657814119034]","[0.026750000193715096, 0.05299999937415123, 0.03999999910593033]","[0.0, 0.0, -0.5654478914606035]","[0.06532716751098633, 0.11379311233758926, 0.03999999910593033]","[0.0, -0.0, 0.2438309136912501]",0.4925292332348369,-0.4486518812329345,"(0.0, 0.0, 0.0, 0.0, 0.0, 0.0)",-0.6623896966643475,-0.8077550083470604,0.0024491940736040014,"(0.0, 0.0, 0.0, 0.0, 0.0, 0.0)",-0.3535327408095064,-0.5681837522840101,-0.6566177488722102,"(0.0, 0.0, 0.0, 0.0, 0.0, 0.0)",-0.023881876626734945,0.8092787308516947,-6.768505755871956e-10,"(0.0, 0.0, 0.0, 0.0, 0.0, 0.0)",-0.0017132524530046568,True,"(-0.027127562019624837, 0.18262525174892535, 0.023998036799718996)","(0.9976997827047511, 0.06775907628410954, -0.001962440321792879)",-0.00029372724704357215,3.033820081197246,True,"(0.036272652130277465, 0.18095080891196025, 0.02399964306190125)","(-0.9986234158893277, -0.052451371523188926, -0.0003561781395250315)",0.0006580141394904132,0.0
80,Move,"(0.0105, 0.0, -0.0068)","(0.0, 0.034222415973104825, 0.0)","(0.005379876242034255, 0.16461268166897122, 0.0485032459043961)","(-0.0016291464234687648, 0.00011016607705484638, 0.04498794118031161)","[-0.004618950356687909, 0.004584939147041778, 0.0009526868901784669]","[-0.026750000193715096, 0.05299999937415123, 0.03999999910593033]","[0.0, -0.0, 0.4925292961935143]","[-0.060795631259679794, 0.11644206196069717, 0.03999999910593033]","[0.0, 0.0, -0.315225761582009]","[0.026750000193715096, 0.05299999937415123, 0.03999999910593033]","[0.0, 0.0, -0.5681836973992374]","[0.06549334526062012, 0.11368733644485474, 0.03999999910593033]","[0.0, -0.0, 0.24109498522758618]",0.49055265961536826,-0.4743776686724653,"(0.0, 0.0, 0.0, 0.0, 0.0, 0.0)",-0.7313930547144721,-0.8077318606126845,0.005555456250196555,"(0.0, 0.0, 0.0, 0.0, 0.0, 0.0)",-0.37938791808700917,-0.5710384520905687,-0.6851279535740754,"(0.0, 0.0, 0.0, 0.0, 0.0, 0.0)",-0.041570491660695694,0.8092787308519767,6.768452465166774e-11,"(0.0, 0.0, 0.0, 0.0, 0.0, 0.0)",-0.0029783210300476804,True,"(-0.026885917684494817, 0.1826260771140915, 0.023998036799718996)","(0.9976997827047511, 0.06775907628410954, -0.001962440321792879)",-0.0002634259144680193,5.300835097975295,True,"(0.03660962366267245, 0.18120031254165747, 0.023999673336438022)","(-0.9988177632720912, -0.04861038529963135, -0.0003259036027511029)",0.00076067875200022,0.0
81,Move,"(0.0103, 0.0, -0.0068)","(0.0, 0.034222415973104825, 0.0)","(0.0056505385176943475, 0.1646585812585026, 0.04854207764099152)","(-0.0015005326754974626, 0.0001003231067684652, 0.04111614882625373)","[-0.004348288081027817, 0.004630838736573162, 0.0009915186267738865]","[-0.026750000193715096, 0.05299999937415123, 0.03999999910593033]","[0.0, -0.0, 0.4905526346055393]","[-0.060670167207717896, 0.11650922894477844, 0.03999999910593033]","[0.0, 0.0, -0.31717918944931595]","[0.026750000193715096, 0.05299999937415123, 0.03999999910593033]","[0.0, 0.0, -0.5710385091833153]","[0.06566643714904785, 0.1135764867067337, 0.03999999910593033]","[0.0, -0.0, 0.2382402487787659]",0.4879949356196662,-0.613853758968484,"(0.0, 0.0, 0.0, 0.0, 0.0, 0.0)",-1.378177766625917,-0.8076860726119279,0.01098912018158909,"(0.0, 0.0, 0.0, 0.0, 0.0, 0.0)",-0.6625307758090832,-0.5744468720178861,-0.8180207825561939,"(0.0, 0.0, 0.0, 0.0, 0.0, 0.0)",-0.19311884786800498,0.8092787308519485,-6.767919558114954e-12,"(0.0, 0.0, 0.0, 0.0, 0.0, 0.0)",-0.013814914765549816,True,"(-0.02663061695779053, 0.18261485937714356, 0.023999889073963946)","(0.998988207176827, 0.04497276714929173, -0.00011016607683537885)",-0.00027120206824626943,8.90335658827732,True,"(0.03697555639845274, 0.18117164394236268, 0.023999673336438022)","(-0.9988177632720912, -0.04861038529963135, -0.0003259036027511029)",0.0008741610918574901,0.0
82,Move,"(0.010199999999999999, 0.0, -0.007)","(0.0, 0.034222415973104825, 0.0)","(0.0059077185241500196, 0.1647023348683994, 0.04857787143137296)","(-0.0013810952634366453, 9.201307950161636e-05, 0.0374230767943406)","[-0.004091108074572145, 0.004674592346469969, 0.0010273124171553266]","[-0.026750000193715096, 0.05299999937415123, 0.03999999910593033]","[0.0, -0.0, 0.4879949479809567]","[-0.06050761789083481, 0.1165957823395729, 0.03999999910593033]","[0.0, 0.0, -0.319691124948066]","[0.026750000193715096, 0.05299999937415123, 0.03999999910593033]","[0.0, 0.0, -0.5744469045007224]","[0.0658726766705513, 0.11344349384307861, 0.03999999910593033]","[0.0, -0.0, 0.23483187363759728]",0.48558545655789076,-0.5782749748261055,"(0.0, 0.0, 0.0, 0.0, 0.0, 0.0)",-0.47560632315509715,-0.8076660041789313,0.004816423919187329,"(0.0, 0.0, 0.0, 0.0, 0.0, 0.0)",-0.2878392057835742,-0.5777308354157906,-0.788151215497085,"(0.0, 0.0, 0.0, 0.0, 0.0, 0.0)",0.04313266739934942,0.8092787308519512,6.767919558114954e-13,"(0.0, 0.0, 0.0, 0.0, 0.0, 0.0)",0.0030748810543674418,True,"(-0.026302064736709693, 0.18261433766365234, 0.023999898916934187)","(0.9991548451979329, 0.04110456486534325, -0.00010032310659660663)",-0.0002519274389933616,4.028489547413106,True,"(0.037412358941166735, 0.18113604651445936, 0.023999673336438022)","(-0.9988177632720912, -0.04861038529963135, -0.0003259036027511029)",0.0009780662318734212,0.0
83,Move,"(0.0101, 0.0, -0.0070999999999999995)","(0.0, 0.034222415973104825, 0.0)","(0.006157375103445841, 0.16474214949493748, 0.04861079628863184)","(-0.001271250062431436, 8.42823770397589e-05, 0.033883487565293954)","[-0.0038414514952763235, 0.00471440697300804, 0.0010602372744142052]","[-0.026750000193715096, 0.05299999937415123, 0.03999999910593033]","[0.0, -0.0, 0.4855854923489674]","[-0.060354288667440414, 0.1166769340634346, 0.03999999910593033]","[0.0, 0.0, -0.3220805455214812]","[0.026750000193715096, 0.05299999937415123, 0.03999999910593033]","[0.0, 0.0, -0.577730917311949]","[0.06607095897197723, 0.113314688205719, 0.03999999910593033]","[0.0, -0.0, 0.2315478999338428]",0.48324934250718177,-0.5606673721701589,"(0.0, 0.0, 0.0, 0.0, 0.0, 0.0)",-0.5480168670630899,-0.8076407362509257,0.006064302721335442,"(0.0, 0.0, 0.0, 0.0, 0.0, 0.0)",-0.3154310350077947,-0.5809533219594244,-0.7733967704721055,"(0.0, 0.0, 0.0, 0.0, 0.0, 0.0)",0.021198590205472018,0.809278730851951,-6.661336792498224e-14,"(0.0, 0.0, 0.0, 0.0, 0.0, 0.0)",0.0015072025589603212,True,"(-0.025991036918949585, 0.18261226904287903, 0.02399990722696141)","(0.9992998341510235, 0.0374143421608626, -9.201307937496254e-05)",-0.00023292897138445237,4.389497654431037,True,"(0.037833094777932855, 0.1811003408453284, 0.023999673336438022)","(-0.9988177632720912, -0.04861038529963135, -0.0003259036027511029)",0.001082615587645711,0.0
84,Move,"(0.0101, 0.0, -0.0073)","(0.0, 0.034222415973104825, 0.0)","(0.006387786096458939, 0.164796332384829, 0.04862318975386468)","(-0.0011678459890689264, -0.0005121125905402311, 0.029853747447040335)","[-0.003611040502263225, 0.004768589862899547, 0.00107263073964705]","[-0.026750000193715096, 0.05299999937415123, 0.03999999910593033]","[0.0, -0.0, 0.4832493538505552]","[-0.06020544096827507, 0.11675526201725006, 0.03999999910593033]","[0.0, 0.0, -0.3243914151846267]","[0.026750000193715096, 0.05299999937415123, 0.03999999910593033]","[0.0, 0.0, -0.5809533614751646]","[0.06626512110233307, 0.11318767070770264, 0.03999999910593033]","[0.0, -0.0, 0.22832541071517354]",0.48097630907063593,-0.5455280247709962,"(0.0, 0.0, 0.0, 0.0, 0.0, 0.0)",-0.36834956872908575,-0.8076333835393706,0.0017646507732097683,"(0.0, 0.0, 0.0, 0.0, 0.0, 0.0)",-0.21715168364465767,-0.5841227529676319,-0.7606634419698163,"(0.0, 0.0, 0.0, 0.0, 0.0, 0.0)",0.01826910506753655,0.809278730851951,5.329070518200751e-15,"(0.0, 0.0, 0.0, 0.0, 0.0, 0.0)",0.0012980544246572342,True,"(-0.02568987186858611, 0.18260978649039028, 0.02399991495766384)","(0.9994260060047305, 0.03387700426415181, -8.428237694193115e-05)",-0.00021540953060258757,0.0,True,"(0.038245838142388265, 0.18106396066009345, 0.023999673336438022)","(-0.9988177632720912, -0.04861038529963135, -0.0003259036027511029)",0.001189531037302007,0.0
85,Move,"(0.0103, 0.0, -0.0073)","(0.0, 0.034222415973104825, 0.0)","(0.006620175017019486, 0.16484176629974723, 0.04865252439749128)","(-0.0010736940010369273, -0.00047150176929560604, 0.026175363346906236)","[-0.003378651581702678, 0.004814023777817783, 0.0011019653832736453]","[-0.026750000193715096, 0.05299999937415123, 0.03999999910593033]","[0.0, -0.0, 0.48097632182441497]","[-0.06006043404340744, 0.11683114618062973, 0.03999999910593033]","[0.0, 0.0, -0.3266570452344012]","[0.026750000193715096, 0.05299999937415123, 0.03999999910593033]","[0.0, 0.0, -0.5841227399370967]","[0.06645568460226059, 0.11306212842464447, 0.03999999910593033]","[0.0, -0.0, 0.22515596845286812]",0.4787452126224437,-0.5354631475661353,"(0.0, 0.0, 0.0, 0.0, 0.0, 0.0)",-0.6844122409255887,-0.8076090172173639,0.005847917281627785,"(0.0, 0.0, 0.0, 0.0, 0.0, 0.0)",-0.38685526879275833,-0.5872590937962335,-0.7527217988643952,"(0.0, 0.0, 0.0, 0.0, 0.0, 0.0)",0.01131672844621137,0.809278730851951,0.0,"(0.0, 0.0, 0.0, 0.0, 0.0, 0.0)",0.0008012117559738864,True,"(-0.025395751114696045, 0.18260729684091181, 0.02399991495766384)","(0.9994260060047305, 0.03387700426415181, -8.428237694193115e-05)",-0.00018590662907922657,4.662986543467586,True,"(0.038634253611946806, 0.18158297230926262, 0.023999470522994233)","(-0.999554269689952, -0.02984932834875024, -0.0005287170465490585)",0.0012835539790251507,0.0
86,Move,"(0.010199999999999999, 0.0, -0.0076)","(0.0, 0.034222415973104825, 0.0)","(0.006877244044983519, 0.16485553322827334, 0.04862169105188679)","(0.0009156867598704249, -0.0004307594749407125, 0.0237315166027844)","[-0.0031215825537386456, 0.0048277907063438985, 0.001071132037669155]","[-0.026750000193715096, 0.05299999937415123, 0.03999999910593033]","[0.0, -0.0, 0.47874520267983006]","[-0.059917937964200974, 0.11690530180931091, 0.03999999910593033]","[0.0, 0.0, -0.32886382813743886]","[0.026750000193715096, 0.05299999937415123, 0.03999999910593033]","[0.0, 0.0, -0.587259054205144]","[0.0666438639163971, 0.11293730139732361, 0.03999999910593033]","[0.0, -0.0, 0.22201963470314925]",0.476507186189867,-0.5371263438184016,"(0.0, 0.0, 0.0, 0.0, 0.0, 0.0)",-0.603616158857814,-0.8075909817386295,0.0043285148962341775,"(0.0, 0.0, 0.0, 0.0, 0.0, 0.0)",-0.33818383272947455,-0.5904090698700667,-0.7559942577199507,"(0.0, 0.0, 0.0, 0.0, 0.0, 0.0)",-0.004961051534074165,0.809278730851951,1.3552527156068805e-20,"(0.0, 0.0, 0.0, 0.0, 0.0, 0.0)",-0.00036252279542445075,True,"(-0.025108189190318354, 0.1826048010097142, 0.02399991495766384)","(0.9994260060047305, 0.03387700426415181, -8.428237694193115e-05)",-0.00017006866167308609,3.9317360030348416,True,"(0.039029945074288065, 0.18181229147264177, 0.02399952773828895)","(-0.9996573336170871, -0.02617237153323616, -0.00047150175182623515)",0.0013941991815743108,0.0
87,Move,"(0.0078, 0.0, -0.0073)","(0.0, 0.038950512916757454, 0.0)","(0.007145026914896972, 0.16483739703682632, 0.048651115494668225)","(0.0018076249862237217, 0.0005714486347073888, 0.021187226016390986)","[-0.0028537996838251924, 0.004809654514896872, 0.0011005564804505916]","[-0.026750000193715096, 0.05299999937415123, 0.03999999910593033]","[0.0, -0.0, 0.4765071880648536]","[-0.05977483466267586, 0.11697937548160553, 0.03999999910593033]","[0.0, 0.0, -0.3310837690446845]","[0.026750000193715096, 0.05299999937415123, 0.03999999910593033]","[0.0, 0.0, -0.5904090246395289]","[0.06683246046304703, 0.11281133443117142, 0.03999999910593033]","[0.0, -0.0, 0.21886967584471165]",0.47433672293756485,-0.5209111805525091,"(0.0, 0.0, 0.0, 0.0, 0.0, 0.0)",-0.9441127460190399,-0.8075771994556381,0.0033077479179511866,"(0.0, 0.0, 0.0, 0.0, 0.0, 0.0)",-0.5020871485886742,-0.5935021458127975,-0.7423382262553826,"(0.0, 0.0, 0.0, 0.0, 0.0, 0.0)",0.01961418658816702,0.809278730851951,0.0,"(0.0, 0.0, 0.0, 0.0, 0.0, 0.0)",0.0013945971519636843,True,"(-0.024819318093280994, 0.1826014324672518, 0.02399991495766384)","(0.9994260060047305, 0.03387700426415181, -8.428237694193115e-05)",-0.0001548222945209808,7.440480460320859,False,,,,
88,Move,"(0.0078, 0.0, -0.0073)","(0.0, 0.038950512916757454, 0.0)","(0.007337319856333586, 0.1648566898965768, 0.04867823348633744)","(0.001663080689436481, 0.0005254991974094202, 0.018538960532589046)","[-0.0026615067423885787, 0.004828947374647369, 0.0011276744721198037]","[-0.026750000193715096, 0.05299999937415123, 0.03999999910593033]","[0.0, -0.0, 0.47433672772985774]","[-0.059635892510414124, 0.117050901055336, 0.03999999910593033]","[0.0, 0.0, -0.3332404685325173]","[0.026750000193715096, 0.05299999937415123, 0.03999999910593033]","[0.0, 0.0, -0.5935021727218603]","[0.06701727211475372, 0.11268707364797592, 0.03999999910593033]","[0.0, -0.0, 0.21577661921108696]",0.4727765043135391,-0.374452469766168,"(0.0, 0.0, 0.0, 0.0, 0.0, 0.0)",0.21210202668705738,-0.8075787894420972,-0.00038159675016505605,"(0.0, 0.0, 0.0, 0.0, 0.0, 0.0)",0.014806584325309282,-0.5960353296967432,-0.6079641321469894,"(0.0, 0.0, 0.0, 0.0, 0.0, 0.0)",0.19487336660030888,0.8092787308466096,-1.281921800590398e-09,"(0.0, 0.0, 0.0, 0.0, 0.0, 0.0)",0.013926326082118233,True,"(-0.024538842348704105, 0.18259357429620313, 0.023999427791437173)","(0.999775395882865, 0.021185637440352418, -0.0005714486036104375)",-0.00015051026598490467,0.0,False,,,,
89,Move,"(0.0078, 0.0, -0.0073)","(0.0, 0.038950512916757454, 0.0)","(0.009563070026116016, 0.16434864107363037, 0.048871273586093354)","(0.0017100767545685006, -0.005048816271096075, -0.007631753715525957)","[-0.00043575657260614895, 0.004320898551700925, 0.001320714571875721]","[-0.026750000193715096, 0.05299999937415123, 0.03999999910593033]","[0.0, -0.0, 0.47277658475241624]","[-0.0595359168946743, 0.11710213124752045, 0.03999999910593033]","[0.0, 0.0, -0.3348023050054382]","[0.026750000193715096, 0.05299999937415123, 0.03999999910593033]","[0.0, 0.0, -0.596035374138124]","[0.06716834008693695, 0.11258487403392792, 0.03999999910593033]","[0.0, -0.0, 0.21324340829701108]",0.452367500258294,-4.898160973258838,"(0.0, 0.0, 0.0, 0.0, 0.0, 0.0)",-23.381233122990515,-0.807670486745713,-0.022007352867784626,"(0.0, 0.0, 0.0, 0.0, 0.0, 0.0)",-9.958093157432142,-0.5757746348790171,4.862566756254251,"(0.0, 0.0, 0.0, 0.0, 0.0, 0.0)",7.9417872444399835,0.8092787308471437,1.2819345585057818e-10,"(0.0, 0.0, 0.0, 0.0, 0.0, 0.0)",0.5678515601576583,True,"(-0.024336525933222684, 0.18258882444980645, 0.02399947374086756)","(0.9998280203420278, 0.018537896039216708, -0.0005254991732272727)",-0.00011028669819717447,79.47149862323505,False,,,,
90,Move,"(0.0078, 0.0, -0.0073)","(0.0, 0.038950512916757454, 0.0)","(0.009581816371034389, 0.16536021177446392, 0.048873320637316635)","(0.0021252834202166357, -0.005113863309512457, -0.00509857222842902)","[-0.00041701022768777553, 0.005332469252534472, 0.0013227616230990016]","[-0.026750000193715096, 0.05299999937415123, 0.03999999910593033]","[0.0, -0.0, 0.4523675050708973]","[-0.05822091922163963, 0.11775786429643631, 0.03999999910593033]","[0.0, 0.0, -0.35530300785935753]","[0.026750000193715096, 0.05299999937415123, 0.03999999910593033]","[0.0, 0.0, -0.5757745860036063]","[0.06595289707183838, 0.11339149624109268, 0.03999999910593033]","[0.0, -0.0, 0.23350410558470971]",0.43598903045299253,-3.9308327532723486,"(0.0, 0.0, 0.0, 0.0, 0.0, 0.0)",-56.543838439363576,-0.7798346496514736,6.680600902617436,"(0.0, 0.0, 0.0, 0.0, 0.0, 0.0)",-26.2414552759807,-0.5599001147521784,3.8098848304413124,"(0.0, 0.0, 0.0, 0.0, 0.0, 0.0)",72.97822162969406,0.7769178812338614,-7.766603907187756,"(0.0, 0.0, 0.0, 0.0, 0.0, 0.0)",37.878675926310734,True,"(-0.02168649563170711, 0.1825092337168377, 0.02399947374086756)","(0.9998280203420278, 0.018537896039216708, -0.0005254991732272727)",8.565115671840893e-05,440.66077103873215,True,"(0.03754916102107025, 0.18199010462195336, 0.023994950569726718)","(-0.9999581334343266, 0.007631582364555769, -0.005048794821608532)",-0.003712308515332692,580.7592022490345
91,Move,"(0.0075, 0.0, -0.0077)","(0.0, 0.038950512916757454, 0.0)","(0.009552102918249756, 0.16633741287423637, 0.04887915954761437)","(0.0024236900451998647, -0.005053250618878654, -0.004501112757219123)","[-0.0004467236804724089, 0.006309670352306923, 0.0013286005333967357]","[-0.026750000193715096, 0.05299999937415123, 0.03999999910593033]","[0.0, -0.0, 0.43598904049806736]","[-0.05715611204504967, 0.11826460063457489, 0.03999999910593033]","[0.0, 0.0, -0.34384568408837324]","[0.026750000193715096, 0.05299999937415123, 0.03999999910593033]","[0.0, 0.0, -0.5599000732469176]","[0.06498931348323822, 0.11400619149208069, 0.03999999910593033]","[0.0, -0.0, 0.21701777859965157]",0.4193985824567839,-3.9817075190900737,"(0.0, 0.0, 0.0, 0.0, 0.0, 0.0)",-74.47998651333384,-0.7506007870575353,7.016127022545206,"(0.0, 0.0, 0.0, 0.0, 0.0, 0.0)",-37.29215783426354,-0.5447477118300788,3.636576701303903,"(0.0, 0.0, 0.0, 0.0, 0.0, 0.0)",74.40458490936598,0.7463938795757106,-7.32576039795621,"(0.0, 0.0, 0.0, 0.0, 0.0, 0.0)",39.50165453268257,True,"(-0.02136594920668102, 0.18343029982379078, 0.02399947374086756)","(0.9998280203420278, 0.018537896039216708, -0.0005254991732272727)",-0.0002609657240931024,538.8966386768953,True,"(0.037720046307486224, 0.1830447094292419, 0.023994885504810586)","(-0.9999739267082491, 0.00509848347104879, -0.005113841020257877)",-0.0035168922967580506,573.270765766544
92,Move,"(0.0074, 0.0, -0.008)","(0.0, 0.038950512916757454, 0.0)","(0.009669100093899671, 0.16721966973157165, 0.04879655892875894)","(-0.00039094031357918627, -0.004242791519727148, -0.004963809862325621)","[-0.0003297265048224935, 0.007191927209642207, 0.0012459999145413084]","[-0.026750000193715096, 0.05299999937415123, 0.03999999910593033]","[0.0, -0.0, 0.41939858770190525]","[-0.056069210171699524, 0.11876004934310913, 0.03999999910593033]","[0.0, 0.0, -0.33120227748402303]","[0.026750000193715096, 0.05299999937415123, 0.03999999910593033]","[0.0, 0.0, -0.5447476989614618]","[0.06406056880950928, 0.11457858234643936, 0.03999999910593033]","[0.0, -0.0, 0.2016461365113034]",0.4201574651940901,0.18213185695348022,"(0.0, 0.0, 0.0, 0.0, 0.0, 0.0)",3.612289470098095,-0.753163941193467,-0.6151569926236045,"(0.0, 0.0, 0.0, 0.0, 0.0, 0.0)",-1.268378895108356,-0.5489747795669851,-1.0144962568575475,"(0.0, 0.0, 0.0, 0.0, 0.0, 0.0)",-5.440977819753067,0.7490759671206916,0.6437010107954535,"(0.0, 0.0, 0.0, 0.0, 0.0, 0.0)",0.6276745124392961,True,"(-0.021105801022144384, 0.184373035428879, 0.02399947374086756)","(0.9998280203420278, 0.018537896039216708, -0.0005254991732272727)",-0.0005628926765707733,8.142281656723902,True,"(0.037855514230770035, 0.18401213355730173, 0.02399494609918)","(-0.9999771024946726, 0.004501040090048446, -0.00505322911282552)",-0.0033395371190576965,3.754416281446286
