OSUrobotics/InHand-Manipulation/AnalyseData/Data/Trial Data/Better/new_hand_expected_exp_2v2_d_n_1_kpNone_kdNone_dp5_step5_save_data.csv
,Phase,human_cube_pos,human_cube_orn,Cube_Pos,Cube_Orn,Cube_pos_in_start_pos,b'l_prox_pin'_link_pos,b'l_prox_pin'_link_orn,b'l_distal_pin'_link_pos,b'l_distal_pin'_link_orn,b'r_prox_pin'_link_pos,b'r_prox_pin'_link_orn,b'r_distal_pin'_link_pos,b'r_distal_pin'_link_orn,b'l_prox_pin'_joint_angle,b'l_prox_pin'_joint_vel,b'l_prox_pin'_joint_react_forces,b'l_prox_pin'_joint_motor_torque,b'l_distal_pin'_joint_angle,b'l_distal_pin'_joint_vel,b'l_distal_pin'_joint_react_forces,b'l_distal_pin'_joint_motor_torque,b'r_prox_pin'_joint_angle,b'r_prox_pin'_joint_vel,b'r_prox_pin'_joint_react_forces,b'r_prox_pin'_joint_motor_torque,b'r_distal_pin'_joint_angle,b'r_distal_pin'_joint_vel,b'r_distal_pin'_joint_react_forces,b'r_distal_pin'_joint_motor_torque,in_contact_l,contact_point_l_dist,contact_normal_l_dist,contact_distance_l_dist,contact_norm_force_l_dist,in_contact_r,contact_point_r_dist,contact_normal_r_dist,contact_distance_r_dist,contact_norm_force_r_dist
0,Open,,,,,,"[-0.026750000193715096, 0.05299999937415123, 0.03999999910593033]","[0.0, -0.0, 0.42755761853039154]","[-0.056604765355587006, 0.1185186430811882, 0.03999999910593033]","[0.0, -0.0, 0.4463066270391506]","[0.026750000193715096, 0.05299999937415123, 0.03999999910593033]","[0.0, 0.0, -0.42757404208311445]","[0.05660583823919296, 0.1185181587934494, 0.03999999910593033]","[0.0, 0.0, -0.4465272228574986]",0.5418018724257314,27.418616735313837,"(0.0, 0.0, 0.0, 0.0, 0.0, 0.0)",-4.412236817968903,0.016874447698417276,-0.44988750389777044,"(0.0, 0.0, 0.0, 0.0, 0.0, 0.0)",-0.3112578673856835,-0.5418166170859073,-27.418223544375806,"(0.0, 0.0, 0.0, 0.0, 0.0, 0.0)",4.412120589674461,-0.017058187988154127,0.4547872631353701,"(0.0, 0.0, 0.0, 0.0, 0.0, 0.0)",0.31119999541872967,False,,,,,False,,,,
1,Open,,,,,,"[-0.026750000193715096, 0.05299999937415123, 0.03999999910593033]","[0.0, -0.0, 0.8953992050914552]","[-0.08294302970170975, 0.09801492840051651, 0.03999999910593033]","[0.0, -0.0, 0.9064715399310761]","[0.026750000193715096, 0.05299999937415123, 0.03999999910593033]","[0.0, 0.0, -0.8954089117450801]","[0.08294346183538437, 0.09801438450813293, 0.03999999910593033]","[0.0, 0.0, -0.9066016844299951]",0.9628592876486701,16.190418996035465,"(0.0, 0.0, 0.0, 0.0, 0.0, 0.0)",-2.616982039675733,0.009965290062605858,-0.26568209241480656,"(0.0, 0.0, 0.0, 0.0, 0.0, 0.0)",-0.18775783729375353,-0.9628679942230576,-16.190186820718473,"(0.0, 0.0, 0.0, 0.0, 0.0, 0.0)",2.6169116334278195,-0.010073786659150813,0.26857534621184953,"(0.0, 0.0, 0.0, 0.0, 0.0, 0.0)",0.187722108909745,False,,,,,False,,,,
2,Open,,,,,,"[-0.026750000193715096, 0.05299999937415123, 0.03999999910593033]","[0.0, -0.0, 1.17165497759142]","[-0.09309044480323792, 0.08098116517066956, 0.03999999910593033]","[0.0, -0.0, 1.1781937273122836]","[0.026750000193715096, 0.05299999937415123, 0.03999999910593033]","[0.0, 0.0, -1.1716605985979762]","[0.09309060126543045, 0.08098078519105911, 0.03999999910593033]","[0.0, 0.0, -1.178270796658152]",1.2114894807636634,9.56028051296898,"(0.0, 0.0, 0.0, 0.0, 0.0, 0.0)",-1.549346412635057,0.005885062316220725,-0.15689973638119079,"(0.0, 0.0, 0.0, 0.0, 0.0, 0.0)",-0.11225090666269867,-1.2114946219087734,-9.560143415766044,"(0.0, 0.0, 0.0, 0.0, 0.0, 0.0)",1.5493042197033076,-0.00594912834521185,0.1586081706180975,"(0.0, 0.0, 0.0, 0.0, 0.0, 0.0)",0.11222926703597672,False,,,,,False,,,,
3,Open,,,,,,"[-0.026750000193715096, 0.05299999937415123, 0.03999999910593033]","[0.0, -0.0, 1.3347813147466918]","[-0.09675397723913193, 0.06983575969934464, 0.03999999910593033]","[0.0, -0.0, 1.3386449621367835]","[0.026750000193715096, 0.05299999937415123, 0.03999999910593033]","[0.0, 0.0, -1.3347844615433213]","[0.0967540368437767, 0.06983552873134613, 0.03999999910593033]","[0.0, 0.0, -1.3386905382854437]",1.3583031234961356,5.645250040103052,"(0.0, 0.0, 0.0, 0.0, 0.0, 0.0)",-0.9162890978823036,0.0034783869891320215,-0.09247571818598516,"(0.0, 0.0, 0.0, 0.0, 0.0, 0.0)",-0.06677007440367574,-1.3583061592909116,-5.645169085575695,"(0.0, 0.0, 0.0, 0.0, 0.0, 0.0)",0.9162639666346021,-0.003516216695348753,0.09348456497972772,"(0.0, 0.0, 0.0, 0.0, 0.0, 0.0)",0.06675710630673855,False,,,,,False,,,,
4,Open,,,,,,"[-0.026750000193715096, 0.05299999937415123, 0.03999999910593033]","[0.0, -0.0, 1.4311058207082674]","[-0.09804865717887878, 0.06302504986524582, 0.03999999910593033]","[0.0, -0.0, 1.433390691262394]","[0.026750000193715096, 0.05299999937415123, 0.03999999910593033]","[0.0, 0.0, -1.4311075924426346]","[0.09804867953062057, 0.06302490830421448, 0.03999999910593033]","[0.0, 0.0, -1.433417470845748]",1.4449951113932331,3.333463696180452,"(0.0, 0.0, 0.0, 0.0, 0.0, 0.0)",-0.5415503506795546,0.0020570753203455715,-0.05468855210882702,"(0.0, 0.0, 0.0, 0.0, 0.0, 0.0)",-0.039594115216637325,-1.4449969039996904,-3.3334158933415914,"(0.0, 0.0, 0.0, 0.0, 0.0, 0.0)",0.541535435877482,-0.002079412775410495,0.055284250111531166,"(0.0, 0.0, 0.0, 0.0, 0.0, 0.0)",0.03958639191865308,False,,,,,False,,,,
5,Open,,,,,,"[-0.026750000193715096, 0.05299999937415123, 0.03999999910593033]","[0.0, -0.0, 1.4879842849605203]","[-0.09850326180458069, 0.05895565450191498, 0.03999999910593033]","[0.0, -0.0, 1.4893357278409396]","[0.026750000193715096, 0.05299999937415123, 0.03999999910593033]","[0.0, 0.0, -1.4879853833286059]","[0.09850326925516129, 0.05895556882023811, 0.03999999910593033]","[0.0, 0.0, -1.4893513332680077]",1.4961858633265903,1.9683769779575933,"(0.0, 0.0, 0.0, 0.0, 0.0, 0.0)",-0.31995094896823073,0.0012165319928285922,-0.03234212113369103,"(0.0, 0.0, 0.0, 0.0, 0.0, 0.0)",-0.02343792779000599,-1.4961869218427772,-1.9683487508592754,"(0.0, 0.0, 0.0, 0.0, 0.0, 0.0)",0.31994211580738524,-0.0012297216752996233,0.03269386530715718,"(0.0, 0.0, 0.0, 0.0, 0.0, 0.0)",0.02343334437795369,False,,,,,False,,,,
6,Open,,,,,,"[-0.026750000193715096, 0.05299999937415123, 0.03999999910593033]","[0.0, -0.0, 1.5215704989376362]","[-0.09866278618574142, 0.05654282495379448, 0.03999999910593033]","[0.0, -0.0, 1.522369838325666]","[0.026750000193715096, 0.05299999937415123, 0.03999999910593033]","[0.0, 0.0, -1.5215710825913402]","[0.09866278618574142, 0.0565427765250206, 0.03999999910593033]","[0.0, 0.0, -1.522379029767931]",1.5264134904357183,1.1623069217141797,"(0.0, 0.0, 0.0, 0.0, 0.0, 0.0)",-0.18898727227709852,0.000719444125508032,-0.019126791845346432,"(0.0, 0.0, 0.0, 0.0, 0.0, 0.0)",-0.013859938289241243,-1.5264141154789415,-1.162290253894895,"(0.0, 0.0, 0.0, 0.0, 0.0, 0.0)",0.18898204730565804,-0.0007272322869396521,0.019334487584604668,"(0.0, 0.0, 0.0, 0.0, 0.0, 0.0)",0.013857223880827028,False,,,,,False,,,,
7,Close,,,"(1.2478112216283415e-07, 0.16999960627914334, 0.0003375139776509844)","(1.5703757789650807, 0.0001088681168706304, -5.122612185789874e-06)",,"[-0.026750000193715096, 0.05299999937415123, 0.03999999910593033]","[0.0, -0.0, 1.2785329680082034]","[-0.09569678455591202, 0.07374466955661774, 0.03999999910593033]","[0.0, -0.0, 1.0351044933740032]","[0.026750000193715096, 0.05299999937415123, 0.03999999910593033]","[0.0, 0.0, -1.2785333261376617]","[0.09569679200649261, 0.07374463975429535, 0.03999999910593033]","[0.0, 0.0, -1.0351099865887758]",1.2106796019673873,-16.28478938579699,"(0.0, 0.0, 0.0, 0.0, 0.0, 0.0)",2.809472854136235,-0.3090860149933808,-15.757821278062295,"(0.0, 0.0, 0.0, 0.0, 0.0, 0.0)",0.3661538009495806,-1.2106799710491603,16.284799227977608,"(0.0, 0.0, 0.0, 0.0, 0.0, 0.0)",-2.8094757422584213,0.30908141619234186,15.75794391320213,"(0.0, 0.0, 0.0, 0.0, 0.0, 0.0)",-0.3661552191151056,False,,,,,False,,,,
8,Close,,,"(3.0991841452431125e-07, 0.1699991530873768, 0.0005600347089338349)","(1.5707725584893357, 0.0003276471180493337, -1.5390016504502985e-05)",,"[-0.026750000193715096, 0.05299999937415123, 0.03999999910593033]","[0.0, -0.0, 1.0006670909649218]","[-0.08736184239387512, 0.09186135232448578, 0.03999999910593033]","[0.0, -0.0, 0.48836557737534114]","[0.026750000193715096, 0.05299999937415123, 0.03999999910593033]","[0.0, 0.0, -1.0006671906734346]","[0.08736184984445572, 0.09186133742332458, 0.03999999910593033]","[0.0, 0.0, -0.4883688154364048]",0.9606001981650306,-9.616005284561718,"(0.0, 0.0, 0.0, 0.0, 0.0, 0.0)",1.667253264949997,-0.5510712009946406,-9.304767973476249,"(0.0, 0.0, 0.0, 0.0, 0.0, 0.0)",0.2218037572572205,-0.9606004161041268,9.616011096270952,"(0.0, 0.0, 0.0, 0.0, 0.0, 0.0)",-1.6672550198735234,0.5510684854486152,9.30484038803693,"(0.0, 0.0, 0.0, 0.0, 0.0, 0.0)",-0.22180464092959223,False,,,,,False,,,,
9,Close,,,"(2.933853975158492e-07, 0.16999904048792538, 0.0007066062154399696)","(1.5708337628024795, 0.00026866528465535426, -1.404448202163588e-05)",,"[-0.026750000193715096, 0.05299999937415123, 0.03999999910593033]","[0.0, -0.0, 0.8365897781630613]","[-0.08020010590553284, 0.1012398824095726, 0.03999999910593033]","[0.0, -0.0, 0.16552144688028117]","[0.026750000193715096, 0.05299999937415123, 0.03999999910593033]","[0.0, 0.0, -0.8365899294750984]","[0.08020011335611343, 0.101239874958992, 0.03999999910593033]","[0.0, 0.0, -0.1655233971102189]",0.8129308110141114,-5.678154960376304,"(0.0, 0.0, 0.0, 0.0, 0.0, 0.0)",0.9873874064507416,-0.6939616573792659,-5.494397555666588,"(0.0, 0.0, 0.0, 0.0, 0.0, 0.0)",0.13292457281458034,-0.8129309397049683,5.678158392132489,"(0.0, 0.0, 0.0, 0.0, 0.0, 0.0)",-0.987388459985631,0.6939600538790082,5.494440315842426,"(0.0, 0.0, 0.0, 0.0, 0.0, 0.0)",-0.13292511074891808,False,,,,,False,,,,
10,Close,,,"(1.9902477861274505e-07, 0.16999905216518962, 0.0008031506137060285)","(1.5708213694470277, 0.0001751880104672085, -1.4031272711042213e-05)",,"[-0.026750000193715096, 0.05299999937415123, 0.03999999910593033]","[0.0, -0.0, 0.7397039398326887]","[-0.075282983481884, 0.10618411004543304, 0.03999999910593033]","[0.0, 0.0, -0.025114755601520013]","[0.026750000193715096, 0.05299999937415123, 0.03999999910593033]","[0.0, 0.0, -0.7397039829241547]","[0.0752829909324646, 0.10618410259485245, 0.03999999910593033]","[0.0, -0.0, 0.025113617980755978]",0.7257335145957226,-3.3528937225526034,"(0.0, 0.0, 0.0, 0.0, 0.0, 0.0)",0.5840196078844049,-0.7783380408184963,-3.244652289205478,"(0.0, 0.0, 0.0, 0.0, 0.0, 0.0)",0.07914031685893824,-0.7257335905863868,3.3528957489703144,"(0.0, 0.0, 0.0, 0.0, 0.0, 0.0)",-0.5840202358821991,0.778337093974245,3.2446775397467595,"(0.0, 0.0, 0.0, 0.0, 0.0, 0.0)",-0.07914064000385382,False,,,,,False,,,,
11,Close,,,"(1.3069317882946781e-07, 0.16999905849316785, 0.0008666025578373041)","(1.570813038524343, 0.0001076496945073061, -1.4014808324094979e-05)",,"[-0.026750000193715096, 0.05299999937415123, 0.03999999910593033]","[0.0, -0.0, 0.6824937890365349]","[-0.07216256856918335, 0.10887216031551361, 0.03999999910593033]","[0.0, 0.0, -0.137687120736303]","[0.026750000193715096, 0.05299999937415123, 0.03999999910593033]","[0.0, 0.0, -0.6824937890365349]","[0.07216257601976395, 0.10887216031551361, 0.03999999910593033]","[0.0, -0.0, 0.1376864353718678]",0.6742443830336282,-1.9798502142300851,"(0.0, 0.0, 0.0, 0.0, 0.0, 0.0)",0.34523008433021124,-0.8281635344937409,-1.9158370237869804,"(0.0, 0.0, 0.0, 0.0, 0.0, 0.0)",0.046989708289177236,-0.6742444279053555,1.9798514108094807,"(0.0, 0.0, 0.0, 0.0, 0.0, 0.0)",-0.3452304573414294,0.8281629754068567,1.9158519335829844,"(0.0, 0.0, 0.0, 0.0, 0.0, 0.0)",-0.04698990114977892,False,,,,,False,,,,
12,Close,,,"(8.555941999099156e-08, 0.16999906193922792, 0.000908421947806545)","(1.5708075491537519, 6.311807488844542e-05, -1.4000595358663434e-05)",,"[-0.026750000193715096, 0.05299999937415123, 0.03999999910593033]","[0.0, -0.0, 0.6487117277688945]","[-0.070249542593956, 0.11037412285804749, 0.03999999910593033]","[0.0, 0.0, -0.20415830575541527]","[0.026750000193715096, 0.05299999937415123, 0.03999999910593033]","[0.0, 0.0, -0.6487117277688945]","[0.070249542593956, 0.11037411540746689, 0.03999999910593033]","[0.0, -0.0, 0.20415788801885543]",0.6438405657375271,-1.1690817530007243,"(0.0, 0.0, 0.0, 0.0, 0.0, 0.0)",0.20397674457790932,-0.8575834812137779,-1.1312243968345508,"(0.0, 0.0, 0.0, 0.0, 0.0, 0.0)",0.027828964636992654,-0.6438405922338334,1.1690824595688907,"(0.0, 0.0, 0.0, 0.0, 0.0, 0.0)",-0.20397696556653716,0.8575831510875931,1.1312332006820753,"(0.0, 0.0, 0.0, 0.0, 0.0, 0.0)",-0.027829079200348807,False,,,,,False,,,,
13,Close,,,"(5.567361934631568e-08, 0.16999906349286917, 0.0009359839309479349)","(1.5708039321322358, 3.37560108188707e-05, -1.3987283228090085e-05)",,"[-0.026750000193715096, 0.05299999937415123, 0.03999999910593033]","[0.0, -0.0, 0.62876384308693]","[-0.06909646838903427, 0.11123037338256836, 0.03999999910593033]","[0.0, 0.0, -0.24340789693353326]","[0.026750000193715096, 0.05299999937415123, 0.03999999910593033]","[0.0, 0.0, -0.62876384308693]","[0.06909646838903427, 0.11123037338256836, 0.03999999910593033]","[0.0, -0.0, 0.24340764580603796]",0.6258874156623524,-0.6903310843293964,"(0.0, 0.0, 0.0, 0.0, 0.0, 0.0)",0.12048853373387189,-0.8749547691894786,-0.6679421640099914,"(0.0, 0.0, 0.0, 0.0, 0.0, 0.0)",0.016461146679105913,-0.6258874313081562,0.6903315015508323,"(0.0, 0.0, 0.0, 0.0, 0.0, 0.0)",-0.12048866447898966,0.8749545742586229,0.6679473624521103,"(0.0, 0.0, 0.0, 0.0, 0.0, 0.0)",-0.016461214564379854,False,,,,,False,,,,
14,Move,,,"(0.0002849434880139787, 0.17128526654835666, 0.0018667775255450016)","(1.529867145493542, 0.001236551690390913, -0.0026252758006009144)","[0.0, 0.0, 0.0]","[-0.026750000193715096, 0.05299999937415123, 0.03999999910593033]","[0.0, -0.0, 0.5674368798319164]","[-0.06544800847768784, 0.113716259598732, 0.03999999910593033]","[0.0, 0.0, -0.23086444862254737]","[0.026750000193715096, 0.05299999937415123, 0.03999999910593033]","[0.0, 0.0, -0.5672775113046467]","[0.06543833017349243, 0.11372242867946625, 0.03999999910593033]","[0.0, -0.0, 0.2338230653212545]",0.5526433844132694,-3.5504372063580854,"(0.0, 0.0, 0.0, 0.0, 0.0, 0.0)",-74.66311326449657,-0.7739535469156117,5.843468067207706,"(0.0, 0.0, 0.0, 0.0, 0.0, 0.0)",-38.567738900473906,-0.5523653530093062,3.5789086898164406,"(0.0, 0.0, 0.0, 0.0, 0.0, 0.0)",70.97380681712595,0.7784689212282292,-5.431581853362886,"(0.0, 0.0, 0.0, 0.0, 0.0, 0.0)",36.631671368390464,True,"(-0.031139027298926508, 0.18549673152317092, 0.03999924353386678)","(0.9999971505660776, -0.0022642037706561637, -0.0007564661332230728)",-0.000503181178828863,565.4925793008347,True,"(0.030917119596597424, 0.1854085662421605, 0.04000075646613322)","(-0.9999971505660776, 0.002264203770598743, 0.0007564661332168607)",-0.0013606486484191646,538.0249494895718
15,Move,"(0.0, 0.0, 0.0)","(0.0, -0.0, 0.0)","(0.00016274991557831364, 0.17136475104845758, 0.0031640906121350575)","(1.4899865793592248, -0.0009251634143453488, -0.006053919932276661)","[-0.00012219357243566505, 7.948450010092367e-05, 0.001297313086590056]","[-0.026750000193715096, 0.05299999937415123, 0.03999999910593033]","[0.0, -0.0, 0.5448782568355026]","[-0.06406860798597336, 0.11457370966672897, 0.03999999910593033]","[0.0, 0.0, -0.2125956411648876]","[0.026750000193715096, 0.05299999937415123, 0.03999999910593033]","[0.0, 0.0, -0.5441825092896027]","[0.06402575969696045, 0.11459966003894806, 0.03999999910593033]","[0.0, -0.0, 0.21903630347083206]",0.5463765798653516,0.35960109272080254,"(0.0, 0.0, 0.0, 0.0, 0.0, 0.0)",-0.08406283938624641,-0.7590286933635231,-0.37315947580442554,"(0.0, 0.0, 0.0, 0.0, 0.0, 0.0)",-0.017297597694563044,-0.5456033040750284,-0.3409927387516254,"(0.0, 0.0, 0.0, 0.0, 0.0, 0.0)",0.7656171975284948,0.7645763731677416,0.32581485659360865,"(0.0, 0.0, 0.0, 0.0, 0.0, 0.0)",0.4026025408250114,True,"(-0.031076504252458274, 0.1869479334441972, 0.04000075744199429)","(0.9999871217005202, -0.0050182382101970815, 0.0007574419942935584)",-0.000622934270282677,0.221954412255134,True,"(0.03056815038234164, 0.1867763680017247, 0.03999924255800572)","(-0.9999871217005204, 0.005018238210180842, -0.0007574419942756659)",-0.0016523435419804678,5.374466445399798
16,Move,"(0.005063291139240506, 0.0, -0.005063291139240506)","(0.0, -0.0, 0.0)","(0.0004744023195215741, 0.17158328982042542, 0.0032470933285661543)","(1.4908891394433395, -0.0005515798447251379, -0.00786872794119655)","[0.0001894588315075954, 0.0002980232720687648, 0.0013803158030211526]","[-0.026750000193715096, 0.05299999937415123, 0.03999999910593033]","[0.0, -0.0, 0.5441537303716747]","[-0.06402398645877838, 0.11460073292255402, 0.03999999910593033]","[0.0, 0.0, -0.21246398307544112]","[0.026750000193715096, 0.05299999937415123, 0.03999999910593033]","[0.0, 0.0, -0.549332656366825]","[0.06434250622987747, 0.11440686881542206, 0.03999999910593033]","[0.0, -0.0, 0.2132535807746184]",0.5431828235335949,-0.2330238909590283,"(0.0, 0.0, 0.0, 0.0, 0.0, 0.0)",-2.737784505490431,-0.7556851615390328,0.22381891049860717,"(0.0, 0.0, 0.0, 0.0, 0.0, 0.0)",-1.4760908083775894,-0.5500009275099097,-0.16039418483834852,"(0.0, 0.0, 0.0, 0.0, 0.0, 0.0)",2.78063297525103,0.7615205204779287,-0.2557620337575847,"(0.0, 0.0, 0.0, 0.0, 0.0, 0.0)",1.4624226107975644,True,"(-0.03104143125600113, 0.18697633893702487, 0.04000055910703439)","(0.9999690784907354, -0.007844071756014863, 0.0005591070343894713)",-0.00043655637301619936,20.642849905809307,True,"(0.03130280814095015, 0.18677288923085886, 0.03999944089296562)","(-0.9999690784907354, 0.007844071756022194, -0.0005591070343761789)",-0.0011395351366776394,20.58765704639772
17,Move,"(0.010126582278481011, 0.0, -0.010126582278481011)","(0.0, -0.0, 0.0)","(0.001420290111773669, 0.17249563538474316, 0.0029443248673077967)","(1.5098005414869282, 4.9539504035208585e-05, -0.009622091347705627)","[0.0011353466237596904, 0.001210368836386505, 0.001077547341762795]","[-0.026750000193715096, 0.05299999937415123, 0.03999999910593033]","[0.0, -0.0, 0.5349123256870268]","[-0.06345311552286148, 0.11494256556034088, 0.03999999910593033]","[0.0, 0.0, -0.21510028575771392]","[0.026750000193715096, 0.05299999937415123, 0.03999999910593033]","[0.0, 0.0, -0.5544256967754114]","[0.06465476006269455, 0.11421461403369904, 0.03999999910593033]","[0.0, -0.0, 0.20133216098921858]",0.5329244827718226,-0.477058159039996,"(0.0, 0.0, 0.0, 0.0, 0.0, 0.0)",-4.095325567641244,-0.7487284633502701,0.3081747188427206,"(0.0, 0.0, 0.0, 0.0, 0.0, 0.0)",-2.217467892452358,-0.5554549392022884,-0.24703537503628967,"(0.0, 0.0, 0.0, 0.0, 0.0, 0.0)",4.363128093706562,0.7544405367698377,-0.31613337472853087,"(0.0, 0.0, 0.0, 0.0, 0.0, 0.0)",2.334677253868266,True,"(-0.03027986189711524, 0.18723201494788333, 0.039999977803264766)","(0.999955501183702, -0.009433724596167625, -2.2196735236601398e-05)",-0.00030916775947161326,31.034381928150957,True,"(0.03247994860495235, 0.18695903344501813, 0.040000022196735235)","(-0.999955501183702, 0.009433724596163762, 2.219673522835199e-05)",-0.000851237621968303,32.227789267654884
18,Move,"(0.01518987341772152, 0.0, -0.01518987341772152)","(0.0, -0.0, 0.0)","(0.0028610912582571766, 0.1740830912314982, 0.002448223132790095)","(1.5439968533047994, 0.0005549950261405776, -0.011647078173369435)","[0.0025761477702431978, 0.0027978246831415476, 0.0005814456072450935]","[-0.026750000193715096, 0.05299999937415123, 0.03999999910593033]","[0.0, -0.0, 0.5200258388051103]","[-0.06252698600292206, 0.11548205465078354, 0.03999999910593033]","[0.0, 0.0, -0.22052331726337457]","[0.026750000193715096, 0.05299999937415123, 0.03999999910593033]","[0.0, 0.0, -0.5608596951981073]","[0.06504783779382706, 0.11396946758031845, 0.03999999910593033]","[0.0, -0.0, 0.18574933396078222]",0.5170351025503568,-0.7177837390637822,"(0.0, 0.0, 0.0, 0.0, 0.0, 0.0)",-5.804638916422351,-0.7387293412342473,0.43675934086514095,"(0.0, 0.0, 0.0, 0.0, 0.0, 0.0)",-3.1453068942528533,-0.5620660970467782,-0.28954108446347904,"(0.0, 0.0, 0.0, 0.0, 0.0, 0.0)",6.185846999675754,0.7447126313377365,-0.45513258442472665,"(0.0, 0.0, 0.0, 0.0, 0.0, 0.0)",3.338908438944208,True,"(-0.02896214852484566, 0.18759401135848855, 0.039999488893992706)","(0.9999349849616834, -0.011391427492952449, -0.0005111060072932271)",-0.00024140520574585973,43.93480914025443,True,"(0.03401019302957441, 0.18719278562828093, 0.04000051110600728)","(-0.9999349849616834, 0.011391427492958923, 0.000511106007285248)",-0.0007057757552394272,45.684557641311365
19,Move,"(0.020253164556962026, 0.0, -0.020253164556962026)","(0.0, -0.0, 0.0)","(0.004690289636099843, 0.1763041375105666, 0.001838124238389225)","(1.5919946073728226, 0.0008023691758518838, -0.01370453752246616)","[0.004405346148085865, 0.0050188709622099315, -2.86532871557766e-05]","[-0.026750000193715096, 0.05299999937415123, 0.03999999910593033]","[0.0, -0.0, 0.4999208757498799]","[-0.061263635754585266, 0.11618867516517639, 0.03999999910593033]","[0.0, 0.0, -0.22802733614429022]","[0.026750000193715096, 0.05299999937415123, 0.03999999910593033]","[0.0, 0.0, -0.5680431591705406]","[0.06548481434583664, 0.11369278281927109, 0.03999999910593033]","[0.0, -0.0, 0.16602142107560652]",0.4960409379823395,-0.9311670555794291,"(0.0, 0.0, 0.0, 0.0, 0.0, 0.0)",-7.665504897184231,-0.7255646604011373,0.5720320166193107,"(0.0, 0.0, 0.0, 0.0, 0.0, 0.0)",-4.141195936864545,-0.5693595072929276,-0.3159319440301704,"(0.0, 0.0, 0.0, 0.0, 0.0, 0.0)",8.122767273908815,0.7315716156861148,-0.5983055742939144,"(0.0, 0.0, 0.0, 0.0, 0.0, 0.0)",4.415596723960011,True,"(-0.027158528069459245, 0.18805225760626798, 0.03999924164812508)","(0.9999103072195457, -0.013371702155958775, -0.0007583518749189046)",-0.00024398768659164777,57.82093223753403,True,"(0.03589726646296581, 0.18749638118798245, 0.04000075835187493)","(-0.9999103072195457, 0.013371702155957517, 0.0007583518749267185)",-0.0006184399443745464,59.91962950409022
20,Move,"(0.02531645569620253, 0.0, -0.02531645569620253)","(0.0, -0.0, 0.0)","(0.00680067819950101, 0.17692851762218278, 0.0018007238194951906)","(1.5969273571282279, -2.2695441495680196e-05, -0.017593231657537334)","[0.006515734711487031, 0.005643251073826128, -6.605370604981101e-05]","[-0.026750000193715096, 0.05299999937415123, 0.03999999910593033]","[0.0, -0.0, 0.4751203366817355]","[-0.059686072170734406, 0.11702511459589005, 0.03999999910593033]","[0.0, 0.0, -0.2368029444042696]","[0.026750000193715096, 0.05299999937415123, 0.03999999910593033]","[0.0, 0.0, -0.5756019076633433]","[0.06594246625900269, 0.11339826881885529, 0.03999999910593033]","[0.0, -0.0, 0.14243376301398222]",0.47043279055354226,-1.1250103929490616,"(0.0, 0.0, 0.0, 0.0, 0.0, 0.0)",-9.758317278708182,-0.7089404374000654,0.7158783668399222,"(0.0, 0.0, 0.0, 0.0, 0.0, 0.0)",-5.286767021708437,-0.5769621265897135,-0.32646501475246,"(0.0, 0.0, 0.0, 0.0, 0.0, 0.0)",10.08831438155307,0.7149079381776106,-0.7506410155808003,"(0.0, 0.0, 0.0, 0.0, 0.0, 0.0)",5.5106067499157065,True,"(-0.024951544007740974, 0.18859157781733382, 0.040000011899070986)","(0.9998519919233876, -0.017204479220431425, 1.1899070983711478e-05)",-0.0003989826206473556,73.25082658587128,True,"(0.03810330539092956, 0.18785942362818825, 0.03999998810092902)","(-0.9998519919233877, 0.017204479220422397, -1.189907098044985e-05)",-0.0004629026539741328,74.25881145901451
21,Move,"(0.03037974683544304, 0.0, -0.03037974683544304)","(0.0, -0.0, 0.0)","(0.009261442093472657, 0.1774507508156093, 0.001798141407157834)","(1.5967810222548682, -6.181286695841628e-05, -0.01998763052157763)","[0.008976498605458677, 0.0061654842672526355, -6.863611838716765e-05]","[-0.026750000193715096, 0.05299999937415123, 0.03999999910593033]","[0.0, -0.0, 0.4460409413291882]","[-0.057810600847005844, 0.11795566976070404, 0.03999999910593033]","[0.0, 0.0, -0.2468026714368016]","[0.026750000193715096, 0.05299999937415123, 0.03999999910593033]","[0.0, 0.0, -0.5832577100337923]","[0.06640370935201645, 0.1130964532494545, 0.03999999910593033]","[0.0, -0.0, 0.11488526821143526]",0.44061448065509107,-1.3023510037282582,"(0.0, 0.0, 0.0, 0.0, 0.0, 0.0)",-11.787481771878404,-0.6892432710198264,0.8640737355681964,"(0.0, 0.0, 0.0, 0.0, 0.0, 0.0)",-6.32684223820931,-0.5846218660726255,-0.3274080550757747,"(0.0, 0.0, 0.0, 0.0, 0.0, 0.0)",12.160140418317026,0.6943783651616737,-0.9034987940512069,"(0.0, 0.0, 0.0, 0.0, 0.0, 0.0)",6.688620141106289,True,"(-0.022361996787264124, 0.18917887181754633, 0.04000005438180813)","(0.999808721895791, -0.019558033227388215, 5.438180812440454e-05)",-0.0005623686399947846,87.99753689200999,True,"(0.04062533502096613, 0.18827100183485374, 0.039999945618191875)","(-0.9998087218957913, 0.01955803322737827, -5.4381808121010187e-05)",-0.00036458988138109047,89.28430283248188
22,Move,"(0.03544303797468354, 0.0, -0.03544303797468354)","(0.0, -0.0, 0.0)","(0.012007856218814646, 0.17799925793118557, 0.0017948973864755956)","(1.5966274714982107, -0.00010104955824223396, -0.02244930795480351)","[0.011722912730800667, 0.00671399138282891, -7.188013906940603e-05]","[-0.026750000193715096, 0.05299999937415123, 0.03999999910593033]","[0.0, -0.0, 0.41327684686977273]","[-0.05566609650850296, 0.11893829703330994, 0.03999999910593033]","[0.0, 0.0, -0.25717573291322143]","[0.026750000193715096, 0.05299999937415123, 0.03999999910593033]","[0.0, 0.0, -0.5906952116745338]","[0.06684957444667816, 0.11279986798763275, 0.03999999910593033]","[0.0, -0.0, 0.08401880363968116]",0.40723593016643383,-1.449820521555879,"(0.0, 0.0, 0.0, 0.0, 0.0, 0.0)",-13.752239618269437,-0.6663005873826732,0.9964780339953156,"(0.0, 0.0, 0.0, 0.0, 0.0, 0.0)",-7.3115763245573095,-0.5919994976225527,-0.31302842286818205,"(0.0, 0.0, 0.0, 0.0, 0.0, 0.0)",14.154089399745102,0.6703020959983148,-1.0588607332953475,"(0.0, 0.0, 0.0, 0.0, 0.0, 0.0)",7.83574946355082,True,"(-0.01948040383476754, 0.1897978626949097, 0.04000009228847289)","(0.9997573269642268, -0.022029041381360373, 9.228847289682513e-05)",-0.0007205036931103484,102.06678689503269,True,"(0.0434024598306043, 0.18870579384303804, 0.039999907711527095)","(-0.9997573269642265, 0.0220290413813781, -9.228847290161429e-05)",-0.00030783378160832497,103.6154042719826
23,Move,"(0.04050632911392405, 0.0, -0.04050632911392405)","(0.0, -0.0, 0.0)","(0.014992273337291778, 0.17854891941495446, 0.0017909723999054619)","(1.596444410979464, -0.00014805876201445993, -0.02480782823263004)","[0.014707329849277799, 0.007263652866597803, -7.580512563953976e-05]","[-0.026750000193715096, 0.05299999937415123, 0.03999999910593033]","[0.0, -0.0, 0.37742825439897104]","[-0.05328422784805298, 0.11993231624364853, 0.03999999910593033]","[0.0, 0.0, -0.2676513749866378]","[0.026750000193715096, 0.05299999937415123, 0.03999999910593033]","[0.0, 0.0, -0.597628705747325]","[0.06726323813199997, 0.11252039670944214, 0.03999999910593033]","[0.0, -0.0, 0.05012392915269771]",0.37087181350210713,-1.5735479874950655,"(0.0, 0.0, 0.0, 0.0, 0.0, 0.0)",-15.62929795425221,-0.640405426697123,1.1218052504976157,"(0.0, 0.0, 0.0, 0.0, 0.0, 0.0)",-8.22960303108204,-0.5988281999573841,-0.2878618522532173,"(0.0, 0.0, 0.0, 0.0, 0.0, 0.0)",16.045018166092344,0.6427206696546545,-1.2076884066220275,"(0.0, 0.0, 0.0, 0.0, 0.0, 0.0)",8.936490760883094,True,"(-0.01635800758203365, 0.19041702485384623, 0.040000137830162694)","(0.999702163160372, -0.024404220440720492, 0.00013783016269874892)",-0.0008728141304440143,115.31425194785027,True,"(0.046400649908012244, 0.1891458197395687, 0.039999862169837315)","(-0.999702163160372, 0.02440422044072359, -0.00013783016269065584)",-0.00027619586543789655,117.07657117525332
24,Move,"(0.04556962025316456, 0.0, -0.04556962025316456)","(0.0, -0.0, 0.0)","(0.018163102484049176, 0.17907665354070101, 0.0017863267409698783)","(1.596231114267692, -0.00020269327033744833, -0.027014514628871077)","[0.017878158996035197, 0.007791386992344357, -8.045078457512332e-05]","[-0.026750000193715096, 0.05299999937415123, 0.03999999910593033]","[0.0, -0.0, 0.3390544248802132]","[-0.050696875900030136, 0.12090101093053818, 0.03999999910593033]","[0.0, 0.0, -0.2779012715439042]","[0.026750000193715096, 0.05299999937415123, 0.03999999910593033]","[0.0, 0.0, -0.6038306344921207]","[0.06763158738613129, 0.11226800084114075, 0.03999999910593033]","[0.0, -0.0, 0.013609667798260765]",0.33208227715652894,-1.6733176797307818,"(0.0, 0.0, 0.0, 0.0, 0.0, 0.0)",-17.376902759773138,-0.6118063990314997,1.235828492997454,"(0.0, 0.0, 0.0, 0.0, 0.0, 0.0)",-9.062915916499223,-0.6048869615891358,-0.25352596733174093,"(0.0, 0.0, 0.0, 0.0, 0.0, 0.0)",17.79430555583704,0.6118213961401646,-1.3485297748410883,"(0.0, 0.0, 0.0, 0.0, 0.0, 0.0)",9.965717848422512,True,"(-0.013049900172602685, 0.1910115482796, 0.04000019101276997)","(0.9996451863758112, -0.026635781756713, 0.00019101276996998787)",-0.0010171918140434192,127.46894086232727,True,"(0.04957870885231798, 0.1895697094739901, 0.03999980898723005)","(-0.9996451863758115, 0.026635781756704842, -0.00019101276994954643)",-0.0002580145915606911,129.4076672981412
25,Move,"(0.05063291139240506, 0.0, -0.05063291139240506)","(0.0, -0.0, 0.0)","(0.021467528935012407, 0.17956294126514313, 0.0017813012336157549)","(1.5960231189215397, -0.00024305517605576138, -0.02907262232736948)","[0.021182585446998428, 0.008277674716786476, -8.547629192924675e-05]","[-0.026750000193715096, 0.05299999937415123, 0.03999999910593033]","[0.0, -0.0, 0.29870458041476583]","[-0.047938331961631775, 0.12181173264980316, 0.03999999910593033]","[0.0, 0.0, -0.28765261323306507]","[0.026750000193715096, 0.05299999937415123, 0.03999999910593033]","[0.0, 0.0, -0.609118603168333]","[0.06794442981481552, 0.11205098778009415, 0.03999999910593033]","[0.0, 0.0, -0.025108825407004067]",0.2914140870198191,-1.749715006961806,"(0.0, 0.0, 0.0, 0.0, 0.0, 0.0)",-18.993881278760735,-0.5807611518209801,1.3430500713314184,"(0.0, 0.0, 0.0, 0.0, 0.0, 0.0)",-9.820647700007545,-0.6100045894433911,-0.2126348781469772,"(0.0, 0.0, 0.0, 0.0, 0.0, 0.0)",19.4056020412543,0.577852786190063,-1.4776798516880967,"(0.0, 0.0, 0.0, 0.0, 0.0, 0.0)",10.909270347527881,True,"(-0.00960923179825332, 0.19155951119753267, 0.04000024459989586)","(0.9995878862805113, -0.028705361383383195, 0.0002445998958611048)",-0.001151252734866059,138.5519850291616,True,"(0.05289308215660474, 0.18985629219026032, 0.03797991172513151)","(-0.9995878235958124, 0.028707552557500123, -0.00024360859018911858)",-0.00024379240500777843,140.7405813533621
26,Move,"(0.055696202531645575, 0.0, -0.055696202531645575)","(0.0, -0.0, 0.0)","(0.0239056139748423, 0.1800080747688082, 0.0017424993270461818)","(1.5942100915055755, 0.0018231918749051664, -0.056503537327997566)","[0.02362067048682832, 0.008722808220451544, -0.00012427819849881983]","[-0.026750000193715096, 0.05299999937415123, 0.03999999910593033]","[0.0, -0.0, 0.25705868510487495]","[-0.04505506157875061, 0.12263422459363937, 0.03999999910593033]","[0.0, 0.0, -0.28582356873873804]","[0.026750000193715096, 0.05299999937415123, 0.03999999910593033]","[0.0, 0.0, -0.6139645307604418]","[0.06823009997606277, 0.11185067147016525, 0.03999999910593033]","[0.0, 0.0, -0.06311197576717671]",0.24953095085415772,-1.8066509045124086,"(0.0, 0.0, 0.0, 0.0, 0.0, 0.0)",-23.5420321944426,-0.5350459614095033,1.8807090544156826,"(0.0, 0.0, 0.0, 0.0, 0.0, 0.0)",-13.318198226677554,-0.6147138232713851,-0.17982530188978868,"(0.0, 0.0, 0.0, 0.0, 0.0, 0.0)",21.296425465516105,0.5451970053109932,-1.3573380611210084,"(0.0, 0.0, 0.0, 0.0, 0.0, 0.0)",9.737061838541399,True,"(-0.006854487722281109, 0.19242886712883814, 0.039998545961976543)","(0.9987482697844895, -0.04999779371047161, -0.0014540380234603185)",-0.00102012383444958,166.02843018313553,True,"(0.05614575706954218, 0.19017165666340943, 0.03797991172513151)","(-0.9995878235958124, 0.028707552557500123, -0.00024360859018911858)",0.0001484379987596331,106.5564922351409
27,Move,"(0.06075949367088608, 0.0, -0.06075949367088608)","(0.0, -0.0, 0.0)","(0.027090125671228888, 0.1796655794032074, 0.0017033500114655674)","(1.5902315254363517, 0.004610488960103466, -0.12557133386492078)","[0.02680518218321491, 0.008380312854850747, -0.00016342751407943425]","[-0.026750000193715096, 0.05299999937415123, 0.03999999910593033]","[0.0, -0.0, 0.2128841813899176]","[-0.0419621467590332, 0.12337464839220047, 0.03999999910593033]","[0.0, 0.0, -0.28487157242428623]","[0.026750000193715096, 0.05299999937415123, 0.03999999910593033]","[0.0, 0.0, -0.6183192390963516]","[0.06848597526550293, 0.11166948080062866, 0.03999999910593033]","[0.0, 0.0, -0.0999398281734553]",0.20428700699509048,-2.0633111437807052,"(0.0, 0.0, 0.0, 0.0, 0.0, 0.0)",-11.196351577110924,-0.49979096979294213,-0.4884682591669751,"(0.0, 0.0, 0.0, 0.0, 0.0, 0.0)",-6.45768339732099,-0.6184372560799367,-0.028341110412501702,"(0.0, 0.0, 0.0, 0.0, 0.0, 0.0)",5.572004007422644,0.5207089489934241,0.5591084821728163,"(0.0, 0.0, 0.0, 0.0, 0.0, 0.0)",1.6676875566491969,True,"(-0.003830800501039261, 0.19316573591464592, 0.039996641122995294)","(0.9960314406275211, -0.08893867115452005, -0.0033588770047031165)",-0.0008288672077339063,76.4349913790865,True,"(0.054755973525111426, 0.1451302652024555, 0.05095617444076563)","(-0.9950023273184408, 0.09978712214400948, 0.0035915017893532798)",-0.0005014334104878716,51.19045450538424
28,Move,"(0.0658227848101266, 0.0, -0.0658227848101266)","(0.0, -0.0, 0.0)","(0.03024091742081843, 0.17997238051333475, 0.0016668299321273407)","(1.5852265260456142, -0.0013271562383750657, -0.15715333155183592)","[0.029955973932804452, 0.008687113964978094, -0.00019994759341766095]","[-0.026750000193715096, 0.05299999937415123, 0.03999999910593033]","[0.0, -0.0, 0.16496884039948118]","[-0.03857395425438881, 0.12402249127626419, 0.03999999910593033]","[0.0, 0.0, -0.2942461111183474]","[0.026750000193715096, 0.05299999937415123, 0.03999999910593033]","[0.0, 0.0, -0.6223022847306308]","[0.06871933490037918, 0.11150277405977249, 0.03999999910593033]","[0.0, 0.0, -0.13385723296993132]",0.15631175683523932,-2.0776960958399386,"(0.0, 0.0, 0.0, 0.0, 0.0, 0.0)",-24.72423717038953,-0.4527355486864754,1.5550417083877295,"(0.0, 0.0, 0.0, 0.0, 0.0, 0.0)",-12.56789305463629,-0.6230236562729486,-0.17311106013848618,"(0.0, 0.0, 0.0, 0.0, 0.0, 0.0)",25.256633295270095,0.4799750253718755,-2.032824166155028,"(0.0, 0.0, 0.0, 0.0, 0.0, 0.0)",14.275518749159572,True,"(0.00020246172382355765, 0.19339466677257022, 0.040001387504128856)","(0.9876512583168435, -0.15666226979540337, 0.001387504128859639)",-0.0009023296635145186,175.91216003813332,True,"(0.06220352515379541, 0.19049550359986941, 0.03785374171657716)","(-0.9876512583168442, 0.15666226979539982, -0.001387504128828914)",-0.0013310307847080045,179.84883930664267
29,Move,"(0.07088607594936708, 0.0, -0.07088607594936708)","(0.0, -0.0, 0.0)","(0.03306860740197179, 0.18054045693167758, 0.0016303819731723125)","(1.5871428242753347, -0.0008151852097943022, -0.1664239278305605)","[0.03278366391395781, 0.009255190383320927, -0.00023639555237268918]","[-0.026750000193715096, 0.05299999937415123, 0.03999999910593033]","[0.0, -0.0, 0.1153592041788281]","[-0.03503745049238205, 0.12452144920825958, 0.03999999910593033]","[0.0, 0.0, -0.2935613137120943]","[0.026750000193715096, 0.05299999937415123, 0.03999999910593033]","[0.0, 0.0, -0.6271326509578564]","[0.06900142878293991, 0.11129936575889587, 0.03999999910593033]","[0.0, 0.0, -0.18193371191690486]",0.1064885368699403,-2.128957784130496,"(0.0, 0.0, 0.0, 0.0, 0.0, 0.0)",-34.29146109842367,-0.3970835400375295,2.840861163378388,"(0.0, 0.0, 0.0, 0.0, 0.0, 0.0)",-19.252424713247613,-0.628192544803363,-0.2543723056505291,"(0.0, 0.0, 0.0, 0.0, 0.0, 0.0)",29.923002661060565,0.43833665881520056,-1.6469489591937267,"(0.0, 0.0, 0.0, 0.0, 0.0, 0.0)",12.707118131128901,True,"(0.0036902940074643453, 0.19391302248442335, 0.040000908685830804)","(0.986604171500376, -0.16312995760471907, 0.0009086858308016043)",-0.0011856743540706188,237.63277623646695,True,"(0.06628751475736061, 0.19050480103178413, 0.037853802064857216)","(-0.9876759390501267, 0.15650711830074374, -0.0013271558487778375)",-0.0004218052791947453,130.23002710413172
30,Move,"(0.07594936708860758, 0.0, -0.07594936708860758)","(0.0, -0.0, 0.0)","(0.03556379831052377, 0.18072158761287951, 0.0015489422445864552)","(1.5854570434628763, 0.003789560105743978, -0.2059244362049872)","[0.03527885482250979, 0.009436321064522857, -0.0003178352809585464]","[-0.026750000193715096, 0.05299999937415123, 0.03999999910593033]","[0.0, -0.0, 0.06490908428315184]","[-0.03142017498612404, 0.1248483806848526, 0.03999999910593033]","[0.0, 0.0, -0.28282036519980996]","[0.026750000193715096, 0.05299999937415123, 0.03999999910593033]","[0.0, 0.0, -0.6319702741482652]","[0.06928297132253647, 0.11109428852796555, 0.03999999910593033]","[0.0, 0.0, -0.2245335320465914]",0.055860016604123604,-2.171777472386206,"(0.0, 0.0, 0.0, 0.0, 0.0, 0.0)",-31.317224095379263,-0.33738457642664876,2.4827699851180856,"(0.0, 0.0, 0.0, 0.0, 0.0, 0.0)",-17.62191126261478,-0.6327073087167184,-0.17688272448872486,"(0.0, 0.0, 0.0, 0.0, 0.0, 0.0)",26.774976416560808,0.40093994233755503,-1.5592435583215483,"(0.0, 0.0, 0.0, 0.0, 0.0, 0.0)",11.204424903092146,True,"(0.006552297808681988, 0.19460829911860758, 0.03999690874559876)","(0.9805723159751163, -0.19613357002161425, -0.0030912544012426852)",-0.0011299934093589629,215.89198617441224,True,"(0.06994462715600538, 0.19034344205484116, 0.037853802064857216)","(-0.9876759390501267, 0.15650711830074374, -0.0013271558487778375)",0.00024834752806153157,111.58652112639658
