OSUrobotics/InHand-Manipulation/AnalyseData/Data/Trial Data/Better/new_hand_expected_exp_2v2_h_n_1_kpNone_kdNone_dp5_step5_save_data.csv
,Phase,human_cube_pos,human_cube_orn,Cube_Pos,Cube_Orn,Cube_pos_in_start_pos,b'l_prox_pin'_link_pos,b'l_prox_pin'_link_orn,b'l_distal_pin'_link_pos,b'l_distal_pin'_link_orn,b'r_prox_pin'_link_pos,b'r_prox_pin'_link_orn,b'r_distal_pin'_link_pos,b'r_distal_pin'_link_orn,b'l_prox_pin'_joint_angle,b'l_prox_pin'_joint_vel,b'l_prox_pin'_joint_react_forces,b'l_prox_pin'_joint_motor_torque,b'l_distal_pin'_joint_angle,b'l_distal_pin'_joint_vel,b'l_distal_pin'_joint_react_forces,b'l_distal_pin'_joint_motor_torque,b'r_prox_pin'_joint_angle,b'r_prox_pin'_joint_vel,b'r_prox_pin'_joint_react_forces,b'r_prox_pin'_joint_motor_torque,b'r_distal_pin'_joint_angle,b'r_distal_pin'_joint_vel,b'r_distal_pin'_joint_react_forces,b'r_distal_pin'_joint_motor_torque,in_contact_l,contact_point_l_dist,contact_normal_l_dist,contact_distance_l_dist,contact_norm_force_l_dist,in_contact_r,contact_point_r_dist,contact_normal_r_dist,contact_distance_r_dist,contact_norm_force_r_dist
0,Open,,,,,,"[-0.026750000193715096, 0.05299999937415123, 0.03999999910593033]","[0.0, -0.0, 0.4254700097131474]","[-0.056467924267053604, 0.11858082562685013, 0.03999999910593033]","[0.0, -0.0, 0.4254700097131474]","[0.026750000193715096, 0.05299999937415123, 0.03999999910593033]","[0.0, 0.0, -0.4429245237535421]","[0.057608019560575485, 0.1180521547794342, 0.03999999910593033]","[0.0, 0.0, -0.5266622746639338]",0.5399229999999999,27.46872,"(0.0, 0.0, 0.0, 0.0, 0.0, 0.0)",-4.377393708535371,5.294901130302062e-32,0.0,"(0.0, 0.0, 0.0, 0.0, 0.0, 0.0)",-0.30017707799641646,-0.5623038734984663,-28.651050680519948,"(0.0, 0.0, 0.0, 0.0, 0.0, 0.0)",144.45470973647488,-0.10456727132876567,-4.999096204557077,"(0.0, 0.0, 0.0, 0.0, 0.0, 0.0)",33.97911746732963,False,,,,,False,,,,
1,Open,,,,,,"[-0.026750000193715096, 0.05299999937415123, 0.03999999910593033]","[0.0, -0.0, 0.894166469119967]","[-0.08288749307394028, 0.09808415919542313, 0.03999999910593033]","[0.0, -0.0, 0.894166894674561]","[0.026750000193715096, 0.05299999937415123, 0.03999999910593033]","[0.0, 0.0, -0.9122733503889549]","[0.08369457721710205, 0.09706035256385803, 0.03999999910593033]","[0.0, 0.0, -0.9997066729229968]",0.96174983227,16.220004472800003,"(0.0, 0.0, 0.0, 0.0, 0.0, 0.0)",-2.5959652512206968,5.681494863714967e-07,3.553320838026869e-05,"(0.0, 0.0, 0.0, 0.0, 0.0, 0.0)",-0.18114955764248034,-0.9780460127037736,-15.785439661232708,"(0.0, 0.0, 0.0, 0.0, 0.0, 0.0)",2.503992476159733,-0.0786900142246732,2.098357403184359,"(0.0, 0.0, 0.0, 0.0, 0.0, 0.0)",0.15360133560797545,False,,,,,False,,,,
2,Open,,,,,,"[-0.026750000193715096, 0.05299999937415123, 0.03999999910593033]","[0.0, -0.0, 1.170927100750299]","[-0.09307006001472473, 0.08102945238351822, 0.03999999910593033]","[0.0, -0.0, 1.1709279927689973]","[0.026750000193715096, 0.05299999937415123, 0.03999999910593033]","[0.0, 0.0, -1.181618964677462]","[0.09336595237255096, 0.08031877130270004, 0.03999999910593033]","[0.0, 0.0, -1.233247876832181]",1.2108343584571122,9.577750441143678,"(0.0, 0.0, 0.0, 0.0, 0.0, 0.0)",-1.5367816122769582,9.012180617793662e-07,6.275974057005224e-06,"(0.0, 0.0, 0.0, 0.0, 0.0, 0.0)",-0.1083256720668905,-1.2204570900414513,-9.3211442655613,"(0.0, 0.0, 0.0, 0.0, 0.0, 0.0)",1.4819475463743526,-0.046466145575958295,1.239071567699341,"(0.0, 0.0, 0.0, 0.0, 0.0, 0.0)",0.09166748660725833,False,,,,,False,,,,
3,Open,,,,,,"[-0.026750000193715096, 0.05299999937415123, 0.03999999910593033]","[0.0, -0.0, 1.334351465706577]","[-0.09674673527479172, 0.06986585259437561, 0.03999999910593033]","[0.0, -0.0, 1.33435435145599]","[0.026750000193715096, 0.05299999937415123, 0.03999999910593033]","[0.0, 0.0, -1.3406650641721125]","[0.09685182571411133, 0.06942359358072281, 0.03999999910593033]","[0.0, 0.0, -1.3711530696282732]",1.3579162851496,5.655565729344001,"(0.0, 0.0, 0.0, 0.0, 0.0, 0.0)",-0.9088150211252332,3.4316066113876724e-06,0.0001607445165674468,"(0.0, 0.0, 0.0, 0.0, 0.0, 0.0)",-0.06444344013525093,-1.3635984108023202,-5.504042378604797,"(0.0, 0.0, 0.0, 0.0, 0.0, 0.0)",0.8762522980402716,-0.02744024570882781,0.7315266716392431,"(0.0, 0.0, 0.0, 0.0, 0.0, 0.0)",0.05446985052483407,False,,,,,False,,,,
4,Open,,,,,,"[-0.026750000193715096, 0.05299999937415123, 0.03999999910593033]","[0.0, -0.0, 1.4308518944899675]","[-0.09804610908031464, 0.06304314732551575, 0.03999999910593033]","[0.0, -0.0, 1.4308566269594332]","[0.026750000193715096, 0.05299999937415123, 0.03999999910593033]","[0.0, 0.0, -1.4345798203875788]","[0.09808305650949478, 0.06277728080749512, 0.03999999910593033]","[0.0, 0.0, -1.4525855975984745]",1.4447666872179874,3.339555007520341,"(0.0, 0.0, 0.0, 0.0, 0.0, 0.0)",-0.5371183361845069,4.8269553674989e-06,2.0878160072459843e-05,"(0.0, 0.0, 0.0, 0.0, 0.0, 0.0)",-0.03821759960562203,-1.448121925594662,-3.2500819841423465,"(0.0, 0.0, 0.0, 0.0, 0.0, 0.0)",0.5178266556878065,-0.016205556838873442,0.4320218239148067,"(0.0, 0.0, 0.0, 0.0, 0.0, 0.0)",0.0322808466635012,False,,,,,False,,,,
5,Open,,,,,,"[-0.026750000193715096, 0.05299999937415123, 0.03999999910593033]","[0.0, -0.0, 1.487834617901085]","[-0.09850236773490906, 0.05896640568971634, 0.03999999910593033]","[0.0, -0.0, 1.4878390921106803]","[0.026750000193715096, 0.05299999937415123, 0.03999999910593033]","[0.0, 0.0, -1.4900358577435544]","[0.09851532429456711, 0.05880843847990036, 0.03999999910593033]","[0.0, 0.0, -1.5006695807985118]",1.4960509811353493,1.9719738363906854,"(0.0, 0.0, 0.0, 0.0, 0.0, 0.0)",-0.3173274216127963,4.509251873886308e-06,-3.168767150011037e-05,"(0.0, 0.0, 0.0, 0.0, 0.0, 0.0)",-0.022624215793833224,-1.498032215844392,-1.9191409108162163,"(0.0, 0.0, 0.0, 0.0, 0.0, 0.0)",0.30591369390909257,-0.00957062017308593,0.2551417656412126,"(0.0, 0.0, 0.0, 0.0, 0.0, 0.0)",0.019102112305110365,False,,,,,False,,,,
6,Open,,,,,,"[-0.026750000193715096, 0.05299999937415123, 0.03999999910593033]","[0.0, -0.0, 1.5214821319654974]","[-0.09866246581077576, 0.05654918774962425, 0.03999999910593033]","[0.0, -0.0, 1.5214858439169519]","[0.026750000193715096, 0.05299999937415123, 0.03999999910593033]","[0.0, 0.0, -1.5227821585534602]","[0.09866702556610107, 0.05645570904016495, 0.03999999910593033]","[0.0, 0.0, -1.529061933448946]",1.5263338438506127,1.164430830650334,"(0.0, 0.0, 0.0, 0.0, 0.0, 0.0)",-0.18743587261192823,3.6440993970645793e-06,-4.480530101024996e-05,"(0.0, 0.0, 0.0, 0.0, 0.0, 0.0)",-0.013379159967550349,-1.527503743133955,-1.1332335164278682,"(0.0, 0.0, 0.0, 0.0, 0.0, 0.0)",0.18068846528573543,-0.005652184024362593,0.1506807000213291,"(0.0, 0.0, 0.0, 0.0, 0.0, 0.0)",0.011293655891939093,False,,,,,False,,,,
7,Close,,,"(0.010000824637423049, 0.16001319418745247, 0.017848014970055004)","(-0.00026934863811186216, 1.6834304115272585e-05, -2.2671484573282825e-09)",,"[-0.026750000193715096, 0.05299999937415123, 0.03999999910593033]","[0.0, -0.0, 1.2784808254221978]","[-0.09569569677114487, 0.07374827563762665, 0.03999999910593033]","[0.0, -0.0, 1.034582661993943]","[0.026750000193715096, 0.05299999937415123, 0.03999999910593033]","[0.0, 0.0, -1.2792482299640686]","[0.0957116037607193, 0.0736953467130661, 0.03999999910593033]","[0.0, 0.0, -1.0390562259147462]",1.210632571455348,-16.283535238809286,"(0.0, 0.0, 0.0, 0.0, 0.0, 0.0)",2.771136716181199,-0.3095085607892871,-15.746535439217235,"(0.0, 0.0, 0.0, 0.0, 0.0, 0.0)",0.3469037989659341,-1.211323385283169,16.3019569408845,"(0.0, 0.0, 0.0, 0.0, 0.0, 0.0)",-2.7749564531312414,0.30617317599991634,15.835479338328643,"(0.0, 0.0, 0.0, 0.0, 0.0, 0.0)",-0.3479929302165593,False,,,,,False,,,,
8,Close,,,"(0.010001648057231211, 0.16002636889308344, 0.03133184175509247)","(-0.0005384699893107284, 3.3654401557527444e-05, -9.06094284338731e-09)",,"[-0.026750000193715096, 0.05299999937415123, 0.03999999910593033]","[0.0, -0.0, 1.0006360422079206]","[-0.08736064285039902, 0.0918632224202156, 0.03999999910593033]","[0.0, -0.0, 0.4880565025715103]","[0.026750000193715096, 0.05299999937415123, 0.03999999910593033]","[0.0, 0.0, -1.001089448203126]","[0.08737824857234955, 0.09183574467897415, 0.03999999910593033]","[0.0, 0.0, -0.49069812233338583]",0.9605724271186684,-9.615264723164493,"(0.0, 0.0, 0.0, 0.0, 0.0, 0.0)",1.6441783201079794,-0.5513218025251249,-9.298144061583436,"(0.0, 0.0, 0.0, 0.0, 0.0, 0.0)",0.21014173445603831,-0.9609803457758583,9.626142554022893,"(0.0, 0.0, 0.0, 0.0, 0.0, 0.0)",-1.6464751946207798,0.5493522946545342,9.350664461360347,"(0.0, 0.0, 0.0, 0.0, 0.0, 0.0)",-0.2108204377510729,False,,,,,False,,,,
9,Close,,,"(0.010002470404691093, 0.16003952644115657, 0.04045997120998789)","(-0.0008073642479911328, 5.0460303253361964e-05, -2.0369923505779015e-08)",,"[-0.026750000193715096, 0.05299999937415123, 0.03999999910593033]","[0.0, -0.0, 0.8365715799965936]","[-0.0801992267370224, 0.1012408509850502, 0.03999999910593033]","[0.0, -0.0, 0.16533874626364803]","[0.026750000193715096, 0.05299999937415123, 0.03999999910593033]","[0.0, 0.0, -0.8368392086626993]","[0.08021213859319687, 0.10122654587030411, 0.03999999910593033]","[0.0, 0.0, -0.1668985823484083]",0.8129144124893025,-5.677717666381402,"(0.0, 0.0, 0.0, 0.0, 0.0, 0.0)",0.9736078226475493,-0.6941096683608667,-5.490444078796776,"(0.0, 0.0, 0.0, 0.0, 0.0, 0.0)",0.12593397924105265,-0.8131552843771866,5.684140916724979,"(0.0, 0.0, 0.0, 0.0, 0.0, 0.0)",-0.9749785244213759,0.6929466958025952,5.521456795952681,"(0.0, 0.0, 0.0, 0.0, 0.0, 0.0)",-0.12634715317523504,False,,,,,False,,,,
10,Close,,,"(0.010003291824242136, 0.16005266914270105, 0.04523936165140331)","(-0.0010760316083767074, 6.725202012489063e-05, -3.618265319583079e-08)",,"[-0.026750000193715096, 0.05299999937415123, 0.03999999910593033]","[0.0, -0.0, 0.7396932119518481]","[-0.07528240978717804, 0.10618463158607483, 0.03999999910593033]","[0.0, 0.0, -0.025223688738047617]","[0.026750000193715096, 0.05299999937415123, 0.03999999910593033]","[0.0, 0.0, -0.7398511766938903]","[0.07529081404209137, 0.10617695748806, 0.03999999910593033]","[0.0, -0.0, 0.02430263317545323]",0.7257238314308083,-3.352635504821555,"(0.0, 0.0, 0.0, 0.0, 0.0, 0.0)",0.5758654822812497,-0.7784262532781683,-3.242260203768412,"(0.0, 0.0, 0.0, 0.0, 0.0, 0.0)",0.0750123771406224,-0.725866063871885,3.3564283699169333,"(0.0, 0.0, 0.0, 0.0, 0.0, 0.0)",-0.5766799137830688,0.7777395376647703,3.260573592131318,"(0.0, 0.0, 0.0, 0.0, 0.0, 0.0)",-0.0752606958188736,False,,,,,False,,,,
11,Close,,,"(0.009997966950406065, 0.16004795201914346, 0.046616050094935475)","(-0.0009640430328522325, -5.7324486097668704e-05, 4.2980615420070005e-09)",,"[-0.026750000193715096, 0.05299999937415123, 0.03999999910593033]","[0.0, -0.0, 0.682487397988505]","[-0.0721622109413147, 0.10887245088815689, 0.03999999910593033]","[0.0, 0.0, -0.13775029188859572]","[0.026750000193715096, 0.05299999937415123, 0.03999999910593033]","[0.0, 0.0, -0.6825807377410441]","[0.07216742634773254, 0.10886821150779724, 0.03999999910593033]","[0.0, -0.0, 0.1372064129763775]",0.6742386185346878,-1.979696494258342,"(0.0, 0.0, 0.0, 0.0, 0.0, 0.0)",0.34037467823530393,-0.8282145265472606,-1.9144534778819295,"(0.0, 0.0, 0.0, 0.0, 0.0, 0.0)",0.04449932044982575,-0.674322605213594,1.981936139029174,"(0.0, 0.0, 0.0, 0.0, 0.0, 0.0)",-0.3408573424145132,0.8278090365055835,1.9252671252731466,"(0.0, 0.0, 0.0, 0.0, 0.0, 0.0)",-0.04464739446319682,False,,,,,False,,,,
12,Close,,,"(0.009998679410322496, 0.16003066597344334, 0.0474253884764576)","(-0.0006112814540129935, -4.2805404436077314e-05, 1.9447426774393396e-07)",,"[-0.026750000193715096, 0.05299999937415123, 0.03999999910593033]","[0.0, -0.0, 0.6487079580530938]","[-0.07024932652711868, 0.11037428677082062, 0.03999999910593033]","[0.0, 0.0, -0.20419532625251113]","[0.026750000193715096, 0.05299999937415123, 0.03999999910593033]","[0.0, 0.0, -0.6487631098841893]","[0.07025248557329178, 0.11037188768386841, 0.03999999910593033]","[0.0, -0.0, 0.20387417727936794]",0.6438371618585478,-1.1689909828946077,"(0.0, 0.0, 0.0, 0.0, 0.0, 0.0)",0.20110328062585062,-0.8576133287829941,-1.1304144347684295,"(0.0, 0.0, 0.0, 0.0, 0.0, 0.0)",0.026365137971139978,-0.6438867551525752,1.1703134707353389,"(0.0, 0.0, 0.0, 0.0, 0.0, 0.0)",-0.20138889834359572,0.857373897412956,1.136799615752827,"(0.0, 0.0, 0.0, 0.0, 0.0, 0.0)",-0.026453134766811503,False,,,,,False,,,,
13,Close,,,"(0.008562352819313064, 0.15963169911231415, 0.04795936059784778)","(0.002880050037504477, -0.0018080766405500393, 0.027156574699580344)",,"[-0.026750000193715096, 0.05299999937415123, 0.03999999910593033]","[0.0, -0.0, 0.6287615983534538]","[-0.06909634172916412, 0.11123047024011612, 0.03999999910593033]","[0.0, 0.0, -0.24342883421715172]","[0.026750000193715096, 0.05299999937415123, 0.03999999910593033]","[0.0, 0.0, -0.6288059721302652]","[0.06909892708063126, 0.1112285852432251, 0.03999999910593033]","[0.0, -0.0, 0.24295585513718987]",0.6258854057058539,-0.6902774854894381,"(0.0, 0.0, 0.0, 0.0, 0.0, 0.0)",0.11878846609148704,-0.8749713231347032,-0.6674313830745814,"(0.0, 0.0, 0.0, 0.0, 0.0, 0.0)",0.015594191474811038,-0.6259255556368085,0.6912982329409242,"(0.0, 0.0, 0.0, 0.0, 0.0, 0.0)",0.23889456753769728,0.8745816224765113,0.6767593625972839,"(0.0, 0.0, 0.0, 0.0, 0.0, 0.0)",0.18939691443679915,False,,,,,True,"(0.040048198705117485, 0.17954190147604243, 0.02399995236517949)","(-0.9999968496142797, -0.00250969405768167, -4.6874861287478436e-05)",-8.481535683957195e-06,2.863336982423626
14,Move,,,"(0.003226703519616097, 0.15887842572556865, 0.048057042824217085)","(0.00733137607255103, 0.004060605831319912, 0.12411081910370701)","[0.0, 0.0, 0.0]","[-0.026750000193715096, 0.05299999937415123, 0.03999999910593033]","[0.0, -0.0, 0.5601465041237582]","[-0.06500434130430222, 0.11399676650762558, 0.03999999910593033]","[0.0, 0.0, -0.31665092698218517]","[0.026750000193715096, 0.05299999937415123, 0.03999999910593033]","[0.0, 0.0, -0.5704848668453074]","[0.0656328946352005, 0.11359802633523941, 0.03999999910593033]","[0.0, -0.0, 0.3056114929739557]",0.5446837312064112,-3.7110582962534506,"(0.0, 0.0, 0.0, 0.0, 0.0, 0.0)",-53.09089974488294,-0.8536776571297426,5.5487419201507295,"(0.0, 0.0, 0.0, 0.0, 0.0, 0.0)",-27.521806933097807,-0.5577558572400253,3.0549589579805563,"(0.0, 0.0, 0.0, 0.0, 0.0, 0.0)",39.845640952717,0.8551826533669656,-5.0192908628628805,"(0.0, 0.0, 0.0, 0.0, 0.0, 0.0)",19.520428399002,True,"(-0.031006456029053206, 0.18019920383377602, 0.023994329638221932)","(0.9922239401206523, 0.12433627092149606, -0.005669601818851313)",-0.0005148038489068186,428.5206410406488,True,"(0.03236246380961459, 0.17994971919477992, 0.023997959838382148)","(-0.9993845697424365, -0.035018889211399305, -0.00203940165862912)",0.0005577664042068458,310.72647358115125
15,Move,"(0.0, 0.0, 0.0)","(0.0, -0.0, 0.0)","(0.003504402033646404, 0.1613948858976077, 0.04817079317234074)","(-0.01182613504509735, 0.002137449988488053, 0.11742566033651587)","[0.00027769851403030687, 0.002516460172039048, 0.00011375034812365764]","[-0.026750000193715096, 0.05299999937415123, 0.03999999910593033]","[0.0, -0.0, 0.5308887471047733]","[-0.0632035955786705, 0.11508973687887192, 0.03999999910593033]","[0.0, 0.0, -0.30561217044041405]","[0.026750000193715096, 0.05299999937415123, 0.03999999910593033]","[0.0, 0.0, -0.5530530160976456]","[0.06457070261240005, 0.11426658928394318, 0.03999999910593033]","[0.0, -0.0, 0.28633845186065504]",0.5308886342742289,-2.743219973176496e-05,"(0.0, 0.0, 0.0, 0.0, 0.0, 0.0)",-1.479968393802807,-0.8377176048323264,-0.292020181278713,"(0.0, 0.0, 0.0, 0.0, 0.0, 0.0)",-0.7628834231627771,-0.5548130719939204,-0.42243279192450156,"(0.0, 0.0, 0.0, 0.0, 0.0, 0.0)",0.8255153500339152,0.8405146749784174,0.2695910008350374,"(0.0, 0.0, 0.0, 0.0, 0.0, 0.0)",0.4581689805558429,True,"(-0.02993623661702797, 0.18164521985802554, 0.02399768538251049)","(0.9931207992795509, 0.11707144870409551, -0.0023138575302940555)",-0.0007845701781099983,10.805815356635755,True,"(0.03269094966236777, 0.18010672723331056, 0.05600231461748951)","(-0.9931207992795511, -0.11707144870409283, 0.002313857530288821)",-0.00014723643191122778,5.690113724073641
16,Move,"(-0.0031645569620253164, 0.0, 0.0031645569620253164)","(0.0, -0.0, 0.0)","(0.0038303751131320628, 0.16151970830963092, 0.048499230398761146)","(-0.009712718894123035, 0.0014668678569499862, 0.11593607178648861)","[0.0006036715935159656, 0.0026412825840622656, 0.00044218757454406177]","[-0.026750000193715096, 0.05299999937415123, 0.03999999910593033]","[0.0, -0.0, 0.5295412089126406]","[-0.06311989575624466, 0.11513879895210266, 0.03999999910593033]","[0.0, 0.0, -0.30775495622863025]","[0.026750000193715096, 0.05299999937415123, 0.03999999910593033]","[0.0, 0.0, -0.5574153735384237]","[0.06483760476112366, 0.11410101503133774, 0.03999999910593033]","[0.0, -0.0, 0.2827810844257802]",0.5291764412239609,-0.08755163873451394,"(0.0, 0.0, 0.0, 0.0, 0.0, 0.0)",-1.2704860295956006,-0.8369194380751828,0.09041812348693512,"(0.0, 0.0, 0.0, 0.0, 0.0, 0.0)",-0.6305810318165724,-0.5576880987856588,-0.06546888988444736,"(0.0, 0.0, 0.0, 0.0, 0.0, 0.0)",0.603049494541027,0.8398745836512035,-0.07723003556425433,"(0.0, 0.0, 0.0, 0.0, 0.0, 0.0)",0.31025698120732575,True,"(-0.029710183760246887, 0.18162446808770843, 0.023998419158008072)","(0.9931817645795673, 0.11656537156199824, -0.0015800820327122893)",-0.0005431627840957887,9.848588536255185,True,"(0.03319262570104705, 0.18005112065107698, 0.05600158084199193)","(-0.9931817645795679, -0.1165653715619954, 0.0015800820327087136)",-9.087955912632755e-05,4.192100803585212
17,Move,"(-0.006329113924050633, 0.0, 0.006329113924050633)","(0.0, -0.0, 0.0)","(0.003827887626773969, 0.16134476975169534, 0.04866332854638351)","(-0.005819647506872081, 0.0002554901605222445, 0.1151232961229741)","[0.0006011841071578718, 0.0024663440261266933, 0.000606285722166422]","[-0.026750000193715096, 0.05299999937415123, 0.03999999910593033]","[0.0, -0.0, 0.5297067068220473]","[-0.06313017755746841, 0.11513277888298035, 0.03999999910593033]","[0.0, 0.0, -0.3064903784416599]","[0.026750000193715096, 0.05299999937415123, 0.03999999910593033]","[0.0, 0.0, -0.5573395834821517]","[0.06483297795057297, 0.11410389840602875, 0.03999999910593033]","[0.0, -0.0, 0.28145986864506367]",0.5299406394513678,0.05614056663984338,"(0.0, 0.0, 0.0, 0.0, 0.0, 0.0)",-0.5414274362225638,-0.8360580386183463,0.03336518614413796,"(0.0, 0.0, 0.0, 0.0, 0.0, 0.0)",-0.24790749723558592,-0.5571793081935582,0.038463807628929085,"(0.0, 0.0, 0.0, 0.0, 0.0, 0.0)",0.6616175294078188,0.8385956523236333,-0.048909366053511656,"(0.0, 0.0, 0.0, 0.0, 0.0, 0.0)",0.3503907619839831,True,"(-0.029804223124673408, 0.1816576891244554, 0.023999478778200634)","(0.993380987963169, 0.1148648852904621, -0.0005204618401522777)",-0.0003605528445773646,2.1651009084742516,True,"(0.0332751124936308, 0.18009614500343307, 0.05600052122179937)","(-0.9933809879631696, -0.11486488529045769, 0.0005204618401491541)",-4.765651831402311e-05,3.5274066105066693
18,Move,"(-0.00949367088607595, 0.0, 0.00949367088607595)","(0.0, -0.0, 0.0)","(0.0035112351686089893, 0.16116682932497323, 0.04877192297294586)","(-0.0021997975040760295, -0.0015525493129052593, 0.11708019054830153)","[0.00028453164899289217, 0.002288403599404576, 0.0007148801487287734]","[-0.026750000193715096, 0.05299999937415123, 0.03999999910593033]","[0.0, -0.0, 0.5326745152282873]","[-0.06331441551446915, 0.11502453684806824, 0.03999999910593033]","[0.0, 0.0, -0.3027079370643894]","[0.026750000193715096, 0.05299999937415123, 0.03999999910593033]","[0.0, 0.0, -0.5546145701713973]","[0.06466633081436157, 0.11420745402574539, 0.03999999910593033]","[0.0, -0.0, 0.28296277522732827]",0.5333515924570876,0.16250080660099042,"(0.0, 0.0, 0.0, 0.0, 0.0, 0.0)",-0.3536692849969218,-0.8352500039327426,0.03178416259937935,"(0.0, 0.0, 0.0, 0.0, 0.0, 0.0)",-0.148474557375595,-0.5539610181927778,0.15684779835869683,"(0.0, 0.0, 0.0, 0.0, 0.0, 0.0)",1.0003802719615218,0.8373900464321937,-0.044956437164905154,"(0.0, 0.0, 0.0, 0.0, 0.0, 0.0)",0.5497278590241547,True,"(-0.03024027774298943, 0.18167465723680232, 0.023999743749883045)","(0.9933805965201176, 0.11486916549759953, -0.00025549015774040297)",-0.00020079196826672507,0.2504931111448112,True,"(0.0330093200453028, 0.18015214319012435, 0.05600025625011696)","(-0.9933805965201171, -0.114869165497604, 0.0002554901577354869)",1.2348431455921579e-05,0.0
19,Move,"(-0.012658227848101266, 0.0, 0.012658227848101266)","(0.0, -0.0, 0.0)","(0.002939259739124447, 0.1610416128645683, 0.048844108745627814)","(-0.0010524064287082628, -0.00147667709300241, 0.12210844448078795)","[-0.0002874437804916501, 0.002163187138999656, 0.000787065921410729]","[-0.026750000193715096, 0.05299999937415123, 0.03999999910593033]","[0.0, -0.0, 0.5379611946583163]","[-0.06364180892705917, 0.1148303672671318, 0.03999999910593033]","[0.0, 0.0, -0.2967779623812078]","[0.026750000193715096, 0.05299999937415123, 0.03999999910593033]","[0.0, 0.0, -0.5492635620575628]","[0.06433825939893723, 0.11440946906805038, 0.03999999910593033]","[0.0, -0.0, 0.28731106755333546]",0.5390375124248614,0.2583114072194354,"(0.0, 0.0, 0.0, 0.0, 0.0, 0.0)",-0.3481630785733725,-0.8346268428628856,0.026957608840080558,"(0.0, 0.0, 0.0, 0.0, 0.0, 0.0)",-0.13848975104202405,-0.5481578780657995,0.2653505722016921,"(0.0, 0.0, 0.0, 0.0, 0.0, 0.0)",0.9503236598341606,0.8364045139670614,-0.04081550810978251,"(0.0, 0.0, 0.0, 0.0, 0.0, 0.0)",0.5393305712160024,True,"(-0.030963484065313122, 0.18167544193178325, 0.023999743749883045)","(0.9933805965201176, 0.11486916549759953, -0.00025549015774040297)",-0.0001267841553256752,0.6997977042840792,True,"(0.03239481051195241, 0.18021588206120126, 0.05600025625011696)","(-0.9933805965201171, -0.114869165497604, 0.0002554901577354869)",1.681909830106317e-05,0.0
20,Move,"(-0.015822784810126587, 0.0, 0.015822784810126587)","(0.0, -0.0, 0.0)","(0.0020788154762576582, 0.16094511132311443, 0.04889093602507404)","(-0.00038697481767996627, -0.0013369484367315493, 0.1274793468572543)","[-0.001147888043358439, 0.0020666855975457754, 0.0008338932008569583]","[-0.026750000193715096, 0.05299999937415123, 0.03999999910593033]","[0.0, -0.0, 0.5453352803088936]","[-0.06409674137830734, 0.11455664783716202, 0.03999999910593033]","[0.0, 0.0, -0.28869735195316426]","[0.026750000193715096, 0.05299999937415123, 0.03999999910593033]","[0.0, 0.0, -0.5414807907151375]","[0.06385920196771622, 0.11470013856887817, 0.03999999910593033]","[0.0, -0.0, 0.2939742141026968]",0.5467678494935766,0.3438240098360157,"(0.0, 0.0, 0.0, 0.0, 0.0, 0.0)",-0.44737748917581716,-0.8338992767021575,0.03199837963975238,"(0.0, 0.0, 0.0, 0.0, 0.0, 0.0)",-0.1768553070962386,-0.5399516573427804,0.3669998196370225,"(0.0, 0.0, 0.0, 0.0, 0.0, 0.0)",1.0117002719380241,0.8352651830467291,-0.04556300988176475,"(0.0, 0.0, 0.0, 0.0, 0.0, 0.0)",0.5778657257546855,True,"(-0.03195962532315254, 0.1816635970439779, 0.023999743749883045)","(0.9933805965201176, 0.11486916549759953, -0.00025549015774040297)",-8.298564174780704e-05,0.8349294049483935,True,"(0.03147798209446469, 0.18029225414063374, 0.05600025625011696)","(-0.9933805965201171, -0.114869165497604, 0.0002554901577354869)",1.1161467134237933e-05,0.7277806806235746
21,Move,"(-0.0189873417721519, 0.0, 0.0189873417721519)","(0.0, -0.0, 0.0)","(0.0009546853150860836, 0.16085188532432085, 0.04886832288442975)","(0.0016150232451862332, -0.0009816553792427584, 0.13272651248963763)","[-0.0022720182045300134, 0.0019734595987521975, 0.0008112800602126657]","[-0.026750000193715096, 0.05299999937415123, 0.03999999910593033]","[0.0, -0.0, 0.5545415476498363]","[-0.06466186046600342, 0.11421021819114685, 0.03999999910593033]","[0.0, 0.0, -0.27859036272836774]","[0.026750000193715096, 0.05299999937415123, 0.03999999910593033]","[0.0, 0.0, -0.5314606441756848]","[0.06323909759521484, 0.11506887525320053, 0.03999999910593033]","[0.0, -0.0, 0.3026919154923401]",0.5562838087620444,0.41814265245199567,"(0.0, 0.0, 0.0, 0.0, 0.0, 0.0)",-0.48531541822964175,-0.8329934966758326,0.033212449667316304,"(0.0, 0.0, 0.0, 0.0, 0.0, 0.0)",-0.18718627766112791,-0.5295483660425331,0.45894385856185144,"(0.0, 0.0, 0.0, 0.0, 0.0, 0.0)",0.8720822992208151,0.8339022624238462,-0.06006584151855905,"(0.0, 0.0, 0.0, 0.0, 0.0, 0.0)",0.5498774603717459,True,"(-0.03320462463623294, 0.18163854544741537, 0.023999743749883045)","(0.9933805965201176, 0.11486916549759953, -0.00025549015774040297)",-5.701597669051593e-05,3.094355366612233,True,"(0.03028730768544182, 0.18037621317964414, 0.05600025625011696)","(-0.9933805965201171, -0.114869165497604, 0.0002554901577354869)",4.339378909550624e-06,5.580436570508029
22,Move,"(-0.02215189873417721, 0.0, 0.02215189873417721)","(0.0, -0.0, 0.0)","(-0.0003890801141410887, 0.16080471159502946, 0.04886858556304402)","(-0.001020337236307783, -0.0013823998959788609, 0.1389367007814336)","[-0.0036157836337571856, 0.0019262858694608087, 0.0008115427388269356]","[-0.026750000193715096, 0.05299999937415123, 0.03999999910593033]","[0.0, -0.0, 0.5653385240333377]","[-0.06532052159309387, 0.11379732936620712, 0.03999999910593033]","[0.0, 0.0, -0.2666724345249181]","[0.026750000193715096, 0.05299999937415123, 0.03999999910593033]","[0.0, 0.0, -0.5194290194536534]","[0.06248968467116356, 0.11550340056419373, 0.03999999910593033]","[0.0, -0.0, 0.31284896696043013]",0.567355937623799,0.48419115651414957,"(0.0, 0.0, 0.0, 0.0, 0.0, 0.0)",-1.041594301080047,-0.8316881149374,0.07747369568249113,"(0.0, 0.0, 0.0, 0.0, 0.0, 0.0)",-0.47132693232987644,-0.5171652688981926,0.5432824583301853,"(0.0, 0.0, 0.0, 0.0, 0.0, 0.0)",0.9826271446713537,0.8319530857714444,-0.07795336776659653,"(0.0, 0.0, 0.0, 0.0, 0.0, 0.0)",0.5854394531256031,True,"(-0.03466910243928125, 0.18159576043130987, 0.023999743749883045)","(0.9933805965201176, 0.11486916549759953, -0.00025549015774040297)",-3.497337870005038e-05,4.638430989181884,True,"(0.028876273209192657, 0.18047267980018475, 0.05600025625011696)","(-0.9933805965201171, -0.114869165497604, 0.0002554901577354869)",3.801914592878869e-06,4.1916781665268505
23,Move,"(-0.02531645569620253, 0.0, 0.02531645569620253)","(0.0, -0.0, 0.0)","(-0.0019579613838343894, 0.16076702792510042, 0.048916984723366114)","(-0.0009358871415392834, -0.0013288348763822464, 0.14361917483807296)","[-0.005184664903450487, 0.0018886021995317692, 0.000859941899149029]","[-0.026750000193715096, 0.05299999937415123, 0.03999999910593033]","[0.0, -0.0, 0.577494297783908]","[-0.06605669856071472, 0.11332398653030396, 0.03999999910593033]","[0.0, 0.0, -0.253024234088992]","[0.026750000193715096, 0.05299999937415123, 0.03999999910593033]","[0.0, 0.0, -0.5055063357182632]","[0.06161603704094887, 0.11599491536617279, 0.03999999910593033]","[0.0, -0.0, 0.3246077379616845]",0.5797352439319361,0.5378162525391726,"(0.0, 0.0, 0.0, 0.0, 0.0, 0.0)",-0.8392915005996281,-0.8302281731903296,0.06970729784947258,"(0.0, 0.0, 0.0, 0.0, 0.0, 0.0)",-0.36814261360361294,-0.5029166574232858,0.6215225042501189,"(0.0, 0.0, 0.0, 0.0, 0.0, 0.0)",1.3226517486523401,0.8296944029133729,-0.10071357755431577,"(0.0, 0.0, 0.0, 0.0, 0.0, 0.0)",0.7634086476755629,True,"(-0.03633342943308946, 0.18153443038343667, 0.023999743749883045)","(0.9933805965201176, 0.11486916549759953, -0.00025549015774040297)",-1.5814198636282754e-05,4.506747699591595,True,"(0.0272410100378287, 0.18056446118565375, 0.05600025625011696)","(-0.9933805965201171, -0.114869165497604, 0.0002554901577354869)",-1.7456984679316949e-06,9.326555079534192
24,Move,"(-0.02848101265822785, 0.0, 0.02848101265822785)","(0.0, -0.0, 0.0)","(-0.0037430591333659424, 0.16070200108985247, 0.048900733476470996)","(-3.518073497484918e-05, -0.0010052343393633, 0.1473098403384944)","[-0.006969762652982039, 0.0018235753642838193, 0.0008436906522539117]","[-0.026750000193715096, 0.05299999937415123, 0.03999999910593033]","[0.0, -0.0, 0.5908187688765382]","[-0.06685696542263031, 0.1127949133515358, 0.03999999910593033]","[0.0, 0.0, -0.23784634141934513]","[0.026750000193715096, 0.05299999937415123, 0.03999999910593033]","[0.0, 0.0, -0.4898668012207417]","[0.06062659993767738, 0.11653248220682144, 0.03999999910593033]","[0.0, -0.0, 0.3376457856009271]",0.5932599907632665,0.5858918265068584,"(0.0, 0.0, 0.0, 0.0, 0.0, 0.0)",-1.4409604952798887,-0.8281891608696842,0.11423063143008898,"(0.0, 0.0, 0.0, 0.0, 0.0, 0.0)",-0.6901719816554781,-0.48697519905721004,0.6939754493992143,"(0.0, 0.0, 0.0, 0.0, 0.0, 0.0)",1.2950275647343172,0.8271686816999195,-0.08252782619936296,"(0.0, 0.0, 0.0, 0.0, 0.0, 0.0)",0.7440189936630921,True,"(-0.038166392285803825, 0.18141271593254713, 0.05600124572320763)","(0.9892145236931799, 0.1464686866909974, 0.0012449632484041759)",-9.046170533527653e-05,10.458744860368776,True,"(0.025412655677191434, 0.18064836524911104, 0.05600025625011696)","(-0.9933805965201171, -0.114869165497604, 0.0002554901577354869)",-1.1161183173883634e-05,11.045202628356218
25,Move,"(-0.031645569620253174, 0.0, 0.031645569620253174)","(0.0, -0.0, 0.0)","(-0.005725603314552298, 0.1606681209453776, 0.048876624920567)","(0.0014562943886114634, -0.0007303334362956311, 0.15001744460572636)","[-0.008952306834168396, 0.0017896952198089566, 0.0008195820963499134]","[-0.026750000193715096, 0.05299999937415123, 0.03999999910593033]","[0.0, -0.0, 0.6051262874039348]","[-0.06770835071802139, 0.11221497505903244, 0.03999999910593033]","[0.0, 0.0, -0.22092579284588829]","[0.026750000193715096, 0.05299999937415123, 0.03999999910593033]","[0.0, 0.0, -0.4726750108130095]","[0.05952941253781319, 0.11710546165704727, 0.03999999910593033]","[0.0, -0.0, 0.35215963435535225]",0.6077242205412754,0.6234962735147471,"(0.0, 0.0, 0.0, 0.0, 0.0, 0.0)",-1.4699096332384631,-0.8255923087541241,0.11035552158347081,"(0.0, 0.0, 0.0, 0.0, 0.0, 0.0)",-0.700787130444248,-0.4695277941006158,0.7553339862582991,"(0.0, 0.0, 0.0, 0.0, 0.0, 0.0)",1.8059833659017122,0.8243018007257484,-0.12788243133205418,"(0.0, 0.0, 0.0, 0.0, 0.0, 0.0)",1.0210398141599062,True,"(-0.040180638063720235, 0.18129422329872136, 0.05600082043853792)","(0.9888352456736674, 0.1490106876721447, 0.0008196785786941554)",-9.2522629473698e-05,10.54606015077826,True,"(0.023388643010780898, 0.18070352135252069, 0.05600025625011696)","(-0.9933805965201171, -0.114869165497604, 0.0002554901577354869)",-2.0693343606873135e-05,14.967220639569454
26,Move,"(-0.034810126582278486, 0.0, 0.034810126582278486)","(0.0, -0.0, 0.0)","(-0.007861751004315963, 0.16060926749230664, 0.0488996624028591)","(0.0005173245141964153, -0.0005019326825521357, 0.15289048517590167)","[-0.01108845452393206, 0.0017308417667379894, 0.0008426195786420121]","[-0.026750000193715096, 0.05299999937415123, 0.03999999910593033]","[0.0, -0.0, 0.6202446950506444]","[-0.06859886646270752, 0.11158901453018188, 0.03999999910593033]","[0.0, 0.0, -0.20268748194319694]","[0.026750000193715096, 0.05299999937415123, 0.03999999910593033]","[0.0, 0.0, -0.4541253593262459]","[0.05833471193909645, 0.1177024394273758, 0.03999999910593033]","[0.0, -0.0, 0.36750190527274257]",0.6229855890091007,0.6578288487733135,"(0.0, 0.0, 0.0, 0.0, 0.0, 0.0)",-2.090315757936895,-0.822244654068511,0.16499042384033405,"(0.0, 0.0, 0.0, 0.0, 0.0, 0.0)",-1.0661279702989397,-0.45074030323113573,0.8124269727473769,"(0.0, 0.0, 0.0, 0.0, 0.0, 0.0)",1.7686501232857712,0.8211045571349459,-0.12546192700841904,"(0.0, 0.0, 0.0, 0.0, 0.0, 0.0)",0.954901808447332,True,"(-0.04233310802611407, 0.181143671014092, 0.056000532622051416)","(0.9883973585566143, 0.15188936342292944, 0.0005318620921889183)",-9.946560079057716e-05,15.310607667484778,True,"(0.021222493796297717, 0.18073855821988133, 0.05600025625011696)","(-0.9933805965201171, -0.114869165497604, 0.0002554901577354869)",-2.9571675505306576e-05,14.74457695029127
27,Move,"(-0.0379746835443038, 0.0, 0.0379746835443038)","(0.0, -0.0, 0.0)","(-0.010130422241367234, 0.16053609344243855, 0.048916002567016906)","(-0.00012875747899407678, -0.0003111337647606877, 0.15546406780768088)","[-0.013357125760983331, 0.0016576677168698983, 0.0008589597427998211]","[-0.026750000193715096, 0.05299999937415123, 0.03999999910593033]","[0.0, -0.0, 0.6360262848001219]","[-0.06951824575662613, 0.11092130094766617, 0.03999999910593033]","[0.0, 0.0, -0.1830153298424028]","[0.026750000193715096, 0.05299999937415123, 0.03999999910593033]","[0.0, 0.0, -0.43431197468511884]","[0.057046618312597275, 0.11831550300121307, 0.03999999910593033]","[0.0, -0.0, 0.38373036398805915]",0.6388639682454614,0.6810381607092929,"(0.0, 0.0, 0.0, 0.0, 0.0, 0.0)",-2.126289029452985,-0.8183412369189556,0.1680969560052988,"(0.0, 0.0, 0.0, 0.0, 0.0, 0.0)",-1.0981092448568066,-0.430713890543185,0.863541535987251,"(0.0, 0.0, 0.0, 0.0, 0.0, 0.0)",2.453953584173553,0.8173152770112244,-0.1744911694033745,"(0.0, 0.0, 0.0, 0.0, 0.0, 0.0)",1.2906734127283812,True,"(-0.044622989652551986, 0.18096230118651332, 0.056000353645780085)","(0.9880030226654477, 0.1544341370148977, 0.0003528858208616496)",-0.00011269733882937814,15.560847908286615,True,"(0.018916354294261875, 0.18074107154742575, 0.05600025625011696)","(-0.9933805965201171, -0.114869165497604, 0.0002554901577354869)",-3.079964859365072e-05,19.35976376636457
28,Move,"(-0.041139240506329125, 0.0, 0.041139240506329125)","(0.0, -0.0, 0.0)","(-0.012518081516752462, 0.1604455653336872, 0.04889854214578118)","(0.0009535073304299089, -0.00039893921674198223, 0.15804312202101228)","[-0.015744785036368558, 0.0015671396081185507, 0.0008414993215640973]","[-0.026750000193715096, 0.05299999937415123, 0.03999999910593033]","[0.0, -0.0, 0.6523002489848164]","[-0.0704551562666893, 0.11021765321493149, 0.03999999910593033]","[0.0, 0.0, -0.16220156828758994]","[0.026750000193715096, 0.05299999937415123, 0.03999999910593033]","[0.0, 0.0, -0.41334472465726774]","[0.05567057058215141, 0.11893633753061295, 0.03999999910593033]","[0.0, -0.0, 0.4002733418487439]",0.6552312089135354,0.7034257815045796,"(0.0, 0.0, 0.0, 0.0, 0.0, 0.0)",-2.8020250054036553,-0.8135924085027747,0.2182622973000806,"(0.0, 0.0, 0.0, 0.0, 0.0, 0.0)",-1.4722385298473202,-0.4095394975706305,0.9132535426206141,"(0.0, 0.0, 0.0, 0.0, 0.0, 0.0)",2.5138209029393237,0.812877547259286,-0.17771679114459982,"(0.0, 0.0, 0.0, 0.0, 0.0, 0.0)",1.3159748306567942,True,"(-0.04701996271922882, 0.18074357513025, 0.056000431940818766)","(0.9876097691870975, 0.15692914926575757, 0.0004311808595395486)",-0.00012082423986018366,20.81067443183944,True,"(0.016512868411748975, 0.1807226045486681, 0.05600025625011696)","(-0.9933805965201171, -0.114869165497604, 0.0002554901577354869)",-2.3831697856425773e-05,20.150361147502704
29,Move,"(-0.044303797468354424, 0.0, 0.044303797468354424)","(0.0, -0.0, 0.0)","(-0.015014698062150571, 0.1602935833111853, 0.0489144681957419)","(0.00015844034251611403, -0.0002749388093843821, 0.1608101691053034)","[-0.018241401581766667, 0.0014151575856166387, 0.0008574253715248129]","[-0.026750000193715096, 0.05299999937415123, 0.03999999910593033]","[0.0, -0.0, 0.6690015632794732]","[-0.07140462100505829, 0.10947977006435394, 0.03999999910593033]","[0.0, 0.0, -0.14001763616329407]","[0.026750000193715096, 0.05299999937415123, 0.03999999910593033]","[0.0, 0.0, -0.3912780225950001]","[0.054208651185035706, 0.1195584163069725, 0.03999999910593033]","[0.0, -0.0, 0.41766748097638623]",0.6719963222553567,0.7187416731986915,"(0.0, 0.0, 0.0, 0.0, 0.0, 0.0)",-3.2147231857628538,-0.8079918887917307,0.24655560658601217,"(0.0, 0.0, 0.0, 0.0, 0.0, 0.0)",-1.7148107872399891,-0.38728659749880917,0.9579428177329966,"(0.0, 0.0, 0.0, 0.0, 0.0, 0.0)",2.8296690147012122,0.8080843503173423,-0.20668610686107575,"(0.0, 0.0, 0.0, 0.0, 0.0, 0.0)",1.4458748113028201,True,"(-0.04953632191386417, 0.18048902384686283, 0.05600029622701874)","(0.9871758525486786, 0.15963630177377144, 0.0002954670595195137)",-0.00013702514039347374,23.964688889914086,True,"(0.013982203367163645, 0.180654251904083, 0.05600025625011696)","(-0.9933805965201171, -0.114869165497604, 0.0002554901577354869)",-2.0182248229020737e-05,22.48812859667734
30,Move,"(-0.04746835443037975, 0.0, 0.04746835443037975)","(0.0, -0.0, 0.0)","(-0.01760061297015249, 0.16011205106930956, 0.04888562525004365)","(0.001438738672405504, -0.0003883332836765111, 0.16323305469115434)","[-0.02082731648976859, 0.0012336253437409128, 0.0008285824258265628]","[-0.026750000193715096, 0.05299999937415123, 0.03999999910593033]","[0.0, -0.0, 0.6859496334634086]","[-0.07235538214445114, 0.10871488600969315, 0.03999999910593033]","[0.0, 0.0, -0.11694539226825967]","[0.026750000193715096, 0.05299999937415123, 0.03999999910593033]","[0.0, 0.0, -0.3682136106644286]","[0.052666354924440384, 0.12017397582530975, 0.03999999910593033]","[0.0, -0.0, 0.43521224718986257]",0.6889887718914801,0.7293997618643807,"(0.0, 0.0, 0.0, 0.0, 0.0, 0.0)",-3.6686577636227273,-0.8016185743636218,0.3063411797526052,"(0.0, 0.0, 0.0, 0.0, 0.0, 0.0)",-2.009977550354443,-0.36404182089513853,1.0012283191901745,"(0.0, 0.0, 0.0, 0.0, 0.0, 0.0)",3.21878637331049,0.80254315701504,-0.21184863497545847,"(0.0, 0.0, 0.0, 0.0, 0.0, 0.0)",1.589037631425995,True,"(-0.05212760810916334, 0.18018978037686922, 0.05600024907365214)","(0.9867247560197373, 0.16240133681130714, 0.00024831369291773784)",-0.0001515245498938761,27.603743713913513,True,"(0.011374240599980219, 0.18055468174326186, 0.05600025625011696)","(-0.9933805965201171, -0.114869165497604, 0.0002554901577354869)",-1.8384229436386396e-05,24.296009575363357
