OSUrobotics/InHand-Manipulation/AnalyseData/Data/Trial Data/Better/new_hand_expected_exp_2v2_a_n_1_kpNone_kdNone_dp1_step1_save_data.csv
,Phase,human_cube_pos,human_cube_orn,Cube_Pos,Cube_Orn,Cube_pos_in_start_pos,b'l_prox_pin'_link_pos,b'l_prox_pin'_link_orn,b'l_distal_pin'_link_pos,b'l_distal_pin'_link_orn,b'r_prox_pin'_link_pos,b'r_prox_pin'_link_orn,b'r_distal_pin'_link_pos,b'r_distal_pin'_link_orn,b'l_prox_pin'_joint_angle,b'l_prox_pin'_joint_vel,b'l_prox_pin'_joint_react_forces,b'l_prox_pin'_joint_motor_torque,b'l_distal_pin'_joint_angle,b'l_distal_pin'_joint_vel,b'l_distal_pin'_joint_react_forces,b'l_distal_pin'_joint_motor_torque,b'r_prox_pin'_joint_angle,b'r_prox_pin'_joint_vel,b'r_prox_pin'_joint_react_forces,b'r_prox_pin'_joint_motor_torque,b'r_distal_pin'_joint_angle,b'r_distal_pin'_joint_vel,b'r_distal_pin'_joint_react_forces,b'r_distal_pin'_joint_motor_torque,in_contact_l,contact_point_l_dist,contact_normal_l_dist,contact_distance_l_dist,contact_norm_force_l_dist,in_contact_r,contact_point_r_dist,contact_normal_r_dist,contact_distance_r_dist,contact_norm_force_r_dist
0,Open,,,,,,"[-0.026750000193715096, 0.05299999937415123, 0.03999999910593033]","[0.0, -0.0, 0.0]","[-0.026750000193715096, 0.125, 0.03999999910593033]","[0.0, -0.0, 0.0]","[0.026750000193715096, 0.05299999937415123, 0.03999999910593033]","[0.0, -0.0, 0.0]","[0.026750000193715096, 0.125, 0.03999999910593033]","[0.0, -0.0, 0.0]",0.0,0.0,"(0.0, 0.0, 0.0, 0.0, 0.0, 0.0)",1.3400621000080305e-17,5.883223478113402e-32,1.4119736347472167e-29,"(0.0, 0.0, 0.0, 0.0, 0.0, 0.0)",1.0542555313129702e-18,-0.008068665190486622,-1.9364796457167894,"(0.0, 0.0, 0.0, 0.0, 0.0, 0.0)",193.26378306879909,-0.0700246186727924,-16.805908481470176,"(0.0, 0.0, 0.0, 0.0, 0.0, 0.0)",71.94009191575694,False,,,,,False,,,,
1,Open,,,,,,"[-0.026750000193715096, 0.05299999937415123, 0.03999999910593033]","[0.0, -0.0, 0.0]","[-0.026750000193715096, 0.125, 0.03999999910593033]","[0.0, -0.0, 5.883223447970011e-32]","[0.026750000193715096, 0.05299999937415123, 0.03999999910593033]","[0.0, 0.0, -0.008068665592501188]","[0.02733093686401844, 0.12499765306711197, 0.03999999910593033]","[0.0, 0.0, -0.0780932845685428]",0.157,37.68,"(0.0, 0.0, 0.0, 0.0, 0.0, 0.0)",54.702693795169004,5.294901130302062e-32,-1.4119736347472162e-30,"(0.0, 0.0, 0.0, 0.0, 0.0, 0.0)",3.9113724975844915,-0.1670280316324969,-38.150247946082466,"(0.0, 0.0, 0.0, 0.0, 0.0, 0.0)",-25.93345404555236,-0.0659493391739072,0.9780670797324476,"(0.0, 0.0, 0.0, 0.0, 0.0, 0.0)",-6.754749483880455,False,,,,,False,,,,
2,Open,,,,,,"[-0.026750000193715096, 0.05299999937415123, 0.03999999910593033]","[0.0, -0.0, 0.1569999988554567]","[-0.03800761699676514, 0.12411445379257202, 0.03999999910593033]","[0.0, -0.0, 0.1569999988554567]","[0.026750000193715096, 0.05299999937415123, 0.03999999910593033]","[0.0, 0.0, -0.16702801712980753]","[0.038720179349184036, 0.1239979937672615, 0.03999999910593033]","[0.0, 0.0, -0.23297739431320727]",0.29829999999999995,33.91199999999999,"(0.0, 0.0, 0.0, 0.0, 0.0, 0.0)",-5.390828189440958,5.294901130302062e-32,0.0,"(0.0, 0.0, 0.0, 0.0, 0.0, 0.0)",-0.3659219356209609,-0.3122944613104081,-34.863943122698686,"(0.0, 0.0, 0.0, 0.0, 0.0, 0.0)",95.8006544774165,-0.06705867534034729,-0.2662406799456205,"(0.0, 0.0, 0.0, 0.0, 0.0, 0.0)",9.049911776264722,False,,,,,False,,,,
3,Open,,,,,,"[-0.026750000193715096, 0.05299999937415123, 0.03999999910593033]","[0.0, -0.0, 0.29830000998707634]","[-0.04791048914194107, 0.12182030081748962, 0.03999999910593033]","[0.0, -0.0, 0.29830000998707634]","[0.026750000193715096, 0.05299999937415123, 0.03999999910593033]","[0.0, 0.0, -0.3122944642903269]","[0.048871491104364395, 0.12151744216680527, 0.03999999910593033]","[0.0, 0.0, -0.3793531994353912]",0.42546999999999996,30.5208,"(0.0, 0.0, 0.0, 0.0, 0.0, 0.0)",-4.858074537215091,5.294901130302062e-32,0.0,"(0.0, 0.0, 0.0, 0.0, 0.0, 0.0)",-0.33154044974508506,-0.44292449566296654,-31.35120824461403,"(0.0, 0.0, 0.0, 0.0, 0.0, 0.0)",100.88457241511576,-0.08373770380977785,-4.0029668326633345,"(0.0, 0.0, 0.0, 0.0, 0.0, 0.0)",24.077304806401806,False,,,,,False,,,,
4,Open,,,,,,"[-0.026750000193715096, 0.05299999937415123, 0.03999999910593033]","[0.0, -0.0, 0.4254700097131474]","[-0.056467924267053604, 0.11858082562685013, 0.03999999910593033]","[0.0, -0.0, 0.4254700097131474]","[0.026750000193715096, 0.05299999937415123, 0.03999999910593033]","[0.0, 0.0, -0.4429245237535421]","[0.057608019560575485, 0.1180521547794342, 0.03999999910593033]","[0.0, 0.0, -0.5266622746639338]",0.5399229999999999,27.46872,"(0.0, 0.0, 0.0, 0.0, 0.0, 0.0)",-4.377393708535371,5.294901130302062e-32,0.0,"(0.0, 0.0, 0.0, 0.0, 0.0, 0.0)",-0.30017707799641646,-0.5623038734984663,-28.651050680519948,"(0.0, 0.0, 0.0, 0.0, 0.0, 0.0)",144.45470973647488,-0.10456727132876567,-4.999096204557077,"(0.0, 0.0, 0.0, 0.0, 0.0, 0.0)",33.97911746732963,False,,,,,False,,,,
5,Open,,,,,,"[-0.026750000193715096, 0.05299999937415123, 0.03999999910593033]","[0.0, -0.0, 0.5399230359738098]","[-0.06376303732395172, 0.11475787311792374, 0.03999999910593033]","[0.0, -0.0, 0.5399230359738098]","[0.026750000193715096, 0.05299999937415123, 0.03999999910593033]","[0.0, 0.0, -0.5623038790270362]","[0.06513584405183792, 0.11391409486532211, 0.03999999910593033]","[0.0, 0.0, -0.6668711870723439]",0.6429307,24.721848,"(0.0, 0.0, 0.0, 0.0, 0.0, 0.0)",-3.943806903965684,5.294901130302062e-32,0.0,"(0.0, 0.0, 0.0, 0.0, 0.0, 0.0)",-0.2716098155097054,-0.6673401099248648,-25.208696742335626,"(0.0, 0.0, 0.0, 0.0, 0.0, 0.0)",94.97739775913854,-0.11755295807544866,-3.116564819203918,"(0.0, 0.0, 0.0, 0.0, 0.0, 0.0)",25.79194570087013,False,,,,,False,,,,
6,Open,,,,,,"[-0.026750000193715096, 0.05299999937415123, 0.03999999910593033]","[0.0, -0.0, 0.6429307111289271]","[-0.06991713494062424, 0.11062463372945786, 0.03999999910593033]","[0.0, -0.0, 0.6429307111289271]","[0.026750000193715096, 0.05299999937415123, 0.03999999910593033]","[0.0, 0.0, -0.6673401753977319]","[0.07131072133779526, 0.10955388844013214, 0.03999999910593033]","[0.0, 0.0, -0.7848931559948581]",0.73563763,22.249663200000004,"(0.0, 0.0, 0.0, 0.0, 0.0, 0.0)",-3.552789792259023,5.294901130302062e-32,0.0,"(0.0, 0.0, 0.0, 0.0, 0.0, 0.0)",-0.24562369466220793,-0.7579917869736262,-21.756402491702737,"(0.0, 0.0, 0.0, 0.0, 0.0, 0.0)",34.46450837185191,-0.10794166402774508,2.3067105714488583,"(0.0, 0.0, 0.0, 0.0, 0.0, 0.0)",8.765009015475858,False,,,,,False,,,,
7,Open,,,,,,"[-0.026750000193715096, 0.05299999937415123, 0.03999999910593033]","[0.0, -0.0, 0.7356376306875043]","[-0.07506632059812546, 0.10638101398944855, 0.03999999910593033]","[0.0, -0.0, 0.7356376306875043]","[0.026750000193715096, 0.05299999937415123, 0.03999999910593033]","[0.0, 0.0, -0.757991847340814]","[0.076247438788414, 0.10528770089149475, 0.03999999910593033]","[0.0, 0.0, -0.8659334873334429]",0.8190738670000001,20.024696880000004,"(0.0, 0.0, 0.0, 0.0, 0.0, 0.0)",-3.2002295086701533,2.3293280891773424e-07,5.5903874140256216e-05,"(0.0, 0.0, 0.0, 0.0, 0.0, 0.0)",-0.22200715926400075,-0.8391926082762636,-19.488197112632974,"(0.0, 0.0, 0.0, 0.0, 0.0, 0.0)",3.295349739497939,-0.09714776835574307,2.590534961280482,"(0.0, 0.0, 0.0, 0.0, 0.0, 0.0)",0.25803221970863044,False,,,,,False,,,,
8,Open,,,,,,"[-0.026750000193715096, 0.05299999937415123, 0.03999999910593033]","[0.0, -0.0, 0.8190738875671263]","[-0.07934698462486267, 0.10216865688562393, 0.03999999910593033]","[0.0, -0.0, 0.8190741465287105]","[0.026750000193715096, 0.05299999937415123, 0.03999999910593033]","[0.0, 0.0, -0.839192558822362]","[0.08032548427581787, 0.10110059380531311, 0.03999999910593033]","[0.0, 0.0, -0.9363403253067936]",0.8941664803,18.022227192,"(0.0, 0.0, 0.0, 0.0, 0.0, 0.0)",-2.8824197251771095,4.2009445145371055e-07,4.4918794208634316e-05,"(0.0, 0.0, 0.0, 0.0, 0.0, 0.0)",-0.2005835928406654,-0.9122733474486373,-17.539377401369673,"(0.0, 0.0, 0.0, 0.0, 0.0, 0.0)",2.7804978356880783,-0.0874331700712747,2.33150358827241,"(0.0, 0.0, 0.0, 0.0, 0.0, 0.0)",0.17017621517521792,False,,,,,False,,,,
9,Open,,,,,,"[-0.026750000193715096, 0.05299999937415123, 0.03999999910593033]","[0.0, -0.0, 0.894166469119967]","[-0.08288749307394028, 0.09808415919542313, 0.03999999910593033]","[0.0, -0.0, 0.894166894674561]","[0.026750000193715096, 0.05299999937415123, 0.03999999910593033]","[0.0, 0.0, -0.9122733503889549]","[0.08369457721710205, 0.09706035256385803, 0.03999999910593033]","[0.0, 0.0, -0.9997066729229968]",0.96174983227,16.220004472800003,"(0.0, 0.0, 0.0, 0.0, 0.0, 0.0)",-2.5959652512206968,5.681494863714967e-07,3.553320838026869e-05,"(0.0, 0.0, 0.0, 0.0, 0.0, 0.0)",-0.18114955764248034,-0.9780460127037736,-15.785439661232708,"(0.0, 0.0, 0.0, 0.0, 0.0, 0.0)",2.503992476159733,-0.0786900142246732,2.098357403184359,"(0.0, 0.0, 0.0, 0.0, 0.0, 0.0)",0.15360133560797545,False,,,,,False,,,,
10,Open,,,,,,"[-0.026750000193715096, 0.05299999937415123, 0.03999999910593033]","[0.0, -0.0, 0.9617498658906226]","[-0.08580395579338074, 0.09419016540050507, 0.03999999910593033]","[0.0, -0.0, 0.9617504517765805]","[0.026750000193715096, 0.05299999937415123, 0.03999999910593033]","[0.0, 0.0, -0.9780460255881384]","[0.08646733313798904, 0.09322238713502884, 0.03999999910593033]","[0.0, 0.0, -1.0567360258914282]",1.022574849043,14.598004025520002,"(0.0, 0.0, 0.0, 0.0, 0.0, 0.0)",-2.337816594086846,6.829231533297027e-07,2.7545680069969436e-05,"(0.0, 0.0, 0.0, 0.0, 0.0, 0.0)",-0.16354029854134106,-1.0372414114333963,-14.206895695109438,"(0.0, 0.0, 0.0, 0.0, 0.0, 0.0)",2.2548456713339484,-0.07082115822448021,1.8885254400463192,"(0.0, 0.0, 0.0, 0.0, 0.0, 0.0)",0.13860128234430863,False,,,,,False,,,,
11,Open,,,,,,"[-0.026750000193715096, 0.05299999937415123, 0.03999999910593033]","[0.0, -0.0, 1.0225748785172661]","[-0.08819860219955444, 0.09052424877882004, 0.03999999910593033]","[0.0, -0.0, 1.0225755149967983]","[0.026750000193715096, 0.05299999937415123, 0.03999999910593033]","[0.0, 0.0, -1.037241417801626]","[0.08874232321977615, 0.08961901068687439, 0.03999999910593033]","[0.0, 0.0, -1.1080626941470386]",1.0773173641387,13.138203622968001,"(0.0, 0.0, 0.0, 0.0, 0.0, 0.0)",-2.105207702642618,7.694903593429899e-07,2.0776129443188934e-05,"(0.0, 0.0, 0.0, 0.0, 0.0, 0.0)",-0.14759587787833617,-1.0905172702900567,-12.78620612559849,"(0.0, 0.0, 0.0, 0.0, 0.0, 0.0)",2.0303755786213302,-0.06373917358809339,1.6996763127328351,"(0.0, 0.0, 0.0, 0.0, 0.0, 0.0)",0.1250328149112744,False,,,,,False,,,,
12,Open,,,,,,"[-0.026750000193715096, 0.05299999937415123, 0.03999999910593033]","[0.0, -0.0, 1.0773173786594632]","[-0.09015969932079315, 0.08710587024688721, 0.03999999910593033]","[0.0, -0.0, 1.0773182784199262]","[0.026750000193715096, 0.05299999937415123, 0.03999999910593033]","[0.0, 0.0, -1.090517334189526]","[0.09060435742139816, 0.0862659215927124, 0.03999999910593033]","[0.0, 0.0, -1.1542564269670996]",1.1265856277248298,11.824383260671203,"(0.0, 0.0, 0.0, 0.0, 0.0, 0.0)",-1.895636869852492,8.322629993378343e-07,1.5065433598762668e-05,"(0.0, 0.0, 0.0, 0.0, 0.0, 0.0)",-0.13316806895824274,-1.138465543261051,-11.50758551303864,"(0.0, 0.0, 0.0, 0.0, 0.0, 0.0)",1.828159741200242,-0.05736537454460671,1.5297117704368035,"(0.0, 0.0, 0.0, 0.0, 0.0, 0.0)",0.11276577482950233,False,,,,,False,,,,
13,Open,,,,,,"[-0.026750000193715096, 0.05299999937415123, 0.03999999910593033]","[0.0, -0.0, 1.126585512342968]","[-0.09176240861415863, 0.08394166082143784, 0.03999999910593033]","[0.0, -0.0, 1.1265864725026016]","[0.026750000193715096, 0.05299999937415123, 0.03999999910593033]","[0.0, 0.0, -1.13846552283997]","[0.09212540090084076, 0.08316715806722641, 0.03999999910593033]","[0.0, 0.0, -1.1958309904194953]",1.1709270649523469,10.641944934604087,"(0.0, 0.0, 0.0, 0.0, 0.0, 0.0)",-1.7068426281171958,8.750681698751778e-07,1.0273240928962424e-05,"(0.0, 0.0, 0.0, 0.0, 0.0, 0.0)",-0.12011999884119333,-1.181618988934946,-10.356826961734775,"(0.0, 0.0, 0.0, 0.0, 0.0, 0.0)",1.6460093571929852,-0.051628943774705546,1.376743384776279,"(0.0, 0.0, 0.0, 0.0, 0.0, 0.0)",0.10168054944364863,False,,,,,False,,,,
14,Open,,,,,,"[-0.026750000193715096, 0.05299999937415123, 0.03999999910593033]","[0.0, -0.0, 1.170927100750299]","[-0.09307006001472473, 0.08102945238351822, 0.03999999910593033]","[0.0, -0.0, 1.1709279927689973]","[0.026750000193715096, 0.05299999937415123, 0.03999999910593033]","[0.0, 0.0, -1.181618964677462]","[0.09336595237255096, 0.08031877130270004, 0.03999999910593033]","[0.0, 0.0, -1.233247876832181]",1.2108343584571122,9.577750441143678,"(0.0, 0.0, 0.0, 0.0, 0.0, 0.0)",-1.5367816122769582,9.012180617793662e-07,6.275974057005224e-06,"(0.0, 0.0, 0.0, 0.0, 0.0, 0.0)",-0.1083256720668905,-1.2204570900414513,-9.3211442655613,"(0.0, 0.0, 0.0, 0.0, 0.0, 0.0)",1.4819475463743526,-0.046466145575958295,1.239071567699341,"(0.0, 0.0, 0.0, 0.0, 0.0, 0.0)",0.09166748660725833,False,,,,,False,,,,
15,Open,,,,,,"[-0.026750000193715096, 0.05299999937415123, 0.03999999910593033]","[0.0, -0.0, 1.2108343955497323]","[-0.09413553774356842, 0.07836118340492249, 0.03999999910593033]","[0.0, -0.0, 1.210835255049739]","[0.026750000193715096, 0.05299999937415123, 0.03999999910593033]","[0.0, 0.0, -1.2204571829136446]","[0.09437645971775055, 0.07771158218383789, 0.03999999910593033]","[0.0, 0.0, -1.2669233179031547]",1.2467509226114009,8.619975397029307,"(0.0, 0.0, 0.0, 0.0, 0.0, 0.0)",-1.3836082777937824,9.135722823677317e-07,2.9650129412077397e-06,"(0.0, 0.0, 0.0, 0.0, 0.0, 0.0)",-0.09766941677677543,-1.2554113810373062,-8.38902983900517,"(0.0, 0.0, 0.0, 0.0, 0.0, 0.0)",1.334189480132575,-0.04181961771093252,1.1151666876061868,"(0.0, 0.0, 0.0, 0.0, 0.0, 0.0)",0.08262627878010878,False,,,,,False,,,,
16,Open,,,,,,"[-0.026750000193715096, 0.05299999937415123, 0.03999999910593033]","[0.0, -0.0, 1.2467510110527222]","[-0.09500277042388916, 0.07592508941888809, 0.03999999910593033]","[0.0, -0.0, 1.246751870145374]","[0.026750000193715096, 0.05299999937415123, 0.03999999910593033]","[0.0, 0.0, -1.255411348379259]","[0.09519875049591064, 0.0753331333398819, 0.03999999910593033]","[0.0, 0.0, -1.2972309672073006]",1.2790758303502607,7.757977857326381,"(0.0, 0.0, 0.0, 0.0, 0.0, 0.0)",-1.2456264712746363,2.1141758111398655e-06,0.0002881448469053121,"(0.0, 0.0, 0.0, 0.0, 0.0, 0.0)",-0.088015399348708,-1.2868702429335757,-7.5501268551046525,"(0.0, 0.0, 0.0, 0.0, 0.0, 0.0)",1.2010989712673745,-0.037638748630864464,1.0034085792163332,"(0.0, 0.0, 0.0, 0.0, 0.0, 0.0)",0.07444006052486639,False,,,,,False,,,,
17,Open,,,,,,"[-0.026750000193715096, 0.05299999937415123, 0.03999999910593033]","[0.0, -0.0, 1.2790758758817962]","[-0.09570803493261337, 0.0737072303891182, 0.03999999910593033]","[0.0, -0.0, 1.2790780932516201]","[0.026750000193715096, 0.05299999937415123, 0.03999999910593033]","[0.0, 0.0, -1.2868702529032277]","[0.0958673357963562, 0.07316911965608597, 0.03999999910593033]","[0.0, 0.0, -1.3245087793274308]",1.3081682532711112,6.982181501004109,"(0.0, 0.0, 0.0, 0.0, 0.0, 0.0)",-1.12145472366965,1.9027582300258812e-06,-5.0740219467356254e-05,"(0.0, 0.0, 0.0, 0.0, 0.0, 0.0)",-0.07939114715284208,-1.315183223212741,-6.795115266999686,"(0.0, 0.0, 0.0, 0.0, 0.0, 0.0)",1.0813262344929835,-0.033874873767778015,0.9033299671407473,"(0.0, 0.0, 0.0, 0.0, 0.0, 0.0)",0.06713055017345074,False,,,,,False,,,,
18,Open,,,,,,"[-0.026750000193715096, 0.05299999937415123, 0.03999999910593033]","[0.0, -0.0, 1.3081682459906412]","[-0.09628119319677353, 0.07169260084629059, 0.03999999910593033]","[0.0, -0.0, 1.3081702011658356]","[0.026750000193715096, 0.05299999937415123, 0.03999999910593033]","[0.0, 0.0, -1.3151833180210462]","[0.0964106097817421, 0.07120437920093536, 0.03999999910593033]","[0.0, 0.0, -1.349058153261439]",1.334351427944,6.283961921493333,"(0.0, 0.0, 0.0, 0.0, 0.0, 0.0)",-1.0095234585863413,2.7618377923566443e-06,0.00020617909495938315,"(0.0, 0.0, 0.0, 0.0, 0.0, 0.0)",-0.07148780084672787,-1.3406649008914668,-6.11560264289422,"(0.0, 0.0, 0.0, 0.0, 0.0, 0.0)",0.9733796231570812,-0.030488273507324658,0.8127840625088054,"(0.0, 0.0, 0.0, 0.0, 0.0, 0.0)",0.060435192896783604,False,,,,,False,,,,
19,Open,,,,,,"[-0.026750000193715096, 0.05299999937415123, 0.03999999910593033]","[0.0, -0.0, 1.334351465706577]","[-0.09674673527479172, 0.06986585259437561, 0.03999999910593033]","[0.0, -0.0, 1.33435435145599]","[0.026750000193715096, 0.05299999937415123, 0.03999999910593033]","[0.0, 0.0, -1.3406650641721125]","[0.09685182571411133, 0.06942359358072281, 0.03999999910593033]","[0.0, 0.0, -1.3711530696282732]",1.3579162851496,5.655565729344001,"(0.0, 0.0, 0.0, 0.0, 0.0, 0.0)",-0.9088150211252332,3.4316066113876724e-06,0.0001607445165674468,"(0.0, 0.0, 0.0, 0.0, 0.0, 0.0)",-0.06444344013525093,-1.3635984108023202,-5.504042378604797,"(0.0, 0.0, 0.0, 0.0, 0.0, 0.0)",0.8762522980402716,-0.02744024570882781,0.7315266716392431,"(0.0, 0.0, 0.0, 0.0, 0.0, 0.0)",0.05446985052483407,False,,,,,False,,,,
20,Open,,,,,,"[-0.026750000193715096, 0.05299999937415123, 0.03999999910593033]","[0.0, -0.0, 1.3579163939939654]","[-0.09712471067905426, 0.0682118609547615, 0.03999999910593033]","[0.0, -0.0, 1.3579197824809437]","[0.026750000193715096, 0.05299999937415123, 0.03999999910593033]","[0.0, 0.0, -1.3635984874387626]","[0.09721000492572784, 0.06781173497438431, 0.03999999910593033]","[0.0, 0.0, -1.3910385869420074]",1.37912465663464,5.090009156409601,"(0.0, 0.0, 0.0, 0.0, 0.0, 0.0)",-0.8181093185961676,3.940702417530038e-06,0.0001221829934741677,"(0.0, 0.0, 0.0, 0.0, 0.0, 0.0)",-0.05806034967263589,-1.3842385697220883,-4.953638140744317,"(0.0, 0.0, 0.0, 0.0, 0.0, 0.0)",0.7887791417834831,-0.024696941374704916,0.6583930401894944,"(0.0, 0.0, 0.0, 0.0, 0.0, 0.0)",0.04906644857689494,False,,,,,False,,,,
21,Open,,,,,,"[-0.026750000193715096, 0.05299999937415123, 0.03999999910593033]","[0.0, -0.0, 1.3791247702213432]","[-0.0974314734339714, 0.0667160153388977, 0.03999999910593033]","[0.0, -0.0, 1.3791284782568445]","[0.026750000193715096, 0.05299999937415123, 0.03999999910593033]","[0.0, 0.0, -1.3842387704807777]","[0.09750068932771683, 0.06635437905788422, 0.03999999910593033]","[0.0, 0.0, -1.408935619520831]",1.398212190971176,4.581008240768642,"(0.0, 0.0, 0.0, 0.0, 0.0, 0.0)",-0.7364407507487188,4.314390796743166e-06,8.968521101115077e-05,"(0.0, 0.0, 0.0, 0.0, 0.0, 0.0)",-0.05230389643117988,-1.4028147127498793,-4.458274326669883,"(0.0, 0.0, 0.0, 0.0, 0.0, 0.0)",0.7100243788118592,-0.02222789596809768,0.5925708975857369,"(0.0, 0.0, 0.0, 0.0, 0.0, 0.0)",0.04419507766734469,False,,,,,False,,,,
22,Open,,,,,,"[-0.026750000193715096, 0.05299999937415123, 0.03999999910593033]","[0.0, -0.0, 1.3982120672717784]","[-0.09768038988113403, 0.06536446511745453, 0.03999999910593033]","[0.0, -0.0, 1.3982164487645397]","[0.026750000193715096, 0.05299999937415123, 0.03999999910593033]","[0.0, 0.0, -1.4028147367436141]","[0.09773654490709305, 0.06503787636756897, 0.03999999910593033]","[0.0, 0.0, -1.4250426427007885]",1.4153909718740585,4.122907416691778,"(0.0, 0.0, 0.0, 0.0, 0.0, 0.0)",-0.6629119687698639,4.574523674952359e-06,6.243189077020624e-05,"(0.0, 0.0, 0.0, 0.0, 0.0, 0.0)",-0.04711364623212332,-1.4195332414748913,-4.012446894002898,"(0.0, 0.0, 0.0, 0.0, 0.0, 0.0)",0.6391216750959775,-0.02000569064819732,0.5333292767760867,"(0.0, 0.0, 0.0, 0.0, 0.0, 0.0)",0.039804123486470444,False,,,,,False,,,,
23,Open,,,,,,"[-0.026750000193715096, 0.05299999937415123, 0.03999999910593033]","[0.0, -0.0, 1.415391158105469]","[-0.09788231551647186, 0.06414420157670975, 0.03999999910593033]","[0.0, -0.0, 1.415395709317307]","[0.026750000193715096, 0.05299999937415123, 0.03999999910593033]","[0.0, 0.0, -1.419533200978404]","[0.09792786836624146, 0.06384945660829544, 0.03999999910593033]","[0.0, 0.0, -1.4395389386881268]",1.4308518746866525,3.7106166750225977,"(0.0, 0.0, 0.0, 0.0, 0.0, 0.0)",-0.5967141397561109,4.7399630338636504e-06,3.9705446138709865e-05,"(0.0, 0.0, 0.0, 0.0, 0.0, 0.0)",-0.042434775014060074,-1.4345799173274023,-3.611202204602609,"(0.0, 0.0, 0.0, 0.0, 0.0, 0.0)",0.5752902758042565,-0.018005647771851804,0.4800102903229233,"(0.0, 0.0, 0.0, 0.0, 0.0, 0.0)",0.0358468230863414,False,,,,,False,,,,
24,Open,,,,,,"[-0.026750000193715096, 0.05299999937415123, 0.03999999910593033]","[0.0, -0.0, 1.4308518944899675]","[-0.09804610908031464, 0.06304314732551575, 0.03999999910593033]","[0.0, -0.0, 1.4308566269594332]","[0.026750000193715096, 0.05299999937415123, 0.03999999910593033]","[0.0, 0.0, -1.4345798203875788]","[0.09808305650949478, 0.06277728080749512, 0.03999999910593033]","[0.0, 0.0, -1.4525855975984745]",1.4447666872179874,3.339555007520341,"(0.0, 0.0, 0.0, 0.0, 0.0, 0.0)",-0.5371183361845069,4.8269553674989e-06,2.0878160072459843e-05,"(0.0, 0.0, 0.0, 0.0, 0.0, 0.0)",-0.03821759960562203,-1.448121925594662,-3.2500819841423465,"(0.0, 0.0, 0.0, 0.0, 0.0, 0.0)",0.5178266556878065,-0.016205556838873442,0.4320218239148067,"(0.0, 0.0, 0.0, 0.0, 0.0, 0.0)",0.0322808466635012,False,,,,,False,,,,
25,Open,,,,,,"[-0.026750000193715096, 0.05299999937415123, 0.03999999910593033]","[0.0, -0.0, 1.4447668540021588]","[-0.09817895293235779, 0.06205013021826744, 0.03999999910593033]","[0.0, -0.0, 1.4447715863131299]","[0.026750000193715096, 0.05299999937415123, 0.03999999910593033]","[0.0, 0.0, -1.448121993206969]","[0.09820891171693802, 0.06181041896343231, 0.03999999910593033]","[0.0, 0.0, -1.46432761016298]",1.4572900184961886,3.005599506768304,"(0.0, 0.0, 0.0, 0.0, 0.0, 0.0)",-0.483467731204937,4.849462099751187e-06,5.401615740548756e-06,"(0.0, 0.0, 0.0, 0.0, 0.0, 0.0)",-0.03441712855198442,-1.4603097330351957,-2.925073785728113,"(0.0, 0.0, 0.0, 0.0, 0.0, 0.0)",0.4660969568661882,-0.014585427836986846,0.38883096045278315,"(0.0, 0.0, 0.0, 0.0, 0.0, 0.0)",0.029067900465992856,False,,,,,False,,,,
26,Open,,,,,,"[-0.026750000193715096, 0.05299999937415123, 0.03999999910593033]","[0.0, -0.0, 1.4572900807517244]","[-0.0982866883277893, 0.061154916882514954, 0.03999999910593033]","[0.0, -0.0, 1.4572948921008348]","[0.026750000193715096, 0.05299999937415123, 0.03999999910593033]","[0.0, 0.0, -1.4603097470714805]","[0.09831098467111588, 0.06093886122107506, 0.03999999910593033]","[0.0, 0.0, -1.4748951413427742]",1.4685610166465697,2.705039556091476,"(0.0, 0.0, 0.0, 0.0, 0.0, 0.0)",-0.43517053908893033,4.819450845044722e-06,-7.202701129551542e-06,"(0.0, 0.0, 0.0, 0.0, 0.0, 0.0)",-0.030992645518402973,-1.471278759731676,-2.632566407155304,"(0.0, 0.0, 0.0, 0.0, 0.0, 0.0)",0.4195301522878829,-0.013127269246907155,0.3499580616191257,"(0.0, 0.0, 0.0, 0.0, 0.0, 0.0)",0.02617336062226555,False,,,,,False,,,,
27,Open,,,,,,"[-0.026750000193715096, 0.05299999937415123, 0.03999999910593033]","[0.0, -0.0, 1.4685611215819594]","[-0.09837405383586884, 0.06034812703728676, 0.03999999910593033]","[0.0, -0.0, 1.468565853091142]","[0.026750000193715096, 0.05299999937415123, 0.03999999910593033]","[0.0, 0.0, -1.4712788457263521]","[0.0983937606215477, 0.06015344336628914, 0.03999999910593033]","[0.0, 0.0, -1.4844061039497418]",1.4787049149819127,2.434535600482329,"(0.0, 0.0, 0.0, 0.0, 0.0, 0.0)",-0.39169363303347604,4.747151892642784e-06,-1.7351748576465223e-05,"(0.0, 0.0, 0.0, 0.0, 0.0, 0.0)",-0.02790732436186781,-1.4811508837585086,-2.3693097664397755,"(0.0, 0.0, 0.0, 0.0, 0.0, 0.0)",0.37761186810531283,-0.011814888241968555,0.3149714411852639,"(0.0, 0.0, 0.0, 0.0, 0.0, 0.0)",0.023565936472848985,False,,,,,False,,,,
28,Open,,,,,,"[-0.026750000193715096, 0.05299999937415123, 0.03999999910593033]","[0.0, -0.0, 1.4787049625213984]","[-0.09844490885734558, 0.059621214866638184, 0.03999999910593033]","[0.0, -0.0, 1.4787095898811649]","[0.026750000193715096, 0.05299999937415123, 0.03999999910593033]","[0.0, 0.0, -1.4811508165812142]","[0.09846089035272598, 0.059445831924676895, 0.03999999910593033]","[0.0, 0.0, -1.492965762433775]",1.4878344234837215,2.191082040434097,"(0.0, 0.0, 0.0, 0.0, 0.0, 0.0)",-0.35255677801820895,4.641283838470101e-06,-2.5408333001444004e-05,"(0.0, 0.0, 0.0, 0.0, 0.0, 0.0)",-0.02512787460267613,-1.4900357953826577,-2.132378789795796,"(0.0, 0.0, 0.0, 0.0, 0.0, 0.0)",0.33987880377374147,-0.010633710863257649,0.2834825708906175,"(0.0, 0.0, 0.0, 0.0, 0.0, 0.0)",0.021217361806457186,False,,,,,False,,,,
29,Close,,,"(0.010000165031897679, 0.16000264050809818, 0.003919197399597577)","(-5.388791991209616e-05, 3.3679978815229247e-06, -9.074720008653711e-11)",,"[-0.026750000193715096, 0.05299999937415123, 0.03999999910593033]","[0.0, -0.0, 1.487834617901085]","[-0.09850236773490906, 0.05896640568971634, 0.03999999910593033]","[0.0, -0.0, 1.4878390921106803]","[0.026750000193715096, 0.05299999937415123, 0.03999999910593033]","[0.0, 0.0, -1.4900358577435544]","[0.09851532429456711, 0.05880843847990036, 0.03999999910593033]","[0.0, 0.0, -1.5006695807985118]",1.4960509811353493,1.9719738363906854,"(0.0, 0.0, 0.0, 0.0, 0.0, 0.0)",-0.3173274216127963,4.509251873886308e-06,-3.168767150011037e-05,"(0.0, 0.0, 0.0, 0.0, 0.0, 0.0)",-0.022624215793833224,-1.498032215844392,-1.9191409108162163,"(0.0, 0.0, 0.0, 0.0, 0.0, 0.0)",0.30591369390909257,-0.00957062017308593,0.2551417656412126,"(0.0, 0.0, 0.0, 0.0, 0.0, 0.0)",0.019102112305110365,False,,,,,False,,,,
30,Close,,,"(0.010000330010418335, 0.1600052801621647, 0.0076635160840755065)","(-0.00010776674212266888, 6.7354271463595154e-06, -3.629275205618536e-10)",,"[-0.026750000193715096, 0.05299999937415123, 0.03999999910593033]","[0.0, -0.0, 1.4960509653323988]","[-0.09854896366596222, 0.058376654982566833, 0.03999999910593033]","[0.0, -0.0, 1.4960555203126162]","[0.026750000193715096, 0.05299999937415123, 0.03999999910593033]","[0.0, 0.0, -1.4980320325532246]","[0.09855947643518448, 0.05823439359664917, 0.03999999910593033]","[0.0, 0.0, -1.5076028800413472]",1.4064458830218143,-21.505223547248388,"(0.0, 0.0, 0.0, 0.0, 0.0, 0.0)",-36.32500847077206,-0.08999559064729075,-21.600023975799512,"(0.0, 0.0, 0.0, 0.0, 0.0, 0.0)",-4.679136399120495,-1.4082289942599528,21.552773180265405,"(0.0, 0.0, 0.0, 0.0, 0.0, 0.0)",36.31473208701179,0.08138609105625041,21.82961069504072,"(0.0, 0.0, 0.0, 0.0, 0.0, 0.0)",4.675963213372079,False,,,,,False,,,,
31,Close,,,"(0.010000494936733278, 0.16000791898094055, 0.011233038807318392)","(-0.00016163646818851668, 1.0102287881965475e-05, -8.164490687548302e-10)",,"[-0.026750000193715096, 0.05299999937415123, 0.03999999910593033]","[0.0, -0.0, 1.4064459844712927]","[-0.0977797880768776, 0.06478003412485123, 0.03999999910593033]","[0.0, -0.0, 1.316450240076391]","[0.026750000193715096, 0.05299999937415123, 0.03999999910593033]","[0.0, 0.0, -1.4082291009672807]","[0.09780067950487137, 0.06465335935354233, 0.03999999910593033]","[0.0, 0.0, -1.3268428349863826]",1.325801294719633,-19.354701192523546,"(0.0, 0.0, 0.0, 0.0, 0.0, 0.0)",3.2936342521930255,-0.17099646652613912,-19.44021021092361,"(0.0, 0.0, 0.0, 0.0, 0.0, 0.0)",0.4145426679866387,-1.3274060948339577,19.39749586223887,"(0.0, 0.0, 0.0, 0.0, 0.0, 0.0)",-3.3024243844052092,0.16324791947241268,19.646838819878944,"(0.0, 0.0, 0.0, 0.0, 0.0, 0.0)",-0.41699994760359754,False,,,,,False,,,,
32,Close,,,"(0.010000659812012168, 0.16001055698314023, 0.0146278458391823)","(-0.0002154970996661642, 1.346858017578936e-05, -1.4512199879406586e-09)",,"[-0.026750000193715096, 0.05299999937415123, 0.03999999910593033]","[0.0, -0.0, 1.3258013857525741]","[-0.09659997373819351, 0.07046370953321457, 0.03999999910593033]","[0.0, -0.0, 1.1548048042561467]","[0.026750000193715096, 0.05299999937415123, 0.03999999910593033]","[0.0, 0.0, -1.3274060658778382]","[0.09662791341543198, 0.07035159319639206, 0.03999999910593033]","[0.0, 0.0, -1.1641581075845935]",1.2532211652476697,-17.41923107327119,"(0.0, 0.0, 0.0, 0.0, 0.0, 0.0)",2.9685258329366073,-0.24389721437960032,-17.496179484830687,"(0.0, 0.0, 0.0, 0.0, 0.0, 0.0)",0.3760018756193849,-1.2546654853505619,17.457746276014984,"(0.0, 0.0, 0.0, 0.0, 0.0, 0.0)",-2.976480273609718,0.2369235243908578,17.682145180426822,"(0.0, 0.0, 0.0, 0.0, 0.0, 0.0)",-0.3782508099482112,False,,,,,False,,,,
33,Close,,,"(0.010000824637423049, 0.16001319418745247, 0.017848014970055004)","(-0.00026934863811186216, 1.6834304115272585e-05, -2.2671484573282825e-09)",,"[-0.026750000193715096, 0.05299999937415123, 0.03999999910593033]","[0.0, -0.0, 1.2532212515508983]","[-0.09514966607093811, 0.07548300176858902, 0.03999999910593033]","[0.0, -0.0, 1.0093239867956962]","[0.026750000193715096, 0.05299999937415123, 0.03999999910593033]","[0.0, 0.0, -1.254665405963893]","[0.09518206864595413, 0.07538418471813202, 0.03999999910593033]","[0.0, 0.0, -1.0177419933055243]",1.1878990487229026,-15.677307965944074,"(0.0, 0.0, 0.0, 0.0, 0.0, 0.0)",2.675103284419244,-0.30950785045582774,-15.746552658294572,"(0.0, 0.0, 0.0, 0.0, 0.0, 0.0)",0.34074508229325023,-1.1891989368155058,15.711971648413485,"(0.0, 0.0, 0.0, 0.0, 0.0, 0.0)",-2.6822973218910153,0.30323153162132754,15.913921735312746,"(0.0, 0.0, 0.0, 0.0, 0.0, 0.0)",-0.34279935345822066,False,,,,,False,,,,
34,Close,,,"(0.010000989414132393, 0.1600158306125408, 0.020893621515273818)","(-0.00032319108508158773, 2.0199459787849396e-05, -3.2641426920478403e-09)",,"[-0.026750000193715096, 0.05299999937415123, 0.03999999910593033]","[0.0, -0.0, 1.1878990574339587]","[-0.09353619813919067, 0.07989988476037979, 0.03999999910593033]","[0.0, -0.0, 0.8783912846834516]","[0.026750000193715096, 0.05299999937415123, 0.03999999910593033]","[0.0, 0.0, -1.1891990098250689]","[0.09357111155986786, 0.07981304824352264, 0.03999999910593033]","[0.0, 0.0, -0.8859674697633095]",1.1291091438506125,-14.109577169349663,"(0.0, 0.0, 0.0, 0.0, 0.0, 0.0)",2.4103712722760626,-0.36855738916456426,-14.17188929009676,"(0.0, 0.0, 0.0, 0.0, 0.0, 0.0)",0.3085687115248564,-1.1302790431339553,14.140774483572143,"(0.0, 0.0, 0.0, 0.0, 0.0, 0.0)",-2.4168742890236286,0.36290870417903687,14.322521413850238,"(0.0, 0.0, 0.0, 0.0, 0.0, 0.0)",-0.31044204201279674,False,,,,,False,,,,
35,Close,,,"(0.010001154143305145, 0.16001846627704427, 0.023764738319401603)","(-0.00037702444213104407, 2.3564047280946926e-05, -4.4421109431381166e-09)",,"[-0.026750000193715096, 0.05299999937415123, 0.03999999910593033]","[0.0, -0.0, 1.1291090274464952]","[-0.09184028208255768, 0.08377750217914581, 0.03999999910593033]","[0.0, -0.0, 0.7605517150898052]","[0.026750000193715096, 0.05299999937415123, 0.03999999910593033]","[0.0, 0.0, -1.130279133319625]","[0.09187624603509903, 0.08370133489370346, 0.03999999910593033]","[0.0, 0.0, -0.7673703325611945]",1.0761982294655512,-12.698619452414698,"(0.0, 0.0, 0.0, 0.0, 0.0, 0.0)",2.1715845710489208,-0.42170194324014043,-12.754692978138287,"(0.0, 0.0, 0.0, 0.0, 0.0, 0.0)",0.27924932151422227,-1.07725113882056,12.72669703521493,"(0.0, 0.0, 0.0, 0.0, 0.0, 0.0)",-2.177460276301377,0.41661812854294633,12.890261847338277,"(0.0, 0.0, 0.0, 0.0, 0.0, 0.0)",-0.2809551529003472,False,,,,,False,,,,
36,Close,,,"(0.010001318826104761, 0.16002110119957821, 0.02646143576036139)","(-0.0004308487108156613, 2.692806668198511e-05, -5.800961497533997e-09)",,"[-0.026750000193715096, 0.05299999937415123, 0.03999999910593033]","[0.0, -0.0, 1.076198055145404]","[-0.09012148529291153, 0.08717681467533112, 0.03999999910593033]","[0.0, -0.0, 0.6544962762796218]","[0.026750000193715096, 0.05299999937415123, 0.03999999910593033]","[0.0, 0.0, -1.0772510781061955]","[0.09015743434429169, 0.08711007237434387, 0.03999999910593033]","[0.0, 0.0, -0.6606329452337051]",1.028578406518996,-11.428757507173229,"(0.0, 0.0, 0.0, 0.0, 0.0, 0.0)",1.9562489498726314,-0.46953201391559385,-11.479216962108818,"(0.0, 0.0, 0.0, 0.0, 0.0, 0.0)",0.2525697399559188,-1.0295260249385039,11.454027331693439,"(0.0, 0.0, 0.0, 0.0, 0.0, 0.0)",-1.961555706583625,0.46495658231577774,11.601228905479532,"(0.0, 0.0, 0.0, 0.0, 0.0, 0.0)",-0.25412105363877113,False,,,,,False,,,,
37,Close,,,"(0.010001483463693249, 0.1600237353987347, 0.0289837817534302)","(-0.0004846638926905951, 3.0291518078376737e-05, -7.3406026780539124e-09)",,"[-0.026750000193715096, 0.05299999937415123, 0.03999999910593033]","[0.0, -0.0, 1.028578444789276]","[-0.08842276781797409, 0.09015467017889023, 0.03999999910593033]","[0.0, -0.0, 0.5590464126725148]","[0.026750000193715096, 0.05299999937415123, 0.03999999910593033]","[0.0, 0.0, -1.029526007298545]","[0.08845794945955276, 0.09009620547294617, 0.03999999910593033]","[0.0, 0.0, -0.564569399435659]",0.9857205658670964,-10.285881756455906,"(0.0, 0.0, 0.0, 0.0, 0.0, 0.0)",1.7621005438122825,-0.5125790520819234,-10.331289159919107,"(0.0, 0.0, 0.0, 0.0, 0.0, 0.0)",0.22832149176550065,-0.9865734224446535,10.308624598524094,"(0.0, 0.0, 0.0, 0.0, 0.0, 0.0)",-1.766891708603882,0.508461165120635,10.441099873165749,"(0.0, 0.0, 0.0, 0.0, 0.0, 0.0)",-0.22973068702752517,False,,,,,False,,,,
38,Close,,,"(0.010001648057231211, 0.16002636889308344, 0.03133184175509247)","(-0.0005384699893107284, 3.3654401557527444e-05, -9.06094284338731e-09)",,"[-0.026750000193715096, 0.05299999937415123, 0.03999999910593033]","[0.0, -0.0, 0.9857205423734198]","[-0.08677425980567932, 0.09276290237903595, 0.03999999910593033]","[0.0, -0.0, 0.47314147483112123]","[0.026750000193715096, 0.05299999937415123, 0.03999999910593033]","[0.0, 0.0, -0.9865734261287252]","[0.08680814504623413, 0.09271169453859329, 0.03999999910593033]","[0.0, 0.0, -0.4781122693565934]",0.9471485092803869,-9.257293580810316,"(0.0, 0.0, 0.0, 0.0, 0.0, 0.0)",1.587086438141582,-0.5513213633331018,-9.29815470028281,"(0.0, 0.0, 0.0, 0.0, 0.0, 0.0)",0.206306403170868,-0.9479160802001881,9.277762138671687,"(0.0, 0.0, 0.0, 0.0, 0.0, 0.0)",-1.5914107042435905,0.5476152664096928,9.396984309373877,"(0.0, 0.0, 0.0, 0.0, 0.0, 0.0)",-0.2075852193448244,False,,,,,False,,,,
39,Close,,,"(0.01000181260787789, 0.16002900170117218, 0.03350567876675359)","(-0.00059226700223067, 3.7016717206835695e-05, -1.0961890388082131e-08)",,"[-0.026750000193715096, 0.05299999937415123, 0.03999999910593033]","[0.0, -0.0, 0.9471486716739237]","[-0.08519625663757324, 0.09504801034927368, 0.03999999910593033]","[0.0, -0.0, 0.39582717163487297]","[0.026750000193715096, 0.05299999937415123, 0.03999999910593033]","[0.0, 0.0, -0.9479160840165974]","[0.08522851020097733, 0.09500313550233841, 0.03999999910593033]","[0.0, 0.0, -0.4003008647547732]",0.9124336583523481,-8.331564222729286,"(0.0, 0.0, 0.0, 0.0, 0.0, 0.0)",1.4293465062267445,-0.5861894225076075,-8.368334201881392,"(0.0, 0.0, 0.0, 0.0, 0.0, 0.0)",0.18633757536892917,-0.9131244721801693,8.349985924804516,"(0.0, 0.0, 0.0, 0.0, 0.0, 0.0)",-1.433248242084051,0.5828539364930729,8.45728082001123,"(0.0, 0.0, 0.0, 0.0, 0.0, 0.0)",-0.18749704763631705,False,,,,,False,,,,
40,Close,,,"(0.010001977116791199, 0.1600316338415276, 0.035505353338314005)","(-0.0006460549330047555, 4.037846511369274e-05, -1.3043353742532214e-08)",,"[-0.026750000193715096, 0.05299999937415123, 0.03999999910593033]","[0.0, -0.0, 0.9124336635104583]","[-0.08370164036750793, 0.0970512256026268, 0.03999999910593033]","[0.0, -0.0, 0.3262442150321584]","[0.026750000193715096, 0.05299999937415123, 0.03999999910593033]","[0.0, 0.0, -0.9131245532476111]","[0.08373206108808517, 0.09701187163591385, 0.03999999910593033]","[0.0, 0.0, -0.3302705841133475]",0.8811902925171133,-7.498407800456356,"(0.0, 0.0, 0.0, 0.0, 0.0, 0.0)",1.2871965063691413,-0.6175706567763247,-7.531496224492115,"(0.0, 0.0, 0.0, 0.0, 0.0, 0.0)",0.16823988009592084,-0.8818120249621524,7.514987332324067,"(0.0, 0.0, 0.0, 0.0, 0.0, 0.0)",-1.2907160846573733,0.6145687204653795,7.61154815335357,"(0.0, 0.0, 0.0, 0.0, 0.0, 0.0)",-0.16929032064296096,False,,,,,False,,,,
41,Close,,,"(0.010002141585127773, 0.16003426533265583, 0.03733092357160428)","(-0.0006998337831870475, 4.3739645365482716e-05, -1.5305241372964883e-08)",,"[-0.026750000193715096, 0.05299999937415123, 0.03999999910593033]","[0.0, -0.0, 0.8811903688816151]","[-0.08229776471853256, 0.09880879521369934, 0.03999999910593033]","[0.0, -0.0, 0.2636196251065186]","[0.026750000193715096, 0.05299999937415123, 0.03999999910593033]","[0.0, 0.0, -0.8818121535754343]","[0.08232623338699341, 0.098774254322052, 0.03999999910593033]","[0.0, 0.0, -0.26724331826119446]",0.853071263265402,-6.7485670204107215,"(0.0, 0.0, 0.0, 0.0, 0.0, 0.0)",1.1591124175888132,-0.6458137504217961,-6.77834247491313,"(0.0, 0.0, 0.0, 0.0, 0.0, 0.0)",0.1518500972569631,-0.8536308224659371,6.763488599091658,"(0.0, 0.0, 0.0, 0.0, 0.0, 0.0)",-1.1622865309865396,0.643112008739745,6.850389185847702,"(0.0, 0.0, 0.0, 0.0, 0.0, 0.0)",-0.15280109527428076,False,,,,,False,,,,
42,Close,,,"(0.010002306014043007, 0.16003689619304312, 0.038982445123681576)","(-0.0007536035543313348, 4.7100258049582536e-05, -1.7747461781428295e-08)",,"[-0.026750000193715096, 0.05299999937415123, 0.03999999910593033]","[0.0, -0.0, 0.8530713239495782]","[-0.08098787814378738, 0.10035242885351181, 0.03999999910593033]","[0.0, -0.0, 0.2072574956851119]","[0.026750000193715096, 0.05299999937415123, 0.03999999910593033]","[0.0, 0.0, -0.8536307856313979]","[0.08101436495780945, 0.10032207518815994, 0.03999999910593033]","[0.0, 0.0, -0.21051882644475053]",0.8277641369388617,-6.073710318369648,"(0.0, 0.0, 0.0, 0.0, 0.0, 0.0)",1.043715976216214,-0.6712325191394197,-6.100504492229669,"(0.0, 0.0, 0.0, 0.0, 0.0, 0.0)",0.1370167890019201,-0.8282677402193435,6.0871397391824935,"(0.0, 0.0, 0.0, 0.0, 0.0, 0.0)",-1.0465779375227178,0.6688009525283538,6.165346509266115,"(0.0, 0.0, 0.0, 0.0, 0.0, 0.0)",-0.1378772244212715,False,,,,,False,,,,
43,Close,,,"(0.010002470404691093, 0.16003952644115657, 0.04045997120998789)","(-0.0008073642479911328, 5.0460303253361964e-05, -2.0369923505779015e-08)",,"[-0.026750000193715096, 0.05299999937415123, 0.03999999910593033]","[0.0, -0.0, 0.8277641182932235]","[-0.07977228611707687, 0.10170972347259521, 0.03999999910593033]","[0.0, -0.0, 0.1565316389415725]","[0.026750000193715096, 0.05299999937415123, 0.03999999910593033]","[0.0, 0.0, -0.8282677342123946]","[0.07979680597782135, 0.10168302059173584, 0.03999999910593033]","[0.0, 0.0, -0.1594667900835625]",0.8049877232449756,-5.4663392865326825,"(0.0, 0.0, 0.0, 0.0, 0.0, 0.0)",0.9397613626777375,-0.6941093969081942,-5.49045066450586,"(0.0, 0.0, 0.0, 0.0, 0.0, 0.0)",0.12359998406321729,-0.8054409661974091,5.478425765264244,"(0.0, 0.0, 0.0, 0.0, 0.0, 0.0)",-0.9423413878167864,0.6919209877745929,5.54880845909737,"(0.0, 0.0, 0.0, 0.0, 0.0, 0.0)",-0.12437805104754245,False,,,,,False,,,,
44,Close,,,"(0.010002634758225062, 0.1600421560954447, 0.041763552607370504)","(-0.000861115865719684, 5.381978106418352e-05, -2.3172535119669436e-08)",,"[-0.026750000193715096, 0.05299999937415123, 0.03999999910593033]","[0.0, -0.0, 0.8049877164750058]","[-0.07864919304847717, 0.10290464758872986, 0.03999999910593033]","[0.0, -0.0, 0.11087832859978779]","[0.026750000193715096, 0.05299999937415123, 0.03999999910593033]","[0.0, 0.0, -0.805440964305088]","[0.07867180556058884, 0.10288111865520477, 0.03999999910593033]","[0.0, 0.0, -0.11351997099607207]",0.784488950920478,-4.919705357879415,"(0.0, 0.0, 0.0, 0.0, 0.0, 0.0)",0.8461229797239068,-0.7146985741739192,-4.941402543774016,"(0.0, 0.0, 0.0, 0.0, 0.0, 0.0)",0.11147072977230046,-0.7848968695776682,4.93058318873782,"(0.0, 0.0, 0.0, 0.0, 0.0, 0.0)",-0.8484484528940599,0.7127290066915236,4.993924540063379,"(0.0, 0.0, 0.0, 0.0, 0.0, 0.0)",-0.1121739668696123,False,,,,,False,,,,
45,Close,,,"(0.010002799075796832, 0.16004478517433812, 0.04289323765696492)","(-0.0009148584090699577, 5.7178691569402595e-05, -2.615520523253533e-08)",,"[-0.026750000193715096, 0.05299999937415123, 0.03999999910593033]","[0.0, -0.0, 0.7844889896573499]","[-0.07761538028717041, 0.10395795851945877, 0.03999999910593033]","[0.0, -0.0, 0.06979037514545033]","[0.026750000193715096, 0.05299999937415123, 0.03999999910593033]","[0.0, 0.0, -0.7848969068252226]","[0.07763615995645523, 0.10393720120191574, 0.03999999910593033]","[0.0, 0.0, -0.07216786709232846]",0.7660400558284302,-4.427734822091471,"(0.0, 0.0, 0.0, 0.0, 0.0, 0.0)",0.7617842585328375,-0.7332288222135146,-4.44725952950288,"(0.0, 0.0, 0.0, 0.0, 0.0, 0.0)",0.10051055612556806,-0.7664071826199014,4.437524869864038,"(0.0, 0.0, 0.0, 0.0, 0.0, 0.0)",-0.7638799793048979,0.7314562121459494,4.494529309062177,"(0.0, 0.0, 0.0, 0.0, 0.0, 0.0)",-0.10114588070786824,False,,,,,False,,,,
46,Close,,,"(0.010002963358557236, 0.16004741369625017, 0.04384907226694074)","(-0.0009685918795946493, 6.053703485636736e-05, -2.9317842489583264e-08)",,"[-0.026750000193715096, 0.05299999937415123, 0.03999999910593033]","[0.0, -0.0, 0.7660400058439011]","[-0.07666666060686111, 0.10488764196634293, 0.03999999910593033]","[0.0, -0.0, 0.0328112365488731]","[0.026750000193715096, 0.05299999937415123, 0.03999999910593033]","[0.0, 0.0, -0.7664072421942376]","[0.07668570429086685, 0.1048693135380745, 0.03999999910593033]","[0.0, 0.0, -0.03495097036229706]",0.7494360502455871,-3.984961339882325,"(0.0, 0.0, 0.0, 0.0, 0.0, 0.0)",0.6858274268188955,-0.7499060350622873,-4.002531083705426,"(0.0, 0.0, 0.0, 0.0, 0.0, 0.0)",0.09061088591719418,-0.7497664643579113,3.9937723828776335,"(0.0, 0.0, 0.0, 0.0, 0.0, 0.0)",-0.6877158393779155,0.7483106866034595,4.045073869802414,"(0.0, 0.0, 0.0, 0.0, 0.0, 0.0)",-0.09118463108881669,False,,,,,False,,,,
47,Close,,,"(0.010003127607656072, 0.16005004167957756, 0.04463109991511072)","(-0.0010223162788461832, 6.389481101241881e-05, -3.266035557177819e-08)",,"[-0.026750000193715096, 0.05299999937415123, 0.03999999910593033]","[0.0, -0.0, 0.7494360616149593]","[-0.07579827308654785, 0.1057092696428299, 0.03999999910593033]","[0.0, 0.0, -0.00046998485639781964]","[0.026750000193715096, 0.05299999937415123, 0.03999999910593033]","[0.0, 0.0, -0.7497665229086657]","[0.07581568509340286, 0.10569305717945099, 0.03999999910593033]","[0.0, 0.0, -0.0014557777936095985]",0.7344924452210284,-3.5864652058940925,"(0.0, 0.0, 0.0, 0.0, 0.0, 0.0)",0.6173964503690262,-0.7649166300024903,-3.602542785648727,"(0.0, 0.0, 0.0, 0.0, 0.0, 0.0)",0.08164469448201127,-0.7347898179221202,3.594395144589871,"(0.0, 0.0, 0.0, 0.0, 0.0, 0.0)",-0.61909767957405,0.7634808239898891,3.6408329727431203,"(0.0, 0.0, 0.0, 0.0, 0.0, 0.0)",-0.08216247127692902,False,,,,,False,,,,
48,Close,,,"(0.010003291824242136, 0.16005266914270105, 0.04523936165140331)","(-0.0010760316083767074, 6.725202012489063e-05, -3.618265319583079e-08)",,"[-0.026750000193715096, 0.05299999937415123, 0.03999999910593033]","[0.0, -0.0, 0.7344924171356654]","[-0.07500515878200531, 0.10643631219863892, 0.03999999910593033]","[0.0, 0.0, -0.03042418292779103]","[0.026750000193715096, 0.05299999937415123, 0.03999999910593033]","[0.0, 0.0, -0.7347898072320369]","[0.07502105087041855, 0.10642196238040924, 0.03999999910593033]","[0.0, -0.0, 0.028691003185096618]",0.7210432006989256,-3.227818685304683,"(0.0, 0.0, 0.0, 0.0, 0.0, 0.0)",0.5558325671900768,-0.77842604750784,-3.2422602012839143,"(0.0, 0.0, 0.0, 0.0, 0.0, 0.0)",0.07360992294062317,-0.7213108361299082,3.234955630130884,"(0.0, 0.0, 0.0, 0.0, 0.0, 0.0)",-0.5573653507703412,0.7771338289584356,3.2767211924511668,"(0.0, 0.0, 0.0, 0.0, 0.0, 0.0)",-0.07407739542501454,False,,,,,False,,,,
49,Close,,,"(0.010003456009463264, 0.16005529610398603, 0.04567389610019914)","(-0.0011297378697381003, 7.060866228110946e-05, -3.988464411418517e-08)",,"[-0.026750000193715096, 0.05299999937415123, 0.03999999910593033]","[0.0, -0.0, 0.7210432248946826]","[-0.07428213953971863, 0.10708045959472656, 0.03999999910593033]","[0.0, 0.0, -0.05738284539856889]","[0.026750000193715096, 0.05299999937415123, 0.03999999910593033]","[0.0, 0.0, -0.7213108742429458]","[0.07429660856723785, 0.10706773400306702, 0.03999999910593033]","[0.0, -0.0, 0.0558229905847104]",0.708938880629033,-2.905036816774215,"(0.0, 0.0, 0.0, 0.0, 0.0, 0.0)",0.5003668258645501,-0.7905844163893876,-2.9180085315714246,"(0.0, 0.0, 0.0, 0.0, 0.0, 0.0)",0.06632913423961855,-0.7091797525169173,2.911460067117798,"(0.0, 0.0, 0.0, 0.0, 0.0, 0.0)",-0.5017475327577147,0.7894214258858812,2.9490232625869344,"(0.0, 0.0, 0.0, 0.0, 0.0, 0.0)",-0.06675089596581112,False,,,,,False,,,,
50,Close,,,"(0.010001644182078712, 0.16005595153396976, 0.045940321410535084)","(-0.0011271805217326655, 1.767785898679914e-05, -1.508889111938428e-08)",,"[-0.026750000193715096, 0.05299999937415123, 0.03999999910593033]","[0.0, -0.0, 0.7089389671526269]","[-0.07362406700849533, 0.10765182226896286, 0.03999999910593033]","[0.0, 0.0, -0.08164554069303018]","[0.026750000193715096, 0.05299999937415123, 0.03999999910593033]","[0.0, 0.0, -0.7091797033714331]","[0.0736372321844101, 0.10764053463935852, 0.03999999910593033]","[0.0, -0.0, 0.08024167743029369]",0.6980449925661297,-2.6145331350967917,"(0.0, 0.0, 0.0, 0.0, 0.0, 0.0)",0.4504252929298086,-0.8015268519725993,-2.6261845399708146,"(0.0, 0.0, 0.0, 0.0, 0.0, 0.0)",0.059761147909024356,-0.6982617772652256,2.6203140604060167,"(0.0, 0.0, 0.0, 0.0, 0.0, 0.0)",-0.4516689022418484,0.8004801661036254,2.6540976522586175,"(0.0, 0.0, 0.0, 0.0, 0.0, 0.0)",-0.06014157277442886,False,,,,,False,,,,
51,Close,,,"(0.009998458164918766, 0.16005543218265145, 0.046184544665354044)","(-0.001116587313714928, -4.731063982249702e-05, 3.3486629919706074e-09)",,"[-0.026750000193715096, 0.05299999937415123, 0.03999999910593033]","[0.0, -0.0, 0.6980450466292163]","[-0.07302592694759369, 0.10815921425819397, 0.03999999910593033]","[0.0, 0.0, -0.1034818592301779]","[0.026750000193715096, 0.05299999937415123, 0.03999999910593033]","[0.0, 0.0, -0.6982617371246688]","[0.07303788512945175, 0.10814917832612991, 0.03999999910593033]","[0.0, -0.0, 0.10221840210156648]",0.6882404933095168,-2.3530798215871136,"(0.0, 0.0, 0.0, 0.0, 0.0, 0.0)",0.40545980991383274,-0.8113749570468809,-2.3635452178275753,"(0.0, 0.0, 0.0, 0.0, 0.0, 0.0)",0.0538375991228723,-0.688435599538703,2.358282654365416,"(0.0, 0.0, 0.0, 0.0, 0.0, 0.0)",-0.4065798463491374,0.810432944800545,2.3886668872606847,"(0.0, 0.0, 0.0, 0.0, 0.0, 0.0)",-0.0541806611811555,False,,,,,False,,,,
52,Close,,,"(0.0099979269032565, 0.16005188637635104, 0.04640949954916324)","(-0.0010442772263960227, -5.814874739306873e-05, 7.787963860925158e-09)",,"[-0.026750000193715096, 0.05299999937415123, 0.03999999910593033]","[0.0, -0.0, 0.688240548987758]","[-0.07248289883136749, 0.10861026495695114, 0.03999999910593033]","[0.0, 0.0, -0.12313446206189271]","[0.026750000193715096, 0.05299999937415123, 0.03999999910593033]","[0.0, 0.0, -0.6884356086136862]","[0.07249374687671661, 0.10860133916139603, 0.03999999910593033]","[0.0, -0.0, 0.1219973374555316]",0.679416393078237,-2.117784055507141,"(0.0, 0.0, 0.0, 0.0, 0.0, 0.0)",0.3649762140031281,-0.8202374613421928,-2.12700103087486,"(0.0, 0.0, 0.0, 0.0, 0.0, 0.0)",0.04851286211734207,-0.6795919883598663,2.1224666829208143,"(0.0, 0.0, 0.0, 0.0, 0.0, 0.0)",-0.36598488497268467,0.8193896503204905,2.149609324786922,"(0.0, 0.0, 0.0, 0.0, 0.0, 0.0)",-0.04882227338805697,False,,,,,False,,,,
53,Close,,,"(0.009997966950406065, 0.16004795201914346, 0.046616050094935475)","(-0.0009640430328522325, -5.7324486097668704e-05, 4.2980615420070005e-09)",,"[-0.026750000193715096, 0.05299999937415123, 0.03999999910593033]","[0.0, -0.0, 0.6794163791618646]","[-0.07199041545391083, 0.10901165008544922, 0.03999999910593033]","[0.0, 0.0, -0.1408210743259801]","[0.026750000193715096, 0.05299999937415123, 0.03999999910593033]","[0.0, 0.0, -0.6795920181483843]","[0.07200025022029877, 0.1090037003159523, 0.03999999910593033]","[0.0, -0.0, 0.13979766167419433]",0.6714747537704133,-1.9059934338776885,"(0.0, 0.0, 0.0, 0.0, 0.0, 0.0)",0.3285291326313333,-0.8282143561304102,-1.914454749172182,"(0.0, 0.0, 0.0, 0.0, 0.0, 0.0)",0.043663125146434535,-0.6716327895238797,1.9102077206367922,"(0.0, 0.0, 0.0, 0.0, 0.0, 0.0)",-0.3294374536237565,0.8274513303019508,1.934803195550486,"(0.0, 0.0, 0.0, 0.0, 0.0, 0.0)",-0.043941831288343336,False,,,,,False,,,,
54,Close,,,"(0.009998107600018924, 0.16004411888380865, 0.0468059782297436)","(-0.0008858309445970004, -5.447527859797503e-05, 4.128601528647624e-08)",,"[-0.026750000193715096, 0.05299999937415123, 0.03999999910593033]","[0.0, -0.0, 0.6714747449539094]","[-0.07154417037963867, 0.10936915874481201, 0.03999999910593033]","[0.0, 0.0, -0.15673960659097733]","[0.026750000193715096, 0.05299999937415123, 0.03999999910593033]","[0.0, 0.0, -0.6716327690441329]","[0.07155308127403259, 0.10936208069324493, 0.03999999910593033]","[0.0, -0.0, 0.15581855230220754]",0.664327278393372,-1.7153940904899205,"(0.0, 0.0, 0.0, 0.0, 0.0, 0.0)",0.2957170811345372,-0.8353934979980445,-1.7229940482322428,"(0.0, 0.0, 0.0, 0.0, 0.0, 0.0)",0.03934112702889199,-0.6644695105714917,1.7191869485731137,"(0.0, 0.0, 0.0, 0.0, 0.0, 0.0)",-0.2965349881453131,0.8347067784412298,1.7413075534269409,"(0.0, 0.0, 0.0, 0.0, 0.0, 0.0)",-0.039592428071821256,False,,,,,False,,,,
55,Close,,,"(0.009998248644105466, 0.16004048002584464, 0.0469807018618576)","(-0.0008115684428503489, -5.1596750749095254e-05, 7.881188886077776e-08)",,"[-0.026750000193715096, 0.05299999937415123, 0.03999999910593033]","[0.0, -0.0, 0.6643273336690038]","[-0.07114013284444809, 0.10968788713216782, 0.03999999910593033]","[0.0, 0.0, -0.17106622141763456]","[0.026750000193715096, 0.05299999937415123, 0.03999999910593033]","[0.0, 0.0, -0.6644694779113771]","[0.07114819437265396, 0.10968156903982162, 0.03999999910593033]","[0.0, -0.0, 0.17023725548976373]",0.6578945505540348,-1.543854681440929,"(0.0, 0.0, 0.0, 0.0, 0.0, 0.0)",0.2661784897251144,-0.8418546682622772,-1.5506808634158242,"(0.0, 0.0, 0.0, 0.0, 0.0, 0.0)",0.03542959308904228,-0.6580225595143425,1.547268253715802,"(0.0, 0.0, 0.0, 0.0, 0.0, 0.0)",-0.26691494494593054,0.8412366239853526,1.567162930589489,"(0.0, 0.0, 0.0, 0.0, 0.0, 0.0)",-0.035656056287006674,False,,,,,False,,,,
56,Close,,,"(0.009998390752654573, 0.16003702894197389, 0.04714144752999396)","(-0.0007411380797103218, -4.869650481896534e-05, 1.1687517768299383e-07)",,"[-0.026750000193715096, 0.05299999937415123, 0.03999999910593033]","[0.0, -0.0, 0.6578945475257985]","[-0.07077455520629883, 0.1099722608923912, 0.03999999910593033]","[0.0, 0.0, -0.18396012465064338]","[0.026750000193715096, 0.05299999937415123, 0.03999999910593033]","[0.0, 0.0, -0.6580225896942233]","[0.07078184932470322, 0.10996662080287933, 0.03999999910593033]","[0.0, -0.0, 0.18321406389742323]",0.6521050954986313,-1.3894692132968354,"(0.0, 0.0, 0.0, 0.0, 0.0, 0.0)",0.23958744527110798,-0.8476696697618468,-1.395600359896693,"(0.0, 0.0, 0.0, 0.0, 0.0, 0.0)",0.031904902566438624,-0.6522203035629083,1.392541428344221,"(0.0, 0.0, 0.0, 0.0, 0.0, 0.0)",-0.24025052935853647,0.8471134329078756,1.410434141405507,"(0.0, 0.0, 0.0, 0.0, 0.0, 0.0)",-0.032108956045352514,False,,,,,False,,,,
57,Close,,,"(0.009998534235924597, 0.16003375955333046, 0.04728933347451534)","(-0.0006744157946989166, -4.576820860538318e-05, 1.554405829918684e-07)",,"[-0.026750000193715096, 0.05299999937415123, 0.03999999910593033]","[0.0, -0.0, 0.6521051450040646]","[-0.07044398784637451, 0.11022617667913437, 0.03999999910593033]","[0.0, 0.0, -0.19556454293122102]","[0.026750000193715096, 0.05299999937415123, 0.03999999910593033]","[0.0, 0.0, -0.6522203497730787]","[0.07045057415962219, 0.11022114753723145, 0.03999999910593033]","[0.0, -0.0, 0.19489313608724637]",0.6468945859487681,-1.250522291967151,"(0.0, 0.0, 0.0, 0.0, 0.0, 0.0)",0.2156503992603495,-0.8529031244958994,-1.2560291361726517,"(0.0, 0.0, 0.0, 0.0, 0.0, 0.0)",0.02872919688306315,-0.6469982732066174,1.253287285509799,"(0.0, 0.0, 0.0, 0.0, 0.0, 0.0)",-0.2162473971085442,0.8524025140258721,1.2693794683191757,"(0.0, 0.0, 0.0, 0.0, 0.0, 0.0)",-0.02891303657535659,False,,,,,False,,,,
58,Close,,,"(0.009998679410322496, 0.16003066597344334, 0.0474253884764576)","(-0.0006112814540129935, -4.2805404436077314e-05, 1.9447426774393396e-07)",,"[-0.026750000193715096, 0.05299999937415123, 0.03999999910593033]","[0.0, -0.0, 0.6468945636476681]","[-0.07014521211385727, 0.11045306921005249, 0.03999999910593033]","[0.0, 0.0, -0.20600854729134555]","[0.026750000193715096, 0.05299999937415123, 0.03999999910593033]","[0.0, 0.0, -0.6469982503054421]","[0.07015117257833481, 0.11044856905937195, 0.03999999910593033]","[0.0, -0.0, 0.20540423443750838]",0.6422051273538913,-1.125470062770436,"(0.0, 0.0, 0.0, 0.0, 0.0, 0.0)",0.1941029233168818,-0.8576131917611358,-1.1304161436567226,"(0.0, 0.0, 0.0, 0.0, 0.0, 0.0)",0.025868240883426936,-0.6422984458859556,1.1279585569588184,"(0.0, 0.0, 0.0, 0.0, 0.0, 0.0)",-0.19464040126091972,0.8571626447690798,1.1424313783698345,"(0.0, 0.0, 0.0, 0.0, 0.0, 0.0)",-0.026033851694478666,False,,,,,False,,,,
59,Move,,,"(0.009998826598722164, 0.16002774252192944, 0.04755055901421763)","(-0.0005516191299448554, -3.980150267197137e-05, 2.339437659612592e-07)","[0.0, 0.0, 0.0]","[-0.026750000193715096, 0.05299999937415123, 0.03999999910593033]","[0.0, -0.0, 0.6422051137296667]","[-0.0698753148317337, 0.11065594106912613, 0.03999999910593033]","[0.0, 0.0, -0.2154080556264429]","[0.026750000193715096, 0.05299999937415123, 0.03999999910593033]","[0.0, 0.0, -0.6422983956794274]","[0.06988069415092468, 0.1106519103050232, 0.03999999910593033]","[0.0, -0.0, 0.21486417441436167]",0.6379846146185022,-1.0129230564933929,"(0.0, 0.0, 0.0, 0.0, 0.0, 0.0)",0.17470684718642912,-0.8618522144704561,-1.0173654502368856,"(0.0, 0.0, 0.0, 0.0, 0.0, 0.0)",0.023291096758263134,-0.6380686012973601,1.0151627012629356,"(0.0, 0.0, 0.0, 0.0, 0.0, 0.0)",-0.1751907229705418,0.8614467243673204,1.02817910357775,"(0.0, 0.0, 0.0, 0.0, 0.0, 0.0)",-0.023440272040621463,False,,,,,True,"(0.04276013174954747, 0.17974174897294792, 0.02399995643463635)","(-0.9999999990838299, -1.9447426661030803e-07, -4.2805404423670755e-05)",0.0013234533115717422,0.0
60,Move,,,"(0.008699259039732246, 0.1597652061907072, 0.04782485533738502)","(0.0040480273580015685, 0.009650479713711625, 0.017575803187450934)","[-0.0012995675589899183, -0.00026253633122225173, 0.00027429632316738894]","[-0.026750000193715096, 0.05299999937415123, 0.03999999910593033]","[0.0, -0.0, 0.6379846501970732]","[-0.06963159143924713, 0.1108374372124672, 0.03999999910593033]","[0.0, 0.0, -0.22386762157269943]","[0.026750000193715096, 0.05299999937415123, 0.03999999910593033]","[0.0, 0.0, -0.638068602671057]","[0.06963644921779633, 0.11083383113145828, 0.03999999910593033]","[0.0, -0.0, 0.22337816170537766]",0.6141590059460926,-5.718146081378296,"(0.0, 0.0, 0.0, 0.0, 0.0, 0.0)",-6.715100343954984,-0.8614283121995241,0.10173654502368734,"(0.0, 0.0, 0.0, 0.0, 0.0, 0.0)",-0.3723637437215536,-0.6186765363685498,4.654095582914465,"(0.0, 0.0, 0.0, 0.0, 0.0, 0.0)",16.91452213543579,0.8602423878670417,-0.28904076006690205,"(0.0, 0.0, 0.0, 0.0, 0.0, 0.0)",7.026754130549747,False,,,,,True,"(0.041928616181162004, 0.17969877893574898, 0.023999959438538117)","(-0.9999999992078928, -2.3394376620903917e-07, -3.980150265941498e-05)",0.0004918567139684023,94.17969713248019
61,Move,,,"(0.006953428279101256, 0.15936555806379668, 0.04799883027777207)","(0.0036027003309908674, 0.011726089522938334, 0.045571805054608026)","[-0.0030453983196209082, -0.000662184458132764, 0.0004482712635544353]","[-0.026750000193715096, 0.05299999937415123, 0.03999999910593033]","[0.0, -0.0, 0.6141590305095613]","[-0.06824154406785965, 0.11184260249137878, 0.03999999910593033]","[0.0, 0.0, -0.24726930604170874]","[0.026750000193715096, 0.05299999937415123, 0.03999999910593033]","[0.0, 0.0, -0.6186765449450942]","[0.06850694119930267, 0.11165456473827362, 0.03999999910593033]","[0.0, -0.0, 0.24156588090171732]",0.5923752537221402,-5.228100533748595,"(0.0, 0.0, 0.0, 0.0, 0.0, 0.0)",0.6968351830029371,-0.8614707024266173,-0.010173654502368734,"(0.0, 0.0, 0.0, 0.0, 0.0, 0.0)",0.03860943376531379,-0.6008618977467228,4.275513269238477,"(0.0, 0.0, 0.0, 0.0, 0.0, 0.0)",3.1840553339598543,0.8603207379647874,0.018804023458970476,"(0.0, 0.0, 0.0, 0.0, 0.0, 0.0)",2.2071937117843152,False,,,,,True,"(0.03955126028332891, 0.18000420521160232, 0.023999959438538117)","(-0.9999999992078928, -2.3394376620903917e-07, -3.980150265941498e-05)",-4.69285261207243e-06,0.0
62,Move,,,"(0.005232479171843643, 0.15895611509417099, 0.04805192961782931)","(0.0015613319654504138, 0.011710638263295036, 0.07400765980182708)","[-0.004766347426878521, -0.0010716274277584592, 0.0005013706036116755]","[-0.026750000193715096, 0.05299999937415123, 0.03999999910593033]","[0.0, -0.0, 0.5923752994005711]","[-0.0669499859213829, 0.1127324104309082, 0.03999999910593033]","[0.0, 0.0, -0.2690954538189607]","[0.026750000193715096, 0.05299999937415123, 0.03999999910593033]","[0.0, 0.0, -0.6008619062673114]","[0.0674554631114006, 0.11238910257816315, 0.03999999910593033]","[0.0, -0.0, 0.2594588653702835]",0.5711748754471921,-5.088090785987531,"(0.0, 0.0, 0.0, 0.0, 0.0, 0.0)",0.20179723839696584,-0.8614666854136499,0.0009640831121563087,"(0.0, 0.0, 0.0, 0.0, 0.0, 0.0)",0.015124512099487388,-0.5830478441846109,4.27537285490686,"(0.0, 0.0, 0.0, 0.0, 0.0, 0.0)",-0.00040728805220429705,0.8603129289032243,-0.001874174775147154,"(0.0, 0.0, 0.0, 0.0, 0.0, 0.0)",-0.0017677334094061982,False,,,,,True,"(0.03728150083157586, 0.18020972647077313, 0.023999959438538117)","(-0.9999999992078928, -2.3394376620903917e-07, -3.980150265941498e-05)",0.00010136561290409651,0.0
63,Move,,,"(0.003536438132730313, 0.15853702184869162, 0.04798413986117641)","(-0.002178499075898401, 0.009685758062407228, 0.10285468498251224)","[-0.006462388465991851, -0.0014907206732378275, 0.0004335808469587768]","[-0.026750000193715096, 0.05299999937415123, 0.03999999910593033]","[0.0, -0.0, 0.5711748797881039]","[-0.06567469984292984, 0.1135711818933487, 0.03999999910593033]","[0.0, 0.0, -0.2902918330000066]","[0.026750000193715096, 0.05299999937415123, 0.03999999910593033]","[0.0, 0.0, -0.5830479010023177]","[0.06639109551906586, 0.11310476809740067, 0.03999999910593033]","[0.0, -0.0, 0.2772650915613622]",0.5507922484404775,-4.891830481611522,"(0.0, 0.0, 0.0, 0.0, 0.0, 0.0)",0.282294284049585,-0.8614673765775518,-0.00016587933645189224,"(0.0, 0.0, 0.0, 0.0, 0.0, 0.0)",0.019719768305812027,-0.565275293151566,4.265412247930778,"(0.0, 0.0, 0.0, 0.0, 0.0, 0.0)",-0.012306804327906049,0.8603137161198487,0.00018893198985979812,"(0.0, 0.0, 0.0, 0.0, 0.0, 0.0)",-0.0004299034376783175,False,,,,,True,"(0.035014354147368115, 0.18037738642755824, 0.023999959438538117)","(-0.9999999992078928, -2.3394376620903917e-07, -3.980150265941498e-05)",0.0001657852207818292,0.0
64,Move,,,"(0.0033070809685918903, 0.15939336139403074, 0.0480245948749005)","(-0.003221721649284341, 0.008758192496794307, 0.10007245081902345)","[-0.006691745630130274, -0.0006343811278987088, 0.00047403586068286985]","[-0.026750000193715096, 0.05299999937415123, 0.03999999910593033]","[0.0, -0.0, 0.5507922756468575]","[-0.06443209946155548, 0.11435192823410034, 0.03999999910593033]","[0.0, 0.0, -0.31067510738133]","[0.026750000193715096, 0.05299999937415123, 0.03999999910593033]","[0.0, 0.0, -0.5652752430676895]","[0.06531667709350586, 0.11379976570606232, 0.03999999910593033]","[0.0, -0.0, 0.2950384296353975]",0.5330621314256022,-4.255228083570051,"(0.0, 0.0, 0.0, 0.0, 0.0, 0.0)",-63.6841566907319,-0.833899768100212,6.616226034561552,"(0.0, 0.0, 0.0, 0.0, 0.0, 0.0)",-32.0033096547166,-0.5494184347075574,3.805646026562078,"(0.0, 0.0, 0.0, 0.0, 0.0, 0.0)",54.08522476914028,0.834294882877888,-6.244519978070589,"(0.0, 0.0, 0.0, 0.0, 0.0, 0.0)",25.974823871813367,True,"(-0.030827226021807298, 0.18072875671023755, 0.023990313633420805)","(0.9946684597633704, 0.10266861339458756, -0.009685606619977753)",0.00023266339136997558,510.2877732171601,True,"(0.03274929454054999, 0.18050411530517568, 0.023999959438538117)","(-0.9999999992078928, -2.3394376620903917e-07, -3.980150265941498e-05)",0.00018643181396489492,418.4587664295024
65,Move,"(0.0, 0.0, 0.0)","(0.0, -0.0, 0.0)","(0.0031969503873777684, 0.16028143882127593, 0.048054583489053525)","(-0.004372781608329888, 0.007939463136719069, 0.09861198334618497)","[-0.006801876211344396, 0.00025369629934648974, 0.0005040244748358916]","[-0.026750000193715096, 0.05299999937415123, 0.03999999910593033]","[0.0, -0.0, 0.5330621158171134]","[-0.06333845853805542, 0.11501035839319229, 0.03999999910593033]","[0.0, 0.0, -0.30083767855036603]","[0.026750000193715096, 0.05299999937415123, 0.03999999910593033]","[0.0, 0.0, -0.549418426545043]","[0.0643477737903595, 0.11440364271402359, 0.03999999910593033]","[0.0, -0.0, 0.2848764361199625]",0.5161701590322703,-4.054073374399667,"(0.0, 0.0, 0.0, 0.0, 0.0, 0.0)",-68.88180562685734,-0.8061093417891989,6.669702314643141,"(0.0, 0.0, 0.0, 0.0, 0.0, 0.0)",-35.756361121383094,-0.5337544439677235,3.7593577775601132,"(0.0, 0.0, 0.0, 0.0, 0.0, 0.0)",68.77952387616044,0.8075007011486295,-6.430603615022057,"(0.0, 0.0, 0.0, 0.0, 0.0, 0.0)",33.85011913137436,True,"(-0.030386831991674287, 0.18170201039644102, 0.02399124115951112)","(0.9949587688124035, 0.09990167360330966, -0.008758080529661552)",-0.0003521033588324185,534.8399967547618,True,"(0.03245991098360225, 0.1814354915724969, 0.023999959438538117)","(-0.9999999992078928, -2.3394376620903917e-07, -3.980150265941498e-05)",3.895377007335016e-05,524.277520594291
66,Move,"(0.0, 0.0, 0.0006329113924050633)","(0.0, -0.0, 0.0)","(0.003103231430513846, 0.16109440397195374, 0.048059086996620294)","(-0.004816457762876065, 0.004152668738523914, 0.09477766741003538)","[-0.006895595168208318, 0.0010666614500242921, 0.0005085279824026609]","[-0.026750000193715096, 0.05299999937415123, 0.03999999910593033]","[0.0, -0.0, 0.5161702079325045]","[-0.062285806983709335, 0.11561953276395798, 0.03999999910593033]","[0.0, 0.0, -0.28993919682770425]","[0.026750000193715096, 0.05299999937415123, 0.03999999910593033]","[0.0, 0.0, -0.5337544427276155]","[0.0633813738822937, 0.11498501896858215, 0.03999999910593033]","[0.0, -0.0, 0.27374624928461355]",0.5166144337824271,0.10662594003765413,"(0.0, 0.0, 0.0, 0.0, 0.0, 0.0)",5.0099850593155235,-0.8088825038537306,-0.6655588954876208,"(0.0, 0.0, 0.0, 0.0, 0.0, 0.0)",-0.47721716603763553,-0.5367630675167633,-0.7220696517695289,"(0.0, 0.0, 0.0, 0.0, 0.0, 0.0)",-5.770589790420478,0.8101801193215553,0.6430603615022044,"(0.0, 0.0, 0.0, 0.0, 0.0, 0.0)",0.2689174556793983,True,"(-0.03006166347399304, 0.18265404950541297, 0.023992059860314583)","(0.9951104129424696, 0.09844913561342714, -0.007939379726199769)",-0.0007346128178897825,2.032966651424181,True,"(0.032241548852435555, 0.18236762460912842, 0.023999959438538117)","(-0.9999999992078928, -2.3394376620903917e-07, -3.980150265941498e-05)",-0.00012424112725224057,0.0
67,Move,"(0.0, 0.0, 0.0012658227848101268)","(0.0, -0.0, 0.0)","(0.0029910464721500762, 0.16186068352612143, 0.04799010079801956)","(-0.0045972376566421535, -0.0011034567734400107, 0.09011184201208601)","[-0.007007780126572088, 0.0018329410041919847, 0.00043954178380192777]","[-0.026750000193715096, 0.05299999937415123, 0.03999999910593033]","[0.0, -0.0, 0.5166145167686849]","[-0.06231362372636795, 0.1156037449836731, 0.03999999910593033]","[0.0, 0.0, -0.29226808746388727]","[0.026750000193715096, 0.05299999937415123, 0.03999999910593033]","[0.0, 0.0, -0.5367630711600129]","[0.06356769800186157, 0.11487452685832977, 0.03999999910593033]","[0.0, -0.0, 0.27341709946321935]",0.5154413792705276,-0.28153308285588174,"(0.0, 0.0, 0.0, 0.0, 0.0, 0.0)",-0.4875257011932493,-0.8086057695832976,0.06641622490392596,"(0.0, 0.0, 0.0, 0.0, 0.0, 0.0)",0.035674756000276885,-0.5380161274745383,-0.3007343898660011,"(0.0, 0.0, 0.0, 0.0, 0.0, 0.0)",0.5380740004362334,0.8099122086576662,-0.06429855933339301,"(0.0, 0.0, 0.0, 0.0, 0.0, 0.0)",-0.02969216158265792,True,"(-0.029933285562671302, 0.18256153119103405, 0.023995846583237473)","(0.9955033743714912, 0.09463502024329482, -0.004152656803312201)",-0.0006805043496028978,0.0,True,"(0.032450056763315, 0.18226738195973757, 0.023999959438538117)","(-0.9999999992078928, -2.3394376620903917e-07, -3.980150265941498e-05)",9.451939916559619e-07,0.0
68,Move,"(0.0, 0.0, 0.00189873417721519)","(0.0, -0.0, 0.0)","(0.0030763195929563738, 0.16240901507193, 0.04805873364444319)","(-0.003871103915830868, -0.0010268625157952194, 0.08819752750352224)","[-0.00692250700576579, 0.0023812725500005627, 0.0005081746302255594]","[-0.026750000193715096, 0.05299999937415123, 0.03999999910593033]","[0.0, -0.0, 0.5154413503071854]","[-0.06224016472697258, 0.11564541608095169, 0.03999999910593033]","[0.0, 0.0, -0.2931643994373962]","[0.026750000193715096, 0.05299999937415123, 0.03999999910593033]","[0.0, 0.0, -0.5380161427670377]","[0.06364520639181137, 0.11482834070920944, 0.03999999910593033]","[0.0, -0.0, 0.27189612247344713]",0.5142395870419784,-0.2884301348518151,"(0.0, 0.0, 0.0, 0.0, 0.0, 0.0)",-2.066712996139989,-0.8082033885225304,0.09657145458413206,"(0.0, 0.0, 0.0, 0.0, 0.0, 0.0)",-1.1343840635058442,-0.5392362715073099,-0.2928345678651824,"(0.0, 0.0, 0.0, 0.0, 0.0, 0.0)",0.3140002336086573,0.8095787436733701,-0.08003159623105786,"(0.0, 0.0, 0.0, 0.0, 0.0, 0.0)",0.18452208566615363,True,"(-0.029799820901857663, 0.18257415613270636, 0.023995846583237473)","(0.9955033743714912, 0.09463502024329482, -0.004152656803312201)",-0.0006112185264810988,12.407926895400346,True,"(0.03271869545162665, 0.18113161460181387, 0.05600415341676252)","(-0.9955033743714903, -0.0946350202433038, 0.004152656803305648)",-8.942190255177558e-05,2.4787187612720967
69,Move,"(0.0, 0.0, 0.002531645569620253)","(0.0, -0.0, 0.0)","(0.003165902929300685, 0.16287389318017678, 0.048095404925239685)","(-0.002313494866370778, -0.000942277806307213, 0.08587239982327446)","[-0.0068329236694214795, 0.0028461506582473373, 0.0005448459110220516]","[-0.026750000193715096, 0.05299999937415123, 0.03999999910593033]","[0.0, -0.0, 0.5142396239579041]","[-0.062164850533008575, 0.1156880259513855, 0.03999999910593033]","[0.0, 0.0, -0.293963804180359]","[0.026750000193715096, 0.05299999937415123, 0.03999999910593033]","[0.0, 0.0, -0.5392362924741363]","[0.06372061371803284, 0.11478327959775925, 0.03999999910593033]","[0.0, -0.0, 0.2703424788221481]",0.5131504161258009,-0.26140101988258424,"(0.0, 0.0, 0.0, 0.0, 0.0, 0.0)",-0.29189775821406594,-0.8081447278533209,0.014078560610262594,"(0.0, 0.0, 0.0, 0.0, 0.0, 0.0)",-0.18429292279945098,-0.5406061477109335,-0.32877028886966697,"(0.0, 0.0, 0.0, 0.0, 0.0, 0.0)",0.09316442475544207,0.8095048533472043,-0.017733678279791096,"(0.0, 0.0, 0.0, 0.0, 0.0, 0.0)",0.08747186000534043,True,"(-0.02967056513010352, 0.18258594453197763, 0.05600102762229456)","(0.9961125934846966, 0.08808318031801422, 0.0010268623353264295)",-0.0006028195842478208,2.4555783737853285,True,"(0.03289715409594462, 0.18113451879174994, 0.05600415341676252)","(-0.9955033743714903, -0.0946350202433038, 0.004152656803305648)",-8.102325751697466e-05,1.132738017421723
70,Move,"(0.0, 0.0, 0.0031645569620253164)","(0.0, -0.0, 0.0)","(0.003269057242251582, 0.16329297636504506, 0.048044697340695025)","(-0.00036507193425783745, 0.0013971361668983517, 0.08511812728599472)","[-0.006729769356470582, 0.0032652338431156114, 0.0004941383264773919]","[-0.026750000193715096, 0.05299999937415123, 0.03999999910593033]","[0.0, -0.0, 0.5131503846217953]","[-0.062096551060676575, 0.11572656035423279, 0.03999999910593033]","[0.0, 0.0, -0.2949943267301153]","[0.026750000193715096, 0.05299999937415123, 0.03999999910593033]","[0.0, 0.0, -0.5406061040573672]","[0.06380521506071091, 0.11473257839679718, 0.03999999910593033]","[0.0, -0.0, 0.2688986855793265]",0.5121436717712033,-0.24161864510342057,"(0.0, 0.0, 0.0, 0.0, 0.0, 0.0)",-0.07495144289208452,-0.8081484000450305,-0.0008813260103082993,"(0.0, 0.0, 0.0, 0.0, 0.0, 0.0)",-0.055953844475098186,-0.5420104631259054,-0.33703569959324836,"(0.0, 0.0, 0.0, 0.0, 0.0, 0.0)",-0.010059964053724774,0.8095122423798209,0.0017733678279787668,"(0.0, 0.0, 0.0, 0.0, 0.0, 0.0)",0.0011588659582223658,True,"(-0.02953323248499986, 0.18258966919004407, 0.056000943037626094)","(0.9963147883135168, 0.08576686248540523, 0.000942277666867639)",-0.0005567773793495697,0.7773422375112596,True,"(0.033077188632064755, 0.18113261756257396, 0.02399905696237391)","(-0.9963147883135173, -0.08576686248540183, -0.0009422776668671957)",-9.265575998428666e-05,0.0
71,Move,"(0.0, 0.0, 0.00379746835443038)","(0.0, -0.0, 0.0)","(0.0033546436414956704, 0.16361142383348473, 0.04802635515308528)","(0.0027532246630232087, 0.0012887486936432326, 0.08289318352011096)","[-0.0066441829572264945, 0.003583681311555287, 0.0004757961388676471]","[-0.026750000193715096, 0.05299999937415123, 0.03999999910593033]","[0.0, -0.0, 0.512143673283232]","[-0.062033385038375854, 0.11576211452484131, 0.03999999910593033]","[0.0, 0.0, -0.2960047544785996]","[0.026750000193715096, 0.05299999937415123, 0.03999999910593033]","[0.0, 0.0, -0.5420104433945238]","[0.06389187276363373, 0.11468047648668289, 0.03999999910593033]","[0.0, -0.0, 0.2675017915154348]",0.511213603992454,-0.2232162668998592,"(0.0, 0.0, 0.0, 0.0, 0.0, 0.0)",-0.08299374517737806,-0.8081465547854236,0.00044286230565021404,"(0.0, 0.0, 0.0, 0.0, 0.0, 0.0)",-0.05894751655090426,-0.5434548449235415,-0.3466516314326471,"(0.0, 0.0, 0.0, 0.0, 0.0, 0.0)",-0.014249739168796315,0.8095115034765592,-0.00017733678279707732,"(0.0, 0.0, 0.0, 0.0, 0.0, 0.0)",-0.0012084196724562312,True,"(-0.029402522015289534, 0.18259228569505692, 0.056000943037626094)","(0.9963147883135168, 0.08576686248540523, 0.000942277666867639)",-0.0005128811578680961,0.0,True,"(0.03325662999438974, 0.18112337948871013, 0.02399905696237391)","(-0.9963147883135173, -0.08576686248540183, -0.0009422776668671957)",-8.695533664330438e-06,0.0
72,Move,"(0.0, 0.0, 0.004430379746835442)","(0.0, -0.0, 0.0)","(0.0034280945224615185, 0.16380798407541444, 0.04810341646207979)","(0.0025314297497197134, 0.0011862437334970975, 0.08020763359095298)","[-0.006570732076260646, 0.0037802415534849976, 0.000552857447862154]","[-0.026750000193715096, 0.05299999937415123, 0.03999999910593033]","[0.0, -0.0, 0.5112135891935047]","[-0.06197499483823776, 0.11579490453004837, 0.03999999910593033]","[0.0, 0.0, -0.29693296470564934]","[0.026750000193715096, 0.05299999937415123, 0.03999999910593033]","[0.0, 0.0, -0.5434549265965846]","[0.06398092210292816, 0.11462676525115967, 0.03999999910593033]","[0.0, -0.0, 0.2660567037768986]",0.5103555919899442,-0.20592288060235964,"(0.0, 0.0, 0.0, 0.0, 0.0, 0.0)",-0.2890904430660913,-0.8081253685478644,0.005084697014209499,"(0.0, 0.0, 0.0, 0.0, 0.0, 0.0)",-0.1697261932264004,-0.5449309571019593,-0.3542669228202637,"(0.0, 0.0, 0.0, 0.0, 0.0, 0.0)",-0.011125236007828663,0.8095115773668854,1.7733678280507092e-05,"(0.0, 0.0, 0.0, 0.0, 0.0, 0.0)",-0.0007783376056978741,True,"(-0.029282114539135914, 0.18259475699657812, 0.056000943037626094)","(0.9963147883135168, 0.08576686248540523, 0.000942277666867639)",-0.00047124128732503834,1.5278374725504718,True,"(0.033441731347567796, 0.18111387035161922, 0.02399905696237391)","(-0.9963147883135173, -0.08576686248540183, -0.0009422776668671957)",2.4648749812601516e-05,0.0
73,Move,"(0.0, 0.0, 0.005063291139240506)","(0.0, -0.0, 0.0)","(0.003501036150063543, 0.16394305842899576, 0.04817428435246675)","(0.0023266196956276083, 0.001091441021973717, 0.07770836193344266)","[-0.006497790448658621, 0.0039153159070663135, 0.0006237253382491148]","[-0.026750000193715096, 0.05299999937415123, 0.03999999910593033]","[0.0, -0.0, 0.5103556210294071]","[-0.06192110478878021, 0.1158251017332077, 0.03999999910593033]","[0.0, 0.0, -0.2977698391682862]","[0.026750000193715096, 0.05299999937415123, 0.03999999910593033]","[0.0, 0.0, -0.5449309841408344]","[0.06407184898853302, 0.11457174271345139, 0.03999999910593033]","[0.0, -0.0, 0.264580616154241]",0.5095552102996808,-0.19209160566322167,"(0.0, 0.0, 0.0, 0.0, 0.0, 0.0)",-0.41942068290040924,-0.8081019269667709,0.005625979462451136,"(0.0, 0.0, 0.0, 0.0, 0.0, 0.0)",-0.23718983204506555,-0.5464353685960397,-0.36105875857930764,"(0.0, 0.0, 0.0, 0.0, 0.0, 0.0)",-0.009954143317712924,0.8095115699778528,-1.7733678285836163e-06,"(0.0, 0.0, 0.0, 0.0, 0.0, 0.0)",-0.0007153513883500557,True,"(-0.029172334413903482, 0.18259757571634883, 0.056000943037626094)","(0.9963147883135168, 0.08576686248540523, 0.000942277666867639)",-0.0004310402481676534,1.9485510538110111,True,"(0.033630829516733726, 0.18110385078568308, 0.02399905696237391)","(-0.9963147883135173, -0.08576686248540183, -0.0009422776668671957)",7.771801399843746e-05,0.0
74,Move,"(0.0, 0.0, 0.00569620253164557)","(0.0, -0.0, 0.0)","(0.003553559413752559, 0.16405487983361872, 0.04821901950221724)","(0.0021450874183306713, 0.0003294914383639387, 0.074465602144915)","[-0.006445267184969605, 0.004027137311689272, 0.0006684604879996087]","[-0.026750000193715096, 0.05299999937415123, 0.03999999910593033]","[0.0, -0.0, 0.5095552270158364]","[-0.06187080964446068, 0.11585323512554169, 0.03999999910593033]","[0.0, 0.0, -0.2985467487273469]","[0.026750000193715096, 0.05299999937415123, 0.03999999910593033]","[0.0, 0.0, -0.5464353697858133]","[0.06416443735361099, 0.1145155280828476, 0.03999999910593033]","[0.0, -0.0, 0.26307620641318313]",0.5087884118019979,-0.18403163944388856,"(0.0, 0.0, 0.0, 0.0, 0.0, 0.0)",-0.34299502696820255,-0.8080934257703158,0.0020402871492013227,"(0.0, 0.0, 0.0, 0.0, 0.0, 0.0)",-0.19647538609988383,-0.5479557829583781,-0.36489944696120974,"(0.0, 0.0, 0.0, 0.0, 0.0, 0.0)",-0.005669413236733666,0.8095115707167561,1.773367825919081e-07,"(0.0, 0.0, 0.0, 0.0, 0.0, 0.0)",-0.000406982240722362,True,"(-0.029070170768815698, 0.18260024191460483, 0.056000943037626094)","(0.9963147883135168, 0.08576686248540523, 0.000942277666867639)",-0.0003929484525290109,2.6944772818415874,True,"(0.03382354305501057, 0.18109335444901847, 0.02399905696237391)","(-0.9963147883135173, -0.08576686248540183, -0.0009422776668671957)",0.0001434555954707906,0.0
75,Move,"(0.0, 0.0, 0.006329113924050633)","(0.0, -0.0, 0.0)","(0.0035588265222359413, 0.16416474268082512, 0.048227412505294706)","(0.0019781343211410494, -0.001448185480451091, 0.07114953540586157)","[-0.006440000076486223, 0.004137000158895676, 0.0006768534910770729]","[-0.026750000193715096, 0.05299999937415123, 0.03999999910593033]","[0.0, -0.0, 0.508788374352485]","[-0.06182260438799858, 0.11588014662265778, 0.03999999910593033]","[0.0, 0.0, -0.29930502580247653]","[0.026750000193715096, 0.05299999937415123, 0.03999999910593033]","[0.0, 0.0, -0.5479558062787513]","[0.06425792723894119, 0.11445856839418411, 0.03999999910593033]","[0.0, -0.0, 0.26155580599606326]",0.5080493018792726,-0.1773863814540647,"(0.0, 0.0, 0.0, 0.0, 0.0, 0.0)",-0.1124548109144445,-0.8080898671995811,0.0008540569763342675,"(0.0, 0.0, 0.0, 0.0, 0.0, 0.0)",-0.06632447162167728,-0.5494856900692354,-0.3671777066057462,"(0.0, 0.0, 0.0, 0.0, 0.0, 0.0)",-0.003402416146925254,0.8095115706428657,-1.7733678525644336e-08,"(0.0, 0.0, 0.0, 0.0, 0.0, 0.0)",-0.00024513169057191085,True,"(-0.02897080662418111, 0.18259518772846403, 0.02399966974860838)","(0.9972286638641585, 0.07439679699490623, -0.00032949143240128595)",-0.00039008959972497393,0.9312838220950296,True,"(0.03401828973076074, 0.18108245166026177, 0.02399905696237391)","(-0.9963147883135173, -0.08576686248540183, -0.0009422776668671957)",0.0002062400656533609,0.0
76,Move,"(0.0, 0.0, 0.006962025316455696)","(0.0, -0.0, 0.0)","(0.003638240944044427, 0.16422158502597986, 0.048288227418181985)","(0.0013243522000476466, -0.0018312249210467744, 0.06916988406977888)","[-0.0063605856546777376, 0.004193842504050416, 0.0007376684039643519]","[-0.026750000193715096, 0.05299999937415123, 0.03999999910593033]","[0.0, -0.0, 0.5080493105371073]","[-0.061776116490364075, 0.11590605229139328, 0.03999999910593033]","[0.0, 0.0, -0.3000405442080375]","[0.026750000193715096, 0.05299999937415123, 0.03999999910593033]","[0.0, 0.0, -0.5494857350736506]","[0.06435190886259079, 0.11440110951662064, 0.03999999910593033]","[0.0, -0.0, 0.2600258601955145]",0.5073348463367111,-0.17146933021475189,"(0.0, 0.0, 0.0, 0.0, 0.0, 0.0)",-1.231153669065252,-0.8080621499670388,0.006652135810129302,"(0.0, 0.0, 0.0, 0.0, 0.0, 0.0)",-0.6743973770821514,-0.5510298380766556,-0.37059552178083965,"(0.0, 0.0, 0.0, 0.0, 0.0, 0.0)",-0.005057400280377948,0.8095115706502547,1.7733681190179595e-09,"(0.0, 0.0, 0.0, 0.0, 0.0, 0.0)",-0.0003634692581833574,True,"(-0.028875258261058398, 0.1825969108311318, 0.02399966974860838)","(0.9972286638641585, 0.07439679699490623, -0.00032949143240128595)",-0.000359456408915513,3.434425555368677,True,"(0.034213803067757426, 0.18107701599188017, 0.02399855105506652)","(-0.9974688934265906, -0.07108944652065664, -0.0014481849742528467)",0.0003075817130287074,0.0
77,Move,"(0.0, 0.0, 0.00759493670886076)","(0.0, -0.0, 0.0)","(0.0037291306610932637, 0.16425646222713117, 0.04834435428132105)","(0.0010438817219029489, -0.0018595033254545663, 0.06790461795643452)","[-0.0062696959376289, 0.004228719705201722, 0.0007937952671034157]","[-0.026750000193715096, 0.05299999937415123, 0.03999999910593033]","[0.0, -0.0, 0.5073349112570399]","[-0.061731163412332535, 0.11593105643987656, 0.03999999910593033]","[0.0, 0.0, -0.30072729170709955]","[0.026750000193715096, 0.05299999937415123, 0.03999999910593033]","[0.0, 0.0, -0.5510299302518988]","[0.06444667279720306, 0.11434298008680344, 0.03999999910593033]","[0.0, -0.0, 0.2584817722858991]",0.5066310535122434,-0.16891027787226431,"(0.0, 0.0, 0.0, 0.0, 0.0, 0.0)",-0.6980893709881787,-0.8080439672731096,0.004363846543016538,"(0.0, 0.0, 0.0, 0.0, 0.0, 0.0)",-0.3674279514918136,-0.5525968832080078,-0.3760908315245218,"(0.0, 0.0, 0.0, 0.0, 0.0, 0.0)",-0.008074398685543481,0.8095115706495158,-1.7733547963077827e-10,"(0.0, 0.0, 0.0, 0.0, 0.0, 0.0)",-0.000579228570449487,True,"(-0.028784514342045195, 0.18259930937298272, 0.02399966974860838)","(0.9972286638641585, 0.07439679699490623, -0.00032949143240128595)",-0.00031582163863797934,3.6250984346055,True,"(0.03441153439169007, 0.18106577258496906, 0.023998168016143195)","(-0.997607044533533, -0.06911462447345276, -0.001831223897579494)",0.0003823533914739062,0.0
78,Move,"(0.0, 0.0, 0.008227848101265822)","(0.0, -0.0, 0.0)","(0.0038203543700125373, 0.1642760935922573, 0.048395974980254684)","(0.0009579545300007636, -0.0017124155348058117, 0.06691475248231323)","[-0.006178472228709627, 0.004248351070327866, 0.0008454159660370511]","[-0.026750000193715096, 0.05299999937415123, 0.03999999910593033]","[0.0, -0.0, 0.5066310983437627]","[-0.061686865985393524, 0.1159556657075882, 0.03999999910593033]","[0.0, 0.0, -0.30141292580567514]","[0.026750000193715096, 0.05299999937415123, 0.03999999910593033]","[0.0, 0.0, -0.5525969240357153]","[0.064542755484581, 0.11428382992744446, 0.03999999910593033]","[0.0, -0.0, 0.2569146820078417]",0.5059482971260536,-0.1638615326855536,"(0.0, 0.0, 0.0, 0.0, 0.0, 0.0)",-0.6337856544220165,-0.8080208558834986,0.005546733506623967,"(0.0, 0.0, 0.0, 0.0, 0.0, 0.0)",-0.32843110036701945,-0.5541587684409147,-0.37485245589765626,"(0.0, 0.0, 0.0, 0.0, 0.0, 0.0)",0.0016998310865271942,0.8095115706495897,1.7732482149313e-11,"(0.0, 0.0, 0.0, 0.0, 0.0, 0.0)",0.00011959581608515241,True,"(-0.02869451457365789, 0.18260130905346306, 0.02399966974860838)","(0.9972286638641585, 0.07439679699490623, -0.00032949143240128595)",-0.00028518606872426867,4.446729022364591,True,"(0.034612230231123274, 0.18105330829609653, 0.02399813973778694)","(-0.9976936423052016, -0.06785232755881256, -0.001859502253838054)",0.0004693052604634485,0.0
79,Move,"(0.0, 0.0, 0.008860759493670885)","(0.0, -0.0, 0.0)","(0.00390755822505466, 0.1642894335955652, 0.048443469458689305)","(0.0008792002437656659, -0.0015768648982903766, 0.06592486024479188)","[-0.006091268373667504, 0.004261691073635748, 0.0008929104444716715]","[-0.026750000193715096, 0.05299999937415123, 0.03999999910593033]","[0.0, -0.0, 0.5059483342439918]","[-0.061643876135349274, 0.11597950011491776, 0.03999999910593033]","[0.0, 0.0, -0.30207255936820987]","[0.026750000193715096, 0.05299999937415123, 0.03999999910593033]","[0.0, 0.0, -0.5541587815924847]","[0.06463842839002609, 0.11422472447156906, 0.03999999910593033]","[0.0, -0.0, 0.2553527863849408]",0.5052857168602731,-0.1590192637873234,"(0.0, 0.0, 0.0, 0.0, 0.0, 0.0)",-0.6031400733299946,-0.8080002991593822,0.004933613787942933,"(0.0, 0.0, 0.0, 0.0, 0.0, 0.0)",-0.31205241306625087,-0.5557110158129119,-0.3725393692793401,"(0.0, 0.0, 0.0, 0.0, 0.0, 0.0)",0.0032604099472014194,0.8095115706495823,-1.7719159473017498e-12,"(0.0, 0.0, 0.0, 0.0, 0.0, 0.0)",0.0002311936849062569,True,"(-0.028607567767271386, 0.1826033700086251, 0.02399966974860838)","(0.9972286638641585, 0.07439679699490623, -0.00032949143240128595)",-0.0002623308012992236,4.2156510628228885,True,"(0.03481226295374922, 0.18104030144064043, 0.023998286825342875)","(-0.9977605802885495, -0.06686472955272817, -0.0017124146979025105)",0.0005646598610711254,0.0
80,Move,"(0.0, 0.0, 0.00949367088607595)","(0.0, -0.0, 0.0)","(0.003983102522442108, 0.16433388309747554, 0.04844302762670371)","(-0.0006428016650999697, -0.0014506678463554275, 0.06461113761884023)","[-0.006015724076280056, 0.004306140575546097, 0.0008924686124860762]","[-0.026750000193715096, 0.05299999937415123, 0.03999999910593033]","[0.0, -0.0, 0.5052857562769146]","[-0.061602137982845306, 0.11600260436534882, 0.03999999910593033]","[0.0, 0.0, -0.3027146098480249]","[0.026750000193715096, 0.05299999937415123, 0.03999999910593033]","[0.0, 0.0, -0.5557110748433443]","[0.06473341584205627, 0.11416584253311157, 0.03999999910593033]","[0.0, -0.0, 0.25380055046395444]",0.5046403894846819,-0.15487857014189177,"(0.0, 0.0, 0.0, 0.0, 0.0, 0.0)",-0.18959820887531353,-0.8079956732871919,0.0011102093256743382,"(0.0, 0.0, 0.0, 0.0, 0.0, 0.0)",-0.10368213087329145,-0.5572520941090703,-0.3698587910780118,"(0.0, 0.0, 0.0, 0.0, 0.0, 0.0)",0.003794568514400034,0.8095115706495831,1.758593271006248e-13,"(0.0, 0.0, 0.0, 0.0, 0.0, 0.0)",0.00026941107955483847,True,"(-0.028523063855679452, 0.1826052523589985, 0.02399966974860838)","(0.9972286638641585, 0.07439679699490623, -0.00032949143240128595)",-0.00024119255618834618,1.1737876374146632,True,"(0.03501104004851449, 0.1810270714066553, 0.023998422375795966)","(-0.9978265027560578, -0.06587703618688821, -0.0015768642448099647)",0.0006629578466517163,0.0
81,Move,"(0.0, 0.0, 0.010126582278481011)","(0.0, -0.0, 0.0)","(0.00408394118999499, 0.1643923665234408, 0.048486751518679455)","(-0.0016548590477855256, -0.0002729275021843758, 0.06373456544045811)","[-0.0059148854087271744, 0.004364624001511358, 0.0009361925044618219]","[-0.026750000193715096, 0.05299999937415123, 0.03999999910593033]","[0.0, -0.0, 0.5046404393760416]","[-0.061561472713947296, 0.11602508276700974, 0.03999999910593033]","[0.0, 0.0, -0.3033553459844896]","[0.026750000193715096, 0.05299999937415123, 0.03999999910593033]","[0.0, 0.0, -0.5572520936027976]","[0.06482763588428497, 0.11410722881555557, 0.03999999910593033]","[0.0, -0.0, 0.2522594813878212]",0.5040146633112725,-0.15017428161826454,"(0.0, 0.0, 0.0, 0.0, 0.0, 0.0)",-0.9397451244357503,-0.8079434386284569,0.012536318096419611,"(0.0, 0.0, 0.0, 0.0, 0.0, 0.0)",-0.48577398805147676,-0.5587823545499815,-0.36726250581868586,"(0.0, 0.0, 0.0, 0.0, 0.0, 0.0)",0.003672941717134179,0.809511570649583,-1.865174681370263e-14,"(0.0, 0.0, 0.0, 0.0, 0.0, 0.0)",0.0002607418561393706,True,"(-0.028439733671791007, 0.18260652279632555, 0.02399966974860838)","(0.9972286638641585, 0.07439679699490623, -0.00032949143240128595)",-0.00022131399882194835,7.2915593120876645,True,"(0.03520834436486862, 0.1810139615800328, 0.023998548572703234)","(-0.9979123764604486, -0.06456612479726544, -0.0014506673375447156)",0.0007645624182697454,0.0
82,Move,"(0.0, 0.0, 0.010759493670886076)","(0.0, -0.0, 0.0)","(0.0041899484880901575, 0.16446674431319286, 0.04852688338897794)","(-0.0029129565766016796, 0.001137949725703987, 0.06294319030999822)","[-0.005808878110632007, 0.004439001791263414, 0.0009763243747603068]","[-0.026750000193715096, 0.05299999937415123, 0.03999999910593033]","[0.0, -0.0, 0.5040146994814446]","[-0.06152202934026718, 0.11604685336351395, 0.03999999910593033]","[0.0, 0.0, -0.3039287435872387]","[0.026750000193715096, 0.05299999937415123, 0.03999999910593033]","[0.0, 0.0, -0.5587822809979262]","[0.06492109596729279, 0.11404889076948166, 0.03999999910593033]","[0.0, -0.0, 0.2507292374820941]",0.5034039069959375,-0.1465815156804187,"(0.0, 0.0, 0.0, 0.0, 0.0, 0.0)",-0.6120481109471438,-0.807923966171275,0.004673389723634342,"(0.0, 0.0, 0.0, 0.0, 0.0, 0.0)",-0.3192023474341302,-0.5603078499602137,-0.36611889845571005,"(0.0, 0.0, 0.0, 0.0, 0.0, 0.0)",0.0015647105139633525,0.809511570649583,2.6645318709685867e-15,"(0.0, 0.0, 0.0, 0.0, 0.0, 0.0)",0.00011002465120736507,True,"(-0.028362111973412492, 0.18260928692202943, 0.02399966974860838)","(0.9972286638641585, 0.07439679699490623, -0.00032949143240128595)",-0.000204377770381466,4.739102648304566,True,"(0.0354042694944236, 0.18100021579182038, 0.023999726312541984)","(-0.9979696028474824, -0.06369142252312161, -0.0002729274987912029)",0.000870829865589349,0.0
83,Move,"(0.0, 0.0, 0.01139240506329114)","(0.0, -0.0, 0.0)","(0.004266486394366594, 0.16450227073107374, 0.04856393261353996)","(-0.0026803448837399626, 0.0010468927704397333, 0.0625211921575003)","[-0.0057323402043555705, 0.004474528209144291, 0.0010133735993223258]","[-0.026750000193715096, 0.05299999937415123, 0.03999999910593033]","[0.0, -0.0, 0.5034039091603117]","[-0.06148351728916168, 0.11606808006763458, 0.03999999910593033]","[0.0, 0.0, -0.3045200500678938]","[0.026750000193715096, 0.05299999937415123, 0.03999999910593033]","[0.0, 0.0, -0.5603078522406931]","[0.06501418352127075, 0.11399058997631073, 0.03999999910593033]","[0.0, -0.0, 0.249203741118763]",0.5028167012261784,-0.14092938474219158,"(0.0, 0.0, 0.0, 0.0, 0.0, 0.0)",-0.39393901565031436,-0.8079012108681218,0.00546127275675918,"(0.0, 0.0, 0.0, 0.0, 0.0, 0.0)",-0.21016671151801794,-0.56182482829915,-0.3640748013447421,"(0.0, 0.0, 0.0, 0.0, 0.0, 0.0)",0.002872332771366044,0.809511570649583,0.0,"(0.0, 0.0, 0.0, 0.0, 0.0, 0.0)",0.0002035342874031674,True,"(-0.02828383173193017, 0.18260460021949132, 0.023998861290560673)","(0.9980190851369313, 0.06290159595291307, -0.0011379494801115743)",-0.00019635940338696495,3.0142624862988994,True,"(0.03559952309055838, 0.18098686481160625, 0.023999726312541984)","(-0.9979696028474824, -0.06369142252312161, -0.0002729274987912029)",0.0009774107366513022,0.0
84,Move,"(0.0, 0.0, 0.012025316455696204)","(0.0, -0.0, 0.0)","(0.004332883266988862, 0.1645170412807277, 0.04859801500061284)","(-0.0024669128167006662, 0.0009627808973223904, 0.06176148215682656)","[-0.005665943331733303, 0.004489298758798249, 0.0010474559863952043]","[-0.026750000193715096, 0.05299999937415123, 0.03999999910593033]","[0.0, -0.0, 0.502816710946701]","[-0.061446476727724075, 0.11608846485614777, 0.03999999910593033]","[0.0, 0.0, -0.3050845246505619]","[0.026750000193715096, 0.05299999937415123, 0.03999999910593033]","[0.0, 0.0, -0.5618248368658678]","[0.06510666012763977, 0.11393247544765472, 0.03999999910593033]","[0.0, -0.0, 0.24768673225009596]",0.502255121310018,-0.13477917987848204,"(0.0, 0.0, 0.0, 0.0, 0.0, 0.0)",-0.582522915057078,-0.8078737446053421,0.006591903067131986,"(0.0, 0.0, 0.0, 0.0, 0.0, 0.0)",-0.3076041700832893,-0.5633342423172168,-0.36225936433603234,"(0.0, 0.0, 0.0, 0.0, 0.0, 0.0)",0.0025409394168548383,0.809511570649583,-3.3881317890172014e-21,"(0.0, 0.0, 0.0, 0.0, 0.0, 0.0)",0.00017985941247596234,True,"(-0.028209249317311835, 0.18260637707113306, 0.023998952347461577)","(0.9980456399067709, 0.06248043436958561, -0.0010468925792081474)",-0.00018160298958804551,4.446598064194137,True,"(0.03579366613531862, 0.18097329301876847, 0.023999726312541984)","(-0.9979696028474824, -0.06369142252312161, -0.0002729274987912029)",0.0010832662322344201,0.0
85,Move,"(0.0, 0.0, 0.012658227848101266)","(0.0, -0.0, 0.0)","(0.004393649249334997, 0.16452446975151003, 0.04862937163600926)","(-0.0022711093544539418, 0.0008855028792901369, 0.06086012493089731)","[-0.005605177349387167, 0.004496727229580583, 0.0010788126217916236]","[-0.026750000193715096, 0.05299999937415123, 0.03999999910593033]","[0.0, -0.0, 0.5022551614628366]","[-0.061411041766405106, 0.11610794067382812, 0.03999999910593033]","[0.0, 0.0, -0.3056186189843527]","[0.026750000193715096, 0.05299999937415123, 0.03999999910593033]","[0.0, 0.0, -0.5633342508688025]","[0.06519859284162521, 0.11387450993061066, 0.03999999910593033]","[0.0, -0.0, 0.24617735253585266]",0.5017117365200114,-0.13041234960158207,"(0.0, 0.0, 0.0, 0.0, 0.0, 0.0)",-0.6079899853347354,-0.8078476798846121,0.0062555329751790905,"(0.0, 0.0, 0.0, 0.0, 0.0, 0.0)",-0.3199674297955909,-0.5648354870595942,-0.3602987381705533,"(0.0, 0.0, 0.0, 0.0, 0.0, 0.0)",0.0027522252589254224,0.809511570649583,0.0,"(0.0, 0.0, 0.0, 0.0, 0.0, 0.0)",0.0001949849949634104,True,"(-0.02813827721664927, 0.18260786486300606, 0.023999036459292206)","(0.9980929032549491, 0.06172219637486086, -0.0009627807485770006)",-0.0001680540453750908,4.641163730574617,True,"(0.03598682044216144, 0.18095949660480054, 0.023999726312541984)","(-0.9979696028474824, -0.06369142252312161, -0.0002729274987912029)",0.0011948394345165426,0.0
86,Move,"(0.0, 0.0, 0.013291139240506327)","(0.0, -0.0, 0.0)","(0.004451512162534017, 0.16452954774307804, 0.04865821880738577)","(-0.0020912067802337916, 0.0008144936426793602, 0.05993886736006673)","[-0.0055473144361881475, 0.004501805221148597, 0.0011076597931681392]","[-0.026750000193715096, 0.05299999937415123, 0.03999999910593033]","[0.0, -0.0, 0.5017117117684206]","[-0.061376746743917465, 0.11612676829099655, 0.03999999910593033]","[0.0, 0.0, -0.306135914477249]","[0.026750000193715096, 0.05299999937415123, 0.03999999910593033]","[0.0, 0.0, -0.5648354080347608]","[0.0652899369597435, 0.11381672322750092, 0.03999999910593033]","[0.0, -0.0, 0.24467608927747786]",0.5011816751698509,-0.1272147240385408,"(0.0, 0.0, 0.0, 0.0, 0.0, 0.0)",-0.6182283320613321,-0.807820988305463,0.006405978995788249,"(0.0, 0.0, 0.0, 0.0, 0.0, 0.0)",-0.3250029750047231,-0.5663295664014351,-0.3585790420418196,"(0.0, 0.0, 0.0, 0.0, 0.0, 0.0)",0.0024029948243278333,0.809511570649583,0.0,"(0.0, 0.0, 0.0, 0.0, 0.0, 0.0)",0.00017003368184968562,True,"(-0.0280695594115027, 0.18260908494457967, 0.023999113737277214)","(0.9981482028310509, 0.06082253751693493, -0.000885502763566864)",-0.00015566906039616194,4.727791480452757,True,"(0.03617890848284572, 0.18094548568846347, 0.023999726312541984)","(-0.9979696028474824, -0.06369142252312161, -0.0002729274987912029)",0.001309552345018224,0.0
87,Move,"(0.0, 0.0, 0.013924050632911392)","(0.0, -0.0, 0.0)","(0.0045075061244159, 0.16453380288495076, 0.048684757042131134)","(-0.0019258118901278125, 0.000749184289730775, 0.05903822432797679)","[-0.0054913204743062645, 0.004506060363021314, 0.0011341980279135008]","[-0.026750000193715096, 0.05299999937415123, 0.03999999910593033]","[0.0, -0.0, 0.5011817376491479]","[-0.06134327873587608, 0.11614511162042618, 0.03999999910593033]","[0.0, 0.0, -0.30663928202916296]","[0.026750000193715096, 0.05299999937415123, 0.03999999910593033]","[0.0, 0.0, -0.5663295207759758]","[0.06538075953722, 0.11375907063484192, 0.03999999910593033]","[0.0, -0.0, 0.24318199419128197]",0.5006630683229591,-0.12446564325401678,"(0.0, 0.0, 0.0, 0.0, 0.0, 0.0)",-0.6230862650120603,-0.8077935941365105,0.006574600548583812,"(0.0, 0.0, 0.0, 0.0, 0.0, 0.0)",-0.3277915349942875,-0.5678172410284663,-0.3570419104875118,"(0.0, 0.0, 0.0, 0.0, 0.0, 0.0)",0.002138430385191455,0.809511570649583,0.0,"(0.0, 0.0, 0.0, 0.0, 0.0, 0.0)",0.00015113370608315212,True,"(-0.028002607341156803, 0.18261023899404863, 0.023999184746488166)","(0.9982038727237188, 0.05990296386342569, -0.0008144935526153254)",-0.000144343940310963,4.7749682833595815,True,"(0.0363702765908038, 0.18092751017993186, 0.056000815253511846)","(-0.9982038727237185, -0.05990296386343059, 0.000814493552623749)",0.0014007402228345329,0.0
88,Move,"(0.0, 0.0, 0.014556962025316457)","(0.0, -0.0, 0.0)","(0.004561965507309477, 0.16453770336714618, 0.048709171235755494)","(-0.0017737247358817973, 0.0006890938582885559, 0.058168163218812456)","[-0.005436861091412688, 0.004509960845216737, 0.0011586122215378608]","[-0.026750000193715096, 0.05299999937415123, 0.03999999910593033]","[0.0, -0.0, 0.5006630399105273]","[-0.061310525983572006, 0.11616304516792297, 0.03999999910593033]","[0.0, 0.0, -0.30713050005497744]","[0.026750000193715096, 0.05299999937415123, 0.03999999910593033]","[0.0, 0.0, -0.5678172194677067]","[0.0654711052775383, 0.11370153725147247, 0.03999999910593033]","[0.0, -0.0, 0.24169434322952957]",0.5001551568603764,-0.12189875101986482,"(0.0, 0.0, 0.0, 0.0, 0.0, 0.0)",-0.6257761157606067,-0.8077654511806724,0.006754309401145299,"(0.0, 0.0, 0.0, 0.0, 0.0, 0.0)",-0.32966530093724833,-0.5692988095317938,-0.35557644079858713,"(0.0, 0.0, 0.0, 0.0, 0.0, 0.0)",0.002034820250339606,0.809511570649583,0.0,"(0.0, 0.0, 0.0, 0.0, 0.0, 0.0)",0.00014374047059645411,True,"(-0.027937186421290262, 0.18261137672552846, 0.02399925005582114)","(0.9982574700254231, 0.05900391733984013, -0.0007491842196420219)",-0.00013398506429742121,4.806667310787178,False,,,,
89,Move,"(0.0, 0.0, 0.014556962025316457)","(0.0, -0.0, 0.0)","(0.004615021175483515, 0.16454139173758814, 0.04873163157516538)","(-0.001633864866302796, 0.0006337979178427545, 0.057329988081095025)","[-0.005383805423238649, 0.004513649215658694, 0.0011810725609477449]","[-0.026750000193715096, 0.05299999937415123, 0.03999999910593033]","[0.0, -0.0, 0.5001551565658742]","[-0.06127844378352165, 0.11618059128522873, 0.03999999910593033]","[0.0, 0.0, -0.30761029641024057]","[0.026750000193715096, 0.05299999937415123, 0.03999999910593033]","[0.0, 0.0, -0.5692988814082003]","[0.06556099653244019, 0.11364410072565079, 0.03999999910593033]","[0.0, -0.0, 0.24021276568274144]",0.4996575285319824,-0.1194307988145446,"(0.0, 0.0, 0.0, 0.0, 0.0, 0.0)",-0.627806987990309,-0.8077365411559971,0.006938405922061209,"(0.0, 0.0, 0.0, 0.0, 0.0, 0.0)",-0.33127846287307133,-0.5707744279872197,-0.35414842930220214,"(0.0, 0.0, 0.0, 0.0, 0.0, 0.0)",0.001980845884299663,0.809511570649583,0.0,"(0.0, 0.0, 0.0, 0.0, 0.0, 0.0)",0.0001398955442863513,True,"(-0.027873201946582035, 0.18261251351532784, 0.02399931014623703)","(0.998308472329409, 0.05813535262687669, -0.0006890938037488863)",-0.00012451049899807787,4.833287079589156,False,,,,
90,Move,"(0.0, 0.0, 0.014556962025316457)","(0.0, -0.0, 0.0)","(0.0067727054728225645, 0.1640841666482956, 0.04892312283859013)","(-0.0012077917064953795, -0.005158072723646968, 0.027872124600805525)","[-0.0032261211258996, 0.004056424126366143, 0.0013725638243724941]","[-0.026750000193715096, 0.05299999937415123, 0.03999999910593033]","[0.0, -0.0, 0.4996575370854121]","[-0.061246998608112335, 0.11619776487350464, 0.03999999910593033]","[0.0, 0.0, -0.3080790287772803]","[0.026750000193715096, 0.05299999937415123, 0.03999999910593033]","[0.0, 0.0, -0.5707744500421157]","[0.06565044075250626, 0.11358676105737686, 0.03999999910593033]","[0.0, -0.0, 0.23873714244673203]",0.47916826280807223,-4.917423773738449,"(0.0, 0.0, 0.0, 0.0, 0.0, 0.0)",-24.13914573564465,-0.808078454598856,-0.08205922628612185,"(0.0, 0.0, 0.0, 0.0, 0.0, 0.0)",-10.140852920494059,-0.550622521043921,4.836457666391702,"(0.0, 0.0, 0.0, 0.0, 0.0, 0.0)",7.535474335781889,0.809511570649583,0.0,"(0.0, 0.0, 0.0, 0.0, 0.0, 0.0)",0.5388025822535584,True,"(-0.027810601759493098, 0.1826136542345987, 0.023999365442165365)","(0.9983568857714978, 0.05729857705815643, -0.0006337978754178761)",-0.00011584634630947917,79.8403953510154,False,,,,
91,Move,"(0.0, 0.0, 0.014556962025316457)","(0.0, -0.0, 0.0)","(0.006668417341153081, 0.16476640962749287, 0.04866535366948798)","(0.01322155629281587, -0.005665689703154291, 0.028206876721164408)","[-0.0033304092575690836, 0.004738667105563421, 0.0011147946552703472]","[-0.026750000193715096, 0.05299999937415123, 0.03999999910593033]","[0.0, -0.0, 0.47916825661686463]","[-0.05994497239589691, 0.11689126491546631, 0.03999999910593033]","[0.0, 0.0, -0.32891016723605027]","[0.026750000193715096, 0.05299999937415123, 0.03999999910593033]","[0.0, 0.0, -0.5506225679560305]","[0.06442168354988098, 0.1143583282828331, 0.03999999910593033]","[0.0, -0.0, 0.2588890309233389]",0.46281979663152517,-3.923631882371294,"(0.0, 0.0, 0.0, 0.0, 0.0, 0.0)",-56.7865413382556,-0.7783290113781731,7.139866372963882,"(0.0, 0.0, 0.0, 0.0, 0.0, 0.0)",-27.591955297719863,-0.5347601071356084,3.806979337995007,"(0.0, 0.0, 0.0, 0.0, 0.0, 0.0)",73.60283639256383,0.7784563416644122,-7.453254956440997,"(0.0, 0.0, 0.0, 0.0, 0.0, 0.0)",38.182434594065,True,"(-0.025132408887168445, 0.1825962790202303, 0.023999365442165365)","(0.9983568857714978, 0.05729857705815643, -0.0006337978754178761)",8.305037228597605e-05,427.58683090972534,True,"(0.034286144628220674, 0.1822037673930706, 0.023994841294782274)","(-0.9995982998197108, -0.02786814524282304, -0.0051580498513081755)",-0.0035582347475283287,584.7366426028219
92,Move,"(0.0, 0.0, 0.01518987341772152)","(0.0, -0.0, 0.0)","(0.006613495360051295, 0.16574832850807805, 0.04868527237611711)","(0.0127133030590442, -0.005527647345665339, 0.028847840302822437)","[-0.0033853312386708696, 0.0057205859861486075, 0.0011347133618994781]","[-0.026750000193715096, 0.05299999937415123, 0.03999999910593033]","[0.0, -0.0, 0.462819798774187]","[-0.058896057307720184, 0.11742538958787918, 0.03999999910593033]","[0.0, 0.0, -0.315509233672098]","[0.026750000193715096, 0.05299999937415123, 0.03999999910593033]","[0.0, 0.0, -0.534760038464977]","[0.06344369798898697, 0.11494814604520798, 0.03999999910593033]","[0.0, -0.0, 0.24369621215980944]",0.4462436806552709,-3.9782678343010183,"(0.0, 0.0, 0.0, 0.0, 0.0, 0.0)",-74.6678863267966,-0.7488276526741646,7.0803260889620345,"(0.0, 0.0, 0.0, 0.0, 0.0, 0.0)",-37.12586059514379,-0.5196073550614894,3.6366604977885566,"(0.0, 0.0, 0.0, 0.0, 0.0, 0.0)",74.05597034344989,0.7481945358968104,-7.262833384224443,"(0.0, 0.0, 0.0, 0.0, 0.0, 0.0)",38.38268832524687,True,"(-0.024967106160778435, 0.1835910123386168, 0.023999365442165365)","(0.9983568857714978, 0.05729857705815643, -0.0006337978754178761)",-0.00018964712139547409,541.5862207562649,True,"(0.0343426766163297, 0.18322805923366775, 0.023994333682830358)","(-0.9995861688356174, -0.028202683847278552, -0.005665659391724235)",-0.003393302820555574,568.5415799073728
93,Move,"(0.0, 0.0, 0.015822784810126587)","(0.0, -0.0, 0.0)","(0.0065918636497654766, 0.16667373412929332, 0.048608227463705106)","(0.009087208673817264, -0.004281308708519055, 0.03011844109393281)","[-0.003406962948956688, 0.006645991607363871, 0.0010576684494874727]","[-0.026750000193715096, 0.05299999937415123, 0.03999999910593033]","[0.0, -0.0, 0.4462437016129712]","[-0.05782376602292061, 0.11794937402009964, 0.03999999910593033]","[0.0, 0.0, -0.30258399843978023]","[0.026750000193715096, 0.05299999937415123, 0.03999999910593033]","[0.0, 0.0, -0.5196073707305635]","[0.06250083446502686, 0.11549702286720276, 0.03999999910593033]","[0.0, -0.0, 0.22858718268258307]",0.44810679990554736,0.44714862006634215,"(0.0, 0.0, 0.0, 0.0, 0.0, 0.0)",5.084092932821698,-0.7515920727194123,-0.6634608108594495,"(0.0, 0.0, 0.0, 0.0, 0.0, 0.0)",-0.6384768632225322,-0.5227031157706779,-0.7429825702052506,"(0.0, 0.0, 0.0, 0.0, 0.0, 0.0)",-5.242773523831645,0.75100871012304,0.6754018142951068,"(0.0, 0.0, 0.0, 0.0, 0.0, 0.0)",0.5400865897507443,True,"(-0.024752833055676556, 0.18454799483982148, 0.023999365442165365)","(0.9983568857714978, 0.05729857705815643, -0.0006337978754178761)",-0.0004742376529952421,3.768985446917876,True,"(0.034435071906955626, 0.18419306928209817, 0.023994471704712823)","(-0.9995686588633014, -0.028843398625023633, -0.005527619196269238)",-0.003231896472474614,2.26346253045955
