OSUrobotics/InHand-Manipulation/AnalyseData/Data/Trial Data/Better/new_hand_human_sub1_2v2_e_n_1_kpNone_kdNone_dp5_step5_save_data.csv
,Phase,human_cube_pos,human_cube_orn,Cube_Pos,Cube_Orn,Cube_pos_in_start_pos,b'l_prox_pin'_link_pos,b'l_prox_pin'_link_orn,b'l_distal_pin'_link_pos,b'l_distal_pin'_link_orn,b'r_prox_pin'_link_pos,b'r_prox_pin'_link_orn,b'r_distal_pin'_link_pos,b'r_distal_pin'_link_orn,b'l_prox_pin'_joint_angle,b'l_prox_pin'_joint_vel,b'l_prox_pin'_joint_react_forces,b'l_prox_pin'_joint_motor_torque,b'l_distal_pin'_joint_angle,b'l_distal_pin'_joint_vel,b'l_distal_pin'_joint_react_forces,b'l_distal_pin'_joint_motor_torque,b'r_prox_pin'_joint_angle,b'r_prox_pin'_joint_vel,b'r_prox_pin'_joint_react_forces,b'r_prox_pin'_joint_motor_torque,b'r_distal_pin'_joint_angle,b'r_distal_pin'_joint_vel,b'r_distal_pin'_joint_react_forces,b'r_distal_pin'_joint_motor_torque,in_contact_l,contact_point_l_dist,contact_normal_l_dist,contact_distance_l_dist,contact_norm_force_l_dist,in_contact_r,contact_point_r_dist,contact_normal_r_dist,contact_distance_r_dist,contact_norm_force_r_dist
0,Open,,,,,,"[-0.026750000193715096, 0.05299999937415123, 0.03999999910593033]","[0.0, -0.0, 0.42755761853039154]","[-0.056604765355587006, 0.1185186430811882, 0.03999999910593033]","[0.0, -0.0, 0.4463066270391506]","[0.026750000193715096, 0.05299999937415123, 0.03999999910593033]","[0.0, 0.0, -0.42757404208311445]","[0.05660583823919296, 0.1185181587934494, 0.03999999910593033]","[0.0, 0.0, -0.4465272228574986]",0.5418018724257314,27.418616735313837,"(0.0, 0.0, 0.0, 0.0, 0.0, 0.0)",-4.412236817968903,0.016874447698417276,-0.44988750389777044,"(0.0, 0.0, 0.0, 0.0, 0.0, 0.0)",-0.3112578673856835,-0.5418166170859073,-27.418223544375806,"(0.0, 0.0, 0.0, 0.0, 0.0, 0.0)",4.412120589674461,-0.017058187988154127,0.4547872631353701,"(0.0, 0.0, 0.0, 0.0, 0.0, 0.0)",0.31119999541872967,False,,,,,False,,,,
1,Open,,,,,,"[-0.026750000193715096, 0.05299999937415123, 0.03999999910593033]","[0.0, -0.0, 0.8953992050914552]","[-0.08294302970170975, 0.09801492840051651, 0.03999999910593033]","[0.0, -0.0, 0.9064715399310761]","[0.026750000193715096, 0.05299999937415123, 0.03999999910593033]","[0.0, 0.0, -0.8954089117450801]","[0.08294346183538437, 0.09801438450813293, 0.03999999910593033]","[0.0, 0.0, -0.9066016844299951]",0.9628592876486701,16.190418996035465,"(0.0, 0.0, 0.0, 0.0, 0.0, 0.0)",-2.616982039675733,0.009965290062605858,-0.26568209241480656,"(0.0, 0.0, 0.0, 0.0, 0.0, 0.0)",-0.18775783729375353,-0.9628679942230576,-16.190186820718473,"(0.0, 0.0, 0.0, 0.0, 0.0, 0.0)",2.6169116334278195,-0.010073786659150813,0.26857534621184953,"(0.0, 0.0, 0.0, 0.0, 0.0, 0.0)",0.187722108909745,False,,,,,False,,,,
2,Open,,,,,,"[-0.026750000193715096, 0.05299999937415123, 0.03999999910593033]","[0.0, -0.0, 1.17165497759142]","[-0.09309044480323792, 0.08098116517066956, 0.03999999910593033]","[0.0, -0.0, 1.1781937273122836]","[0.026750000193715096, 0.05299999937415123, 0.03999999910593033]","[0.0, 0.0, -1.1716605985979762]","[0.09309060126543045, 0.08098078519105911, 0.03999999910593033]","[0.0, 0.0, -1.178270796658152]",1.2114894807636634,9.56028051296898,"(0.0, 0.0, 0.0, 0.0, 0.0, 0.0)",-1.549346412635057,0.005885062316220725,-0.15689973638119079,"(0.0, 0.0, 0.0, 0.0, 0.0, 0.0)",-0.11225090666269867,-1.2114946219087734,-9.560143415766044,"(0.0, 0.0, 0.0, 0.0, 0.0, 0.0)",1.5493042197033076,-0.00594912834521185,0.1586081706180975,"(0.0, 0.0, 0.0, 0.0, 0.0, 0.0)",0.11222926703597672,False,,,,,False,,,,
3,Open,,,,,,"[-0.026750000193715096, 0.05299999937415123, 0.03999999910593033]","[0.0, -0.0, 1.3347813147466918]","[-0.09675397723913193, 0.06983575969934464, 0.03999999910593033]","[0.0, -0.0, 1.3386449621367835]","[0.026750000193715096, 0.05299999937415123, 0.03999999910593033]","[0.0, 0.0, -1.3347844615433213]","[0.0967540368437767, 0.06983552873134613, 0.03999999910593033]","[0.0, 0.0, -1.3386905382854437]",1.3583031234961356,5.645250040103052,"(0.0, 0.0, 0.0, 0.0, 0.0, 0.0)",-0.9162890978823036,0.0034783869891320215,-0.09247571818598516,"(0.0, 0.0, 0.0, 0.0, 0.0, 0.0)",-0.06677007440367574,-1.3583061592909116,-5.645169085575695,"(0.0, 0.0, 0.0, 0.0, 0.0, 0.0)",0.9162639666346021,-0.003516216695348753,0.09348456497972772,"(0.0, 0.0, 0.0, 0.0, 0.0, 0.0)",0.06675710630673855,False,,,,,False,,,,
4,Open,,,,,,"[-0.026750000193715096, 0.05299999937415123, 0.03999999910593033]","[0.0, -0.0, 1.4311058207082674]","[-0.09804865717887878, 0.06302504986524582, 0.03999999910593033]","[0.0, -0.0, 1.433390691262394]","[0.026750000193715096, 0.05299999937415123, 0.03999999910593033]","[0.0, 0.0, -1.4311075924426346]","[0.09804867953062057, 0.06302490830421448, 0.03999999910593033]","[0.0, 0.0, -1.433417470845748]",1.4449951113932331,3.333463696180452,"(0.0, 0.0, 0.0, 0.0, 0.0, 0.0)",-0.5415503506795546,0.0020570753203455715,-0.05468855210882702,"(0.0, 0.0, 0.0, 0.0, 0.0, 0.0)",-0.039594115216637325,-1.4449969039996904,-3.3334158933415914,"(0.0, 0.0, 0.0, 0.0, 0.0, 0.0)",0.541535435877482,-0.002079412775410495,0.055284250111531166,"(0.0, 0.0, 0.0, 0.0, 0.0, 0.0)",0.03958639191865308,False,,,,,False,,,,
5,Open,,,,,,"[-0.026750000193715096, 0.05299999937415123, 0.03999999910593033]","[0.0, -0.0, 1.4879842849605203]","[-0.09850326180458069, 0.05895565450191498, 0.03999999910593033]","[0.0, -0.0, 1.4893357278409396]","[0.026750000193715096, 0.05299999937415123, 0.03999999910593033]","[0.0, 0.0, -1.4879853833286059]","[0.09850326925516129, 0.05895556882023811, 0.03999999910593033]","[0.0, 0.0, -1.4893513332680077]",1.4961858633265903,1.9683769779575933,"(0.0, 0.0, 0.0, 0.0, 0.0, 0.0)",-0.31995094896823073,0.0012165319928285922,-0.03234212113369103,"(0.0, 0.0, 0.0, 0.0, 0.0, 0.0)",-0.02343792779000599,-1.4961869218427772,-1.9683487508592754,"(0.0, 0.0, 0.0, 0.0, 0.0, 0.0)",0.31994211580738524,-0.0012297216752996233,0.03269386530715718,"(0.0, 0.0, 0.0, 0.0, 0.0, 0.0)",0.02343334437795369,False,,,,,False,,,,
6,Open,,,,,,"[-0.026750000193715096, 0.05299999937415123, 0.03999999910593033]","[0.0, -0.0, 1.5215704989376362]","[-0.09866278618574142, 0.05654282495379448, 0.03999999910593033]","[0.0, -0.0, 1.522369838325666]","[0.026750000193715096, 0.05299999937415123, 0.03999999910593033]","[0.0, 0.0, -1.5215710825913402]","[0.09866278618574142, 0.0565427765250206, 0.03999999910593033]","[0.0, 0.0, -1.522379029767931]",1.5264134904357183,1.1623069217141797,"(0.0, 0.0, 0.0, 0.0, 0.0, 0.0)",-0.18898727227709852,0.000719444125508032,-0.019126791845346432,"(0.0, 0.0, 0.0, 0.0, 0.0, 0.0)",-0.013859938289241243,-1.5264141154789415,-1.162290253894895,"(0.0, 0.0, 0.0, 0.0, 0.0, 0.0)",0.18898204730565804,-0.0007272322869396521,0.019334487584604668,"(0.0, 0.0, 0.0, 0.0, 0.0, 0.0)",0.013857223880827028,False,,,,,False,,,,
7,Close,,,"(1.2478112216283415e-07, 0.16999960627914334, 0.0003375139776509844)","(1.5703757789650807, 0.0001088681168706304, -5.122612185789874e-06)",,"[-0.026750000193715096, 0.05299999937415123, 0.03999999910593033]","[0.0, -0.0, 1.2785329680082034]","[-0.09569678455591202, 0.07374466955661774, 0.03999999910593033]","[0.0, -0.0, 1.0351044933740032]","[0.026750000193715096, 0.05299999937415123, 0.03999999910593033]","[0.0, 0.0, -1.2785333261376617]","[0.09569679200649261, 0.07374463975429535, 0.03999999910593033]","[0.0, 0.0, -1.0351099865887758]",1.2106796019673873,-16.28478938579699,"(0.0, 0.0, 0.0, 0.0, 0.0, 0.0)",2.809472854136235,-0.3090860149933808,-15.757821278062295,"(0.0, 0.0, 0.0, 0.0, 0.0, 0.0)",0.3661538009495806,-1.2106799710491603,16.284799227977608,"(0.0, 0.0, 0.0, 0.0, 0.0, 0.0)",-2.8094757422584213,0.30908141619234186,15.75794391320213,"(0.0, 0.0, 0.0, 0.0, 0.0, 0.0)",-0.3661552191151056,False,,,,,False,,,,
8,Close,,,"(3.0991841452431125e-07, 0.1699991530873768, 0.0005600347089338349)","(1.5707725584893357, 0.0003276471180493337, -1.5390016504502985e-05)",,"[-0.026750000193715096, 0.05299999937415123, 0.03999999910593033]","[0.0, -0.0, 1.0006670909649218]","[-0.08736184239387512, 0.09186135232448578, 0.03999999910593033]","[0.0, -0.0, 0.48836557737534114]","[0.026750000193715096, 0.05299999937415123, 0.03999999910593033]","[0.0, 0.0, -1.0006671906734346]","[0.08736184984445572, 0.09186133742332458, 0.03999999910593033]","[0.0, 0.0, -0.4883688154364048]",0.9606001981650306,-9.616005284561718,"(0.0, 0.0, 0.0, 0.0, 0.0, 0.0)",1.667253264949997,-0.5510712009946406,-9.304767973476249,"(0.0, 0.0, 0.0, 0.0, 0.0, 0.0)",0.2218037572572205,-0.9606004161041268,9.616011096270952,"(0.0, 0.0, 0.0, 0.0, 0.0, 0.0)",-1.6672550198735234,0.5510684854486152,9.30484038803693,"(0.0, 0.0, 0.0, 0.0, 0.0, 0.0)",-0.22180464092959223,False,,,,,False,,,,
9,Close,,,"(2.933853975158492e-07, 0.16999904048792538, 0.0007066062154399696)","(1.5708337628024795, 0.00026866528465535426, -1.404448202163588e-05)",,"[-0.026750000193715096, 0.05299999937415123, 0.03999999910593033]","[0.0, -0.0, 0.8365897781630613]","[-0.08020010590553284, 0.1012398824095726, 0.03999999910593033]","[0.0, -0.0, 0.16552144688028117]","[0.026750000193715096, 0.05299999937415123, 0.03999999910593033]","[0.0, 0.0, -0.8365899294750984]","[0.08020011335611343, 0.101239874958992, 0.03999999910593033]","[0.0, 0.0, -0.1655233971102189]",0.8129308110141114,-5.678154960376304,"(0.0, 0.0, 0.0, 0.0, 0.0, 0.0)",0.9873874064507416,-0.6939616573792659,-5.494397555666588,"(0.0, 0.0, 0.0, 0.0, 0.0, 0.0)",0.13292457281458034,-0.8129309397049683,5.678158392132489,"(0.0, 0.0, 0.0, 0.0, 0.0, 0.0)",-0.987388459985631,0.6939600538790082,5.494440315842426,"(0.0, 0.0, 0.0, 0.0, 0.0, 0.0)",-0.13292511074891808,False,,,,,False,,,,
10,Close,,,"(1.9902477861274505e-07, 0.16999905216518962, 0.0008031506137060285)","(1.5708213694470277, 0.0001751880104672085, -1.4031272711042213e-05)",,"[-0.026750000193715096, 0.05299999937415123, 0.03999999910593033]","[0.0, -0.0, 0.7397039398326887]","[-0.075282983481884, 0.10618411004543304, 0.03999999910593033]","[0.0, 0.0, -0.025114755601520013]","[0.026750000193715096, 0.05299999937415123, 0.03999999910593033]","[0.0, 0.0, -0.7397039829241547]","[0.0752829909324646, 0.10618410259485245, 0.03999999910593033]","[0.0, -0.0, 0.025113617980755978]",0.7257335145957226,-3.3528937225526034,"(0.0, 0.0, 0.0, 0.0, 0.0, 0.0)",0.5840196078844049,-0.7783380408184963,-3.244652289205478,"(0.0, 0.0, 0.0, 0.0, 0.0, 0.0)",0.07914031685893824,-0.7257335905863868,3.3528957489703144,"(0.0, 0.0, 0.0, 0.0, 0.0, 0.0)",-0.5840202358821991,0.778337093974245,3.2446775397467595,"(0.0, 0.0, 0.0, 0.0, 0.0, 0.0)",-0.07914064000385382,False,,,,,False,,,,
11,Close,,,"(1.3069317882946781e-07, 0.16999905849316785, 0.0008666025578373041)","(1.570813038524343, 0.0001076496945073061, -1.4014808324094979e-05)",,"[-0.026750000193715096, 0.05299999937415123, 0.03999999910593033]","[0.0, -0.0, 0.6824937890365349]","[-0.07216256856918335, 0.10887216031551361, 0.03999999910593033]","[0.0, 0.0, -0.137687120736303]","[0.026750000193715096, 0.05299999937415123, 0.03999999910593033]","[0.0, 0.0, -0.6824937890365349]","[0.07216257601976395, 0.10887216031551361, 0.03999999910593033]","[0.0, -0.0, 0.1376864353718678]",0.6742443830336282,-1.9798502142300851,"(0.0, 0.0, 0.0, 0.0, 0.0, 0.0)",0.34523008433021124,-0.8281635344937409,-1.9158370237869804,"(0.0, 0.0, 0.0, 0.0, 0.0, 0.0)",0.046989708289177236,-0.6742444279053555,1.9798514108094807,"(0.0, 0.0, 0.0, 0.0, 0.0, 0.0)",-0.3452304573414294,0.8281629754068567,1.9158519335829844,"(0.0, 0.0, 0.0, 0.0, 0.0, 0.0)",-0.04698990114977892,False,,,,,False,,,,
12,Close,,,"(8.555941999099156e-08, 0.16999906193922792, 0.000908421947806545)","(1.5708075491537519, 6.311807488844542e-05, -1.4000595358663434e-05)",,"[-0.026750000193715096, 0.05299999937415123, 0.03999999910593033]","[0.0, -0.0, 0.6487117277688945]","[-0.070249542593956, 0.11037412285804749, 0.03999999910593033]","[0.0, 0.0, -0.20415830575541527]","[0.026750000193715096, 0.05299999937415123, 0.03999999910593033]","[0.0, 0.0, -0.6487117277688945]","[0.070249542593956, 0.11037411540746689, 0.03999999910593033]","[0.0, -0.0, 0.20415788801885543]",0.6438405657375271,-1.1690817530007243,"(0.0, 0.0, 0.0, 0.0, 0.0, 0.0)",0.20397674457790932,-0.8575834812137779,-1.1312243968345508,"(0.0, 0.0, 0.0, 0.0, 0.0, 0.0)",0.027828964636992654,-0.6438405922338334,1.1690824595688907,"(0.0, 0.0, 0.0, 0.0, 0.0, 0.0)",-0.20397696556653716,0.8575831510875931,1.1312332006820753,"(0.0, 0.0, 0.0, 0.0, 0.0, 0.0)",-0.027829079200348807,False,,,,,False,,,,
13,Close,,,"(5.567361934631568e-08, 0.16999906349286917, 0.0009359839309479349)","(1.5708039321322358, 3.37560108188707e-05, -1.3987283228090085e-05)",,"[-0.026750000193715096, 0.05299999937415123, 0.03999999910593033]","[0.0, -0.0, 0.62876384308693]","[-0.06909646838903427, 0.11123037338256836, 0.03999999910593033]","[0.0, 0.0, -0.24340789693353326]","[0.026750000193715096, 0.05299999937415123, 0.03999999910593033]","[0.0, 0.0, -0.62876384308693]","[0.06909646838903427, 0.11123037338256836, 0.03999999910593033]","[0.0, -0.0, 0.24340764580603796]",0.6258874156623524,-0.6903310843293964,"(0.0, 0.0, 0.0, 0.0, 0.0, 0.0)",0.12048853373387189,-0.8749547691894786,-0.6679421640099914,"(0.0, 0.0, 0.0, 0.0, 0.0, 0.0)",0.016461146679105913,-0.6258874313081562,0.6903315015508323,"(0.0, 0.0, 0.0, 0.0, 0.0, 0.0)",-0.12048866447898966,0.8749545742586229,0.6679473624521103,"(0.0, 0.0, 0.0, 0.0, 0.0, 0.0)",-0.016461214564379854,False,,,,,False,,,,
14,Move,,,"(0.0002849434880139787, 0.17128526654835666, 0.0018667775255450016)","(1.529867145493542, 0.001236551690390913, -0.0026252758006009144)","[0.0, 0.0, 0.0]","[-0.026750000193715096, 0.05299999937415123, 0.03999999910593033]","[0.0, -0.0, 0.5674368798319164]","[-0.06544800847768784, 0.113716259598732, 0.03999999910593033]","[0.0, 0.0, -0.23086444862254737]","[0.026750000193715096, 0.05299999937415123, 0.03999999910593033]","[0.0, 0.0, -0.5672775113046467]","[0.06543833017349243, 0.11372242867946625, 0.03999999910593033]","[0.0, -0.0, 0.2338230653212545]",0.5526433844132694,-3.5504372063580854,"(0.0, 0.0, 0.0, 0.0, 0.0, 0.0)",-74.66311326449657,-0.7739535469156117,5.843468067207706,"(0.0, 0.0, 0.0, 0.0, 0.0, 0.0)",-38.567738900473906,-0.5523653530093062,3.5789086898164406,"(0.0, 0.0, 0.0, 0.0, 0.0, 0.0)",70.97380681712595,0.7784689212282292,-5.431581853362886,"(0.0, 0.0, 0.0, 0.0, 0.0, 0.0)",36.631671368390464,True,"(-0.031139027298926508, 0.18549673152317092, 0.03999924353386678)","(0.9999971505660776, -0.0022642037706561637, -0.0007564661332230728)",-0.000503181178828863,565.4925793008347,True,"(0.030917119596597424, 0.1854085662421605, 0.04000075646613322)","(-0.9999971505660776, 0.002264203770598743, 0.0007564661332168607)",-0.0013606486484191646,538.0249494895718
15,Move,"(0.0028, 0.0, -0.0019)","(0.0, 0.03882310388136187, 0.0)","(0.0005780628238537767, 0.17126252666797676, 0.0030028588694804527)","(1.4949194286567633, 0.0013193599814901576, 0.0039650917319327995)","[0.000293119335839798, -2.273988037990171e-05, 0.001136081343935451]","[-0.026750000193715096, 0.05299999937415123, 0.03999999910593033]","[0.0, -0.0, 0.5420916559927815]","[-0.06389687955379486, 0.11467745900154114, 0.03999999910593033]","[0.0, 0.0, -0.21395784687103242]","[0.026750000193715096, 0.05299999937415123, 0.03999999910593033]","[0.0, 0.0, -0.5455747641314901]","[0.06411148607730865, 0.11454769968986511, 0.03999999910593033]","[0.0, -0.0, 0.21662390000266768]",0.5428404511996617,0.17971422515264135,"(0.0, 0.0, 0.0, 0.0, 0.0, 0.0)",-1.3737509408149413,-0.7572568735318561,-0.2897817248794073,"(0.0, 0.0, 0.0, 0.0, 0.0, 0.0)",-0.7530943566914505,-0.5473715866608442,-0.4312287159287804,"(0.0, 0.0, 0.0, 0.0, 0.0, 0.0)",1.1247164695053866,0.7632457682443643,0.25130295960824717,"(0.0, 0.0, 0.0, 0.0, 0.0, 0.0)",0.615837081441048,True,"(-0.030806204647747276, 0.18701533461254233, 0.03999855644811485)","(0.9999963668524031, 0.002276497298233459, -0.0014435518851535988)",-0.0006256372442889353,10.09453514368415,True,"(0.030828074157813565, 0.18679520647120484, 0.04000144355188518)","(-0.9999963668524031, -0.0022764972981876228, 0.0014435518851832001)",-0.0016608115429468308,7.949370593294702
16,Move,"(0.0048, 0.0, -0.0057)","(0.0, 0.008576547944300137, 0.0)","(0.0009262164729767693, 0.17161343534272946, 0.002942552804938424)","(1.5010739315815635, 0.0010850610091179488, 0.004617367730922326)","[0.0006412729849627906, 0.0003281687943728073, 0.0010757752793934222]","[-0.026750000193715096, 0.05299999937415123, 0.03999999910593033]","[0.0, -0.0, 0.5403213142214854]","[-0.06378763169050217, 0.11474312841892242, 0.03999999910593033]","[0.0, 0.0, -0.2139439766236362]","[0.026750000193715096, 0.05299999937415123, 0.03999999910593033]","[0.0, 0.0, -0.5505868712693623]","[0.06441950052976608, 0.11435966938734055, 0.03999999910593033]","[0.0, -0.0, 0.2097654536632073]",0.5394560691390311,-0.20765016448750195,"(0.0, 0.0, 0.0, 0.0, 0.0, 0.0)",-3.0984223935077955,-0.75320177659463,0.2552393801464373,"(0.0, 0.0, 0.0, 0.0, 0.0, 0.0)",-1.6653398552532368,-0.5510238334758124,-0.10486740269589043,"(0.0, 0.0, 0.0, 0.0, 0.0, 0.0)",3.2242342953730065,0.7592094501767329,-0.2742987770063372,"(0.0, 0.0, 0.0, 0.0, 0.0, 0.0)",1.7207287204234785,True,"(-0.03069796191158851, 0.18708383455204566, 0.0399988915387219)","(0.9999884979030662, 0.004666409236684013, -0.0011084612780913026)",-0.0004366279576539594,23.324773034125474,True,"(0.0316323668346081, 0.1868244968135865, 0.04000110846127809)","(-0.9999884979030662, -0.004666409236696678, 0.0011084612780907668)",-0.0011549712365851283,23.923606756796094
17,Move,"(0.0055, 0.0, -0.0063)","(0.0, 0.004593706591249077, 0.0)","(0.0013014882580155065, 0.17258653400015625, 0.002560094843174258)","(1.5239298546905735, 0.0017503357933668843, 0.0034869101855136315)","[0.0010165447700015277, 0.0013012674517995926, 0.0006933173176292564]","[-0.026750000193715096, 0.05299999937415123, 0.03999999910593033]","[0.0, -0.0, 0.535586915976887]","[-0.06349490582942963, 0.11491778492927551, 0.03999999910593033]","[0.0, 0.0, -0.2139165579040868]","[0.026750000193715096, 0.05299999937415123, 0.03999999910593033]","[0.0, 0.0, -0.5533762441657576]","[0.06459050625562668, 0.11425435543060303, 0.03999999910593033]","[0.0, -0.0, 0.20212815429256245]",0.5347570862830272,-0.19916241885547178,"(0.0, 0.0, 0.0, 0.0, 0.0, 0.0)",-2.5562024740707474,-0.7487636138400912,0.17757018420261994,"(0.0, 0.0, 0.0, 0.0, 0.0, 0.0)",-1.3715551512029027,-0.5539055270207914,-0.12701899657118937,"(0.0, 0.0, 0.0, 0.0, 0.0, 0.0)",2.6410564332396005,0.7547819446307238,-0.17339585473801367,"(0.0, 0.0, 0.0, 0.0, 0.0, 0.0)",1.3977970995060325,True,"(-0.03040721573464729, 0.1872583650771767, 0.039998277392660486)","(0.9999918180578357, 0.003660114935119791, -0.0017226073395105776)",-0.00031337662702373,19.246128113808826,True,"(0.03235776819882129, 0.18696084242224376, 0.0400017226073395)","(-0.9999918180578358, -0.003660114935121705, 0.0017226073395018935)",-0.0008432462584027112,19.520732589092177
18,Move,"(0.0105, 0.0, -0.0068)","(0.0, 0.034222415973104825, 0.0)","(0.002025786530680898, 0.1740412506555647, 0.0017197972753002296)","(1.563175668406688, 0.006769867867465941, -0.0009731433745227859)","[0.0017408430426669192, 0.002755984107208037, -0.00014698025024477207]","[-0.026750000193715096, 0.05299999937415123, 0.03999999910593033]","[0.0, -0.0, 0.5275588606366255]","[-0.06299664080142975, 0.11521077901124954, 0.03999999910593033]","[0.0, 0.0, -0.21782324621416538]","[0.026750000193715096, 0.05299999937415123, 0.03999999910593033]","[0.0, 0.0, -0.5592233736183219]","[0.06494801491498947, 0.11403205245733261, 0.03999999910593033]","[0.0, -0.0, 0.19226855499957352]",0.5258232783559444,-0.4165414666819379,"(0.0, 0.0, 0.0, 0.0, 0.0, 0.0)",-2.331944589197,-0.7446594647724045,0.17343515193235085,"(0.0, 0.0, 0.0, 0.0, 0.0, 0.0)",-1.2694780632289269,-0.5605274135906188,-0.3129757605488478,"(0.0, 0.0, 0.0, 0.0, 0.0, 0.0)",2.5238157772581977,0.7507484756334384,-0.17842200412445083,"(0.0, 0.0, 0.0, 0.0, 0.0, 0.0)",1.3290439524453252,True,"(-0.02962661430580911, 0.1874215840864579, 0.03999414010681214)","(0.999982809744141, -0.00020461681277004237, -0.005859893187859935)",-0.0002309915608949487,17.804369359608575,True,"(0.03343368557842935, 0.187046808455624, 0.040005859893187855)","(-0.999982809744141, 0.0002046168127688086, 0.005859893187849293)",-0.0006297829464189723,18.42881459295974
19,Move,"(0.0103, 0.0, -0.0073)","(0.0, 0.034222415973104825, 0.0)","(0.0028658514376018944, 0.17502855828663758, 0.0014066309945214167)","(1.5821214307400921, 0.002341204805811735, -0.022018011441965708)","[0.0025809079495879156, 0.0037432917382809183, -0.00046014653102358495]","[-0.026750000193715096, 0.05299999937415123, 0.03999999910593033]","[0.0, -0.0, 0.5184860252169561]","[-0.0624307282269001, 0.11553706973791122, 0.03999999910593033]","[0.0, 0.0, -0.2221034183452645]","[0.026750000193715096, 0.05299999937415123, 0.03999999910593033]","[0.0, 0.0, -0.5654805262637431]","[0.0653291568160057, 0.11379184573888779, 0.03999999910593033]","[0.0, -0.0, 0.18232843199489068]",0.5169323640294591,-0.37287336773809,"(0.0, 0.0, 0.0, 0.0, 0.0, 0.0)",-2.477293172540627,-0.7397990063301143,0.1896954233353349,"(0.0, 0.0, 0.0, 0.0, 0.0, 0.0)",-1.4782336967363718,-0.566504606700108,-0.24577326472236682,"(0.0, 0.0, 0.0, 0.0, 0.0, 0.0)",2.2865845104931206,0.7470561677014073,-0.18067123516499511,"(0.0, 0.0, 0.0, 0.0, 0.0, 0.0)",1.1096285091967684,True,"(-0.028752080088089778, 0.1875905275838093, 0.03999660418469693)","(0.9998259108661438, -0.01834710873989331, -0.0033958153030754453)",-0.0001490811828255986,18.926213373698925,True,"(0.03454225256162816, 0.18712444973341127, 0.040003395815303086)","(-0.999825910866144, 0.01834710873987996, 0.0033958153030834654)",-0.00047907528268766107,16.616634760428383
20,Move,"(0.007, 0.0, -0.0085)","(0.0, 0.038950512916757454, 0.0)","(0.0035222319198529146, 0.1753179234398786, 0.00132014349005479)","(1.5820262910349028, -0.0004407711354989558, -0.02766332188138794)","[0.0032372884318389358, 0.004032656891521935, -0.0005466340354902117]","[-0.026750000193715096, 0.05299999937415123, 0.03999999910593033]","[0.0, -0.0, 0.5113975708654468]","[-0.06198654696345329, 0.11578842252492905, 0.03999999910593033]","[0.0, 0.0, -0.22467461587397655]","[0.026750000193715096, 0.05299999937415123, 0.03999999910593033]","[0.0, 0.0, -0.5688770378048097]","[0.06553541868925095, 0.11366046220064163, 0.03999999910593033]","[0.0, -0.0, 0.17448239123605092]",0.5102900206472035,-0.26580507896011535,"(0.0, 0.0, 0.0, 0.0, 0.0, 0.0)",-2.6419002730697616,-0.7353287984122755,0.1784083131169551,"(0.0, 0.0, 0.0, 0.0, 0.0, 0.0)",-1.4662075421371668,-0.5692658723584753,-0.09330483072782551,"(0.0, 0.0, 0.0, 0.0, 0.0, 0.0)",2.567056205220219,0.7425245635956125,-0.20038637146136154,"(0.0, 0.0, 0.0, 0.0, 0.0, 0.0)",1.3618844735741322,True,"(-0.028122898236438508, 0.1877483602900319, 0.040000448191947396)","(0.9996189491582331, -0.027599920430465892, 0.0004481919473887732)",-9.783437138464302e-05,19.92876358342442,True,"(0.03532485439854565, 0.18723376674359277, 0.039999551808052626)","(-0.9996189491582331, 0.027599920430464782, -0.00044819194737622946)",-0.0003843858515588329,18.960053834447752
21,Move,"(0.0111, 0.0, -0.009800000000000001)","(0.0, 0.017139133254584316, 0.0)","(0.004400656608309265, 0.1754008092658815, 0.0013115767574678288)","(1.5810553609648392, 0.0001408480358729505, -0.029076943365451993)","[0.004115713120295287, 0.004115542717524845, -0.0005552007680771729]","[-0.026750000193715096, 0.05299999937415123, 0.03999999910593033]","[0.0, -0.0, 0.5027971085842037]","[-0.061445239931344986, 0.11608914285898209, 0.03999999910593033]","[0.0, 0.0, -0.22881349469110482]","[0.026750000193715096, 0.05299999937415123, 0.03999999910593033]","[0.0, 0.0, -0.5728234385169456]","[0.06577450037002563, 0.11350692808628082, 0.03999999910593033]","[0.0, -0.0, 0.1655020037097934]",0.5010464828717511,-0.42015004067556355,"(0.0, 0.0, 0.0, 0.0, 0.0, 0.0)",-2.860330818158222,-0.7306977054232403,0.2190902816104458,"(0.0, 0.0, 0.0, 0.0, 0.0, 0.0)",-1.5905658288938713,-0.5736830199702081,-0.20629647939411536,"(0.0, 0.0, 0.0, 0.0, 0.0, 0.0)",2.9620930785788517,0.737418669193096,-0.21762737192712533,"(0.0, 0.0, 0.0, 0.0, 0.0, 0.0)",1.5806198993199991,True,"(-0.02728396609189894, 0.18791119703637132, 0.03999986007228722)","(0.9995837007068429, -0.028851441930133417, -0.00013992771278029993)",-9.244577989260437e-05,21.735235978755817,True,"(0.03622561367528296, 0.18734084249399233, 0.040000139927712786)","(-0.9995837007068427, 0.028851441930141036, 0.00013992771278734792)",-0.00032795631185335414,21.708041887771508
22,Move,"(0.0105, 0.0, -0.0125)","(0.0, 0.09133133442761127, 0.0)","(0.005381619666791392, 0.17561791176067715, 0.0013106887460784208)","(1.5809869326460804, 0.00014752840863835865, -0.030014878122254944)","[0.0050966761787774135, 0.004332645212320491, -0.0005560887794665808]","[-0.026750000193715096, 0.05299999937415123, 0.03999999910593033]","[0.0, -0.0, 0.49186187962609795]","[-0.06075328588485718, 0.116464763879776, 0.03999999910593033]","[0.0, 0.0, -0.23295647096645902]","[0.026750000193715096, 0.05299999937415123, 0.03999999910593033]","[0.0, 0.0, -0.5763584352625772]","[0.06598815321922302, 0.11336859315633774, 0.03999999910593033]","[0.0, -0.0, 0.1548841221040144]",0.48981359893779264,-0.4915862789947221,"(0.0, 0.0, 0.0, 0.0, 0.0, 0.0)",-4.493617574526987,-0.7234222783353607,0.3350559163889123,"(0.0, 0.0, 0.0, 0.0, 0.0, 0.0)",-2.463480950440243,-0.5768694662477459,-0.1226340869960326,"(0.0, 0.0, 0.0, 0.0, 0.0, 0.0)",4.549198230359184,0.7298150230936873,-0.3426260424823806,"(0.0, 0.0, 0.0, 0.0, 0.0, 0.0)",2.457003308142999,True,"(-0.026294646866555575, 0.1881478428912917, 0.039999854807731786)","(0.9995552287090151, -0.029821530471680187, -0.00014519226821660218)",-9.144880277031756e-05,33.827558829195254,True,"(0.03722453849372161, 0.187502448094332, 0.040000145192268216)","(-0.9995552287090151, 0.02982153047168277, 0.00014519226821430484)",-0.0003183691061468384,33.56990769889288
23,Move,"(0.0136, 0.0, -0.0141)","(0.0, 0.16568410589182173, 0.0)","(0.006774854603340733, 0.17588898687471152, 0.0013065705301606527)","(1.580664278997891, 0.0003278428866230254, -0.03149284263383903)","[0.006489911115326754, 0.004603720326354865, -0.0005602069953843489]","[-0.026750000193715096, 0.05299999937415123, 0.03999999910593033]","[0.0, -0.0, 0.47687513640458284]","[-0.05979837104678154, 0.11696721613407135, 0.03999999910593033]","[0.0, 0.0, -0.2383726304660512]","[0.026750000193715096, 0.05299999937415123, 0.03999999910593033]","[0.0, 0.0, -0.5804259552514861]","[0.06623337417840958, 0.11320849508047104, 0.03999999910593033]","[0.0, -0.0, 0.14082821297858256]",0.47388832212302595,-0.7168318332668513,"(0.0, 0.0, 0.0, 0.0, 0.0, 0.0)",-6.137271317852638,-0.7133439289665993,0.45691716175872044,"(0.0, 0.0, 0.0, 0.0, 0.0, 0.0)",-3.342894558861114,-0.5812566728274378,-0.19936896009206384,"(0.0, 0.0, 0.0, 0.0, 0.0, 0.0)",6.294488235726974,0.7192948306359478,-0.47024117877820726,"(0.0, 0.0, 0.0, 0.0, 0.0, 0.0)",3.423890682042032,True,"(-0.02495185988527618, 0.18846663063834584, 0.03999967558505361)","(0.9995126140921429, -0.03121584574592732, -0.0003244149463965442)",-0.00010525530313968818,46.12530065569352,True,"(0.03851411394944737, 0.18772666002454177, 0.04000032441494641)","(-0.9995126140921431, 0.031215845745924644, 0.00032441494640317195)",-0.00035660306292690716,46.34313168584926
24,Move,"(0.0146, 0.0, -0.0146)","(0.0, 0.18759147866285453, 0.0)","(0.00826463533572002, 0.17619248503816992, 0.0013049054388436128)","(1.5805924587600153, 0.00034315261444532475, -0.032894052916378355)","[0.007979691847706041, 0.004907218489813264, -0.0005618720867013888]","[-0.026750000193715096, 0.05299999937415123, 0.03999999910593033]","[0.0, -0.0, 0.459846594703039]","[-0.05870436131954193, 0.11752068251371384, 0.03999999910593033]","[0.0, 0.0, -0.24428530686913405]","[0.026750000193715096, 0.05299999937415123, 0.03999999910593033]","[0.0, 0.0, -0.584816657029332]","[0.06649735569953918, 0.11303455382585526, 0.03999999910593033]","[0.0, -0.0, 0.12482951467485098]",0.4567928154672483,-0.7328937559247137,"(0.0, 0.0, 0.0, 0.0, 0.0, 0.0)",-6.690384967173166,-0.702103477847677,0.4868036627206787,"(0.0, 0.0, 0.0, 0.0, 0.0, 0.0)",-3.6206964936769945,-0.5855724618876745,-0.18137795076330943,"(0.0, 0.0, 0.0, 0.0, 0.0, 0.0)",6.84342585629606,0.7075354181945213,-0.5065965263268137,"(0.0, 0.0, 0.0, 0.0, 0.0, 0.0)",3.7395862380339273,True,"(-0.023435553219831436, 0.18881730628710144, 0.039999660522176204)","(0.9994674136603211, -0.03263087167017694, -0.0003394778238018421)",-0.00011500311707951685,50.07936623655393,True,"(0.03997319999748721, 0.18797206353751145, 0.04000033947782379)","(-0.9994674136603211, 0.03263087167017847, 0.0003394778237944644)",-0.0004024319017413784,50.31863020180183
25,Move,"(0.0126, 0.0, -0.014199999999999999)","(0.0, 0.19366347913054283, 0.0)","(0.00943473227412732, 0.17648614430154044, 0.0013032493320053002)","(1.5805230338457783, 0.00036032667951082516, -0.03394100457565613)","[0.00914978878611334, 0.005200877753183786, -0.0005635281935397014]","[-0.026750000193715096, 0.05299999937415123, 0.03999999910593033]","[0.0, -0.0, 0.44482912229879445]","[-0.05773186311125755, 0.11799326539039612, 0.03999999910593033]","[0.0, 0.0, -0.24829584542767724]","[0.026750000193715096, 0.05299999937415123, 0.03999999910593033]","[0.0, 0.0, -0.5874556989801889]","[0.06665564328432083, 0.11292945593595505, 0.03999999910593033]","[0.0, -0.0, 0.11067589887096617]",0.44235039786972863,-0.5948937877478169,"(0.0, 0.0, 0.0, 0.0, 0.0, 0.0)",-6.462763689986434,-0.6912013349245837,0.46167704207280474,"(0.0, 0.0, 0.0, 0.0, 0.0, 0.0)",-3.4766695054858476,-0.5877789389702635,-0.07758978755404175,"(0.0, 0.0, 0.0, 0.0, 0.0, 0.0)",6.528504423060148,0.6961109585697103,-0.4849367432995596,"(0.0, 0.0, 0.0, 0.0, 0.0, 0.0)",3.57861721867922,True,"(-0.022177294597513886, 0.18915074332820853, 0.039999643139696485)","(0.9994299301516716, -0.03375925603073461, -0.000356860303508934)",-0.00012052999295307135,48.10904469967088,True,"(0.04119422333173338, 0.1882218451219734, 0.04000035686030351)","(-0.9994299301516714, 0.03375925603073975, 0.00035686030350916677)",-0.0004327179893032841,48.001088577310185
26,Move,"(0.0135, 0.0, -0.016100000000000003)","(0.0, 0.1605144406474145, 0.0)","(0.01046357575820809, 0.17678072507832518, 0.0013016209583450226)","(1.5804527318730024, 0.0003771344350027341, -0.03479071817811406)","[0.01017863227019411, 0.005495458529968522, -0.0005651565671999791]","[-0.026750000193715096, 0.05299999937415123, 0.03999999910593033]","[0.0, -0.0, 0.4313317586342611]","[-0.0568518303334713, 0.11840550601482391, 0.03999999910593033]","[0.0, 0.0, -0.2508401033736111]","[0.026750000193715096, 0.05299999937415123, 0.03999999910593033]","[0.0, 0.0, -0.5886924971676739]","[0.06672973930835724, 0.11288005113601685, 0.03999999910593033]","[0.0, -0.0, 0.09789686484020942]",0.4289681415661603,-0.5672717240644339,"(0.0, 0.0, 0.0, 0.0, 0.0, 0.0)",-6.599167328948702,-0.6802065239962036,0.47168035961339605,"(0.0, 0.0, 0.0, 0.0, 0.0, 0.0)",-3.5348029599610085,-0.5888596117007159,-0.040100835248069636,"(0.0, 0.0, 0.0, 0.0, 0.0, 0.0)",6.640561220731739,0.6845174661147038,-0.4972593143480185,"(0.0, 0.0, 0.0, 0.0, 0.0, 0.0)",3.6494024842439745,True,"(-0.021116278359109363, 0.18947396416025264, 0.03999962640794896)","(0.9994000452478258, -0.034632499009215896, -0.0003735920510408423)",-0.00012362213034280707,48.94744516181106,True,"(0.04223205109340804, 0.18847976111520515, 0.04000037359205104)","(-0.9994000452478257, 0.03463249900921445, 0.0003735920510366663)",-0.00045162146916816106,48.76060545252089
27,Move,"(0.0148, 0.0, -0.0166)","(0.0, 0.12016417367055761, 0.0)","(0.011406080669723559, 0.17704672768668123, 0.0013000702080848067)","(1.580389450321319, 0.00039278281996375813, -0.035560975413938066)","[0.01112113718170958, 0.0057614611383245695, -0.0005667073174601949]","[-0.026750000193715096, 0.05299999937415123, 0.03999999910593033]","[0.0, -0.0, 0.41882414755226227]","[-0.05603142827749252, 0.11877688020467758, 0.03999999910593033]","[0.0, 0.0, -0.2529203171879178]","[0.026750000193715096, 0.05299999937415123, 0.03999999910593033]","[0.0, 0.0, -0.589624773362182]","[0.0667855367064476, 0.11284275352954865, 0.03999999910593033]","[0.0, -0.0, 0.08592437548077775]",0.4166678982118961,-0.5174928743257325,"(0.0, 0.0, 0.0, 0.0, 0.0, 0.0)",-6.12172098625757,-0.6699410157528017,0.4328251232754753,"(0.0, 0.0, 0.0, 0.0, 0.0, 0.0)",-3.270512944337134,-0.5897898064230516,-0.03961721537028934,"(0.0, 0.0, 0.0, 0.0, 0.0, 0.0)",6.144664397014737,0.6736377926620958,-0.4587127556942385,"(0.0, 0.0, 0.0, 0.0, 0.0, 0.0)",3.3795900127917706,True,"(-0.020148066099273568, 0.1897721461187029, 0.03999961042326445)","(0.9993726390940131, -0.03541435387289849, -0.0003895767355510488)",-0.00012356980934981335,45.28515109181955,True,"(0.04319424680139772, 0.1887191581012569, 0.04000038957673554)","(-0.9993726390940132, 0.03541435387289036, 0.00038957673554092633)",-0.00045656357161547083,45.015506163860074
28,Move,"(0.0145, 0.0, -0.0205)","(0.0, 0.07314849428033433, 0.0)","(0.012068757513686867, 0.17736727572692476, 0.001298450435509927)","(1.5803146309935159, 0.00041031091588986503, -0.035928314602625494)","[0.011783814025672888, 0.006082009178568104, -0.0005683270900350746]","[-0.026750000193715096, 0.05299999937415123, 0.03999999910593033]","[0.0, -0.0, 0.40773144685468765]","[-0.055299997329711914, 0.11909763514995575, 0.03999999910593033]","[0.0, 0.0, -0.2528605073817329]","[0.026750000193715096, 0.05299999937415123, 0.03999999910593033]","[0.0, 0.0, -0.5882514226434634]","[0.06670331954956055, 0.11289767920970917, 0.03999999910593033]","[0.0, -0.0, 0.07546283311184063]",0.40584969851283015,-0.45161934171240586,"(0.0, 0.0, 0.0, 0.0, 0.0, 0.0)",-7.001006209603396,-0.6585123880594176,0.4990937332398458,"(0.0, 0.0, 0.0, 0.0, 0.0, 0.0)",-3.7159375546177613,-0.5877973572687271,0.10898121367309797,"(0.0, 0.0, 0.0, 0.0, 0.0, 0.0)",6.9640990281748945,0.6615071754608531,-0.5297040191831612,"(0.0, 0.0, 0.0, 0.0, 0.0, 0.0)",3.845478122973157,True,"(-0.019420904528652354, 0.19009453715599883, 0.0399995933697056)","(0.9993565134647827, -0.035866330273911846, -0.00040663029440309094)",-0.00012523887229624157,51.494056764150315,True,"(0.04390667843759759, 0.18900672564652277, 0.040000406630294416)","(-0.9993565134647825, 0.03586633027391142, 0.0004066302944200893)",-0.00046891150978379533,51.08008970410432
29,Move,"(0.0116, 0.0, -0.0212)","(0.0, 0.025778513051956248, 0.0)","(0.012187892812486655, 0.17771517649402913, 0.00129685920596854)","(1.5802520589229723, 0.0004235067825693405, -0.035628588079371415)","[0.011902949324472676, 0.006429909945672468, -0.0005699183195764616]","[-0.026750000193715096, 0.05299999937415123, 0.03999999910593033]","[0.0, -0.0, 0.4003874073430376]","[-0.05481380969285965, 0.11930552124977112, 0.03999999910593033]","[0.0, 0.0, -0.24917153699432854]","[0.026750000193715096, 0.05299999937415123, 0.03999999910593033]","[0.0, 0.0, -0.5832182374114541]","[0.06640133261680603, 0.11309801787137985, 0.03999999910593033]","[0.0, -0.0, 0.06866792454217961]",0.3993742824216587,-0.24314984879875381,"(0.0, 0.0, 0.0, 0.0, 0.0, 0.0)",-6.563331567513755,-0.6476369831635614,0.4612700795813727,"(0.0, 0.0, 0.0, 0.0, 0.0, 0.0)",-3.449900614402411,-0.5820957962516029,0.2693708130395022,"(0.0, 0.0, 0.0, 0.0, 0.0, 0.0)",6.520934750599036,0.6498477677994376,-0.48919838014499956,"(0.0, 0.0, 0.0, 0.0, 0.0, 0.0)",3.616018097743268,True,"(-0.019196982828241234, 0.19043079660787793, 0.039999579693552605)","(0.9993631304538635, -0.03568132329306995, -0.00042030644739231987)",-0.00012611155279983958,47.9521502357704,True,"(0.04412209537790874, 0.18935323024668493, 0.0400004203064474)","(-0.9993631304538636, 0.03568132329306722, 0.0004203064473950657)",-0.0004766859708222433,47.916277470440846
30,Move,"(0.0094, 0.0, -0.018000000000000002)","(0.0, 0.06938556441303458, 0.0)","(0.012159286945574195, 0.17800915662271038, 0.001295463268914394)","(1.5802038979142634, 0.0004345851892384812, -0.035293777912771454)","[0.011874343457560216, 0.006723890074353728, -0.0005713142566306077]","[-0.026750000193715096, 0.05299999937415123, 0.03999999910593033]","[0.0, -0.0, 0.39574774199290735]","[-0.05450586974620819, 0.11943501979112625, 0.03999999910593033]","[0.0, 0.0, -0.24446550493619923]","[0.026750000193715096, 0.05299999937415123, 0.03999999910593033]","[0.0, 0.0, -0.5776074524451105]","[0.0660635232925415, 0.11331953853368759, 0.03999999910593033]","[0.0, -0.0, 0.06427638780855581]",0.39501760025745863,-0.1752192895174959,"(0.0, 0.0, 0.0, 0.0, 0.0, 0.0)",-5.32375379991688,-0.6386789502136022,0.3682177233686524,"(0.0, 0.0, 0.0, 0.0, 0.0, 0.0)",-2.7930314828392526,-0.5766718836753595,0.2245435923238742,"(0.0, 0.0, 0.0, 0.0, 0.0, 0.0)",5.301193974689702,0.6402331857082182,-0.3961631415909514,"(0.0, 0.0, 0.0, 0.0, 0.0, 0.0)",2.9354566220404834,True,"(-0.01922429768993695, 0.190722751224225, 0.039999567427019135)","(0.9993751469414225, -0.03534301283742169, -0.0004325729808687218)",-0.00012128634528680112,38.790221866116376,True,"(0.04411919447580451, 0.18966713236104799, 0.04000043257298088)","(-0.9993751469414228, 0.03534301283741579, 0.0004325729808789919)",-0.00045749186456012925,38.866284873720126
31,Move,"(0.0032, 0.0, -0.016399999999999998)","(0.0, 0.11331201102722786, 0.0)","(0.011659125934908634, 0.17829011031242722, 0.0012789301293173376)","(1.5801125116189787, -5.8854990586837095e-05, -0.03386376974713076)","[0.011374182446894655, 0.007004843764070567, -0.000587847396227664]","[-0.026750000193715096, 0.05299999937415123, 0.03999999910593033]","[0.0, -0.0, 0.394817946946964]","[-0.0544440932571888, 0.11946079134941101, 0.03999999910593033]","[0.0, 0.0, -0.23746047849092852]","[0.026750000193715096, 0.05299999937415123, 0.03999999910593033]","[0.0, 0.0, -0.569899033780223]","[0.06559738516807556, 0.11362079530954361, 0.03999999910593033]","[0.0, -0.0, 0.06336215220034713]",0.39494210522843964,0.029782902949412684,"(0.0, 0.0, 0.0, 0.0, 0.0, 0.0)",-4.688516323699627,-0.6308747490709801,0.33690119143755914,"(0.0, 0.0, 0.0, 0.0, 0.0, 0.0)",-2.414400002658499,-0.5683026499233953,0.3831303981585233,"(0.0, 0.0, 0.0, 0.0, 0.0, 0.0)",4.659850204418354,0.6318257330913798,-0.34450798192306137,"(0.0, 0.0, 0.0, 0.0, 0.0, 0.0)",2.64102596621425,True,"(-0.019662933657126166, 0.19098823448934593, 0.04000006538741256)","(0.9994207990911455, -0.03403031102564768, 6.53874125647575e-05)",-0.00011151181183431293,33.901769678412116,True,"(0.04372279039243276, 0.18998618763082858, 0.03999993461258743)","(-0.9994207990911455, 0.034030311025652335, -6.538741256684499e-05)",-0.0004253756274396375,34.45551199420161
32,Move,"(0.0024, 0.0, -0.0167)","(0.0, 0.1302259968083049, 0.0)","(0.011100597645118043, 0.1785888032751648, 0.0012775679225897761)","(1.5800267061280449, -2.379269660257249e-05, -0.03293979939510309)","[0.010815654157104063, 0.007303536726808141, -0.0005892096029552255]","[-0.026750000193715096, 0.05299999937415123, 0.03999999910593033]","[0.0, -0.0, 0.39495832535021225]","[-0.054453421384096146, 0.11945690959692001, 0.03999999910593033]","[0.0, 0.0, -0.22928185081635116]","[0.026750000193715096, 0.05299999937415123, 0.03999999910593033]","[0.0, 0.0, -0.5611900633498594]","[0.06506796926259995, 0.11395680904388428, 0.03999999910593033]","[0.0, -0.0, 0.06378802454017604]",0.394932412066181,-0.006227862274657023,"(0.0, 0.0, 0.0, 0.0, 0.0, 0.0)",-4.811350931360846,-0.622798362850386,0.3460410277828517,"(0.0, 0.0, 0.0, 0.0, 0.0, 0.0)",-2.4839003542109843,-0.5596635167266749,0.3663595499474857,"(0.0, 0.0, 0.0, 0.0, 0.0, 0.0)",4.798813879224066,0.6234761806927329,-0.36044535223702534,"(0.0, 0.0, 0.0, 0.0, 0.0, 0.0)",2.709430176072907,True,"(-0.02025863009854241, 0.1912591649374959, 0.040000030783622915)","(0.9994518771609205, -0.03310504934116114, 3.078362291185453e-05)",-0.00010140990219804448,34.76554510510142,True,"(0.04316084060716714, 0.19031238457455502, 0.039999969216377086)","(-0.9994518771609203, 0.033105049341170784, -3.078362291438956e-05)",-0.00040253622125498465,35.36012375102718
33,Move,"(0.0017, 0.0, -0.016800000000000002)","(0.0, 0.13186660630517957, 0.0)","(0.010547395205267002, 0.17887920706938634, 0.001275686508879042)","(1.5799951542690014, 8.214019406464154e-06, -0.03206774635324535)","[0.010262451717253023, 0.007593940521029685, -0.0005910910166659596]","[-0.026750000193715096, 0.05299999937415123, 0.03999999910593033]","[0.0, -0.0, 0.3949210711294573]","[-0.05445094406604767, 0.11945793777704239, 0.03999999910593033]","[0.0, 0.0, -0.2213505014610997]","[0.026750000193715096, 0.05299999937415123, 0.03999999910593033]","[0.0, 0.0, -0.5526666716773779]","[0.06454703211784363, 0.11428119242191315, 0.03999999910593033]","[0.0, -0.0, 0.06408756670802612]",0.3949239270493001,0.0006887997427971073,"(0.0, 0.0, 0.0, 0.0, 0.0, 0.0)",-4.685262378432076,-0.6148672057135685,0.3370416182071496,"(0.0, 0.0, 0.0, 0.0, 0.0, 0.0)",-2.426529825976402,-0.5511543868381634,0.3629586719425517,"(0.0, 0.0, 0.0, 0.0, 0.0, 0.0)",4.6717905004908244,0.6153016988863202,-0.3486192614430624,"(0.0, 0.0, 0.0, 0.0, 0.0, 0.0)",2.6271259539862633,True,"(-0.020826911413557858, 0.19152210981170475, 0.03999999637427714)","(0.9994809536876745, -0.03221526350087195, -3.6257228598732244e-06)",-9.433661457008213e-05,33.78036757829549,True,"(0.042617011858345266, 0.19062960610632257, 0.04000000362572287)","(-0.9994809536876745, 0.03221526350087416, 3.625722865603898e-06)",-0.0003859165834840062,34.33959140102252
34,Move,"(-0.0008, 0.0, -0.0169)","(0.0, 0.12517850461153732, 0.0)","(0.009771575045447022, 0.17915390965613476, 0.0012727089846986252)","(1.579794871064596, -0.00010229090838625012, -0.03083004054770016)","[0.009486631557433043, 0.0078686431077781, -0.0005940685408463765]","[-0.026750000193715096, 0.05299999937415123, 0.03999999910593033]","[0.0, -0.0, 0.3963967627949024]","[-0.05454898625612259, 0.1194169893860817, 0.03999999910593033]","[0.0, 0.0, -0.21231100611512999]","[0.026750000193715096, 0.05299999937415123, 0.03999999910593033]","[0.0, 0.0, -0.5430797098017627]","[0.06395780295133591, 0.1146407276391983, 0.03999999910593033]","[0.0, -0.0, 0.06596097413509248]",0.39679113615722644,0.09464627231845935,"(0.0, 0.0, 0.0, 0.0, 0.0, 0.0)",-4.4186308862816395,-0.6073906101067162,0.3161298381914595,"(0.0, 0.0, 0.0, 0.0, 0.0, 0.0)",-2.2823945648474586,-0.5412724506853892,0.4337423803345637,"(0.0, 0.0, 0.0, 0.0, 0.0, 0.0)",4.362960169919752,0.6076776391807199,-0.32713061114802516,"(0.0, 0.0, 0.0, 0.0, 0.0, 0.0)",2.4635256111733224,True,"(-0.0215779529314375, 0.19177428929385573, 0.040000108901803055)","(0.9995180448038156, -0.03104297427687969, 0.00010890180305723806)",-9.016948586712892e-05,31.69168139004807,True,"(0.04188480920188369, 0.19094862706124446, 0.039999891098196946)","(-0.9995180448038156, 0.031042974276878757, -0.00010890180305536799)",-0.00037202197861849515,32.13104422665158
35,Move,"(-0.0032, 0.0, -0.0171)","(0.0, 0.09982934255557166, 0.0)","(0.00871455820506642, 0.17940430089966045, 0.0012676981784148888)","(1.579380534857277, -0.00035921345611103294, -0.029021594453733337)","[0.00842961471705244, 0.008119034351303789, -0.0005990793471301128]","[-0.026750000193715096, 0.05299999937415123, 0.03999999910593033]","[0.0, -0.0, 0.40024749094025674]","[-0.05480452999472618, 0.1193094477057457, 0.03999999910593033]","[0.0, 0.0, -0.2015028400577023]","[0.026750000193715096, 0.05299999937415123, 0.03999999910593033]","[0.0, 0.0, -0.5318209407340901]","[0.06326145678758621, 0.11505572497844696, 0.03999999910593033]","[0.0, -0.0, 0.07016399117042123]",0.40108013124413433,0.19983998574793835,"(0.0, 0.0, 0.0, 0.0, 0.0, 0.0)",-4.038518057788725,-0.6005501927945074,0.2880253863673307,"(0.0, 0.0, 0.0, 0.0, 0.0, 0.0)",-2.0820513190885066,-0.5297152786658602,0.5053538515515423,"(0.0, 0.0, 0.0, 0.0, 0.0, 0.0)",3.9399407506062314,0.6007514293078969,-0.29603309781125675,"(0.0, 0.0, 0.0, 0.0, 0.0, 0.0)",2.2360581873103307,True,"(-0.022617684695069994, 0.19200982950837242, 0.040000365595551736)","(0.9995710249497946, -0.029285361884565424, 0.0003655955517398678)",-8.64356513472054e-05,28.77861506774906,True,"(0.04086800744039918, 0.19127262326133704, 0.039999634404448266)","(-0.9995710249497947, 0.029285361884558714, -0.00036559555174112634)",-0.00035351528430854024,29.109310788949177
36,Move,"(-0.001, 0.0, -0.0172)","(0.0, 0.12517850461153732, 0.0)","(0.008065380765441981, 0.1796613222558568, 0.0012657664239498364)","(1.5793520256823816, -0.00032323623825762724, -0.02810107490185454)","[0.007780437277428003, 0.008376055707500135, -0.0006010111015951653]","[-0.026750000193715096, 0.05299999937415123, 0.03999999910593033]","[0.0, -0.0, 0.4020155375837951]","[-0.054921723902225494, 0.11925974488258362, 0.03999999910593033]","[0.0, 0.0, -0.19260324809194462]","[0.026750000193715096, 0.05299999937415123, 0.03999999910593033]","[0.0, 0.0, -0.5224585749112762]","[0.06267888098955154, 0.11539483815431595, 0.03999999910593033]","[0.0, -0.0, 0.07230786363381882]",0.4020650806023945,0.011903548745414562,"(0.0, 0.0, 0.0, 0.0, 0.0, 0.0)",-4.265060303400274,-0.5933195850194213,0.31179524310814594,"(0.0, 0.0, 0.0, 0.0, 0.0, 0.0)",-2.214457311122085,-0.5210167633491253,0.34603550367509184,"(0.0, 0.0, 0.0, 0.0, 0.0, 0.0)",4.268094196061715,0.5934465506355213,-0.3167739176125868,"(0.0, 0.0, 0.0, 0.0, 0.0, 0.0)",2.3907403448110554,True,"(-0.023383337580258408, 0.1922358298048822, 0.04000033006510645)","(0.9996008205064748, -0.028250499107233578, 0.00033006510645444643)",-8.082567647418418e-05,30.576764992491935,True,"(0.04012211099125399, 0.19156465545349957, 0.039999669934893546)","(-0.9996008205064747, 0.028250499107241322, -0.0003300651064495376)",-0.00034011340984325933,31.203826879736138
37,Move,"(-0.0013000000000000002, 0.0, -0.0159)","(0.0, 0.1470247908587503, 0.0)","(0.007594851660231754, 0.1798883182474542, 0.0012639114032035477)","(1.5793290151626145, -0.0002895482930794857, -0.027417137885407387)","[0.007309908172217776, 0.00860305169909753, -0.0006028661223414539]","[-0.026750000193715096, 0.05299999937415123, 0.03999999910593033]","[0.0, -0.0, 0.4020090502865477]","[-0.05492129549384117, 0.11925993114709854, 0.03999999910593033]","[0.0, 0.0, -0.18573833687209607]","[0.026750000193715096, 0.05299999937415123, 0.03999999910593033]","[0.0, 0.0, -0.5151713423522974]","[0.062223244458436966, 0.11565499752759933, 0.03999999910593033]","[0.0, -0.0, 0.07267920029653625]",0.40198177278412245,-0.006542536954660899,"(0.0, 0.0, 0.0, 0.0, 0.0, 0.0)",-3.8941017047369564,-0.5865649321625231,0.28378741265067436,"(0.0, 0.0, 0.0, 0.0, 0.0, 0.0)",-2.0216320548597584,-0.5139481638073283,0.2935548105985503,"(0.0, 0.0, 0.0, 0.0, 0.0, 0.0)",3.922191260067926,0.5866594686767127,-0.28584944801345946,"(0.0, 0.0, 0.0, 0.0, 0.0, 0.0)",2.1926535683480304,True,"(-0.0238847736446187, 0.1924446499247986, 0.04000029607066775)","(0.9996207690874033, -0.027535982845506374, 0.0002960706677449689)",-7.633336477895921e-05,27.89360717113107,True,"(0.0396381805682456, 0.1918160951494496, 0.03999970392933225)","(-0.999620769087403, 0.027535982845511304, -0.0002960706677509385)",-0.0003274929696195155,28.59822108091936
38,Move,"(-0.0009000000000000001, 0.0, -0.0162)","(0.0, 0.14520441244892024, 0.0)","(0.007227847603167801, 0.18010395441350097, 0.0012620872657609398)","(1.5793046536746396, -0.0002557066394755156, -0.026871169394523883)","[0.006942904115153823, 0.008818687865144309, -0.0006046902597840618]","[-0.026750000193715096, 0.05299999937415123, 0.03999999910593033]","[0.0, -0.0, 0.40132860385460445]","[-0.05487620458006859, 0.11927907913923264, 0.03999999910593033]","[0.0, 0.0, -0.1797399128833225]","[0.026750000193715096, 0.05299999937415123, 0.03999999910593033]","[0.0, 0.0, -0.5087779353611446]","[0.06182194501161575, 0.11588051170110703, 0.03999999910593033]","[0.0, -0.0, 0.07238411433947034]",0.4011595249961711,-0.0405781919689865,"(0.0, 0.0, 0.0, 0.0, 0.0, 0.0)",-3.8776163119428233,-0.5798736610804966,0.2867635826260282,"(0.0, 0.0, 0.0, 0.0, 0.0, 0.0)",-2.015576672761467,-0.5076832621161743,0.26271971492094703,"(0.0, 0.0, 0.0, 0.0, 0.0, 0.0)",3.924596189985047,0.5799720957413068,-0.28558599996228823,"(0.0, 0.0, 0.0, 0.0, 0.0, 0.0)",2.1872933750178305,True,"(-0.024279363012078295, 0.192643232349679, 0.040000262566752626)","(0.9996363934590374, -0.026963158770981512, 0.0002625667526271009)",-7.270861432431337e-05,27.774639960017723,True,"(0.03925933252640865, 0.19204740054965141, 0.039999737433247376)","(-0.9996363934590375, 0.026963158770968644, -0.00026256675262753234)",-0.00031563194051000253,28.52799174940878
39,Move,"(-0.0029, 0.0, -0.014400000000000001)","(0.0, 0.1708869323920168, 0.0)","(0.00679581448741463, 0.18029587204197633, 0.0012606065745675858)","(1.5792633661885642, -0.00025445258848051937, -0.026341117110932937)","[0.006510870999400652, 0.009010605493619678, -0.0006061709509774158]","[-0.026750000193715096, 0.05299999937415123, 0.03999999910593033]","[0.0, -0.0, 0.4011462075939796]","[-0.05486411228775978, 0.11928421258926392, 0.03999999910593033]","[0.0, 0.0, -0.17379971153739035]","[0.026750000193715096, 0.05299999937415123, 0.03999999910593033]","[0.0, 0.0, -0.5025593843922427]","[0.06143024191260338, 0.11609739065170288, 0.03999999910593033]","[0.0, -0.0, 0.07259314985846499]",0.4011830098862175,0.008835849446865924,"(0.0, 0.0, 0.0, 0.0, 0.0, 0.0)",-3.3827061074604727,-0.5739068342905459,0.24937617281661076,"(0.0, 0.0, 0.0, 0.0, 0.0, 0.0)",-1.754486092584982,-0.5014448229044132,0.26749221807327994,"(0.0, 0.0, 0.0, 0.0, 0.0, 0.0)",3.4243987253197825,0.5741244048814856,-0.2467471473580784,"(0.0, 0.0, 0.0, 0.0, 0.0, 0.0)",1.9130670759603223,True,"(-0.02470373653734474, 0.19282339595690812, 0.04000026101836477)","(0.9996502005661501, -0.02644633013234985, 0.00026101836476858005)",-6.99028820896918e-05,24.144480885147143,True,"(0.03885170188294193, 0.19225925421197848, 0.03999973898163524)","(-0.9996502005661504, 0.02644633013234448, -0.0002610183647599512)",-0.0003019693889960274,24.90804385623088
40,Move,"(-0.003, 0.0, -0.0156)","(0.0, 0.19064405952459257, 0.0)","(0.006477519369331608, 0.18050888933968834, 0.0012587844318951633)","(1.5792331104730182, -0.00021899472959857922, -0.02586697973228949)","[0.00619257588131763, 0.009223622791331682, -0.0006079930936498383]","[-0.026750000193715096, 0.05299999937415123, 0.03999999910593033]","[0.0, -0.0, 0.40015783249373993]","[-0.054798588156700134, 0.11931196600198746, 0.03999999910593033]","[0.0, 0.0, -0.1681242363458895]","[0.026750000193715096, 0.05299999937415123, 0.03999999910593033]","[0.0, 0.0, -0.4964723936075374]","[0.061045531183481216, 0.1163073182106018, 0.03999999910593033]","[0.0, -0.0, 0.07207475380086294]",0.3998730108865915,-0.06836719554965585,"(0.0, 0.0, 0.0, 0.0, 0.0, 0.0)",-4.04717690682576,-0.5670223876756846,0.3023322895126593,"(0.0, 0.0, 0.0, 0.0, 0.0, 0.0)",-2.1102627589109715,-0.49540480591797764,0.25622435245262576,"(0.0, 0.0, 0.0, 0.0, 0.0, 0.0)",4.093854046776002,0.5672931317901946,-0.3009686449038509,"(0.0, 0.0, 0.0, 0.0, 0.0, 0.0)",2.2714670358792444,True,"(-0.02505618720288371, 0.19301596202646987, 0.04000022602833834)","(0.99966324410054, -0.02594893650180404, 0.0002260283383388897)",-6.794784722809046e-05,28.936678724481112,True,"(0.03850644729867615, 0.1924798599872564, 0.039999773971661656)","(-0.9996632441005399, 0.02594893650180958, -0.0002260283383447385)",-0.0002969099453308243,29.641612995389934
41,Move,"(-0.001, 0.0, -0.0157)","(0.0, 0.18024538784121039, 0.0)","(0.006391248375069024, 0.18070527730021682, 0.001256772283979671)","(1.5792095627065181, -0.00017921011645386425, -0.025754786713502002)","[0.006106304887055046, 0.009420010751860164, -0.0006100052415653307]","[-0.026750000193715096, 0.05299999937415123, 0.03999999910593033]","[0.0, -0.0, 0.3974816305537576]","[-0.054621025919914246, 0.11938679218292236, 0.03999999910593033]","[0.0, 0.0, -0.16392798068641842]","[0.026750000193715096, 0.05299999937415123, 0.03999999910593033]","[0.0, 0.0, -0.4918628048394375]","[0.060753341764211655, 0.11646473407745361, 0.03999999910593033]","[0.0, -0.0, 0.06996429602931829]",0.39690676274577463,-0.13797606959236927,"(0.0, 0.0, 0.0, 0.0, 0.0, 0.0)",-3.9018321534735896,-0.5602186972661785,0.28582753776482667,"(0.0, 0.0, 0.0, 0.0, 0.0, 0.0)",-2.0423803846330753,-0.4911690340693183,0.16649414675607208,"(0.0, 0.0, 0.0, 0.0, 0.0, 0.0)",3.9108405933570674,0.5606442264305341,-0.28387620662779733,"(0.0, 0.0, 0.0, 0.0, 0.0, 0.0)",2.148992451496555,True,"(-0.025188258886365916, 0.19321092945238577, 0.040000186578870514)","(0.9996678782334754, -0.02577010703327448, 0.00018657887051816955)",-6.774713191886585e-05,27.94334209978439,True,"(0.038375008308518206, 0.19268238712235708, 0.039999813421129474)","(-0.9996678782334754, 0.02577010703327604, -0.00018657887052137532)",-0.00029647427255231803,28.15838096240553
42,Move,"(-0.0019, 0.0, -0.0172)","(0.0, 0.11675554564141268, 0.0)","(0.006003776490531404, 0.18087328412614867, 0.0012527212403197856)","(1.578898062644303, -0.00036387140952962846, -0.024978264996832523)","[0.005718833002517426, 0.009588017577792013, -0.000614056285225216]","[-0.026750000193715096, 0.05299999937415123, 0.03999999910593033]","[0.0, -0.0, 0.39651787109067305]","[-0.05455702915787697, 0.11941362172365189, 0.03999999910593033]","[0.0, 0.0, -0.15863301888267908]","[0.026750000193715096, 0.05299999937415123, 0.03999999910593033]","[0.0, 0.0, -0.4862324690953926]","[0.06039547920227051, 0.11665517836809158, 0.03999999910593033]","[0.0, -0.0, 0.06949296081096785]",0.3965512114321843,0.008000425170338884,"(0.0, 0.0, 0.0, 0.0, 0.0, 0.0)",-3.493746623660807,-0.5540761536962467,0.2579364065989833,"(0.0, 0.0, 0.0, 0.0, 0.0, 0.0)",-1.8165669723336888,-0.4850713588115708,0.2786558601714616,"(0.0, 0.0, 0.0, 0.0, 0.0, 0.0)",3.53450680608651,0.5546585563360605,-0.25603877790963747,"(0.0, 0.0, 0.0, 0.0, 0.0, 0.0)",1.968045787603005,True,"(-0.02551567581504534, 0.19338795622380656, 0.040000370449683666)","(0.9996851110518943, -0.025090665758277442, 0.00037044968367156556)",-6.779338165931241e-05,24.83418958731139,True,"(0.03805303977128261, 0.19288221876452538, 0.03999962955031632)","(-0.9996851110518946, 0.025090665758265872, -0.0003704496836806607)",-0.0002908174804713881,25.59735153817484
43,Move,"(0.0025, 0.0, -0.0176)","(0.0, 0.10333396369357628, 0.0)","(0.0060283019671790216, 0.18103351316843916, 0.0012350539652706551)","(1.5787262397835917, 0.00021490752311868167, -0.025046606214047185)","[0.005743358479165043, 0.009748246620082501, -0.0006317235602743465]","[-0.026750000193715096, 0.05299999937415123, 0.03999999910593033]","[0.0, -0.0, 0.3937710180133528]","[-0.05437449738383293, 0.11948975175619125, 0.03999999910593033]","[0.0, 0.0, -0.15530031555981735]","[0.026750000193715096, 0.05299999937415123, 0.03999999910593033]","[0.0, 0.0, -0.482557790975165]","[0.06016134098172188, 0.11677838861942291, 0.03999999910593033]","[0.0, -0.0, 0.06713753774509026]",0.3930114008444781,-0.18231290551399007,"(0.0, 0.0, 0.0, 0.0, 0.0, 0.0)",-3.6008763118744387,-0.5480288187892045,0.2502088221384401,"(0.0, 0.0, 0.0, 0.0, 0.0, 0.0)",-1.9346838115413831,-0.48216576822627205,0.09407649499051195,"(0.0, 0.0, 0.0, 0.0, 0.0, 0.0)",3.531469370736303,0.5485597247780041,-0.2725373754257987,"(0.0, 0.0, 0.0, 0.0, 0.0, 0.0)",1.8928467598136332,True,"(-0.025579915397275964, 0.1935571694447931, 0.03999978517669462)","(0.999686141007535, -0.025051413700831245, -0.00021482330538267986)",-6.906283034547745e-05,25.812927458798434,True,"(0.03799844658692916, 0.1930554451643165, 0.040000214823305395)","(-0.999686141007535, 0.025051413700833452, 0.00021482330539355577)",-0.0002799593934300338,25.21649901093592
44,Move,"(0.0035, 0.0, -0.0177)","(0.0, 0.06454576639725429, 0.0)","(0.006107998685124602, 0.18118083850797456, 0.0012353967210435952)","(1.5786141672222282, 0.00021083529287487286, -0.024915837402458427)","[0.0058230551971106236, 0.009895571959617905, -0.0006313808045014064]","[-0.026750000193715096, 0.05299999937415123, 0.03999999910593033]","[0.0, -0.0, 0.3902404311599822]","[-0.054139573127031326, 0.11958687007427216, 0.03999999910593033]","[0.0, 0.0, -0.15340378021474796]","[0.026750000193715096, 0.05299999937415123, 0.03999999910593033]","[0.0, 0.0, -0.48013044862300863]","[0.060006432235240936, 0.11685929447412491, 0.03999999910593033]","[0.0, -0.0, 0.0636587753661975]",0.38967925794918434,-0.13467470599365866,"(0.0, 0.0, 0.0, 0.0, 0.0, 0.0)",-3.227429218018897,-0.5427120794806742,0.22370612957586838,"(0.0, 0.0, 0.0, 0.0, 0.0, 0.0)",-1.7255211928010183,-0.4796776194960839,0.1086818561133607,"(0.0, 0.0, 0.0, 0.0, 0.0, 0.0)",3.1844140875327276,0.5427847175484787,-0.24108243648677477,"(0.0, 0.0, 0.0, 0.0, 0.0, 0.0)",1.707365294682567,True,"(-0.025485558436667347, 0.193706980487315, 0.039999788389096236)","(0.9996889671287055, -0.024938408569262247, -0.00021161090377027782)",-6.58237129441361e-05,23.07307288493683,True,"(0.038108927866850564, 0.19320940382685947, 0.04000021161090376)","(-0.999688967128705, 0.02493840856927781, 0.0002116109037591262)",-0.0002670596562783816,22.73934295215781
45,Move,"(0.0054, 0.0, -0.016800000000000002)","(0.0, 0.13688617323391528, 0.0)","(0.006663405531050346, 0.18128531277380056, 0.0012304363034378746)","(1.5779967524982894, 0.0005525517880730782, -0.025785775538857924)","[0.0063784620430363675, 0.010000046225443898, -0.0006363412221071271]","[-0.026750000193715096, 0.05299999937415123, 0.03999999910593033]","[0.0, -0.0, 0.3839052696608007]","[-0.05371719226241112, 0.11975904554128647, 0.03999999910593033]","[0.0, 0.0, -0.1540725722210068]","[0.026750000193715096, 0.05299999937415123, 0.03999999910593033]","[0.0, 0.0, -0.4802083105032199]","[0.06001140549778938, 0.11685670167207718, 0.03999999910593033]","[0.0, -0.0, 0.057503485719644004]",0.38248744271322016,-0.34028191161174687,"(0.0, 0.0, 0.0, 0.0, 0.0, 0.0)",-3.588486454496081,-0.536896434116704,0.25954448219306675,"(0.0, 0.0, 0.0, 0.0, 0.0, 0.0)",-1.9542635665803882,-0.4804583334849557,-0.05999151027070385,"(0.0, 0.0, 0.0, 0.0, 0.0, 0.0)",3.5453666712855436,0.5365952686089156,-0.26797968992938626,"(0.0, 0.0, 0.0, 0.0, 0.0, 0.0)",1.894026131277782,True,"(-0.02501361212454347, 0.19385993360732456, 0.039999448731642843)","(0.9996707721209638, -0.02565235798663327, -0.000551268357155857)",-6.703518663530821e-05,25.864175503020736,True,"(0.03858411724018489, 0.19333471195219376, 0.040000551268357165)","(-0.999670772120964, 0.025652357986629227, 0.0005512683571581772)",-0.00026269940562202964,25.080092079074152
46,Move,"(0.0075, 0.0, -0.016800000000000002)","(0.0, 0.18235898156537556, 0.0)","(0.0076556403483139445, 0.18140343879285342, 0.001225388581349212)","(1.5775546233180333, 0.00082673926706785, -0.027039008882345388)","[0.007370696860299966, 0.010118172244496765, -0.0006413889441957896]","[-0.026750000193715096, 0.05299999937415123, 0.03999999910593033]","[0.0, -0.0, 0.37363260166342516]","[-0.05302998423576355, 0.12003254890441895, 0.03999999910593033]","[0.0, 0.0, -0.15763438845546293]","[0.026750000193715096, 0.05299999937415123, 0.03999999910593033]","[0.0, 0.0, -0.4830202499839903]","[0.0601908341050148, 0.1167629286646843, 0.03999999910593033]","[0.0, -0.0, 0.04761342031981438]",0.3715932558891773,-0.4894397823393864,"(0.0, 0.0, 0.0, 0.0, 0.0, 0.0)",-4.214933636603281,-0.5299818658637111,0.3084236183151427,"(0.0, 0.0, 0.0, 0.0, 0.0, 0.0)",-2.286906023507251,-0.4836465415692238,-0.15031041639477383,"(0.0, 0.0, 0.0, 0.0, 0.0, 0.0)",4.25977674830182,0.5293040652597678,-0.31910376823022135,"(0.0, 0.0, 0.0, 0.0, 0.0, 0.0)",2.2838450955123983,True,"(-0.024062590137853737, 0.1940331074891362, 0.039999175151374876)","(0.99963963291855, -0.026831398085311056, -0.0008248486251182792)",-7.122642320110927e-05,30.42310747228478,True,"(0.03952067951575495, 0.19344039980535907, 0.04000082484862512)","(-0.99963963291855, 0.026831398085306737, 0.0008248486251201333)",-0.0002725138030047543,30.043201518223803
47,Move,"(0.004200000000000001, 0.0, -0.0162)","(0.0, 0.18759147866285453, 0.0)","(0.008257601404298522, 0.18155258651282452, 0.0012244065145724558)","(1.5775219317277203, 0.0008302625504881513, -0.027582209750091916)","[0.007972657916284542, 0.010267319964467864, -0.0006423710109725459]","[-0.026750000193715096, 0.05299999937415123, 0.03999999910593033]","[0.0, -0.0, 0.3650951473862289]","[-0.052456747740507126, 0.12025446444749832, 0.03999999910593033]","[0.0, 0.0, -0.15947424425539372]","[0.026750000193715096, 0.05299999937415123, 0.03999999910593033]","[0.0, 0.0, -0.4841579333497079]","[0.06026335060596466, 0.11672484129667282, 0.03999999910593033]","[0.0, -0.0, 0.03937457358493331]",0.36384157310967885,-0.30085507587570587,"(0.0, 0.0, 0.0, 0.0, 0.0, 0.0)",-3.9493982922914155,-0.5234114791888845,0.2778920020562641,"(0.0, 0.0, 0.0, 0.0, 0.0, 0.0)",-2.122860674503608,-0.4841430884974701,0.0035589282880550506,"(0.0, 0.0, 0.0, 0.0, 0.0, 0.0)",3.8965258934065745,0.5223144798775898,-0.2923232055696505,"(0.0, 0.0, 0.0, 0.0, 0.0, 0.0)",2.0957702186412352,True,"(-0.023353218199598267, 0.19420278324288176, 0.03999917085125788)","(0.9996216696389103, -0.027492364406881076, -0.0008291487421210422)",-7.093549725661109e-05,28.28224915704203,True,"(0.040225389793303444, 0.19356243384622435, 0.040000829148742124)","(-0.9996216696389102, 0.027492364406890367, 0.0008291487421183385)",-0.00027690526113742037,27.601745071224848
48,Move,"(0.0054, 0.0, -0.016399999999999998)","(0.0, 0.19064405952459257, 0.0)","(0.008898624014476431, 0.18169583667865374, 0.001223214457404335)","(1.5774730148010996, 0.0008399663456071737, -0.02812714487149758)","[0.008613680526462452, 0.010410570130297087, -0.0006435630681406667]","[-0.026750000193715096, 0.05299999937415123, 0.03999999910593033]","[0.0, -0.0, 0.35724486097611335]","[-0.05192799121141434, 0.12045419961214066, 0.03999999910593033]","[0.0, 0.0, -0.1607501359625277]","[0.026750000193715096, 0.05299999937415123, 0.03999999910593033]","[0.0, 0.0, -0.4847175947583583]","[0.06029901280999184, 0.11670607328414917, 0.03999999910593033]","[0.0, -0.0, 0.03180979758048376]",0.3557727349283002,-0.3533033570890357,"(0.0, 0.0, 0.0, 0.0, 0.0, 0.0)",-4.036856866588167,-0.5167931355383517,0.28843908427531784,"(0.0, 0.0, 0.0, 0.0, 0.0, 0.0)",-2.169924800738236,-0.4848747266309706,-0.03771331080586842,"(0.0, 0.0, 0.0, 0.0, 0.0, 0.0)",4.009161885728869,0.5152660409501977,-0.30272249292652326,"(0.0, 0.0, 0.0, 0.0, 0.0, 0.0)",2.1578861693415723,True,"(-0.02273011446834149, 0.19436608406256325, 0.03999916138788854)","(0.9996074383256036, -0.02800474913030232, -0.0008386121114673243)",-7.361276544116794e-05,28.921224526603538,True,"(0.04084265432943271, 0.19368600153276266, 0.040000838612111456)","(-0.9996074383256035, 0.028004749130305345, 0.0008386121114568001)",-0.0002795289128170606,28.328389457525343
49,Move,"(0.0107, 0.0, -0.0181)","(0.0, 0.16568410589182173, 0.0)","(0.009959413775154101, 0.18179151857558426, 0.0012174551416585671)","(1.5769627396257084, 0.0011609468729114163, -0.029487855969426595)","[0.009674470287140122, 0.010506252027227603, -0.0006493223838864345]","[-0.026750000193715096, 0.05299999937415123, 0.03999999910593033]","[0.0, -0.0, 0.34644300380060195]","[-0.05119790881872177, 0.1207222267985344, 0.03999999910593033]","[0.0, 0.0, -0.16448732431319102]","[0.026750000193715096, 0.05299999937415123, 0.03999999910593033]","[0.0, 0.0, -0.4876740768928695]","[0.060487210750579834, 0.11660660803318024, 0.03999999910593033]","[0.0, -0.0, 0.021355978928377338]",0.3442891960677602,-0.5169159627665947,"(0.0, 0.0, 0.0, 0.0, 0.0, 0.0)",-4.356827125545735,-0.5096129982650545,0.3161646629405641,"(0.0, 0.0, 0.0, 0.0, 0.0, 0.0)",-2.355687760001728,-0.4883866073228208,-0.17100732668493238,"(0.0, 0.0, 0.0, 0.0, 0.0, 0.0)",4.395537216602987,0.5076594115216257,-0.32895424770516435,"(0.0, 0.0, 0.0, 0.0, 0.0, 0.0)",2.364368288061306,True,"(-0.02172393706009423, 0.1945269542522577, 0.03999884111132829)","(0.9995710645545697, -0.02926335391391025, -0.0011588886717070767)",-7.67059534234221e-05,31.328853831216023,True,"(0.04183632545526034, 0.19377652989043398, 0.04000115888867171)","(-0.9995710645545698, 0.02926335391391079, 0.0011588886717161036)",-0.0002883359106575048,30.88202518323981
50,Move,"(0.012, 0.0, -0.021)","(0.0, 0.08996648695255173, 0.0)","(0.010767997687658605, 0.18193018875633418, 0.0012163592532931794)","(1.5769197642632065, 0.0011689905494469877, -0.030267959015443335)","[0.010483054199644626, 0.010644922207977525, -0.0006504182722518223]","[-0.026750000193715096, 0.05299999937415123, 0.03999999910593033]","[0.0, -0.0, 0.33631293519726685]","[-0.05051063746213913, 0.12096640467643738, 0.03999999910593033]","[0.0, 0.0, -0.16727030474109875]","[0.026750000193715096, 0.05299999937415123, 0.03999999910593033]","[0.0, 0.0, -0.4897126686831376]","[0.060616809874773026, 0.11653769761323929, 0.03999999910593033]","[0.0, -0.0, 0.011568838516238328]",0.3346890125810788,-0.3897439134625609,"(0.0, 0.0, 0.0, 0.0, 0.0, 0.0)",-4.417943866982588,-0.5022765692175579,0.3136015563819554,"(0.0, 0.0, 0.0, 0.0, 0.0, 0.0)",-2.3626344029637814,-0.4898964682023568,-0.04411167715959034,"(0.0, 0.0, 0.0, 0.0, 0.0, 0.0)",4.404035076755332,0.49989954486618,-0.33167074002503255,"(0.0, 0.0, 0.0, 0.0, 0.0, 0.0)",2.380619647705643,True,"(-0.020831323229906856, 0.19469073403521542, 0.03999883270746663)","(0.9995451659373326, -0.03013467569846958, -0.0011672925333656708)",-7.65851815943023e-05,31.56670767552229,True,"(0.04272176894222893, 0.19387755124819228, 0.04000116729253338)","(-0.9995451659373326, 0.030134675698464623, 0.0011672925333762558)",-0.0002947248605124233,31.059996339720403
51,Move,"(0.009800000000000001, 0.0, -0.0257)","(0.0, 0.025778513051956248, 0.0)","(0.010910005991273236, 0.182156700868815, 0.0012152417217108464)","(1.5768834171959651, 0.0011632318413953395, -0.030043595024667694)","[0.010625062503259257, 0.01087143432045834, -0.0006515358038341552]","[-0.026750000193715096, 0.05299999937415123, 0.03999999910593033]","[0.0, -0.0, 0.3300621802033046]","[-0.05008533596992493, 0.1211135983467102, 0.03999999910593033]","[0.0, 0.0, -0.16525091029680325]","[0.026750000193715096, 0.05299999937415123, 0.03999999910593033]","[0.0, 0.0, -0.48652194122499265]","[0.0604139044880867, 0.1166454330086708, 0.03999999910593033]","[0.0, -0.0, 0.005665775070115461]",0.3292126655114541,-0.20388707123930555,"(0.0, 0.0, 0.0, 0.0, 0.0, 0.0)",-5.367055065023458,-0.49369366699367523,0.388666498436654,"(0.0, 0.0, 0.0, 0.0, 0.0, 0.0)",-2.8240261964273374,-0.48556681208855024,0.2292242640742572,"(0.0, 0.0, 0.0, 0.0, 0.0, 0.0)",5.345910452917712,0.49050410582759185,-0.4040599023005933,"(0.0, 0.0, 0.0, 0.0, 0.0, 0.0)",2.917649419558383,True,"(-0.020555015523719508, 0.19489575786813051, 0.03999883872285231)","(0.9995471548009242, -0.030068867034914678, -0.0011612771476963335)",-8.031353010650993e-05,37.99313909407861,True,"(0.04297551729090808, 0.19408361014883452, 0.04000116127714768)","(-0.9995471548009243, 0.030068867034915965, 0.001161277147675629)",-0.00031350386495231916,37.98989107671869
52,Move,"(0.006, 0.0, -0.0212)","(0.0, 0.1553779366587952, 0.0)","(0.011142469791346225, 0.18235570648533844, 0.001214028274236499)","(1.5768449145038321, 0.0011679615198060325, -0.030111008932906434)","[0.010857526303332246, 0.011070439936981785, -0.0006527492513085026]","[-0.026750000193715096, 0.05299999937415123, 0.03999999910593033]","[0.0, -0.0, 0.3244180884274199]","[-0.04970052093267441, 0.12124422192573547, 0.03999999910593033]","[0.0, 0.0, -0.16254690836075827]","[0.026750000193715096, 0.05299999937415123, 0.03999999910593033]","[0.0, 0.0, -0.4829051192979229]","[0.06018349155783653, 0.11676677316427231, 0.03999999910593033]","[0.0, -0.0, 0.00047193810166295256]",0.3233340392465369,-0.2601638489354394,"(0.0, 0.0, 0.0, 0.0, 0.0, 0.0)",-4.88110837636411,-0.4855432844803867,0.34120057837575285,"(0.0, 0.0, 0.0, 0.0, 0.0, 0.0)",-2.58787421725305,-0.4824202356959638,0.1163778480646813,"(0.0, 0.0, 0.0, 0.0, 0.0, 0.0)",4.8023041429443625,0.48186950224806013,-0.3618190101901636,"(0.0, 0.0, 0.0, 0.0, 0.0, 0.0)",2.603313564852704,True,"(-0.02036989727458196, 0.1951032436096867, 0.039998832609273276)","(0.9995467176913123, -0.030083157271390836, -0.0011673907267250449)",-8.120909604331379e-05,34.57938773992058,True,"(0.043147385718728636, 0.1942606316628439, 0.040576130212362116)","(-0.9995467228796978, 0.030083189439874067, 0.0011621073879867893)",-0.00032562305302780267,33.948071189643905
53,Move,"(0.002, 0.0, -0.019899999999999998)","(0.0, 0.18235898156537556, 0.0)","(0.011082406230507245, 0.18256147879151946, 0.0012109925854753695)","(1.5768487860448883, 0.0010805450177102467, -0.02965464129672737)","[0.010797462742493266, 0.011276212243162803, -0.0006557849400696321]","[-0.026750000193715096, 0.05299999937415123, 0.03999999910593033]","[0.0, -0.0, 0.32049184588989693]","[-0.04943240433931351, 0.12133380025625229, 0.03999999910593033]","[0.0, 0.0, -0.1590007342577721]","[0.026750000193715096, 0.05299999937415123, 0.03999999910593033]","[0.0, 0.0, -0.4783853805185886]","[0.05989494174718857, 0.11691723763942719, 0.03999999910593033]","[0.0, 0.0, -0.003359641197421359]",0.3199912158193369,-0.12014687298295146,"(0.0, 0.0, 0.0, 0.0, 0.0, 0.0)",-4.529965851463564,-0.4781611670351659,0.3195356200255911,"(0.0, 0.0, 0.0, 0.0, 0.0, 0.0)",-2.370171262589135,-0.4774150614970222,0.23287075321236733,"(0.0, 0.0, 0.0, 0.0, 0.0, 0.0)",4.542833817596327,0.47358997152033316,-0.34457861207549667,"(0.0, 0.0, 0.0, 0.0, 0.0, 0.0)",2.48636772879376,True,"(-0.020363967605956344, 0.19529320469227912, 0.03999891668385754)","(0.9995580754290797, -0.029706569486389618, -0.00108331614246481)",-8.016118390165926e-05,31.921227243633577,True,"(0.04315558761223619, 0.1944241723478322, 0.0415269819578216)","(-0.999558312139924, 0.02969860539802311, 0.0010832679257056581)",-0.00032419223568256326,32.271370905556694
54,Move,"(0.0039, 0.0, -0.0185)","(0.0, 0.18846763394735566, 0.0)","(0.011235416070589643, 0.18273106567314007, 0.0012102355953324006)","(1.5768338564800093, 0.0010673742642984018, -0.02964361396228962)","[0.010950472582575664, 0.011445799124783412, -0.000656541930212601]","[-0.026750000193715096, 0.05299999937415123, 0.03999999910593033]","[0.0, -0.0, 0.316246839030956]","[-0.049142125993967056, 0.12142947316169739, 0.03999999910593033]","[0.0, 0.0, -0.1562132084105248]","[0.026750000193715096, 0.05299999937415123, 0.03999999910593033]","[0.0, 0.0, -0.4749116115685246]","[0.05967270955443382, 0.11703198403120041, 0.03999999910593033]","[0.0, 0.0, -0.007460778326977164]",0.3153606460570601,-0.2126946906416921,"(0.0, 0.0, 0.0, 0.0, 0.0, 0.0)",-4.189405030696868,-0.47124550769940304,0.29149971107581685,"(0.0, 0.0, 0.0, 0.0, 0.0, 0.0)",-2.2211599760264447,-0.4744732831668923,0.10519546181223707,"(0.0, 0.0, 0.0, 0.0, 0.0, 0.0)",4.1070955659368,0.4661468530251943,-0.3129521539192941,"(0.0, 0.0, 0.0, 0.0, 0.0, 0.0)",2.21925798689003,True,"(-0.020280042966827012, 0.19546690800634142, 0.03999892987085292)","(0.9995604187111613, -0.029628097636812907, -0.001070129147079474)",-7.61430691414053e-05,29.588740973460723,True,"(0.04325099889747984, 0.19457189262326488, 0.04214594090844109)","(-0.9995604187111612, 0.029628097636817816, 0.0010701291470874934)",-0.00031652047731147755,28.958253981502345
55,Move,"(0.0047, 0.0, -0.0158)","(0.0, 0.11176215865145692, 0.0)","(0.011255905945411994, 0.1827889507834623, 0.0011398745467818409)","(1.5756776529704501, -0.001636757774767594, -0.02936563261817221)","[0.010970962457398014, 0.011503684235105643, -0.0007269029787631608]","[-0.026750000193715096, 0.05299999937415123, 0.03999999910593033]","[0.0, -0.0, 0.31421097181080326]","[-0.049002766609191895, 0.12147492170333862, 0.03999999910593033]","[0.0, 0.0, -0.15393808189320213]","[0.026750000193715096, 0.05299999937415123, 0.03999999910593033]","[0.0, 0.0, -0.4723075194249075]","[0.059505853801965714, 0.1171175017952919, 0.03999999910593033]","[0.0, 0.0, -0.009881240950345793]",0.3141232663644896,-0.021052732277222076,"(0.0, 0.0, 0.0, 0.0, 0.0, 0.0)",-1.966538698371893,-0.4675288732275958,0.14884251152699646,"(0.0, 0.0, 0.0, 0.0, 0.0, 0.0)",-1.0224117571882967,-0.47182851427302563,0.11496219534755749,"(0.0, 0.0, 0.0, 0.0, 0.0, 0.0)",2.298665547495819,0.461846940905063,-0.13904180753201995,"(0.0, 0.0, 0.0, 0.0, 0.0, 0.0)",1.3000593980647155,True,"(-0.020309263542242828, 0.19557570778148628, 0.04000139723429982)","(0.9995645693635489, -0.02947404636921403, 0.0013972342998151315)",-6.337835394506706e-05,13.861454781334968,True,"(0.043271823151608685, 0.19469530525878886, 0.04214593535314885)","(-0.9995598010524491, 0.02964912819116161, 0.0010645738548503572)",-0.00027427168890412844,16.191972812643034
56,Move,"(0.008, 0.0, -0.016300000000000002)","(0.0, 0.05125159348481349, 0.0)","(0.011177908466206489, 0.1828297426904732, 0.0010763111374669347)","(1.5738093725855558, -0.0005210634886812967, -0.027600846751008566)","[0.01089296497819251, 0.011544476142116539, -0.000790466388078067]","[-0.026750000193715096, 0.05299999937415123, 0.03999999910593033]","[0.0, -0.0, 0.3131374511269637]","[-0.04892924055457115, 0.12149877101182938, 0.03999999910593033]","[0.0, 0.0, -0.15184101581483475]","[0.026750000193715096, 0.05299999937415123, 0.03999999910593033]","[0.0, 0.0, -0.4703902202159903]","[0.059382859617471695, 0.11718019098043442, 0.03999999910593033]","[0.0, 0.0, -0.011021487759890012]",0.31289273324451916,-0.05872673885428204,"(0.0, 0.0, 0.0, 0.0, 0.0, 0.0)",-1.702101577676571,-0.46447275718730224,0.12136235187533223,"(0.0, 0.0, 0.0, 0.0, 0.0, 0.0)",-0.8989384727972143,-0.47011967862265724,0.06493102490103457,"(0.0, 0.0, 0.0, 0.0, 0.0, 0.0)",1.891718138950721,0.4588008380823256,-0.13629607049534925,"(0.0, 0.0, 0.0, 0.0, 0.0, 0.0)",1.055909034011487,True,"(-0.02039121752175071, 0.19565876265252086, 0.040001038797709644)","(0.9996022655660853, -0.028182114442814456, 0.0010387977096404215)",-6.518562811422176e-05,11.976749204046218,True,"(0.043237298805974086, 0.1947764504567303, 0.04214593535314885)","(-0.9995598010524491, 0.02964912819116161, 0.0010645738548503572)",-0.00022459066171990746,13.459933686840078
57,Move,"(0.012199999999999999, 0.0, -0.016300000000000002)","(0.0, 0.026150268182631043, 0.0)","(0.011482032878091006, 0.1827553348797386, 0.0009616341100353903)","(1.5698121908658014, 4.297916884394479e-06, -0.02939149589373075)","[0.011197089390077027, 0.01147006833138195, -0.0009051434155096114]","[-0.026750000193715096, 0.05299999937415123, 0.03999999910593033]","[0.0, -0.0, 0.309819088168764]","[-0.04870181530714035, 0.12157198786735535, 0.03999999910593033]","[0.0, 0.0, -0.15231510913699284]","[0.026750000193715096, 0.05299999937415123, 0.03999999910593033]","[0.0, 0.0, -0.47089444785745666]","[0.059415217489004135, 0.11716372519731522, 0.03999999910593033]","[0.0, 0.0, -0.014564355302192626]",0.309050920715457,-0.18435482799429853,"(0.0, 0.0, 0.0, 0.0, 0.0, 0.0)",-1.7850609343079593,-0.4616306753900372,0.1208399410533994,"(0.0, 0.0, 0.0, 0.0, 0.0, 0.0)",-0.9653192367668565,-0.4711689839052325,-0.06588877106449638,"(0.0, 0.0, 0.0, 0.0, 0.0, 0.0)",1.6210037359385912,0.4557801932025728,-0.13197572492552484,"(0.0, 0.0, 0.0, 0.0, 0.0, 0.0)",0.8750273227773314,True,"(-0.02012863567978783, 0.195718433207599, 0.039999628423412835)","(0.999588901114556, -0.028668636162783114, -0.0003715765871714867)",-5.688310210553258e-05,12.691173941482974,True,"(0.04354466992759594, 0.19481670256584344, 0.04214593535314885)","(-0.9995598010524491, 0.02964912819116161, 0.0010645738548503572)",-0.00019101911025483037,11.037887456428782
58,Move,"(0.0149, 0.0, -0.016399999999999998)","(0.0, 0.025778513051956248, 0.0)","(0.01209918034632604, 0.18277375374425717, 0.0009635499769448581)","(1.570001642468149, -5.6847561948492364e-05, -0.030638984250638438)","[0.01181423685831206, 0.01148848719590051, -0.0009032275486001435]","[-0.026750000193715096, 0.05299999937415123, 0.03999999910593033]","[0.0, -0.0, 0.30405311931803997]","[-0.048306070268154144, 0.12169741839170456, 0.03999999910593033]","[0.0, 0.0, -0.15485963037351289]","[0.026750000193715096, 0.05299999937415123, 0.03999999910593033]","[0.0, 0.0, -0.4737389414432283]","[0.059597596526145935, 0.11707054823637009, 0.03999999910593033]","[0.0, 0.0, -0.02008897092279286]",0.3028920416310722,-0.27866365651206004,"(0.0, 0.0, 0.0, 0.0, 0.0, 0.0)",-2.215788516245077,-0.45832155718124745,0.14189203063992586,"(0.0, 0.0, 0.0, 0.0, 0.0, 0.0)",-1.191700937806342,-0.47436588209274294,-0.15047270325378495,"(0.0, 0.0, 0.0, 0.0, 0.0, 0.0)",1.254324695598189,0.45317219866284225,-0.11465812070116717,"(0.0, 0.0, 0.0, 0.0, 0.0, 0.0)",0.656020107483937,True,"(-0.01954429308201874, 0.19577170122686913, 0.04000004903528755)","(0.999536873039541, -0.030430856541957572, 4.9035287551731904e-05)",-5.686388421402211e-05,15.801479312872381,True,"(0.04415629193621029, 0.19481002124851401, 0.04214593535314885)","(-0.9995598010524491, 0.02964912819116161, 0.0010645738548503572)",-0.00016307890339089653,8.530903297857247
59,Move,"(0.012400000000000001, 0.0, -0.012400000000000001)","(0.0, 0.06454576639725429, 0.0)","(0.012626490925007242, 0.1827506242055194, 0.0009695904078027636)","(1.5702014152450117, -7.125738295248434e-05, -0.032209221022072965)","[0.012341547436993262, 0.01146535765716275, -0.0008971871177422381]","[-0.026750000193715096, 0.05299999937415123, 0.03999999910593033]","[0.0, -0.0, 0.29915750364837657]","[-0.04796949401497841, 0.12180212885141373, 0.03999999910593033]","[0.0, 0.0, -0.1579986495883069]","[0.026750000193715096, 0.05299999937415123, 0.03999999910593033]","[0.0, 0.0, -0.47729137016729767]","[0.059824999421834946, 0.11695345491170883, 0.03999999910593033]","[0.0, 0.0, -0.024990369312649034]",0.2984341746261291,-0.17359389944757272,"(0.0, 0.0, 0.0, 0.0, 0.0, 0.0)",-0.987578769999622,-0.45698627194362385,0.040767373280242464,"(0.0, 0.0, 0.0, 0.0, 0.0, 0.0)",-0.5512182917919033,-0.47792677047567744,-0.1524887231539075,"(0.0, 0.0, 0.0, 0.0, 0.0, 0.0)",0.2864275501088091,0.4521791645550679,-0.029248643891716424,"(0.0, 0.0, 0.0, 0.0, 0.0, 0.0)",0.13516961724442805,True,"(-0.018975284267742712, 0.19578741589288115, 0.04000007042500703)","(0.9994906642024074, -0.03191249304815906, 7.042500702912543e-05)",-5.0166361487444925e-05,7.083515193952569,True,"(0.044764909890795755, 0.1947676763418629, 0.04214593535314885)","(-0.9995598010524491, 0.02964912819116161, 0.0010645738548503572)",-0.00012985935183943375,1.7968923493164313
60,Move,"(0.0119, 0.0, -0.0126)","(0.0, 0.05973912963726191, 0.0)","(0.013006882884653756, 0.182726487025779, 0.0009743375490698903)","(1.570353185178176, -7.303007424239817e-05, -0.03362914170784886)","[0.012721939396639776, 0.011441220477422354, -0.0008924399764751114]","[-0.026750000193715096, 0.05299999937415123, 0.03999999910593033]","[0.0, -0.0, 0.2957098220913234]","[-0.047732163220644, 0.12187487632036209, 0.03999999910593033]","[0.0, 0.0, -0.16041155645826313]","[0.026750000193715096, 0.05299999937415123, 0.03999999910593033]","[0.0, 0.0, -0.48008155668367214]","[0.06000330671668053, 0.11686092615127563, 0.03999999910593033]","[0.0, 0.0, -0.02852984255390594]",0.2951520524649773,-0.13386051119797465,"(0.0, 0.0, 0.0, 0.0, 0.0, 0.0)",-0.9901913232598579,-0.45592829081114417,0.046335426203446745,"(0.0, 0.0, 0.0, 0.0, 0.0, 0.0)",-0.5492846661844333,-0.48050738697058554,-0.10220983959360042,"(0.0, 0.0, 0.0, 0.0, 0.0, 0.0)",0.2565587382787178,0.4514104265517124,-0.03389871930997673,"(0.0, 0.0, 0.0, 0.0, 0.0, 0.0)",0.12305226662428292,True,"(-0.01855948487558305, 0.1957909301532472, 0.0400000732130949)","(0.9994426166930545, -0.033383387748740154, 7.321309490277529e-05)",-4.175000988037324e-05,7.05376995233708,True,"(0.04521873342606596, 0.19472796185196506, 0.04214593535314885)","(-0.9995598010524491, 0.02964912819116161, 0.0010645738548503572)",-0.00010029989391009267,1.6403635032924897
61,Move,"(0.0106, 0.0, -0.011)","(0.0, 0.06938556441303458, 0.0)","(0.013236455289118461, 0.18271080616398133, 0.0009790210824239458)","(1.5705378574087956, -2.881222584744796e-05, -0.03502553009564246)","[0.012951511801104482, 0.011425539615624675, -0.0008877564431210559]","[-0.026750000193715096, 0.05299999937415123, 0.03999999910593033]","[0.0, -0.0, 0.29356335334822686]","[-0.047584276646375656, 0.12191975861787796, 0.03999999910593033]","[0.0, 0.0, -0.161988652819978]","[0.026750000193715096, 0.05299999937415123, 0.03999999910593033]","[0.0, 0.0, -0.4821949369449924]","[0.060138192027807236, 0.11679050326347351, 0.03999999910593033]","[0.0, 0.0, -0.03087765558896797]",0.2932716541443807,-0.0700055049954143,"(0.0, 0.0, 0.0, 0.0, 0.0, 0.0)",-0.7027293847535666,-0.45546531629119696,0.020800536994194922,"(0.0, 0.0, 0.0, 0.0, 0.0, 0.0)",-0.39253112052070593,-0.48254571027610793,-0.0841982083602968,"(0.0, 0.0, 0.0, 0.0, 0.0, 0.0)",0.013685753708883067,0.45132654747801976,0.0022367752984702176,"(0.0, 0.0, 0.0, 0.0, 0.0, 0.0)",0.0009956113865683873,True,"(-0.01829505628555969, 0.1957899133268059, 0.04000003989824202)","(0.9993958545153976, -0.03475520659654323, 3.989824201568237e-05)",-2.9490353510496575e-05,4.978699942317871,True,"(0.04553647895020236, 0.19469203949859304, 0.04214593535314885)","(-0.9995598010524491, 0.02964912819116161, 0.0010645738548503572)",-5.948053952124437e-05,0.0
62,Move,"(0.0066, 0.0, -0.011800000000000001)","(0.0, 0.08280714636087097, 0.0)","(0.013102779829867937, 0.1827197127841843, 0.0009831139451561713)","(1.5706779548484, -2.1510377099809003e-05, -0.033606806542478045)","[0.012817836341853957, 0.01143444623582765, -0.0008836635803888303]","[-0.026750000193715096, 0.05299999937415123, 0.03999999910593033]","[0.0, -0.0, 0.2940317033748905]","[-0.04761655256152153, 0.1219099909067154, 0.03999999910593033]","[0.0, 0.0, -0.16124018191100237]","[0.026750000193715096, 0.05299999937415123, 0.03999999910593033]","[0.0, 0.0, -0.48162116296078317]","[0.06010158732533455, 0.1168096512556076, 0.03999999910593033]","[0.0, 0.0, -0.030833998615180904]",0.29430814792148113,0.06634638967579927,"(0.0, 0.0, 0.0, 0.0, 0.0, 0.0)",-0.03495683442676332,-0.45522743971916524,0.0106693054707566,"(0.0, 0.0, 0.0, 0.0, 0.0, 0.0)",-0.01250816470103249,-0.4812855221006731,0.08054454241757794,"(0.0, 0.0, 0.0, 0.0, 0.0, 0.0)",0.6977817060304587,0.450710599175113,-0.01836714372374281,"(0.0, 0.0, 0.0, 0.0, 0.0, 0.0)",0.4094072433904972,True,"(-0.01838262696024392, 0.19580212932432556, 0.040000022042875116)","(0.9994243292284534, -0.03392653327953577, 2.2042875117752132e-05)",-1.062555703433372e-05,0.16572814816385706,True,"(0.04549647173670697, 0.19471054820355677, 0.04214593535314885)","(-0.9995598010524491, 0.02964912819116161, 0.0010645738548503572)",-3.0192766843748676e-05,5.069482998193747
63,Move,"(0.0054, 0.0, -0.012199999999999999)","(0.0, 0.08151385738514316, 0.0)","(0.012784213796652706, 0.18271316404395938, 0.0009855322888011045)","(1.5707292011024554, -1.621120546588133e-05, -0.031163787631254818)","[0.012499270308638727, 0.011427897495602718, -0.0008812452367438972]","[-0.026750000193715096, 0.05299999937415123, 0.03999999910593033]","[0.0, -0.0, 0.29615438692971097]","[-0.047762781381607056, 0.12186554074287415, 0.03999999910593033]","[0.0, 0.0, -0.158841905963081]","[0.026750000193715096, 0.05299999937415123, 0.03999999910593033]","[0.0, 0.0, -0.47910022556570375]","[0.05994062498211861, 0.11689352244138718, 0.03999999910593033]","[0.0, 0.0, -0.028788975721779905]",0.2965842200641813,0.10315575305862981,"(0.0, 0.0, 0.0, 0.0, 0.0, 0.0)",-0.06342643078301506,-0.4549434189644275,0.012694389120775433,"(0.0, 0.0, 0.0, 0.0, 0.0, 0.0)",-0.023707679061973182,-0.4785939116245802,0.12151290735821939,"(0.0, 0.0, 0.0, 0.0, 0.0, 0.0)",0.6973523028906021,0.45022599325242474,-0.02045904168307075,"(0.0, 0.0, 0.0, 0.0, 0.0, 0.0)",0.4139077414151407,True,"(-0.01870615501042546, 0.19582752210289137, 0.04000001820163107)","(0.9995010136050122, -0.03158676101238952, 1.8201631069524237e-05)",-1.1406765698264625e-05,0.32635198358462963,True,"(0.04517622942681972, 0.19476439105858917, 0.04214593535314885)","(-0.9995598010524491, 0.02964912819116161, 0.0010645738548503572)",-2.475219655714793e-05,5.1090335625520025
64,Move,"(0.0060999999999999995, 0.0, -0.0143)","(0.0, 0.025689501260104535, 0.0)","(0.012283238735127993, 0.18271046492579376, 0.0009865069868488397)","(1.5707051990988896, -4.6297336523818785e-06, -0.02814719948215405)","[0.011998295247114014, 0.011425198377437107, -0.000880270538696162]","[-0.026750000193715096, 0.05299999937415123, 0.03999999910593033]","[0.0, -0.0, 0.2993376402110781]","[-0.04798189178109169, 0.1217983067035675, 0.03999999910593033]","[0.0, 0.0, -0.15506385057094565]","[0.026750000193715096, 0.05299999937415123, 0.03999999910593033]","[0.0, 0.0, -0.47504270333717125]","[0.05968110263347626, 0.11702767014503479, 0.03999999910593033]","[0.0, 0.0, -0.025633187611558087]",0.2999745047928439,0.1528400516137317,"(0.0, 0.0, 0.0, 0.0, 0.0, 0.0)",-0.27553043331705734,-0.4542656551454849,0.03260532531405001,"(0.0, 0.0, 0.0, 0.0, 0.0, 0.0)",-0.12230900751989031,-0.47421044215206404,0.19974049838951588,"(0.0, 0.0, 0.0, 0.0, 0.0, 0.0)",0.9156273464917821,0.4492183552380115,-0.04587653296269574,"(0.0, 0.0, 0.0, 0.0, 0.0, 0.0)",0.5356631870508826,True,"(-0.019204928546636905, 0.1958687244204796, 0.04000000726397545)","(0.9995903708574059, -0.028619756050474704, 7.2639754464114474e-06)",-1.255649756545504e-05,1.7602816383908144,True,"(0.04467103746691643, 0.1948515553942991, 0.04214593535314885)","(-0.9995598010524491, 0.02964912819116161, 0.0010645738548503572)",-2.8801457792726095e-05,6.700482310970789
65,Move,"(0.0058, 0.0, -0.0175)","(0.0, 0.06341304771270997, 0.0)","(0.011918670705602272, 0.18280484412224415, 0.0009866030664294988)","(1.5706660425131025, -1.0471388818616117e-06, -0.02719429126178211)","[0.011633727217588293, 0.011519577573887496, -0.0008801744591155028]","[-0.026750000193715096, 0.05299999937415123, 0.03999999910593033]","[0.0, -0.0, 0.3010343142258013]","[-0.04809858649969101, 0.12176218628883362, 0.03999999910593033]","[0.0, 0.0, -0.15106368314352928]","[0.026750000193715096, 0.05299999937415123, 0.03999999910593033]","[0.0, 0.0, -0.4704539760820465]","[0.059386949986219406, 0.11717810481786728, 0.03999999910593033]","[0.0, 0.0, -0.023729468207060227]",0.30116535865311844,0.031451079956711446,"(0.0, 0.0, 0.0, 0.0, 0.0, 0.0)",-1.4789429735198762,-0.451545527218423,0.1325907456383543,"(0.0, 0.0, 0.0, 0.0, 0.0, 0.0)",-0.7325016764480976,-0.4696441744907359,0.19435303374972082,"(0.0, 0.0, 0.0, 0.0, 0.0, 0.0)",2.1980469858491967,0.4461021154721631,-0.1493747329744299,"(0.0, 0.0, 0.0, 0.0, 0.0, 0.0)",1.2160960910141676,True,"(-0.019618216866336653, 0.19594443922777793, 0.04000000107206836)","(0.9996271781189714, -0.02730393313705086, 1.072068359697174e-06)",-1.6423729309414647e-05,10.32505942277971,True,"(0.04422875958192394, 0.19497327628978178, 0.04214593535314885)","(-0.9995598010524491, 0.02964912819116161, 0.0010645738548503572)",-5.4167162476241166e-05,15.582935375986391
66,Move,"(0.0075, 0.0, -0.0233)","(0.0, 0.06454576639725429, 0.0)","(0.011783357174022015, 0.1829707179718839, 0.0009861139631828963)","(1.5706255058559986, -4.131482864771315e-06, -0.02670209005271414)","[0.011498413686008036, 0.011685451423527254, -0.0008806635623621053]","[-0.026750000193715096, 0.05299999937415123, 0.03999999910593033]","[0.0, -0.0, 0.299503382241327]","[-0.047993287444114685, 0.12179479002952576, 0.03999999910593033]","[0.0, 0.0, -0.14729309986766737]","[0.026750000193715096, 0.05299999937415123, 0.03999999910593033]","[0.0, 0.0, -0.4655927675819783]","[0.059074584394693375, 0.11733600497245789, 0.03999999910593033]","[0.0, 0.0, -0.024666133823794803]",0.2990236169758301,-0.11513111531018798,"(0.0, 0.0, 0.0, 0.0, 0.0, 0.0)",-3.580726849767717,-0.4456720997152165,0.26983666248680005,"(0.0, 0.0, 0.0, 0.0, 0.0, 0.0)",-1.8122202519001873,-0.4646992399766436,0.21444419142405297,"(0.0, 0.0, 0.0, 0.0, 0.0, 0.0)",4.016382608582555,0.4396693812102577,-0.3017383648118097,"(0.0, 0.0, 0.0, 0.0, 0.0, 0.0)",2.1542619351391656,True,"(-0.01979291260350456, 0.19608064646155582, 0.040000003299378584)","(0.9996410520450183, -0.026791174954501593, 3.299378588001731e-06)",-2.7150773152476048e-05,25.17326287721314,True,"(0.043989265805498605, 0.19514533681076837, 0.04214593535314885)","(-0.9995598010524491, 0.02964912819116161, 0.0010645738548503572)",-0.00010877863540639019,28.084629271275148
67,Move,"(0.009300000000000001, 0.0, -0.023100000000000002)","(0.0, 0.053339007270198704, 0.0)","(0.011761294220450231, 0.18309765841368408, 0.0009857165745881652)","(1.570632387839164, 2.326599941090638e-06, -0.02807352993220532)","[0.011476350732436252, 0.011812391865327426, -0.0008810609509568364]","[-0.026750000193715096, 0.05299999937415123, 0.03999999910593033]","[0.0, -0.0, 0.29615906126435765]","[-0.04776310175657272, 0.12186544388532639, 0.03999999910593033]","[0.0, 0.0, -0.14405494709119301]","[0.026750000193715096, 0.05299999937415123, 0.03999999910593033]","[0.0, 0.0, -0.4617187360588606]","[0.05882510170340538, 0.11746075004339218, 0.03999999910593033]","[0.0, 0.0, -0.02727935595348157]",0.2955021729153121,-0.1576508999740464,"(0.0, 0.0, 0.0, 0.0, 0.0, 0.0)",-4.235242959500082,-0.43874319687205987,0.3529936482715265,"(0.0, 0.0, 0.0, 0.0, 0.0, 0.0)",-2.408939936185956,-0.4611370253559109,0.1396044917932013,"(0.0, 0.0, 0.0, 0.0, 0.0, 0.0)",3.7389634732357218,0.4336097559023593,-0.19910383494757367,"(0.0, 0.0, 0.0, 0.0, 0.0, 0.0)",1.498939233690499,True,"(-0.01980350156140773, 0.19623901388493808, 0.039999993020188286)","(0.9996415567229402, -0.026772336913665887, -6.979811712596951e-06)",-3.0075758321537104e-05,29.53216613152352,True,"(0.04274240309216049, 0.15131058210922863, 0.05079253978708561)","(-0.9996279385223215, 0.02727607886383369, 6.886782341955346e-06)",-0.00016367323595516906,17.565693515775234
68,Move,"(0.008199999999999999, 0.0, -0.023600000000000003)","(0.0, 0.043708280457693996, 0.0)","(0.011510926522055279, 0.1831136455579236, 0.000988750942667354)","(1.5706399543007552, -5.788096496813041e-05, -0.03330244444457604)","[0.0112259830340413, 0.01182837900956693, -0.0008780265828776477]","[-0.026750000193715096, 0.05299999937415123, 0.03999999910593033]","[0.0, -0.0, 0.29344713658229576]","[-0.04757626727223396, 0.12192218005657196, 0.03999999910593033]","[0.0, 0.0, -0.13921799855997513]","[0.026750000193715096, 0.05299999937415123, 0.03999999910593033]","[0.0, 0.0, -0.45743389817642005]","[0.05854860320687294, 0.11759759485721588, 0.03999999910593033]","[0.0, 0.0, -0.028311606088350462]",0.29305251680992017,-0.09470281595373431,"(0.0, 0.0, 0.0, 0.0, 0.0, 0.0)",-3.9136837459804696,-0.431372807160802,0.3101454418416777,"(0.0, 0.0, 0.0, 0.0, 0.0, 0.0)",-2.169599032720574,-0.4565772890419143,0.20557764004049459,"(0.0, 0.0, 0.0, 0.0, 0.0, 0.0)",3.918159726116782,0.42812376322752044,-0.23963847354639978,"(0.0, 0.0, 0.0, 0.0, 0.0, 0.0)",1.7379630013485958,True,"(-0.019977029230163958, 0.19641935139517402, 0.040000052150292634)","(0.9994651511036974, -0.03270181966817935, 5.215029263223528e-05)",-9.786014295153007e-06,27.27229547969063,True,"(0.04250085503239388, 0.15146401020805678, 0.05079253978708561)","(-0.9996279385223215, 0.02727607886383369, 6.886782341955346e-06)",6.811131297064848e-06,10.84752484560591
69,Move,"(0.012, 0.0, -0.0257)","(0.0, 0.04850444524217441, 0.0)","(0.011712082421215093, 0.18313244884364907, 0.0009882071508925186)","(1.57068145885566, -9.702884751990334e-06, -0.038834068227110614)","[0.011427138933201113, 0.011847182295292413, -0.000878570374652483]","[-0.026750000193715096, 0.05299999937415123, 0.03999999910593033]","[0.0, -0.0, 0.28778642577128505]","[-0.047185786068439484, 0.12203896790742874, 0.03999999910593033]","[0.0, 0.0, -0.13620869076389375]","[0.026750000193715096, 0.05299999937415123, 0.03999999910593033]","[0.0, 0.0, -0.45493541677066524]","[0.05838710814714432, 0.11767683923244476, 0.03999999910593033]","[0.0, 0.0, -0.031987781430149374]",0.28646420445790066,-0.3173308833909644,"(0.0, 0.0, 0.0, 0.0, 0.0, 0.0)",-5.216442844340844,-0.4223710647941619,0.3897701515585303,"(0.0, 0.0, 0.0, 0.0, 0.0, 0.0)",-2.9444451897593225,-0.4547010141582202,0.056256212191876466,"(0.0, 0.0, 0.0, 0.0, 0.0, 0.0)",4.304749908149072,0.4217559712214201,-0.2860008429575044,"(0.0, 0.0, 0.0, 0.0, 0.0, 0.0)",1.8506586246130627,True,"(-0.019811127131368955, 0.1966108550893415, 0.040000022486502716)","(0.9992893698589095, -0.037692900940904925, 2.2486502710839398e-05)",-5.133325815081674e-06,36.52763927466097,True,"(0.0424639690584048, 0.15160202088983782, 0.05079253978708561)","(-0.9996279385223215, 0.02727607886383369, 6.886782341955346e-06)",1.903750246742037e-05,14.059438326395453
70,Move,"(0.0083, 0.0, -0.028800000000000003)","(0.0, 0.026150268182631043, 0.0)","(0.011441720317407832, 0.183301493905058, 0.0009954600089602578)","(1.57073251693917, -0.0001925291634179649, -0.04136199368694575)","[0.011156776829393852, 0.012016227356701353, -0.0008713175165847439]","[-0.026750000193715096, 0.05299999937415123, 0.03999999910593033]","[0.0, -0.0, 0.28328286791672913]","[-0.04687466099858284, 0.12213029712438583, 0.03999999910593033]","[0.0, 0.0, -0.13062573940599415]","[0.026750000193715096, 0.05299999937415123, 0.03999999910593033]","[0.0, 0.0, -0.44981832821463996]","[0.05805573612451553, 0.11783788353204727, 0.03999999910593033]","[0.0, 0.0, -0.034236987372380394]",0.2827492279893946,-0.12807542227884908,"(0.0, 0.0, 0.0, 0.0, 0.0, 0.0)",-5.645424792523523,-0.4119683147334915,0.46567077148872427,"(0.0, 0.0, 0.0, 0.0, 0.0, 0.0)",-3.177125247008412,-0.4485577161568053,0.3025280791822405,"(0.0, 0.0, 0.0, 0.0, 0.0, 0.0)",5.416838986803327,0.41424276392750076,-0.3212399210910007,"(0.0, 0.0, 0.0, 0.0, 0.0, 0.0)",2.3708429513810065,True,"(-0.019917087100688673, 0.19684485411367975, 0.04000018809815534)","(0.9991543675322098, -0.041115866285338025, 0.00018809815533300618)",-5.397234855015255e-06,39.2525811468857,True,"(0.042208939387825224, 0.15179879439250385, 0.05079253978708561)","(-0.9996279385223215, 0.02727607886383369, 6.886782341955346e-06)",2.3848604544279602e-05,16.356764608735684
71,Move,"(0.009000000000000001, 0.0, -0.028)","(0.0, 0.009101892049150427, 0.0)","(0.011141378726703285, 0.1834894429869053, 0.0009971845467389739)","(1.5707891092090704, -0.00019746422552665072, -0.042850704809012985)","[0.010856435238689306, 0.012204176438548653, -0.0008695929788060277]","[-0.026750000193715096, 0.05299999937415123, 0.03999999910593033]","[0.0, -0.0, 0.2800467717314084]","[-0.04665084555745125, 0.1221950575709343, 0.03999999910593033]","[0.0, 0.0, -0.12361539021464005]","[0.026750000193715096, 0.05299999937415123, 0.03999999910593033]","[0.0, 0.0, -0.4436233343481717]","[0.05765346810221672, 0.11803057789802551, 0.03999999910593033]","[0.0, 0.0, -0.03520014564575287]",0.2794492392145797,-0.1434111739973661,"(0.0, 0.0, 0.0, 0.0, 0.0, 0.0)",-5.2631485219736485,-0.4018856857271166,0.4263590767019753,"(0.0, 0.0, 0.0, 0.0, 0.0, 0.0)",-2.9482536823041765,-0.4426008065016545,0.24539628071024408,"(0.0, 0.0, 0.0, 0.0, 0.0, 0.0)",5.044193801218823,0.40719187403535295,-0.295505214193954,"(0.0, 0.0, 0.0, 0.0, 0.0, 0.0)",2.2096736816379217,True,"(-0.02021802703934672, 0.19708830710120834, 0.040000197271433925)","(0.9990936852858248, -0.042564881134225484, 0.00019727143392574728)",-5.799214206941451e-06,36.59801554166215,True,"(0.04183939033466186, 0.15200673396377262, 0.05079253978708561)","(-0.9996279385223215, 0.02727607886383369, 6.886782341955346e-06)",2.0877743292566856e-05,14.975496784197604
72,Move,"(0.0094, 0.0, -0.0282)","(0.0, 0.018053685782629343, 0.0)","(0.010963189615720709, 0.183659580315223, 0.000997200196140485)","(1.5708305697435074, -0.00015701012019648174, -0.045160553946603635)","[0.01067824612770673, 0.012374313766866346, -0.0008695773294045165]","[-0.026750000193715096, 0.05299999937415123, 0.03999999910593033]","[0.0, -0.0, 0.27592188325634726]","[-0.04636525362730026, 0.12227655947208405, 0.03999999910593033]","[0.0, 0.0, -0.11751247101879203]","[0.026750000193715096, 0.05299999937415123, 0.03999999910593033]","[0.0, 0.0, -0.4385642986166689]","[0.05732408165931702, 0.1181860864162445, 0.03999999910593033]","[0.0, 0.0, -0.037014164461613555]",0.27511663828840444,-0.1932561952518412,"(0.0, 0.0, 0.0, 0.0, 0.0, 0.0)",-5.418579465828806,-0.391597301300927,0.4408852042745991,"(0.0, 0.0, 0.0, 0.0, 0.0, 0.0)",-3.0533424965371774,-0.4377268475536049,0.20097313881781598,"(0.0, 0.0, 0.0, 0.0, 0.0, 0.0)",4.927187520376664,0.400340905099544,-0.29020071588793994,"(0.0, 0.0, 0.0, 0.0, 0.0, 0.0)",2.158692186657645,True,"(-0.020390329554246286, 0.19732146502356734, 0.04000016005990991)","(0.9989990348192613, -0.04473145214509989, 0.00016005990991530705)",-3.359016090139346e-06,37.68952559785934,True,"(0.041571662258673245, 0.15219087452704277, 0.05079253978708561)","(-0.9996279385223215, 0.02727607886383369, 6.886782341955346e-06)",1.9924908717878656e-05,14.697302655183018
73,Move,"(0.0094, 0.0, -0.0282)","(0.0, 0.018053685782629343, 0.0)","(0.010834297604541824, 0.18382308002920178, 0.0009963010865108686)","(1.57082115402154, -0.00013852916645031108, -0.04774331435391157)","[0.010549354116527845, 0.012537813480845122, -0.0008704764390341331]","[-0.026750000193715096, 0.05299999937415123, 0.03999999910593033]","[0.0, -0.0, 0.27131277085524175]","[-0.04604574292898178, 0.12236623466014862, 0.03999999910593033]","[0.0, 0.0, -0.11192763473513223]","[0.026750000193715096, 0.05299999937415123, 0.03999999910593033]","[0.0, 0.0, -0.43407144277423126]","[0.05703090503811836, 0.11832278966903687, 0.03999999910593033]","[0.0, 0.0, -0.03931975523362705]",0.2704843626479847,-0.1988233158885179,"(0.0, 0.0, 0.0, 0.0, 0.0, 0.0)",-5.337250928815298,-0.38145408348377197,0.4287236521963872,"(0.0, 0.0, 0.0, 0.0, 0.0, 0.0)",-3.0002122701095133,-0.4332928253425057,0.18685879710326325,"(0.0, 0.0, 0.0, 0.0, 0.0, 0.0)",4.867842913255875,0.3935492331479338,-0.288579990901977,"(0.0, 0.0, 0.0, 0.0, 0.0, 0.0)",2.124444081210693,True,"(-0.020490687119901513, 0.1975469071719246, 0.040000148241462204)","(0.9988818787552811, -0.04727547269767431, 0.00014824146219848602)",-2.899964929246908e-06,37.10421778196106,True,"(0.041356927550259395, 0.15236380862126433, 0.05079253978708561)","(-0.9996279385223215, 0.02727607886383369, 6.886782341955346e-06)",1.91461054582812e-05,14.778668172736719
74,Move,"(0.0103, 0.0, -0.028100000000000003)","(0.0, 0.026150268182631043, 0.0)","(0.01088572578610759, 0.18392110193606942, 0.0009910282414959965)","(1.5707992439691, 2.7935757173564227e-05, -0.05182322423963479)","[0.01060078229809361, 0.012635835387712763, -0.0008757492840490051]","[-0.026750000193715096, 0.05299999937415123, 0.03999999910593033]","[0.0, -0.0, 0.2656728867785106]","[-0.04565421864390373, 0.12247395515441895, 0.03999999910593033]","[0.0, 0.0, -0.1076573035247415]","[0.026750000193715096, 0.05299999937415123, 0.03999999910593033]","[0.0, 0.0, -0.4307108212361641]","[0.05681120976805687, 0.1184241846203804, 0.03999999910593033]","[0.0, 0.0, -0.042958960017518616]",0.2645787792306251,-0.26257892007749795,"(0.0, 0.0, 0.0, 0.0, 0.0, 0.0)",-5.419957911901238,-0.37157433665857137,0.4213970403016591,"(0.0, 0.0, 0.0, 0.0, 0.0, 0.0)",-3.0621488975667615,-0.4302072206654399,0.12085892593375686,"(0.0, 0.0, 0.0, 0.0, 0.0, 0.0)",4.7534207531475765,0.3865017127137902,-0.3000308804598175,"(0.0, 0.0, 0.0, 0.0, 0.0, 0.0)",2.0441991421326815,True,"(-0.02042081956043638, 0.19775501828768288, 0.039999974157946545)","(0.9986953697222218, -0.051064251953620625, -2.5842053455971214e-05)",-2.2310614022084917e-06,37.726611462152995,True,"(0.04126121867217146, 0.15252201695070436, 0.05079253978708561)","(-0.9996279385223215, 0.02727607886383369, 6.886782341955346e-06)",2.118506497237761e-05,15.433170180386316
