OSUrobotics/InHand-Manipulation/AnalyseData/Data/Trial Data/Better/new_hand_human_sub1_2v2_f_n_1_kpNone_kdNone_dp5_step5_save_data.csv
,Phase,human_cube_pos,human_cube_orn,Cube_Pos,Cube_Orn,Cube_pos_in_start_pos,b'l_prox_pin'_link_pos,b'l_prox_pin'_link_orn,b'l_distal_pin'_link_pos,b'l_distal_pin'_link_orn,b'r_prox_pin'_link_pos,b'r_prox_pin'_link_orn,b'r_distal_pin'_link_pos,b'r_distal_pin'_link_orn,b'l_prox_pin'_joint_angle,b'l_prox_pin'_joint_vel,b'l_prox_pin'_joint_react_forces,b'l_prox_pin'_joint_motor_torque,b'l_distal_pin'_joint_angle,b'l_distal_pin'_joint_vel,b'l_distal_pin'_joint_react_forces,b'l_distal_pin'_joint_motor_torque,b'r_prox_pin'_joint_angle,b'r_prox_pin'_joint_vel,b'r_prox_pin'_joint_react_forces,b'r_prox_pin'_joint_motor_torque,b'r_distal_pin'_joint_angle,b'r_distal_pin'_joint_vel,b'r_distal_pin'_joint_react_forces,b'r_distal_pin'_joint_motor_torque,in_contact_l,contact_point_l_dist,contact_normal_l_dist,contact_distance_l_dist,contact_norm_force_l_dist,in_contact_r,contact_point_r_dist,contact_normal_r_dist,contact_distance_r_dist,contact_norm_force_r_dist
0,Open,,,,,,"[-0.026750000193715096, 0.05299999937415123, 0.03999999910593033]","[0.0, -0.0, 0.4254700097131474]","[-0.056467924267053604, 0.11858082562685013, 0.03999999910593033]","[0.0, -0.0, 0.4254700097131474]","[0.026750000193715096, 0.05299999937415123, 0.03999999910593033]","[0.0, 0.0, -0.4429245237535421]","[0.057608019560575485, 0.1180521547794342, 0.03999999910593033]","[0.0, 0.0, -0.5266622746639338]",0.5399229999999999,27.46872,"(0.0, 0.0, 0.0, 0.0, 0.0, 0.0)",-4.377393708535371,5.294901130302062e-32,0.0,"(0.0, 0.0, 0.0, 0.0, 0.0, 0.0)",-0.30017707799641646,-0.5623038734984663,-28.651050680519948,"(0.0, 0.0, 0.0, 0.0, 0.0, 0.0)",144.45470973647488,-0.10456727132876567,-4.999096204557077,"(0.0, 0.0, 0.0, 0.0, 0.0, 0.0)",33.97911746732963,False,,,,,False,,,,
1,Open,,,,,,"[-0.026750000193715096, 0.05299999937415123, 0.03999999910593033]","[0.0, -0.0, 0.894166469119967]","[-0.08288749307394028, 0.09808415919542313, 0.03999999910593033]","[0.0, -0.0, 0.894166894674561]","[0.026750000193715096, 0.05299999937415123, 0.03999999910593033]","[0.0, 0.0, -0.9122733503889549]","[0.08369457721710205, 0.09706035256385803, 0.03999999910593033]","[0.0, 0.0, -0.9997066729229968]",0.96174983227,16.220004472800003,"(0.0, 0.0, 0.0, 0.0, 0.0, 0.0)",-2.5959652512206968,5.681494863714967e-07,3.553320838026869e-05,"(0.0, 0.0, 0.0, 0.0, 0.0, 0.0)",-0.18114955764248034,-0.9780460127037736,-15.785439661232708,"(0.0, 0.0, 0.0, 0.0, 0.0, 0.0)",2.503992476159733,-0.0786900142246732,2.098357403184359,"(0.0, 0.0, 0.0, 0.0, 0.0, 0.0)",0.15360133560797545,False,,,,,False,,,,
2,Open,,,,,,"[-0.026750000193715096, 0.05299999937415123, 0.03999999910593033]","[0.0, -0.0, 1.170927100750299]","[-0.09307006001472473, 0.08102945238351822, 0.03999999910593033]","[0.0, -0.0, 1.1709279927689973]","[0.026750000193715096, 0.05299999937415123, 0.03999999910593033]","[0.0, 0.0, -1.181618964677462]","[0.09336595237255096, 0.08031877130270004, 0.03999999910593033]","[0.0, 0.0, -1.233247876832181]",1.2108343584571122,9.577750441143678,"(0.0, 0.0, 0.0, 0.0, 0.0, 0.0)",-1.5367816122769582,9.012180617793662e-07,6.275974057005224e-06,"(0.0, 0.0, 0.0, 0.0, 0.0, 0.0)",-0.1083256720668905,-1.2204570900414513,-9.3211442655613,"(0.0, 0.0, 0.0, 0.0, 0.0, 0.0)",1.4819475463743526,-0.046466145575958295,1.239071567699341,"(0.0, 0.0, 0.0, 0.0, 0.0, 0.0)",0.09166748660725833,False,,,,,False,,,,
3,Open,,,,,,"[-0.026750000193715096, 0.05299999937415123, 0.03999999910593033]","[0.0, -0.0, 1.334351465706577]","[-0.09674673527479172, 0.06986585259437561, 0.03999999910593033]","[0.0, -0.0, 1.33435435145599]","[0.026750000193715096, 0.05299999937415123, 0.03999999910593033]","[0.0, 0.0, -1.3406650641721125]","[0.09685182571411133, 0.06942359358072281, 0.03999999910593033]","[0.0, 0.0, -1.3711530696282732]",1.3579162851496,5.655565729344001,"(0.0, 0.0, 0.0, 0.0, 0.0, 0.0)",-0.9088150211252332,3.4316066113876724e-06,0.0001607445165674468,"(0.0, 0.0, 0.0, 0.0, 0.0, 0.0)",-0.06444344013525093,-1.3635984108023202,-5.504042378604797,"(0.0, 0.0, 0.0, 0.0, 0.0, 0.0)",0.8762522980402716,-0.02744024570882781,0.7315266716392431,"(0.0, 0.0, 0.0, 0.0, 0.0, 0.0)",0.05446985052483407,False,,,,,False,,,,
4,Open,,,,,,"[-0.026750000193715096, 0.05299999937415123, 0.03999999910593033]","[0.0, -0.0, 1.4308518944899675]","[-0.09804610908031464, 0.06304314732551575, 0.03999999910593033]","[0.0, -0.0, 1.4308566269594332]","[0.026750000193715096, 0.05299999937415123, 0.03999999910593033]","[0.0, 0.0, -1.4345798203875788]","[0.09808305650949478, 0.06277728080749512, 0.03999999910593033]","[0.0, 0.0, -1.4525855975984745]",1.4447666872179874,3.339555007520341,"(0.0, 0.0, 0.0, 0.0, 0.0, 0.0)",-0.5371183361845069,4.8269553674989e-06,2.0878160072459843e-05,"(0.0, 0.0, 0.0, 0.0, 0.0, 0.0)",-0.03821759960562203,-1.448121925594662,-3.2500819841423465,"(0.0, 0.0, 0.0, 0.0, 0.0, 0.0)",0.5178266556878065,-0.016205556838873442,0.4320218239148067,"(0.0, 0.0, 0.0, 0.0, 0.0, 0.0)",0.0322808466635012,False,,,,,False,,,,
5,Open,,,,,,"[-0.026750000193715096, 0.05299999937415123, 0.03999999910593033]","[0.0, -0.0, 1.487834617901085]","[-0.09850236773490906, 0.05896640568971634, 0.03999999910593033]","[0.0, -0.0, 1.4878390921106803]","[0.026750000193715096, 0.05299999937415123, 0.03999999910593033]","[0.0, 0.0, -1.4900358577435544]","[0.09851532429456711, 0.05880843847990036, 0.03999999910593033]","[0.0, 0.0, -1.5006695807985118]",1.4960509811353493,1.9719738363906854,"(0.0, 0.0, 0.0, 0.0, 0.0, 0.0)",-0.3173274216127963,4.509251873886308e-06,-3.168767150011037e-05,"(0.0, 0.0, 0.0, 0.0, 0.0, 0.0)",-0.022624215793833224,-1.498032215844392,-1.9191409108162163,"(0.0, 0.0, 0.0, 0.0, 0.0, 0.0)",0.30591369390909257,-0.00957062017308593,0.2551417656412126,"(0.0, 0.0, 0.0, 0.0, 0.0, 0.0)",0.019102112305110365,False,,,,,False,,,,
6,Open,,,,,,"[-0.026750000193715096, 0.05299999937415123, 0.03999999910593033]","[0.0, -0.0, 1.5214821319654974]","[-0.09866246581077576, 0.05654918774962425, 0.03999999910593033]","[0.0, -0.0, 1.5214858439169519]","[0.026750000193715096, 0.05299999937415123, 0.03999999910593033]","[0.0, 0.0, -1.5227821585534602]","[0.09866702556610107, 0.05645570904016495, 0.03999999910593033]","[0.0, 0.0, -1.529061933448946]",1.5263338438506127,1.164430830650334,"(0.0, 0.0, 0.0, 0.0, 0.0, 0.0)",-0.18743587261192823,3.6440993970645793e-06,-4.480530101024996e-05,"(0.0, 0.0, 0.0, 0.0, 0.0, 0.0)",-0.013379159967550349,-1.527503743133955,-1.1332335164278682,"(0.0, 0.0, 0.0, 0.0, 0.0, 0.0)",0.18068846528573543,-0.005652184024362593,0.1506807000213291,"(0.0, 0.0, 0.0, 0.0, 0.0, 0.0)",0.011293655891939093,False,,,,,False,,,,
7,Close,,,"(0.010000824637423049, 0.16001319418745247, 0.017848014970055004)","(-0.00026934863811186216, 1.6834304115272585e-05, -2.2671484573282825e-09)",,"[-0.026750000193715096, 0.05299999937415123, 0.03999999910593033]","[0.0, -0.0, 1.2784808254221978]","[-0.09569569677114487, 0.07374827563762665, 0.03999999910593033]","[0.0, -0.0, 1.034582661993943]","[0.026750000193715096, 0.05299999937415123, 0.03999999910593033]","[0.0, 0.0, -1.2792482299640686]","[0.0957116037607193, 0.0736953467130661, 0.03999999910593033]","[0.0, 0.0, -1.0390562259147462]",1.210632571455348,-16.283535238809286,"(0.0, 0.0, 0.0, 0.0, 0.0, 0.0)",2.771136716181199,-0.3095085607892871,-15.746535439217235,"(0.0, 0.0, 0.0, 0.0, 0.0, 0.0)",0.3469037989659341,-1.211323385283169,16.3019569408845,"(0.0, 0.0, 0.0, 0.0, 0.0, 0.0)",-2.7749564531312414,0.30617317599991634,15.835479338328643,"(0.0, 0.0, 0.0, 0.0, 0.0, 0.0)",-0.3479929302165593,False,,,,,False,,,,
8,Close,,,"(0.010001648057231211, 0.16002636889308344, 0.03133184175509247)","(-0.0005384699893107284, 3.3654401557527444e-05, -9.06094284338731e-09)",,"[-0.026750000193715096, 0.05299999937415123, 0.03999999910593033]","[0.0, -0.0, 1.0006360422079206]","[-0.08736064285039902, 0.0918632224202156, 0.03999999910593033]","[0.0, -0.0, 0.4880565025715103]","[0.026750000193715096, 0.05299999937415123, 0.03999999910593033]","[0.0, 0.0, -1.001089448203126]","[0.08737824857234955, 0.09183574467897415, 0.03999999910593033]","[0.0, 0.0, -0.49069812233338583]",0.9605724271186684,-9.615264723164493,"(0.0, 0.0, 0.0, 0.0, 0.0, 0.0)",1.6441783201079794,-0.5513218025251249,-9.298144061583436,"(0.0, 0.0, 0.0, 0.0, 0.0, 0.0)",0.21014173445603831,-0.9609803457758583,9.626142554022893,"(0.0, 0.0, 0.0, 0.0, 0.0, 0.0)",-1.6464751946207798,0.5493522946545342,9.350664461360347,"(0.0, 0.0, 0.0, 0.0, 0.0, 0.0)",-0.2108204377510729,False,,,,,False,,,,
9,Close,,,"(0.010002470404691093, 0.16003952644115657, 0.04045997120998789)","(-0.0008073642479911328, 5.0460303253361964e-05, -2.0369923505779015e-08)",,"[-0.026750000193715096, 0.05299999937415123, 0.03999999910593033]","[0.0, -0.0, 0.8365715799965936]","[-0.0801992267370224, 0.1012408509850502, 0.03999999910593033]","[0.0, -0.0, 0.16533874626364803]","[0.026750000193715096, 0.05299999937415123, 0.03999999910593033]","[0.0, 0.0, -0.8368392086626993]","[0.08021213859319687, 0.10122654587030411, 0.03999999910593033]","[0.0, 0.0, -0.1668985823484083]",0.8129144124893025,-5.677717666381402,"(0.0, 0.0, 0.0, 0.0, 0.0, 0.0)",0.9736078226475493,-0.6941096683608667,-5.490444078796776,"(0.0, 0.0, 0.0, 0.0, 0.0, 0.0)",0.12593397924105265,-0.8131552843771866,5.684140916724979,"(0.0, 0.0, 0.0, 0.0, 0.0, 0.0)",-0.9749785244213759,0.6929466958025952,5.521456795952681,"(0.0, 0.0, 0.0, 0.0, 0.0, 0.0)",-0.12634715317523504,False,,,,,False,,,,
10,Close,,,"(0.010003291824242136, 0.16005266914270105, 0.04523936165140331)","(-0.0010760316083767074, 6.725202012489063e-05, -3.618265319583079e-08)",,"[-0.026750000193715096, 0.05299999937415123, 0.03999999910593033]","[0.0, -0.0, 0.7396932119518481]","[-0.07528240978717804, 0.10618463158607483, 0.03999999910593033]","[0.0, 0.0, -0.025223688738047617]","[0.026750000193715096, 0.05299999937415123, 0.03999999910593033]","[0.0, 0.0, -0.7398511766938903]","[0.07529081404209137, 0.10617695748806, 0.03999999910593033]","[0.0, -0.0, 0.02430263317545323]",0.7257238314308083,-3.352635504821555,"(0.0, 0.0, 0.0, 0.0, 0.0, 0.0)",0.5758654822812497,-0.7784262532781683,-3.242260203768412,"(0.0, 0.0, 0.0, 0.0, 0.0, 0.0)",0.0750123771406224,-0.725866063871885,3.3564283699169333,"(0.0, 0.0, 0.0, 0.0, 0.0, 0.0)",-0.5766799137830688,0.7777395376647703,3.260573592131318,"(0.0, 0.0, 0.0, 0.0, 0.0, 0.0)",-0.0752606958188736,False,,,,,False,,,,
11,Close,,,"(0.009997966950406065, 0.16004795201914346, 0.046616050094935475)","(-0.0009640430328522325, -5.7324486097668704e-05, 4.2980615420070005e-09)",,"[-0.026750000193715096, 0.05299999937415123, 0.03999999910593033]","[0.0, -0.0, 0.682487397988505]","[-0.0721622109413147, 0.10887245088815689, 0.03999999910593033]","[0.0, 0.0, -0.13775029188859572]","[0.026750000193715096, 0.05299999937415123, 0.03999999910593033]","[0.0, 0.0, -0.6825807377410441]","[0.07216742634773254, 0.10886821150779724, 0.03999999910593033]","[0.0, -0.0, 0.1372064129763775]",0.6742386185346878,-1.979696494258342,"(0.0, 0.0, 0.0, 0.0, 0.0, 0.0)",0.34037467823530393,-0.8282145265472606,-1.9144534778819295,"(0.0, 0.0, 0.0, 0.0, 0.0, 0.0)",0.04449932044982575,-0.674322605213594,1.981936139029174,"(0.0, 0.0, 0.0, 0.0, 0.0, 0.0)",-0.3408573424145132,0.8278090365055835,1.9252671252731466,"(0.0, 0.0, 0.0, 0.0, 0.0, 0.0)",-0.04464739446319682,False,,,,,False,,,,
12,Close,,,"(0.009998679410322496, 0.16003066597344334, 0.0474253884764576)","(-0.0006112814540129935, -4.2805404436077314e-05, 1.9447426774393396e-07)",,"[-0.026750000193715096, 0.05299999937415123, 0.03999999910593033]","[0.0, -0.0, 0.6487079580530938]","[-0.07024932652711868, 0.11037428677082062, 0.03999999910593033]","[0.0, 0.0, -0.20419532625251113]","[0.026750000193715096, 0.05299999937415123, 0.03999999910593033]","[0.0, 0.0, -0.6487631098841893]","[0.07025248557329178, 0.11037188768386841, 0.03999999910593033]","[0.0, -0.0, 0.20387417727936794]",0.6438371618585478,-1.1689909828946077,"(0.0, 0.0, 0.0, 0.0, 0.0, 0.0)",0.20110328062585062,-0.8576133287829941,-1.1304144347684295,"(0.0, 0.0, 0.0, 0.0, 0.0, 0.0)",0.026365137971139978,-0.6438867551525752,1.1703134707353389,"(0.0, 0.0, 0.0, 0.0, 0.0, 0.0)",-0.20138889834359572,0.857373897412956,1.136799615752827,"(0.0, 0.0, 0.0, 0.0, 0.0, 0.0)",-0.026453134766811503,False,,,,,False,,,,
13,Close,,,"(0.008562352819313064, 0.15963169911231415, 0.04795936059784778)","(0.002880050037504477, -0.0018080766405500393, 0.027156574699580344)",,"[-0.026750000193715096, 0.05299999937415123, 0.03999999910593033]","[0.0, -0.0, 0.6287615983534538]","[-0.06909634172916412, 0.11123047024011612, 0.03999999910593033]","[0.0, 0.0, -0.24342883421715172]","[0.026750000193715096, 0.05299999937415123, 0.03999999910593033]","[0.0, 0.0, -0.6288059721302652]","[0.06909892708063126, 0.1112285852432251, 0.03999999910593033]","[0.0, -0.0, 0.24295585513718987]",0.6258854057058539,-0.6902774854894381,"(0.0, 0.0, 0.0, 0.0, 0.0, 0.0)",0.11878846609148704,-0.8749713231347032,-0.6674313830745814,"(0.0, 0.0, 0.0, 0.0, 0.0, 0.0)",0.015594191474811038,-0.6259255556368085,0.6912982329409242,"(0.0, 0.0, 0.0, 0.0, 0.0, 0.0)",0.23889456753769728,0.8745816224765113,0.6767593625972839,"(0.0, 0.0, 0.0, 0.0, 0.0, 0.0)",0.18939691443679915,False,,,,,True,"(0.040048198705117485, 0.17954190147604243, 0.02399995236517949)","(-0.9999968496142797, -0.00250969405768167, -4.6874861287478436e-05)",-8.481535683957195e-06,2.863336982423626
14,Move,,,"(0.003226703519616097, 0.15887842572556865, 0.048057042824217085)","(0.00733137607255103, 0.004060605831319912, 0.12411081910370701)","[0.0, 0.0, 0.0]","[-0.026750000193715096, 0.05299999937415123, 0.03999999910593033]","[0.0, -0.0, 0.5601465041237582]","[-0.06500434130430222, 0.11399676650762558, 0.03999999910593033]","[0.0, 0.0, -0.31665092698218517]","[0.026750000193715096, 0.05299999937415123, 0.03999999910593033]","[0.0, 0.0, -0.5704848668453074]","[0.0656328946352005, 0.11359802633523941, 0.03999999910593033]","[0.0, -0.0, 0.3056114929739557]",0.5446837312064112,-3.7110582962534506,"(0.0, 0.0, 0.0, 0.0, 0.0, 0.0)",-53.09089974488294,-0.8536776571297426,5.5487419201507295,"(0.0, 0.0, 0.0, 0.0, 0.0, 0.0)",-27.521806933097807,-0.5577558572400253,3.0549589579805563,"(0.0, 0.0, 0.0, 0.0, 0.0, 0.0)",39.845640952717,0.8551826533669656,-5.0192908628628805,"(0.0, 0.0, 0.0, 0.0, 0.0, 0.0)",19.520428399002,True,"(-0.031006456029053206, 0.18019920383377602, 0.023994329638221932)","(0.9922239401206523, 0.12433627092149606, -0.005669601818851313)",-0.0005148038489068186,428.5206410406488,True,"(0.03236246380961459, 0.17994971919477992, 0.023997959838382148)","(-0.9993845697424365, -0.035018889211399305, -0.00203940165862912)",0.0005577664042068458,310.72647358115125
15,Move,"(-0.0070999999999999995, 0.0, -0.0011)","(0.0, 0.12507378485641765, 0.0)","(0.0029030576405872175, 0.1611413891233706, 0.04820467792061843)","(-0.008276879506133036, -0.0005640458816015953, 0.1229827428336943)","[-0.00032364587902887964, 0.002262963397801937, 0.00014763509640134537]","[-0.026750000193715096, 0.05299999937415123, 0.03999999910593033]","[0.0, -0.0, 0.5353364942451276]","[-0.06347939372062683, 0.11492698639631271, 0.03999999910593033]","[0.0, 0.0, -0.30152021778527116]","[0.026750000193715096, 0.05299999937415123, 0.03999999910593033]","[0.0, 0.0, -0.547998234098171]","[0.06426053494215012, 0.11445697396993637, 0.03999999910593033]","[0.0, -0.0, 0.29091842496419895]",0.5365482737733229,0.29084507557534145,"(0.0, 0.0, 0.0, 0.0, 0.0, 0.0)",-1.2119512510504913,-0.8379784629632591,-0.2692348996004614,"(0.0, 0.0, 0.0, 0.0, 0.0, 0.0)",-0.5923136599253175,-0.5484150452208327,-0.10004153167602058,"(0.0, 0.0, 0.0, 0.0, 0.0, 0.0)",1.8208604917999893,0.8396673493562784,0.1801747295702455,"(0.0, 0.0, 0.0, 0.0, 0.0, 0.0)",1.0600605243768688,True,"(-0.030484767842442806, 0.18161905344403784, 0.023997901609242714)","(0.9924734529788142, 0.12244200699655519, -0.002097630798068703)",-0.000784129864251629,7.789554509944789,True,"(0.03207987745627103, 0.18014794084358116, 0.056002098390757274)","(-0.9924734529788147, -0.12244200699655076, 0.0020976307980572007)",-0.0001700352158974511,13.398596496461703
16,Move,"(-0.014199999999999999, 0.0, -0.0025)","(0.0, 0.15092211107845369, 0.0)","(0.0020856777958019827, 0.16108192264350135, 0.04850062485620999)","(-0.0038732238626461375, -0.003658343668864794, 0.12260870668492432)","[-0.0011410257238141145, 0.0022034969179327013, 0.00044358203199290624]","[-0.026750000193715096, 0.05299999937415123, 0.03999999910593033]","[0.0, -0.0, 0.5423790555475504]","[-0.06391460448503494, 0.11466678231954575, 0.03999999910593033]","[0.0, 0.0, -0.29422832124248266]","[0.026750000193715096, 0.05299999937415123, 0.03999999910593033]","[0.0, 0.0, -0.5426486134950301]","[0.06393121927976608, 0.11465676128864288, 0.03999999910593033]","[0.0, -0.0, 0.29455828515130694]",0.5436541455165319,0.30601460548016624,"(0.0, 0.0, 0.0, 0.0, 0.0, 0.0)",-1.8023075696693434,-0.835948598492801,0.15811669083252247,"(0.0, 0.0, 0.0, 0.0, 0.0, 0.0)",-0.8363169236074408,-0.5409946651982032,0.3969336730322965,"(0.0, 0.0, 0.0, 0.0, 0.0, 0.0)",2.6450850369394163,0.8363860026044526,-0.196992999782213,"(0.0, 0.0, 0.0, 0.0, 0.0, 0.0)",1.4057201035623095,True,"(-0.03140716905223881, 0.181597665257452, 0.023997901609242714)","(0.9924734529788142, 0.12244200699655519, -0.002097630798068703)",-0.0004663266418784007,4.790825269902937,True,"(0.03151167835555091, 0.1802301615157179, 0.056002098390757274)","(-0.9924734529788147, -0.12244200699655076, 0.0020976307980572007)",-3.653089247547536e-05,12.871848653714437
17,Move,"(-0.0209, 0.0, -0.0111)","(0.0, 0.08624544498729982, 0.0)","(0.0007260551479937627, 0.16095355070974027, 0.04859696913153208)","(0.00045194561923008446, -0.00357791952652575, 0.12546172738764572)","[-0.0025006483716223343, 0.002075124984171617, 0.000539926307314996]","[-0.026750000193715096, 0.05299999937415123, 0.03999999910593033]","[0.0, -0.0, 0.5528767345320541]","[-0.06455990672111511, 0.11427325010299683, 0.03999999910593033]","[0.0, 0.0, -0.2812901895816341]","[0.026750000193715096, 0.05299999937415123, 0.03999999910593033]","[0.0, 0.0, -0.5307889507253835]","[0.06319740414619446, 0.11509337276220322, 0.03999999910593033]","[0.0, -0.0, 0.3032256249215085]",0.5550439791449425,0.5201342740851256,"(0.0, 0.0, 0.0, 0.0, 0.0, 0.0)",-1.039369810931367,-0.8339131856803054,0.06090260333743728,"(0.0, 0.0, 0.0, 0.0, 0.0, 0.0)",-0.4573477706626092,-0.528444439558734,0.5626835500018521,"(0.0, 0.0, 0.0, 0.0, 0.0, 0.0)",1.4609073814311975,0.8336101759055344,-0.09705517654897287,"(0.0, 0.0, 0.0, 0.0, 0.0, 0.0)",0.8350071328194886,True,"(-0.03292112454687893, 0.1816191050235331, 0.023997901609242714)","(0.9924734529788142, 0.12244200699655519, -0.002097630798068703)",-0.00027552314897867983,7.458241440102419,True,"(0.03021073226973245, 0.18038331809222663, 0.056002098390757274)","(-0.9924734529788147, -0.12244200699655076, 0.0020976307980572007)",2.7573367433695434e-05,6.514236131585187
18,Move,"(-0.024399999999999998, 0.0, -0.024300000000000002)","(0.0, 0.025689501260104535, 0.0)","(-0.000816186608652952, 0.16093084450632283, 0.04871248539450113)","(-0.0005009727436144194, -0.002657629098729021, 0.13144511694669803)","[-0.004042890128269049, 0.002052418780754184, 0.0006554425702840483]","[-0.026750000193715096, 0.05299999937415123, 0.03999999910593033]","[0.0, -0.0, 0.5657596191108096]","[-0.0653461217880249, 0.11378107964992523, 0.03999999910593033]","[0.0, 0.0, -0.2668861335881217]","[0.026750000193715096, 0.05299999937415123, 0.03999999910593033]","[0.0, 0.0, -0.5167791578591505]","[0.062323931604623795, 0.11559788882732391, 0.03999999910593033]","[0.0, -0.0, 0.3147529977062891]",0.5681098299840454,0.5640433738838455,"(0.0, 0.0, 0.0, 0.0, 0.0, 0.0)",-0.8151851620119157,-0.8324038400466732,0.05806983426093637,"(0.0, 0.0, 0.0, 0.0, 0.0, 0.0)",-0.36288589159753004,-0.5142030374727797,0.6182485723930043,"(0.0, 0.0, 0.0, 0.0, 0.0, 0.0)",1.311857523891294,0.8311669801599121,-0.08762370813390075,"(0.0, 0.0, 0.0, 0.0, 0.0, 0.0)",0.760250560429558,True,"(-0.03468064332691593, 0.18157565719406707, 0.023997901609242714)","(0.9924734529788142, 0.12244200699655519, -0.002097630798068703)",-0.00020330119585100403,5.574963978282391,True,"(0.028586848903448543, 0.18050325196729983, 0.056002098390757274)","(-0.9924734529788147, -0.12244200699655076, 0.0020976307980572007)",1.1688510867450747e-05,7.5782531786489455
19,Move,"(-0.029500000000000002, 0.0, -0.0299)","(0.0, 0.052286573731246115, 0.0)","(-0.002774572669242438, 0.16085154316490283, 0.048773992583694144)","(0.0009293942912210272, -0.0024691240668602366, 0.13684722804252317)","[-0.0060012761888585345, 0.0019731174393341766, 0.0007169497594770591]","[-0.026750000193715096, 0.05299999937415123, 0.03999999910593033]","[0.0, -0.0, 0.580940607162267]","[-0.06626435369253159, 0.11318816989660263, 0.03999999910593033]","[0.0, 0.0, -0.249843638945069]","[0.026750000193715096, 0.05299999937415123, 0.03999999910593033]","[0.0, 0.0, -0.4997854178395655]","[0.0612550750374794, 0.11619335412979126, 0.03999999910593033]","[0.0, -0.0, 0.3289595637106367]",0.583820568193314,0.6911905910901771,"(0.0, 0.0, 0.0, 0.0, 0.0, 0.0)",-1.1968743375637478,-0.8304195224146006,0.08753496741951752,"(0.0, 0.0, 0.0, 0.0, 0.0, 0.0)",-0.5294444608410345,-0.4965265708230907,0.7821089097418168,"(0.0, 0.0, 0.0, 0.0, 0.0, 0.0)",1.6565582332936848,0.8282248993987397,-0.12480306281875524,"(0.0, 0.0, 0.0, 0.0, 0.0, 0.0)",0.9449831419329514,True,"(-0.036758662236753004, 0.1814954960029624, 0.023997901609242714)","(0.9924734529788142, 0.12244200699655519, -0.002097630798068703)",-0.00014718741279992926,8.083588392120078,True,"(0.026599347185438056, 0.18061289658037788, 0.056002098390757274)","(-0.9924734529788147, -0.12244200699655076, 0.0020976307980572007)",1.2666906533148997e-05,8.902794150876112
20,Move,"(-0.0268, 0.0, -0.0349)","(0.0, 0.09839817256893633, 0.0)","(-0.004462245131269199, 0.16086963322280523, 0.048826537705890516)","(-0.00026872415828756976, -0.0019167671391487227, 0.13958534549057966)","[-0.007688948650885296, 0.00199120749723658, 0.0007694948816734312]","[-0.026750000193715096, 0.05299999937415123, 0.03999999910593033]","[0.0, -0.0, 0.5942736417956611]","[-0.06706330925226212, 0.11265598982572556, 0.03999999910593033]","[0.0, 0.0, -0.23408737372408733]","[0.026750000193715096, 0.05299999937415123, 0.03999999910593033]","[0.0, 0.0, -0.4840128495431642]","[0.06025410443544388, 0.11672970652580261, 0.03999999910593033]","[0.0, -0.0, 0.34170145673343133]",0.5963806673290565,0.5056827345948992,"(0.0, 0.0, 0.0, 0.0, 0.0, 0.0)",-1.2885325244273682,-0.827969052971292,0.09407645061458139,"(0.0, 0.0, 0.0, 0.0, 0.0, 0.0)",-0.6296325413579811,-0.48143901638169523,0.6177044796280091,"(0.0, 0.0, 0.0, 0.0, 0.0, 0.0)",1.7674121340418019,0.8252073441596178,-0.12165809777406153,"(0.0, 0.0, 0.0, 0.0, 0.0, 0.0)",0.9720729869744169,True,"(-0.03863750410992295, 0.18141971642438381, 0.023997901609242714)","(0.9924734529788142, 0.12244200699655519, -0.002097630798068703)",-0.00011643530600659674,9.27725169500741,True,"(0.024780382052939212, 0.18070244982502603, 0.056002098390757274)","(-0.9924734529788147, -0.12244200699655076, 0.0020976307980572007)",2.3995507843917394e-05,7.083458341673351
21,Move,"(-0.0209, 0.0, -0.0354)","(0.0, 0.11331201102722786, 0.0)","(-0.005392169103562425, 0.16089314407664143, 0.048878503372914044)","(-0.0005310702098249513, -0.001401915689869058, 0.14106897571711272)","[-0.008618872623178522, 0.0020147183510727806, 0.000821460548696959]","[-0.026750000193715096, 0.05299999937415123, 0.03999999910593033]","[0.0, -0.0, 0.6019984862037596]","[-0.06752293556928635, 0.11234279721975327, 0.03999999910593033]","[0.0, 0.0, -0.22435507940600352]","[0.026750000193715096, 0.05299999937415123, 0.03999999910593033]","[0.0, 0.0, -0.47388897465924407]","[0.05960720777511597, 0.11706562340259552, 0.03999999910593033]","[0.0, -0.0, 0.3490564220618922]",0.6030017107455724,0.24077033323960056,"(0.0, 0.0, 0.0, 0.0, 0.0, 0.0)",-0.9915207796562481,-0.8259994843787605,0.0849817878338273,"(0.0, 0.0, 0.0, 0.0, 0.0, 0.0)",-0.47367744918660687,-0.47248266633374325,0.33750732305693365,"(0.0, 0.0, 0.0, 0.0, 0.0, 0.0)",1.7588851163376737,0.8224360538977864,-0.12224295694099821,"(0.0, 0.0, 0.0, 0.0, 0.0, 0.0)",0.9642509397265815,True,"(-0.0397676954156395, 0.18137991330762454, 0.023997901609242714)","(0.9924734529788142, 0.12244200699655519, -0.002097630798068703)",-0.00010764532532742799,7.220022290120294,True,"(0.023663932077347835, 0.18077573163341532, 0.056002098390757274)","(-0.9924734529788147, -0.12244200699655076, 0.0020976307980572007)",7.133237960369087e-06,10.016271687723885
22,Move,"(-0.0246, 0.0, -0.04020000000000001)","(0.0, 0.14520441244892024, 0.0)","(-0.006515510734992608, 0.1608552342455861, 0.0488950111781321)","(0.00033872311457092596, -0.0016091625283357065, 0.14414169265777663)","[-0.009742214254608705, 0.0019768085200174423, 0.0008379683539150168]","[-0.026750000193715096, 0.05299999937415123, 0.03999999910593033]","[0.0, -0.0, 0.6095417979507805]","[-0.067969411611557, 0.11203355342149734, 0.03999999910593033]","[0.0, 0.0, -0.21435582918227974]","[0.026750000193715096, 0.05299999937415123, 0.03999999910593033]","[0.0, 0.0, -0.4635036981787768]","[0.058940112590789795, 0.11740338802337646, 0.03999999910593033]","[0.0, -0.0, 0.35594777018204393]",0.6110546825672409,0.3630973290714282,"(0.0, 0.0, 0.0, 0.0, 0.0, 0.0)",-1.4346101309278345,-0.8234132775839413,0.11623029857530041,"(0.0, 0.0, 0.0, 0.0, 0.0, 0.0)",-0.7034000379647444,-0.46142363812798426,0.4992164413085181,"(0.0, 0.0, 0.0, 0.0, 0.0, 0.0)",2.176268263410306,0.8188209681010559,-0.15132244240717252,"(0.0, 0.0, 0.0, 0.0, 0.0, 0.0)",1.1742028064905161,True,"(-0.04090586780930882, 0.1813447428755509, 0.023997901609242714)","(0.9924734529788142, 0.12244200699655519, -0.002097630798068703)",-8.709543567578307e-05,9.995207061917739,True,"(0.02255864556740382, 0.18086429327057757, 0.056002098390757274)","(-0.9924734529788147, -0.12244200699655076, 0.0020976307980572007)",1.8004998700334602e-05,10.2845011033012
23,Move,"(-0.023899999999999998, 0.0, -0.0422)","(0.0, 0.1988924855695178, 0.0)","(-0.00760677280360073, 0.1608983340600631, 0.04893320195183979)","(-0.00033298976999012944, -0.0018464791191000563, 0.14567086934361356)","[-0.010833476323216826, 0.002019908334494447, 0.0008761591276227054]","[-0.026750000193715096, 0.05299999937415123, 0.03999999910593033]","[0.0, -0.0, 0.6167783851619614]","[-0.06839552521705627, 0.11173371970653534, 0.03999999910593033]","[0.0, 0.0, -0.20378031140074582]","[0.026750000193715096, 0.05299999937415123, 0.03999999910593033]","[0.0, 0.0, -0.4524572940421155]","[0.05822673439979553, 0.11775504052639008, 0.03999999910593033]","[0.0, -0.0, 0.36285507528451955]",0.6179473453836046,0.2805650491864032,"(0.0, 0.0, 0.0, 0.0, 0.0, 0.0)",-1.84967944232058,-0.8199402701064104,0.1484028623445268,"(0.0, 0.0, 0.0, 0.0, 0.0, 0.0)",-0.9368279033991836,-0.45055011299261694,0.45772264587124123,"(0.0, 0.0, 0.0, 0.0, 0.0, 0.0)",2.729595054878338,0.8145068584081743,-0.1933273781974958,"(0.0, 0.0, 0.0, 0.0, 0.0, 0.0)",1.4375702788249272,True,"(-0.04206648430085228, 0.18132724288730015, 0.023997901609242714)","(0.9924734529788142, 0.12244200699655519, -0.002097630798068703)",-7.866217240791878e-05,12.682901638259157,True,"(0.021407795630511393, 0.1809631315144425, 0.056002098390757274)","(-0.9924734529788147, -0.12244200699655076, 0.0020976307980572007)",2.5952121814432576e-05,12.09296445227488
24,Move,"(-0.021, 0.0, -0.04)","(0.0, 0.18846763394735566, 0.0)","(-0.008290706783650417, 0.16095881349003985, 0.04895387303392777)","(-0.0007167835118242198, -0.0016579534968368796, 0.1469281061860743)","[-0.011517410303266515, 0.0020803877644711977, 0.0008968302097106876]","[-0.026750000193715096, 0.05299999937415123, 0.03999999910593033]","[0.0, -0.0, 0.6212454355521652]","[-0.06865748018026352, 0.11154710501432419, 0.03999999910593033]","[0.0, 0.0, -0.196167925454739]","[0.026750000193715096, 0.05299999937415123, 0.03999999910593033]","[0.0, 0.0, -0.44427524662677353]","[0.05769585818052292, 0.11801041662693024, 0.03999999910593033]","[0.0, -0.0, 0.36704944786710747]",0.6218491837464267,0.14490285955785415,"(0.0, 0.0, 0.0, 0.0, 0.0, 0.0)",-1.5403576328967787,-0.8168852452064006,0.12674660865213366,"(0.0, 0.0, 0.0, 0.0, 0.0, 0.0)",-0.7709389809226215,-0.4430495907154541,0.2941503534508989,"(0.0, 0.0, 0.0, 0.0, 0.0, 0.0)",2.46969766554715,0.8106523491660929,-0.1613469994797411,"(0.0, 0.0, 0.0, 0.0, 0.0, 0.0)",1.3021979732415239,True,"(-0.04285896562148095, 0.18133903060231651, 0.023997901609242714)","(0.9924734529788142, 0.12244200699655519, -0.002097630798068703)",-7.719228668179179e-05,10.655715771066255,True,"(0.02061212756939594, 0.18106352038017534, 0.056002098390757274)","(-0.9924734529788147, -0.12244200699655076, 0.0020976307980572007)",1.9513895671517884e-05,11.60220630362347
25,Move,"(-0.0213, 0.0, -0.0399)","(0.0, 0.18846763394735566, 0.0)","(-0.008900260594965462, 0.16098378964180493, 0.0489436591537427)","(9.067207355877889e-05, -0.001810811850132784, 0.1482986375298716)","[-0.01212696411458156, 0.0021053639162362803, 0.0008866163295256149]","[-0.026750000193715096, 0.05299999937415123, 0.03999999910593033]","[0.0, -0.0, 0.6246290585238384]","[-0.06885533779859543, 0.11140497028827667, 0.03999999910593033]","[0.0, 0.0, -0.18971900581717555]","[0.026750000193715096, 0.05299999937415123, 0.03999999910593033]","[0.0, 0.0, -0.437383085549945]","[0.057247065007686615, 0.11822215467691422, 0.03999999910593033]","[0.0, -0.0, 0.3701004108045599]",0.6252295531610426,0.14412336622554262,"(0.0, 0.0, 0.0, 0.0, 0.0, 0.0)",-1.554007307615183,-0.8138069611825447,0.12986167873967888,"(0.0, 0.0, 0.0, 0.0, 0.0, 0.0)",-0.771524334044974,-0.43615396681024654,0.2949901157275895,"(0.0, 0.0, 0.0, 0.0, 0.0, 0.0)",2.493620304516673,0.8068055070096449,-0.162712721190556,"(0.0, 0.0, 0.0, 0.0, 0.0, 0.0)",1.3167557931162355,True,"(-0.04350744237013447, 0.18136181703071808, 0.023997901609242714)","(0.9924734529788142, 0.12244200699655519, -0.002097630798068703)",-6.819191832871963e-05,10.658511466244638,True,"(0.019971135794599013, 0.1811618226135801, 0.056002098390757274)","(-0.9924734529788147, -0.12244200699655076, 0.0020976307980572007)",2.1078750865744585e-05,11.365235619864404
26,Move,"(-0.0209, 0.0, -0.0417)","(0.0, 0.1988924855695178, 0.0)","(-0.009432247165054471, 0.16104651135150322, 0.04895861719046417)","(-0.00024722624602125287, -0.0017878901516224313, 0.14950633766667473)","[-0.012658950684670569, 0.0021680856259345682, 0.0009015743662470835]","[-0.026750000193715096, 0.05299999937415123, 0.03999999910593033]","[0.0, -0.0, 0.6274358420479954]","[-0.06901910901069641, 0.11128655821084976, 0.03999999910593033]","[0.0, 0.0, -0.18380000943983527]","[0.026750000193715096, 0.05299999937415123, 0.03999999910593033]","[0.0, 0.0, -0.43095234643357494]","[0.056827008724212646, 0.1184169203042984, 0.03999999910593033]","[0.0, -0.0, 0.37260615522501445]",0.6278842316187538,0.10760202496262458,"(0.0, 0.0, 0.0, 0.0, 0.0, 0.0)",-1.6018630634425377,-0.8106713151641115,0.13549910344668625,"(0.0, 0.0, 0.0, 0.0, 0.0, 0.0)",-0.8042963395621067,-0.4298503311143882,0.2644781529188904,"(0.0, 0.0, 0.0, 0.0, 0.0, 0.0)",2.58612201397409,0.8028538969997574,-0.16909849959429257,"(0.0, 0.0, 0.0, 0.0, 0.0, 0.0)",1.3498982614664554,True,"(-0.04408572703895393, 0.18139221178101378, 0.023997901609242714)","(0.9924734529788142, 0.12244200699655519, -0.002097630798068703)",-6.641816159757785e-05,10.92004064881762,True,"(0.01939348459306607, 0.18126298995844237, 0.056002098390757274)","(-0.9924734529788147, -0.12244200699655076, 0.0020976307980572007)",1.8268912632095033e-05,12.410644201316249
27,Move,"(-0.0227, 0.0, -0.039700000000000006)","(0.0, 0.18542901571963355, 0.0)","(-0.010075227223158288, 0.1610912711305391, 0.048969873474709685)","(-0.000466670402894448, -0.0018185340222556215, 0.15084478694694384)","[-0.013301930742774385, 0.002212845404970437, 0.0009128306504926006]","[-0.026750000193715096, 0.05299999937415123, 0.03999999910593033]","[0.0, -0.0, 0.6307725335856773]","[-0.06921334564685822, 0.11114519834518433, 0.03999999910593033]","[0.0, 0.0, -0.17735010260203865]","[0.026750000193715096, 0.05299999937415123, 0.03999999910593033]","[0.0, 0.0, -0.4240174529793841]","[0.05637263134121895, 0.11862392723560333, 0.03999999910593033]","[0.0, -0.0, 0.37561356379512306]",0.6314411400550801,0.16048697193549571,"(0.0, 0.0, 0.0, 0.0, 0.0, 0.0)",-1.5931416294416496,-0.80755926158474,0.1351861646439718,"(0.0, 0.0, 0.0, 0.0, 0.0, 0.0)",-0.8056568813652475,-0.42271388203375293,0.31285545952157356,"(0.0, 0.0, 0.0, 0.0, 0.0, 0.0)",2.5143459310134917,0.798948199447327,-0.16387168547716513,"(0.0, 0.0, 0.0, 0.0, 0.0, 0.0)",1.3130753605383827,True,"(-0.04473265847355309, 0.1814102131793578, 0.023997901609242714)","(0.9924734529788142, 0.12244200699655519, -0.002097630798068703)",-6.287275284754004e-05,10.737903220313926,True,"(0.018750272930913837, 0.18135713396536227, 0.056002098390757274)","(-0.9924734529788147, -0.12244200699655076, 0.0020976307980572007)",1.906091807465264e-05,11.591073908505098
28,Move,"(-0.0265, 0.0, -0.044700000000000004)","(0.0, 0.19366347913054283, 0.0)","(-0.011056404874099613, 0.1610847031304096, 0.04895421789297826)","(0.00047019300207255506, -0.002137438229910804, 0.15258617090860446)","[-0.01428310839371571, 0.002206277404840945, 0.0008971750687611774]","[-0.026750000193715096, 0.05299999937415123, 0.03999999910593033]","[0.0, -0.0, 0.6362531104838551]","[-0.0695313811302185, 0.11091160029172897, 0.03999999910593033]","[0.0, 0.0, -0.16827367882016459]","[0.026750000193715096, 0.05299999937415123, 0.03999999910593033]","[0.0, 0.0, -0.4145414093610885]","[0.055749453604221344, 0.11890168488025665, 0.03999999910593033]","[0.0, -0.0, 0.3808047583869318]",0.6373828523930427,0.2711458590378608,"(0.0, 0.0, 0.0, 0.0, 0.0, 0.0)",-1.9756938938879447,-0.8038761726166754,0.15614231615825827,"(0.0, 0.0, 0.0, 0.0, 0.0, 0.0)",-0.9640084669410599,-0.4126581648638261,0.4519647638910652,"(0.0, 0.0, 0.0, 0.0, 0.0, 0.0)",2.849199290367799,0.7945265734708556,-0.19669808995317278,"(0.0, 0.0, 0.0, 0.0, 0.0, 0.0)",1.4923007461444815,True,"(-0.04568944503434265, 0.1813959144072529, 0.023997901609242714)","(0.9924734529788142, 0.12244200699655519, -0.002097630798068703)",-5.51946057112344e-05,13.134844735195108,True,"(0.017801938586134672, 0.18143873893293372, 0.056002098390757274)","(-0.9924734529788147, -0.12244200699655076, 0.0020976307980572007)",2.9238885297066335e-05,11.734874831932965
29,Move,"(-0.024300000000000002, 0.0, -0.0405)","(0.0, 0.19064405952459257, 0.0)","(-0.011783702946036277, 0.16113061529237646, 0.04896989098266521)","(4.739158070512827e-05, -0.0021137725380552096, 0.1537653781307815)","[-0.015010406465652375, 0.0022521895668078107, 0.0009128481584481235]","[-0.026750000193715096, 0.05299999937415123, 0.03999999910593033]","[0.0, -0.0, 0.6407057031581309]","[-0.06978881359100342, 0.11072053760290146, 0.03999999910593033]","[0.0, 0.0, -0.1603137412263647]","[0.026750000193715096, 0.05299999937415123, 0.03999999910593033]","[0.0, 0.0, -0.40614142101720885]","[0.05519486963748932, 0.11914294958114624, 0.03999999910593033]","[0.0, -0.0, 0.385029451995585]",0.6413259096166218,0.14884764857499336,"(0.0, 0.0, 0.0, 0.0, 0.0, 0.0)",-1.7514445233440616,-0.8004069391217926,0.14700642962269772,"(0.0, 0.0, 0.0, 0.0, 0.0, 0.0)",-0.8951678710045514,-0.4048445401640028,0.31126105580408747,"(0.0, 0.0, 0.0, 0.0, 0.0, 0.0)",2.615106220613632,0.7904650481803357,-0.1694135611950389,"(0.0, 0.0, 0.0, 0.0, 0.0, 0.0)",1.3598042913616872,True,"(-0.046508678997768255, 0.18139239642703697, 0.023997901609242714)","(0.9924734529788142, 0.12244200699655519, -0.002097630798068703)",-5.5391305783322524e-05,11.800937457479971,True,"(0.016983495552157425, 0.18151912966844197, 0.056002098390757274)","(-0.9924734529788147, -0.12244200699655076, 0.0020976307980572007)",3.094090215154315e-05,9.606519772274794
30,Move,"(-0.0218, 0.0, -0.041600000000000005)","(0.0, 0.18235898156537556, 0.0)","(-0.012169917552180345, 0.16118995116843696, 0.04898165186380421)","(-0.00022438734451611046, -0.0020495458250639705, 0.15451448276492136)","[-0.015396621071796443, 0.0023115254428683063, 0.0009246090395871251]","[-0.026750000193715096, 0.05299999937415123, 0.03999999910593033]","[0.0, -0.0, 0.6425918312852652]","[-0.0698976069688797, 0.11063925921916962, 0.03999999910593033]","[0.0, 0.0, -0.1552575083038727]","[0.026750000193715096, 0.05299999937415123, 0.03999999910593033]","[0.0, 0.0, -0.40081726519784666]","[0.05484230816364288, 0.1192934513092041, 0.03999999910593033]","[0.0, -0.0, 0.3867852803137343]",0.6427820148928101,0.04565462953858562,"(0.0, 0.0, 0.0, 0.0, 0.0, 0.0)",-1.5026585107130366,-0.7973061121191773,0.1303647300693522,"(0.0, 0.0, 0.0, 0.0, 0.0, 0.0)",-0.7581648826924056,-0.40004836480126654,0.18453545823008166,"(0.0, 0.0, 0.0, 0.0, 0.0, 0.0)",2.291790743366354,0.787009230023071,-0.14240806604891806,"(0.0, 0.0, 0.0, 0.0, 0.0, 0.0)",1.1845854129100377,True,"(-0.04697509791580607, 0.18142792548662187, 0.023997901609242714)","(0.9924734529788142, 0.12244200699655519, -0.002097630798068703)",-5.354038894909626e-05,10.179975865459374,True,"(0.016521471124181, 0.18160244775753276, 0.056002098390757274)","(-0.9924734529788147, -0.12244200699655076, 0.0020976307980572007)",3.1981643672552925e-05,7.179487977313218
31,Move,"(-0.0274, 0.0, -0.0444)","(0.0, 0.18542901571963355, 0.0)","(-0.013025686365650165, 0.16120156772379116, 0.04898988424556939)","(-0.00041966332711759616, -0.0021081335748269125, 0.15617135148650685)","[-0.016252389885266262, 0.0023231419982225054, 0.000932841421352304]","[-0.026750000193715096, 0.05299999937415123, 0.03999999910593033]","[0.0, -0.0, 0.6467248503174625]","[-0.07013546675443649, 0.11046043783426285, 0.03999999910593033]","[0.0, 0.0, -0.14769246775884448]","[0.026750000193715096, 0.05299999937415123, 0.03999999910593033]","[0.0, 0.0, -0.3928608258956344]","[0.054313965141773224, 0.11951486766338348, 0.03999999910593033]","[0.0, -0.0, 0.39070601693949136]",0.6477385224419067,0.24327835661243546,"(0.0, 0.0, 0.0, 0.0, 0.0, 0.0)",-1.9141228663796208,-0.7937321082932474,0.1644495182533144,"(0.0, 0.0, 0.0, 0.0, 0.0, 0.0)",-0.9931857591523878,-0.3911114528788421,0.41985040351479574,"(0.0, 0.0, 0.0, 0.0, 0.0, 0.0)",2.7306005348099402,0.7828105558973798,-0.1815130645830698,"(0.0, 0.0, 0.0, 0.0, 0.0, 0.0)",1.41168347366522,True,"(-0.047749127381329096, 0.18142048424454532, 0.023997901609242714)","(0.9924734529788142, 0.12244200699655519, -0.002097630798068703)",-5.398429253942397e-05,12.72809341838012,True,"(0.015749128589147163, 0.18167313875090316, 0.056002098390757274)","(-0.9924734529788147, -0.12244200699655076, 0.0020976307980572007)",3.3988374370535203e-05,9.530389910782842
