OSUrobotics/InHand-Manipulation/AnalyseData/Data/Trial Data/Better/new_hand_human_sub1_2v2_d_n_1_kpNone_kdNone_dp5_step5_save_data.csv
,Phase,human_cube_pos,human_cube_orn,Cube_Pos,Cube_Orn,Cube_pos_in_start_pos,b'l_prox_pin'_link_pos,b'l_prox_pin'_link_orn,b'l_distal_pin'_link_pos,b'l_distal_pin'_link_orn,b'r_prox_pin'_link_pos,b'r_prox_pin'_link_orn,b'r_distal_pin'_link_pos,b'r_distal_pin'_link_orn,b'l_prox_pin'_joint_angle,b'l_prox_pin'_joint_vel,b'l_prox_pin'_joint_react_forces,b'l_prox_pin'_joint_motor_torque,b'l_distal_pin'_joint_angle,b'l_distal_pin'_joint_vel,b'l_distal_pin'_joint_react_forces,b'l_distal_pin'_joint_motor_torque,b'r_prox_pin'_joint_angle,b'r_prox_pin'_joint_vel,b'r_prox_pin'_joint_react_forces,b'r_prox_pin'_joint_motor_torque,b'r_distal_pin'_joint_angle,b'r_distal_pin'_joint_vel,b'r_distal_pin'_joint_react_forces,b'r_distal_pin'_joint_motor_torque,in_contact_l,contact_point_l_dist,contact_normal_l_dist,contact_distance_l_dist,contact_norm_force_l_dist,in_contact_r,contact_point_r_dist,contact_normal_r_dist,contact_distance_r_dist,contact_norm_force_r_dist
0,Open,,,,,,"[-0.026750000193715096, 0.05299999937415123, 0.03999999910593033]","[0.0, -0.0, 0.4254700097131474]","[-0.056467924267053604, 0.11858082562685013, 0.03999999910593033]","[0.0, -0.0, 0.4254700097131474]","[0.026750000193715096, 0.05299999937415123, 0.03999999910593033]","[0.0, 0.0, -0.4429245237535421]","[0.057608019560575485, 0.1180521547794342, 0.03999999910593033]","[0.0, 0.0, -0.5266622746639338]",0.5399229999999999,27.46872,"(0.0, 0.0, 0.0, 0.0, 0.0, 0.0)",-4.377393708535371,5.294901130302062e-32,0.0,"(0.0, 0.0, 0.0, 0.0, 0.0, 0.0)",-0.30017707799641646,-0.5623038734984663,-28.651050680519948,"(0.0, 0.0, 0.0, 0.0, 0.0, 0.0)",144.45470973647488,-0.10456727132876567,-4.999096204557077,"(0.0, 0.0, 0.0, 0.0, 0.0, 0.0)",33.97911746732963,False,,,,,False,,,,
1,Open,,,,,,"[-0.026750000193715096, 0.05299999937415123, 0.03999999910593033]","[0.0, -0.0, 0.894166469119967]","[-0.08288749307394028, 0.09808415919542313, 0.03999999910593033]","[0.0, -0.0, 0.894166894674561]","[0.026750000193715096, 0.05299999937415123, 0.03999999910593033]","[0.0, 0.0, -0.9122733503889549]","[0.08369457721710205, 0.09706035256385803, 0.03999999910593033]","[0.0, 0.0, -0.9997066729229968]",0.96174983227,16.220004472800003,"(0.0, 0.0, 0.0, 0.0, 0.0, 0.0)",-2.5959652512206968,5.681494863714967e-07,3.553320838026869e-05,"(0.0, 0.0, 0.0, 0.0, 0.0, 0.0)",-0.18114955764248034,-0.9780460127037736,-15.785439661232708,"(0.0, 0.0, 0.0, 0.0, 0.0, 0.0)",2.503992476159733,-0.0786900142246732,2.098357403184359,"(0.0, 0.0, 0.0, 0.0, 0.0, 0.0)",0.15360133560797545,False,,,,,False,,,,
2,Open,,,,,,"[-0.026750000193715096, 0.05299999937415123, 0.03999999910593033]","[0.0, -0.0, 1.170927100750299]","[-0.09307006001472473, 0.08102945238351822, 0.03999999910593033]","[0.0, -0.0, 1.1709279927689973]","[0.026750000193715096, 0.05299999937415123, 0.03999999910593033]","[0.0, 0.0, -1.181618964677462]","[0.09336595237255096, 0.08031877130270004, 0.03999999910593033]","[0.0, 0.0, -1.233247876832181]",1.2108343584571122,9.577750441143678,"(0.0, 0.0, 0.0, 0.0, 0.0, 0.0)",-1.5367816122769582,9.012180617793662e-07,6.275974057005224e-06,"(0.0, 0.0, 0.0, 0.0, 0.0, 0.0)",-0.1083256720668905,-1.2204570900414513,-9.3211442655613,"(0.0, 0.0, 0.0, 0.0, 0.0, 0.0)",1.4819475463743526,-0.046466145575958295,1.239071567699341,"(0.0, 0.0, 0.0, 0.0, 0.0, 0.0)",0.09166748660725833,False,,,,,False,,,,
3,Open,,,,,,"[-0.026750000193715096, 0.05299999937415123, 0.03999999910593033]","[0.0, -0.0, 1.334351465706577]","[-0.09674673527479172, 0.06986585259437561, 0.03999999910593033]","[0.0, -0.0, 1.33435435145599]","[0.026750000193715096, 0.05299999937415123, 0.03999999910593033]","[0.0, 0.0, -1.3406650641721125]","[0.09685182571411133, 0.06942359358072281, 0.03999999910593033]","[0.0, 0.0, -1.3711530696282732]",1.3579162851496,5.655565729344001,"(0.0, 0.0, 0.0, 0.0, 0.0, 0.0)",-0.9088150211252332,3.4316066113876724e-06,0.0001607445165674468,"(0.0, 0.0, 0.0, 0.0, 0.0, 0.0)",-0.06444344013525093,-1.3635984108023202,-5.504042378604797,"(0.0, 0.0, 0.0, 0.0, 0.0, 0.0)",0.8762522980402716,-0.02744024570882781,0.7315266716392431,"(0.0, 0.0, 0.0, 0.0, 0.0, 0.0)",0.05446985052483407,False,,,,,False,,,,
4,Open,,,,,,"[-0.026750000193715096, 0.05299999937415123, 0.03999999910593033]","[0.0, -0.0, 1.4308518944899675]","[-0.09804610908031464, 0.06304314732551575, 0.03999999910593033]","[0.0, -0.0, 1.4308566269594332]","[0.026750000193715096, 0.05299999937415123, 0.03999999910593033]","[0.0, 0.0, -1.4345798203875788]","[0.09808305650949478, 0.06277728080749512, 0.03999999910593033]","[0.0, 0.0, -1.4525855975984745]",1.4447666872179874,3.339555007520341,"(0.0, 0.0, 0.0, 0.0, 0.0, 0.0)",-0.5371183361845069,4.8269553674989e-06,2.0878160072459843e-05,"(0.0, 0.0, 0.0, 0.0, 0.0, 0.0)",-0.03821759960562203,-1.448121925594662,-3.2500819841423465,"(0.0, 0.0, 0.0, 0.0, 0.0, 0.0)",0.5178266556878065,-0.016205556838873442,0.4320218239148067,"(0.0, 0.0, 0.0, 0.0, 0.0, 0.0)",0.0322808466635012,False,,,,,False,,,,
5,Open,,,,,,"[-0.026750000193715096, 0.05299999937415123, 0.03999999910593033]","[0.0, -0.0, 1.487834617901085]","[-0.09850236773490906, 0.05896640568971634, 0.03999999910593033]","[0.0, -0.0, 1.4878390921106803]","[0.026750000193715096, 0.05299999937415123, 0.03999999910593033]","[0.0, 0.0, -1.4900358577435544]","[0.09851532429456711, 0.05880843847990036, 0.03999999910593033]","[0.0, 0.0, -1.5006695807985118]",1.4960509811353493,1.9719738363906854,"(0.0, 0.0, 0.0, 0.0, 0.0, 0.0)",-0.3173274216127963,4.509251873886308e-06,-3.168767150011037e-05,"(0.0, 0.0, 0.0, 0.0, 0.0, 0.0)",-0.022624215793833224,-1.498032215844392,-1.9191409108162163,"(0.0, 0.0, 0.0, 0.0, 0.0, 0.0)",0.30591369390909257,-0.00957062017308593,0.2551417656412126,"(0.0, 0.0, 0.0, 0.0, 0.0, 0.0)",0.019102112305110365,False,,,,,False,,,,
6,Open,,,,,,"[-0.026750000193715096, 0.05299999937415123, 0.03999999910593033]","[0.0, -0.0, 1.5214821319654974]","[-0.09866246581077576, 0.05654918774962425, 0.03999999910593033]","[0.0, -0.0, 1.5214858439169519]","[0.026750000193715096, 0.05299999937415123, 0.03999999910593033]","[0.0, 0.0, -1.5227821585534602]","[0.09866702556610107, 0.05645570904016495, 0.03999999910593033]","[0.0, 0.0, -1.529061933448946]",1.5263338438506127,1.164430830650334,"(0.0, 0.0, 0.0, 0.0, 0.0, 0.0)",-0.18743587261192823,3.6440993970645793e-06,-4.480530101024996e-05,"(0.0, 0.0, 0.0, 0.0, 0.0, 0.0)",-0.013379159967550349,-1.527503743133955,-1.1332335164278682,"(0.0, 0.0, 0.0, 0.0, 0.0, 0.0)",0.18068846528573543,-0.005652184024362593,0.1506807000213291,"(0.0, 0.0, 0.0, 0.0, 0.0, 0.0)",0.011293655891939093,False,,,,,False,,,,
7,Close,,,"(0.010000824637423049, 0.16001319418745247, 0.017848014970055004)","(-0.00026934863811186216, 1.6834304115272585e-05, -2.2671484573282825e-09)",,"[-0.026750000193715096, 0.05299999937415123, 0.03999999910593033]","[0.0, -0.0, 1.2784808254221978]","[-0.09569569677114487, 0.07374827563762665, 0.03999999910593033]","[0.0, -0.0, 1.034582661993943]","[0.026750000193715096, 0.05299999937415123, 0.03999999910593033]","[0.0, 0.0, -1.2792482299640686]","[0.0957116037607193, 0.0736953467130661, 0.03999999910593033]","[0.0, 0.0, -1.0390562259147462]",1.210632571455348,-16.283535238809286,"(0.0, 0.0, 0.0, 0.0, 0.0, 0.0)",2.771136716181199,-0.3095085607892871,-15.746535439217235,"(0.0, 0.0, 0.0, 0.0, 0.0, 0.0)",0.3469037989659341,-1.211323385283169,16.3019569408845,"(0.0, 0.0, 0.0, 0.0, 0.0, 0.0)",-2.7749564531312414,0.30617317599991634,15.835479338328643,"(0.0, 0.0, 0.0, 0.0, 0.0, 0.0)",-0.3479929302165593,False,,,,,False,,,,
8,Close,,,"(0.010001648057231211, 0.16002636889308344, 0.03133184175509247)","(-0.0005384699893107284, 3.3654401557527444e-05, -9.06094284338731e-09)",,"[-0.026750000193715096, 0.05299999937415123, 0.03999999910593033]","[0.0, -0.0, 1.0006360422079206]","[-0.08736064285039902, 0.0918632224202156, 0.03999999910593033]","[0.0, -0.0, 0.4880565025715103]","[0.026750000193715096, 0.05299999937415123, 0.03999999910593033]","[0.0, 0.0, -1.001089448203126]","[0.08737824857234955, 0.09183574467897415, 0.03999999910593033]","[0.0, 0.0, -0.49069812233338583]",0.9605724271186684,-9.615264723164493,"(0.0, 0.0, 0.0, 0.0, 0.0, 0.0)",1.6441783201079794,-0.5513218025251249,-9.298144061583436,"(0.0, 0.0, 0.0, 0.0, 0.0, 0.0)",0.21014173445603831,-0.9609803457758583,9.626142554022893,"(0.0, 0.0, 0.0, 0.0, 0.0, 0.0)",-1.6464751946207798,0.5493522946545342,9.350664461360347,"(0.0, 0.0, 0.0, 0.0, 0.0, 0.0)",-0.2108204377510729,False,,,,,False,,,,
9,Close,,,"(0.010002470404691093, 0.16003952644115657, 0.04045997120998789)","(-0.0008073642479911328, 5.0460303253361964e-05, -2.0369923505779015e-08)",,"[-0.026750000193715096, 0.05299999937415123, 0.03999999910593033]","[0.0, -0.0, 0.8365715799965936]","[-0.0801992267370224, 0.1012408509850502, 0.03999999910593033]","[0.0, -0.0, 0.16533874626364803]","[0.026750000193715096, 0.05299999937415123, 0.03999999910593033]","[0.0, 0.0, -0.8368392086626993]","[0.08021213859319687, 0.10122654587030411, 0.03999999910593033]","[0.0, 0.0, -0.1668985823484083]",0.8129144124893025,-5.677717666381402,"(0.0, 0.0, 0.0, 0.0, 0.0, 0.0)",0.9736078226475493,-0.6941096683608667,-5.490444078796776,"(0.0, 0.0, 0.0, 0.0, 0.0, 0.0)",0.12593397924105265,-0.8131552843771866,5.684140916724979,"(0.0, 0.0, 0.0, 0.0, 0.0, 0.0)",-0.9749785244213759,0.6929466958025952,5.521456795952681,"(0.0, 0.0, 0.0, 0.0, 0.0, 0.0)",-0.12634715317523504,False,,,,,False,,,,
10,Close,,,"(0.010003291824242136, 0.16005266914270105, 0.04523936165140331)","(-0.0010760316083767074, 6.725202012489063e-05, -3.618265319583079e-08)",,"[-0.026750000193715096, 0.05299999937415123, 0.03999999910593033]","[0.0, -0.0, 0.7396932119518481]","[-0.07528240978717804, 0.10618463158607483, 0.03999999910593033]","[0.0, 0.0, -0.025223688738047617]","[0.026750000193715096, 0.05299999937415123, 0.03999999910593033]","[0.0, 0.0, -0.7398511766938903]","[0.07529081404209137, 0.10617695748806, 0.03999999910593033]","[0.0, -0.0, 0.02430263317545323]",0.7257238314308083,-3.352635504821555,"(0.0, 0.0, 0.0, 0.0, 0.0, 0.0)",0.5758654822812497,-0.7784262532781683,-3.242260203768412,"(0.0, 0.0, 0.0, 0.0, 0.0, 0.0)",0.0750123771406224,-0.725866063871885,3.3564283699169333,"(0.0, 0.0, 0.0, 0.0, 0.0, 0.0)",-0.5766799137830688,0.7777395376647703,3.260573592131318,"(0.0, 0.0, 0.0, 0.0, 0.0, 0.0)",-0.0752606958188736,False,,,,,False,,,,
11,Close,,,"(0.009997966950406065, 0.16004795201914346, 0.046616050094935475)","(-0.0009640430328522325, -5.7324486097668704e-05, 4.2980615420070005e-09)",,"[-0.026750000193715096, 0.05299999937415123, 0.03999999910593033]","[0.0, -0.0, 0.682487397988505]","[-0.0721622109413147, 0.10887245088815689, 0.03999999910593033]","[0.0, 0.0, -0.13775029188859572]","[0.026750000193715096, 0.05299999937415123, 0.03999999910593033]","[0.0, 0.0, -0.6825807377410441]","[0.07216742634773254, 0.10886821150779724, 0.03999999910593033]","[0.0, -0.0, 0.1372064129763775]",0.6742386185346878,-1.979696494258342,"(0.0, 0.0, 0.0, 0.0, 0.0, 0.0)",0.34037467823530393,-0.8282145265472606,-1.9144534778819295,"(0.0, 0.0, 0.0, 0.0, 0.0, 0.0)",0.04449932044982575,-0.674322605213594,1.981936139029174,"(0.0, 0.0, 0.0, 0.0, 0.0, 0.0)",-0.3408573424145132,0.8278090365055835,1.9252671252731466,"(0.0, 0.0, 0.0, 0.0, 0.0, 0.0)",-0.04464739446319682,False,,,,,False,,,,
12,Close,,,"(0.009998679410322496, 0.16003066597344334, 0.0474253884764576)","(-0.0006112814540129935, -4.2805404436077314e-05, 1.9447426774393396e-07)",,"[-0.026750000193715096, 0.05299999937415123, 0.03999999910593033]","[0.0, -0.0, 0.6487079580530938]","[-0.07024932652711868, 0.11037428677082062, 0.03999999910593033]","[0.0, 0.0, -0.20419532625251113]","[0.026750000193715096, 0.05299999937415123, 0.03999999910593033]","[0.0, 0.0, -0.6487631098841893]","[0.07025248557329178, 0.11037188768386841, 0.03999999910593033]","[0.0, -0.0, 0.20387417727936794]",0.6438371618585478,-1.1689909828946077,"(0.0, 0.0, 0.0, 0.0, 0.0, 0.0)",0.20110328062585062,-0.8576133287829941,-1.1304144347684295,"(0.0, 0.0, 0.0, 0.0, 0.0, 0.0)",0.026365137971139978,-0.6438867551525752,1.1703134707353389,"(0.0, 0.0, 0.0, 0.0, 0.0, 0.0)",-0.20138889834359572,0.857373897412956,1.136799615752827,"(0.0, 0.0, 0.0, 0.0, 0.0, 0.0)",-0.026453134766811503,False,,,,,False,,,,
13,Close,,,"(0.008562352819313064, 0.15963169911231415, 0.04795936059784778)","(0.002880050037504477, -0.0018080766405500393, 0.027156574699580344)",,"[-0.026750000193715096, 0.05299999937415123, 0.03999999910593033]","[0.0, -0.0, 0.6287615983534538]","[-0.06909634172916412, 0.11123047024011612, 0.03999999910593033]","[0.0, 0.0, -0.24342883421715172]","[0.026750000193715096, 0.05299999937415123, 0.03999999910593033]","[0.0, 0.0, -0.6288059721302652]","[0.06909892708063126, 0.1112285852432251, 0.03999999910593033]","[0.0, -0.0, 0.24295585513718987]",0.6258854057058539,-0.6902774854894381,"(0.0, 0.0, 0.0, 0.0, 0.0, 0.0)",0.11878846609148704,-0.8749713231347032,-0.6674313830745814,"(0.0, 0.0, 0.0, 0.0, 0.0, 0.0)",0.015594191474811038,-0.6259255556368085,0.6912982329409242,"(0.0, 0.0, 0.0, 0.0, 0.0, 0.0)",0.23889456753769728,0.8745816224765113,0.6767593625972839,"(0.0, 0.0, 0.0, 0.0, 0.0, 0.0)",0.18939691443679915,False,,,,,True,"(0.040048198705117485, 0.17954190147604243, 0.02399995236517949)","(-0.9999968496142797, -0.00250969405768167, -4.6874861287478436e-05)",-8.481535683957195e-06,2.863336982423626
14,Move,,,"(0.003226703519616097, 0.15887842572556865, 0.048057042824217085)","(0.00733137607255103, 0.004060605831319912, 0.12411081910370701)","[0.0, 0.0, 0.0]","[-0.026750000193715096, 0.05299999937415123, 0.03999999910593033]","[0.0, -0.0, 0.5601465041237582]","[-0.06500434130430222, 0.11399676650762558, 0.03999999910593033]","[0.0, 0.0, -0.31665092698218517]","[0.026750000193715096, 0.05299999937415123, 0.03999999910593033]","[0.0, 0.0, -0.5704848668453074]","[0.0656328946352005, 0.11359802633523941, 0.03999999910593033]","[0.0, -0.0, 0.3056114929739557]",0.5446837312064112,-3.7110582962534506,"(0.0, 0.0, 0.0, 0.0, 0.0, 0.0)",-53.09089974488294,-0.8536776571297426,5.5487419201507295,"(0.0, 0.0, 0.0, 0.0, 0.0, 0.0)",-27.521806933097807,-0.5577558572400253,3.0549589579805563,"(0.0, 0.0, 0.0, 0.0, 0.0, 0.0)",39.845640952717,0.8551826533669656,-5.0192908628628805,"(0.0, 0.0, 0.0, 0.0, 0.0, 0.0)",19.520428399002,True,"(-0.031006456029053206, 0.18019920383377602, 0.023994329638221932)","(0.9922239401206523, 0.12433627092149606, -0.005669601818851313)",-0.0005148038489068186,428.5206410406488,True,"(0.03236246380961459, 0.17994971919477992, 0.023997959838382148)","(-0.9993845697424365, -0.035018889211399305, -0.00203940165862912)",0.0005577664042068458,310.72647358115125
15,Move,"(0.0078, 0.0, -0.0036000000000000003)","(0.0, 0.08563981573685775, 0.0)","(0.003936784195520501, 0.16151008680345502, 0.048058108546800045)","(-0.006745361916879903, 0.0008091986270189432, 0.10657856229912008)","[0.0007100806759044041, 0.0026316610778863714, 1.0657225829602268e-06]","[-0.026750000193715096, 0.05299999937415123, 0.03999999910593033]","[0.0, -0.0, 0.5264405897245381]","[-0.06292705237865448, 0.11525127291679382, 0.03999999910593033]","[0.0, 0.0, -0.3102788873797469]","[0.026750000193715096, 0.05299999937415123, 0.03999999910593033]","[0.0, 0.0, -0.5571891739975986]","[0.06482379138469696, 0.11410962790250778, 0.03999999910593033]","[0.0, -0.0, 0.2820432150741867]",0.525249260002681,-0.28591819851453376,"(0.0, 0.0, 0.0, 0.0, 0.0, 0.0)",-1.2376500864856508,-0.8379323303434183,-0.29108629352007226,"(0.0, 0.0, 0.0, 0.0, 0.0, 0.0)",-0.6837334273985778,-0.5600570187935768,-0.6882768912386636,"(0.0, 0.0, 0.0, 0.0, 0.0, 0.0)",0.8311318674201844,0.8404313800057427,0.28775441698956183,"(0.0, 0.0, 0.0, 0.0, 0.0, 0.0)",0.4417744587322895,True,"(-0.029349008796132822, 0.18164678377992471, 0.023999127166538153)","(0.9941027970135137, 0.10843831637255869, -0.0008720735026297334)",-0.0007881068891157398,9.66416422374447,True,"(0.033226644158080194, 0.18009045697499532, 0.05600087283346185)","(-0.9941027970135128, -0.10843831637256543, 0.0008720735026256248)",-7.593500872864351e-05,5.245933400655183
16,Move,"(0.0123, 0.0, -0.0040999999999999995)","(0.0, 0.107426760789503, 0.0)","(0.005400075029067982, 0.16190856603086526, 0.048332332681453136)","(-0.004616518373176486, -0.0007810064276406344, 0.08990714606828995)","[0.002173371509451885, 0.003030140305296608, 0.000275289857236051]","[-0.026750000193715096, 0.05299999937415123, 0.03999999910593033]","[0.0, -0.0, 0.5144148166273986]","[-0.06217583268880844, 0.11568181961774826, 0.03999999910593033]","[0.0, 0.0, -0.32281931215205406]","[0.026750000193715096, 0.05299999937415123, 0.03999999910593033]","[0.0, 0.0, -0.5717115321899032]","[0.06570719927549362, 0.11355028301477432, 0.03999999910593033]","[0.0, -0.0, 0.26841560077130955]",0.5117824745775864,-0.6317603727655904,"(0.0, 0.0, 0.0, 0.0, 0.0, 0.0)",-1.1503689298135695,-0.8368906035847579,0.08244561278726308,"(0.0, 0.0, 0.0, 0.0, 0.0, 0.0)",-0.6542591677221082,-0.5741474164105267,-0.5846052841628576,"(0.0, 0.0, 0.0, 0.0, 0.0, 0.0)",0.6082105564162814,0.8398409645467466,-0.06868846122058385,"(0.0, 0.0, 0.0, 0.0, 0.0, 0.0)",0.27731663112430566,True,"(-0.027767856602755207, 0.1816513681415393, 0.02399928871151954)","(0.9948613413819942, 0.10124429155680582, -0.0007105285212446005)",-0.0005072290613609967,8.524658461680167,True,"(0.03501209914856753, 0.17995579013704094, 0.05600071128848047)","(-0.9948613413819954, -0.10124429155679579, 0.0007105285212472019)",1.0136567077911654e-05,0.4937118147729808
17,Move,"(0.0158, 0.0, -0.0035)","(0.0, 0.08188561251581795, 0.0)","(0.0070912590515299105, 0.1619923193465367, 0.04840724875958878)","(0.0004083285727349445, 0.0009268772309132171, 0.06790446832425605)","[0.0038645555319138133, 0.003113893620968061, 0.00035020593537169603]","[-0.026750000193715096, 0.05299999937415123, 0.03999999910593033]","[0.0, -0.0, 0.49881276233368693]","[-0.061193592846393585, 0.11622688174247742, 0.03999999910593033]","[0.0, 0.0, -0.3376127133290461]","[0.026750000193715096, 0.05299999937415123, 0.03999999910593033]","[0.0, 0.0, -0.5870863085428354]","[0.06663350760936737, 0.11294419318437576, 0.03999999910593033]","[0.0, -0.0, 0.2524090577791353]",0.4959648274486619,-0.6834885890305195,"(0.0, 0.0, 0.0, 0.0, 0.0, 0.0)",-0.3883604196063608,-0.8363224408622564,0.024716541008169498,"(0.0, 0.0, 0.0, 0.0, 0.0, 0.0)",-0.2607337664571079,-0.5899795651984316,-0.6943806135731059,"(0.0, 0.0, 0.0, 0.0, 0.0, 0.0)",0.24945067372876892,0.8394339668432024,-0.014732394112306934,"(0.0, 0.0, 0.0, 0.0, 0.0, 0.0)",0.07731580265394652,True,"(-0.025812780768173893, 0.18167087737714344, 0.023999380263588697)","(0.9973889013192287, 0.07221493192805585, -0.0006189764520885743)",-0.00035148612336337515,3.872579575934863,True,"(0.037004723018454484, 0.17983899025536623, 0.0560006197364113)","(-0.9973889013192283, -0.07221493192806237, 0.0006189764520840966)",-2.1130600433866888e-05,1.0973386069899884
18,Move,"(0.0147, 0.0, -0.0054)","(0.0, 0.05541594908007196, 0.0)","(0.00841677152282404, 0.16242310934972118, 0.04853604989524471)","(-0.0007990743849543037, -0.0006052309489880473, 0.042671361364457754)","[0.005190068003207942, 0.003544683624152528, 0.0004790070710276248]","[-0.026750000193715096, 0.05299999937415123, 0.03999999910593033]","[0.0, -0.0, 0.48443662224476447]","[-0.06028111279010773, 0.11671549826860428, 0.03999999910593033]","[0.0, 0.0, -0.35186416898892936]","[0.026750000193715096, 0.05299999937415123, 0.03999999910593033]","[0.0, 0.0, -0.6019324635210268]","[0.06751901656389236, 0.11234548687934875, 0.03999999910593033]","[0.0, -0.0, 0.23752954517094765]",0.48202579345117225,-0.5786017909070629,"(0.0, 0.0, 0.0, 0.0, 0.0, 0.0)",-0.2635848707375441,-0.8363101201711606,-0.0022395112485073237,"(0.0, 0.0, 0.0, 0.0, 0.0, 0.0)",-0.18996004461877422,-0.604449073486348,-0.6039819151302677,"(0.0, 0.0, 0.0, 0.0, 0.0, 0.0)",0.09725002712759673,0.8394592034786997,-0.0006729769465962931,"(0.0, 0.0, 0.0, 0.0, 0.0, 0.0)",0.006954590113738026,True,"(-0.023971056798610557, 0.18164514395008213, 0.023999763899846847)","(0.9979901747017493, 0.06336841337578977, -0.00023534019393468546)",-0.00019618957229477983,0.6965147166135953,True,"(0.038888654990395254, 0.17967707710938036, 0.05600023610015315)","(-0.9979901747017491, -0.06336841337579191, 0.0002353401939291972)",5.372420538349989e-05,0.0
19,Move,"(0.0172, 0.0, -0.006900000000000001)","(0.0, -0.0, 0.0)","(0.00989916199385659, 0.16281255521213575, 0.04861670134449897)","(0.000783981040860239, -6.532121814407984e-06, 0.018447753727626456)","[0.006672458474240493, 0.003934129486567101, 0.0005596585202818846]","[-0.026750000193715096, 0.05299999937415123, 0.03999999910593033]","[0.0, -0.0, 0.4697886959760788]","[-0.05934424698352814, 0.11719980835914612, 0.03999999910593033]","[0.0, 0.0, -0.36644675177500063]","[0.026750000193715096, 0.05299999937415123, 0.03999999910593033]","[0.0, 0.0, -0.6174156936453589]","[0.06843295693397522, 0.1117071658372879, 0.03999999910593033]","[0.0, -0.0, 0.22204169511978855]",0.46707926994351956,-0.6502604492642672,"(0.0, 0.0, 0.0, 0.0, 0.0, 0.0)",-0.09609997124959915,-0.8362373046972128,-0.00043659129718045305,"(0.0, 0.0, 0.0, 0.0, 0.0, 0.0)",-0.10392821437775107,-0.620294491096602,-0.6909106515187782,"(0.0, 0.0, 0.0, 0.0, 0.0, 0.0)",0.11123381589145555,0.8394575477030447,4.415401746626911e-05,"(0.0, 0.0, 0.0, 0.0, 0.0, 0.0)",0.00794490238709624,True,"(-0.02209084866357488, 0.18158163652588716, 0.0421365104848005)","(0.999258599399203, 0.038500019806310036, 1.2872200628856401e-06)",-0.00014097986615218376,0.5568480965499097,True,"(0.04081742596585733, 0.18058544060665038, 0.05600038565364997)","(-0.9997511635668317, -0.022303874183943244, 0.0003848936907512425)",0.00014453145190038508,0.0
20,Move,"(0.0174, 0.0, -0.008199999999999999)","(0.0, 0.038988910160301336, 0.0)","(0.01139518716764139, 0.16289425734117738, 0.04869581647863637)","(-0.0006591195731098564, 0.0003981503870824507, 3.2904560800450715e-06)","[0.008168483648025292, 0.004015831615608728, 0.0006387736544192849]","[-0.026750000193715096, 0.05299999937415123, 0.03999999910593033]","[0.0, -0.0, 0.45554686251899623]","[-0.058426644653081894, 0.11765748262405396, 0.03999999910593033]","[0.0, 0.0, -0.3806464425335282]","[0.026750000193715096, 0.05299999937415123, 0.03999999910593033]","[0.0, 0.0, -0.6327660571594129]","[0.06932917982339859, 0.11106042563915253, 0.03999999910593033]","[0.0, -0.0, 0.2066916087794265]",0.4531007545088371,-0.5870486300541938,"(0.0, 0.0, 0.0, 0.0, 0.0, 0.0)",-0.6852554241738745,-0.8361804873674389,0.0030478500145148107,"(0.0, 0.0, 0.0, 0.0, 0.0, 0.0)",-0.42749383862439144,-0.6354239727721631,-0.6379027727521756,"(0.0, 0.0, 0.0, 0.0, 0.0, 0.0)",0.10270233136363799,0.8394576563384855,-2.8969450864835267e-06,"(0.0, 0.0, 0.0, 0.0, 0.0, 0.0)",0.0073365792403257335,True,"(-0.020262738361839297, 0.1814921595640258, 0.02399938741628249)","(0.9999964130259141, 0.002607605605587819, -0.0006118237582899501)",-0.00011045398372415513,6.002841751325442,True,"(0.04277413081122912, 0.18035881774822976, 0.05600061258371751)","(-0.999996413025914, -0.0026076056055895553, 0.0006118237582931008)",0.0002505624351639634,0.0
21,Move,"(0.0155, 0.0, -0.0091)","(0.0, 0.1663263870565556, 0.0)","(0.012607709405949238, 0.16288586978073427, 0.04877426256424638)","(-0.0005077934133327824, -0.0005303082592492377, -0.01292653693908526)","[0.00938100588633314, 0.004007444055165621, 0.0007172197400292929]","[-0.026750000193715096, 0.05299999937415123, 0.03999999910593033]","[0.0, -0.0, 0.4438308604288139]","[-0.05766696482896805, 0.11802416294813156, 0.03999999910593033]","[0.0, 0.0, -0.3922867516414959]","[0.026750000193715096, 0.05299999937415123, 0.03999999910593033]","[0.0, 0.0, -0.6448882183044274]","[0.0700298547744751, 0.11054001748561859, 0.03999999910593033]","[0.0, -0.0, 0.1945694213941163]",0.44192910985927225,-0.45641146306373515,"(0.0, 0.0, 0.0, 0.0, 0.0, 0.0)",-0.3744829509720923,-0.836109827994342,0.001862155440148374,"(0.0, 0.0, 0.0, 0.0, 0.0, 0.0)",-0.24172736687417265,-0.6467906589881556,-0.4565825563091952,"(0.0, 0.0, 0.0, 0.0, 0.0, 0.0)",0.0735148172634626,0.8394576492109143,1.9006856621928137e-07,"(0.0, 0.0, 0.0, 0.0, 0.0, 0.0)",0.005252940794157988,True,"(-0.018762603568286046, 0.18140988647734557, 0.023999758154346174)","(0.999987579895595, -0.004978145461818658, -0.0002410856946113168)",-6.376723105027047e-05,3.0332690688980772,True,"(0.04431678361487005, 0.18015514415209488, 0.05600024184565384)","(-0.999987579895595, 0.004978145461819173, 0.00024108569461685708)",0.00029901186002178026,0.0
22,Move,"(0.0137, 0.0, -0.009300000000000001)","(0.0, 0.23787092375430716, 0.0)","(0.013711791091887703, 0.16285283521672933, 0.04871447306718508)","(-0.000412057558955403, 0.004097483534122759, -0.022225823769741828)","[0.010485087572271606, 0.00397440949116068, 0.0006574302429679935]","[-0.026750000193715096, 0.05299999937415123, 0.03999999910593033]","[0.0, -0.0, 0.43451073570363574]","[-0.057059597223997116, 0.11830948293209076, 0.03999999910593033]","[0.0, 0.0, -0.40152994384768576]","[0.026750000193715096, 0.05299999937415123, 0.03999999910593033]","[0.0, 0.0, -0.6533262679182057]","[0.07051382958889008, 0.11017277836799622, 0.03999999910593033]","[0.0, -0.0, 0.18613141943587372]",0.43297844564534577,-0.3677439598488634,"(0.0, 0.0, 0.0, 0.0, 0.0, 0.0)",-0.32635622620306187,-0.8359761537224655,0.015478962834150883,"(0.0, 0.0, 0.0, 0.0, 0.0, 0.0)",-0.20825488022162333,-0.6546263203872185,-0.31202267578677145,"(0.0, 0.0, 0.0, 0.0, 0.0, 0.0)",0.11296075358193113,0.8394094303018892,-0.011572662869997847,"(0.0, 0.0, 0.0, 0.0, 0.0, 0.0)",0.03859338304412714,True,"(-0.017571087206934594, 0.18133014682892296, 0.023995547627347916)","(0.9997605159672132, -0.021426475617897275, -0.004451612692869035)",-4.816623608253027e-05,2.9939604331037835,True,"(0.045389159429241516, 0.18000593956660407, 0.056004452372652086)","(-0.9997605159672134, 0.02142647561789588, 0.004451612692869412)",5.216554770592545e-06,0.5125501553956763
23,Move,"(0.0132, 0.0, -0.0055)","(0.0, 0.15274074415903177, 0.0)","(0.014494528461582586, 0.16279848966138324, 0.048807925835557604)","(-0.0002826017492718936, 0.002701606822169493, -0.02874812315057534)","[0.011267824941966488, 0.003920063935814594, 0.0007508830113405196]","[-0.026750000193715096, 0.05299999937415123, 0.03999999910593033]","[0.0, -0.0, 0.4269536495462798]","[-0.056565187871456146, 0.11853666603565216, 0.03999999910593033]","[0.0, 0.0, -0.40882652589219254]","[0.026750000193715096, 0.05299999937415123, 0.03999999910593033]","[0.0, 0.0, -0.6609086344203334]","[0.07094607502222061, 0.1098393052816391, 0.03999999910593033]","[0.0, -0.0, 0.1784175711347678]",0.4257020078162559,-0.30039667640437584,"(0.0, 0.0, 0.0, 0.0, 0.0, 0.0)",-0.4785112680761242,-0.8357753142514351,0.0011723640821341584,"(0.0, 0.0, 0.0, 0.0, 0.0, 0.0)",-0.28720669583518127,-0.6622826473313884,-0.3297653660911121,"(0.0, 0.0, 0.0, 0.0, 0.0, 0.0)",0.05307544187221324,0.8393345297846763,0.001997347125679561,"(0.0, 0.0, 0.0, 0.0, 0.0, 0.0)",0.0037718446300375546,True,"(-0.0166178551319277, 0.18126884910268043, 0.02399706128477816)","(0.9996203530206772, -0.027395588069820488, -0.0029379552626240587)",-3.632700139535907e-05,4.059406783643668,True,"(0.046360773267650236, 0.17986245040846105, 0.05600293871522184)","(-0.9996203530206774, 0.027395588069818903, 0.0029379552626271296)",6.154284650799987e-05,0.0
24,Move,"(0.0195, 0.0, -0.006900000000000001)","(0.0, 0.013110913340981403, 0.0)","(0.015710277892530756, 0.16255986778532705, 0.04873393698430998)","(0.00099962566939509, -0.0015160959089102965, -0.04534786650989859)","[0.012483574372914658, 0.0036814420597583997, 0.0006768941600928946]","[-0.026750000193715096, 0.05299999937415123, 0.03999999910593033]","[0.0, -0.0, 0.41584787431658565]","[-0.0558355338871479, 0.11886373907327652, 0.03999999910593033]","[0.0, 0.0, -0.4199077359805948]","[0.026750000193715096, 0.05299999937415123, 0.03999999910593033]","[0.0, 0.0, -0.672574488793933]","[0.07160612940788269, 0.10931986570358276, 0.03999999910593033]","[0.0, -0.0, 0.16676551427709585]",0.4134999625582614,-0.5635111149106893,"(0.0, 0.0, 0.0, 0.0, 0.0, 0.0)",-0.1636958668084083,-0.8357556625269316,-1.0387863331295661e-05,"(0.0, 0.0, 0.0, 0.0, 0.0, 0.0)",-0.12515684384734266,-0.6750103468512025,-0.5846115880471974,"(0.0, 0.0, 0.0, 0.0, 0.0, 0.0)",0.09412583217215063,0.8393394440076106,-0.00013104594491686328,"(0.0, 0.0, 0.0, 0.0, 0.0, 0.0)",0.006725812971097862,True,"(-0.015195629085075699, 0.18114658568152392, 0.023999539487496873)","(0.9991466728060766, -0.041300300823909154, -0.0004597525439100268)",-2.753195037275011e-05,0.0,True,"(0.047838479996290054, 0.1796269787047599, 0.056000460512503125)","(-0.9991466728060765, 0.04130030082390993, 0.00045975254390759096)",0.00018189984105194897,0.0
25,Move,"(0.0189, 0.0, -0.0074)","(0.0, 0.05592383989240231, 0.0)","(0.01693810538566449, 0.1625387672953933, 0.048784543338888695)","(-0.0016048752464824132, 0.00013195722320086755, -0.05984152656405552)","[0.01371140186604839, 0.0036603415698246433, 0.0007275005146716099]","[-0.026750000193715096, 0.05299999937415123, 0.03999999910593033]","[0.0, -0.0, 0.40404215827035256]","[-0.05505595728754997, 0.11920251697301865, 0.03999999910593033]","[0.0, 0.0, -0.4316663609552975]","[0.026750000193715096, 0.05299999937415123, 0.03999999910593033]","[0.0, 0.0, -0.6845664638740176]","[0.07227827608585358, 0.10877791792154312, 0.03999999910593033]","[0.0, -0.0, 0.1547727382168423]",0.40206730908874994,-0.47397763486576283,"(0.0, 0.0, 0.0, 0.0, 0.0, 0.0)",-0.4609587939939384,-0.8356888819570537,0.004712988036495789,"(0.0, 0.0, 0.0, 0.0, 0.0, 0.0)",-0.292335418400054,-0.68654721077952,-0.47540740040147256,"(0.0, 0.0, 0.0, 0.0, 0.0, 0.0)",0.07654518055750643,0.8393391215854439,8.597924447073524e-06,"(0.0, 0.0, 0.0, 0.0, 0.0, 0.0)",0.0054692312088510785,True,"(-0.013686801588359623, 0.18099811833629198, 0.023999855608038228)","(0.9983091756269217, -0.058127181498365224, -0.00014363200255475058)",-1.9043632831138865e-05,4.077719362725055,True,"(0.049355757193178536, 0.1793698578287517, 0.05600014439196177)","(-0.9983091756269216, 0.05812718149836801, 0.0001436320025547809)",0.00017105825623984887,0.0
26,Move,"(0.019, 0.0, -0.0106)","(0.0, 0.09422683565666987, 0.0)","(0.01815275925547811, 0.1623792451080029, 0.048854394626640915)","(0.0003187169106787937, 0.0014688043627957652, -0.0695076491412658)","[0.01492605573586201, 0.0035008193824342393, 0.0007973518024238305]","[-0.026750000193715096, 0.05299999937415123, 0.03999999910593033]","[0.0, -0.0, 0.39341112954308366]","[-0.054350562393665314, 0.11949969083070755, 0.03999999910593033]","[0.0, 0.0, -0.4421957537090924]","[0.026750000193715096, 0.05299999937415123, 0.03999999910593033]","[0.0, 0.0, -0.6949082485588676]","[0.07285267859697342, 0.10830409824848175, 0.03999999910593033]","[0.0, -0.0, 0.14443090993627242]",0.3915591483807873,-0.4444668042581844,"(0.0, 0.0, 0.0, 0.0, 0.0, 0.0)",-0.06578942358820292,-0.8356154559134705,-0.002067020600511436,"(0.0, 0.0, 0.0, 0.0, 0.0, 0.0)",-0.07206848743169435,-0.6966777998870142,-0.4246970267065331,"(0.0, 0.0, 0.0, 0.0, 0.0, 0.0)",0.06838174951161169,0.8393391434175712,-4.0138766075871685e-07,"(0.0, 0.0, 0.0, 0.0, 0.0, 0.0)",0.004886415322008242,True,"(-0.0123329544008021, 0.18085755881222884, 0.023998398604839526)","(0.9977274232499197, -0.0673604250434019, -0.001600635201255083)",-1.7147914680989083e-05,1.053138273261609,True,"(0.050661350247673924, 0.17912822894370445, 0.05600160139516046)","(-0.9977274232499197, 0.06736042504340568, 0.0016006352012448877)",5.9555921382079426e-05,0.0
27,Move,"(0.0192, 0.0, -0.0114)","(0.0, 0.03438473159354028, 0.0)","(0.01921634988533593, 0.16229879994079272, 0.04882003811889152)","(-0.002377552416030005, 0.0007552505681079887, -0.08223494772499819)","[0.015989646365719833, 0.0034203742152240646, 0.0007629952946744331]","[-0.026750000193715096, 0.05299999937415123, 0.03999999910593033]","[0.0, -0.0, 0.3832429658768686]","[-0.053672969341278076, 0.1197768971323967, 0.03999999910593033]","[0.0, 0.0, -0.4523165502728541]","[0.026750000193715096, 0.05299999937415123, 0.03999999910593033]","[0.0, 0.0, -0.7046788902760619]","[0.07339082658290863, 0.10785101354122162, 0.03999999910593033]","[0.0, -0.0, 0.13466026327903574]",0.3814607033309254,-0.4277333951674981,"(0.0, 0.0, 0.0, 0.0, 0.0, 0.0)",-0.8661962362390838,-0.8354382997253297,0.029082527052715842,"(0.0, 0.0, 0.0, 0.0, 0.0, 0.0)",-0.49331110961900476,-0.7064086492118818,-0.415146115233324,"(0.0, 0.0, 0.0, 0.0, 0.0, 0.0)",0.16248490287856623,0.8392416371447708,-0.023401123497179065,"(0.0, 0.0, 0.0, 0.0, 0.0, 0.0)",0.05606968818555065,True,"(-0.011036559226736166, 0.1807060088099537, 0.023998649474711913)","(0.9974590727946944, -0.07122904065832653, -0.0013497653288762892)",-8.162551497346049e-06,7.275087693841236,True,"(0.051892583178465644, 0.1788890972341976, 0.05600135052528809)","(-0.9974590727946938, 0.07122904065833502, 0.001349765328869702)",2.0398150282767462e-05,0.7855033334432413
28,Move,"(0.0247, 0.0, -0.0125)","(0.0, 0.12435470920459603, 0.0)","(0.020738105259729158, 0.1620850005811891, 0.04887784225170424)","(-0.0020074501834787366, 0.00025211283835777055, -0.08715181304943759)","[0.01751140174011306, 0.003206574855620453, 0.0008207994274871538]","[-0.026750000193715096, 0.05299999937415123, 0.03999999910593033]","[0.0, -0.0, 0.37028702935054225]","[-0.0528055764734745, 0.1201200932264328, 0.03999999910593033]","[0.0, 0.0, -0.46345451572364443]","[0.026750000193715096, 0.05299999937415123, 0.03999999910593033]","[0.0, 0.0, -0.7160353890548882]","[0.07401072233915329, 0.10731781274080276, 0.03999999910593033]","[0.0, -0.0, 0.12194465267849466]",0.36770459872648165,-0.6197773008073739,"(0.0, 0.0, 0.0, 0.0, 0.0, 0.0)",-1.546977007379627,-0.8334284518187236,0.07514098169767294,"(0.0, 0.0, 0.0, 0.0, 0.0, 0.0)",-0.8385169100053289,-0.7182128975332516,-0.5226032520706374,"(0.0, 0.0, 0.0, 0.0, 0.0, 0.0)",1.0673244446528583,0.837554137515207,-0.10221632375383519,"(0.0, 0.0, 0.0, 0.0, 0.0, 0.0)",0.5258656949534947,True,"(-0.009492989197646531, 0.18057292450913826, 0.02399943904840093)","(0.9962473264375488, -0.08655027874803696, -0.0005601916398559009)",-3.517541111664274e-05,11.755338516729255,True,"(0.05341715194652809, 0.17861976759621317, 0.056000560951599075)","(-0.996247326437549, 0.08655027874803461, 0.0005601916398615011)",-1.364534558314033e-05,7.690978158789399
29,Move,"(0.0282, 0.0, -0.0125)","(0.0, 0.11590207963718746, 0.0)","(0.022553943381900438, 0.16181819643067855, 0.04881296326040071)","(0.0016946664493643472, -0.00022663133045892003, -0.08894089069375634)","[0.01932723986228434, 0.0029397707051098954, 0.0007559204361836241]","[-0.026750000193715096, 0.05299999937415123, 0.03999999910593033]","[0.0, -0.0, 0.35453640815667126]","[-0.051745202392339706, 0.120522141456604, 0.03999999910593033]","[0.0, 0.0, -0.4765127973030902]","[0.026750000193715096, 0.05299999937415123, 0.03999999910593033]","[0.0, 0.0, -0.7290589922166816]","[0.07471410185098648, 0.10669771581888199, 0.03999999910593033]","[0.0, -0.0, 0.10614504988486809]",0.35161771166592287,-0.7004783407796371,"(0.0, 0.0, 0.0, 0.0, 0.0, 0.0)",-2.1323893328139483,-0.8305162289736444,0.1279098049734671,"(0.0, 0.0, 0.0, 0.0, 0.0, 0.0)",-1.1126254318941373,-0.7314471208056887,-0.5731555055478228,"(0.0, 0.0, 0.0, 0.0, 0.0, 0.0)",1.7492549094090344,0.8347705811306262,-0.10402260672559119,"(0.0, 0.0, 0.0, 0.0, 0.0, 0.0)",0.9058137058688178,True,"(-0.007646746879538785, 0.18040601549690644, 0.023999747127205092)","(0.9962046522513591, -0.08704152613475302, -0.0002521128356918911)",-3.0695372905025486e-05,17.41939111394784,True,"(0.055249390258965705, 0.17831403257823636, 0.056000252872794906)","(-0.9962046522513591, 0.08704152613475044, 0.000252112835688878)",6.059642307878277e-06,12.15588818222084
30,Move,"(0.0325, 0.0, -0.0158)","(0.0, 0.021750293138353336, 0.0)","(0.024645640542243285, 0.16156355655888932, 0.0488424865949448)","(-0.00020166374828470846, -0.00032437246377354395, -0.09339816451924293)","[0.021418937022627187, 0.0026851308333206703, 0.0007854437707277145]","[-0.026750000193715096, 0.05299999937415123, 0.03999999910593033]","[0.0, -0.0, 0.33613592646626167]","[-0.050498608499765396, 0.12097060680389404, 0.03999999910593033]","[0.0, 0.0, -0.49123164470481306]","[0.026750000193715096, 0.05299999937415123, 0.03999999910593033]","[0.0, 0.0, -0.7441275557788144]","[0.07551777362823486, 0.1059688925743103, 0.03999999910593033]","[0.0, -0.0, 0.08783139613004211]",0.33267555903473395,-0.8304952435628317,"(0.0, 0.0, 0.0, 0.0, 0.0, 0.0)",-2.3776642561603487,-0.8267440218267024,0.14965550898716035,"(0.0, 0.0, 0.0, 0.0, 0.0, 0.0)",-1.2295468283298434,-0.7469538737159201,-0.6783159218997568,"(0.0, 0.0, 0.0, 0.0, 0.0, 0.0)",2.08549396473695,0.8313663326767868,-0.14222851505973982,"(0.0, 0.0, 0.0, 0.0, 0.0, 0.0)",1.0928150565333352,True,"(-0.005523539130964268, 0.1801989411141876, 0.023999747127205092)","(0.9962046522513591, -0.08704152613475302, -0.0002521128356918911)",-4.722067074825985e-05,19.50275094674199,True,"(0.05736780917984535, 0.1779296530518954, 0.056000252872794906)","(-0.9962046522513591, 0.08704152613475044, 0.000252112835688878)",2.202665495476914e-05,12.477377492029387
31,Move,"(0.032299999999999995, 0.0, -0.0169)","(0.0, 0.025921630050619787, 0.0)","(0.02659001892423619, 0.16127651172220858, 0.04883388703547185)","(3.2407218161856395e-05, -0.00029310760517809484, -0.09587360046200123)","[0.023363315404620093, 0.0023980859966399315, 0.0007768442112547624]","[-0.026750000193715096, 0.05299999937415123, 0.03999999910593033]","[0.0, -0.0, 0.3181725877443459]","[-0.049273859709501266, 0.12138622254133224, 0.03999999910593033]","[0.0, 0.0, -0.5054769016612629]","[0.026750000193715096, 0.05299999937415123, 0.03999999910593033]","[0.0, 0.0, -0.7584759534984964]","[0.07627274841070175, 0.10526372492313385, 0.03999999910593033]","[0.0, -0.0, 0.07007536445620832]",0.31510788161531317,-0.7355223366233411,"(0.0, 0.0, 0.0, 0.0, 0.0, 0.0)",-2.159487516772016,-0.8229617927838635,0.1650330487399792,"(0.0, 0.0, 0.0, 0.0, 0.0, 0.0)",-1.114458294903616,-0.760901652150397,-0.5821641024917211,"(0.0, 0.0, 0.0, 0.0, 0.0, 0.0)",2.275512809166936,0.8277780788569485,-0.18558008316861652,"(0.0, 0.0, 0.0, 0.0, 0.0, 0.0)",1.1869826657403935,True,"(-0.003456124039028341, 0.17999963287615964, 0.023999801938262035)","(0.9954943404710118, -0.09482077389577394, -0.00019730177874820198)",-9.159079987959744e-05,15.00615318369293,True,"(0.05926327715380106, 0.1764070536626467, 0.05600019806173798)","(-0.9954943404710118, 0.09482077389577229, 0.00019730177875201463)",-1.1263060385089565e-05,15.878396943724061
32,Move,"(0.0292, 0.0, -0.0155)","(0.0, -0.0, 0.0)","(0.02804159231580786, 0.161067985497119, 0.04886481172140303)","(-0.000972647522377634, -4.423401969176484e-06, -0.09878006320755826)","[0.024814888796191762, 0.002189559771550359, 0.000807768897185944]","[-0.026750000193715096, 0.05299999937415123, 0.03999999910593033]","[0.0, -0.0, 0.3039033797956917]","[-0.04829578101634979, 0.12170065194368362, 0.03999999910593033]","[0.0, 0.0, -0.516186368820291]","[0.026750000193715096, 0.05299999937415123, 0.03999999910593033]","[0.0, 0.0, -0.769557101578076]","[0.0768488347530365, 0.10471176356077194, 0.03999999910593033]","[0.0, -0.0, 0.05572979494676847]",0.3016299239781682,-0.5456262952489359,"(0.0, 0.0, 0.0, 0.0, 0.0, 0.0)",-2.438999963865545,-0.819518046469622,0.1371980032377558,"(0.0, 0.0, 0.0, 0.0, 0.0, 0.0)",-1.2337416605905864,-0.7712994848952615,-0.41818183254858676,"(0.0, 0.0, 0.0, 0.0, 0.0, 0.0)",1.8459381488636997,0.8248163097018301,-0.11293124876914568,"(0.0, 0.0, 0.0, 0.0, 0.0, 0.0)",0.9762609472959001,True,"(-0.001852969220154696, 0.17982002197844008, 0.023999801938262035)","(0.9954943404710118, -0.09482077389577394, -0.00019730177874820198)",-8.914800337740862e-05,19.59044493485693,True,"(0.06086167044845983, 0.1760917717929767, 0.05600019806173798)","(-0.9954943404710118, 0.09482077389577229, 0.00019730177875201463)",-6.478189954434331e-07,13.729829860516125
33,Move,"(0.0253, 0.0, -0.016300000000000002)","(0.0, 0.10008416062636283, 0.0)","(0.028915058807277797, 0.16092668296032123, 0.048855530322878316)","(0.0008016232120596646, 9.685254557812203e-05, -0.0993592227280506)","[0.0256883552876617, 0.0020482572347525763, 0.0007984874986612309]","[-0.026750000193715096, 0.05299999937415123, 0.03999999910593033]","[0.0, -0.0, 0.2947036440072451]","[-0.047662850469350815, 0.12189595401287079, 0.03999999910593033]","[0.0, 0.0, -0.5226288632443169]","[0.026750000193715096, 0.05299999937415123, 0.03999999910593033]","[0.0, 0.0, -0.776177219020165]","[0.07719007879495621, 0.10437896847724915, 0.03999999910593033]","[0.0, -0.0, 0.046654724950537484]",0.29339251628281277,-0.31466158190936633,"(0.0, 0.0, 0.0, 0.0, 0.0, 0.0)",-1.947350268478282,-0.8168608438154604,0.1131771528675717,"(0.0, 0.0, 0.0, 0.0, 0.0, 0.0)",-0.9843044968003987,-0.7770660856769362,-0.21332728636091614,"(0.0, 0.0, 0.0, 0.0, 0.0, 0.0)",1.100382180615769,0.8224424298600538,-0.09348377327821247,"(0.0, 0.0, 0.0, 0.0, 0.0, 0.0)",0.5836357201508036,True,"(-0.000845190733685712, 0.17972794220103355, 0.023999930014461646)","(0.9951017583741938, -0.09885588342838601, -6.922557913904523e-05)",-9.901895319042978e-05,14.909149282135177,True,"(0.0618492375215682, 0.1758818701960133, 0.05600006998553836)","(-0.9951017583741946, 0.0988558834283799, 6.92255791384334e-05)",-9.653823866767902e-06,8.280275237742332
34,Move,"(0.018000000000000002, 0.0, -0.0125)","(0.0, 0.2953673053027564, 0.0)","(0.02894872416477817, 0.16098680026721915, 0.048925146920210154)","(0.0003345978887852481, -0.0010300032019449753, -0.09839086108492122)","[0.02572202064516207, 0.0021083745416504984, 0.0008681040959930691]","[-0.026750000193715096, 0.05299999937415123, 0.03999999910593033]","[0.0, -0.0, 0.2918510956120958]","[-0.04746623709797859, 0.12195532768964767, 0.03999999910593033]","[0.0, 0.0, -0.5225860953201517]","[0.026750000193715096, 0.05299999937415123, 0.03999999910593033]","[0.0, 0.0, -0.7755616717049645]","[0.07715843617916107, 0.10441001504659653, 0.03999999910593033]","[0.0, -0.0, 0.0434975946693952]",0.29175261564418753,-0.023632225687283785,"(0.0, 0.0, 0.0, 0.0, 0.0, 0.0)",-1.7720386959788486,-0.8139147684366225,0.12537859150265623,"(0.0, 0.0, 0.0, 0.0, 0.0, 0.0)",-0.7901318049308178,-0.7749446896521484,0.14806433686564197,"(0.0, 0.0, 0.0, 0.0, 0.0, 0.0)",2.4884526136729463,0.8182535706952987,-0.19335528205320188,"(0.0, 0.0, 0.0, 0.0, 0.0, 0.0)",1.3591731190343606,True,"(-0.0006509491068058745, 0.17979032554424662, 0.023999922472624766)","(0.9950963906722893, -0.09890989524686875, -7.676741602012203e-05)",-9.007145194458721e-05,12.250625710247329,True,"(0.06204315392494017, 0.17595836612840132, 0.056000077527375236)","(-0.9950963906722892, 0.09890989524686965, 7.676741602334409e-05)",8.432067699483396e-06,14.65151663067873
35,Move,"(0.0136, 0.0, -0.012)","(0.0, 0.35240641058718314, 0.0)","(0.0285578332993892, 0.1611861366522783, 0.04896662569612324)","(4.925795129703608e-05, -0.0017983388239914925, -0.09370720493961217)","[0.0253311297797731, 0.002307710926709644, 0.0009095828719061574]","[-0.026750000193715096, 0.05299999937415123, 0.03999999910593033]","[0.0, -0.0, 0.29342210873390895]","[-0.04757453873753548, 0.12192270159721375, 0.03999999910593033]","[0.0, 0.0, -0.517964478356888]","[0.026750000193715096, 0.05299999937415123, 0.03999999910593033]","[0.0, 0.0, -0.7695909042481532]","[0.07685058563947678, 0.10471007227897644, 0.03999999910593033]","[0.0, -0.0, 0.04451629305723285]",0.2938943460410923,0.11334689827852952,"(0.0, 0.0, 0.0, 0.0, 0.0, 0.0)",-1.8603433045827416,-0.8108193205152626,0.1361375448005694,"(0.0, 0.0, 0.0, 0.0, 0.0, 0.0)",-0.8025445292002347,-0.7683011813646917,0.30953082990336955,"(0.0, 0.0, 0.0, 0.0, 0.0, 0.0)",2.7708505240242562,0.8132268088252664,-0.2112896007272861,"(0.0, 0.0, 0.0, 0.0, 0.0, 0.0)",1.629892745103802,True,"(-0.0010270406279463407, 0.1799734388419782, 0.023999922472624766)","(0.9950963906722893, -0.09890989524686875, -7.676741602012203e-05)",-8.132377543882366e-05,12.504673817637102,True,"(0.06166242372161315, 0.17624298821005258, 0.056000077527375236)","(-0.9950963906722892, 0.09890989524686965, 7.676741602334409e-05)",2.592533292899502e-05,14.03188874540657
36,Move,"(0.0136, 0.0, -0.0119)","(0.0, 0.3815952969975363, 0.0)","(0.028150809477764986, 0.16141083088855282, 0.0489929831127355)","(-0.00019599197171565357, -0.0023902935884265552, -0.08980746592604344)","[0.02492410595814889, 0.0025324051629841693, 0.0009359402885184137]","[-0.026750000193715096, 0.05299999937415123, 0.03999999910593033]","[0.0, -0.0, 0.2954531391763571]","[-0.0477144829928875, 0.12188026309013367, 0.03999999910593033]","[0.0, 0.0, -0.5123359799647541]","[0.026750000193715096, 0.05299999937415123, 0.03999999910593033]","[0.0, 0.0, -0.7624363153280223]","[0.07647934556007385, 0.1050671935081482, 0.03999999910593033]","[0.0, -0.0, 0.046047838795969916]",0.29575442694075393,0.07230628035543296,"(0.0, 0.0, 0.0, 0.0, 0.0, 0.0)",-2.252636336915485,-0.8071105132577037,0.16285726671362044,"(0.0, 0.0, 0.0, 0.0, 0.0, 0.0)",-0.9740045766976052,-0.7611716364834463,0.30352479632744916,"(0.0, 0.0, 0.0, 0.0, 0.0, 0.0)",3.2595846364034005,0.8074408796340802,-0.25038705814684153,"(0.0, 0.0, 0.0, 0.0, 0.0, 0.0)",1.8938056494391677,True,"(-0.0014944629195145082, 0.1801920747296942, 0.023999922472624766)","(0.9950963906722893, -0.09890989524686875, -7.676741602012203e-05)",-8.198072237366793e-05,15.130519202498384,True,"(0.06118164313743419, 0.17657676457765814, 0.056000077527375236)","(-0.9950963906722892, 0.09890989524686965, 7.676741602334409e-05)",3.294993847151381e-05,16.108771180799504
37,Move,"(0.0151, 0.0, -0.0114)","(0.0, 0.37720230327026655, 0.0)","(0.02791901134630589, 0.16158929269800215, 0.049008428017140906)","(-0.0004206919017647825, -0.002697227489285159, -0.08647526860402391)","[0.024692307826689793, 0.002710866972433501, 0.0009513851929238218]","[-0.026750000193715096, 0.05299999937415123, 0.03999999910593033]","[0.0, -0.0, 0.2960838411612424]","[-0.04775791987776756, 0.12186702340841293, 0.03999999910593033]","[0.0, 0.0, -0.5078764926867434]","[0.026750000193715096, 0.05299999937415123, 0.03999999910593033]","[0.0, 0.0, -0.7564455584446252]","[0.07616652548313141, 0.10536417365074158, 0.03999999910593033]","[0.0, -0.0, 0.046191558276974506]",0.29609832005800385,0.0034863957064063815,"(0.0, 0.0, 0.0, 0.0, 0.0, 0.0)",-2.2709711140408433,-0.8032875542183359,0.16145177795886861,"(0.0, 0.0, 0.0, 0.0, 0.0, 0.0)",-0.9834193042416404,-0.7554800313853856,0.2317073408171013,"(0.0, 0.0, 0.0, 0.0, 0.0, 0.0)",3.33543490180687,0.801583430039302,-0.2528649125979181,"(0.0, 0.0, 0.0, 0.0, 0.0, 0.0)",1.921570358107816,True,"(-0.0017983953740802264, 0.18038437567617138, 0.023999922472624766)","(0.9950963906722893, -0.09890989524686875, -7.676741602012203e-05)",-8.949350874910471e-05,15.22149639337499,True,"(0.060858549017308694, 0.17687154990054424, 0.056000077527375236)","(-0.9950963906722892, 0.09890989524686965, 7.676741602334409e-05)",3.067999344629992e-05,16.945000828628697
38,Move,"(0.013800000000000002, 0.0, -0.0111)","(0.0, 0.35800717215683286, 0.0)","(0.027595607998518144, 0.1617519213009902, 0.049016186900999015)","(-0.0005636339457827693, -0.0027747058943649794, -0.08333417542496863)","[0.024368904478902047, 0.0028734955754215474, 0.0009591440767819301]","[-0.026750000193715096, 0.05299999937415123, 0.03999999910593033]","[0.0, -0.0, 0.29724291621631627]","[-0.04783773049712181, 0.1218426302075386, 0.03999999910593033]","[0.0, 0.0, -0.5033927769816332]","[0.026750000193715096, 0.05299999937415123, 0.03999999910593033]","[0.0, 0.0, -0.7506807226165176]","[0.07586383819580078, 0.10564818233251572, 0.03999999910593033]","[0.0, -0.0, 0.046828343777829226]",0.2975470459573693,0.07299228641898713,"(0.0, 0.0, 0.0, 0.0, 0.0, 0.0)",-1.8609704517140482,-0.800068528749303,0.13610313977635596,"(0.0, 0.0, 0.0, 0.0, 0.0, 0.0)",-0.8032879228392318,-0.7496238492848918,0.25363858318935684,"(0.0, 0.0, 0.0, 0.0, 0.0, 0.0)",2.719998832706149,0.7966658947112686,-0.20234950330218132,"(0.0, 0.0, 0.0, 0.0, 0.0, 0.0)",1.582418023886893,True,"(-0.002141045277731589, 0.18056546145477698, 0.023999922472624766)","(0.9950963906722893, -0.09890989524686875, -7.676741602012203e-05)",-8.731632523089536e-05,12.094206462663557,True,"(0.06051032869621478, 0.17714579230826216, 0.056000077527375236)","(-0.9950963906722892, 0.09890989524686965, 7.676741602334409e-05)",2.8198752092424346e-05,12.845495091638858
39,Move,"(0.0158, 0.0, -0.0103)","(0.0, 0.34128342726422317, 0.0)","(0.027469574517529526, 0.16186581904249106, 0.0490219476748811)","(-0.0006362591519063291, -0.0028097968281369924, -0.08081373611448132)","[0.02424287099791343, 0.00298739331692241, 0.000964904850664014]","[-0.026750000193715096, 0.05299999937415123, 0.03999999910593033]","[0.0, -0.0, 0.29755526095271595]","[-0.047859229147434235, 0.12183604389429092, 0.03999999910593033]","[0.0, 0.0, -0.49999946024534747]","[0.026750000193715096, 0.05299999937415123, 0.03999999910593033]","[0.0, 0.0, -0.7462499034206801]","[0.0756300836801529, 0.10586527734994888, 0.03999999910593033]","[0.0, -0.0, 0.046560034528790865]",0.29748370571500077,-0.017162928340747077,"(0.0, 0.0, 0.0, 0.0, 0.0, 0.0)",-1.8407864873398339,-0.7970402088014703,0.12347520994977564,"(0.0, 0.0, 0.0, 0.0, 0.0, 0.0)",-0.7993593029679174,-0.7455982233958529,0.15640111165480317,"(0.0, 0.0, 0.0, 0.0, 0.0, 0.0)",2.6018331685899008,0.7919587412250467,-0.20428466812551258,"(0.0, 0.0, 0.0, 0.0, 0.0, 0.0)",1.47014899033783,True,"(-0.0023620677711374063, 0.1807135938422279, 0.023999922472624766)","(0.9950963906722893, -0.09890989524686875, -7.676741602012203e-05)",-7.778305716709229e-05,12.236261337259863,True,"(0.0602957587068665, 0.17736700441977207, 0.056000077527375236)","(-0.9950963906722892, 0.09890989524686965, 7.676741602334409e-05)",2.7884485411100606e-05,12.171527772869622
40,Move,"(0.0137, 0.0, -0.0116)","(0.0, 0.34683182895631326, 0.0)","(0.027175887005570807, 0.16199322735406135, 0.049027024906236734)","(-0.0006498148812641573, -0.002794881340975966, -0.07776045422389503)","[0.02394918348595471, 0.0031148016284927027, 0.0009699820820196492]","[-0.026750000193715096, 0.05299999937415123, 0.03999999910593033]","[0.0, -0.0, 0.29858765664960507]","[-0.0479302853345871, 0.12181420624256134, 0.03999999910593033]","[0.0, 0.0, -0.4961555691389921]","[0.026750000193715096, 0.05299999937415123, 0.03999999910593033]","[0.0, 0.0, -0.7414007762174962]","[0.07537315785884857, 0.10610167682170868, 0.03999999910593033]","[0.0, -0.0, 0.047062434480639834]",0.29890161622538586,0.07535310953693901,"(0.0, 0.0, 0.0, 0.0, 0.0, 0.0)",-1.621783911089864,-0.7942340134088012,0.12221747327789914,"(0.0, 0.0, 0.0, 0.0, 0.0, 0.0)",-0.6967876072193997,-0.7404300098702283,0.23297841899395638,"(0.0, 0.0, 0.0, 0.0, 0.0, 0.0)",2.3646592802108874,0.7877283302473713,-0.17636338512013722,"(0.0, 0.0, 0.0, 0.0, 0.0, 0.0)",1.3826360386657164,True,"(-0.0026597775035370474, 0.18086621287883967, 0.023999922472624766)","(0.9950963906722893, -0.09890989524686875, -7.676741602012203e-05)",-6.909902338496719e-05,10.30235720764028,True,"(0.060002913886988495, 0.17759569553067722, 0.056000077527375236)","(-0.9950963906722892, 0.09890989524686965, 7.676741602334409e-05)",2.7445066477155238e-05,10.470500714071878
41,Move,"(0.0151, 0.0, -0.0107)","(0.0, 0.36363585899451467, 0.0)","(0.027018539442018957, 0.16211988424604412, 0.04903064410240556)","(-0.0007130089195857762, -0.0028713252350062125, -0.07517845848692957)","[0.02379183592240286, 0.003241458520475471, 0.0009736012781884767]","[-0.026750000193715096, 0.05299999937415123, 0.03999999910593033]","[0.0, -0.0, 0.2990072109480051]","[-0.04795915633440018, 0.12180531769990921, 0.03999999910593033]","[0.0, 0.0, -0.4925954769048436]","[0.026750000193715096, 0.05299999937415123, 0.03999999910593033]","[0.0, 0.0, -0.7367685772793489]","[0.07512666285037994, 0.10632634162902832, 0.03999999910593033]","[0.0, -0.0, 0.046939853937185395]",0.2989576792744449,-0.011892781207861036,"(0.0, 0.0, 0.0, 0.0, 0.0, 0.0)",-1.9508269409151424,-0.7910318627819747,0.1370066170033501,"(0.0, 0.0, 0.0, 0.0, 0.0, 0.0)",-0.8442996309991301,-0.736018893021196,0.17991538801834683,"(0.0, 0.0, 0.0, 0.0, 0.0, 0.0)",2.822325817351005,0.7827785573471336,-0.2231584150110527,"(0.0, 0.0, 0.0, 0.0, 0.0, 0.0)",1.610364303436243,True,"(-0.0028991676987109027, 0.1810181135681476, 0.023999922472624766)","(0.9950963906722893, -0.09890989524686875, -7.676741602012203e-05)",-6.372873037527232e-05,12.622827750431895,True,"(0.05976517873425674, 0.17782224139732886, 0.056000077527375236)","(-0.9950963906722892, 0.09890989524686965, 7.676741602334409e-05)",2.7810954144496417e-05,13.695661599604577
42,Move,"(0.012400000000000001, 0.0, -0.014400000000000001)","(0.0, 0.35800717215683286, 0.0)","(0.026631689922463286, 0.1622599659832506, 0.049034303253114905)","(-0.0006844275584775241, -0.002861849824175684, -0.07190919952289912)","[0.02340498640284719, 0.0033815402576819475, 0.0009772604288978207]","[-0.026750000193715096, 0.05299999937415123, 0.03999999910593033]","[0.0, -0.0, 0.30065898590968865]","[-0.048072781413793564, 0.12177018821239471, 0.03999999910593033]","[0.0, 0.0, -0.48808223472580864]","[0.026750000193715096, 0.05299999937415123, 0.03999999910593033]","[0.0, 0.0, -0.7312433516578758]","[0.0748312845826149, 0.1065928116440773, 0.03999999910593033]","[0.0, -0.0, 0.04808730741540924]",0.30112824173073666,0.11261473527811222,"(0.0, 0.0, 0.0, 0.0, 0.0, 0.0)",-1.5994557633017632,-0.7882420921111694,0.11979074358285058,"(0.0, 0.0, 0.0, 0.0, 0.0, 0.0)",-0.6857737880630143,-0.7301410167156043,0.2645672079023592,"(0.0, 0.0, 0.0, 0.0, 0.0, 0.0)",2.2774068642207,0.7786258893188717,-0.16915058372087025,"(0.0, 0.0, 0.0, 0.0, 0.0, 0.0)",1.331151133399415,True,"(-0.003280492264587223, 0.18118575162941464, 0.023999922472624766)","(0.9950963906722893, -0.09890989524686875, -7.676741602012203e-05)",-5.4386720552433404e-05,9.828365241693014,True,"(0.05938777670313499, 0.17807104114518824, 0.056000077527375236)","(-0.9950963906722892, 0.09890989524686965, 7.676741602334409e-05)",2.787025313684342e-05,9.728315145317108
43,Move,"(0.0127, 0.0, -0.014)","(0.0, 0.35240641058718314, 0.0)","(0.02625678094025669, 0.16239315877848035, 0.04901487457443014)","(0.00035521589270548476, -0.00284972193994991, -0.06899276626370668)","[0.02303007742064059, 0.003514733052911695, 0.0009578317502130576]","[-0.026750000193715096, 0.05299999937415123, 0.03999999910593033]","[0.0, -0.0, 0.3028300540684351]","[-0.04822203144431114, 0.1217237338423729, 0.03999999910593033]","[0.0, 0.0, -0.48310077116441275]","[0.026750000193715096, 0.05299999937415123, 0.03999999910593033]","[0.0, 0.0, -0.7256066961763319]","[0.07452844083309174, 0.10686298459768295, 0.03999999910593033]","[0.0, -0.0, 0.04989285826750386]",0.3031717642624426,0.08201182184843302,"(0.0, 0.0, 0.0, 0.0, 0.0, 0.0)",-1.5065285404409927,-0.7854665712523877,0.1114273033486632,"(0.0, 0.0, 0.0, 0.0, 0.0, 0.0)",-0.6471372806203886,-0.7246570031434608,0.2279185447303975,"(0.0, 0.0, 0.0, 0.0, 0.0, 0.0)",2.1303671119859335,0.7748195510431242,-0.16319382583636657,"(0.0, 0.0, 0.0, 0.0, 0.0, 0.0)",1.264575890227102,True,"(-0.003726271752261069, 0.1813616874447469, 0.023999922472624766)","(0.9950963906722893, -0.09890989524686875, -7.676741602012203e-05)",-4.142636900114374e-05,9.343511180069498,True,"(0.058955894119147964, 0.17831320824481584, 0.056000077527375236)","(-0.9950963906722892, 0.09890989524686965, 7.676741602334409e-05)",3.341184923909795e-05,7.858480041066325
44,Move,"(0.0112, 0.0, -0.0137)","(0.0, 0.3737849485948616, 0.0)","(0.02579314530553123, 0.16255313643867345, 0.04902445836514684)","(0.00014067788312588402, -0.002789693125876596, -0.06561804056029312)","[0.02256644178591513, 0.003674710713104795, 0.0009674155409297586]","[-0.026750000193715096, 0.05299999937415123, 0.03999999910593033]","[0.0, -0.0, 0.305378457011646]","[-0.04839709773659706, 0.12166879326105118, 0.03999999910593033]","[0.0, 0.0, -0.47776589080711385]","[0.026750000193715096, 0.05299999937415123, 0.03999999910593033]","[0.0, 0.0, -0.7193846751137709]","[0.07419238239526749, 0.10715921223163605, 0.03999999910593033]","[0.0, -0.0, 0.052079789500841474]",0.3058886766770742,0.12245593472069408,"(0.0, 0.0, 0.0, 0.0, 0.0, 0.0)",-1.6794468568641792,-0.7826195847169968,0.1259341053441675,"(0.0, 0.0, 0.0, 0.0, 0.0, 0.0)",-0.7206914739246636,-0.7181972440786893,0.2849971644719964,"(0.0, 0.0, 0.0, 0.0, 0.0, 0.0)",2.3091908863560318,0.7707220169854453,-0.17820082655080072,"(0.0, 0.0, 0.0, 0.0, 0.0, 0.0)",1.3574639322415214,True,"(-0.0042201334855222206, 0.18154327737318673, 0.023999922472624766)","(0.9950963906722893, -0.09890989524686875, -7.676741602012203e-05)",-3.4513180345280776e-05,10.156322640559189,True,"(0.058463620651385134, 0.17857521106793622, 0.056000077527375236)","(-0.9950963906722892, 0.09890989524686965, 7.676741602334409e-05)",3.2488313754707034e-05,9.148984971186149
45,Move,"(0.012199999999999999, 0.0, -0.0154)","(0.0, 0.35240641058718314, 0.0)","(0.025430795171434015, 0.16269203476152988, 0.0490314242577984)","(-1.316208581554031e-05, -0.002725890066049549, -0.06320642697903585)","[0.022204091651817918, 0.0038136090359612296, 0.0009743814335813131]","[-0.026750000193715096, 0.05299999937415123, 0.03999999910593033]","[0.0, -0.0, 0.30753340784122113]","[-0.048545025289058685, 0.1216219812631607, 0.03999999910593033]","[0.0, 0.0, -0.4729540848332693]","[0.026750000193715096, 0.05299999937415123, 0.03999999910593033]","[0.0, 0.0, -0.71387371500977]","[0.07389318943023682, 0.10741984844207764, 0.03999999910593033]","[0.0, -0.0, 0.053923547768727556]",0.30785218384681357,0.07650200462745758,"(0.0, 0.0, 0.0, 0.0, 0.0, 0.0)",-1.4068831162297177,-0.780039027147853,0.10764236671562791,"(0.0, 0.0, 0.0, 0.0, 0.0, 0.0)",-0.6044507299239348,-0.7129984552804496,0.21005818669181148,"(0.0, 0.0, 0.0, 0.0, 0.0, 0.0)",1.9672848468375637,0.7671889948412424,-0.14597937113939316,"(0.0, 0.0, 0.0, 0.0, 0.0, 0.0)",1.1583259770233436,True,"(-0.004656674763432497, 0.18170834363233143, 0.023999922472624766)","(0.9950963906722893, -0.09890989524686875, -7.676741602012203e-05)",-2.486678570957911e-05,8.397907330344834,True,"(0.05803278153470222, 0.1788067225335785, 0.056000077527375236)","(-0.9950963906722892, 0.09890989524686965, 7.676741602334409e-05)",3.1801009334090395e-05,6.898006450643134
46,Move,"(0.012199999999999999, 0.0, -0.0154)","(0.0, 0.35240641058718314, 0.0)","(0.025114652233558712, 0.16281888794607574, 0.04902896439599135)","(-0.00011409421575516801, -0.0023747556559650406, -0.06065806162333631)","[0.021887948713942614, 0.0039404622205070905, 0.0009719215717742674]","[-0.026750000193715096, 0.05299999937415123, 0.03999999910593033]","[0.0, -0.0, 0.30920986258934535]","[-0.0486600361764431, 0.12158535420894623, 0.03999999910593033]","[0.0, 0.0, -0.468787487268937]","[0.026750000193715096, 0.05299999937415123, 0.03999999910593033]","[0.0, 0.0, -0.7090888028741303]","[0.07363226264715195, 0.10764479637145996, 0.03999999910593033]","[0.0, -0.0, 0.05533412182372537]",0.30949541413392834,0.06853779834963819,"(0.0, 0.0, 0.0, 0.0, 0.0, 0.0)",-1.3457212520631339,-0.7775603599584232,0.10487210081187451,"(0.0, 0.0, 0.0, 0.0, 0.0, 0.0)",-0.5810144334849637,-0.7082399373600643,0.20373125052129734,"(0.0, 0.0, 0.0, 0.0, 0.0, 0.0)",1.705279745326887,0.7639052326680438,-0.12424740129658558,"(0.0, 0.0, 0.0, 0.0, 0.0, 0.0)",0.9889186575520915,True,"(-0.005022518069982822, 0.18185189875719995, 0.04799254287831913)","(0.995182162858266, -0.09804316743368956, 6.950780653389001e-06)",-8.156225829050715e-05,9.335546546736225,True,"(0.05767117017771978, 0.17900923001915517, 0.056000077527375236)","(-0.9950963906722892, 0.09890989524686965, 7.676741602334409e-05)",3.038443171557791e-05,7.189136236150119
47,Move,"(0.0097, 0.0, -0.0157)","(0.0, 0.35240641058718314, 0.0)","(0.02460317719894747, 0.1629986485918657, 0.049008927847108995)","(-0.00018115213624569768, -0.0014606556038464396, -0.057016295281089396)","[0.021376473679331372, 0.004120222866297041, 0.0009518850228919101]","[-0.026750000193715096, 0.05299999937415123, 0.03999999910593033]","[0.0, -0.0, 0.31234427431289763]","[-0.048874903470277786, 0.12151633948087692, 0.03999999910593033]","[0.0, 0.0, -0.4635982489925932]","[0.026750000193715096, 0.05299999937415123, 0.03999999910593033]","[0.0, 0.0, -0.7031549755565715]","[0.07330718636512756, 0.1079220250248909, 0.03999999910593033]","[0.0, -0.0, 0.05847526307639048]",0.3130435411965587,0.1678219541734589,"(0.0, 0.0, 0.0, 0.0, 0.0, 0.0)",-1.1354711830656081,-0.7755587106887776,0.0921074382307782,"(0.0, 0.0, 0.0, 0.0, 0.0, 0.0)",-0.47340368720770953,-0.7019997710532828,0.2772591329182173,"(0.0, 0.0, 0.0, 0.0, 0.0, 0.0)",1.5381829359392378,0.7611735944303243,-0.10960413044310198,"(0.0, 0.0, 0.0, 0.0, 0.0, 0.0)",0.9096049593054512,True,"(-0.005551505974469982, 0.18199243317904998, 0.05600146540208461)","(0.9983613233387063, -0.05720596896156577, 0.001464642125386307)",-0.0001463578728928599,8.733286760611216,True,"(0.05712200826650373, 0.1792359681910683, 0.056000077527375236)","(-0.9950963906722892, 0.09890989524686965, 7.676741602334409e-05)",3.145241809253551e-06,10.073263450413638
48,Move,"(0.010400000000000001, 0.0, -0.016399999999999998)","(0.0, 0.35240641058718314, 0.0)","(0.02412746636703148, 0.16316850334003874, 0.0490099824516216)","(-0.0002893321525670844, -0.001487412102281842, -0.05589584570550513)","[0.02090076284741538, 0.004290077614470089, 0.0009529396274045171]","[-0.026750000193715096, 0.05299999937415123, 0.03999999910593033]","[0.0, -0.0, 0.3154479103768031]","[-0.04908744618296623, 0.12144733965396881, 0.03999999910593033]","[0.0, 0.0, -0.458350685640354]","[0.026750000193715096, 0.05299999937415123, 0.03999999910593033]","[0.0, 0.0, -0.6974635388610552]","[0.07299384474754333, 0.10818611085414886, 0.03999999910593033]","[0.0, -0.0, 0.06146562002976021]",0.3159250066145945,0.11449895422914091,"(0.0, 0.0, 0.0, 0.0, 0.0, 0.0)",-1.1669351229593679,-0.7734096342915144,0.09335286473500279,"(0.0, 0.0, 0.0, 0.0, 0.0, 0.0)",-0.49545872719312356,-0.6965231160448582,0.22569297589916826,"(0.0, 0.0, 0.0, 0.0, 0.0, 0.0)",1.6335741375277084,0.7584319891987495,-0.11931431939094131,"(0.0, 0.0, 0.0, 0.0, 0.0, 0.0)",0.9459446557674881,True,"(-0.006082214639955778, 0.18214587579106184, 0.05600147653167716)","(0.9984278183324872, -0.05603314802566976, 0.0014757717179387482)",-0.00013937963212221668,9.013694639789732,True,"(0.05659548417685148, 0.17945133966316856, 0.056000077527375236)","(-0.9950963906722892, 0.09890989524686965, 7.676741602334409e-05)",-2.20909003961442e-06,11.486308480580089
49,Move,"(0.0119, 0.0, -0.015300000000000001)","(0.0, 0.3603214787449774, 0.0)","(0.023838601434940678, 0.1633264398215415, 0.04896496708209704)","(0.001131961475638706, -0.0012753880563287372, -0.05513439177671246)","[0.02061189791532458, 0.004448014095972841, 0.0009079242578799579]","[-0.026750000193715096, 0.05299999937415123, 0.03999999910593033]","[0.0, -0.0, 0.31687019405050176]","[-0.04918477311730385, 0.12141550332307816, 0.03999999910593033]","[0.0, 0.0, -0.4544596420744676]","[0.026750000193715096, 0.05299999937415123, 0.03999999910593033]","[0.0, 0.0, -0.69313622891999]","[0.07275460660457611, 0.10838570445775986, 0.03999999910593033]","[0.0, -0.0, 0.0627853043847764]",0.3170087308959735,0.033254556987234354,"(0.0, 0.0, 0.0, 0.0, 0.0, 0.0)",-1.6578319520455205,-0.7707167047197732,0.14712955935810929,"(0.0, 0.0, 0.0, 0.0, 0.0, 0.0)",-0.7757680217366834,-0.6924415041919261,0.16672424778216471,"(0.0, 0.0, 0.0, 0.0, 0.0, 0.0)",1.6574042525623847,0.7554398050151997,-0.11560471776151726,"(0.0, 0.0, 0.0, 0.0, 0.0, 0.0)",0.9139565753427468,True,"(-0.006416220197355424, 0.18227775199744192, 0.05600151728541504)","(0.9984680287371623, -0.055310900736356056, 0.0015165254558109145)",-0.00013978002948015393,12.789700002908308,True,"(0.05626221170133764, 0.179629231474092, 0.056000077527375236)","(-0.9950963906722892, 0.09890989524686965, 7.676741602334409e-05)",-3.115907469985629e-06,12.181662063401742
50,Move,"(0.0091, 0.0, -0.0166)","(0.0, 0.36363585899451467, 0.0)","(0.023383928175084254, 0.16344947152763575, 0.04897800212460563)","(0.0006572907754073114, -0.0011718797696713614, -0.05215938817588264)","[0.020157224655468157, 0.004571045802067103, 0.0009209593003885463]","[-0.026750000193715096, 0.05299999937415123, 0.03999999910593033]","[0.0, -0.0, 0.31938896019576335]","[-0.04935702309012413, 0.12135877460241318, 0.03999999910593033]","[0.0, 0.0, -0.4497543035921863]","[0.026750000193715096, 0.05299999937415123, 0.03999999910593033]","[0.0, 0.0, -0.6878435019023956]","[0.07246081531047821, 0.10862842202186584, 0.03999999910593033]","[0.0, -0.0, 0.06506509425183453]",0.3199992033143406,0.14646937459075235,"(0.0, 0.0, 0.0, 0.0, 0.0, 0.0)",-1.1362454447814807,-0.7687494431081336,0.09450001297817935,"(0.0, 0.0, 0.0, 0.0, 0.0, 0.0)",-0.48039705985909054,-0.6867756548485421,0.2562740830406805,"(0.0, 0.0, 0.0, 0.0, 0.0, 0.0)",1.634601556966491,0.7524315695206977,-0.11448024663318375,"(0.0, 0.0, 0.0, 0.0, 0.0, 0.0)",0.9570141604386655,True,"(-0.0068754090917404476, 0.18241980183335435, 0.05600117212559996)","(0.9986253753391072, -0.052402172009972825, 0.0011713656407344915)",-0.00013499703177876737,8.720631584932631,True,"(0.05580604910418146, 0.17983415975966854, 0.056000077527375236)","(-0.9950963906722892, 0.09890989524686965, 7.676741602334409e-05)",-5.421588584845713e-06,12.19953649451722
51,Move,"(0.0103, 0.0, -0.019600000000000003)","(0.0, 0.35240641058718314, 0.0)","(0.0230185657334666, 0.16357501235908772, 0.048986349421745796)","(0.00026985124497120173, -0.001141142291313313, -0.0507914595960395)","[0.019791862213850504, 0.004696586633519073, 0.0009293065975287118]","[-0.026750000193715096, 0.05299999937415123, 0.03999999910593033]","[0.0, -0.0, 0.32177313022972737]","[-0.04951993748545647, 0.12130468338727951, 0.03999999910593033]","[0.0, 0.0, -0.4453272372053392]","[0.026750000193715096, 0.05299999937415123, 0.03999999910593033]","[0.0, 0.0, -0.6830180324006122]","[0.07219185680150986, 0.10884834080934525, 0.03999999910593033]","[0.0, -0.0, 0.06728412802402721]",0.3221024715216581,0.07906018691297151,"(0.0, 0.0, 0.0, 0.0, 0.0, 0.0)",-1.021874220593516,-0.7667542419927991,0.0830554895951278,"(0.0, 0.0, 0.0, 0.0, 0.0, 0.0)",-0.4347904498203835,-0.6822658949816034,0.1805232946857966,"(0.0, 0.0, 0.0, 0.0, 0.0, 0.0)",1.5551905922195397,0.7498438829265174,-0.10999581681324772,"(0.0, 0.0, 0.0, 0.0, 0.0, 0.0)",0.9076780097302877,True,"(-0.007309206295249046, 0.18255013934148762, 0.05600114908911202)","(0.9986970249943121, -0.051018953416030965, 0.0011483291528025504)",-0.00012899893551922918,7.901782205453485,True,"(0.05537912368317247, 0.18001695122500297, 0.056000077527375236)","(-0.9950963906722892, 0.09890989524686965, 7.676741602334409e-05)",-6.26367608827614e-06,11.617998014189498
52,Move,"(0.0105, 0.0, -0.0195)","(0.0, 0.35240641058718314, 0.0)","(0.02272646020984403, 0.16367700904970203, 0.0489923481454259)","(1.675836635018462e-06, -0.0010841361876560427, -0.04921123123069167)","[0.019499756690227934, 0.004798583324133382, 0.0009353053212088139]","[-0.026750000193715096, 0.05299999937415123, 0.03999999910593033]","[0.0, -0.0, 0.32339066370784403]","[-0.04963039979338646, 0.12126776576042175, 0.03999999910593033]","[0.0, 0.0, -0.44177839906639943]","[0.026750000193715096, 0.05299999937415123, 0.03999999910593033]","[0.0, 0.0, -0.6790304282006319]","[0.07196879386901855, 0.10902910679578781, 0.03999999910593033]","[0.0, -0.0, 0.06873632927267231]",0.3236572848230547,0.0639819343742699,"(0.0, 0.0, 0.0, 0.0, 0.0, 0.0)",-1.0105890873584789,-0.7648200889440719,0.08375281661324507,"(0.0, 0.0, 0.0, 0.0, 0.0, 0.0)",-0.42889770003327293,-0.6783426126277075,0.16508034216260314,"(0.0, 0.0, 0.0, 0.0, 0.0, 0.0)",1.552800773811454,0.7473201989757337,-0.1071780824754924,"(0.0, 0.0, 0.0, 0.0, 0.0, 0.0)",0.9025453217651899,True,"(-0.007637382322564314, 0.18266067241993947, 0.05600109152427891)","(0.998776821025085, -0.04943351106510879, 0.0010907643196854044)",-0.0001271592769591537,7.833349976458768,True,"(0.055052727031736845, 0.1801732213991808, 0.056000077527375236)","(-0.9950963906722892, 0.09890989524686965, 7.676741602334409e-05)",-7.485988540452161e-06,11.761304103259953
53,Move,"(0.0107, 0.0, -0.0159)","(0.0, 0.28728119487826664, 0.0)","(0.022570684908389115, 0.1638408992828703, 0.048959866466924955)","(-5.601503645151694e-05, 0.0002626695924150923, -0.04396156910375353)","[0.019343981388773017, 0.004962473557301644, 0.0009028236427078701]","[-0.026750000193715096, 0.05299999937415123, 0.03999999910593033]","[0.0, -0.0, 0.3251330313983083]","[-0.049749307334423065, 0.12122779339551926, 0.03999999910593033]","[0.0, 0.0, -0.4391855949699766]","[0.026750000193715096, 0.05299999937415123, 0.03999999910593033]","[0.0, 0.0, -0.6762253411878314]","[0.07181144505739212, 0.10915572941303253, 0.03999999910593033]","[0.0, -0.0, 0.07033527617978165]",0.32546731299142406,0.0802287287642723,"(0.0, 0.0, 0.0, 0.0, 0.0, 0.0)",-0.15972249118568854,-0.7642467719318196,0.017234781457145812,"(0.0, 0.0, 0.0, 0.0, 0.0, 0.0)",-0.0641597474514087,-0.6758237354725323,0.09636419124735393,"(0.0, 0.0, 0.0, 0.0, 0.0, 0.0)",0.7347009859432958,0.7464098613863135,-0.0361584068659809,"(0.0, 0.0, 0.0, 0.0, 0.0, 0.0)",0.45816353759430445,True,"(-0.007915583455511827, 0.18273001721850832, 0.05600046284452493)","(0.9989124112817463, -0.04662382508054627, 0.00046208456569666467)",-0.00010557853259832038,1.1602367800847022,True,"(0.054780004975450186, 0.18024485720968703, 0.05600030635309823)","(-0.998996576051812, 0.044785574123704416, 0.00030559313901221976)",-2.4427085860922066e-05,5.820003048604575
54,Move,"(0.0178, 0.0, -0.0152)","(0.0, 0.2032401007362357, 0.0)","(0.022992034666958212, 0.16385794488381536, 0.048970257351833676)","(0.00036991175001194735, 0.0005736389610654544, -0.04866545537288887)","[0.019765331147342115, 0.004979519158246709, 0.0009132145276165918]","[-0.026750000193715096, 0.05299999937415123, 0.03999999910593033]","[0.0, -0.0, 0.3226785498992738]","[-0.049581773579120636, 0.12128403782844543, 0.03999999910593033]","[0.0, 0.0, -0.4413671123725856]","[0.026750000193715096, 0.05299999937415123, 0.03999999910593033]","[0.0, 0.0, -0.6788713965741712]","[0.07195988297462463, 0.10903629660606384, 0.03999999910593033]","[0.0, -0.0, 0.06740505527013246]",0.32184578558854143,-0.19986005688138114,"(0.0, 0.0, 0.0, 0.0, 0.0, 0.0)",-0.48951431224415065,-0.764059740612694,-0.003363653885673873,"(0.0, 0.0, 0.0, 0.0, 0.0, 0.0)",-0.2827673870869824,-0.6797874555945698,-0.2198636915673093,"(0.0, 0.0, 0.0, 0.0, 0.0, 0.0)",0.03536680762396751,0.7462897526177745,0.0032029004943723294,"(0.0, 0.0, 0.0, 0.0, 0.0, 0.0)",0.00249377401614267,True,"(-0.007613974253126238, 0.18269485112395906, 0.05600046284452493)","(0.9989124112817463, -0.04662382508054627, 0.00046208456569666467)",-6.025596186801608e-05,3.219040486039679,True,"(0.05513680390729399, 0.18017467410137067, 0.05600062441753457)","(-0.9988775628737069, 0.04736270092290295, 0.0006236575753509081)",-1.3899199974665596e-05,0.0
55,Move,"(0.0253, 0.0, -0.0145)","(0.0, 0.038988910160301336, 0.0)","(0.024127398554727036, 0.16383193371641294, 0.048967763604188926)","(-0.0002078554088210842, 0.0005231706859008034, -0.06351965522128472)","[0.02090069503511094, 0.004953507990844291, 0.0009107207799718409]","[-0.026750000193715096, 0.05299999937415123, 0.03999999910593033]","[0.0, -0.0, 0.31342221836208384]","[-0.0489487461745739, 0.12149245291948318, 0.03999999910593033]","[0.0, 0.0, -0.45060895299674236]","[0.026750000193715096, 0.05299999937415123, 0.03999999910593033]","[0.0, 0.0, -0.6888061132828476]","[0.07251434773206711, 0.10858438909053802, 0.03999999910593033]","[0.0, -0.0, 0.05749244970939491]",0.3113581603323223,-0.4953695270114666,"(0.0, 0.0, 0.0, 0.0, 0.0, 0.0)",-0.2203888948316692,-0.7640153077708929,0.0038034582725640625,"(0.0, 0.0, 0.0, 0.0, 0.0, 0.0)",-0.15701273842715335,-0.6910103104261217,-0.5290195153506945,"(0.0, 0.0, 0.0, 0.0, 0.0, 0.0)",0.08517803919097622,0.7462976329540784,-0.0002101423014346793,"(0.0, 0.0, 0.0, 0.0, 0.0, 0.0)",0.006087920430406852,True,"(-0.006415201136213272, 0.1825127878164047, 0.05600046284452493)","(0.9989124112817463, -0.04662382508054627, 0.00046208456569666467)",-2.1925959363658127e-05,2.2446153370383177,True,"(0.05639744335696563, 0.1798893179466213, 0.05600079589804588)","(-0.9981649978324546, 0.06054754212649106, 0.000795138086661528)",1.3914506430864517e-05,0.0
56,Move,"(0.028100000000000003, 0.0, -0.0162)","(0.0, 0.06450213316595443, 0.0)","(0.025489603323280926, 0.1638760431373852, 0.04895554834116419)","(-0.00015456782158899235, -0.00029950118152245866, -0.08233794438940067)","[0.02226289980366483, 0.004997617411816563, 0.000898505516947104]","[-0.026750000193715096, 0.05299999937415123, 0.03999999910593033]","[0.0, -0.0, 0.3008231428809616]","[-0.048084065318107605, 0.12176668643951416, 0.03999999910593033]","[0.0, 0.0, -0.46307225823021475]","[0.026750000193715096, 0.05299999937415123, 0.03999999910593033]","[0.0, 0.0, -0.7015439851043561]","[0.07321864366531372, 0.10799695551395416, 0.03999999910593033]","[0.0, -0.0, 0.04470816740980804]",0.298495126542416,-0.5587243133492343,"(0.0, 0.0, 0.0, 0.0, 0.0, 0.0)",-0.4390511767902015,-0.7637541047602084,0.0339075168977135,"(0.0, 0.0, 0.0, 0.0, 0.0, 0.0)",-0.28389918333860487,-0.7038503687414157,-0.55353825454302,"(0.0, 0.0, 0.0, 0.0, 0.0, 0.0)",0.2481805863526953,0.7461465498561116,-0.025337959226608878,"(0.0, 0.0, 0.0, 0.0, 0.0, 0.0)",0.08394058107591879,True,"(-0.004793971483229076, 0.18224360387951205, 0.056000335669180785)","(0.99690305086845, -0.078639652879382, 0.00033490922155887464)",-4.482782268146753e-05,3.992727080194747,True,"(0.058014802954674274, 0.17950462083914848, 0.05600042264666313)","(-0.9975184534310398, 0.07040424046998607, 0.00042188670391255927)",1.1482874151701808e-06,0.0
57,Move,"(0.0316, 0.0, -0.0157)","(0.0, 0.0730751904517506, 0.0)","(0.027191351316187946, 0.16379603689611788, 0.04892261474407651)","(0.0008367827597094728, 0.00022089631798531442, -0.09534405339045869)","[0.02396464779657185, 0.00491761117054923, 0.0008655719198594272]","[-0.026750000193715096, 0.05299999937415123, 0.03999999910593033]","[0.0, -0.0, 0.28598337716053673]","[-0.04706127569079399, 0.12207569926977158, 0.03999999910593033]","[0.0, 0.0, -0.47639595815991426]","[0.026750000193715096, 0.05299999937415123, 0.03999999910593033]","[0.0, 0.0, -0.7155872797102943]","[0.07398637384176254, 0.10733897984027863, 0.03999999910593033]","[0.0, -0.0, 0.02949695764498598]",0.2831815558321898,-0.6724459177899739,"(0.0, 0.0, 0.0, 0.0, 0.0, 0.0)",-1.0452775810146027,-0.7620253705321597,0.08495878529966765,"(0.0, 0.0, 0.0, 0.0, 0.0, 0.0)",-0.6238804505283461,-0.7181823629833577,-0.6228132085717651,"(0.0, 0.0, 0.0, 0.0, 0.0, 0.0)",0.7115632672756728,0.7448748313830947,-0.05026378913444338,"(0.0, 0.0, 0.0, 0.0, 0.0, 0.0)",0.3339498717412162,True,"(-0.002969544490550341, 0.18196755125096556, 0.05600026361551426)","(0.9963211071811584, -0.08569820472021392, 0.0002628555550397862)",-2.2759365679886278e-05,8.60222806919533,True,"(0.059872250196325166, 0.1790726276374734, 0.05600027240811246)","(-0.9955735714223627, 0.0939850524956105, 0.000271648153242853)",-1.2633293384068175e-05,4.2694761384272235
58,Move,"(0.0339, 0.0, -0.0157)","(0.0, 0.05170537909033201, 0.0)","(0.0291155597730456, 0.16340916315324122, 0.048897140497366334)","(-0.0008560329201434243, -6.786722255064644e-05, -0.10075916025598444)","[0.0258888562534295, 0.004530737427672571, 0.0008400976731492496]","[-0.026750000193715096, 0.05299999937415123, 0.03999999910593033]","[0.0, -0.0, 0.2695225432045135]","[-0.04592152684926987, 0.122400663793087, 0.03999999910593033]","[0.0, 0.0, -0.4907854091320572]","[0.026750000193715096, 0.05299999937415123, 0.03999999910593033]","[0.0, 0.0, -0.7304917484567989]","[0.07479099184274673, 0.10662893950939178, 0.03999999910593033]","[0.0, -0.0, 0.012922478258585854]",0.2665297281832283,-0.7182714165872645,"(0.0, 0.0, 0.0, 0.0, 0.0, 0.0)",-1.3324783168812409,-0.759956902356135,0.08424191625727073,"(0.0, 0.0, 0.0, 0.0, 0.0, 0.0)",-0.7162407524488382,-0.7331707681689419,-0.6429781013867962,"(0.0, 0.0, 0.0, 0.0, 0.0, 0.0)",1.0086416928193818,0.7430915626186089,-0.07742611930654646,"(0.0, 0.0, 0.0, 0.0, 0.0, 0.0)",0.5042424287255106,True,"(-0.0009725813671342606, 0.18165188611092933, 0.05600026361551426)","(0.9963211071811584, -0.08569820472021392, 0.0002628555550397862)",-2.259335131424317e-05,11.015134363708375,True,"(0.061866600857896484, 0.17857633099237546, 0.05600003294309423)","(-0.9949729964746999, 0.10014357318571271, 3.2183135015835595e-05)",-1.2815248522013097e-05,6.174286714232149
59,Move,"(0.032299999999999995, 0.0, -0.0169)","(0.0, 0.06893701479527203, 0.0)","(0.03074262068125324, 0.16309155180450452, 0.04888609576689902)","(0.0004608946167640505, 0.0003148865453806223, -0.10391569140366337)","[0.027515917161637142, 0.004213126078935869, 0.0008290529426819362]","[-0.026750000193715096, 0.05299999937415123, 0.03999999910593033]","[0.0, -0.0, 0.2549445848643076]","[-0.04490780457854271, 0.12267276644706726, 0.03999999910593033]","[0.0, 0.0, -0.5034158486829746]","[0.026750000193715096, 0.05299999937415123, 0.03999999910593033]","[0.0, 0.0, -0.7433764764849954]","[0.0754779800772667, 0.10600551217794418, 0.03999999910593033]","[0.0, 0.0, -0.0017993894123080115]",0.2525553363608653,-0.5734080104934522,"(0.0, 0.0, 0.0, 0.0, 0.0, 0.0)",-1.4740555534549742,-0.7580045206314225,0.08541571806917347,"(0.0, 0.0, 0.0, 0.0, 0.0, 0.0)",-0.7832215759899542,-0.7454737339678911,-0.503345357270165,"(0.0, 0.0, 0.0, 0.0, 0.0, 0.0)",1.1259714739138813,0.7412363183496501,-0.08178095235923065,"(0.0, 0.0, 0.0, 0.0, 0.0, 0.0)",0.5784157984349392,True,"(0.0007872162285066375, 0.181362724622323, 0.05600006862718172)","(0.9949280867093457, -0.10058875519122595, 6.786722249596907e-05)",-3.6887676817967435e-05,7.877695715554428,True,"(0.06361287879753988, 0.1781237458958867, 0.05600018070889545)","(-0.9946648860054998, 0.1031587716388971, 0.00017994893623749783)",-1.2390360334404164e-05,8.1291008068817
60,Move,"(0.0356, 0.0, -0.0182)","(0.0, 0.07341029366813348, 0.0)","(0.03247991001908466, 0.1627095936166777, 0.048904648968609084)","(-0.00031407845106136726, 0.0003532619536674719, -0.10697504706365134)","[0.02925320649946856, 0.003831167891109044, 0.0008476061443919991]","[-0.026750000193715096, 0.05299999937415123, 0.03999999910593033]","[0.0, -0.0, 0.24001829751777537]","[-0.0438658706843853, 0.12293601781129837, 0.03999999910593033]","[0.0, 0.0, -0.5157613490644145]","[0.026750000193715096, 0.05299999937415123, 0.03999999910593033]","[0.0, 0.0, -0.7559857573426931]","[0.07614245265722275, 0.105386883020401, 0.03999999910593033]","[0.0, 0.0, -0.016821165122327522]",0.23722434925879354,-0.6705511758404082,"(0.0, 0.0, 0.0, 0.0, 0.0, 0.0)",-1.8139548738148208,-0.7552954306838717,0.11622022184472051,"(0.0, 0.0, 0.0, 0.0, 0.0, 0.0)",-0.9330464565828704,-0.7583022343465801,-0.5559499673149207,"(0.0, 0.0, 0.0, 0.0, 0.0, 0.0)",1.3751632973423873,0.7386970037980182,-0.11222609865024945,"(0.0, 0.0, 0.0, 0.0, 0.0, 0.0)",0.7281589618711182,True,"(0.0025502070793462298, 0.1810573955336942, 0.05600006862718172)","(0.9949280867093457, -0.10058875519122595, 6.786722249596907e-05)",-4.418234403767708e-05,14.661666537519174,True,"(0.06536067211477718, 0.17766352529175636, 0.056000435916374554)","(-0.9943233084171949, 0.10640004218597904, 0.00043515641533953384)",-1.430098871371833e-05,9.859947437442601
61,Move,"(0.0365, 0.0, -0.0183)","(0.0, 0.07754497866610804, 0.0)","(0.03418466270881672, 0.1623280697362157, 0.04887578603028049)","(0.00033210458326810775, 0.00027955237479262307, -0.10874837210919747)","[0.03095795918920062, 0.0034496440106470405, 0.0008187432060634062]","[-0.026750000193715096, 0.05299999937415123, 0.03999999910593033]","[0.0, -0.0, 0.22482302061900583]","[-0.04280123487114906, 0.12318801879882812, 0.03999999910593033]","[0.0, 0.0, -0.5280234195377154]","[0.026750000193715096, 0.05299999937415123, 0.03999999910593033]","[0.0, 0.0, -0.7682744966016337]","[0.0767824724316597, 0.10477597266435623, 0.03999999910593033]","[0.0, 0.0, -0.03204139294049353]",0.22216158401988836,-0.6387414907349998,"(0.0, 0.0, 0.0, 0.0, 0.0, 0.0)",-1.9455811672061347,-0.7523385355726407,0.12187854870409151,"(0.0, 0.0, 0.0, 0.0, 0.0, 0.0)",-1.0147779813954272,-0.7704027923266299,-0.5107884977705073,"(0.0, 0.0, 0.0, 0.0, 0.0, 0.0)",1.8302931626760435,0.7356031447077913,-0.1511925732855491,"(0.0, 0.0, 0.0, 0.0, 0.0, 0.0)",0.9628442950806305,True,"(0.004324017599693135, 0.18073588406819885, 0.05600006862718172)","(0.9949280867093457, -0.10058875519122595, 6.786722249596907e-05)",-7.312055398573227e-05,12.780969951280525,True,"(0.06710043719646826, 0.1771951028143503, 0.03743707537986366)","(-0.9941197928593428, 0.10828590380863469, -2.1946400149424666e-05)",-1.0243113440040046e-05,12.921034639081434
62,Move,"(0.037899999999999996, 0.0, -0.0187)","(0.0, 0.1033252370473163, 0.0)","(0.03581890602987699, 0.1619598095381381, 0.04889558504952217)","(-0.00029559422483203926, 0.00012678046261262172, -0.11070856926581792)","[0.03259220251026089, 0.0030813838125694493, 0.0008385422253050848]","[-0.026750000193715096, 0.05299999937415123, 0.03999999910593033]","[0.0, -0.0, 0.20993350124701124]","[-0.041754428297281265, 0.12341922521591187, 0.03999999910593033]","[0.0, 0.0, -0.5395816394413804]","[0.026750000193715096, 0.05299999937415123, 0.03999999910593033]","[0.0, 0.0, -0.7797358611789302]","[0.07737259566783905, 0.10419914871454239, 0.03999999910593033]","[0.0, 0.0, -0.04705833963475428]",0.2072903456727868,-0.6343560512612315,"(0.0, 0.0, 0.0, 0.0, 0.0, 0.0)",-2.483376709636757,-0.7488498541693847,0.15965134757810603,"(0.0, 0.0, 0.0, 0.0, 0.0, 0.0)",-1.2384484903179558,-0.7817300403798859,-0.4786123016628533,"(0.0, 0.0, 0.0, 0.0, 0.0, 0.0)",1.8341476963601084,0.732044471589893,-0.1519228114384878,"(0.0, 0.0, 0.0, 0.0, 0.0, 0.0)",1.0053505601003667,True,"(0.006032811598571927, 0.18041857449918042, 0.05600006862718172)","(0.9949280867093457, -0.10058875519122595, 6.786722249596907e-05)",-8.98313609357955e-05,19.721033356816694,True,"(0.06877758948931216, 0.17674243994232244, 0.05600019021717199)","(-0.9939159278880745, 0.11014123840030396, 0.00018945721276961386)",-1.5532760708475632e-05,13.606001455929475
63,Move,"(0.0385, 0.0, -0.0193)","(0.0, 0.07341029366813348, 0.0)","(0.03737596375791139, 0.1616095335226687, 0.04888217524232019)","(0.0008795120420234557, 3.966664023854523e-05, -0.11257015260297125)","[0.034149260238295294, 0.002731107797100063, 0.000825132418103107]","[-0.026750000193715096, 0.05299999937415123, 0.03999999910593033]","[0.0, -0.0, 0.19555887581647383]","[-0.040740665048360825, 0.12362762540578842, 0.03999999910593033]","[0.0, 0.0, -0.5503264230586077]","[0.026750000193715096, 0.05299999937415123, 0.03999999910593033]","[0.0, 0.0, -0.7904588494752449]","[0.07791867852210999, 0.10365339368581772, 0.03999999910593033]","[0.0, 0.0, -0.06158569447819836]",0.19304830465364717,-0.6025385572486435,"(0.0, 0.0, 0.0, 0.0, 0.0, 0.0)",-2.5716855456007153,-0.7452040372871492,0.16350042792290168,"(0.0, 0.0, 0.0, 0.0, 0.0, 0.0)",-1.270802279275858,-0.7923194600531165,-0.44656224286639534,"(0.0, 0.0, 0.0, 0.0, 0.0, 0.0)",1.8938819136100182,0.7282313456848422,-0.15401828661280342,"(0.0, 0.0, 0.0, 0.0, 0.0, 0.0)",1.0490061719185477,True,"(0.007656254344256319, 0.18011022830086953, 0.05600006862718172)","(0.9949280867093457, -0.10058875519122595, 6.786722249596907e-05)",-0.00010627166615429976,20.37284529631001,True,"(0.07037691083184126, 0.17630132452725686, 0.05600009092700932)","(-0.9937074889772626, 0.11200633116215562, 9.01670501021006e-05)",-1.4257848429020162e-05,13.996416708651795
64,Move,"(0.0345, 0.0, -0.0176)","(0.0, 0.03446676206838401, 0.0)","(0.038442034413636764, 0.16135100115293372, 0.04889841316845655)","(-0.00010325519304375657, -7.804396084035282e-05, -0.1139202683646431)","[0.035215330894020666, 0.0024725754273650646, 0.0008413703442394643]","[-0.026750000193715096, 0.05299999937415123, 0.03999999910593033]","[0.0, -0.0, 0.18492069267745634]","[-0.03998853638768196, 0.12377245724201202, 0.03999999910593033]","[0.0, 0.0, -0.5581444142029619]","[0.026750000193715096, 0.05299999937415123, 0.03999999910593033]","[0.0, 0.0, -0.7982772635054269]","[0.07831314206123352, 0.10325179249048233, 0.03999999910593033]","[0.0, 0.0, -0.07241254675056681]",0.18334191105862982,-0.378906295966974,"(0.0, 0.0, 0.0, 0.0, 0.0, 0.0)",-1.5826811396511915,-0.7426681843390264,0.09524783516115141,"(0.0, 0.0, 0.0, 0.0, 0.0, 0.0)",-0.7911452408425272,-0.7994303542595707,-0.27675040764716546,"(0.0, 0.0, 0.0, 0.0, 0.0, 0.0)",1.5308733457910768,0.7253764163027413,-0.11718356515961396,"(0.0, 0.0, 0.0, 0.0, 0.0, 0.0)",0.8321477937072403,True,"(0.00885567922780657, 0.17992623426904453, 0.0560000620947751)","(0.9935419776824712, -0.11346512601167037, 6.133481587547506e-05)",-0.00011312609992437265,12.131080485005896,True,"(0.07155834855551865, 0.1759771151404696, 0.05600009092700932)","(-0.9937074889772626, 0.11200633116215562, 9.01670501021006e-05)",-1.5056751497987054e-05,11.584179626278043
65,Move,"(0.0354, 0.0, -0.0174)","(0.0, 0.0647621872245016, 0.0)","(0.03938966898756872, 0.1611472468212282, 0.04892050200067209)","(0.00019647697181130768, 0.0007241359696821721, -0.1156481531742563)","[0.03616296546795262, 0.00226882109565954, 0.0008634591764550073]","[-0.026750000193715096, 0.05299999937415123, 0.03999999910593033]","[0.0, -0.0, 0.17595307496373583]","[-0.039353352040052414, 0.12388832867145538, 0.03999999910593033]","[0.0, 0.0, -0.5640850418553813]","[0.026750000193715096, 0.05299999937415123, 0.03999999910593033]","[0.0, 0.0, -0.8045712058177233]","[0.07862839847803116, 0.10292626172304153, 0.03999999910593033]","[0.0, 0.0, -0.08164520569624406]",0.17434310987649257,-0.3863917045811688,"(0.0, 0.0, 0.0, 0.0, 0.0, 0.0)",-2.2968800465769843,-0.739493815648268,0.13064024430401525,"(0.0, 0.0, 0.0, 0.0, 0.0, 0.0)",-1.1402847598753358,-0.8056736763485218,-0.2646166510142986,"(0.0, 0.0, 0.0, 0.0, 0.0, 0.0)",1.4173795993059526,0.7224228583337604,-0.12073317590121543,"(0.0, 0.0, 0.0, 0.0, 0.0, 0.0)",0.7846267976265798,True,"(0.009823708015164384, 0.17975191124604337, 0.05600007880391999)","(0.9935180978340661, -0.11367402159385076, 7.804396076037154e-05)",-9.117930306664397e-05,16.52096638623698,True,"(0.07254324170040652, 0.1756940802559961, 0.05600074092606132)","(-0.9933487589440464, 0.11514206554714762, 0.0007401661020959637)",-1.3159517183881288e-05,10.825703296430323
66,Move,"(0.0352, 0.0, -0.0188)","(0.0, 0.09068730793362537, 0.0)","(0.04021766874196323, 0.16096280018326875, 0.048934281319131856)","(9.777446169264943e-06, 0.00060053886463322, -0.11682527203861992)","[0.036990965222347134, 0.0020843744577001, 0.0008772384949147713]","[-0.026750000193715096, 0.05299999937415123, 0.03999999910593033]","[0.0, -0.0, 0.16767104346162875]","[-0.03876582905650139, 0.12399028241634369, 0.03999999910593033]","[0.0, 0.0, -0.5693351115782919]","[0.026750000193715096, 0.05299999937415123, 0.03999999910593033]","[0.0, 0.0, -0.8099840241945516]","[0.0788978859782219, 0.10264471918344498, 0.03999999910593033]","[0.0, 0.0, -0.08990840558244814]",0.16626413613462832,-0.33765748390630745,"(0.0, 0.0, 0.0, 0.0, 0.0, 0.0)",-2.1223520784828698,-0.7364973456171333,0.12211080845863563,"(0.0, 0.0, 0.0, 0.0, 0.0, 0.0)",-1.0418184104370074,-0.8108773414894416,-0.21439056354607994,"(0.0, 0.0, 0.0, 0.0, 0.0, 0.0)",1.3966654790935082,0.7195523805342536,-0.12558519680579824,"(0.0, 0.0, 0.0, 0.0, 0.0, 0.0)",0.776411422705823,True,"(0.010703839086597819, 0.1795949108426269, 0.05600007880391999)","(0.9935180978340661, -0.11367402159385076, 7.804396076037154e-05)",-9.855500097866272e-05,16.328035334510066,True,"(0.07341338437431193, 0.17545337760532648, 0.0560006407462524)","(-0.9932033405928665, 0.11639035463780831, 0.0006399862931805838)",-9.983198171657743e-06,10.746628664171759
67,Move,"(0.04, 0.0, -0.020100000000000003)","(0.0, 0.1033252370473163, 0.0)","(0.041397742379252776, 0.16068751279793028, 0.04894143529514579)","(-0.0001155193003064062, 0.0005685370398052012, -0.11827525202245599)","[0.03817103885963668, 0.0018090870723616315, 0.0008843924709287035]","[-0.026750000193715096, 0.05299999937415123, 0.03999999910593033]","[0.0, -0.0, 0.15692452717126332]","[-0.03800225257873535, 0.12411530315876007, 0.03999999910593033]","[0.0, 0.0, -0.5761767020276874]","[0.026750000193715096, 0.05299999937415123, 0.03999999910593033]","[0.0, 0.0, -0.8168180761916916]","[0.07923594117164612, 0.1022871807217598, 0.03999999910593033]","[0.0, 0.0, -0.10065711299891043]",0.15475173406141235,-0.5214721281110881,"(0.0, 0.0, 0.0, 0.0, 0.0, 0.0)",-2.958693593666267,-0.7323321734056379,0.1845813415341095,"(0.0, 0.0, 0.0, 0.0, 0.0, 0.0)",-1.4274193564785866,-0.8182014350906138,-0.33200328646839894,"(0.0, 0.0, 0.0, 0.0, 0.0, 0.0)",2.1715200292541965,0.7153635762676793,-0.19137852026483226,"(0.0, 0.0, 0.0, 0.0, 0.0, 0.0)",1.2264196964192116,True,"(0.01184668135524241, 0.17938018549356466, 0.05600007880391999)","(0.9935180978340661, -0.11367402159385076, 7.804396076037154e-05)",-0.00011453385911037737,22.73677998193763,True,"(0.07453319064864508, 0.17514127706602745, 0.056000571053057016)","(-0.9930429170765931, 0.11775160130458157, 0.0005702930977935872)",-9.812814422794678e-06,16.860611711425364
68,Move,"(0.0354, 0.0, -0.0195)","(0.0, 0.06032381493668001, 0.0)","(0.042131726666452964, 0.16052967344094402, 0.04890990686539115)","(0.0012411445090154544, 0.00040728771884696204, -0.11888730462865929)","[0.038905023146836866, 0.0016512477153753646, 0.0008528640411740659]","[-0.026750000193715096, 0.05299999937415123, 0.03999999910593033]","[0.0, -0.0, 0.14870902539252784]","[-0.03741762787103653, 0.12420535087585449, 0.03999999910593033]","[0.0, 0.0, -0.5812840661794234]","[0.026750000193715096, 0.05299999937415123, 0.03999999910593033]","[0.0, 0.0, -0.8217845559095666]","[0.07948006689548492, 0.10202591121196747, 0.03999999910593033]","[0.0, 0.0, -0.10904264723655906]",0.147614055687256,-0.26278923064179494,"(0.0, 0.0, 0.0, 0.0, 0.0, 0.0)",-2.0932351248925944,-0.7294987707446533,0.1186123125975414,"(0.0, 0.0, 0.0, 0.0, 0.0, 0.0)",-1.0245843834889854,-0.8224108142377514,-0.15032410509885819,"(0.0, 0.0, 0.0, 0.0, 0.0, 0.0)",1.3134482900460887,0.7122719719640521,-0.11276399076031408,"(0.0, 0.0, 0.0, 0.0, 0.0, 0.0)",0.7399565968715132,True,"(0.012712904214046333, 0.17921491702310216, 0.05600007880391999)","(0.9935180978340661, -0.11367402159385076, 7.804396076037154e-05)",-0.00011899504876874457,16.07583462997895,True,"(0.07538746223209318, 0.17490926546140573, 0.056000449634711444)","(-0.9929585533905434, 0.11846142730870592, 0.00044887475222762875)",-1.1650068345806977e-05,10.215434611615096
69,Move,"(0.038, 0.0, -0.0198)","(0.0, 0.03875852669903807, 0.0)","(0.04297349036832914, 0.16033187057465914, 0.04892446401889132)","(0.0007237753632901072, 0.0003077727202640036, -0.1199847132671099)","[0.039746786848713044, 0.0014534448490904905, 0.0008674211946742352]","[-0.026750000193715096, 0.05299999937415123, 0.03999999910593033]","[0.0, -0.0, 0.14081600371123035]","[-0.03685527667403221, 0.12428732961416245, 0.03999999910593033]","[0.0, 0.0, -0.5858890077831593]","[0.026750000193715096, 0.05299999937415123, 0.03999999910593033]","[0.0, 0.0, -0.8264738374312718]","[0.07970938831567764, 0.10177809745073318, 0.03999999910593033]","[0.0, 0.0, -0.11697924227585792]",0.13925158299330698,-0.3754553742365585,"(0.0, 0.0, 0.0, 0.0, 0.0, 0.0)",-2.4822985599209137,-0.7260867924436759,0.14835926231865376,"(0.0, 0.0, 0.0, 0.0, 0.0, 0.0)",-1.2013437186883986,-0.8274158767637221,-0.22608671536507674,"(0.0, 0.0, 0.0, 0.0, 0.0, 0.0)",1.6978999724934736,0.7088559940703284,-0.15326977021432445,"(0.0, 0.0, 0.0, 0.0, 0.0, 0.0)",0.9614421811763278,True,"(0.013528043166965896, 0.17906546459455264, 0.05600007880391999)","(0.9935180978340661, -0.11367402159385076, 7.804396076037154e-05)",-0.00012338378565937758,19.102473821198217,True,"(0.07619450530312198, 0.17468481390620944, 0.056000322900746746)","(-0.9928328326748356, 0.11951093083134688, 0.00032214078752944915)",-9.690823115734154e-06,13.22102318906398
70,Move,"(0.0378, 0.0, -0.02)","(0.0, 0.04723384554672254, 0.0)","(0.04367095368945068, 0.16029513004900584, 0.04893852751120069)","(-0.00021931570453711705, 0.0007801249846417081, -0.12608000277233225)","[0.040444250169834585, 0.0014167043234371846, 0.0008814846869836038]","[-0.026750000193715096, 0.05299999937415123, 0.03999999910593033]","[0.0, -0.0, 0.13284156830387034]","[-0.03628648817539215, 0.12436564266681671, 0.03999999910593033]","[0.0, 0.0, -0.5898684044965765]","[0.026750000193715096, 0.05299999937415123, 0.03999999910593033]","[0.0, 0.0, -0.8310996806832782]","[0.07993445545434952, 0.10153260082006454, 0.03999999910593033]","[0.0, 0.0, -0.12495879820967612]",0.1315064392313066,-0.3204298120743283,"(0.0, 0.0, 0.0, 0.0, 0.0, 0.0)",-2.8930226124566034,-0.7218161796972007,0.21449470834930262,"(0.0, 0.0, 0.0, 0.0, 0.0, 0.0)",-1.5018961175619292,-0.8318582364915896,-0.18206927170024068,"(0.0, 0.0, 0.0, 0.0, 0.0, 0.0)",1.7772052084186427,0.7055782004723726,-0.13502836916557284,"(0.0, 0.0, 0.0, 0.0, 0.0, 0.0)",0.8605738909555378,True,"(0.014314416226925052, 0.17894285382926467, 0.05600007880391999)","(0.9935180978340661, -0.11367402159385076, 7.804396076037154e-05)",-9.432108541610047e-05,19.943208584255753,True,"(0.07093632669438663, 0.12618103112296905, 0.056000533979883096)","(-0.9922026624503166, 0.124633832898679, 0.0005332199238813351)",-5.1747878625400596e-05,3.976726455229972
71,Move,"(0.038, 0.0, -0.0198)","(0.0, 0.03875852669903807, 0.0)","(0.044283159049720446, 0.1603281445524644, 0.04896033619048517)","(-0.000200170590705788, 0.0008592760478494482, -0.13404533721259146)","[0.04105645553010435, 0.0014497188268957628, 0.0009032933662680848]","[-0.026750000193715096, 0.05299999937415123, 0.03999999910593033]","[0.0, -0.0, 0.12535727496611487]","[-0.035752102732658386, 0.12443502247333527, 0.03999999910593033]","[0.0, 0.0, -0.5924537197421075]","[0.026750000193715096, 0.05299999937415123, 0.03999999910593033]","[0.0, 0.0, -0.8352493956871633]","[0.08013539761304855, 0.10131147503852844, 0.03999999910593033]","[0.0, 0.0, -0.132288379666726]",0.12402628456601426,-0.31943786345565606,"(0.0, 0.0, 0.0, 0.0, 0.0, 0.0)",-2.8064852931523006,-0.7169518164365847,0.20619301897962747,"(0.0, 0.0, 0.0, 0.0, 0.0, 0.0)",-1.4817176857560264,-0.8359776697630936,-0.1747768689447648,"(0.0, 0.0, 0.0, 0.0, 0.0, 0.0)",1.9001672929339315,0.7023944420156184,-0.13598643175285477,"(0.0, 0.0, 0.0, 0.0, 0.0, 0.0)",0.8661969827936304,True,"(0.014989730417977555, 0.17888122573214438, 0.05600007880391999)","(0.9935180978340661, -0.11367402159385076, 7.804396076037154e-05)",-3.7420567895291526e-05,20.04947517561875,True,"(0.07131800136586947, 0.12602391069000535, 0.05600078084097872)","(-0.9920369644290499, 0.1259446413310206, 0.0007800810194982606)",4.301926825318854e-06,4.829041295112268
72,Move,"(0.038200000000000005, 0.0, -0.0202)","(0.0, 0.03875852669903807, 0.0)","(0.044888245905178585, 0.16032655571267201, 0.04896578089013587)","(-0.00016445180789100266, 0.0005356073605129499, -0.14108153111430627)","[0.04166154238556249, 0.0014481299871033637, 0.0009087380659187835]","[-0.026750000193715096, 0.05299999937415123, 0.03999999910593033]","[0.0, -0.0, 0.11790668177189485]","[-0.035219624638557434, 0.12450011074542999, 0.03999999910593033]","[0.0, 0.0, -0.5950965531871028]","[0.026750000193715096, 0.05299999937415123, 0.03999999910593033]","[0.0, 0.0, -0.8392072288818991]","[0.08032619208097458, 0.10109981149435043, 0.03999999910593033]","[0.0, 0.0, -0.1394643075602817]",0.11658174491575447,-0.3179842908799558,"(0.0, 0.0, 0.0, 0.0, 0.0, 0.0)",-2.7533950606088435,-0.7121747508750303,0.19883887285384622,"(0.0, 0.0, 0.0, 0.0, 0.0, 0.0)",-1.4490046449570526,-0.8399002217815985,-0.1663088149464526,"(0.0, 0.0, 0.0, 0.0, 0.0, 0.0)",1.9136454952739255,0.6991676603237579,-0.13807279470761902,"(0.0, 0.0, 0.0, 0.0, 0.0, 0.0)",0.8735086507682804,True,"(0.01566592670678113, 0.17881201843409297, 0.05600007880391999)","(0.9935180978340661, -0.11367402159385076, 7.804396076037154e-05)",-4.27826992920956e-06,18.467579156834518,True,"(0.07168635166416412, 0.12587487839656342, 0.05600078084097872)","(-0.9920369644290499, 0.1259446413310206, 0.0007800810194982606)",4.453933286275436e-06,4.755662482451492
73,Move,"(0.035, 0.0, -0.0205)","(0.0, 0.05170537909033201, 0.0)","(0.04520199150585279, 0.16035664048429216, 0.048960605233215986)","(-0.00012770090506131963, -1.1506819494763191e-05, -0.1449914801444734)","[0.04197528798623669, 0.0014782147587235062, 0.0009035624089989008]","[-0.026750000193715096, 0.05299999937415123, 0.03999999910593033]","[0.0, -0.0, 0.11290311634577306]","[-0.034861765801906586, 0.12454158812761307, 0.03999999910593033]","[0.0, 0.0, -0.5965156217249911]","[0.026750000193715096, 0.05299999937415123, 0.03999999910593033]","[0.0, 0.0, -0.8412587051885211]","[0.08042475581169128, 0.10098979622125626, 0.03999999910593033]","[0.0, 0.0, -0.14413117032238412]",0.11223455961696971,-0.16045332498601572,"(0.0, 0.0, 0.0, 0.0, 0.0, 0.0)",-2.0461240559577707,-0.7088670456928566,0.1324104917895426,"(0.0, 0.0, 0.0, 0.0, 0.0, 0.0)",-1.0618922840526968,-0.8414567863207151,-0.04753044755570378,"(0.0, 0.0, 0.0, 0.0, 0.0, 0.0)",1.307794313024805,0.6967182937674467,-0.09822715010984216,"(0.0, 0.0, 0.0, 0.0, 0.0, 0.0)",0.6112729119854554,True,"(0.01610080799497241, 0.17878123651012084, 0.05600007880391999)","(0.9935180978340661, -0.11367402159385076, 7.804396076037154e-05)",-5.871996734673293e-07,12.822828908018105,True,"(0.07190062993776845, 0.12580491809227767, 0.05600078084097872)","(-0.9920369644290499, 0.1259446413310206, 0.0007800810194982606)",1.1021276970798998e-06,2.750229539490305
74,Move,"(0.039299999999999995, 0.0, -0.0219)","(0.0, 0.05592383989240231, 0.0)","(0.045789982551399405, 0.16026412754763303, 0.048938593845410425)","(0.001039715226519405, -2.5942567249759052e-06, -0.15222464924647255)","[0.04256327903178331, 0.001385701822064378, 0.00088155102119334]","[-0.026750000193715096, 0.05299999937415123, 0.03999999910593033]","[0.0, -0.0, 0.10609914677118748]","[-0.03437481448054314, 0.12459512799978256, 0.03999999910593033]","[0.0, 0.0, -0.5984725112819906]","[0.026750000193715096, 0.05299999937415123, 0.03999999910593033]","[0.0, 0.0, -0.844456545915522]","[0.08057793974876404, 0.10081791132688522, 0.03999999910593033]","[0.0, 0.0, -0.15054188837893945]",0.10460199607697629,-0.3593179388719853,"(0.0, 0.0, 0.0, 0.0, 0.0, 0.0)",-2.859412993078284,-0.7037056147239203,0.20784560317094264,"(0.0, 0.0, 0.0, 0.0, 0.0, 0.0)",-1.4879735460525925,-0.8452185577847116,-0.18287343822333982,"(0.0, 0.0, 0.0, 0.0, 0.0, 0.0)",2.457991232011015,0.6932172083219788,-0.16739791137661855,"(0.0, 0.0, 0.0, 0.0, 0.0, 0.0)",1.0976677688049221,True,"(0.01669416826458639, 0.17873735567634583, 0.05600007120198193)","(0.9886774188862372, -0.15005651076300938, 7.044202270671193e-05)",-2.149359900495181e-05,20.675628376034403,True,"(0.07221307580060274, 0.12568716505895408, 0.05600078084097872)","(-0.9920369644290499, 0.1259446413310206, 0.0007800810194982606)",3.5196032561904084e-06,7.493375793215689
