OSUrobotics/InHand-Manipulation/AnalyseData/Data/Trial Data/Better/new_hand_expected_exp_2v2_f_n_1_kpNone_kdNone_dp1_step1_save_data.csv
,Phase,human_cube_pos,human_cube_orn,Cube_Pos,Cube_Orn,Cube_pos_in_start_pos,b'l_prox_pin'_link_pos,b'l_prox_pin'_link_orn,b'l_distal_pin'_link_pos,b'l_distal_pin'_link_orn,b'r_prox_pin'_link_pos,b'r_prox_pin'_link_orn,b'r_distal_pin'_link_pos,b'r_distal_pin'_link_orn,b'l_prox_pin'_joint_angle,b'l_prox_pin'_joint_vel,b'l_prox_pin'_joint_react_forces,b'l_prox_pin'_joint_motor_torque,b'l_distal_pin'_joint_angle,b'l_distal_pin'_joint_vel,b'l_distal_pin'_joint_react_forces,b'l_distal_pin'_joint_motor_torque,b'r_prox_pin'_joint_angle,b'r_prox_pin'_joint_vel,b'r_prox_pin'_joint_react_forces,b'r_prox_pin'_joint_motor_torque,b'r_distal_pin'_joint_angle,b'r_distal_pin'_joint_vel,b'r_distal_pin'_joint_react_forces,b'r_distal_pin'_joint_motor_torque,in_contact_l,contact_point_l_dist,contact_normal_l_dist,contact_distance_l_dist,contact_norm_force_l_dist,in_contact_r,contact_point_r_dist,contact_normal_r_dist,contact_distance_r_dist,contact_norm_force_r_dist
0,Open,,,,,,"[-0.026750000193715096, 0.05299999937415123, 0.03999999910593033]","[0.0, -0.0, 0.0]","[-0.026750000193715096, 0.125, 0.03999999910593033]","[0.0, -0.0, 0.0]","[0.026750000193715096, 0.05299999937415123, 0.03999999910593033]","[0.0, -0.0, 0.0]","[0.026750000193715096, 0.125, 0.03999999910593033]","[0.0, -0.0, 0.0]",0.0028636982559538428,0.6872875814289223,"(0.0, 0.0, 0.0, 0.0, 0.0, 0.0)",-74.42376671286476,0.025717978913313098,6.172314939195144,"(0.0, 0.0, 0.0, 0.0, 0.0, 0.0)",-28.347758017338414,-0.0028861714462846827,-0.6926811471083238,"(0.0, 0.0, 0.0, 0.0, 0.0, 0.0)",77.31812537484876,-0.025998027583603027,-6.239526620064726,"(0.0, 0.0, 0.0, 0.0, 0.0, 0.0)",29.325432325549183,False,,,,,False,,,,
1,Open,,,,,,"[-0.026750000193715096, 0.05299999937415123, 0.03999999910593033]","[0.0, -0.0, 0.0028636982488144678]","[-0.026956185698509216, 0.12499970197677612, 0.03999999910593033]","[0.0, -0.0, 0.028581675581217755]","[0.026750000193715096, 0.05299999937415123, 0.03999999910593033]","[0.0, 0.0, -0.0028861714423951343]","[0.026957804337143898, 0.12499970197677612, 0.03999999910593033]","[0.0, 0.0, -0.028884201286240394]",0.1595773284303585,37.61127124185712,"(0.0, 0.0, 0.0, 0.0, 0.0, 0.0)",53.472225824972774,0.02314589095046895,-0.6173011110825959,"(0.0, 0.0, 0.0, 0.0, 0.0, 0.0)",3.3014509125464437,-0.15959755430165623,-37.61073188528917,"(0.0, 0.0, 0.0, 0.0, 0.0, 0.0)",-53.45543824447724,-0.023397935520559333,0.6240220951304867,"(0.0, 0.0, 0.0, 0.0, 0.0, 0.0)",-3.2927232380167535,False,,,,,False,,,,
2,Open,,,,,,"[-0.026750000193715096, 0.05299999937415123, 0.03999999910593033]","[0.0, -0.0, 0.15957730699277592]","[-0.03819086775183678, 0.1240852028131485, 0.03999999910593033]","[0.0, -0.0, 0.1827232399786182]","[0.026750000193715096, 0.05299999937415123, 0.03999999910593033]","[0.0, 0.0, -0.15959754249378824]","[0.03819230571389198, 0.12408497184515, 0.03999999910593033]","[0.0, 0.0, -0.1829954723320542]",0.30061959558732265,33.8501441176714,"(0.0, 0.0, 0.0, 0.0, 0.0, 0.0)",-5.433290843096747,0.020831748867960086,-0.555394099802127,"(0.0, 0.0, 0.0, 0.0, 0.0, 0.0)",-0.37949999689540415,-0.30063779887149056,-33.849658696760244,"(0.0, 0.0, 0.0, 0.0, 0.0, 0.0)",5.433149501288634,-0.02105858889910766,0.5614431891484022,"(0.0, 0.0, 0.0, 0.0, 0.0, 0.0)",0.37943043762158307,False,,,,,False,,,,
3,Open,,,,,,"[-0.026750000193715096, 0.05299999937415123, 0.03999999910593033]","[0.0, -0.0, 0.30061964608852465]","[-0.048070069402456284, 0.12177103012800217, 0.03999999910593033]","[0.0, -0.0, 0.3214513597309629]","[0.026750000193715096, 0.05299999937415123, 0.03999999910593033]","[0.0, 0.0, -0.30063782483534385]","[0.04807132109999657, 0.12177064269781113, 0.03999999910593033]","[0.0, 0.0, -0.32169639446592324]",0.4275576360285904,30.465129705904268,"(0.0, 0.0, 0.0, 0.0, 0.0, 0.0)",-4.896562760502833,0.018748978964657985,-0.49986477679250463,"(0.0, 0.0, 0.0, 0.0, 0.0, 0.0)",-0.3438186216350169,-0.4275740189843415,-30.464692827084228,"(0.0, 0.0, 0.0, 0.0, 0.0, 0.0)",4.8964345239877005,-0.018953134917884834,0.505308955493478,"(0.0, 0.0, 0.0, 0.0, 0.0, 0.0)",0.34375511365495653,False,,,,,False,,,,
4,Open,,,,,,"[-0.026750000193715096, 0.05299999937415123, 0.03999999910593033]","[0.0, -0.0, 0.42755761853039154]","[-0.056604765355587006, 0.1185186430811882, 0.03999999910593033]","[0.0, -0.0, 0.4463066270391506]","[0.026750000193715096, 0.05299999937415123, 0.03999999910593033]","[0.0, 0.0, -0.42757404208311445]","[0.05660583823919296, 0.1185181587934494, 0.03999999910593033]","[0.0, 0.0, -0.4465272228574986]",0.5418018724257314,27.418616735313837,"(0.0, 0.0, 0.0, 0.0, 0.0, 0.0)",-4.412236817968903,0.016874447698417276,-0.44988750389777044,"(0.0, 0.0, 0.0, 0.0, 0.0, 0.0)",-0.3112578673856835,-0.5418166170859073,-27.418223544375806,"(0.0, 0.0, 0.0, 0.0, 0.0, 0.0)",4.412120589674461,-0.017058187988154127,0.4547872631353701,"(0.0, 0.0, 0.0, 0.0, 0.0, 0.0)",0.31119999541872967,False,,,,,False,,,,
5,Open,,,,,,"[-0.026750000193715096, 0.05299999937415123, 0.03999999910593033]","[0.0, -0.0, 0.5418019400761332]","[-0.06387900561094284, 0.11468822509050369, 0.03999999910593033]","[0.0, -0.0, 0.5586763123738882]","[0.026750000193715096, 0.05299999937415123, 0.03999999910593033]","[0.0, 0.0, -0.5418166677071254]","[0.06387991458177567, 0.11468767374753952, 0.03999999910593033]","[0.0, 0.0, -0.5588748551425957]",0.6446216851831583,24.67675506178245,"(0.0, 0.0, 0.0, 0.0, 0.0, 0.0)",-3.975330693632137,0.015187334633278446,-0.4049071356333192,"(0.0, 0.0, 0.0, 0.0, 0.0, 0.0)",-0.2816071653694913,-0.6446349553773166,-24.67640118993823,"(0.0, 0.0, 0.0, 0.0, 0.0, 0.0)",3.975225427671302,-0.01535270083200906,0.409316917474816,"(0.0, 0.0, 0.0, 0.0, 0.0, 0.0)",0.28155450162657786,False,,,,,False,,,,
6,Open,,,,,,"[-0.026750000193715096, 0.05299999937415123, 0.03999999910593033]","[0.0, -0.0, 0.6446216983098856]","[-0.07001452147960663, 0.11055155843496323, 0.03999999910593033]","[0.0, -0.0, 0.6598089287160823]","[0.026750000193715096, 0.05299999937415123, 0.03999999910593033]","[0.0, 0.0, -0.644634967879878]","[0.07001528143882751, 0.11055097728967667, 0.03999999910593033]","[0.0, 0.0, -0.6599877329949964]",0.7371595166648425,22.209079555604205,"(0.0, 0.0, 0.0, 0.0, 0.0, 0.0)",-3.5812948349547464,0.013668901111545678,-0.3644240452158641,"(0.0, 0.0, 0.0, 0.0, 0.0, 0.0)",-0.25464125660078457,-0.737171459839585,-22.20876107094441,"(0.0, 0.0, 0.0, 0.0, 0.0, 0.0)",3.5811995605906057,-0.01381773063402154,0.3683928475170044,"(0.0, 0.0, 0.0, 0.0, 0.0, 0.0)",0.2545933902665499,False,,,,,False,,,,
7,Open,,,,,,"[-0.026750000193715096, 0.05299999937415123, 0.03999999910593033]","[0.0, -0.0, 0.7371595400859692]","[-0.07514750957489014, 0.10630742460489273, 0.03999999910593033]","[0.0, -0.0, 0.7508283868993905]","[0.026750000193715096, 0.05299999937415123, 0.03999999910593033]","[0.0, 0.0, -0.7371714711336782]","[0.07514814287424088, 0.10630684345960617, 0.03999999910593033]","[0.0, 0.0, -0.750989167509555]",0.8204435649983582,19.988171600043785,"(0.0, 0.0, 0.0, 0.0, 0.0, 0.0)",-3.2259980823944012,0.01230228208777883,-0.32798856570404317,"(0.0, 0.0, 0.0, 0.0, 0.0, 0.0)",-0.23014491551259536,-0.8204543138556265,-19.987884963849964,"(0.0, 0.0, 0.0, 0.0, 0.0, 0.0)",3.225911902119173,-0.012436228606816148,0.33156048652929415,"(0.0, 0.0, 0.0, 0.0, 0.0, 0.0)",0.23010145595163894,False,,,,,False,,,,
8,Open,,,,,,"[-0.026750000193715096, 0.05299999937415123, 0.03999999910593033]","[0.0, -0.0, 0.8204435774406766]","[-0.07941428571939468, 0.1020965725183487, 0.03999999910593033]","[0.0, -0.0, 0.8327459142786269]","[0.026750000193715096, 0.05299999937415123, 0.03999999910593033]","[0.0, 0.0, -0.8204543695347751]","[0.07941480726003647, 0.10209600627422333, 0.03999999910593033]","[0.0, 0.0, -0.8328905496331522]",0.8953992084985224,17.9893544400394,"(0.0, 0.0, 0.0, 0.0, 0.0, 0.0)",-2.905692777507757,0.011072298781000885,-0.2951959936267068,"(0.0, 0.0, 0.0, 0.0, 0.0, 0.0)",-0.20791432075989408,-0.8954088824700639,-17.989096467464968,"(0.0, 0.0, 0.0, 0.0, 0.0, 0.0)",2.9056148642503405,-0.011192850601700187,0.29841072122783063,"(0.0, 0.0, 0.0, 0.0, 0.0, 0.0)",0.20787489947010138,False,,,,,False,,,,
9,Open,,,,,,"[-0.026750000193715096, 0.05299999937415123, 0.03999999910593033]","[0.0, -0.0, 0.8953992050914552]","[-0.08294302970170975, 0.09801492840051651, 0.03999999910593033]","[0.0, -0.0, 0.9064715399310761]","[0.026750000193715096, 0.05299999937415123, 0.03999999910593033]","[0.0, 0.0, -0.8954089117450801]","[0.08294346183538437, 0.09801438450813293, 0.03999999910593033]","[0.0, 0.0, -0.9066016844299951]",0.9628592876486701,16.190418996035465,"(0.0, 0.0, 0.0, 0.0, 0.0, 0.0)",-2.616982039675733,0.009965290062605858,-0.26568209241480656,"(0.0, 0.0, 0.0, 0.0, 0.0, 0.0)",-0.18775783729375353,-0.9628679942230576,-16.190186820718473,"(0.0, 0.0, 0.0, 0.0, 0.0, 0.0)",2.6169116334278195,-0.010073786659150813,0.26857534621184953,"(0.0, 0.0, 0.0, 0.0, 0.0, 0.0)",0.187722108909745,False,,,,,False,,,,
10,Open,,,,,,"[-0.026750000193715096, 0.05299999937415123, 0.03999999910593033]","[0.0, -0.0, 0.9628592963772022]","[-0.08584962040185928, 0.09412462264299393, 0.03999999910593033]","[0.0, -0.0, 0.9728246761305416]","[0.026750000193715096, 0.05299999937415123, 0.03999999910593033]","[0.0, 0.0, -0.9628681466677605]","[0.08584997802972794, 0.09412410855293274, 0.03999999910593033]","[0.0, 0.0, -0.9729417790417357]",1.0235733588838032,14.57137709643192,"(0.0, 0.0, 0.0, 0.0, 0.0, 0.0)",-2.356789246056587,0.008968960705874744,-0.23911904561546746,"(0.0, 0.0, 0.0, 0.0, 0.0, 0.0)",-0.16949635495257384,-1.0235811948007518,-14.571168138646623,"(0.0, 0.0, 0.0, 0.0, 0.0, 0.0)",2.3567256501387286,-0.009066607604651448,0.24172297307984775,"(0.0, 0.0, 0.0, 0.0, 0.0, 0.0)",0.16946399753760524,False,,,,,False,,,,
11,Open,,,,,,"[-0.026750000193715096, 0.05299999937415123, 0.03999999910593033]","[0.0, -0.0, 1.0235732790301837]","[-0.08823604136705399, 0.09046287834644318, 0.03999999910593033]","[0.0, -0.0, 1.0325423083164225]","[0.026750000193715096, 0.05299999937415123, 0.03999999910593033]","[0.0, 0.0, -1.0235812274279317]","[0.08823633193969727, 0.09046239405870438, 0.03999999910593033]","[0.0, 0.0, -1.0326479037372749]",1.078216022995423,13.114239386788727,"(0.0, 0.0, 0.0, 0.0, 0.0, 0.0)",-2.1223296975724493,0.008072244810550301,-0.215211814877866,"(0.0, 0.0, 0.0, 0.0, 0.0, 0.0)",-0.1529632973210469,-1.0782230753206767,-13.114051324781958,"(0.0, 0.0, 0.0, 0.0, 0.0, 0.0)",2.122272274708909,-0.008160126984954354,0.21755534872730237,"(0.0, 0.0, 0.0, 0.0, 0.0, 0.0)",0.15293401213466845,False,,,,,False,,,,
12,Open,,,,,,"[-0.026750000193715096, 0.05299999937415123, 0.03999999910593033]","[0.0, -0.0, 1.078215882979514]","[-0.09019032120704651, 0.08704887330532074, 0.03999999910593033]","[0.0, -0.0, 1.0862882926740116]","[0.026750000193715096, 0.05299999937415123, 0.03999999910593033]","[0.0, 0.0, -1.078222977413882]","[0.09019055962562561, 0.08704842627048492, 0.03999999910593033]","[0.0, 0.0, -1.0863833790205233]",1.1273944206958806,11.802815448109852,"(0.0, 0.0, 0.0, 0.0, 0.0, 0.0)",-1.9110844168611731,0.007265182884681461,-0.19369486220852175,"(0.0, 0.0, 0.0, 0.0, 0.0, 0.0)",-0.13800439004610457,-1.127400767788609,-11.802646192303762,"(0.0, 0.0, 0.0, 0.0, 0.0, 0.0)",1.9110325851897776,-0.007344276810443619,0.19580404188257655,"(0.0, 0.0, 0.0, 0.0, 0.0, 0.0)",0.13797790093405082,False,,,,,False,,,,
13,Open,,,,,,"[-0.026750000193715096, 0.05299999937415123, 0.03999999910593033]","[0.0, -0.0, 1.1273943743462997]","[-0.0917874127626419, 0.08388907462358475, 0.03999999910593033]","[0.0, -0.0, 1.1346596248576977]","[0.026750000193715096, 0.05299999937415123, 0.03999999910593033]","[0.0, 0.0, -1.127400718904607]","[0.09178761392831802, 0.08388865739107132, 0.03999999910593033]","[0.0, 0.0, -1.134745111288055]",1.1716549786262926,10.622533903298867,"(0.0, 0.0, 0.0, 0.0, 0.0, 0.0)",-1.7207759982695574,0.00653881121780902,-0.17432920004938585,"(0.0, 0.0, 0.0, 0.0, 0.0, 0.0)",-0.12447725819906867,-1.1716606910097482,-10.622381573073383,"(0.0, 0.0, 0.0, 0.0, 0.0, 0.0)",1.7207292273800263,-0.006609995722787257,0.17622746103752684,"(0.0, 0.0, 0.0, 0.0, 0.0, 0.0)",0.12445331071934837,False,,,,,False,,,,
14,Open,,,,,,"[-0.026750000193715096, 0.05299999937415123, 0.03999999910593033]","[0.0, -0.0, 1.17165497759142]","[-0.09309044480323792, 0.08098116517066956, 0.03999999910593033]","[0.0, -0.0, 1.1781937273122836]","[0.026750000193715096, 0.05299999937415123, 0.03999999910593033]","[0.0, 0.0, -1.1716605985979762]","[0.09309060126543045, 0.08098078519105911, 0.03999999910593033]","[0.0, 0.0, -1.178270796658152]",1.2114894807636634,9.56028051296898,"(0.0, 0.0, 0.0, 0.0, 0.0, 0.0)",-1.549346412635057,0.005885062316220725,-0.15689973638119079,"(0.0, 0.0, 0.0, 0.0, 0.0, 0.0)",-0.11225090666269867,-1.2114946219087734,-9.560143415766044,"(0.0, 0.0, 0.0, 0.0, 0.0, 0.0)",1.5493042197033076,-0.00594912834521185,0.1586081706180975,"(0.0, 0.0, 0.0, 0.0, 0.0, 0.0)",0.11222926703597672,False,,,,,False,,,,
15,Open,,,,,,"[-0.026750000193715096, 0.05299999937415123, 0.03999999910593033]","[0.0, -0.0, 1.2114893406881728]","[-0.09415213763713837, 0.07831703126430511, 0.03999999910593033]","[0.0, -0.0, 1.2173745989650702]","[0.026750000193715096, 0.05299999937415123, 0.03999999910593033]","[0.0, 0.0, -1.2114945655338818]","[0.09415226429700851, 0.07831668108701706, 0.03999999910593033]","[0.0, 0.0, -1.2174436451143456]",1.247340532687297,8.604252461672083,"(0.0, 0.0, 0.0, 0.0, 0.0, 0.0)",-1.3949366588174594,0.00529667529397997,-0.14121288533778104,"(0.0, 0.0, 0.0, 0.0, 0.0, 0.0)",-0.1012051251161189,-1.2473451597178962,-8.604129074189437,"(0.0, 0.0, 0.0, 0.0, 0.0, 0.0)",1.394898604883462,-0.005354334697048719,0.1427504755591516,"(0.0, 0.0, 0.0, 0.0, 0.0, 0.0)",0.1011855790679586,False,,,,,False,,,,
16,Open,,,,,,"[-0.026750000193715096, 0.05299999937415123, 0.03999999910593033]","[0.0, -0.0, 1.2473405247091465]","[-0.09501627087593079, 0.07588484138250351, 0.03999999910593033]","[0.0, -0.0, 1.2526371614229614]","[0.026750000193715096, 0.05299999937415123, 0.03999999910593033]","[0.0, 0.0, -1.2473450561350814]","[0.09501637518405914, 0.07588452845811844, 0.03999999910593033]","[0.0, 0.0, -1.252699591080442]",1.2796064794185673,7.743827215504874,"(0.0, 0.0, 0.0, 0.0, 0.0, 0.0)",-1.2558681481324276,0.004767115224099335,-0.12709441677135241,"(0.0, 0.0, 0.0, 0.0, 0.0, 0.0)",-0.09122984935698081,-1.2796106437461066,-7.743716166770495,"(0.0, 0.0, 0.0, 0.0, 0.0, 0.0)",1.2558338345532607,-0.004819008666073119,0.128478247434144,"(0.0, 0.0, 0.0, 0.0, 0.0, 0.0)",0.09121220090323832,False,,,,,False,,,,
17,Open,,,,,,"[-0.026750000193715096, 0.05299999937415123, 0.03999999910593033]","[0.0, -0.0, 1.279606409124563]","[-0.09571900963783264, 0.0736706405878067, 0.03999999910593033]","[0.0, -0.0, 1.2843736758198352]","[0.026750000193715096, 0.05299999937415123, 0.03999999910593033]","[0.0, 0.0, -1.2796106525936015]","[0.0957190990447998, 0.07367035001516342, 0.03999999910593033]","[0.0, 0.0, -1.2844295613342638]",1.3086458314767107,6.969444493954387,"(0.0, 0.0, 0.0, 0.0, 0.0, 0.0)",-1.1305941221975622,0.00429170208951155,-0.1140991523010686,"(0.0, 0.0, 0.0, 0.0, 0.0, 0.0)",-0.082192919359827,-1.3086495793714958,-6.969344550093446,"(0.0, 0.0, 0.0, 0.0, 0.0, 0.0)",1.1305631934145834,-0.004338405935744441,0.11534465527888274,"(0.0, 0.0, 0.0, 0.0, 0.0, 0.0)",0.08217699569254354,False,,,,,False,,,,
18,Open,,,,,,"[-0.026750000193715096, 0.05299999937415123, 0.03999999910593033]","[0.0, -0.0, 1.308645825919811]","[-0.09629011154174805, 0.0716593861579895, 0.03999999910593033]","[0.0, -0.0, 1.3129373548657892]","[0.026750000193715096, 0.05299999937415123, 0.03999999910593033]","[0.0, 0.0, -1.308649569130343]","[0.09629017859697342, 0.07165912538766861, 0.03999999910593033]","[0.0, 0.0, -1.3129881167123505]",1.3347812483290395,6.272500044558946,"(0.0, 0.0, 0.0, 0.0, 0.0, 0.0)",-1.0178482622338179,0.003863702481573626,-0.10271990590510163,"(0.0, 0.0, 0.0, 0.0, 0.0, 0.0)",-0.07410352518858664,-1.3347846214343462,-6.272410095084102,"(0.0, 0.0, 0.0, 0.0, 0.0, 0.0)",1.0178203769740246,-0.0039057357160976183,0.10384085271523745,"(0.0, 0.0, 0.0, 0.0, 0.0, 0.0)",0.0740891498002037,False,,,,,False,,,,
19,Open,,,,,,"[-0.026750000193715096, 0.05299999937415123, 0.03999999910593033]","[0.0, -0.0, 1.3347813147466918]","[-0.09675397723913193, 0.06983575969934464, 0.03999999910593033]","[0.0, -0.0, 1.3386449621367835]","[0.026750000193715096, 0.05299999937415123, 0.03999999910593033]","[0.0, 0.0, -1.3347844615433213]","[0.0967540368437767, 0.06983552873134613, 0.03999999910593033]","[0.0, 0.0, -1.3386905382854437]",1.3583031234961356,5.645250040103052,"(0.0, 0.0, 0.0, 0.0, 0.0, 0.0)",-0.9162890978823036,0.0034783869891320215,-0.09247571818598516,"(0.0, 0.0, 0.0, 0.0, 0.0, 0.0)",-0.06677007440367574,-1.3583061592909116,-5.645169085575695,"(0.0, 0.0, 0.0, 0.0, 0.0, 0.0)",0.9162639666346021,-0.003516216695348753,0.09348456497972772,"(0.0, 0.0, 0.0, 0.0, 0.0, 0.0)",0.06675710630673855,False,,,,,False,,,,
20,Open,,,,,,"[-0.026750000193715096, 0.05299999937415123, 0.03999999910593033]","[0.0, -0.0, 1.3583030429358363]","[-0.09713058918714523, 0.06818463653326035, 0.03999999910593033]","[0.0, -0.0, 1.3617816714487538]","[0.026750000193715096, 0.05299999937415123, 0.03999999910593033]","[0.0, 0.0, -1.358306171033049]","[0.09713063389062881, 0.06818442046642303, 0.03999999910593033]","[0.0, 0.0, -1.361822351334537]",1.379472811146522,5.0807250360927485,"(0.0, 0.0, 0.0, 0.0, 0.0, 0.0)",-0.8248429295126702,0.003131498553648039,-0.08325322451615583,"(0.0, 0.0, 0.0, 0.0, 0.0, 0.0)",-0.06015531267018523,-1.3794755433618204,-5.080652177018124,"(0.0, 0.0, 0.0, 0.0, 0.0, 0.0)",0.8248202834423316,-0.003165545104486833,0.08416118180686077,"(0.0, 0.0, 0.0, 0.0, 0.0, 0.0)",0.06014361689139186,False,,,,,False,,,,
21,Open,,,,,,"[-0.026750000193715096, 0.05299999937415123, 0.03999999910593033]","[0.0, -0.0, 1.3794728975130914]","[-0.09743624925613403, 0.06669140607118607, 0.03999999910593033]","[0.0, -0.0, 1.382604304378769]","[0.026750000193715096, 0.05299999937415123, 0.03999999910593033]","[0.0, 0.0, -1.379475506721758]","[0.09743628650903702, 0.06669121235609055, 0.03999999910593033]","[0.0, 0.0, -1.3826409668082853]",1.3985255300318697,4.572652532483473,"(0.0, 0.0, 0.0, 0.0, 0.0, 0.0)",-0.7425066286387145,0.0028192047313806493,-0.07495051734417352,"(0.0, 0.0, 0.0, 0.0, 0.0, 0.0)",-0.054190171953983096,-1.3985279890256384,-4.57258695931631,"(0.0, 0.0, 0.0, 0.0, 0.0, 0.0)",0.7424862245436853,-0.0028498464605416357,0.07576767454684734,"(0.0, 0.0, 0.0, 0.0, 0.0, 0.0)",0.0541796259205944,False,,,,,False,,,,
22,Open,,,,,,"[-0.026750000193715096, 0.05299999937415123, 0.03999999910593033]","[0.0, -0.0, 1.398525454133583]","[-0.09768425673246384, 0.0653422400355339, 0.03999999910593033]","[0.0, -0.0, 1.4013447262228373]","[0.026750000193715096, 0.05299999937415123, 0.03999999910593033]","[0.0, 0.0, -1.3985280648022782]","[0.09768428653478622, 0.06534206122159958, 0.03999999910593033]","[0.0, 0.0, -1.4013779844801912]",1.4156729770286829,4.1153872792351285,"(0.0, 0.0, 0.0, 0.0, 0.0, 0.0)",-0.6683758137814145,0.002538055332395241,-0.06747585575649792,"(0.0, 0.0, 0.0, 0.0, 0.0, 0.0)",-0.04881194552870251,-1.4156751901230746,-4.115328263384682,"(0.0, 0.0, 0.0, 0.0, 0.0, 0.0)",0.6683574317692884,-0.002565632738451909,0.06821129330153437,"(0.0, 0.0, 0.0, 0.0, 0.0, 0.0)",0.0488024380394442,False,,,,,False,,,,
23,Open,,,,,,"[-0.026750000193715096, 0.05299999937415123, 0.03999999910593033]","[0.0, -0.0, 1.4156730334745993]","[-0.09788545966148376, 0.06412414461374283, 0.03999999910593033]","[0.0, -0.0, 1.418211036917125]","[0.026750000193715096, 0.05299999937415123, 0.03999999910593033]","[0.0, 0.0, -1.4156752315845986]","[0.09788548201322556, 0.0641239807009697, 0.03999999910593033]","[0.0, 0.0, -1.418240879504808]",1.4311056793258146,3.703848551311612,"(0.0, 0.0, 0.0, 0.0, 0.0, 0.0)",-0.6016352863054336,0.002284944287465684,-0.060746650783093666,"(0.0, 0.0, 0.0, 0.0, 0.0, 0.0)",-0.04396376851645251,-1.431107671110767,-3.7037954370462103,"(0.0, 0.0, 0.0, 0.0, 0.0, 0.0)",0.6016187276545472,-0.0023097638175418747,0.061408541018408244,"(0.0, 0.0, 0.0, 0.0, 0.0, 0.0)",0.043955198772734246,False,,,,,False,,,,
24,Open,,,,,,"[-0.026750000193715096, 0.05299999937415123, 0.03999999910593033]","[0.0, -0.0, 1.4311058207082674]","[-0.09804865717887878, 0.06302504986524582, 0.03999999910593033]","[0.0, -0.0, 1.433390691262394]","[0.026750000193715096, 0.05299999937415123, 0.03999999910593033]","[0.0, 0.0, -1.4311075924426346]","[0.09804867953062057, 0.06302490830421448, 0.03999999910593033]","[0.0, 0.0, -1.433417470845748]",1.4449951113932331,3.333463696180452,"(0.0, 0.0, 0.0, 0.0, 0.0, 0.0)",-0.5415503506795546,0.0020570753203455715,-0.05468855210882702,"(0.0, 0.0, 0.0, 0.0, 0.0, 0.0)",-0.039594115216637325,-1.4449969039996904,-3.3334158933415914,"(0.0, 0.0, 0.0, 0.0, 0.0, 0.0)",0.541535435877482,-0.002079412775410495,0.055284250111531166,"(0.0, 0.0, 0.0, 0.0, 0.0, 0.0)",0.03958639191865308,False,,,,,False,,,,
25,Open,,,,,,"[-0.026750000193715096, 0.05299999937415123, 0.03999999910593033]","[0.0, -0.0, 1.444995076522675]","[-0.09818101674318314, 0.062033817172050476, 0.03999999910593033]","[0.0, -0.0, 1.4470522962768402]","[0.026750000193715096, 0.05299999937415123, 0.03999999910593033]","[0.0, 0.0, -1.4449971061677662]","[0.09818103164434433, 0.06203368678689003, 0.03999999910593033]","[0.0, 0.0, -1.4470761943538692]",1.45749560025391,3.0001173265624064,"(0.0, 0.0, 0.0, 0.0, 0.0, 0.0)",-0.4874589573784058,0.001851931045420989,-0.04923462598189979,"(0.0, 0.0, 0.0, 0.0, 0.0, 0.0)",-0.03565633120497695,-1.4574972135997213,-3.000074304007432,"(0.0, 0.0, 0.0, 0.0, 0.0, 0.0)",0.4874455243270462,-0.0018720346450414762,0.04977075128856451,"(0.0, 0.0, 0.0, 0.0, 0.0, 0.0)",0.03564937171228022,False,,,,,False,,,,
26,Open,,,,,,"[-0.026750000193715096, 0.05299999937415123, 0.03999999910593033]","[0.0, -0.0, 1.4574954921785264]","[-0.09828835725784302, 0.061140209436416626, 0.03999999910593033]","[0.0, -0.0, 1.4593474823067423]","[0.026750000193715096, 0.05299999937415123, 0.03999999910593033]","[0.0, 0.0, -1.4574971848934346]","[0.09828837215900421, 0.061140093952417374, 0.03999999910593033]","[0.0, 0.0, -1.4593694397653831]",1.4687460402285188,2.700105593906164,"(0.0, 0.0, 0.0, 0.0, 0.0, 0.0)",-0.4387645947805427,0.0016672451487475934,-0.044324615201614966,"(0.0, 0.0, 0.0, 0.0, 0.0, 0.0)",-0.032108199676446195,-1.4687474922397492,-2.70006687360669,"(0.0, 0.0, 0.0, 0.0, 0.0, 0.0)",0.4387524971567325,-0.0016853382893528596,0.04480712536526797,"(0.0, 0.0, 0.0, 0.0, 0.0, 0.0)",0.03210192923147444,False,,,,,False,,,,
27,Open,,,,,,"[-0.026750000193715096, 0.05299999937415123, 0.03999999910593033]","[0.0, -0.0, 1.4687462228928074]","[-0.09837540984153748, 0.06033487245440483, 0.03999999910593033]","[0.0, -0.0, 1.4704133245237396]","[0.026750000193715096, 0.05299999937415123, 0.03999999910593033]","[0.0, 0.0, -1.4687474899518769]","[0.09837542474269867, 0.060334768146276474, 0.03999999910593033]","[0.0, 0.0, -1.4704329951986796]",1.478871436205667,2.430095034515549,"(0.0, 0.0, 0.0, 0.0, 0.0, 0.0)",-0.394929862139441,0.0015009773446580906,-0.03990427298148066,"(0.0, 0.0, 0.0, 0.0, 0.0, 0.0)",-0.028911540991871522,-1.4788727430157742,-2.430060186246021,"(0.0, 0.0, 0.0, 0.0, 0.0, 0.0)",0.39491896790015035,-0.001517261081966714,0.04033852977267494,"(0.0, 0.0, 0.0, 0.0, 0.0, 0.0)",0.02890589200411927,False,,,,,False,,,,
28,Open,,,,,,"[-0.026750000193715096, 0.05299999937415123, 0.03999999910593033]","[0.0, -0.0, 1.4788714352834713]","[-0.09844600409269333, 0.05960927531123161, 0.03999999910593033]","[0.0, -0.0, 1.480372508787761]","[0.026750000193715096, 0.05299999937415123, 0.03999999910593033]","[0.0, 0.0, -1.4788727099725336]","[0.09844601899385452, 0.05960918217897415, 0.03999999910593033]","[0.0, 0.0, -1.4803900544382056]",1.4879842925851003,2.1870855310639947,"(0.0, 0.0, 0.0, 0.0, 0.0, 0.0)",-0.3554706611703565,0.001351290830885638,-0.035924763305388616,"(0.0, 0.0, 0.0, 0.0, 0.0, 0.0)",-0.026031844038894282,-1.487985468714197,-2.1870541676214206,"(0.0, 0.0, 0.0, 0.0, 0.0, 0.0)",0.3554608511915877,-0.001365946114079445,0.03631559229294455,"(0.0, 0.0, 0.0, 0.0, 0.0, 0.0)",0.026026755426892093,False,,,,,False,,,,
29,Close,,,"(3.819349109750643e-09, 0.16999994350316286, 7.914305593764796e-05)","(1.5700606283751846, 1.2357610516186277e-06, -4.058049624060407e-09)",,"[-0.026750000193715096, 0.05299999937415123, 0.03999999910593033]","[0.0, -0.0, 1.4879842849605203]","[-0.09850326180458069, 0.05895565450191498, 0.03999999910593033]","[0.0, -0.0, 1.4893357278409396]","[0.026750000193715096, 0.05299999937415123, 0.03999999910593033]","[0.0, 0.0, -1.4879853833286059]","[0.09850326925516129, 0.05895556882023811, 0.03999999910593033]","[0.0, 0.0, -1.4893513332680077]",1.4961858633265903,1.9683769779575933,"(0.0, 0.0, 0.0, 0.0, 0.0, 0.0)",-0.31995094896823073,0.0012165319928285922,-0.03234212113369103,"(0.0, 0.0, 0.0, 0.0, 0.0, 0.0)",-0.02343792779000599,-1.4961869218427772,-1.9683487508592754,"(0.0, 0.0, 0.0, 0.0, 0.0, 0.0)",0.31994211580738524,-0.0012297216752996233,0.03269386530715718,"(0.0, 0.0, 0.0, 0.0, 0.0, 0.0)",0.02343334437795369,False,,,,,False,,,,
30,Close,,,"(1.09441459674075e-09, 0.16999988769159868, 0.0001519632082907279)","(1.5701173533571526, -2.5467641220651055e-06, -4.573996600559749e-08)",,"[-0.026750000193715096, 0.05299999937415123, 0.03999999910593033]","[0.0, -0.0, 1.4961860174198076]","[-0.09854969382286072, 0.05836696922779083, 0.03999999910593033]","[0.0, -0.0, 1.4974025341106605]","[0.026750000193715096, 0.05299999937415123, 0.03999999910593033]","[0.0, 0.0, -1.4961870219527165]","[0.09854969382286072, 0.05836689472198486, 0.03999999910593033]","[0.0, 0.0, -1.4974167044724178]",1.4065672769939312,-21.50846071983817,"(0.0, 0.0, 0.0, 0.0, 0.0, 0.0)",-36.83524610171859,-0.08890468746940376,-21.629092670935766,"(0.0, 0.0, 0.0, 0.0, 0.0, 0.0)",-4.936581214831643,-1.4065682296584996,21.508486124226657,"(0.0, 0.0, 0.0, 0.0, 0.0, 0.0)",36.83523814678565,0.0888928167555427,21.629409223402156,"(0.0, 0.0, 0.0, 0.0, 0.0, 0.0)",4.936577085092772,False,,,,,False,,,,
31,Close,,,"(3.541182821644653e-08, 0.1699998011443987, 0.00021906657187154062)","(1.570205104748116, 3.3042409171564205e-05, -8.114212850492596e-08)",,"[-0.026750000193715096, 0.05299999937415123, 0.03999999910593033]","[0.0, -0.0, 1.4065674382065954]","[-0.0977812185883522, 0.06477140635251999, 0.03999999910593033]","[0.0, -0.0, 1.3176625934179576]","[0.026750000193715096, 0.05299999937415123, 0.03999999910593033]","[0.0, 0.0, -1.4065680331882469]","[0.0977812260389328, 0.06477133929729462, 0.03999999910593033]","[0.0, 0.0, -1.3176753491400532]",1.3259105492945382,-19.357614647854348,"(0.0, 0.0, 0.0, 0.0, 0.0, 0.0)",3.3395407019063446,-0.17001473426920377,-19.466411231952,"(0.0, 0.0, 0.0, 0.0, 0.0, 0.0)",0.4376834422569755,-1.3259114066926496,19.35763751180399,"(0.0, 0.0, 0.0, 0.0, 0.0, 0.0)",-3.3395473112045253,0.1700040506304986,19.466696129989415,"(0.0, 0.0, 0.0, 0.0, 0.0, 0.0)",-0.43768664266468643,False,,,,,False,,,,
32,Close,,,"(3.361538948490201e-08, 0.16999974452330968, 0.00028077538773600935)","(1.5702911774727688, 7.027968338074274e-05, -7.017997684986258e-06)",,"[-0.026750000193715096, 0.05299999937415123, 0.03999999910593033]","[0.0, -0.0, 1.325910602539969]","[-0.09660188108682632, 0.07045608013868332, 0.03999999910593033]","[0.0, -0.0, 1.1558959321658662]","[0.026750000193715096, 0.05299999937415123, 0.03999999910593033]","[0.0, 0.0, -1.3259115331240872]","[0.09660189598798752, 0.07045602053403854, 0.03999999910593033]","[0.0, 0.0, -1.1559073716167563]",1.2533194943650845,-17.42185318306892,"(0.0, 0.0, 0.0, 0.0, 0.0, 0.0)",3.0100864599566086,-0.2430137284658432,-17.519758607193467,"(0.0, 0.0, 0.0, 0.0, 0.0, 0.0)",0.39699812510351973,-1.2533202660233846,17.42187376062359,"(0.0, 0.0, 0.0, 0.0, 0.0, 0.0)",-3.0100924602349655,0.24300411319445853,17.52001501535039,"(0.0, 0.0, 0.0, 0.0, 0.0, 0.0)",-0.39700105403357716,False,,,,,False,,,,
33,Close,,,"(1.2478111664315067e-07, 0.16999960627903704, 0.000337513976604643)","(1.5703757790333803, 0.0001088681261817636, -5.122611399447184e-06)",,"[-0.026750000193715096, 0.05299999937415123, 0.03999999910593033]","[0.0, -0.0, 1.2533194489161892]","[-0.0951518788933754, 0.07547627389431, 0.03999999910593033]","[0.0, -0.0, 1.0103057011386807]","[0.026750000193715096, 0.05299999937415123, 0.03999999910593033]","[0.0, 0.0, -1.2533201846969224]","[0.09515189379453659, 0.07547622174024582, 0.03999999910593033]","[0.0, 0.0, -1.010316110149499]",1.1879875449285762,-15.679667864762028,"(0.0, 0.0, 0.0, 0.0, 0.0, 0.0)",2.712712783767229,-0.30871235561933186,-15.767670516837281,"(0.0, 0.0, 0.0, 0.0, 0.0, 0.0)",0.3597856734528228,-1.1879882394210461,15.679686384561233,"(0.0, 0.0, 0.0, 0.0, 0.0, 0.0)",-2.712718226071338,0.30870370187508567,15.767901283350515,"(0.0, 0.0, 0.0, 0.0, 0.0, 0.0)",-0.35978834883250516,False,,,,,False,,,,
34,Close,,,"(1.2869376016944667e-07, 0.16999954011037416, 0.00038973303114976833)","(1.5704582297133343, 0.0001496263682483943, -9.931543136061158e-06)",,"[-0.026750000193715096, 0.05299999937415123, 0.03999999910593033]","[0.0, -0.0, 1.1879876003522736]","[-0.09353857487440109, 0.07989397644996643, 0.03999999910593033]","[0.0, -0.0, 0.8792752425767008]","[0.026750000193715096, 0.05299999937415123, 0.03999999910593033]","[0.0, 0.0, -1.1879882623869136]","[0.09353859722614288, 0.07989392429590225, 0.03999999910593033]","[0.0, 0.0, -0.8792844680170303]",1.1291887904356523,-14.1117010783017,"(0.0, 0.0, 0.0, 0.0, 0.0, 0.0)",2.44436472036771,-0.36784112005739866,-14.190903465136039,"(0.0, 0.0, 0.0, 0.0, 0.0, 0.0)",0.3258007578595482,-1.1291894154788755,14.111717746120975,"(0.0, 0.0, 0.0, 0.0, 0.0, 0.0)",-2.444369652349295,0.3678333316875771,14.191111154997946,"(0.0, 0.0, 0.0, 0.0, 0.0, 0.0)",-0.32580319741325486,False,,,,,False,,,,
35,Close,,,"(2.2147778895778094e-07, 0.169999403724105, 0.00043775502472391954)","(1.5705392813318275, 0.0001916771605813282, -8.19762937926826e-06)",,"[-0.026750000193715096, 0.05299999937415123, 0.03999999910593033]","[0.0, -0.0, 1.1291888000608494]","[-0.09184273332357407, 0.08377231657505035, 0.03999999910593033]","[0.0, -0.0, 0.7613476921786614]","[0.026750000193715096, 0.05299999937415123, 0.03999999910593033]","[0.0, 0.0, -1.1291894580384154]","[0.09184275567531586, 0.08377227932214737, 0.03999999910593033]","[0.0, 0.0, -0.7613561373098183]",1.0762699113920273,-12.700530970470014,"(0.0, 0.0, 0.0, 0.0, 0.0, 0.0)",2.202305891359772,-0.4210570080516588,-12.77181311862243,"(0.0, 0.0, 0.0, 0.0, 0.0, 0.0)",0.2948453788489373,-1.0762704739309281,12.700545971507374,"(0.0, 0.0, 0.0, 0.0, 0.0, 0.0)",-2.2023103576802145,0.4210499985188194,12.77200003949815,"(0.0, 0.0, 0.0, 0.0, 0.0, 0.0)",-0.2948476002056522,False,,,,,False,,,,
36,Close,,,"(2.1912693722736075e-07, 0.16999934361709654, 0.000481956449276018)","(1.5706184388641253, 0.00023565575873296478, -1.2845786801691941e-05)",,"[-0.026750000193715096, 0.05299999937415123, 0.03999999910593033]","[0.0, -0.0, 1.0762698553554748]","[-0.09012393653392792, 0.08717226982116699, 0.03999999910593033]","[0.0, -0.0, 0.6552128934948661]","[0.026750000193715096, 0.05299999937415123, 0.03999999910593033]","[0.0, 0.0, -1.0762704893583]","[0.09012395888566971, 0.08717223256826401, 0.03999999910593033]","[0.0, 0.0, -0.6552204147476549]",1.0286429202528247,-11.430477873408655,"(0.0, 0.0, 0.0, 0.0, 0.0, 0.0)",1.9840011930578276,-0.46895130724721834,-11.494631806934295,"(0.0, 0.0, 0.0, 0.0, 0.0, 0.0)",0.26667684533441977,-1.0286434265378352,11.430491374342276,"(0.0, 0.0, 0.0, 0.0, 0.0, 0.0)",-1.984005235051249,0.4689449986676629,11.494800035722442,"(0.0, 0.0, 0.0, 0.0, 0.0, 0.0)",-0.26667886541975433,False,,,,,False,,,,
37,Close,,,"(3.1131510586280866e-07, 0.1699992121070205, 0.0005226007520893923)","(1.5706964879884222, 0.0002806415891397876, -1.1307759452448239e-05)",,"[-0.026750000193715096, 0.05299999937415123, 0.03999999910593033]","[0.0, -0.0, 1.0286429345076582]","[-0.0884251669049263, 0.09015069156885147, 0.03999999910593033]","[0.0, -0.0, 0.5596916647508587]","[0.026750000193715096, 0.05299999937415123, 0.03999999910593033]","[0.0, 0.0, -1.0286435120859125]","[0.08842518925666809, 0.09015065431594849, 0.03999999910593033]","[0.0, 0.0, -0.5596984028120249]",0.9857786282275423,-10.287430086067793,"(0.0, 0.0, 0.0, 0.0, 0.0, 0.0)",1.787161045327472,-0.5120561765231523,-10.345168626224153,"(0.0, 0.0, 0.0, 0.0, 0.0, 0.0)",0.24107512437447856,-0.9857790838840517,10.28744223690805,"(0.0, 0.0, 0.0, 0.0, 0.0, 0.0)",-1.787164701188607,0.5120504988015524,10.345320032133483,"(0.0, 0.0, 0.0, 0.0, 0.0, 0.0)",-0.24107695935135354,False,,,,,False,,,,
38,Close,,,"(3.0991842655903425e-07, 0.169999153087261, 0.0005600347082356065)","(1.570772558536085, 0.00032764712563817383, -1.5390013302753274e-05)",,"[-0.026750000193715096, 0.05299999937415123, 0.03999999910593033]","[0.0, -0.0, 0.9857786218799983]","[-0.08677656948566437, 0.09275941550731659, 0.03999999910593033]","[0.0, -0.0, 0.4737224893055005]","[0.026750000193715096, 0.05299999937415123, 0.03999999910593033]","[0.0, 0.0, -0.9857791586690391]","[0.08677658438682556, 0.0927593931555748, 0.03999999910593033]","[0.0, 0.0, -0.47372859204714834]",0.9472007654041954,-9.258687077603232,"(0.0, 0.0, 0.0, 0.0, 0.0, 0.0)",1.6097085175776904,-0.550850558870837,-9.310651763444346,"(0.0, 0.0, 0.0, 0.0, 0.0, 0.0)",0.21783104241587867,-0.9472011754950539,9.258698013359455,"(0.0, 0.0, 0.0, 0.0, 0.0, 0.0)",-1.609711822487034,0.5508454489213972,9.310788028762744,"(0.0, 0.0, 0.0, 0.0, 0.0, 0.0)",-0.21783270758412676,False,,,,,False,,,,
39,Close,,,"(4.0106165104263135e-07, 0.169999026405202, 0.0005944331352702725)","(1.570848092729261, 0.0003750986118602944, -1.4060502423520339e-05)",,"[-0.026750000193715096, 0.05299999937415123, 0.03999999910593033]","[0.0, -0.0, 0.9472008140782049]","[-0.08519845455884933, 0.09504495561122894, 0.03999999910593033]","[0.0, -0.0, 0.39635019782230363]","[0.026750000193715096, 0.05299999937415123, 0.03999999910593033]","[0.0, 0.0, -0.9472011867132297]","[0.08519846946001053, 0.09504493325948715, 0.03999999910593033]","[0.0, 0.0, -0.3963557154153113]",0.9124806888632406,-8.332818369829143,"(0.0, 0.0, 0.0, 0.0, 0.0, 0.0)",1.4497611633824499,-0.5857655029837533,-8.379586587099913,"(0.0, 0.0, 0.0, 0.0, 0.0, 0.0)",0.19674731686213875,-0.9124810579450133,8.332828212009746,"(0.0, 0.0, 0.0, 0.0, 0.0, 0.0)",-1.4497641496546352,0.5857609040292575,8.379709225886469,"(0.0, 0.0, 0.0, 0.0, 0.0, 0.0)",-0.1967488266016999,False,,,,,False,,,,
40,Close,,,"(3.70657372146465e-07, 0.16999903038777142, 0.0006260749884053443)","(1.5708440552876382, 0.00034508120830118214, -1.4055585689260766e-05)",,"[-0.026750000193715096, 0.05299999937415123, 0.03999999910593033]","[0.0, -0.0, 0.9124807402838544]","[-0.08370371162891388, 0.09704854339361191, 0.03999999910593033]","[0.0, -0.0, 0.32671521193417863]","[0.026750000193715096, 0.05299999937415123, 0.03999999910593033]","[0.0, 0.0, -0.9124811663733811]","[0.08370373398065567, 0.09704852104187012, 0.03999999910593033]","[0.0, 0.0, -0.32672018954414506]",0.8812326199769166,-7.499536532717775,"(0.0, 0.0, 0.0, 0.0, 0.0, 0.0)",1.3056085801322186,-0.6171891619197363,-7.541678144635914,"(0.0, 0.0, 0.0, 0.0, 0.0, 0.0)",0.17763358199117588,-0.881232952150512,7.499545390680321,"(0.0, 0.0, 0.0, 0.0, 0.0, 0.0)",-1.305611277336412,0.617185022862301,7.541788519930457,"(0.0, 0.0, 0.0, 0.0, 0.0, 0.0)",-0.17763494969582577,False,,,,,False,,,,
41,Close,,,"(3.427044292909036e-07, 0.1699990340506735, 0.0006551854712062516)","(1.5708403346470328, 0.0003174583455114455, -1.4051356821419932e-05)",,"[-0.026750000193715096, 0.05299999937415123, 0.03999999910593033]","[0.0, -0.0, 0.8812326035131218]","[-0.08229970186948776, 0.09880644828081131, 0.03999999910593033]","[0.0, -0.0, 0.26404346611112495]","[0.026750000193715096, 0.05299999937415123, 0.03999999910593033]","[0.0, 0.0, -0.8812328730718287]","[0.08229971677064896, 0.09880642592906952, 0.03999999910593033]","[0.0, 0.0, -0.2640479150919315]",0.8531093579792249,-6.749582879446001,"(0.0, 0.0, 0.0, 0.0, 0.0, 0.0)",1.1757252455852583,-0.6454704345862542,-6.78750543996429,"(0.0, 0.0, 0.0, 0.0, 0.0, 0.0)",0.16033509317806058,-0.8531096569354608,6.7495908516122896,"(0.0, 0.0, 0.0, 0.0, 0.0, 0.0)",-1.1757276808922346,0.645466709436021,6.787604777692787,"(0.0, 0.0, 0.0, 0.0, 0.0, 0.0)",-0.16033633143309114,False,,,,,False,,,,
42,Close,,,"(3.170084497545684e-07, 0.16999903740907119, 0.0006819671107693073)","(1.570836911771951, 0.00029204530032808255, -1.4047683015968837e-05)",,"[-0.026750000193715096, 0.05299999937415123, 0.03999999910593033]","[0.0, -0.0, 0.8531093567174074]","[-0.08098968118429184, 0.10035036504268646, 0.03999999910593033]","[0.0, -0.0, 0.2076389231904772]","[0.026750000193715096, 0.05299999937415123, 0.03999999910593033]","[0.0, 0.0, -0.8531096230941355]","[0.08098969608545303, 0.10035035014152527, 0.03999999910593033]","[0.0, 0.0, -0.2076429742570099]",0.8277984221813024,-6.0746245915014,"(0.0, 0.0, 0.0, 0.0, 0.0, 0.0)",1.0586966037970245,-0.6709235615380169,-6.1087504684230565,"(0.0, 0.0, 0.0, 0.0, 0.0, 0.0)",0.14467321668423558,-0.8277986912419147,6.074631766451059,"(0.0, 0.0, 0.0, 0.0, 0.0, 0.0)",-1.0586988018726124,0.6709202089041267,6.108839872345364,"(0.0, 0.0, 0.0, 0.0, 0.0, 0.0)",-0.14467433700617466,False,,,,,False,,,,
43,Close,,,"(2.93385406087929e-07, 0.16999904048782613, 0.0007066062149797113)","(1.5708337628331848, 0.0002686652895538331, -1.4044478861914954e-05)",,"[-0.026750000193715096, 0.05299999937415123, 0.03999999910593033]","[0.0, -0.0, 0.8277984323872327]","[-0.07977395504713058, 0.10170790553092957, 0.03999999910593033]","[0.0, -0.0, 0.15687485461046338]","[0.026750000193715096, 0.05299999937415123, 0.03999999910593033]","[0.0, 0.0, -0.8277987052452376]","[0.07977396249771118, 0.10170789808034897, 0.03999999910593033]","[0.0, 0.0, -0.15687847762667875]",0.8050185799631722,-5.467162132351259,"(0.0, 0.0, 0.0, 0.0, 0.0, 0.0)",0.9532674830029981,-0.6938313591081322,-5.497871416827678,"(0.0, 0.0, 0.0, 0.0, 0.0, 0.0)",0.1305069121449798,-0.8050188221177232,5.467168589805953,"(0.0, 0.0, 0.0, 0.0, 0.0, 0.0)",-0.9532694663734236,0.6938283417388244,5.49795188032743,"(0.0, 0.0, 0.0, 0.0, 0.0, 0.0)",-0.13050792520753388,False,,,,,False,,,,
44,Close,,,"(2.716665250887489e-07, 0.16999904330973556, 0.0007292741870466809)","(1.5708308659078907, 0.0002471556717650467, -1.4041672069322908e-05)",,"[-0.026750000193715096, 0.05299999937415123, 0.03999999910593033]","[0.0, -0.0, 0.8050185839979388]","[-0.07865073531866074, 0.10290304571390152, 0.03999999910593033]","[0.0, -0.0, 0.11118723016400785]","[0.026750000193715096, 0.05299999937415123, 0.03999999910593033]","[0.0, 0.0, -0.8050187952188965]","[0.07865074276924133, 0.10290303081274033, 0.03999999910593033]","[0.0, 0.0, -0.11119048022217565]",0.784516721966855,-4.920445919116134,"(0.0, 0.0, 0.0, 0.0, 0.0, 0.0)",0.8582975670224743,-0.7144483618360385,-4.948080654697517,"(0.0, 0.0, 0.0, 0.0, 0.0, 0.0)",0.11770004006048959,-0.784516939905951,4.92045173082536,"(0.0, 0.0, 0.0, 0.0, 0.0, 0.0)",-0.8582993561887614,0.7144456462047399,4.948153071819748,"(0.0, 0.0, 0.0, 0.0, 0.0, 0.0)",-0.11770095568272418,False,,,,,False,,,,
45,Close,,,"(2.51696986958339e-07, 0.1699990458957082, 0.0007501287178850499)","(1.5708282008276007, 0.000227366816649173, -1.4039201474218165e-05)",,"[-0.026750000193715096, 0.05299999937415123, 0.03999999910593033]","[0.0, -0.0, 0.7845167193080385]","[-0.07761679589748383, 0.10395654290914536, 0.03999999910593033]","[0.0, -0.0, 0.07006835685702544]","[0.026750000193715096, 0.05299999937415123, 0.03999999910593033]","[0.0, 0.0, -0.7845169946958266]","[0.07761680334806442, 0.10395653545856476, 0.03999999910593033]","[0.0, 0.0, -0.0700712989357174]",0.7660650497701694,-4.42840132720452,"(0.0, 0.0, 0.0, 0.0, 0.0, 0.0)",0.7727568402429666,-0.7330036506599046,-4.453269317727849,"(0.0, 0.0, 0.0, 0.0, 0.0, 0.0)",0.106127525293464,-0.7660652459153559,4.428406557742824,"(0.0, 0.0, 0.0, 0.0, 0.0, 0.0)",-0.7727584538402424,0.7330012065927102,4.453334493112861,"(0.0, 0.0, 0.0, 0.0, 0.0, 0.0)",-0.10612835248484857,False,,,,,False,,,,
46,Close,,,"(2.3333473952068603e-07, 0.16999904826492518, 0.0007693148831029557)","(1.5708257490378412, 0.00020916106414766092, -1.403701531280991e-05)",,"[-0.026750000193715096, 0.05299999937415123, 0.03999999910593033]","[0.0, -0.0, 0.7660649977175382]","[-0.07666795700788498, 0.10488639771938324, 0.03999999910593033]","[0.0, -0.0, 0.03306140223906952]","[0.026750000193715096, 0.05299999937415123, 0.03999999910593033]","[0.0, 0.0, -0.7660653079646047]","[0.07666796445846558, 0.10488638281822205, 0.03999999910593033]","[0.0, 0.0, -0.033064041138401834]",0.7494585447931524,-3.985561194484066,"(0.0, 0.0, 0.0, 0.0, 0.0, 0.0)",0.6957152666369016,-0.7497033982890566,-4.007939430996486,"(0.0, 0.0, 0.0, 0.0, 0.0, 0.0)",0.09567473522853766,-0.7494587213238203,3.985565901968542,"(0.0, 0.0, 0.0, 0.0, 0.0, 0.0)",-0.6957167215859875,0.7497011986294615,4.007998088820328,"(0.0, 0.0, 0.0, 0.0, 0.0, 0.0)",-0.09567548223716564,False,,,,,False,,,,
47,Close,,,"(2.1644941757498085e-07, 0.1699990504349868, 0.0007869661522299996)","(1.5708234934689855, 0.0001924117668631307, -1.4035069780186692e-05)",,"[-0.026750000193715096, 0.05299999937415123, 0.03999999910593033]","[0.0, -0.0, 0.7494586090384826]","[-0.07579945772886276, 0.10570816695690155, 0.03999999910593033]","[0.0, 0.0, -0.000244853492999894]","[0.026750000193715096, 0.05299999937415123, 0.03999999910593033]","[0.0, 0.0, -0.7494587081400255]","[0.07579946517944336, 0.10570815205574036, 0.03999999910593033]","[0.0, -0.0, 0.00024247731079752444]",0.7345126903138371,-3.587005075035659,"(0.0, 0.0, 0.0, 0.0, 0.0, 0.0)",0.626333365984163,-0.764733160038395,-3.6071428198412123,"(0.0, 0.0, 0.0, 0.0, 0.0, 0.0)",0.08623682787405348,-0.7345128491914382,3.587009311771688,"(0.0, 0.0, 0.0, 0.0, 0.0, 0.0)",-0.6263346776346612,0.7647311803455538,3.607195611862134,"(0.0, 0.0, 0.0, 0.0, 0.0, 0.0)",-0.08623750223625977,False,,,,,False,,,,
48,Close,,,"(1.9902478529523268e-07, 0.16999905216510106, 0.0008031506134026157)","(1.5708213694672628, 0.00017518801369688713, -1.4031269556480368e-05)",,"[-0.026750000193715096, 0.05299999937415123, 0.03999999910593033]","[0.0, -0.0, 0.7345126628086843]","[-0.07500623911619186, 0.10643533617258072, 0.03999999910593033]","[0.0, 0.0, -0.03022046980229406]","[0.026750000193715096, 0.05299999937415123, 0.03999999910593033]","[0.0, 0.0, -0.7345128981556924]","[0.07500624656677246, 0.10643532872200012, 0.03999999910593033]","[0.0, -0.0, 0.03021832986745902]",0.7210614212824534,-3.228304567532092,"(0.0, 0.0, 0.0, 0.0, 0.0, 0.0)",0.5638237707840803,-0.7782610712626786,-3.246698693828069,"(0.0, 0.0, 0.0, 0.0, 0.0, 0.0)",0.07768823801248652,-0.7210615642722944,3.2283083805945183,"(0.0, 0.0, 0.0, 0.0, 0.0, 0.0)",-0.5638249528147553,0.7782592895487316,3.2467462087626835,"(0.0, 0.0, 0.0, 0.0, 0.0, 0.0)",-0.07768884636877696,False,,,,,False,,,,
49,Close,,,"(1.829952775457341e-07, 0.16999905372445717, 0.0008180403399689366)","(1.5708194143492393, 0.00015934185659229473, -1.4027683329641553e-05)",,"[-0.026750000193715096, 0.05299999937415123, 0.03999999910593033]","[0.0, -0.0, 0.7210614193238458]","[-0.07428312301635742, 0.10707958787679672, 0.03999999910593033]","[0.0, 0.0, -0.05719964992344959]","[0.026750000193715096, 0.05299999937415123, 0.03999999910593033]","[0.0, 0.0, -0.7210615729227128]","[0.07428313046693802, 0.10707958042621613, 0.03999999910593033]","[0.0, -0.0, 0.05719773186848648]",0.7089552791542081,-2.905474110778883,"(0.0, 0.0, 0.0, 0.0, 0.0, 0.0)",0.5075985242705942,-0.7904360705014085,-2.921999817295172,"(0.0, 0.0, 0.0, 0.0, 0.0, 0.0)",0.07003713951344083,-0.7089554078450649,2.905477542535066,"(0.0, 0.0, 0.0, 0.0, 0.0, 0.0)",-0.5075995897946305,0.7904344669675306,2.9220425805117625,"(0.0, 0.0, 0.0, 0.0, 0.0, 0.0)",-0.07003768863744474,False,,,,,False,,,,
50,Close,,,"(1.682467379846132e-07, 0.1699990551245469, 0.0008317388481303276)","(1.570817615731277, 0.00014476218910829968, -1.4024269510216624e-05)",,"[-0.026750000193715096, 0.05299999937415123, 0.03999999910593033]","[0.0, -0.0, 0.7089552779168017]","[-0.07362496107816696, 0.10765105485916138, 0.03999999910593033]","[0.0, 0.0, -0.08148078223376223]","[0.026750000193715096, 0.05299999937415123, 0.03999999910593033]","[0.0, 0.0, -0.7089554724698194]","[0.07362496852874756, 0.10765104740858078, 0.03999999910593033]","[0.0, -0.0, 0.0814790502780401]",0.6980597512387873,-2.6149266997009946,"(0.0, 0.0, 0.0, 0.0, 0.0, 0.0)",0.45693917814201784,-0.8013934602632394,-2.6297735428394082,"(0.0, 0.0, 0.0, 0.0, 0.0, 0.0)",0.06310201359777694,-0.6980598670605584,2.614929788281559,"(0.0, 0.0, 0.0, 0.0, 0.0, 0.0)",-0.45694013827892466,0.8013920170905735,2.6298120295302843,"(0.0, 0.0, 0.0, 0.0, 0.0, 0.0)",-0.06310250889925509,False,,,,,False,,,,
51,Close,,,"(1.546756367802499e-07, 0.16999905637827734, 0.0008443414385910609)","(1.5708159610857961, 0.00013134778772512943, -1.402100024143693e-05)",,"[-0.026750000193715096, 0.05299999937415123, 0.03999999910593033]","[0.0, -0.0, 0.6980597686270504]","[-0.07302673906087875, 0.10815852880477905, 0.03999999910593033]","[0.0, 0.0, -0.10333370902653251]","[0.026750000193715096, 0.05299999937415123, 0.03999999910593033]","[0.0, 0.0, -0.6980598246378259]","[0.07302674651145935, 0.10815852135419846, 0.03999999910593033]","[0.0, -0.0, 0.10333215264877679]",0.6882537761149086,-2.3534340297308955,"(0.0, 0.0, 0.0, 0.0, 0.0, 0.0)",0.41132662822933225,-0.8112550122446371,-2.3667724755354502,"(0.0, 0.0, 0.0, 0.0, 0.0, 0.0)",0.056847326346645,-0.6882538803545026,2.353436809453404,"(0.0, 0.0, 0.0, 0.0, 0.0, 0.0)",-0.4113274932960819,0.8112537133962935,2.3668071133728046,"(0.0, 0.0, 0.0, 0.0, 0.0, 0.0)",-0.0568477730004364,False,,,,,False,,,,
52,Close,,,"(1.4218689550358636e-07, 0.1699990574974972, 0.0008559357877458743)","(1.5708144388885392, 0.00011900551991941484, -1.4017852050493115e-05)",,"[-0.026750000193715096, 0.05299999937415123, 0.03999999910593033]","[0.0, -0.0, 0.6882538042795985]","[-0.07248363643884659, 0.10860966145992279, 0.03999999910593033]","[0.0, 0.0, -0.12300123728040792]","[0.026750000193715096, 0.05299999937415123, 0.03999999910593033]","[0.0, 0.0, -0.688253900607872]","[0.07248364388942719, 0.1086096540093422, 0.03999999910593033]","[0.0, -0.0, 0.12299984676553348]",0.6794283985034177,-2.118090626757806,"(0.0, 0.0, 0.0, 0.0, 0.0, 0.0)",0.3702598465395096,-0.8201303199370257,-2.1300738461732434,"(0.0, 0.0, 0.0, 0.0, 0.0, 0.0)",0.051207533272865695,-0.6794284923190523,2.1180931285080637,"(0.0, 0.0, 0.0, 0.0, 0.0, 0.0)",-0.37026062586363284,0.8201291509798778,2.130105020060234,"(0.0, 0.0, 0.0, 0.0, 0.0, 0.0)",-0.051207935975855504,False,,,,,False,,,,
53,Close,,,"(1.3069318416839e-07, 0.16999905849308636, 0.0008666025576372722)","(1.5708130385376784, 0.00010764969663878531, -1.401480516953977e-05)",,"[-0.026750000193715096, 0.05299999937415123, 0.03999999910593033]","[0.0, -0.0, 0.6794284238724229]","[-0.07199108600616455, 0.10901110619306564, 0.03999999910593033]","[0.0, 0.0, -0.14070193198542613]","[0.026750000193715096, 0.05299999937415123, 0.03999999910593033]","[0.0, 0.0, -0.6794284800706577]","[0.07199109345674515, 0.10901109874248505, 0.03999999910593033]","[0.0, -0.0, 0.1407006814892172]",0.6714855586530759,-1.9062815640820263,"(0.0, 0.0, 0.0, 0.0, 0.0, 0.0)",0.33328720146674756,-0.82811801654313,-1.9170471854650495,"(0.0, 0.0, 0.0, 0.0, 0.0, 0.0)",0.0461231568532664,-0.6714856430871471,1.9062838156572566,"(0.0, 0.0, 0.0, 0.0, 0.0, 0.0)",-0.33328790347714454,0.8281169644874314,1.917075241812861,"(0.0, 0.0, 0.0, 0.0, 0.0, 0.0)",-0.04612351986457081,False,,,,,False,,,,
54,Close,,,"(1.201142787701026e-07, 0.1699990593750365, 0.0008764159571233717)","(1.5708117502799854, 9.720147739875066e-05, -1.4011842957469135e-05)",,"[-0.026750000193715096, 0.05299999937415123, 0.03999999910593033]","[0.0, -0.0, 0.6714856028191667]","[-0.07154478132724762, 0.10936867445707321, 0.03999999910593033]","[0.0, 0.0, -0.1566324602805662]","[0.026750000193715096, 0.05299999937415123, 0.03999999910593033]","[0.0, 0.0, -0.6714856028191667]","[0.07154478132724762, 0.10936867445707321, 0.03999999910593033]","[0.0, -0.0, 0.15663130155257995]",0.6643370027877683,-1.7156534076738226,"(0.0, 0.0, 0.0, 0.0, 0.0, 0.0)",0.30000166468946887,-0.8353068710937589,-1.7253250921509458,"(0.0, 0.0, 0.0, 0.0, 0.0, 0.0)",0.041540284771796165,-0.6643370787784324,1.7156554340915304,"(0.0, 0.0, 0.0, 0.0, 0.0, 0.0)",-0.3000022969997827,0.8353059242487986,1.725350342728124,"(0.0, 0.0, 0.0, 0.0, 0.0, 0.0)",-0.041540611950472935,False,,,,,False,,,,
55,Close,,,"(1.1037647424359984e-07, 0.16999906015252483, 0.0008854442581506275)","(1.5708105651429114, 8.758832292823178e-05, -1.4008951415989527e-05)",,"[-0.026750000193715096, 0.05299999937415123, 0.03999999910593033]","[0.0, -0.0, 0.6643370606126838]","[-0.07114068418741226, 0.1096874549984932, 0.03999999910593033]","[0.0, 0.0, -0.17096987637179278]","[0.026750000193715096, 0.05299999937415123, 0.03999999910593033]","[0.0, 0.0, -0.6643370606126838]","[0.07114069163799286, 0.1096874475479126, 0.03999999910593033]","[0.0, -0.0, 0.17096884643662202]",0.6579033025089914,-1.5440880669064398,"(0.0, 0.0, 0.0, 0.0, 0.0, 0.0)",0.2700364572532802,-0.8417767749452665,-1.5527769243618206,"(0.0, 0.0, 0.0, 0.0, 0.0, 0.0)",0.03741008611729049,-0.6579033709005891,1.5440898906823783,"(0.0, 0.0, 0.0, 0.0, 0.0, 0.0)",-0.27003702673818186,0.8417759227894597,1.5527996497586782,"(0.0, 0.0, 0.0, 0.0, 0.0, 0.0)",-0.03741038095743008,False,,,,,False,,,,
56,Close,,,"(1.0141204673652616e-07, 0.16999906083398159, 0.0008937502707232629)","(1.570809474872104, 7.87434915574051e-05, -1.4006118772737545e-05)",,"[-0.026750000193715096, 0.05299999937415123, 0.03999999910593033]","[0.0, -0.0, 0.6579033304946226]","[-0.07077505439519882, 0.10997187346220016, 0.03999999910593033]","[0.0, 0.0, -0.18387348897538708]","[0.026750000193715096, 0.05299999937415123, 0.03999999910593033]","[0.0, 0.0, -0.6579033304946226]","[0.07077506184577942, 0.10997187346220016, 0.03999999910593033]","[0.0, -0.0, 0.1838725619548152]",0.6521129722580923,-1.3896792602157946,"(0.0, 0.0, 0.0, 0.0, 0.0, 0.0)",0.24306111081870946,-0.8475996296201711,-1.3974851219770965,"(0.0, 0.0, 0.0, 0.0, 0.0, 0.0)",0.033688362136148925,-0.6521130338105302,1.38968090161414,"(0.0, 0.0, 0.0, 0.0, 0.0, 0.0)",-0.24306162368353448,0.8475988626841415,1.3975055747236533,"(0.0, 0.0, 0.0, 0.0, 0.0, 0.0)",-0.03368862779939208,False,,,,,False,,,,
57,Close,,,"(9.31587620256511e-08, 0.16999906142715163, 0.0009013917798737923)","(1.570808471873919, 7.060557585400826e-05, -1.4003335136779464e-05)",,"[-0.026750000193715096, 0.05299999937415123, 0.03999999910593033]","[0.0, -0.0, 0.6521129301518677]","[-0.07044443488121033, 0.11022583395242691, 0.03999999910593033]","[0.0, 0.0, -0.19548665573955404]","[0.026750000193715096, 0.05299999937415123, 0.03999999910593033]","[0.0, 0.0, -0.6521129866161153]","[0.07044444233179092, 0.11022583395242691, 0.03999999910593033]","[0.0, -0.0, 0.19548582525750646]",0.646901675032283,-1.2507113341942153,"(0.0, 0.0, 0.0, 0.0, 0.0, 0.0)",0.2187779064062842,-0.8528401458571484,-1.2577238968745574,"(0.0, 0.0, 0.0, 0.0, 0.0, 0.0)",0.03033513071724496,-0.6469017304294772,1.2507128114527255,"(0.0, 0.0, 0.0, 0.0, 0.0, 0.0)",-0.2187783682505172,0.8528394556185027,1.2577423042466835,"(0.0, 0.0, 0.0, 0.0, 0.0, 0.0)",-0.03033537006280305,False,,,,,False,,,,
58,Close,,,"(8.555942447331213e-08, 0.16999906193915107, 0.000908421947674647)","(1.5708075491625393, 6.311807629477444e-05, -1.4000592203169427e-05)",,"[-0.026750000193715096, 0.05299999937415123, 0.03999999910593033]","[0.0, -0.0, 0.6469017074975589]","[-0.0701456218957901, 0.11045276373624802, 0.03999999910593033]","[0.0, 0.0, -0.20593848593871938]","[0.026750000193715096, 0.05299999937415123, 0.03999999910593033]","[0.0, 0.0, -0.6469017640113621]","[0.0701456293463707, 0.11045276373624802, 0.03999999910593033]","[0.0, -0.0, 0.2059377054983325]",0.6422115075290548,-1.1256402007747932,"(0.0, 0.0, 0.0, 0.0, 0.0, 0.0)",0.19691865600140895,-0.8575565627499749,-1.1319400542783593,"(0.0, 0.0, 0.0, 0.0, 0.0, 0.0)",0.027314243362735774,-0.6422115573865295,1.1256415303074527,"(0.0, 0.0, 0.0, 0.0, 0.0, 0.0)",-0.19691907187647334,0.8575559415385998,1.1319566208232932,"(0.0, 0.0, 0.0, 0.0, 0.0, 0.0)",-0.027314458975022625,False,,,,,False,,,,
59,Move,,,"(7.856146500561274e-08, 0.16999906237651882, 0.0009148896830877347)","(1.5708067003113224, 5.6229009009845055e-05, -1.399788300299107e-05)","[0.0, 0.0, 0.0]","[-0.026750000193715096, 0.05299999937415123, 0.03999999910593033]","[0.0, -0.0, 0.6422115222668433]","[-0.06987567991018295, 0.11065566539764404, 0.03999999910593033]","[0.0, 0.0, -0.21534502689171695]","[0.026750000193715096, 0.05299999937415123, 0.03999999910593033]","[0.0, 0.0, -0.6422115222668433]","[0.06987568736076355, 0.11065565794706345, 0.03999999910593033]","[0.0, -0.0, 0.2153443918565048]",0.6379903567761492,-1.0130761806973148,"(0.0, 0.0, 0.0, 0.0, 0.0, 0.0)",0.17724179525373857,-0.861801294967015,-1.0187357320896053,"(0.0, 0.0, 0.0, 0.0, 0.0, 0.0)",0.024593033118920006,-0.6379904016478766,1.0130773772767077,"(0.0, 0.0, 0.0, 0.0, 0.0, 0.0)",-0.1772421697155535,0.8618007358798453,1.0187506418989196,"(0.0, 0.0, 0.0, 0.0, 0.0, 0.0)",-0.024593227332916724,False,,,,,False,,,,
60,Move,,,"(7.401516452493873e-08, 0.16999906300717518, 0.0009208949427311885)","(1.5708059692049072, 5.171406878091127e-05, -1.3997173418156156e-05)","[-4.546300480674002e-09, 6.306563604674409e-10, 6.005259643453772e-06]","[-0.026750000193715096, 0.05299999937415123, 0.03999999910593033]","[0.0, -0.0, 0.6379903239810443]","[-0.06963192671537399, 0.1108371913433075, 0.03999999910593033]","[0.0, 0.0, -0.2238109552587812]","[0.026750000193715096, 0.05299999937415123, 0.03999999910593033]","[0.0, 0.0, -0.6379904179642307]","[0.06963192671537399, 0.1108371838927269, 0.03999999910593033]","[0.0, -0.0, 0.22381033482023305]",0.615110639462399,-5.491132155300077,"(0.0, 0.0, 0.0, 0.0, 0.0, 0.0)",-6.452665348763696,-0.8613763884842398,0.10197755586604229,"(0.0, 0.0, 0.0, 0.0, 0.0, 0.0)",-0.36782542138199165,-0.6151107211023208,5.491123330933392,"(0.0, 0.0, 0.0, 0.0, 0.0, 0.0)",6.4526488408560905,0.8613758231880564,-0.10197904602934349,"(0.0, 0.0, 0.0, 0.0, 0.0, 0.0)",0.36782252911949487,False,,,,,False,,,,
61,Move,,,"(6.525734425186348e-05, 0.17034549853437667, 0.001059997142676121)","(1.5643418998519334, 0.00019756355969089426, -0.0007979474479338168)","[6.517878278685787e-05, 0.00034643615785784343, 0.00014510745958838623]","[-0.026750000193715096, 0.05299999937415123, 0.03999999910593033]","[0.0, -0.0, 0.6151107619663475]","[-0.06829752027988434, 0.1118030920624733, 0.03999999910593033]","[0.0, 0.0, -0.24626574387408112]","[0.026750000193715096, 0.05299999937415123, 0.03999999910593033]","[0.0, 0.0, -0.6151107619663475]","[0.06829752773046494, 0.1118030920624733, 0.03999999910593033]","[0.0, -0.0, 0.24626510812228053]",0.59557520589455,-4.68850405628373,"(0.0, 0.0, 0.0, 0.0, 0.0, 0.0)",-45.004877301260535,-0.841587039207075,4.749443826519566,"(0.0, 0.0, 0.0, 0.0, 0.0, 0.0)",-23.059879711313982,-0.5955448471476087,4.6958097491309045,"(0.0, 0.0, 0.0, 0.0, 0.0, 0.0)",43.2331221848827,0.8422035798107438,-4.601338410555013,"(0.0, 0.0, 0.0, 0.0, 0.0, 0.0)",22.069611273367745,True,"(-0.03288698015965098, 0.18306432161630465, 0.039999948285931244)","(0.9999999985648672, -1.399717339714095e-05, -5.171406875791205e-05)",0.0009292587523792685,356.63318049990795,True,"(0.032887031061809374, 0.18306436848012048, 0.04000005171406876)","(-0.9999999985648671, 1.3997173395198976e-05, 5.171406875668148e-05)",0.0009247539911204204,342.7710504396539
62,Move,"(0.0, 0.0, 0.0)","(0.0, -0.0, 0.0)","(0.00016176697229314485, 0.17076934431250207, 0.001298992481510786)","(1.553459115144406, 0.0004787126916021603, -0.0016283617000435679)","[0.00016168841082813925, 0.0007702819359832469, 0.0003841027984230513]","[-0.026750000193715096, 0.05299999937415123, 0.03999999910593033]","[0.0, -0.0, 0.5955751094143519]","[-0.06714092195034027, 0.11260347068309784, 0.03999999910593033]","[0.0, 0.0, -0.24601185159459507]","[0.026750000193715096, 0.05299999937415123, 0.03999999910593033]","[0.0, 0.0, -0.5955448282145998]","[0.06713911145925522, 0.11260469257831573, 0.03999999910593033]","[0.0, -0.0, 0.24665872904210193]",0.5770970782178444,-4.434750642409365,"(0.0, 0.0, 0.0, 0.0, 0.0, 0.0)",-74.21698749878065,-0.811850997818181,7.136649933334551,"(0.0, 0.0, 0.0, 0.0, 0.0, 0.0)",-37.92588619525253,-0.5770027641966642,4.450099908226674,"(0.0, 0.0, 0.0, 0.0, 0.0, 0.0)",71.59541053355323,0.8135423707664626,-6.878690170627483,"(0.0, 0.0, 0.0, 0.0, 0.0, 0.0)",36.485404729774935,True,"(-0.03174847742362094, 0.1838726496858637, 0.03999980243644159)","(0.9999996621242782, -0.0007979473476813144, -0.0001975635584110712)",-0.00012778812911608492,569.3446982775357,True,"(0.031700570614753176, 0.18385320841010633, 0.0400001975635584)","(-0.9999996621242783, 0.0007979473476767542, 0.0001975635584049517)",-0.0003431682129125587,549.2893233704585
63,Move,"(-0.0010126582278481011, 0.0, -0.0010126582278481011)","(0.0, -0.0, 0.0)","(0.00020568050408397375, 0.17108007690663649, 0.0015665957858292871)","(1.5453980212159237, 0.00011151380297923225, -0.0017071234802152205)","[0.00020560194261896815, 0.0010810145301176632, 0.0006517061027415524]","[-0.026750000193715096, 0.05299999937415123, 0.03999999910593033]","[0.0, -0.0, 0.5770971029289548]","[-0.06603273004293442, 0.11333960294723511, 0.03999999910593033]","[0.0, 0.0, -0.23475391897699402]","[0.026750000193715096, 0.05299999937415123, 0.03999999910593033]","[0.0, 0.0, -0.5770027543990871]","[0.06602703779935837, 0.11334330588579178, 0.03999999910593033]","[0.0, -0.0, 0.23653961426052006]",0.579404895675538,0.5538761898464655,"(0.0, 0.0, 0.0, 0.0, 0.0, 0.0)",6.4633983195225495,-0.8148246019570704,-0.7136649933334551,"(0.0, 0.0, 0.0, 0.0, 0.0, 0.0)",-0.3132438216507522,-0.5792909153140746,-0.5491562681785016,"(0.0, 0.0, 0.0, 0.0, 0.0, 0.0)",-6.16852739973914,0.8163981315451861,0.6853825868936365,"(0.0, 0.0, 0.0, 0.0, 0.0, 0.0)",0.4843271556067679,True,"(-0.03144479909141533, 0.18499061278782541, 0.039999521287326686)","(0.9999985596366134, -0.0016283607938474471, -0.0004787126733201028)",-0.00031179486038545077,0.0,True,"(0.0313112124765586, 0.1849374824167095, 0.040000478712673315)","(-0.9999985596366132, 0.0016283607938671909, 0.0004787126733090728)",-0.0008521962835819142,2.606367117194445
64,Move,"(-0.0020253164556962027, 0.0, -0.0020253164556962027)","(0.0, -0.0, 0.0)","(0.00020067781524287808, 0.17131878056220187, 0.0017790466574096452)","(1.539069350946226, -0.0009509335166098872, -0.0013121229136745108)","[0.00020059925377787248, 0.0013197181856830498, 0.0008641569743219105]","[-0.026750000193715096, 0.05299999937415123, 0.03999999910593033]","[0.0, -0.0, 0.579404963823502]","[-0.06617187708616257, 0.1132487803697586, 0.03999999910593033]","[0.0, 0.0, -0.23541970778940716]","[0.026750000193715096, 0.05299999937415123, 0.03999999910593033]","[0.0, 0.0, -0.5792908612503161]","[0.0661650076508522, 0.11325327306985855, 0.03999999910593033]","[0.0, -0.0, 0.23710723316040327]",0.5798269634720812,0.10129627117035778,"(0.0, 0.0, 0.0, 0.0, 0.0, 0.0)",-0.5784004383877427,-0.8145272415431815,0.0713664993333446,"(0.0, 0.0, 0.0, 0.0, 0.0, 0.0)",0.03640837740485193,-0.579209538287668,0.019530486337590913,"(0.0, 0.0, 0.0, 0.0, 0.0, 0.0)",1.1359422508277819,0.8161043425401243,-0.07050936121484364,"(0.0, 0.0, 0.0, 0.0, 0.0, 0.0)",0.2045662168770084,True,"(-0.03153624923514486, 0.18487733778001617, 0.039999888486197246)","(0.9999985366474105, -0.001707122640433851, -0.00011151380275540046)",-0.00019027644015300206,0.0,True,"(0.031408552968427136, 0.18482838253269274, 0.04000011151380275)","(-0.9999985366474103, 0.0017071226404405677, 0.0001115138027507468)",-0.000784928296535469,2.9268566946379453
65,Move,"(-0.003037974683544304, 0.0, -0.003037974683544304)","(0.0, -0.0, 0.0)","(0.00015572063926502149, 0.17145470322675813, 0.0019212892595679963)","(1.5352783387566227, -0.0012189045205676008, 0.00010075324521350308)","[0.00015564207780001589, 0.0014556408502393037, 0.0010063995764802616]","[-0.026750000193715096, 0.05299999937415123, 0.03999999910593033]","[0.0, -0.0, 0.5798270256834859]","[-0.06619729846715927, 0.11323213577270508, 0.03999999910593033]","[0.0, 0.0, -0.23470027398044824]","[0.026750000193715096, 0.05299999937415123, 0.03999999910593033]","[0.0, 0.0, -0.5792095868094298]","[0.06616010516881943, 0.11325648427009583, 0.03999999910593033]","[0.0, -0.0, 0.23689479725259951]",0.5802434016853755,0.09994517119063816,"(0.0, 0.0, 0.0, 0.0, 0.0, 0.0)",-0.774933341297389,-0.8140477686082247,0.11507350438962372,"(0.0, 0.0, 0.0, 0.0, 0.0, 0.0)",-0.44977726045040173,-0.5787251065651352,0.11626361340785839,"(0.0, 0.0, 0.0, 0.0, 0.0, 0.0)",1.6611147679117375,0.8155134505501623,-0.14181407759086329,"(0.0, 0.0, 0.0, 0.0, 0.0, 0.0)",0.8982151427050419,True,"(-0.03161321617538181, 0.18488526859115775, 0.04000095093337329)","(0.9999986870299999, -0.001312121943919875, 0.0009509333732892819)",-0.00016469256656672043,5.9287993914141595,True,"(0.03141885326434535, 0.18483836346984406, 0.039999049066626706)","(-0.99999868703, 0.0013121219439189958, -0.0009509333732954084)",-0.0007232593937935036,11.64444964098288
66,Move,"(-0.004050632911392405, 0.0, -0.004050632911392405)","(0.0, -0.0, 0.0)","(6.608289985033583e-05, 0.17151879663248776, 0.0019780596285506264)","(1.5338729719745607, -0.0011654078870485202, 0.0007787556104539776)","[6.600433838533021e-05, 0.0015197342559689353, 0.0010631699454628917]","[-0.026750000193715096, 0.05299999937415123, 0.03999999910593033]","[0.0, -0.0, 0.5802434358245687]","[-0.06622238457202911, 0.11321570724248886, 0.03999999910593033]","[0.0, 0.0, -0.2338043610198176]","[0.026750000193715096, 0.05299999937415123, 0.03999999910593033]","[0.0, 0.0, -0.5787251465342503]","[0.06613091379404068, 0.11327556520700455, 0.03999999910593033]","[0.0, -0.0, 0.23678833514482173]",0.5808285318526283,0.14043124014066521,"(0.0, 0.0, 0.0, 0.0, 0.0, 0.0)",-0.6960468607586011,-0.8135914757037129,0.1095102970828189,"(0.0, 0.0, 0.0, 0.0, 0.0, 0.0)",-0.43191686646269073,-0.5780387033890982,0.1647367622488721,"(0.0, 0.0, 0.0, 0.0, 0.0, 0.0)",1.703077719564132,0.8149275718168287,-0.14061089600006715,"(0.0, 0.0, 0.0, 0.0, 0.0, 0.0)",0.964776386472297,True,"(-0.03170250463700455, 0.18490030847696146, 0.04000121890421875)","(0.9999992520603724, 0.00010075317019844186, 0.001218904218747609)",-0.0001495682147877675,5.747435611692828,True,"(0.03139727860269271, 0.18485962672608444, 0.03999878109578126)","(-0.9999992520603723, -0.0001007531702117773, -0.0012189042187392659)",-0.0006707011881752902,12.447548456899767
67,Move,"(-0.005063291139240506, 0.0, -0.005063291139240506)","(0.0, -0.0, 0.0)","(-5.286165809436907e-05, 0.17155784657691775, 0.0019730540077008496)","(1.5343900578563647, -0.0011130996958777014, 0.000947778227997895)","[-5.294021955937469e-05, 0.0015587842003989272, 0.001058164324613115]","[-0.026750000193715096, 0.05299999937415123, 0.03999999910593033]","[0.0, -0.0, 0.580828457692458]","[-0.06625761091709137, 0.1131925955414772, 0.03999999910593033]","[0.0, 0.0, -0.23276298929524966]","[0.026750000193715096, 0.05299999937415123, 0.03999999910593033]","[0.0, 0.0, -0.5780387526376882]","[0.06608952581882477, 0.11330258101224899, 0.03999999910593033]","[0.0, -0.0, 0.23688886801281678]",0.581513220757274,0.1643253371149522,"(0.0, 0.0, 0.0, 0.0, 0.0, 0.0)",-0.9818702267312255,-0.8130642364863053,0.12653741217782832,"(0.0, 0.0, 0.0, 0.0, 0.0, 0.0)",-0.5445259100863049,-0.5770775278934818,0.23068211894794025,"(0.0, 0.0, 0.0, 0.0, 0.0, 0.0)",2.0561799620559253,0.8142984543804684,-0.150988184726478,"(0.0, 0.0, 0.0, 0.0, 0.0, 0.0)",1.0417263068639262,True,"(-0.031812404196437716, 0.18491274918500689, 0.04000116540762324)","(0.9999990176823761, 0.0007787550029146714, 0.001165407623244575)",-0.00013628643218560773,7.716489018248333,True,"(0.031348700435616196, 0.1848825742885043, 0.03999883459237676)","(-0.9999990176823762, -0.0007787550028917465, -0.0011654076232369703)",-0.0006226955727897466,14.842170750896928
68,Move,"(-0.006075949367088608, 0.0, -0.006075949367088608)","(0.0, -0.0, 0.0)","(-0.00019875648993132285, 0.17162666784694877, 0.001954694532801098)","(1.53559630829206, -0.0012022871268801108, 0.0012166381509174326)","[-0.00019883505139632845, 0.0016276054704299492, 0.0010398048497133631]","[-0.026750000193715096, 0.05299999937415123, 0.03999999910593033]","[0.0, -0.0, 0.5815131720835802]","[-0.06629881262779236, 0.11316553503274918, 0.03999999910593033]","[0.0, 0.0, -0.23155102096914204]","[0.026750000193715096, 0.05299999937415123, 0.03999999910593033]","[0.0, 0.0, -0.5770775664733523]","[0.0660315454006195, 0.11334037035703659, 0.03999999910593033]","[0.0, -0.0, 0.23722091040285592]",0.5822728476322465,0.18231044999340185,"(0.0, 0.0, 0.0, 0.0, 0.0, 0.0)",-1.6013412869038683,-0.812247655198659,0.1959795090351179,"(0.0, 0.0, 0.0, 0.0, 0.0, 0.0)",-0.8310779739469902,-0.5758148900860559,0.30303307378221456,"(0.0, 0.0, 0.0, 0.0, 0.0, 0.0)",2.1544856793212217,0.8135798377792227,-0.17246798429898139,"(0.0, 0.0, 0.0, 0.0, 0.0, 0.0)",1.0783314341532448,True,"(-0.03194055148760819, 0.18492633418460494, 0.04000111309946603)","(0.9999989313631246, 0.000947777498954961, 0.0011130994660290014)",-0.00012734279964684168,12.348915539113998,True,"(0.0312669538825833, 0.1849089817347705, 0.03999888690053398)","(-0.9999989313631247, -0.0009477774989515748, -0.001113099466022403)",-0.0005852366778366266,15.504294318336783
69,Move,"(-0.0070886075949367095, 0.0, -0.0070886075949367095)","(0.0, -0.0, 0.0)","(-0.00036056726586569394, 0.1717209082138285, 0.0019233642468674925)","(1.5373768398216545, -0.0014662668248965737, 0.0015596969672235631)","[-0.00036064582733069954, 0.0017218458373096657, 0.0010084745637797578]","[-0.026750000193715096, 0.05299999937415123, 0.03999999910593033]","[0.0, -0.0, 0.5822728464013579]","[-0.06634450703859329, 0.11313547194004059, 0.03999999910593033]","[0.0, 0.0, -0.22997479043822527]","[0.026750000193715096, 0.05299999937415123, 0.03999999910593033]","[0.0, 0.0, -0.5758149034192634]","[0.06595532596111298, 0.11338991671800613, 0.03999999910593033]","[0.0, -0.0, 0.23776494276600244]",0.5830875626536827,0.1955316051446661,"(0.0, 0.0, 0.0, 0.0, 0.0, 0.0)",-2.1374724058717796,-0.811221870723373,0.246188274068634,"(0.0, 0.0, 0.0, 0.0, 0.0, 0.0)",-1.1337325543489676,-0.5742622702950263,0.3726287498471097,"(0.0, 0.0, 0.0, 0.0, 0.0, 0.0)",2.446997207833378,0.8127275355787232,-0.204552528119882,"(0.0, 0.0, 0.0, 0.0, 0.0, 0.0)",1.2496609808896884,True,"(-0.03209939368026664, 0.18494903374929844, 0.04000120228683724)","(0.9999985371493504, 0.0012166369714408513, 0.0012022868372369257)",-0.000121359962692549,16.35486168973938,True,"(0.03115180459424835, 0.18493988388539082, 0.03999879771316276)","(-0.9999985371493503, -0.0012166369714481761, -0.0012022868372397592)",-0.0005475466904605168,17.76697629329809
70,Move,"(-0.00810126582278481, 0.0, -0.00810126582278481)","(0.0, -0.0, 0.0)","(-0.0005342045569603823, 0.17184023250592928, 0.0018823445961329162)","(1.539679731456675, -0.0018196827818096027, 0.0019100645975574616)","[-0.0005342831184253879, 0.0018411701294104577, 0.0009674549130451815]","[-0.026750000193715096, 0.05299999937415123, 0.03999999910593033]","[0.0, -0.0, 0.5830876134337545]","[-0.06639348715543747, 0.11310319602489471, 0.03999999910593033]","[0.0, 0.0, -0.2281343058020212]","[0.026750000193715096, 0.05299999937415123, 0.03999999910593033]","[0.0, 0.0, -0.5742622585195772]","[0.06586151570081711, 0.11345071345567703, 0.03999999910593033]","[0.0, -0.0, 0.23846525202732996]",0.5839543836212847,0.20803703222449182,"(0.0, 0.0, 0.0, 0.0, 0.0, 0.0)",-2.606052216694665,-0.8100733224424874,0.27565158741255436,"(0.0, 0.0, 0.0, 0.0, 0.0, 0.0)",-1.3948253479877333,-0.5724324619116677,0.4391540120060469,"(0.0, 0.0, 0.0, 0.0, 0.0, 0.0)",2.8094021242498144,0.8117239408024542,-0.24086274630455262,"(0.0, 0.0, 0.0, 0.0, 0.0, 0.0)",1.4529693540043018,True,"(-0.032280601451332006, 0.18497816456303082, 0.04000146626629949)","(0.999997708705231, 0.001559694658221963, 0.0014662662994919936)",-0.00011654805117248302,19.882935286813673,True,"(0.03100789536567889, 0.18497664823643317, 0.039998533733700506)","(-0.9999977087052311, -0.001559694658227877, -0.0014662662994973847)",-0.0005151051868601107,20.54966631656854
71,Move,"(-0.00911392405063291, 0.0, -0.00911392405063291)","(0.0, -0.0, 0.0)","(-0.0007222776808088661, 0.17198808755055733, 0.0018394077556661312)","(1.5424863398061093, -0.0020302158403997773, 0.002326954242519172)","[-0.0007223562422738717, 0.001989025174038511, 0.0009245180725783965]","[-0.026750000193715096, 0.05299999937415123, 0.03999999910593033]","[0.0, -0.0, 0.5839544017309858]","[-0.06644556671380997, 0.11306881159543991, 0.03999999910593033]","[0.0, 0.0, -0.22611894780432873]","[0.026750000193715096, 0.05299999937415123, 0.03999999910593033]","[0.0, 0.0, -0.572432416919967]","[0.0657508373260498, 0.11352217942476273, 0.03999999910593033]","[0.0, -0.0, 0.23929149402215788]",0.5848608900838378,0.21756155101273328,"(0.0, 0.0, 0.0, 0.0, 0.0, 0.0)",-3.0290673950454785,-0.8088844725185111,0.28532398175430895,"(0.0, 0.0, 0.0, 0.0, 0.0, 0.0)",-1.6215216001779078,-0.5703362744403832,0.5030849931083152,"(0.0, 0.0, 0.0, 0.0, 0.0, 0.0)",3.2379059637862246,0.8104224887188031,-0.31234850007628184,"(0.0, 0.0, 0.0, 0.0, 0.0, 0.0)",1.6803894765897696,True,"(-0.0324776050579559, 0.18501071723035678, 0.040001819681777566)","(0.9999965202079351, 0.0019100602737800744, 0.0018196817775669393)",-0.00011123157801950245,23.030858861285434,True,"(0.030838132486823634, 0.18501976847947219, 0.03999818031822243)","(-0.9999965202079348, -0.0019100602737865372, -0.0018196817775701657)",-0.000493238914415815,23.842976360057648
72,Move,"(-0.010126582278481011, 0.0, -0.010126582278481011)","(0.0, -0.0, 0.0)","(-0.0009366767058256155, 0.17216529095646113, 0.001796156222092754)","(1.5457839667707793, -0.00204131950912696, 0.002686896332843283)","[-0.0009367552672906211, 0.0021662285799423087, 0.0008812665390050193]","[-0.026750000193715096, 0.05299999937415123, 0.03999999910593033]","[0.0, -0.0, 0.5848608911980757]","[-0.06650000810623169, 0.11303280293941498, 0.03999999910593033]","[0.0, 0.0, -0.22402358123588736]","[0.026750000193715096, 0.05299999937415123, 0.03999999910593033]","[0.0, 0.0, -0.5703363129555996]","[0.06562388688325882, 0.11360380053520203, 0.03999999910593033]","[0.0, -0.0, 0.2400862398564658]",0.5858089909540036,0.22754420883980353,"(0.0, 0.0, 0.0, 0.0, 0.0, 0.0)",-3.4180244461221796,-0.807541859063872,0.3222272291134088,"(0.0, 0.0, 0.0, 0.0, 0.0, 0.0)",-1.8242282039060373,-0.5679690056958333,0.568144498691973,"(0.0, 0.0, 0.0, 0.0, 0.0, 0.0)",3.7225331407731437,0.8088967423759097,-0.3661791222943978,"(0.0, 0.0, 0.0, 0.0, 0.0, 0.0)",1.9492616411218084,True,"(-0.03268285498960487, 0.18504404681446834, 0.04000203021444571)","(0.9999952317613064, 0.002326947346960199, 0.002030214445714414)",-0.0001074331128197263,25.988638492311342,True,"(0.03065436988018838, 0.18507399742993047, 0.03999796978555429)","(-0.9999952317613064, -0.002326947346969239, -0.002030214445710856)",-0.00047558095199117114,27.48271240462836
73,Move,"(-0.01113924050632911, 0.0, -0.01113924050632911)","(0.0, -0.0, 0.0)","(-0.0011771069831257232, 0.17236806333358398, 0.0017465701212646882)","(1.5495904835929952, -0.002047216082104969, 0.00298286350442976)","[-0.001177185544590729, 0.0023690009570651593, 0.0008316804381769535]","[-0.026750000193715096, 0.05299999937415123, 0.03999999910593033]","[0.0, -0.0, 0.5858090801886908]","[-0.0665569007396698, 0.11299508810043335, 0.03999999910593033]","[0.0, 0.0, -0.22173290447886626]","[0.026750000193715096, 0.05299999937415123, 0.03999999910593033]","[0.0, 0.0, -0.5679690634778517]","[0.0654803141951561, 0.1136956587433815, 0.03999999910593033]","[0.0, -0.0, 0.24092775298311736]",0.5868017090597198,0.2382523453718938,"(0.0, 0.0, 0.0, 0.0, 0.0, 0.0)",-3.8492171784786082,-0.8059441704605845,0.3834452647889802,"(0.0, 0.0, 0.0, 0.0, 0.0, 0.0)",-2.0641824547473293,-0.5653308399900665,0.633159769384025,"(0.0, 0.0, 0.0, 0.0, 0.0, 0.0)",4.159311335574062,0.8072729314455589,-0.38971462328419015,"(0.0, 0.0, 0.0, 0.0, 0.0, 0.0)",2.1894447924765235,True,"(-0.03290479301175136, 0.18508167849610263, 0.04000204131809144)","(0.999994306811795, 0.0026868875017710125, 0.002041318091439823)",-0.00010476012805160938,29.27588279640502,True,"(0.030450662836368755, 0.18513688111702414, 0.039997958681908564)","(-0.9999943068117951, -0.002686887501741552, -0.002041318091438846)",-0.0004600031066506911,30.753842148154284
74,Move,"(-0.012151898734177217, 0.0, -0.012151898734177217)","(0.0, -0.0, 0.0)","(-0.0014369615259642596, 0.17259609314609048, 0.0016910292783183585)","(1.5539015819549051, -0.0020526412577516356, 0.0032894341689752873)","[-0.0014370400874292653, 0.0025970307695716566, 0.0007761395952306238]","[-0.026750000193715096, 0.05299999937415123, 0.03999999910593033]","[0.0, -0.0, 0.5868017670507767]","[-0.06661644577980042, 0.11295554041862488, 0.03999999910593033]","[0.0, 0.0, -0.219142481696056]","[0.026750000193715096, 0.05299999937415123, 0.03999999910593033]","[0.0, 0.0, -0.5653308611250247]","[0.06532005220651627, 0.1137976199388504, 0.03999999910593033]","[0.0, -0.0, 0.24194208595840666]",0.5878338530669945,0.2477145617459277,"(0.0, 0.0, 0.0, 0.0, 0.0, 0.0)",-4.308277141416075,-0.8041621388257189,0.4276875923677583,"(0.0, 0.0, 0.0, 0.0, 0.0, 0.0)",-2.321383464577637,-0.5624312870407286,0.6958927078410853,"(0.0, 0.0, 0.0, 0.0, 0.0, 0.0)",4.5612299846957205,0.8054869150714612,-0.4286439297834603,"(0.0, 0.0, 0.0, 0.0, 0.0, 0.0)",2.4011344914821215,True,"(-0.0331511684209506, 0.18512676819008037, 0.040002047214652094)","(0.9999934557291665, 0.0029828528303855804, 0.0020472146520941615)",-0.00010252150999526912,32.71591817555969,True,"(0.03021795194051098, 0.1852039959086924, 0.0399979527853479)","(-0.9999934557291663, -0.00298285283040061, -0.0020472146520963998)",-0.00044854923404745944,33.813118338412814
75,Move,"(-0.013164556962025316, 0.0, -0.013164556962025316)","(0.0, -0.0, 0.0)","(-0.0017152741460799885, 0.17284911832194438, 0.0016298825797602117)","(1.5587104602943875, -0.002058290124682686, 0.003611069160303585)","[-0.0017153527075449942, 0.0028500559454255614, 0.000714992896672477]","[-0.026750000193715096, 0.05299999937415123, 0.03999999910593033]","[0.0, -0.0, 0.5878339155528611]","[-0.06667830049991608, 0.11291436105966568, 0.03999999910593033]","[0.0, 0.0, -0.21632830265464031]","[0.026750000193715096, 0.05299999937415123, 0.03999999910593033]","[0.0, 0.0, -0.562431290537624]","[0.06514360755681992, 0.11390919983386993, 0.03999999910593033]","[0.0, -0.0, 0.24305564635597374]",0.5888999814399065,0.2558708094988801,"(0.0, 0.0, 0.0, 0.0, 0.0, 0.0)",-4.748356031127693,-0.8021988738638255,0.47118359085441974,"(0.0, 0.0, 0.0, 0.0, 0.0, 0.0)",-2.5635231537051295,-0.5592775006846535,0.7569087254580315,"(0.0, 0.0, 0.0, 0.0, 0.0, 0.0)",4.990114824383024,0.8035321629637359,-0.4691405058540838,"(0.0, 0.0, 0.0, 0.0, 0.0, 0.0)",2.6312945700750325,True,"(-0.03341625330468908, 0.18517697203067784, 0.04000205263981634)","(0.9999924831603728, 0.0032894213070873207, 0.0020526398163415874)",-0.00010097033628515123,36.01646669886359,True,"(0.029962009327424446, 0.18527725131450662, 0.03999794736018366)","(-0.999992483160373, -0.0032894213070886026, -0.0020526398163397716)",-0.0004409203792464736,37.057742065408135
76,Move,"(-0.01417721518987342, 0.0, -0.01417721518987342)","(0.0, -0.0, 0.0)","(-0.0020116056948781286, 0.17312682175839875, 0.0015634951100434238)","(1.5640097857242852, -0.0020641958208705022, 0.003948043194686664)","[-0.0020116842563431343, 0.0031277593818799243, 0.0006486054269556891]","[-0.026750000193715096, 0.05299999937415123, 0.03999999910593033]","[0.0, -0.0, 0.5888999663768382]","[-0.06674215942621231, 0.11287175863981247, 0.03999999910593033]","[0.0, 0.0, -0.21329892307755827]","[0.026750000193715096, 0.05299999937415123, 0.03999999910593033]","[0.0, 0.0, -0.5592775902281919]","[0.0649513229727745, 0.11402998119592667, 0.03999999910593033]","[0.0, -0.0, 0.24425465460429893]",0.5899966259367416,0.26319467924041645,"(0.0, 0.0, 0.0, 0.0, 0.0, 0.0)",-5.1880347279044425,-0.8000545452331181,0.5146388713697564,"(0.0, 0.0, 0.0, 0.0, 0.0, 0.0)",-2.805923741525249,-0.5558747088922323,0.8166700301810993,"(0.0, 0.0, 0.0, 0.0, 0.0, 0.0)",5.424257853360509,0.8014068373468609,-0.510078148049985,"(0.0, 0.0, 0.0, 0.0, 0.0, 0.0)",2.86377140247268,True,"(-0.03369915773470447, 0.18523209366822485, 0.04000205828867133)","(0.9999913618322848, 0.003611053663121924, 0.0020582886713266637)",-0.00010008848534778875,39.315290823519504,True,"(0.029684173130366323, 0.18535667559341973, 0.03999794171132865)","(-0.9999913618322847, -0.0036110536631240855, -0.002058288671346061)",-0.0004366851440725253,40.330985478203
77,Move,"(-0.01518987341772152, 0.0, -0.01518987341772152)","(0.0, -0.0, 0.0)","(-0.002325563703293824, 0.1734288494600032, 0.0014922631373344643)","(1.5697914898489687, -0.002070318468196533, 0.004299880551521307)","[-0.0023256422647588296, 0.0034297870834843758, 0.0005773734542467296]","[-0.026750000193715096, 0.05299999937415123, 0.03999999910593033]","[0.0, -0.0, 0.5899965061057398]","[-0.06680779159069061, 0.11282786726951599, 0.03999999910593033]","[0.0, 0.0, -0.2100579356658217]","[0.026750000193715096, 0.05299999937415123, 0.03999999910593033]","[0.0, 0.0, -0.5558747312349297]","[0.06474342942237854, 0.11415962129831314, 0.03999999910593033]","[0.0, -0.0, 0.245532146002047]",0.5911202943246503,0.26968041309807556,"(0.0, 0.0, 0.0, 0.0, 0.0, 0.0)",-5.629110751414228,-0.7977288513477037,0.558166532499477,"(0.0, 0.0, 0.0, 0.0, 0.0, 0.0)",-3.049561461305268,-0.5522281389259551,0.8751767919065361,"(0.0, 0.0, 0.0, 0.0, 0.0, 0.0)",5.860343087870418,0.7991099327287337,-0.5512571083505483,"(0.0, 0.0, 0.0, 0.0, 0.0, 0.0)",3.0966840758931666,True,"(-0.03399946707282122, 0.18529200780089677, 0.04000206419435499)","(0.9999900760527565, 0.003948024527215779, 0.002064194354987032)",-9.982838687771866e-05,42.6201179020033,True,"(0.029385187257826878, 0.18544214285896427, 0.039997935805645014)","(-0.9999900760527564, -0.003948024527216378, -0.002064194354981033)",-0.0004355604709064225,43.6129100563101
78,Move,"(-0.01620253164556962, 0.0, -0.01620253164556962)","(0.0, -0.0, 0.0)","(-0.0026567829699091347, 0.17375481168758636, 0.0014166132282569534)","(1.5760467538938387, -0.0020765867792989436, 0.0046657357704086334)","[-0.0026568615313741404, 0.0037557493110675355, 0.0005017235451692187]","[-0.026750000193715096, 0.05299999937415123, 0.03999999910593033]","[0.0, -0.0, 0.5911202800000845]","[-0.06687499582767487, 0.11278281360864639, 0.03999999910593033]","[0.0, 0.0, -0.2066085372431343]","[0.026750000193715096, 0.05299999937415123, 0.03999999910593033]","[0.0, 0.0, -0.5522281412719076]","[0.06452015042304993, 0.1142977625131607, 0.03999999910593033]","[0.0, -0.0, 0.24688180683391475]",0.5922674965805467,0.27532854141512947,"(0.0, 0.0, 0.0, 0.0, 0.0, 0.0)",-6.071339136613773,-0.7952212689356296,0.6018197788977769,"(0.0, 0.0, 0.0, 0.0, 0.0, 0.0)",-3.2943472984169704,-0.5483429585588877,0.9324432880961796,"(0.0, 0.0, 0.0, 0.0, 0.0, 0.0)",6.298008005376665,0.7966408888892721,-0.5925705214707677,"(0.0, 0.0, 0.0, 0.0, 0.0, 0.0)",3.3297604254968642,True,"(-0.034316800111739924, 0.18535659738236546, 0.040002070316989234)","(0.9999886124391622, 0.004299858086395435, 0.002070316989230639)",-0.00010014221389771186,45.928783002027814,True,"(0.02906573221297351, 0.18553349272653213, 0.039997929683010774)","(-0.9999886124391623, -0.004299858086387435, -0.0020703169892220723)",-0.00043729355894212214,46.900236966800634
79,Move,"(-0.017215189873417722, 0.0, -0.017215189873417722)","(0.0, -0.0, 0.0)","(-0.003003853039973705, 0.17402363541069255, 0.0013614969175461931)","(1.580677715732337, -0.0020759683992756304, 0.005073792171472396)","[-0.0030039316014387105, 0.004024573034173723, 0.0004466072344584584]","[-0.026750000193715096, 0.05299999937415123, 0.03999999910593033]","[0.0, -0.0, 0.5922675099396136]","[-0.06694354861974716, 0.11273674666881561, 0.03999999910593033]","[0.0, 0.0, -0.20295377603500772]","[0.026750000193715096, 0.05299999937415123, 0.03999999910593033]","[0.0, 0.0, -0.5483429639142001]","[0.06428171694278717, 0.11444403976202011, 0.03999999910593033]","[0.0, -0.0, 0.2482979302461027]",0.5934331944132715,0.27976747985395106,"(0.0, 0.0, 0.0, 0.0, 0.0, 0.0)",-6.3251940836500795,-0.7925243623216779,0.6472575873484175,"(0.0, 0.0, 0.0, 0.0, 0.0, 0.0)",-3.342390389593781,-0.5442244664511094,0.9884381058667713,"(0.0, 0.0, 0.0, 0.0, 0.0, 0.0)",6.958056209593163,0.7939898978988678,-0.6362378376970376,"(0.0, 0.0, 0.0, 0.0, 0.0, 0.0)",3.8470941306453525,True,"(-0.0346507943372109, 0.18542574593505945, 0.040002076585286844)","(0.999986959392523, 0.004665708782505046, 0.002076585286850162)",-0.00010098422873495846,47.65473214032455,True,"(0.02872644551652726, 0.1856305441358215, 0.03999792341471315)","(-0.999986959392523, -0.004665708782513267, -0.0020765852868517855)",-0.00044165386844534116,51.951475183810935
80,Move,"(-0.01822784810126582, 0.0, -0.01822784810126582)","(0.0, -0.0, 0.0)","(-0.003352200695300938, 0.1741191460625566, 0.00136049478485299)","(1.5806809375798656, -0.002065090438370698, 0.005826701190422875)","[-0.0033522792567659437, 0.004120083686037779, 0.00044560510176525525]","[-0.026750000193715096, 0.05299999937415123, 0.03999999910593033]","[0.0, -0.0, 0.5934332181203646]","[-0.06701315939426422, 0.11268985271453857, 0.03999999910593033]","[0.0, 0.0, -0.19909118814229382]","[0.026750000193715096, 0.05299999937415123, 0.03999999910593033]","[0.0, 0.0, -0.5442244460046628]","[0.06402834504842758, 0.1145980954170227, 0.03999999910593033]","[0.0, -0.0, 0.24976544998899133]",0.5946185638331548,0.2844886607720001,"(0.0, 0.0, 0.0, 0.0, 0.0, 0.0)",-6.28054002768504,-0.7898618030738499,0.6390142194787136,"(0.0, 0.0, 0.0, 0.0, 0.0, 0.0)",-3.2466969467349176,-0.5398757271994197,1.0436974204055451,"(0.0, 0.0, 0.0, 0.0, 0.0, 0.0)",7.9010814951886585,0.7909212643810001,-0.7364720442882502,"(0.0, 0.0, 0.0, 0.0, 0.0, 0.0)",4.664962573628089,True,"(-0.03500138757375697, 0.18549958894774543, 0.04000207596690816)","(0.9999849735502264, 0.005073759469012413, 0.002075966908165001)",-0.00010138825568634968,47.099250731055164,True,"(0.02836863723892004, 0.18573340206457917, 0.039997924033091846)","(-0.9999849735502262, -0.005073759469017454, -0.0020759669081571084)",-0.0004483598434549114,59.22120069656992
81,Move,"(-0.019240506329113925, 0.0, -0.019240506329113925)","(0.0, -0.0, 0.0)","(-0.0037336527264947633, 0.17421788953807835, 0.0013601496252820288)","(1.5806508621466473, -0.0020549483786495206, 0.006230458146500845)","[-0.003733731287959769, 0.004218827161559524, 0.0004452599421942941]","[-0.026750000193715096, 0.05299999937415123, 0.03999999910593033]","[0.0, -0.0, 0.5946185797151657]","[-0.06708388030529022, 0.1126420795917511, 0.03999999910593033]","[0.0, 0.0, -0.19524327525136032]","[0.026750000193715096, 0.05299999937415123, 0.03999999910593033]","[0.0, 0.0, -0.5398756624641725]","[0.06376011669635773, 0.11475962400436401, 0.03999999910593033]","[0.0, -0.0, 0.25104552685718345]",0.5958149775146865,0.28713928356761337,"(0.0, 0.0, 0.0, 0.0, 0.0, 0.0)",-7.271705633540947,-0.7867635003414534,0.7435926557751665,"(0.0, 0.0, 0.0, 0.0, 0.0, 0.0)",-3.9247661810623,-0.5353047130737207,1.0970433901677423,"(0.0, 0.0, 0.0, 0.0, 0.0, 0.0)",7.773754919097283,0.7879697355764237,-0.7083669130983282,"(0.0, 0.0, 0.0, 0.0, 0.0, 0.0)",4.1803043391052395,True,"(-0.035352493930512305, 0.18557136505359512, 0.04000206508897058)","(0.9999808925623397, 0.00582665579642641, 0.002065088970576706)",-0.00010684381598435526,54.859082806248026,True,"(0.028009376832201602, 0.18584975360941328, 0.039997934911029424)","(-0.9999808925623396, -0.005826655796439602, -0.002065088970576348)",-0.0004508809367514533,57.916175829663445
82,Move,"(-0.020253164556962026, 0.0, -0.020253164556962026)","(0.0, -0.0, 0.0)","(-0.004129226324491828, 0.17432199900556503, 0.0013595411249970892)","(1.5806394987258183, -0.0020441977978202003, 0.006673685581007243)","[-0.004129304885956833, 0.0043229366290462035, 0.0004446514419093545]","[-0.026750000193715096, 0.05299999937415123, 0.03999999910593033]","[0.0, -0.0, 0.5958150447804342]","[-0.06715521216392517, 0.11259378492832184, 0.03999999910593033]","[0.0, 0.0, -0.19094851319785966]","[0.026750000193715096, 0.05299999937415123, 0.03999999910593033]","[0.0, 0.0, -0.5353047154503976]","[0.06347742676734924, 0.11492815613746643, 0.03999999910593033]","[0.0, -0.0, 0.25266501997945384]",0.5970268615572686,0.2908521702196925,"(0.0, 0.0, 0.0, 0.0, 0.0, 0.0)",-7.786790945642022,-0.783507285964502,0.7814914504683137,"(0.0, 0.0, 0.0, 0.0, 0.0, 0.0)",-4.23475311784898,-0.5305104812885765,1.150615628434634,"(0.0, 0.0, 0.0, 0.0, 0.0, 0.0)",8.12051785538275,0.7848208410417926,-0.7557346883114614,"(0.0, 0.0, 0.0, 0.0, 0.0, 0.0)",4.333818818810639,True,"(-0.0357372920814652, 0.18565477987726053, 0.04000205494693238)","(0.9999784793937335, 0.006230404682012307, 0.0020549469323792023)",-0.00010771209145075146,58.6874009361908,True,"(0.027611596228706868, 0.18596150627825353, 0.03999794505306763)","(-0.9999784793937334, -0.006230404682020442, -0.0020549469323769064)",-0.0004628586984304312,60.52218607006458
83,Move,"(-0.02126582278481013, 0.0, -0.02126582278481013)","(0.0, -0.0, 0.0)","(-0.004540110678613765, 0.17443041754217545, 0.0013589018955174942)","(1.5806272120832705, -0.0020329629600802307, 0.0071256330497115284)","[-0.00454018924007877, 0.004431355165656625, 0.00044401221242975947]","[-0.026750000193715096, 0.05299999937415123, 0.03999999910593033]","[0.0, -0.0, 0.5970270093217765]","[-0.06722740083932877, 0.11254477500915527, 0.03999999910593033]","[0.0, 0.0, -0.1864804092037095]","[0.026750000193715096, 0.05299999937415123, 0.03999999910593033]","[0.0, 0.0, -0.5305104671447837]","[0.063180111348629, 0.11510352045297623, 0.03999999910593033]","[0.0, -0.0, 0.25431034725477936]",0.598245673255956,0.29251480768498195,"(0.0, 0.0, 0.0, 0.0, 0.0, 0.0)",-8.220021686621006,-0.780066311498782,0.8258338717727962,"(0.0, 0.0, 0.0, 0.0, 0.0, 0.0)",-4.473655737734157,-0.5255046631559697,1.2013963518256234,"(0.0, 0.0, 0.0, 0.0, 0.0, 0.0)",8.565994338918784,0.781504113554052,-0.7960145970577468,"(0.0, 0.0, 0.0, 0.0, 0.0, 0.0)",4.571492516409854,True,"(-0.03613620441778694, 0.18574139358714215, 0.040002044196374126)","(0.9999756417179719, 0.00667362209856493, 0.0020441963741227114)",-0.00010900231918226354,61.885038484036144,True,"(0.027197443374515254, 0.18607896826993042, 0.039997955803625876)","(-0.9999756417179719, -0.006673622098540714, -0.002044196374123203)",-0.0004766464765465881,63.83993126586987
84,Move,"(-0.02227848101265822, 0.0, -0.02227848101265822)","(0.0, -0.0, 0.0)","(-0.004965872201396074, 0.17454295337823594, 0.0013582260954026996)","(1.5806143578619234, -0.002021205987149871, 0.007587404767869144)","[-0.004965950762861079, 0.004543891001717121, 0.00044333641231496484]","[-0.026750000193715096, 0.05299999937415123, 0.03999999910593033]","[0.0, -0.0, 0.5982457049908947]","[-0.06729994714260101, 0.11249539256095886, 0.03999999910593033]","[0.0, 0.0, -0.18182065016949106]","[0.026750000193715096, 0.05299999937415123, 0.03999999910593033]","[0.0, 0.0, -0.5255046892955499]","[0.06286877393722534, 0.11528510600328445, 0.03999999910593033]","[0.0, -0.0, 0.2559994302418195]",0.59946935579599,0.29368380960817697,"(0.0, 0.0, 0.0, 0.0, 0.0, 0.0)",-8.658574221596432,-0.7764431297502954,0.8695636196367972,"(0.0, 0.0, 0.0, 0.0, 0.0, 0.0)",-4.7196484462455555,-0.5202915793713929,1.2511401082984117,"(0.0, 0.0, 0.0, 0.0, 0.0, 0.0)",9.00203057485362,0.7780183958830893,-0.8365722410310602,"(0.0, 0.0, 0.0, 0.0, 0.0, 0.0)",4.7981261282879295,True,"(-0.036550126261156786, 0.18583189052339918, 0.04000203296155973)","(0.9999725463682146, 0.0071255580248401834, 0.0020329615597242242)",-0.00011066425472021309,65.13100839424834,True,"(0.026766267127211738, 0.18620090980598358, 0.03999796703844029)","(-0.9999725463682146, -0.00712555802484565, -0.002032961559716122)",-0.0004920577969779459,67.06362802965681
85,Move,"(-0.02329113924050633, 0.0, -0.02329113924050633)","(0.0, -0.0, 0.0)","(-0.005406177910607484, 0.1746593783056428, 0.0013575139196787247)","(1.580600878009851, -0.0020089217940604115, 0.008057432692803427)","[-0.0054062564720724895, 0.00466031592912397, 0.00044262423659099004]","[-0.026750000193715096, 0.05299999937415123, 0.03999999910593033]","[0.0, -0.0, 0.5994693618238945]","[-0.06737271696329117, 0.11244572699069977, 0.03999999910593033]","[0.0, 0.0, -0.1769737720727762]","[0.026750000193715096, 0.05299999937415123, 0.03999999910593033]","[0.0, 0.0, -0.5202916033136799]","[0.062543585896492, 0.11547254770994186, 0.03999999910593033]","[0.0, -0.0, 0.257726844652441]",0.600695061243415,0.294169307381992,"(0.0, 0.0, 0.0, 0.0, 0.0, 0.0)",-9.0948325379937,-0.772637853981344,0.9132661845483382,"(0.0, 0.0, 0.0, 0.0, 0.0, 0.0)",-4.964698112687183,-0.5148765560150735,1.2996056055166563,"(0.0, 0.0, 0.0, 0.0, 0.0, 0.0)",9.436448030976626,0.774365381717963,-0.8767233996303204,"(0.0, 0.0, 0.0, 0.0, 0.0, 0.0)",5.023325409134329,True,"(-0.03697866829282842, 0.1859260190686305, 0.040002021204610945)","(0.9999691732052038, 0.00758731647039169, 0.0020212046109456504)",-0.00011266388790026993,68.35090643966487,True,"(0.026318626282448944, 0.18632715034607888, 0.039997978795389036)","(-0.9999691732052037, -0.007587316470393381, -0.002021204610961734)",-0.0005089558276829487,70.26870260513654
86,Move,"(-0.024303797468354434, 0.0, -0.024303797468354434)","(0.0, -0.0, 0.0)","(-0.005860667928074395, 0.17477946089855206, 0.001356765104931509)","(1.5805867602107986, -0.0019961087073402974, 0.008534497097694535)","[-0.0058607464895394, 0.004780398522033241, 0.0004418754218437743]","[-0.026750000193715096, 0.05299999937415123, 0.03999999910593033]","[0.0, -0.0, 0.600695057327819]","[-0.0674455538392067, 0.11239589005708694, 0.03999999910593033]","[0.0, 0.0, -0.17194278678285232]","[0.026750000193715096, 0.05299999937415123, 0.03999999910593033]","[0.0, 0.0, -0.5148765847317285]","[0.06220477446913719, 0.11566545069217682, 0.03999999910593033]","[0.0, -0.0, 0.2594888362268108]",0.6019199935952139,0.2939837644317252,"(0.0, 0.0, 0.0, 0.0, 0.0, 0.0)",-9.528519947570496,-0.7686510246029978,0.9568390508030717,"(0.0, 0.0, 0.0, 0.0, 0.0, 0.0)",-5.20896599059239,-0.5092649224926784,1.346792045374844,"(0.0, 0.0, 0.0, 0.0, 0.0, 0.0)",9.868332392502966,0.7705465833839958,-0.916511600152105,"(0.0, 0.0, 0.0, 0.0, 0.0, 0.0)",5.246198243296855,True,"(-0.03742151458693897, 0.18602360357748338, 0.0400020089204428)","(0.9999655212476144, 0.008057329249893379, 0.002008920442796368)",-0.00011496538200926608,71.54440414789327,True,"(0.025855011424196654, 0.18645740984473547, 0.039997991079557205)","(-0.9999655212476145, -0.008057329249902658, -0.002008920442802111)",-0.0005272014316856193,73.44603828070831
87,Move,"(-0.02531645569620253, 0.0, -0.02531645569620253)","(0.0, -0.0, 0.0)","(-0.006328989133297588, 0.1749029632260727, 0.001355979212345174)","(1.5805720027356693, -0.0019827631793147703, 0.00901733733009997)","[-0.006329067694762594, 0.004903900849553888, 0.0004410895292574393]","[-0.026750000193715096, 0.05299999937415123, 0.03999999910593033]","[0.0, -0.0, 0.6019199829292944]","[-0.06751827895641327, 0.11234600096940994, 0.03999999910593033]","[0.0, 0.0, -0.16673102337335532]","[0.026750000193715096, 0.05299999937415123, 0.03999999910593033]","[0.0, 0.0, -0.5092649589139499]","[0.06185256317257881, 0.11586342751979828, 0.03999999910593033]","[0.0, -0.0, 0.2612816660983816]",0.6031414428848351,0.2931478295090929,"(0.0, 0.0, 0.0, 0.0, 0.0, 0.0)",-9.959285932761214,-0.7644832628476393,1.0002628212860305,"(0.0, 0.0, 0.0, 0.0, 0.0, 0.0)",-5.4522350644276045,-0.503462012588036,1.3926983771141805,"(0.0, 0.0, 0.0, 0.0, 0.0, 0.0)",10.297629586341316,0.766563745564657,-0.955881076641329,"(0.0, 0.0, 0.0, 0.0, 0.0, 0.0)",5.466742553044435,True,"(-0.03787832445785151, 0.18612445279634737, 0.040001996107381775)","(0.9999615892489291, 0.008534376490205097, 0.001996107381773026)",-0.00011753494424701389,74.70886093054928,True,"(0.02537592752578697, 0.18659141416123887, 0.03999800389261823)","(-0.999961589248929, -0.008534376490217424, -0.001996107381770345)",-0.0005466638377981877,76.59505293924207
88,Move,"(-0.026329113924050632, 0.0, -0.026329113924050632)","(0.0, -0.0, 0.0)","(-0.0068107850389567464, 0.1750296424598086, 0.0013551559325703925)","(1.5805565960713517, -0.001968883358664158, 0.009504756266390095)","[-0.006810863600421752, 0.005030580083289771, 0.00044026624948265776]","[-0.026750000193715096, 0.05299999937415123, 0.03999999910593033]","[0.0, -0.0, 0.6031414438774424]","[-0.06759073585271835, 0.11229615658521652, 0.03999999910593033]","[0.0, 0.0, -0.16134182390273974]","[0.026750000193715096, 0.05299999937415123, 0.03999999910593033]","[0.0, 0.0, -0.5034619945645287]","[0.06148718297481537, 0.11606606096029282, 0.03999999910593033]","[0.0, -0.0, 0.2631017434355878]",0.6043567549154674,0.2916748873517439,"(0.0, 0.0, 0.0, 0.0, 0.0, 0.0)",-10.386996448051018,-0.7601353304567052,1.0435037738241908,"(0.0, 0.0, 0.0, 0.0, 0.0, 0.0)",-5.694427458100465,-0.49747315899155925,1.437324863154429,"(0.0, 0.0, 0.0, 0.0, 0.0, 0.0)",10.724109835947365,0.7624187069095525,-0.9948092772250716,"(0.0, 0.0, 0.0, 0.0, 0.0, 0.0)",5.684821734322786,True,"(-0.03834876201078612, 0.18622836991595404, 0.040001982761880155)","(0.9999573784948721, 0.00901719740216753, 0.001982761880155238)",-0.00012034029264722227,77.84309546534844,True,"(0.024881865237991976, 0.18672888155042977, 0.03999801723811983)","(-0.9999573784948721, -0.00901719740217689, -0.0019827618801666045)",-0.0005672204711189791,79.71397047917937
89,Move,"(-0.02734177215189873, 0.0, -0.02734177215189873)","(0.0, -0.0, 0.0)","(-0.007305697756027607, 0.1751592506974842, 0.00135429495948184)","(1.580540532322106, -0.001954468258310376, 0.009995598573798446)","[-0.007305776317492612, 0.005160188320965375, 0.0004394052763941052]","[-0.026750000193715096, 0.05299999937415123, 0.03999999910593033]","[0.0, -0.0, 0.6043567453388669]","[-0.06766276806592941, 0.11224648356437683, 0.03999999910593033]","[0.0, 0.0, -0.15577860108692446]","[0.026750000193715096, 0.05299999937415123, 0.03999999910593033]","[0.0, 0.0, -0.4974731767051089]","[0.061108868569135666, 0.11627296358346939, 0.03999999910593033]","[0.0, -0.0, 0.26494554860882036]",0.6055633520549939,0.2895833134863567,"(0.0, 0.0, 0.0, 0.0, 0.0, 0.0)",-10.811186174966638,-0.7556081358220426,1.0865267123190419,"(0.0, 0.0, 0.0, 0.0, 0.0, 0.0)",-5.935281476011674,-0.4913037094660975,1.4806678861108176,"(0.0, 0.0, 0.0, 0.0, 0.0, 0.0)",11.14731835469782,0.7581134506386475,-1.0332615050171745,"(0.0, 0.0, 0.0, 0.0, 0.0, 0.0)",5.900199397432465,True,"(-0.038832487371135746, 0.18633515177668594, 0.04000196888208658)","(0.9999528919815517, 0.009504594734152398, 0.001968882086588882)",-0.00012335063758660517,80.9436097320673,True,"(0.024373310431539882, 0.18686952804876697, 0.039998031117913405)","(-0.9999528919815515, -0.009504594734152915, -0.001968882086602052)",-0.0005887561602799282,82.79939498132813
90,Move,"(-0.02835443037974684, 0.0, -0.02835443037974684)","(0.0, -0.0, 0.0)","(-0.007813364721061212, 0.17529153726189545, 0.0013533960799933882)","(1.5805238001172357, -0.001939519095663535, 0.01048878166604308)","[-0.007813443282526217, 0.005292474885376625, 0.0004385063969056535]","[-0.026750000193715096, 0.05299999937415123, 0.03999999910593033]","[0.0, -0.0, 0.6055633559386193]","[-0.06773422658443451, 0.11219707131385803, 0.03999999910593033]","[0.0, 0.0, -0.15004478996257817]","[0.026750000193715096, 0.05299999937415123, 0.03999999910593033]","[0.0, 0.0, -0.49130372357608293]","[0.060717858374118805, 0.11648373305797577, 0.03999999910593033]","[0.0, -0.0, 0.2668097288085184]",0.6067587027453316,0.2868841656810585,"(0.0, 0.0, 0.0, 0.0, 0.0, 0.0)",-11.231593048578977,-0.7509027124521309,1.1293016087788041,"(0.0, 0.0, 0.0, 0.0, 0.0, 0.0)",-6.1746375569928595,-0.48495900452757573,1.5227291852452305,"(0.0, 0.0, 0.0, 0.0, 0.0, 0.0)",11.566950954926954,0.7536500257520703,-1.0712219727785466,"(0.0, 0.0, 0.0, 0.0, 0.0, 0.0)",6.112709291515687,True,"(-0.03932915863237957, 0.1864445889563663, 0.04000195446701398)","(0.9999481345434433, 0.009995413036933685, 0.0019544670139882057)",-0.00012653641668192484,84.00834189275906,True,"(0.023850743230419434, 0.187013066319632, 0.03999804553298602)","(-0.9999481345434432, -0.009995413036959734, -0.001954467013981876)",-0.0006111624263705988,85.84902735804587
91,Move,"(-0.02936708860759494, 0.0, -0.02936708860759494)","(0.0, -0.0, 0.0)","(-0.008333424737425366, 0.17542624750510674, 0.0013524589482177287)","(1.580506395996047, -0.0019240355231959884, 0.010983234247922507)","[-0.008333503298890372, 0.005427185128587919, 0.000437569265129994]","[-0.026750000193715096, 0.05299999937415123, 0.03999999910593033]","[0.0, -0.0, 0.6067588157487045]","[-0.06780495494604111, 0.11214803904294968, 0.03999999910593033]","[0.0, 0.0, -0.14414401214201922]","[0.026750000193715096, 0.05299999937415123, 0.03999999910593033]","[0.0, 0.0, -0.4849589860329232]","[0.06031439080834389, 0.11669797450304031, 0.03999999910593033]","[0.0, -0.0, 0.2686910504674123]",0.6079403604443212,0.2835978477575029,"(0.0, 0.0, 0.0, 0.0, 0.0, 0.0)",-11.647765625759954,-0.7460202103430269,1.1718005061849526,"(0.0, 0.0, 0.0, 0.0, 0.0, 0.0)",-6.412236121320337,-0.478444399048612,1.5635053149512967,"(0.0, 0.0, 0.0, 0.0, 0.0, 0.0)",11.982605144411183,0.749030660899651,-1.1086475645806386,"(0.0, 0.0, 0.0, 0.0, 0.0, 0.0)",6.322157663199616,True,"(-0.03983842902778435, 0.1865564673426704, 0.04000193951787967)","(0.999943112470768, 0.010488569619709306, 0.0019395178796704961)",-0.00012986925327399923,87.0340204219605,True,"(0.023314641015644108, 0.1871592090039766, 0.03999806048212033)","(-0.9999431124707681, -0.010488569619705209, -0.0019395178796674359)",-0.0006343373285591978,88.85995340124401
92,Move,"(-0.03037974683544304, 0.0, -0.03037974683544304)","(0.0, -0.0, 0.0)","(-0.00886551016947, 0.17556312471685348, 0.001351483419925317)","(1.5804883065374116, -0.0019080204518383758, 0.011477987586910429)","[-0.008865588730935006, 0.005564062340334658, 0.00043659373683758236]","[-0.026750000193715096, 0.05299999937415123, 0.03999999910593033]","[0.0, -0.0, 0.6079402878918534]","[-0.06787481904029846, 0.11209948360919952, 0.03999999910593033]","[0.0, 0.0, -0.13807986523779894]","[0.026750000193715096, 0.05299999937415123, 0.03999999910593033]","[0.0, 0.0, -0.47844436316335537]","[0.05989871546626091, 0.1169152781367302, 0.03999999910593033]","[0.0, -0.0, 0.27058624370281276]",0.6091059387373735,0.27973879033256027,"(0.0, 0.0, 0.0, 0.0, 0.0, 0.0)",-12.059415157368342,-0.7409619349175721,1.2139861021091432,"(0.0, 0.0, 0.0, 0.0, 0.0, 0.0)",-6.647901160263079,-0.47176524341646475,1.602997351715351,"(0.0, 0.0, 0.0, 0.0, 0.0, 0.0)",12.393915571288476,0.7442576298587943,-1.1455274498055976,"(0.0, 0.0, 0.0, 0.0, 0.0, 0.0)",6.5283527790372435,True,"(-0.0403599524269678, 0.18667056830134782, 0.04000192403433608)","(0.9999378340449206, 0.010982993099626847, 0.001924034336080401)",-0.00013332165453259153,90.01846785096096,True,"(0.022765473691996087, 0.1873076653078833, 0.039998075965663904)","(-0.9999378340449206, -0.010982993099619911, -0.0019240343360948959)",-0.0006581850282592635,91.82952825204246
