OSUrobotics/InHand-Manipulation/AnalyseData/Data/Trial Data/Better/new_hand_expected_exp_2v2_h_n_1_kpNone_kdNone_dp1_step1_save_data.csv
,Phase,human_cube_pos,human_cube_orn,Cube_Pos,Cube_Orn,Cube_pos_in_start_pos,b'l_prox_pin'_link_pos,b'l_prox_pin'_link_orn,b'l_distal_pin'_link_pos,b'l_distal_pin'_link_orn,b'r_prox_pin'_link_pos,b'r_prox_pin'_link_orn,b'r_distal_pin'_link_pos,b'r_distal_pin'_link_orn,b'l_prox_pin'_joint_angle,b'l_prox_pin'_joint_vel,b'l_prox_pin'_joint_react_forces,b'l_prox_pin'_joint_motor_torque,b'l_distal_pin'_joint_angle,b'l_distal_pin'_joint_vel,b'l_distal_pin'_joint_react_forces,b'l_distal_pin'_joint_motor_torque,b'r_prox_pin'_joint_angle,b'r_prox_pin'_joint_vel,b'r_prox_pin'_joint_react_forces,b'r_prox_pin'_joint_motor_torque,b'r_distal_pin'_joint_angle,b'r_distal_pin'_joint_vel,b'r_distal_pin'_joint_react_forces,b'r_distal_pin'_joint_motor_torque,in_contact_l,contact_point_l_dist,contact_normal_l_dist,contact_distance_l_dist,contact_norm_force_l_dist,in_contact_r,contact_point_r_dist,contact_normal_r_dist,contact_distance_r_dist,contact_norm_force_r_dist
0,Open,,,,,,"[-0.026750000193715096, 0.05299999937415123, 0.03999999910593033]","[0.0, -0.0, 0.0]","[-0.026750000193715096, 0.125, 0.03999999910593033]","[0.0, -0.0, 0.0]","[0.026750000193715096, 0.05299999937415123, 0.03999999910593033]","[0.0, -0.0, 0.0]","[0.026750000193715096, 0.125, 0.03999999910593033]","[0.0, -0.0, 0.0]",0.0,0.0,"(0.0, 0.0, 0.0, 0.0, 0.0, 0.0)",1.3400621000080305e-17,5.883223478113402e-32,1.4119736347472167e-29,"(0.0, 0.0, 0.0, 0.0, 0.0, 0.0)",1.0542555313129702e-18,-0.008068665190486622,-1.9364796457167894,"(0.0, 0.0, 0.0, 0.0, 0.0, 0.0)",193.26378306879909,-0.0700246186727924,-16.805908481470176,"(0.0, 0.0, 0.0, 0.0, 0.0, 0.0)",71.94009191575694,False,,,,,False,,,,
1,Open,,,,,,"[-0.026750000193715096, 0.05299999937415123, 0.03999999910593033]","[0.0, -0.0, 0.0]","[-0.026750000193715096, 0.125, 0.03999999910593033]","[0.0, -0.0, 5.883223447970011e-32]","[0.026750000193715096, 0.05299999937415123, 0.03999999910593033]","[0.0, 0.0, -0.008068665592501188]","[0.02733093686401844, 0.12499765306711197, 0.03999999910593033]","[0.0, 0.0, -0.0780932845685428]",0.157,37.68,"(0.0, 0.0, 0.0, 0.0, 0.0, 0.0)",54.702693795169004,5.294901130302062e-32,-1.4119736347472162e-30,"(0.0, 0.0, 0.0, 0.0, 0.0, 0.0)",3.9113724975844915,-0.1670280316324969,-38.150247946082466,"(0.0, 0.0, 0.0, 0.0, 0.0, 0.0)",-25.93345404555236,-0.0659493391739072,0.9780670797324476,"(0.0, 0.0, 0.0, 0.0, 0.0, 0.0)",-6.754749483880455,False,,,,,False,,,,
2,Open,,,,,,"[-0.026750000193715096, 0.05299999937415123, 0.03999999910593033]","[0.0, -0.0, 0.1569999988554567]","[-0.03800761699676514, 0.12411445379257202, 0.03999999910593033]","[0.0, -0.0, 0.1569999988554567]","[0.026750000193715096, 0.05299999937415123, 0.03999999910593033]","[0.0, 0.0, -0.16702801712980753]","[0.038720179349184036, 0.1239979937672615, 0.03999999910593033]","[0.0, 0.0, -0.23297739431320727]",0.29829999999999995,33.91199999999999,"(0.0, 0.0, 0.0, 0.0, 0.0, 0.0)",-5.390828189440958,5.294901130302062e-32,0.0,"(0.0, 0.0, 0.0, 0.0, 0.0, 0.0)",-0.3659219356209609,-0.3122944613104081,-34.863943122698686,"(0.0, 0.0, 0.0, 0.0, 0.0, 0.0)",95.8006544774165,-0.06705867534034729,-0.2662406799456205,"(0.0, 0.0, 0.0, 0.0, 0.0, 0.0)",9.049911776264722,False,,,,,False,,,,
3,Open,,,,,,"[-0.026750000193715096, 0.05299999937415123, 0.03999999910593033]","[0.0, -0.0, 0.29830000998707634]","[-0.04791048914194107, 0.12182030081748962, 0.03999999910593033]","[0.0, -0.0, 0.29830000998707634]","[0.026750000193715096, 0.05299999937415123, 0.03999999910593033]","[0.0, 0.0, -0.3122944642903269]","[0.048871491104364395, 0.12151744216680527, 0.03999999910593033]","[0.0, 0.0, -0.3793531994353912]",0.42546999999999996,30.5208,"(0.0, 0.0, 0.0, 0.0, 0.0, 0.0)",-4.858074537215091,5.294901130302062e-32,0.0,"(0.0, 0.0, 0.0, 0.0, 0.0, 0.0)",-0.33154044974508506,-0.44292449566296654,-31.35120824461403,"(0.0, 0.0, 0.0, 0.0, 0.0, 0.0)",100.88457241511576,-0.08373770380977785,-4.0029668326633345,"(0.0, 0.0, 0.0, 0.0, 0.0, 0.0)",24.077304806401806,False,,,,,False,,,,
4,Open,,,,,,"[-0.026750000193715096, 0.05299999937415123, 0.03999999910593033]","[0.0, -0.0, 0.4254700097131474]","[-0.056467924267053604, 0.11858082562685013, 0.03999999910593033]","[0.0, -0.0, 0.4254700097131474]","[0.026750000193715096, 0.05299999937415123, 0.03999999910593033]","[0.0, 0.0, -0.4429245237535421]","[0.057608019560575485, 0.1180521547794342, 0.03999999910593033]","[0.0, 0.0, -0.5266622746639338]",0.5399229999999999,27.46872,"(0.0, 0.0, 0.0, 0.0, 0.0, 0.0)",-4.377393708535371,5.294901130302062e-32,0.0,"(0.0, 0.0, 0.0, 0.0, 0.0, 0.0)",-0.30017707799641646,-0.5623038734984663,-28.651050680519948,"(0.0, 0.0, 0.0, 0.0, 0.0, 0.0)",144.45470973647488,-0.10456727132876567,-4.999096204557077,"(0.0, 0.0, 0.0, 0.0, 0.0, 0.0)",33.97911746732963,False,,,,,False,,,,
5,Open,,,,,,"[-0.026750000193715096, 0.05299999937415123, 0.03999999910593033]","[0.0, -0.0, 0.5399230359738098]","[-0.06376303732395172, 0.11475787311792374, 0.03999999910593033]","[0.0, -0.0, 0.5399230359738098]","[0.026750000193715096, 0.05299999937415123, 0.03999999910593033]","[0.0, 0.0, -0.5623038790270362]","[0.06513584405183792, 0.11391409486532211, 0.03999999910593033]","[0.0, 0.0, -0.6668711870723439]",0.6429307,24.721848,"(0.0, 0.0, 0.0, 0.0, 0.0, 0.0)",-3.943806903965684,5.294901130302062e-32,0.0,"(0.0, 0.0, 0.0, 0.0, 0.0, 0.0)",-0.2716098155097054,-0.6673401099248648,-25.208696742335626,"(0.0, 0.0, 0.0, 0.0, 0.0, 0.0)",94.97739775913854,-0.11755295807544866,-3.116564819203918,"(0.0, 0.0, 0.0, 0.0, 0.0, 0.0)",25.79194570087013,False,,,,,False,,,,
6,Open,,,,,,"[-0.026750000193715096, 0.05299999937415123, 0.03999999910593033]","[0.0, -0.0, 0.6429307111289271]","[-0.06991713494062424, 0.11062463372945786, 0.03999999910593033]","[0.0, -0.0, 0.6429307111289271]","[0.026750000193715096, 0.05299999937415123, 0.03999999910593033]","[0.0, 0.0, -0.6673401753977319]","[0.07131072133779526, 0.10955388844013214, 0.03999999910593033]","[0.0, 0.0, -0.7848931559948581]",0.73563763,22.249663200000004,"(0.0, 0.0, 0.0, 0.0, 0.0, 0.0)",-3.552789792259023,5.294901130302062e-32,0.0,"(0.0, 0.0, 0.0, 0.0, 0.0, 0.0)",-0.24562369466220793,-0.7579917869736262,-21.756402491702737,"(0.0, 0.0, 0.0, 0.0, 0.0, 0.0)",34.46450837185191,-0.10794166402774508,2.3067105714488583,"(0.0, 0.0, 0.0, 0.0, 0.0, 0.0)",8.765009015475858,False,,,,,False,,,,
7,Open,,,,,,"[-0.026750000193715096, 0.05299999937415123, 0.03999999910593033]","[0.0, -0.0, 0.7356376306875043]","[-0.07506632059812546, 0.10638101398944855, 0.03999999910593033]","[0.0, -0.0, 0.7356376306875043]","[0.026750000193715096, 0.05299999937415123, 0.03999999910593033]","[0.0, 0.0, -0.757991847340814]","[0.076247438788414, 0.10528770089149475, 0.03999999910593033]","[0.0, 0.0, -0.8659334873334429]",0.8190738670000001,20.024696880000004,"(0.0, 0.0, 0.0, 0.0, 0.0, 0.0)",-3.2002295086701533,2.3293280891773424e-07,5.5903874140256216e-05,"(0.0, 0.0, 0.0, 0.0, 0.0, 0.0)",-0.22200715926400075,-0.8391926082762636,-19.488197112632974,"(0.0, 0.0, 0.0, 0.0, 0.0, 0.0)",3.295349739497939,-0.09714776835574307,2.590534961280482,"(0.0, 0.0, 0.0, 0.0, 0.0, 0.0)",0.25803221970863044,False,,,,,False,,,,
8,Open,,,,,,"[-0.026750000193715096, 0.05299999937415123, 0.03999999910593033]","[0.0, -0.0, 0.8190738875671263]","[-0.07934698462486267, 0.10216865688562393, 0.03999999910593033]","[0.0, -0.0, 0.8190741465287105]","[0.026750000193715096, 0.05299999937415123, 0.03999999910593033]","[0.0, 0.0, -0.839192558822362]","[0.08032548427581787, 0.10110059380531311, 0.03999999910593033]","[0.0, 0.0, -0.9363403253067936]",0.8941664803,18.022227192,"(0.0, 0.0, 0.0, 0.0, 0.0, 0.0)",-2.8824197251771095,4.2009445145371055e-07,4.4918794208634316e-05,"(0.0, 0.0, 0.0, 0.0, 0.0, 0.0)",-0.2005835928406654,-0.9122733474486373,-17.539377401369673,"(0.0, 0.0, 0.0, 0.0, 0.0, 0.0)",2.7804978356880783,-0.0874331700712747,2.33150358827241,"(0.0, 0.0, 0.0, 0.0, 0.0, 0.0)",0.17017621517521792,False,,,,,False,,,,
9,Open,,,,,,"[-0.026750000193715096, 0.05299999937415123, 0.03999999910593033]","[0.0, -0.0, 0.894166469119967]","[-0.08288749307394028, 0.09808415919542313, 0.03999999910593033]","[0.0, -0.0, 0.894166894674561]","[0.026750000193715096, 0.05299999937415123, 0.03999999910593033]","[0.0, 0.0, -0.9122733503889549]","[0.08369457721710205, 0.09706035256385803, 0.03999999910593033]","[0.0, 0.0, -0.9997066729229968]",0.96174983227,16.220004472800003,"(0.0, 0.0, 0.0, 0.0, 0.0, 0.0)",-2.5959652512206968,5.681494863714967e-07,3.553320838026869e-05,"(0.0, 0.0, 0.0, 0.0, 0.0, 0.0)",-0.18114955764248034,-0.9780460127037736,-15.785439661232708,"(0.0, 0.0, 0.0, 0.0, 0.0, 0.0)",2.503992476159733,-0.0786900142246732,2.098357403184359,"(0.0, 0.0, 0.0, 0.0, 0.0, 0.0)",0.15360133560797545,False,,,,,False,,,,
10,Open,,,,,,"[-0.026750000193715096, 0.05299999937415123, 0.03999999910593033]","[0.0, -0.0, 0.9617498658906226]","[-0.08580395579338074, 0.09419016540050507, 0.03999999910593033]","[0.0, -0.0, 0.9617504517765805]","[0.026750000193715096, 0.05299999937415123, 0.03999999910593033]","[0.0, 0.0, -0.9780460255881384]","[0.08646733313798904, 0.09322238713502884, 0.03999999910593033]","[0.0, 0.0, -1.0567360258914282]",1.022574849043,14.598004025520002,"(0.0, 0.0, 0.0, 0.0, 0.0, 0.0)",-2.337816594086846,6.829231533297027e-07,2.7545680069969436e-05,"(0.0, 0.0, 0.0, 0.0, 0.0, 0.0)",-0.16354029854134106,-1.0372414114333963,-14.206895695109438,"(0.0, 0.0, 0.0, 0.0, 0.0, 0.0)",2.2548456713339484,-0.07082115822448021,1.8885254400463192,"(0.0, 0.0, 0.0, 0.0, 0.0, 0.0)",0.13860128234430863,False,,,,,False,,,,
11,Open,,,,,,"[-0.026750000193715096, 0.05299999937415123, 0.03999999910593033]","[0.0, -0.0, 1.0225748785172661]","[-0.08819860219955444, 0.09052424877882004, 0.03999999910593033]","[0.0, -0.0, 1.0225755149967983]","[0.026750000193715096, 0.05299999937415123, 0.03999999910593033]","[0.0, 0.0, -1.037241417801626]","[0.08874232321977615, 0.08961901068687439, 0.03999999910593033]","[0.0, 0.0, -1.1080626941470386]",1.0773173641387,13.138203622968001,"(0.0, 0.0, 0.0, 0.0, 0.0, 0.0)",-2.105207702642618,7.694903593429899e-07,2.0776129443188934e-05,"(0.0, 0.0, 0.0, 0.0, 0.0, 0.0)",-0.14759587787833617,-1.0905172702900567,-12.78620612559849,"(0.0, 0.0, 0.0, 0.0, 0.0, 0.0)",2.0303755786213302,-0.06373917358809339,1.6996763127328351,"(0.0, 0.0, 0.0, 0.0, 0.0, 0.0)",0.1250328149112744,False,,,,,False,,,,
12,Open,,,,,,"[-0.026750000193715096, 0.05299999937415123, 0.03999999910593033]","[0.0, -0.0, 1.0773173786594632]","[-0.09015969932079315, 0.08710587024688721, 0.03999999910593033]","[0.0, -0.0, 1.0773182784199262]","[0.026750000193715096, 0.05299999937415123, 0.03999999910593033]","[0.0, 0.0, -1.090517334189526]","[0.09060435742139816, 0.0862659215927124, 0.03999999910593033]","[0.0, 0.0, -1.1542564269670996]",1.1265856277248298,11.824383260671203,"(0.0, 0.0, 0.0, 0.0, 0.0, 0.0)",-1.895636869852492,8.322629993378343e-07,1.5065433598762668e-05,"(0.0, 0.0, 0.0, 0.0, 0.0, 0.0)",-0.13316806895824274,-1.138465543261051,-11.50758551303864,"(0.0, 0.0, 0.0, 0.0, 0.0, 0.0)",1.828159741200242,-0.05736537454460671,1.5297117704368035,"(0.0, 0.0, 0.0, 0.0, 0.0, 0.0)",0.11276577482950233,False,,,,,False,,,,
13,Open,,,,,,"[-0.026750000193715096, 0.05299999937415123, 0.03999999910593033]","[0.0, -0.0, 1.126585512342968]","[-0.09176240861415863, 0.08394166082143784, 0.03999999910593033]","[0.0, -0.0, 1.1265864725026016]","[0.026750000193715096, 0.05299999937415123, 0.03999999910593033]","[0.0, 0.0, -1.13846552283997]","[0.09212540090084076, 0.08316715806722641, 0.03999999910593033]","[0.0, 0.0, -1.1958309904194953]",1.1709270649523469,10.641944934604087,"(0.0, 0.0, 0.0, 0.0, 0.0, 0.0)",-1.7068426281171958,8.750681698751778e-07,1.0273240928962424e-05,"(0.0, 0.0, 0.0, 0.0, 0.0, 0.0)",-0.12011999884119333,-1.181618988934946,-10.356826961734775,"(0.0, 0.0, 0.0, 0.0, 0.0, 0.0)",1.6460093571929852,-0.051628943774705546,1.376743384776279,"(0.0, 0.0, 0.0, 0.0, 0.0, 0.0)",0.10168054944364863,False,,,,,False,,,,
14,Open,,,,,,"[-0.026750000193715096, 0.05299999937415123, 0.03999999910593033]","[0.0, -0.0, 1.170927100750299]","[-0.09307006001472473, 0.08102945238351822, 0.03999999910593033]","[0.0, -0.0, 1.1709279927689973]","[0.026750000193715096, 0.05299999937415123, 0.03999999910593033]","[0.0, 0.0, -1.181618964677462]","[0.09336595237255096, 0.08031877130270004, 0.03999999910593033]","[0.0, 0.0, -1.233247876832181]",1.2108343584571122,9.577750441143678,"(0.0, 0.0, 0.0, 0.0, 0.0, 0.0)",-1.5367816122769582,9.012180617793662e-07,6.275974057005224e-06,"(0.0, 0.0, 0.0, 0.0, 0.0, 0.0)",-0.1083256720668905,-1.2204570900414513,-9.3211442655613,"(0.0, 0.0, 0.0, 0.0, 0.0, 0.0)",1.4819475463743526,-0.046466145575958295,1.239071567699341,"(0.0, 0.0, 0.0, 0.0, 0.0, 0.0)",0.09166748660725833,False,,,,,False,,,,
15,Open,,,,,,"[-0.026750000193715096, 0.05299999937415123, 0.03999999910593033]","[0.0, -0.0, 1.2108343955497323]","[-0.09413553774356842, 0.07836118340492249, 0.03999999910593033]","[0.0, -0.0, 1.210835255049739]","[0.026750000193715096, 0.05299999937415123, 0.03999999910593033]","[0.0, 0.0, -1.2204571829136446]","[0.09437645971775055, 0.07771158218383789, 0.03999999910593033]","[0.0, 0.0, -1.2669233179031547]",1.2467509226114009,8.619975397029307,"(0.0, 0.0, 0.0, 0.0, 0.0, 0.0)",-1.3836082777937824,9.135722823677317e-07,2.9650129412077397e-06,"(0.0, 0.0, 0.0, 0.0, 0.0, 0.0)",-0.09766941677677543,-1.2554113810373062,-8.38902983900517,"(0.0, 0.0, 0.0, 0.0, 0.0, 0.0)",1.334189480132575,-0.04181961771093252,1.1151666876061868,"(0.0, 0.0, 0.0, 0.0, 0.0, 0.0)",0.08262627878010878,False,,,,,False,,,,
16,Open,,,,,,"[-0.026750000193715096, 0.05299999937415123, 0.03999999910593033]","[0.0, -0.0, 1.2467510110527222]","[-0.09500277042388916, 0.07592508941888809, 0.03999999910593033]","[0.0, -0.0, 1.246751870145374]","[0.026750000193715096, 0.05299999937415123, 0.03999999910593033]","[0.0, 0.0, -1.255411348379259]","[0.09519875049591064, 0.0753331333398819, 0.03999999910593033]","[0.0, 0.0, -1.2972309672073006]",1.2790758303502607,7.757977857326381,"(0.0, 0.0, 0.0, 0.0, 0.0, 0.0)",-1.2456264712746363,2.1141758111398655e-06,0.0002881448469053121,"(0.0, 0.0, 0.0, 0.0, 0.0, 0.0)",-0.088015399348708,-1.2868702429335757,-7.5501268551046525,"(0.0, 0.0, 0.0, 0.0, 0.0, 0.0)",1.2010989712673745,-0.037638748630864464,1.0034085792163332,"(0.0, 0.0, 0.0, 0.0, 0.0, 0.0)",0.07444006052486639,False,,,,,False,,,,
17,Open,,,,,,"[-0.026750000193715096, 0.05299999937415123, 0.03999999910593033]","[0.0, -0.0, 1.2790758758817962]","[-0.09570803493261337, 0.0737072303891182, 0.03999999910593033]","[0.0, -0.0, 1.2790780932516201]","[0.026750000193715096, 0.05299999937415123, 0.03999999910593033]","[0.0, 0.0, -1.2868702529032277]","[0.0958673357963562, 0.07316911965608597, 0.03999999910593033]","[0.0, 0.0, -1.3245087793274308]",1.3081682532711112,6.982181501004109,"(0.0, 0.0, 0.0, 0.0, 0.0, 0.0)",-1.12145472366965,1.9027582300258812e-06,-5.0740219467356254e-05,"(0.0, 0.0, 0.0, 0.0, 0.0, 0.0)",-0.07939114715284208,-1.315183223212741,-6.795115266999686,"(0.0, 0.0, 0.0, 0.0, 0.0, 0.0)",1.0813262344929835,-0.033874873767778015,0.9033299671407473,"(0.0, 0.0, 0.0, 0.0, 0.0, 0.0)",0.06713055017345074,False,,,,,False,,,,
18,Open,,,,,,"[-0.026750000193715096, 0.05299999937415123, 0.03999999910593033]","[0.0, -0.0, 1.3081682459906412]","[-0.09628119319677353, 0.07169260084629059, 0.03999999910593033]","[0.0, -0.0, 1.3081702011658356]","[0.026750000193715096, 0.05299999937415123, 0.03999999910593033]","[0.0, 0.0, -1.3151833180210462]","[0.0964106097817421, 0.07120437920093536, 0.03999999910593033]","[0.0, 0.0, -1.349058153261439]",1.334351427944,6.283961921493333,"(0.0, 0.0, 0.0, 0.0, 0.0, 0.0)",-1.0095234585863413,2.7618377923566443e-06,0.00020617909495938315,"(0.0, 0.0, 0.0, 0.0, 0.0, 0.0)",-0.07148780084672787,-1.3406649008914668,-6.11560264289422,"(0.0, 0.0, 0.0, 0.0, 0.0, 0.0)",0.9733796231570812,-0.030488273507324658,0.8127840625088054,"(0.0, 0.0, 0.0, 0.0, 0.0, 0.0)",0.060435192896783604,False,,,,,False,,,,
19,Open,,,,,,"[-0.026750000193715096, 0.05299999937415123, 0.03999999910593033]","[0.0, -0.0, 1.334351465706577]","[-0.09674673527479172, 0.06986585259437561, 0.03999999910593033]","[0.0, -0.0, 1.33435435145599]","[0.026750000193715096, 0.05299999937415123, 0.03999999910593033]","[0.0, 0.0, -1.3406650641721125]","[0.09685182571411133, 0.06942359358072281, 0.03999999910593033]","[0.0, 0.0, -1.3711530696282732]",1.3579162851496,5.655565729344001,"(0.0, 0.0, 0.0, 0.0, 0.0, 0.0)",-0.9088150211252332,3.4316066113876724e-06,0.0001607445165674468,"(0.0, 0.0, 0.0, 0.0, 0.0, 0.0)",-0.06444344013525093,-1.3635984108023202,-5.504042378604797,"(0.0, 0.0, 0.0, 0.0, 0.0, 0.0)",0.8762522980402716,-0.02744024570882781,0.7315266716392431,"(0.0, 0.0, 0.0, 0.0, 0.0, 0.0)",0.05446985052483407,False,,,,,False,,,,
20,Open,,,,,,"[-0.026750000193715096, 0.05299999937415123, 0.03999999910593033]","[0.0, -0.0, 1.3579163939939654]","[-0.09712471067905426, 0.0682118609547615, 0.03999999910593033]","[0.0, -0.0, 1.3579197824809437]","[0.026750000193715096, 0.05299999937415123, 0.03999999910593033]","[0.0, 0.0, -1.3635984874387626]","[0.09721000492572784, 0.06781173497438431, 0.03999999910593033]","[0.0, 0.0, -1.3910385869420074]",1.37912465663464,5.090009156409601,"(0.0, 0.0, 0.0, 0.0, 0.0, 0.0)",-0.8181093185961676,3.940702417530038e-06,0.0001221829934741677,"(0.0, 0.0, 0.0, 0.0, 0.0, 0.0)",-0.05806034967263589,-1.3842385697220883,-4.953638140744317,"(0.0, 0.0, 0.0, 0.0, 0.0, 0.0)",0.7887791417834831,-0.024696941374704916,0.6583930401894944,"(0.0, 0.0, 0.0, 0.0, 0.0, 0.0)",0.04906644857689494,False,,,,,False,,,,
21,Open,,,,,,"[-0.026750000193715096, 0.05299999937415123, 0.03999999910593033]","[0.0, -0.0, 1.3791247702213432]","[-0.0974314734339714, 0.0667160153388977, 0.03999999910593033]","[0.0, -0.0, 1.3791284782568445]","[0.026750000193715096, 0.05299999937415123, 0.03999999910593033]","[0.0, 0.0, -1.3842387704807777]","[0.09750068932771683, 0.06635437905788422, 0.03999999910593033]","[0.0, 0.0, -1.408935619520831]",1.398212190971176,4.581008240768642,"(0.0, 0.0, 0.0, 0.0, 0.0, 0.0)",-0.7364407507487188,4.314390796743166e-06,8.968521101115077e-05,"(0.0, 0.0, 0.0, 0.0, 0.0, 0.0)",-0.05230389643117988,-1.4028147127498793,-4.458274326669883,"(0.0, 0.0, 0.0, 0.0, 0.0, 0.0)",0.7100243788118592,-0.02222789596809768,0.5925708975857369,"(0.0, 0.0, 0.0, 0.0, 0.0, 0.0)",0.04419507766734469,False,,,,,False,,,,
22,Open,,,,,,"[-0.026750000193715096, 0.05299999937415123, 0.03999999910593033]","[0.0, -0.0, 1.3982120672717784]","[-0.09768038988113403, 0.06536446511745453, 0.03999999910593033]","[0.0, -0.0, 1.3982164487645397]","[0.026750000193715096, 0.05299999937415123, 0.03999999910593033]","[0.0, 0.0, -1.4028147367436141]","[0.09773654490709305, 0.06503787636756897, 0.03999999910593033]","[0.0, 0.0, -1.4250426427007885]",1.4153909718740585,4.122907416691778,"(0.0, 0.0, 0.0, 0.0, 0.0, 0.0)",-0.6629119687698639,4.574523674952359e-06,6.243189077020624e-05,"(0.0, 0.0, 0.0, 0.0, 0.0, 0.0)",-0.04711364623212332,-1.4195332414748913,-4.012446894002898,"(0.0, 0.0, 0.0, 0.0, 0.0, 0.0)",0.6391216750959775,-0.02000569064819732,0.5333292767760867,"(0.0, 0.0, 0.0, 0.0, 0.0, 0.0)",0.039804123486470444,False,,,,,False,,,,
23,Open,,,,,,"[-0.026750000193715096, 0.05299999937415123, 0.03999999910593033]","[0.0, -0.0, 1.415391158105469]","[-0.09788231551647186, 0.06414420157670975, 0.03999999910593033]","[0.0, -0.0, 1.415395709317307]","[0.026750000193715096, 0.05299999937415123, 0.03999999910593033]","[0.0, 0.0, -1.419533200978404]","[0.09792786836624146, 0.06384945660829544, 0.03999999910593033]","[0.0, 0.0, -1.4395389386881268]",1.4308518746866525,3.7106166750225977,"(0.0, 0.0, 0.0, 0.0, 0.0, 0.0)",-0.5967141397561109,4.7399630338636504e-06,3.9705446138709865e-05,"(0.0, 0.0, 0.0, 0.0, 0.0, 0.0)",-0.042434775014060074,-1.4345799173274023,-3.611202204602609,"(0.0, 0.0, 0.0, 0.0, 0.0, 0.0)",0.5752902758042565,-0.018005647771851804,0.4800102903229233,"(0.0, 0.0, 0.0, 0.0, 0.0, 0.0)",0.0358468230863414,False,,,,,False,,,,
24,Open,,,,,,"[-0.026750000193715096, 0.05299999937415123, 0.03999999910593033]","[0.0, -0.0, 1.4308518944899675]","[-0.09804610908031464, 0.06304314732551575, 0.03999999910593033]","[0.0, -0.0, 1.4308566269594332]","[0.026750000193715096, 0.05299999937415123, 0.03999999910593033]","[0.0, 0.0, -1.4345798203875788]","[0.09808305650949478, 0.06277728080749512, 0.03999999910593033]","[0.0, 0.0, -1.4525855975984745]",1.4447666872179874,3.339555007520341,"(0.0, 0.0, 0.0, 0.0, 0.0, 0.0)",-0.5371183361845069,4.8269553674989e-06,2.0878160072459843e-05,"(0.0, 0.0, 0.0, 0.0, 0.0, 0.0)",-0.03821759960562203,-1.448121925594662,-3.2500819841423465,"(0.0, 0.0, 0.0, 0.0, 0.0, 0.0)",0.5178266556878065,-0.016205556838873442,0.4320218239148067,"(0.0, 0.0, 0.0, 0.0, 0.0, 0.0)",0.0322808466635012,False,,,,,False,,,,
25,Open,,,,,,"[-0.026750000193715096, 0.05299999937415123, 0.03999999910593033]","[0.0, -0.0, 1.4447668540021588]","[-0.09817895293235779, 0.06205013021826744, 0.03999999910593033]","[0.0, -0.0, 1.4447715863131299]","[0.026750000193715096, 0.05299999937415123, 0.03999999910593033]","[0.0, 0.0, -1.448121993206969]","[0.09820891171693802, 0.06181041896343231, 0.03999999910593033]","[0.0, 0.0, -1.46432761016298]",1.4572900184961886,3.005599506768304,"(0.0, 0.0, 0.0, 0.0, 0.0, 0.0)",-0.483467731204937,4.849462099751187e-06,5.401615740548756e-06,"(0.0, 0.0, 0.0, 0.0, 0.0, 0.0)",-0.03441712855198442,-1.4603097330351957,-2.925073785728113,"(0.0, 0.0, 0.0, 0.0, 0.0, 0.0)",0.4660969568661882,-0.014585427836986846,0.38883096045278315,"(0.0, 0.0, 0.0, 0.0, 0.0, 0.0)",0.029067900465992856,False,,,,,False,,,,
26,Open,,,,,,"[-0.026750000193715096, 0.05299999937415123, 0.03999999910593033]","[0.0, -0.0, 1.4572900807517244]","[-0.0982866883277893, 0.061154916882514954, 0.03999999910593033]","[0.0, -0.0, 1.4572948921008348]","[0.026750000193715096, 0.05299999937415123, 0.03999999910593033]","[0.0, 0.0, -1.4603097470714805]","[0.09831098467111588, 0.06093886122107506, 0.03999999910593033]","[0.0, 0.0, -1.4748951413427742]",1.4685610166465697,2.705039556091476,"(0.0, 0.0, 0.0, 0.0, 0.0, 0.0)",-0.43517053908893033,4.819450845044722e-06,-7.202701129551542e-06,"(0.0, 0.0, 0.0, 0.0, 0.0, 0.0)",-0.030992645518402973,-1.471278759731676,-2.632566407155304,"(0.0, 0.0, 0.0, 0.0, 0.0, 0.0)",0.4195301522878829,-0.013127269246907155,0.3499580616191257,"(0.0, 0.0, 0.0, 0.0, 0.0, 0.0)",0.02617336062226555,False,,,,,False,,,,
27,Open,,,,,,"[-0.026750000193715096, 0.05299999937415123, 0.03999999910593033]","[0.0, -0.0, 1.4685611215819594]","[-0.09837405383586884, 0.06034812703728676, 0.03999999910593033]","[0.0, -0.0, 1.468565853091142]","[0.026750000193715096, 0.05299999937415123, 0.03999999910593033]","[0.0, 0.0, -1.4712788457263521]","[0.0983937606215477, 0.06015344336628914, 0.03999999910593033]","[0.0, 0.0, -1.4844061039497418]",1.4787049149819127,2.434535600482329,"(0.0, 0.0, 0.0, 0.0, 0.0, 0.0)",-0.39169363303347604,4.747151892642784e-06,-1.7351748576465223e-05,"(0.0, 0.0, 0.0, 0.0, 0.0, 0.0)",-0.02790732436186781,-1.4811508837585086,-2.3693097664397755,"(0.0, 0.0, 0.0, 0.0, 0.0, 0.0)",0.37761186810531283,-0.011814888241968555,0.3149714411852639,"(0.0, 0.0, 0.0, 0.0, 0.0, 0.0)",0.023565936472848985,False,,,,,False,,,,
28,Open,,,,,,"[-0.026750000193715096, 0.05299999937415123, 0.03999999910593033]","[0.0, -0.0, 1.4787049625213984]","[-0.09844490885734558, 0.059621214866638184, 0.03999999910593033]","[0.0, -0.0, 1.4787095898811649]","[0.026750000193715096, 0.05299999937415123, 0.03999999910593033]","[0.0, 0.0, -1.4811508165812142]","[0.09846089035272598, 0.059445831924676895, 0.03999999910593033]","[0.0, 0.0, -1.492965762433775]",1.4878344234837215,2.191082040434097,"(0.0, 0.0, 0.0, 0.0, 0.0, 0.0)",-0.35255677801820895,4.641283838470101e-06,-2.5408333001444004e-05,"(0.0, 0.0, 0.0, 0.0, 0.0, 0.0)",-0.02512787460267613,-1.4900357953826577,-2.132378789795796,"(0.0, 0.0, 0.0, 0.0, 0.0, 0.0)",0.33987880377374147,-0.010633710863257649,0.2834825708906175,"(0.0, 0.0, 0.0, 0.0, 0.0, 0.0)",0.021217361806457186,False,,,,,False,,,,
29,Close,,,"(0.010000165031897679, 0.16000264050809818, 0.003919197399597577)","(-5.388791991209616e-05, 3.3679978815229247e-06, -9.074720008653711e-11)",,"[-0.026750000193715096, 0.05299999937415123, 0.03999999910593033]","[0.0, -0.0, 1.487834617901085]","[-0.09850236773490906, 0.05896640568971634, 0.03999999910593033]","[0.0, -0.0, 1.4878390921106803]","[0.026750000193715096, 0.05299999937415123, 0.03999999910593033]","[0.0, 0.0, -1.4900358577435544]","[0.09851532429456711, 0.05880843847990036, 0.03999999910593033]","[0.0, 0.0, -1.5006695807985118]",1.4960509811353493,1.9719738363906854,"(0.0, 0.0, 0.0, 0.0, 0.0, 0.0)",-0.3173274216127963,4.509251873886308e-06,-3.168767150011037e-05,"(0.0, 0.0, 0.0, 0.0, 0.0, 0.0)",-0.022624215793833224,-1.498032215844392,-1.9191409108162163,"(0.0, 0.0, 0.0, 0.0, 0.0, 0.0)",0.30591369390909257,-0.00957062017308593,0.2551417656412126,"(0.0, 0.0, 0.0, 0.0, 0.0, 0.0)",0.019102112305110365,False,,,,,False,,,,
30,Close,,,"(0.010000330010418335, 0.1600052801621647, 0.0076635160840755065)","(-0.00010776674212266888, 6.7354271463595154e-06, -3.629275205618536e-10)",,"[-0.026750000193715096, 0.05299999937415123, 0.03999999910593033]","[0.0, -0.0, 1.4960509653323988]","[-0.09854896366596222, 0.058376654982566833, 0.03999999910593033]","[0.0, -0.0, 1.4960555203126162]","[0.026750000193715096, 0.05299999937415123, 0.03999999910593033]","[0.0, 0.0, -1.4980320325532246]","[0.09855947643518448, 0.05823439359664917, 0.03999999910593033]","[0.0, 0.0, -1.5076028800413472]",1.4064458830218143,-21.505223547248388,"(0.0, 0.0, 0.0, 0.0, 0.0, 0.0)",-36.32500847077206,-0.08999559064729075,-21.600023975799512,"(0.0, 0.0, 0.0, 0.0, 0.0, 0.0)",-4.679136399120495,-1.4082289942599528,21.552773180265405,"(0.0, 0.0, 0.0, 0.0, 0.0, 0.0)",36.31473208701179,0.08138609105625041,21.82961069504072,"(0.0, 0.0, 0.0, 0.0, 0.0, 0.0)",4.675963213372079,False,,,,,False,,,,
31,Close,,,"(0.010000494936733278, 0.16000791898094055, 0.011233038807318392)","(-0.00016163646818851668, 1.0102287881965475e-05, -8.164490687548302e-10)",,"[-0.026750000193715096, 0.05299999937415123, 0.03999999910593033]","[0.0, -0.0, 1.4064459844712927]","[-0.0977797880768776, 0.06478003412485123, 0.03999999910593033]","[0.0, -0.0, 1.316450240076391]","[0.026750000193715096, 0.05299999937415123, 0.03999999910593033]","[0.0, 0.0, -1.4082291009672807]","[0.09780067950487137, 0.06465335935354233, 0.03999999910593033]","[0.0, 0.0, -1.3268428349863826]",1.325801294719633,-19.354701192523546,"(0.0, 0.0, 0.0, 0.0, 0.0, 0.0)",3.2936342521930255,-0.17099646652613912,-19.44021021092361,"(0.0, 0.0, 0.0, 0.0, 0.0, 0.0)",0.4145426679866387,-1.3274060948339577,19.39749586223887,"(0.0, 0.0, 0.0, 0.0, 0.0, 0.0)",-3.3024243844052092,0.16324791947241268,19.646838819878944,"(0.0, 0.0, 0.0, 0.0, 0.0, 0.0)",-0.41699994760359754,False,,,,,False,,,,
32,Close,,,"(0.010000659812012168, 0.16001055698314023, 0.0146278458391823)","(-0.0002154970996661642, 1.346858017578936e-05, -1.4512199879406586e-09)",,"[-0.026750000193715096, 0.05299999937415123, 0.03999999910593033]","[0.0, -0.0, 1.3258013857525741]","[-0.09659997373819351, 0.07046370953321457, 0.03999999910593033]","[0.0, -0.0, 1.1548048042561467]","[0.026750000193715096, 0.05299999937415123, 0.03999999910593033]","[0.0, 0.0, -1.3274060658778382]","[0.09662791341543198, 0.07035159319639206, 0.03999999910593033]","[0.0, 0.0, -1.1641581075845935]",1.2532211652476697,-17.41923107327119,"(0.0, 0.0, 0.0, 0.0, 0.0, 0.0)",2.9685258329366073,-0.24389721437960032,-17.496179484830687,"(0.0, 0.0, 0.0, 0.0, 0.0, 0.0)",0.3760018756193849,-1.2546654853505619,17.457746276014984,"(0.0, 0.0, 0.0, 0.0, 0.0, 0.0)",-2.976480273609718,0.2369235243908578,17.682145180426822,"(0.0, 0.0, 0.0, 0.0, 0.0, 0.0)",-0.3782508099482112,False,,,,,False,,,,
33,Close,,,"(0.010000824637423049, 0.16001319418745247, 0.017848014970055004)","(-0.00026934863811186216, 1.6834304115272585e-05, -2.2671484573282825e-09)",,"[-0.026750000193715096, 0.05299999937415123, 0.03999999910593033]","[0.0, -0.0, 1.2532212515508983]","[-0.09514966607093811, 0.07548300176858902, 0.03999999910593033]","[0.0, -0.0, 1.0093239867956962]","[0.026750000193715096, 0.05299999937415123, 0.03999999910593033]","[0.0, 0.0, -1.254665405963893]","[0.09518206864595413, 0.07538418471813202, 0.03999999910593033]","[0.0, 0.0, -1.0177419933055243]",1.1878990487229026,-15.677307965944074,"(0.0, 0.0, 0.0, 0.0, 0.0, 0.0)",2.675103284419244,-0.30950785045582774,-15.746552658294572,"(0.0, 0.0, 0.0, 0.0, 0.0, 0.0)",0.34074508229325023,-1.1891989368155058,15.711971648413485,"(0.0, 0.0, 0.0, 0.0, 0.0, 0.0)",-2.6822973218910153,0.30323153162132754,15.913921735312746,"(0.0, 0.0, 0.0, 0.0, 0.0, 0.0)",-0.34279935345822066,False,,,,,False,,,,
34,Close,,,"(0.010000989414132393, 0.1600158306125408, 0.020893621515273818)","(-0.00032319108508158773, 2.0199459787849396e-05, -3.2641426920478403e-09)",,"[-0.026750000193715096, 0.05299999937415123, 0.03999999910593033]","[0.0, -0.0, 1.1878990574339587]","[-0.09353619813919067, 0.07989988476037979, 0.03999999910593033]","[0.0, -0.0, 0.8783912846834516]","[0.026750000193715096, 0.05299999937415123, 0.03999999910593033]","[0.0, 0.0, -1.1891990098250689]","[0.09357111155986786, 0.07981304824352264, 0.03999999910593033]","[0.0, 0.0, -0.8859674697633095]",1.1291091438506125,-14.109577169349663,"(0.0, 0.0, 0.0, 0.0, 0.0, 0.0)",2.4103712722760626,-0.36855738916456426,-14.17188929009676,"(0.0, 0.0, 0.0, 0.0, 0.0, 0.0)",0.3085687115248564,-1.1302790431339553,14.140774483572143,"(0.0, 0.0, 0.0, 0.0, 0.0, 0.0)",-2.4168742890236286,0.36290870417903687,14.322521413850238,"(0.0, 0.0, 0.0, 0.0, 0.0, 0.0)",-0.31044204201279674,False,,,,,False,,,,
35,Close,,,"(0.010001154143305145, 0.16001846627704427, 0.023764738319401603)","(-0.00037702444213104407, 2.3564047280946926e-05, -4.4421109431381166e-09)",,"[-0.026750000193715096, 0.05299999937415123, 0.03999999910593033]","[0.0, -0.0, 1.1291090274464952]","[-0.09184028208255768, 0.08377750217914581, 0.03999999910593033]","[0.0, -0.0, 0.7605517150898052]","[0.026750000193715096, 0.05299999937415123, 0.03999999910593033]","[0.0, 0.0, -1.130279133319625]","[0.09187624603509903, 0.08370133489370346, 0.03999999910593033]","[0.0, 0.0, -0.7673703325611945]",1.0761982294655512,-12.698619452414698,"(0.0, 0.0, 0.0, 0.0, 0.0, 0.0)",2.1715845710489208,-0.42170194324014043,-12.754692978138287,"(0.0, 0.0, 0.0, 0.0, 0.0, 0.0)",0.27924932151422227,-1.07725113882056,12.72669703521493,"(0.0, 0.0, 0.0, 0.0, 0.0, 0.0)",-2.177460276301377,0.41661812854294633,12.890261847338277,"(0.0, 0.0, 0.0, 0.0, 0.0, 0.0)",-0.2809551529003472,False,,,,,False,,,,
36,Close,,,"(0.010001318826104761, 0.16002110119957821, 0.02646143576036139)","(-0.0004308487108156613, 2.692806668198511e-05, -5.800961497533997e-09)",,"[-0.026750000193715096, 0.05299999937415123, 0.03999999910593033]","[0.0, -0.0, 1.076198055145404]","[-0.09012148529291153, 0.08717681467533112, 0.03999999910593033]","[0.0, -0.0, 0.6544962762796218]","[0.026750000193715096, 0.05299999937415123, 0.03999999910593033]","[0.0, 0.0, -1.0772510781061955]","[0.09015743434429169, 0.08711007237434387, 0.03999999910593033]","[0.0, 0.0, -0.6606329452337051]",1.028578406518996,-11.428757507173229,"(0.0, 0.0, 0.0, 0.0, 0.0, 0.0)",1.9562489498726314,-0.46953201391559385,-11.479216962108818,"(0.0, 0.0, 0.0, 0.0, 0.0, 0.0)",0.2525697399559188,-1.0295260249385039,11.454027331693439,"(0.0, 0.0, 0.0, 0.0, 0.0, 0.0)",-1.961555706583625,0.46495658231577774,11.601228905479532,"(0.0, 0.0, 0.0, 0.0, 0.0, 0.0)",-0.25412105363877113,False,,,,,False,,,,
37,Close,,,"(0.010001483463693249, 0.1600237353987347, 0.0289837817534302)","(-0.0004846638926905951, 3.0291518078376737e-05, -7.3406026780539124e-09)",,"[-0.026750000193715096, 0.05299999937415123, 0.03999999910593033]","[0.0, -0.0, 1.028578444789276]","[-0.08842276781797409, 0.09015467017889023, 0.03999999910593033]","[0.0, -0.0, 0.5590464126725148]","[0.026750000193715096, 0.05299999937415123, 0.03999999910593033]","[0.0, 0.0, -1.029526007298545]","[0.08845794945955276, 0.09009620547294617, 0.03999999910593033]","[0.0, 0.0, -0.564569399435659]",0.9857205658670964,-10.285881756455906,"(0.0, 0.0, 0.0, 0.0, 0.0, 0.0)",1.7621005438122825,-0.5125790520819234,-10.331289159919107,"(0.0, 0.0, 0.0, 0.0, 0.0, 0.0)",0.22832149176550065,-0.9865734224446535,10.308624598524094,"(0.0, 0.0, 0.0, 0.0, 0.0, 0.0)",-1.766891708603882,0.508461165120635,10.441099873165749,"(0.0, 0.0, 0.0, 0.0, 0.0, 0.0)",-0.22973068702752517,False,,,,,False,,,,
38,Close,,,"(0.010001648057231211, 0.16002636889308344, 0.03133184175509247)","(-0.0005384699893107284, 3.3654401557527444e-05, -9.06094284338731e-09)",,"[-0.026750000193715096, 0.05299999937415123, 0.03999999910593033]","[0.0, -0.0, 0.9857205423734198]","[-0.08677425980567932, 0.09276290237903595, 0.03999999910593033]","[0.0, -0.0, 0.47314147483112123]","[0.026750000193715096, 0.05299999937415123, 0.03999999910593033]","[0.0, 0.0, -0.9865734261287252]","[0.08680814504623413, 0.09271169453859329, 0.03999999910593033]","[0.0, 0.0, -0.4781122693565934]",0.9471485092803869,-9.257293580810316,"(0.0, 0.0, 0.0, 0.0, 0.0, 0.0)",1.587086438141582,-0.5513213633331018,-9.29815470028281,"(0.0, 0.0, 0.0, 0.0, 0.0, 0.0)",0.206306403170868,-0.9479160802001881,9.277762138671687,"(0.0, 0.0, 0.0, 0.0, 0.0, 0.0)",-1.5914107042435905,0.5476152664096928,9.396984309373877,"(0.0, 0.0, 0.0, 0.0, 0.0, 0.0)",-0.2075852193448244,False,,,,,False,,,,
39,Close,,,"(0.01000181260787789, 0.16002900170117218, 0.03350567876675359)","(-0.00059226700223067, 3.7016717206835695e-05, -1.0961890388082131e-08)",,"[-0.026750000193715096, 0.05299999937415123, 0.03999999910593033]","[0.0, -0.0, 0.9471486716739237]","[-0.08519625663757324, 0.09504801034927368, 0.03999999910593033]","[0.0, -0.0, 0.39582717163487297]","[0.026750000193715096, 0.05299999937415123, 0.03999999910593033]","[0.0, 0.0, -0.9479160840165974]","[0.08522851020097733, 0.09500313550233841, 0.03999999910593033]","[0.0, 0.0, -0.4003008647547732]",0.9124336583523481,-8.331564222729286,"(0.0, 0.0, 0.0, 0.0, 0.0, 0.0)",1.4293465062267445,-0.5861894225076075,-8.368334201881392,"(0.0, 0.0, 0.0, 0.0, 0.0, 0.0)",0.18633757536892917,-0.9131244721801693,8.349985924804516,"(0.0, 0.0, 0.0, 0.0, 0.0, 0.0)",-1.433248242084051,0.5828539364930729,8.45728082001123,"(0.0, 0.0, 0.0, 0.0, 0.0, 0.0)",-0.18749704763631705,False,,,,,False,,,,
40,Close,,,"(0.010001977116791199, 0.1600316338415276, 0.035505353338314005)","(-0.0006460549330047555, 4.037846511369274e-05, -1.3043353742532214e-08)",,"[-0.026750000193715096, 0.05299999937415123, 0.03999999910593033]","[0.0, -0.0, 0.9124336635104583]","[-0.08370164036750793, 0.0970512256026268, 0.03999999910593033]","[0.0, -0.0, 0.3262442150321584]","[0.026750000193715096, 0.05299999937415123, 0.03999999910593033]","[0.0, 0.0, -0.9131245532476111]","[0.08373206108808517, 0.09701187163591385, 0.03999999910593033]","[0.0, 0.0, -0.3302705841133475]",0.8811902925171133,-7.498407800456356,"(0.0, 0.0, 0.0, 0.0, 0.0, 0.0)",1.2871965063691413,-0.6175706567763247,-7.531496224492115,"(0.0, 0.0, 0.0, 0.0, 0.0, 0.0)",0.16823988009592084,-0.8818120249621524,7.514987332324067,"(0.0, 0.0, 0.0, 0.0, 0.0, 0.0)",-1.2907160846573733,0.6145687204653795,7.61154815335357,"(0.0, 0.0, 0.0, 0.0, 0.0, 0.0)",-0.16929032064296096,False,,,,,False,,,,
41,Close,,,"(0.010002141585127773, 0.16003426533265583, 0.03733092357160428)","(-0.0006998337831870475, 4.3739645365482716e-05, -1.5305241372964883e-08)",,"[-0.026750000193715096, 0.05299999937415123, 0.03999999910593033]","[0.0, -0.0, 0.8811903688816151]","[-0.08229776471853256, 0.09880879521369934, 0.03999999910593033]","[0.0, -0.0, 0.2636196251065186]","[0.026750000193715096, 0.05299999937415123, 0.03999999910593033]","[0.0, 0.0, -0.8818121535754343]","[0.08232623338699341, 0.098774254322052, 0.03999999910593033]","[0.0, 0.0, -0.26724331826119446]",0.853071263265402,-6.7485670204107215,"(0.0, 0.0, 0.0, 0.0, 0.0, 0.0)",1.1591124175888132,-0.6458137504217961,-6.77834247491313,"(0.0, 0.0, 0.0, 0.0, 0.0, 0.0)",0.1518500972569631,-0.8536308224659371,6.763488599091658,"(0.0, 0.0, 0.0, 0.0, 0.0, 0.0)",-1.1622865309865396,0.643112008739745,6.850389185847702,"(0.0, 0.0, 0.0, 0.0, 0.0, 0.0)",-0.15280109527428076,False,,,,,False,,,,
42,Close,,,"(0.010002306014043007, 0.16003689619304312, 0.038982445123681576)","(-0.0007536035543313348, 4.7100258049582536e-05, -1.7747461781428295e-08)",,"[-0.026750000193715096, 0.05299999937415123, 0.03999999910593033]","[0.0, -0.0, 0.8530713239495782]","[-0.08098787814378738, 0.10035242885351181, 0.03999999910593033]","[0.0, -0.0, 0.2072574956851119]","[0.026750000193715096, 0.05299999937415123, 0.03999999910593033]","[0.0, 0.0, -0.8536307856313979]","[0.08101436495780945, 0.10032207518815994, 0.03999999910593033]","[0.0, 0.0, -0.21051882644475053]",0.8277641369388617,-6.073710318369648,"(0.0, 0.0, 0.0, 0.0, 0.0, 0.0)",1.043715976216214,-0.6712325191394197,-6.100504492229669,"(0.0, 0.0, 0.0, 0.0, 0.0, 0.0)",0.1370167890019201,-0.8282677402193435,6.0871397391824935,"(0.0, 0.0, 0.0, 0.0, 0.0, 0.0)",-1.0465779375227178,0.6688009525283538,6.165346509266115,"(0.0, 0.0, 0.0, 0.0, 0.0, 0.0)",-0.1378772244212715,False,,,,,False,,,,
43,Close,,,"(0.010002470404691093, 0.16003952644115657, 0.04045997120998789)","(-0.0008073642479911328, 5.0460303253361964e-05, -2.0369923505779015e-08)",,"[-0.026750000193715096, 0.05299999937415123, 0.03999999910593033]","[0.0, -0.0, 0.8277641182932235]","[-0.07977228611707687, 0.10170972347259521, 0.03999999910593033]","[0.0, -0.0, 0.1565316389415725]","[0.026750000193715096, 0.05299999937415123, 0.03999999910593033]","[0.0, 0.0, -0.8282677342123946]","[0.07979680597782135, 0.10168302059173584, 0.03999999910593033]","[0.0, 0.0, -0.1594667900835625]",0.8049877232449756,-5.4663392865326825,"(0.0, 0.0, 0.0, 0.0, 0.0, 0.0)",0.9397613626777375,-0.6941093969081942,-5.49045066450586,"(0.0, 0.0, 0.0, 0.0, 0.0, 0.0)",0.12359998406321729,-0.8054409661974091,5.478425765264244,"(0.0, 0.0, 0.0, 0.0, 0.0, 0.0)",-0.9423413878167864,0.6919209877745929,5.54880845909737,"(0.0, 0.0, 0.0, 0.0, 0.0, 0.0)",-0.12437805104754245,False,,,,,False,,,,
44,Close,,,"(0.010002634758225062, 0.1600421560954447, 0.041763552607370504)","(-0.000861115865719684, 5.381978106418352e-05, -2.3172535119669436e-08)",,"[-0.026750000193715096, 0.05299999937415123, 0.03999999910593033]","[0.0, -0.0, 0.8049877164750058]","[-0.07864919304847717, 0.10290464758872986, 0.03999999910593033]","[0.0, -0.0, 0.11087832859978779]","[0.026750000193715096, 0.05299999937415123, 0.03999999910593033]","[0.0, 0.0, -0.805440964305088]","[0.07867180556058884, 0.10288111865520477, 0.03999999910593033]","[0.0, 0.0, -0.11351997099607207]",0.784488950920478,-4.919705357879415,"(0.0, 0.0, 0.0, 0.0, 0.0, 0.0)",0.8461229797239068,-0.7146985741739192,-4.941402543774016,"(0.0, 0.0, 0.0, 0.0, 0.0, 0.0)",0.11147072977230046,-0.7848968695776682,4.93058318873782,"(0.0, 0.0, 0.0, 0.0, 0.0, 0.0)",-0.8484484528940599,0.7127290066915236,4.993924540063379,"(0.0, 0.0, 0.0, 0.0, 0.0, 0.0)",-0.1121739668696123,False,,,,,False,,,,
45,Close,,,"(0.010002799075796832, 0.16004478517433812, 0.04289323765696492)","(-0.0009148584090699577, 5.7178691569402595e-05, -2.615520523253533e-08)",,"[-0.026750000193715096, 0.05299999937415123, 0.03999999910593033]","[0.0, -0.0, 0.7844889896573499]","[-0.07761538028717041, 0.10395795851945877, 0.03999999910593033]","[0.0, -0.0, 0.06979037514545033]","[0.026750000193715096, 0.05299999937415123, 0.03999999910593033]","[0.0, 0.0, -0.7848969068252226]","[0.07763615995645523, 0.10393720120191574, 0.03999999910593033]","[0.0, 0.0, -0.07216786709232846]",0.7660400558284302,-4.427734822091471,"(0.0, 0.0, 0.0, 0.0, 0.0, 0.0)",0.7617842585328375,-0.7332288222135146,-4.44725952950288,"(0.0, 0.0, 0.0, 0.0, 0.0, 0.0)",0.10051055612556806,-0.7664071826199014,4.437524869864038,"(0.0, 0.0, 0.0, 0.0, 0.0, 0.0)",-0.7638799793048979,0.7314562121459494,4.494529309062177,"(0.0, 0.0, 0.0, 0.0, 0.0, 0.0)",-0.10114588070786824,False,,,,,False,,,,
46,Close,,,"(0.010002963358557236, 0.16004741369625017, 0.04384907226694074)","(-0.0009685918795946493, 6.053703485636736e-05, -2.9317842489583264e-08)",,"[-0.026750000193715096, 0.05299999937415123, 0.03999999910593033]","[0.0, -0.0, 0.7660400058439011]","[-0.07666666060686111, 0.10488764196634293, 0.03999999910593033]","[0.0, -0.0, 0.0328112365488731]","[0.026750000193715096, 0.05299999937415123, 0.03999999910593033]","[0.0, 0.0, -0.7664072421942376]","[0.07668570429086685, 0.1048693135380745, 0.03999999910593033]","[0.0, 0.0, -0.03495097036229706]",0.7494360502455871,-3.984961339882325,"(0.0, 0.0, 0.0, 0.0, 0.0, 0.0)",0.6858274268188955,-0.7499060350622873,-4.002531083705426,"(0.0, 0.0, 0.0, 0.0, 0.0, 0.0)",0.09061088591719418,-0.7497664643579113,3.9937723828776335,"(0.0, 0.0, 0.0, 0.0, 0.0, 0.0)",-0.6877158393779155,0.7483106866034595,4.045073869802414,"(0.0, 0.0, 0.0, 0.0, 0.0, 0.0)",-0.09118463108881669,False,,,,,False,,,,
47,Close,,,"(0.010003127607656072, 0.16005004167957756, 0.04463109991511072)","(-0.0010223162788461832, 6.389481101241881e-05, -3.266035557177819e-08)",,"[-0.026750000193715096, 0.05299999937415123, 0.03999999910593033]","[0.0, -0.0, 0.7494360616149593]","[-0.07579827308654785, 0.1057092696428299, 0.03999999910593033]","[0.0, 0.0, -0.00046998485639781964]","[0.026750000193715096, 0.05299999937415123, 0.03999999910593033]","[0.0, 0.0, -0.7497665229086657]","[0.07581568509340286, 0.10569305717945099, 0.03999999910593033]","[0.0, 0.0, -0.0014557777936095985]",0.7344924452210284,-3.5864652058940925,"(0.0, 0.0, 0.0, 0.0, 0.0, 0.0)",0.6173964503690262,-0.7649166300024903,-3.602542785648727,"(0.0, 0.0, 0.0, 0.0, 0.0, 0.0)",0.08164469448201127,-0.7347898179221202,3.594395144589871,"(0.0, 0.0, 0.0, 0.0, 0.0, 0.0)",-0.61909767957405,0.7634808239898891,3.6408329727431203,"(0.0, 0.0, 0.0, 0.0, 0.0, 0.0)",-0.08216247127692902,False,,,,,False,,,,
48,Close,,,"(0.010003291824242136, 0.16005266914270105, 0.04523936165140331)","(-0.0010760316083767074, 6.725202012489063e-05, -3.618265319583079e-08)",,"[-0.026750000193715096, 0.05299999937415123, 0.03999999910593033]","[0.0, -0.0, 0.7344924171356654]","[-0.07500515878200531, 0.10643631219863892, 0.03999999910593033]","[0.0, 0.0, -0.03042418292779103]","[0.026750000193715096, 0.05299999937415123, 0.03999999910593033]","[0.0, 0.0, -0.7347898072320369]","[0.07502105087041855, 0.10642196238040924, 0.03999999910593033]","[0.0, -0.0, 0.028691003185096618]",0.7210432006989256,-3.227818685304683,"(0.0, 0.0, 0.0, 0.0, 0.0, 0.0)",0.5558325671900768,-0.77842604750784,-3.2422602012839143,"(0.0, 0.0, 0.0, 0.0, 0.0, 0.0)",0.07360992294062317,-0.7213108361299082,3.234955630130884,"(0.0, 0.0, 0.0, 0.0, 0.0, 0.0)",-0.5573653507703412,0.7771338289584356,3.2767211924511668,"(0.0, 0.0, 0.0, 0.0, 0.0, 0.0)",-0.07407739542501454,False,,,,,False,,,,
49,Close,,,"(0.010003456009463264, 0.16005529610398603, 0.04567389610019914)","(-0.0011297378697381003, 7.060866228110946e-05, -3.988464411418517e-08)",,"[-0.026750000193715096, 0.05299999937415123, 0.03999999910593033]","[0.0, -0.0, 0.7210432248946826]","[-0.07428213953971863, 0.10708045959472656, 0.03999999910593033]","[0.0, 0.0, -0.05738284539856889]","[0.026750000193715096, 0.05299999937415123, 0.03999999910593033]","[0.0, 0.0, -0.7213108742429458]","[0.07429660856723785, 0.10706773400306702, 0.03999999910593033]","[0.0, -0.0, 0.0558229905847104]",0.708938880629033,-2.905036816774215,"(0.0, 0.0, 0.0, 0.0, 0.0, 0.0)",0.5003668258645501,-0.7905844163893876,-2.9180085315714246,"(0.0, 0.0, 0.0, 0.0, 0.0, 0.0)",0.06632913423961855,-0.7091797525169173,2.911460067117798,"(0.0, 0.0, 0.0, 0.0, 0.0, 0.0)",-0.5017475327577147,0.7894214258858812,2.9490232625869344,"(0.0, 0.0, 0.0, 0.0, 0.0, 0.0)",-0.06675089596581112,False,,,,,False,,,,
50,Close,,,"(0.010001644182078712, 0.16005595153396976, 0.045940321410535084)","(-0.0011271805217326655, 1.767785898679914e-05, -1.508889111938428e-08)",,"[-0.026750000193715096, 0.05299999937415123, 0.03999999910593033]","[0.0, -0.0, 0.7089389671526269]","[-0.07362406700849533, 0.10765182226896286, 0.03999999910593033]","[0.0, 0.0, -0.08164554069303018]","[0.026750000193715096, 0.05299999937415123, 0.03999999910593033]","[0.0, 0.0, -0.7091797033714331]","[0.0736372321844101, 0.10764053463935852, 0.03999999910593033]","[0.0, -0.0, 0.08024167743029369]",0.6980449925661297,-2.6145331350967917,"(0.0, 0.0, 0.0, 0.0, 0.0, 0.0)",0.4504252929298086,-0.8015268519725993,-2.6261845399708146,"(0.0, 0.0, 0.0, 0.0, 0.0, 0.0)",0.059761147909024356,-0.6982617772652256,2.6203140604060167,"(0.0, 0.0, 0.0, 0.0, 0.0, 0.0)",-0.4516689022418484,0.8004801661036254,2.6540976522586175,"(0.0, 0.0, 0.0, 0.0, 0.0, 0.0)",-0.06014157277442886,False,,,,,False,,,,
51,Close,,,"(0.009998458164918766, 0.16005543218265145, 0.046184544665354044)","(-0.001116587313714928, -4.731063982249702e-05, 3.3486629919706074e-09)",,"[-0.026750000193715096, 0.05299999937415123, 0.03999999910593033]","[0.0, -0.0, 0.6980450466292163]","[-0.07302592694759369, 0.10815921425819397, 0.03999999910593033]","[0.0, 0.0, -0.1034818592301779]","[0.026750000193715096, 0.05299999937415123, 0.03999999910593033]","[0.0, 0.0, -0.6982617371246688]","[0.07303788512945175, 0.10814917832612991, 0.03999999910593033]","[0.0, -0.0, 0.10221840210156648]",0.6882404933095168,-2.3530798215871136,"(0.0, 0.0, 0.0, 0.0, 0.0, 0.0)",0.40545980991383274,-0.8113749570468809,-2.3635452178275753,"(0.0, 0.0, 0.0, 0.0, 0.0, 0.0)",0.0538375991228723,-0.688435599538703,2.358282654365416,"(0.0, 0.0, 0.0, 0.0, 0.0, 0.0)",-0.4065798463491374,0.810432944800545,2.3886668872606847,"(0.0, 0.0, 0.0, 0.0, 0.0, 0.0)",-0.0541806611811555,False,,,,,False,,,,
52,Close,,,"(0.0099979269032565, 0.16005188637635104, 0.04640949954916324)","(-0.0010442772263960227, -5.814874739306873e-05, 7.787963860925158e-09)",,"[-0.026750000193715096, 0.05299999937415123, 0.03999999910593033]","[0.0, -0.0, 0.688240548987758]","[-0.07248289883136749, 0.10861026495695114, 0.03999999910593033]","[0.0, 0.0, -0.12313446206189271]","[0.026750000193715096, 0.05299999937415123, 0.03999999910593033]","[0.0, 0.0, -0.6884356086136862]","[0.07249374687671661, 0.10860133916139603, 0.03999999910593033]","[0.0, -0.0, 0.1219973374555316]",0.679416393078237,-2.117784055507141,"(0.0, 0.0, 0.0, 0.0, 0.0, 0.0)",0.3649762140031281,-0.8202374613421928,-2.12700103087486,"(0.0, 0.0, 0.0, 0.0, 0.0, 0.0)",0.04851286211734207,-0.6795919883598663,2.1224666829208143,"(0.0, 0.0, 0.0, 0.0, 0.0, 0.0)",-0.36598488497268467,0.8193896503204905,2.149609324786922,"(0.0, 0.0, 0.0, 0.0, 0.0, 0.0)",-0.04882227338805697,False,,,,,False,,,,
53,Close,,,"(0.009997966950406065, 0.16004795201914346, 0.046616050094935475)","(-0.0009640430328522325, -5.7324486097668704e-05, 4.2980615420070005e-09)",,"[-0.026750000193715096, 0.05299999937415123, 0.03999999910593033]","[0.0, -0.0, 0.6794163791618646]","[-0.07199041545391083, 0.10901165008544922, 0.03999999910593033]","[0.0, 0.0, -0.1408210743259801]","[0.026750000193715096, 0.05299999937415123, 0.03999999910593033]","[0.0, 0.0, -0.6795920181483843]","[0.07200025022029877, 0.1090037003159523, 0.03999999910593033]","[0.0, -0.0, 0.13979766167419433]",0.6714747537704133,-1.9059934338776885,"(0.0, 0.0, 0.0, 0.0, 0.0, 0.0)",0.3285291326313333,-0.8282143561304102,-1.914454749172182,"(0.0, 0.0, 0.0, 0.0, 0.0, 0.0)",0.043663125146434535,-0.6716327895238797,1.9102077206367922,"(0.0, 0.0, 0.0, 0.0, 0.0, 0.0)",-0.3294374536237565,0.8274513303019508,1.934803195550486,"(0.0, 0.0, 0.0, 0.0, 0.0, 0.0)",-0.043941831288343336,False,,,,,False,,,,
54,Close,,,"(0.009998107600018924, 0.16004411888380865, 0.0468059782297436)","(-0.0008858309445970004, -5.447527859797503e-05, 4.128601528647624e-08)",,"[-0.026750000193715096, 0.05299999937415123, 0.03999999910593033]","[0.0, -0.0, 0.6714747449539094]","[-0.07154417037963867, 0.10936915874481201, 0.03999999910593033]","[0.0, 0.0, -0.15673960659097733]","[0.026750000193715096, 0.05299999937415123, 0.03999999910593033]","[0.0, 0.0, -0.6716327690441329]","[0.07155308127403259, 0.10936208069324493, 0.03999999910593033]","[0.0, -0.0, 0.15581855230220754]",0.664327278393372,-1.7153940904899205,"(0.0, 0.0, 0.0, 0.0, 0.0, 0.0)",0.2957170811345372,-0.8353934979980445,-1.7229940482322428,"(0.0, 0.0, 0.0, 0.0, 0.0, 0.0)",0.03934112702889199,-0.6644695105714917,1.7191869485731137,"(0.0, 0.0, 0.0, 0.0, 0.0, 0.0)",-0.2965349881453131,0.8347067784412298,1.7413075534269409,"(0.0, 0.0, 0.0, 0.0, 0.0, 0.0)",-0.039592428071821256,False,,,,,False,,,,
55,Close,,,"(0.009998248644105466, 0.16004048002584464, 0.0469807018618576)","(-0.0008115684428503489, -5.1596750749095254e-05, 7.881188886077776e-08)",,"[-0.026750000193715096, 0.05299999937415123, 0.03999999910593033]","[0.0, -0.0, 0.6643273336690038]","[-0.07114013284444809, 0.10968788713216782, 0.03999999910593033]","[0.0, 0.0, -0.17106622141763456]","[0.026750000193715096, 0.05299999937415123, 0.03999999910593033]","[0.0, 0.0, -0.6644694779113771]","[0.07114819437265396, 0.10968156903982162, 0.03999999910593033]","[0.0, -0.0, 0.17023725548976373]",0.6578945505540348,-1.543854681440929,"(0.0, 0.0, 0.0, 0.0, 0.0, 0.0)",0.2661784897251144,-0.8418546682622772,-1.5506808634158242,"(0.0, 0.0, 0.0, 0.0, 0.0, 0.0)",0.03542959308904228,-0.6580225595143425,1.547268253715802,"(0.0, 0.0, 0.0, 0.0, 0.0, 0.0)",-0.26691494494593054,0.8412366239853526,1.567162930589489,"(0.0, 0.0, 0.0, 0.0, 0.0, 0.0)",-0.035656056287006674,False,,,,,False,,,,
56,Close,,,"(0.009998390752654573, 0.16003702894197389, 0.04714144752999396)","(-0.0007411380797103218, -4.869650481896534e-05, 1.1687517768299383e-07)",,"[-0.026750000193715096, 0.05299999937415123, 0.03999999910593033]","[0.0, -0.0, 0.6578945475257985]","[-0.07077455520629883, 0.1099722608923912, 0.03999999910593033]","[0.0, 0.0, -0.18396012465064338]","[0.026750000193715096, 0.05299999937415123, 0.03999999910593033]","[0.0, 0.0, -0.6580225896942233]","[0.07078184932470322, 0.10996662080287933, 0.03999999910593033]","[0.0, -0.0, 0.18321406389742323]",0.6521050954986313,-1.3894692132968354,"(0.0, 0.0, 0.0, 0.0, 0.0, 0.0)",0.23958744527110798,-0.8476696697618468,-1.395600359896693,"(0.0, 0.0, 0.0, 0.0, 0.0, 0.0)",0.031904902566438624,-0.6522203035629083,1.392541428344221,"(0.0, 0.0, 0.0, 0.0, 0.0, 0.0)",-0.24025052935853647,0.8471134329078756,1.410434141405507,"(0.0, 0.0, 0.0, 0.0, 0.0, 0.0)",-0.032108956045352514,False,,,,,False,,,,
57,Close,,,"(0.009998534235924597, 0.16003375955333046, 0.04728933347451534)","(-0.0006744157946989166, -4.576820860538318e-05, 1.554405829918684e-07)",,"[-0.026750000193715096, 0.05299999937415123, 0.03999999910593033]","[0.0, -0.0, 0.6521051450040646]","[-0.07044398784637451, 0.11022617667913437, 0.03999999910593033]","[0.0, 0.0, -0.19556454293122102]","[0.026750000193715096, 0.05299999937415123, 0.03999999910593033]","[0.0, 0.0, -0.6522203497730787]","[0.07045057415962219, 0.11022114753723145, 0.03999999910593033]","[0.0, -0.0, 0.19489313608724637]",0.6468945859487681,-1.250522291967151,"(0.0, 0.0, 0.0, 0.0, 0.0, 0.0)",0.2156503992603495,-0.8529031244958994,-1.2560291361726517,"(0.0, 0.0, 0.0, 0.0, 0.0, 0.0)",0.02872919688306315,-0.6469982732066174,1.253287285509799,"(0.0, 0.0, 0.0, 0.0, 0.0, 0.0)",-0.2162473971085442,0.8524025140258721,1.2693794683191757,"(0.0, 0.0, 0.0, 0.0, 0.0, 0.0)",-0.02891303657535659,False,,,,,False,,,,
58,Close,,,"(0.009998679410322496, 0.16003066597344334, 0.0474253884764576)","(-0.0006112814540129935, -4.2805404436077314e-05, 1.9447426774393396e-07)",,"[-0.026750000193715096, 0.05299999937415123, 0.03999999910593033]","[0.0, -0.0, 0.6468945636476681]","[-0.07014521211385727, 0.11045306921005249, 0.03999999910593033]","[0.0, 0.0, -0.20600854729134555]","[0.026750000193715096, 0.05299999937415123, 0.03999999910593033]","[0.0, 0.0, -0.6469982503054421]","[0.07015117257833481, 0.11044856905937195, 0.03999999910593033]","[0.0, -0.0, 0.20540423443750838]",0.6422051273538913,-1.125470062770436,"(0.0, 0.0, 0.0, 0.0, 0.0, 0.0)",0.1941029233168818,-0.8576131917611358,-1.1304161436567226,"(0.0, 0.0, 0.0, 0.0, 0.0, 0.0)",0.025868240883426936,-0.6422984458859556,1.1279585569588184,"(0.0, 0.0, 0.0, 0.0, 0.0, 0.0)",-0.19464040126091972,0.8571626447690798,1.1424313783698345,"(0.0, 0.0, 0.0, 0.0, 0.0, 0.0)",-0.026033851694478666,False,,,,,False,,,,
59,Move,,,"(0.009998826598722164, 0.16002774252192944, 0.04755055901421763)","(-0.0005516191299448554, -3.980150267197137e-05, 2.339437659612592e-07)","[0.0, 0.0, 0.0]","[-0.026750000193715096, 0.05299999937415123, 0.03999999910593033]","[0.0, -0.0, 0.6422051137296667]","[-0.0698753148317337, 0.11065594106912613, 0.03999999910593033]","[0.0, 0.0, -0.2154080556264429]","[0.026750000193715096, 0.05299999937415123, 0.03999999910593033]","[0.0, 0.0, -0.6422983956794274]","[0.06988069415092468, 0.1106519103050232, 0.03999999910593033]","[0.0, -0.0, 0.21486417441436167]",0.6379846146185022,-1.0129230564933929,"(0.0, 0.0, 0.0, 0.0, 0.0, 0.0)",0.17470684718642912,-0.8618522144704561,-1.0173654502368856,"(0.0, 0.0, 0.0, 0.0, 0.0, 0.0)",0.023291096758263134,-0.6380686012973601,1.0151627012629356,"(0.0, 0.0, 0.0, 0.0, 0.0, 0.0)",-0.1751907229705418,0.8614467243673204,1.02817910357775,"(0.0, 0.0, 0.0, 0.0, 0.0, 0.0)",-0.023440272040621463,False,,,,,True,"(0.04276013174954747, 0.17974174897294792, 0.02399995643463635)","(-0.9999999990838299, -1.9447426661030803e-07, -4.2805404423670755e-05)",0.0013234533115717422,0.0
60,Move,,,"(0.008699259039732246, 0.1597652061907072, 0.04782485533738502)","(0.0040480273580015685, 0.009650479713711625, 0.017575803187450934)","[-0.0012995675589899183, -0.00026253633122225173, 0.00027429632316738894]","[-0.026750000193715096, 0.05299999937415123, 0.03999999910593033]","[0.0, -0.0, 0.6379846501970732]","[-0.06963159143924713, 0.1108374372124672, 0.03999999910593033]","[0.0, 0.0, -0.22386762157269943]","[0.026750000193715096, 0.05299999937415123, 0.03999999910593033]","[0.0, 0.0, -0.638068602671057]","[0.06963644921779633, 0.11083383113145828, 0.03999999910593033]","[0.0, -0.0, 0.22337816170537766]",0.6141590059460926,-5.718146081378296,"(0.0, 0.0, 0.0, 0.0, 0.0, 0.0)",-6.715100343954984,-0.8614283121995241,0.10173654502368734,"(0.0, 0.0, 0.0, 0.0, 0.0, 0.0)",-0.3723637437215536,-0.6186765363685498,4.654095582914465,"(0.0, 0.0, 0.0, 0.0, 0.0, 0.0)",16.91452213543579,0.8602423878670417,-0.28904076006690205,"(0.0, 0.0, 0.0, 0.0, 0.0, 0.0)",7.026754130549747,False,,,,,True,"(0.041928616181162004, 0.17969877893574898, 0.023999959438538117)","(-0.9999999992078928, -2.3394376620903917e-07, -3.980150265941498e-05)",0.0004918567139684023,94.17969713248019
61,Move,,,"(0.006953428279101256, 0.15936555806379668, 0.04799883027777207)","(0.0036027003309908674, 0.011726089522938334, 0.045571805054608026)","[-0.0030453983196209082, -0.000662184458132764, 0.0004482712635544353]","[-0.026750000193715096, 0.05299999937415123, 0.03999999910593033]","[0.0, -0.0, 0.6141590305095613]","[-0.06824154406785965, 0.11184260249137878, 0.03999999910593033]","[0.0, 0.0, -0.24726930604170874]","[0.026750000193715096, 0.05299999937415123, 0.03999999910593033]","[0.0, 0.0, -0.6186765449450942]","[0.06850694119930267, 0.11165456473827362, 0.03999999910593033]","[0.0, -0.0, 0.24156588090171732]",0.5923752537221402,-5.228100533748595,"(0.0, 0.0, 0.0, 0.0, 0.0, 0.0)",0.6968351830029371,-0.8614707024266173,-0.010173654502368734,"(0.0, 0.0, 0.0, 0.0, 0.0, 0.0)",0.03860943376531379,-0.6008618977467228,4.275513269238477,"(0.0, 0.0, 0.0, 0.0, 0.0, 0.0)",3.1840553339598543,0.8603207379647874,0.018804023458970476,"(0.0, 0.0, 0.0, 0.0, 0.0, 0.0)",2.2071937117843152,False,,,,,True,"(0.03955126028332891, 0.18000420521160232, 0.023999959438538117)","(-0.9999999992078928, -2.3394376620903917e-07, -3.980150265941498e-05)",-4.69285261207243e-06,0.0
62,Move,,,"(0.005232479171843643, 0.15895611509417099, 0.04805192961782931)","(0.0015613319654504138, 0.011710638263295036, 0.07400765980182708)","[-0.004766347426878521, -0.0010716274277584592, 0.0005013706036116755]","[-0.026750000193715096, 0.05299999937415123, 0.03999999910593033]","[0.0, -0.0, 0.5923752994005711]","[-0.0669499859213829, 0.1127324104309082, 0.03999999910593033]","[0.0, 0.0, -0.2690954538189607]","[0.026750000193715096, 0.05299999937415123, 0.03999999910593033]","[0.0, 0.0, -0.6008619062673114]","[0.0674554631114006, 0.11238910257816315, 0.03999999910593033]","[0.0, -0.0, 0.2594588653702835]",0.5711748754471921,-5.088090785987531,"(0.0, 0.0, 0.0, 0.0, 0.0, 0.0)",0.20179723839696584,-0.8614666854136499,0.0009640831121563087,"(0.0, 0.0, 0.0, 0.0, 0.0, 0.0)",0.015124512099487388,-0.5830478441846109,4.27537285490686,"(0.0, 0.0, 0.0, 0.0, 0.0, 0.0)",-0.00040728805220429705,0.8603129289032243,-0.001874174775147154,"(0.0, 0.0, 0.0, 0.0, 0.0, 0.0)",-0.0017677334094061982,False,,,,,True,"(0.03728150083157586, 0.18020972647077313, 0.023999959438538117)","(-0.9999999992078928, -2.3394376620903917e-07, -3.980150265941498e-05)",0.00010136561290409651,0.0
63,Move,,,"(0.003536438132730313, 0.15853702184869162, 0.04798413986117641)","(-0.002178499075898401, 0.009685758062407228, 0.10285468498251224)","[-0.006462388465991851, -0.0014907206732378275, 0.0004335808469587768]","[-0.026750000193715096, 0.05299999937415123, 0.03999999910593033]","[0.0, -0.0, 0.5711748797881039]","[-0.06567469984292984, 0.1135711818933487, 0.03999999910593033]","[0.0, 0.0, -0.2902918330000066]","[0.026750000193715096, 0.05299999937415123, 0.03999999910593033]","[0.0, 0.0, -0.5830479010023177]","[0.06639109551906586, 0.11310476809740067, 0.03999999910593033]","[0.0, -0.0, 0.2772650915613622]",0.5507922484404775,-4.891830481611522,"(0.0, 0.0, 0.0, 0.0, 0.0, 0.0)",0.282294284049585,-0.8614673765775518,-0.00016587933645189224,"(0.0, 0.0, 0.0, 0.0, 0.0, 0.0)",0.019719768305812027,-0.565275293151566,4.265412247930778,"(0.0, 0.0, 0.0, 0.0, 0.0, 0.0)",-0.012306804327906049,0.8603137161198487,0.00018893198985979812,"(0.0, 0.0, 0.0, 0.0, 0.0, 0.0)",-0.0004299034376783175,False,,,,,True,"(0.035014354147368115, 0.18037738642755824, 0.023999959438538117)","(-0.9999999992078928, -2.3394376620903917e-07, -3.980150265941498e-05)",0.0001657852207818292,0.0
64,Move,,,"(0.0033070809685918903, 0.15939336139403074, 0.0480245948749005)","(-0.003221721649284341, 0.008758192496794307, 0.10007245081902345)","[-0.006691745630130274, -0.0006343811278987088, 0.00047403586068286985]","[-0.026750000193715096, 0.05299999937415123, 0.03999999910593033]","[0.0, -0.0, 0.5507922756468575]","[-0.06443209946155548, 0.11435192823410034, 0.03999999910593033]","[0.0, 0.0, -0.31067510738133]","[0.026750000193715096, 0.05299999937415123, 0.03999999910593033]","[0.0, 0.0, -0.5652752430676895]","[0.06531667709350586, 0.11379976570606232, 0.03999999910593033]","[0.0, -0.0, 0.2950384296353975]",0.5330621314256022,-4.255228083570051,"(0.0, 0.0, 0.0, 0.0, 0.0, 0.0)",-63.6841566907319,-0.833899768100212,6.616226034561552,"(0.0, 0.0, 0.0, 0.0, 0.0, 0.0)",-32.0033096547166,-0.5494184347075574,3.805646026562078,"(0.0, 0.0, 0.0, 0.0, 0.0, 0.0)",54.08522476914028,0.834294882877888,-6.244519978070589,"(0.0, 0.0, 0.0, 0.0, 0.0, 0.0)",25.974823871813367,True,"(-0.030827226021807298, 0.18072875671023755, 0.023990313633420805)","(0.9946684597633704, 0.10266861339458756, -0.009685606619977753)",0.00023266339136997558,510.2877732171601,True,"(0.03274929454054999, 0.18050411530517568, 0.023999959438538117)","(-0.9999999992078928, -2.3394376620903917e-07, -3.980150265941498e-05)",0.00018643181396489492,418.4587664295024
65,Move,"(0.0, 0.0, 0.0)","(0.0, -0.0, 0.0)","(0.0031969503873777684, 0.16028143882127593, 0.048054583489053525)","(-0.004372781608329888, 0.007939463136719069, 0.09861198334618497)","[-0.006801876211344396, 0.00025369629934648974, 0.0005040244748358916]","[-0.026750000193715096, 0.05299999937415123, 0.03999999910593033]","[0.0, -0.0, 0.5330621158171134]","[-0.06333845853805542, 0.11501035839319229, 0.03999999910593033]","[0.0, 0.0, -0.30083767855036603]","[0.026750000193715096, 0.05299999937415123, 0.03999999910593033]","[0.0, 0.0, -0.549418426545043]","[0.0643477737903595, 0.11440364271402359, 0.03999999910593033]","[0.0, -0.0, 0.2848764361199625]",0.5161701590322703,-4.054073374399667,"(0.0, 0.0, 0.0, 0.0, 0.0, 0.0)",-68.88180562685734,-0.8061093417891989,6.669702314643141,"(0.0, 0.0, 0.0, 0.0, 0.0, 0.0)",-35.756361121383094,-0.5337544439677235,3.7593577775601132,"(0.0, 0.0, 0.0, 0.0, 0.0, 0.0)",68.77952387616044,0.8075007011486295,-6.430603615022057,"(0.0, 0.0, 0.0, 0.0, 0.0, 0.0)",33.85011913137436,True,"(-0.030386831991674287, 0.18170201039644102, 0.02399124115951112)","(0.9949587688124035, 0.09990167360330966, -0.008758080529661552)",-0.0003521033588324185,534.8399967547618,True,"(0.03245991098360225, 0.1814354915724969, 0.023999959438538117)","(-0.9999999992078928, -2.3394376620903917e-07, -3.980150265941498e-05)",3.895377007335016e-05,524.277520594291
66,Move,"(-0.0006329113924050633, 0.0, 0.0006329113924050633)","(0.0, -0.0, 0.0)","(0.003103231430513846, 0.16109440397195374, 0.048059086996620294)","(-0.004816457762876065, 0.004152668738523914, 0.09477766741003538)","[-0.006895595168208318, 0.0010666614500242921, 0.0005085279824026609]","[-0.026750000193715096, 0.05299999937415123, 0.03999999910593033]","[0.0, -0.0, 0.5161702079325045]","[-0.062285806983709335, 0.11561953276395798, 0.03999999910593033]","[0.0, 0.0, -0.28993919682770425]","[0.026750000193715096, 0.05299999937415123, 0.03999999910593033]","[0.0, 0.0, -0.5337544427276155]","[0.0633813738822937, 0.11498501896858215, 0.03999999910593033]","[0.0, -0.0, 0.27374624928461355]",0.5166144337824271,0.10662594003765413,"(0.0, 0.0, 0.0, 0.0, 0.0, 0.0)",5.0099850593155235,-0.8088825038537306,-0.6655588954876208,"(0.0, 0.0, 0.0, 0.0, 0.0, 0.0)",-0.47721716603763553,-0.5367630675167633,-0.7220696517695289,"(0.0, 0.0, 0.0, 0.0, 0.0, 0.0)",-5.770589790420478,0.8101801193215553,0.6430603615022044,"(0.0, 0.0, 0.0, 0.0, 0.0, 0.0)",0.2689174556793983,True,"(-0.03006166347399304, 0.18265404950541297, 0.023992059860314583)","(0.9951104129424696, 0.09844913561342714, -0.007939379726199769)",-0.0007346128178897825,2.032966651424181,True,"(0.032241548852435555, 0.18236762460912842, 0.023999959438538117)","(-0.9999999992078928, -2.3394376620903917e-07, -3.980150265941498e-05)",-0.00012424112725224057,0.0
67,Move,"(-0.0012658227848101268, 0.0, 0.0012658227848101268)","(0.0, -0.0, 0.0)","(0.00299104626953555, 0.1618606831740617, 0.04799010160200891)","(-0.004597231490493378, -0.0011034665834262765, 0.0901118383148172)","[-0.0070077803291866145, 0.0018329406521322422, 0.0004395425877912751]","[-0.026750000193715096, 0.05299999937415123, 0.03999999910593033]","[0.0, -0.0, 0.5166145167686849]","[-0.06231362372636795, 0.1156037449836731, 0.03999999910593033]","[0.0, 0.0, -0.29226808746388727]","[0.026750000193715096, 0.05299999937415123, 0.03999999910593033]","[0.0, 0.0, -0.5367630711600129]","[0.06356769800186157, 0.11487452685832977, 0.03999999910593033]","[0.0, -0.0, 0.27341709946321935]",0.5155834782114765,-0.24742933702814618,"(0.0, 0.0, 0.0, 0.0, 0.0, 0.0)",-0.43800292005433705,-0.8086052884776332,0.06653169026336148,"(0.0, 0.0, 0.0, 0.0, 0.0, 0.0)",0.03922688130618284,-0.5378748990939655,-0.2668395785285131,"(0.0, 0.0, 0.0, 0.0, 0.0, 0.0)",0.5872813788999373,0.809912204966158,-0.06429944529535936,"(0.0, 0.0, 0.0, 0.0, 0.0, 0.0)",-0.026173802571272643,True,"(-0.029933285562671302, 0.18256153119103405, 0.023995846583237473)","(0.9955033743714912, 0.09463502024329482, -0.004152656803312201)",-0.0006805043496028978,0.0,True,"(0.032450056763315, 0.18226738195973757, 0.023999959438538117)","(-0.9999999992078928, -2.3394376620903917e-07, -3.980150265941498e-05)",9.451939916559619e-07,0.0
68,Move,"(-0.00189873417721519, 0.0, 0.00189873417721519)","(0.0, -0.0, 0.0)","(0.003047841867526279, 0.16241133596298168, 0.04805745509037985)","(-0.003829364837998856, -0.0010296965021172667, 0.08857722302637357)","[-0.006950984731195885, 0.0023835934410522397, 0.0005068960761622152]","[-0.026750000193715096, 0.05299999937415123, 0.03999999910593033]","[0.0, -0.0, 0.515583523079914]","[-0.062249064445495605, 0.11564037203788757, 0.03999999910593033]","[0.0, 0.0, -0.2930218107042829]","[0.026750000193715096, 0.05299999937415123, 0.03999999910593033]","[0.0, 0.0, -0.5378749534978121]","[0.06363647431135178, 0.11483354866504669, 0.03999999910593033]","[0.0, -0.0, 0.2720373088529493]",0.5146525788898885,-0.2234158371811297,"(0.0, 0.0, 0.0, 0.0, 0.0, 0.0)",-1.7751701045478105,-0.8081938668340504,0.09874119445989138,"(0.0, 0.0, 0.0, 0.0, 0.0, 0.0)",-0.9948616871872777,-0.5388273171589728,-0.2285803356017517,"(0.0, 0.0, 0.0, 0.0, 0.0, 0.0)",0.40219706306192143,0.8095662133748053,-0.08303798192466039,"(0.0, 0.0, 0.0, 0.0, 0.0, 0.0)",0.21447841858667607,True,"(-0.029818265423381812, 0.18257373705084873, 0.023995846583237473)","(0.9955033743714912, 0.09463502024329482, -0.004152656803312201)",-0.0005928171916927239,10.806247788187065,True,"(0.0327005998164752, 0.18113245638738212, 0.05600415341676252)","(-0.9955033743714903, -0.0946350202433038, 0.004152656803305648)",-0.00010735624889423535,2.840799822467375
69,Move,"(-0.002531645569620253, 0.0, 0.002531645569620253)","(0.0, -0.0, 0.0)","(0.003098001688042485, 0.16287336843814296, 0.04809503145671813)","(-0.0023024785960652485, -0.0009457406729707746, 0.08688317892882358)","[-0.006900824910679679, 0.0028456259162135122, 0.0005444724425004988]","[-0.026750000193715096, 0.05299999937415123, 0.03999999910593033]","[0.0, -0.0, 0.5146526116667759]","[-0.06219073757529259, 0.11567339301109314, 0.03999999910593033]","[0.0, 0.0, -0.29354128983794464]","[0.026750000193715096, 0.05299999937415123, 0.03999999910593033]","[0.0, 0.0, -0.5388273766318361]","[0.06369534879922867, 0.11479838937520981, 0.03999999910593033]","[0.0, -0.0, 0.27073891694043806]",0.5139618148765187,-0.1657833632087514,"(0.0, 0.0, 0.0, 0.0, 0.0, 0.0)",-0.18733650817806036,-0.8081212029964099,0.017439321033718425,"(0.0, 0.0, 0.0, 0.0, 0.0, 0.0)",-0.14768308471560324,-0.5398037684135152,-0.23434830109017374,"(0.0, 0.0, 0.0, 0.0, 0.0, 0.0)",0.2115325877285615,0.8094756455656219,-0.02173627420400167,"(0.0, 0.0, 0.0, 0.0, 0.0, 0.0)",0.13604443717977374,True,"(-0.029724716142813155, 0.18258499379521773, 0.056001030456279376)","(0.9960790739894676, 0.08846139319371632, 0.0010296963201531055)",-0.0005857102086153866,1.9989903618125233,True,"(0.03284558365998999, 0.18113740854418653, 0.05600415341676252)","(-0.9955033743714903, -0.0946350202433038, 0.004152656803305648)",-9.749797399131613e-05,1.7412523530261848
70,Move,"(-0.0031645569620253164, 0.0, 0.0031645569620253164)","(0.0, -0.0, 0.0)","(0.003153890212294936, 0.16329008253561772, 0.048050180247243314)","(-0.0003691243210718038, 0.00121158058101472, 0.08687678823286636)","[-0.006844936386427228, 0.003262340013688275, 0.0004996212330256808]","[-0.026750000193715096, 0.05299999937415123, 0.03999999910593033]","[0.0, -0.0, 0.5139618677971787]","[-0.062147434800863266, 0.11569786071777344, 0.03999999910593033]","[0.0, 0.0, -0.29415938477280773]","[0.026750000193715096, 0.05299999937415123, 0.03999999910593033]","[0.0, 0.0, -0.5398038174818219]","[0.06375566869974136, 0.11476229131221771, 0.03999999910593033]","[0.0, -0.0, 0.26967186340150356]",0.5134746026280111,-0.11693093964182297,"(0.0, 0.0, 0.0, 0.0, 0.0, 0.0)",0.06888896273013274,-0.8081285145283034,-0.0017547676544299555,"(0.0, 0.0, 0.0, 0.0, 0.0, 0.0)",0.0030757363319870697,-0.5406926059495304,-0.2133210086436392,"(0.0, 0.0, 0.0, 0.0, 0.0, 0.0)",0.03295894805861384,0.8094851106528159,0.002271620926567953,"(0.0, 0.0, 0.0, 0.0, 0.0, 0.0)",0.0046693127097962575,True,"(-0.02963996927559974, 0.18258830816562385, 0.05600094650049121)","(0.9962275847644695, 0.08677387238793556, 0.0009457405319850886)",-0.0005407489609933287,0.0,True,"(0.03297633493024216, 0.1811383154321883, 0.023999053499508788)","(-0.996227584764469, -0.0867738723879401, -0.0009457405319863504)",-0.00010924869655802515,0.0
71,Move,"(-0.00379746835443038, 0.0, 0.00379746835443038)","(0.0, -0.0, 0.0)","(0.003192314076009388, 0.16360640080545819, 0.048035383219525996)","(0.002618591970795958, 0.0011164977657294487, 0.08531379495196827)","[-0.0068065125227127765, 0.0035786582835287406, 0.00048482420530836234]","[-0.026750000193715096, 0.05299999937415123, 0.03999999910593033]","[0.0, -0.0, 0.5134746005801001]","[-0.06211688369512558, 0.11571509391069412, 0.03999999910593033]","[0.0, 0.0, -0.2946539298969702]","[0.026750000193715096, 0.05299999937415123, 0.03999999910593033]","[0.0, 0.0, -0.5406925810838622]","[0.0638105571269989, 0.1147293746471405, 0.03999999910593033]","[0.0, -0.0, 0.2687924881620741]",0.5131839726431446,-0.06975119636796734,"(0.0, 0.0, 0.0, 0.0, 0.0, 0.0)",0.06866161173617624,-0.8081279393516076,0.00013804240698384474,"(0.0, 0.0, 0.0, 0.0, 0.0, 0.0)",0.005091679459731171,-0.5415004189355594,-0.19387511664697854,"(0.0, 0.0, 0.0, 0.0, 0.0, 0.0)",0.027931791103764796,0.8094847272215128,-9.202351274753507e-05,"(0.0, 0.0, 0.0, 0.0, 0.0, 0.0)",0.0017688008106163439,True,"(-0.029576342969166426, 0.1825894628940124, 0.05600094650049121)","(0.9962275847644695, 0.08677387238793556, 0.0009457405319850886)",-0.0004950111824533207,0.0,True,"(0.03308959808809324, 0.1811324398424713, 0.023999053499508788)","(-0.996227584764469, -0.0867738723879401, -0.0009457405319863504)",-3.676320081485962e-05,0.0
72,Move,"(-0.004430379746835442, 0.0, 0.004430379746835442)","(0.0, -0.0, 0.0)","(0.0032098324831999103, 0.16379480945179686, 0.04811175449075679)","(0.0024142678679665, 0.001028048940593804, 0.08403601028542206)","[-0.0067889941155222545, 0.0037670669298674186, 0.0005611954765391558]","[-0.026750000193715096, 0.05299999937415123, 0.03999999910593033]","[0.0, -0.0, 0.5131839810327664]","[-0.062098655849695206, 0.11572537571191788, 0.03999999910593033]","[0.0, 0.0, -0.294943946538893]","[0.026750000193715096, 0.05299999937415123, 0.03999999910593033]","[0.0, 0.0, -0.5415003999183178]","[0.06386040896177292, 0.11469941586256027, 0.03999999910593033]","[0.0, -0.0, 0.26798428328968366]",0.5130831935340788,-0.02418698617580705,"(0.0, 0.0, 0.0, 0.0, 0.0, 0.0)",0.06611586704019631,-0.8081279972228237,-1.3889091846970596e-05,"(0.0, 0.0, 0.0, 0.0, 0.0, 0.0)",0.004712733502106784,-0.542219222691331,-0.1725129013851792,"(0.0, 0.0, 0.0, 0.0, 0.0, 0.0)",0.030974764213319104,0.809484765862779,9.273903881664954e-06,"(0.0, 0.0, 0.0, 0.0, 0.0, 0.0)",0.0022240132823935005,True,"(-0.029538718725832913, 0.18259029756880563, 0.05600094650049121)","(0.9962275847644695, 0.08677387238793556, 0.0009457405319850886)",-0.00043236412107202987,0.0,True,"(0.03319312852770692, 0.18112728858499955, 0.023999053499508788)","(-0.996227584764469, -0.0867738723879401, -0.0009457405319863504)",-2.6712427045463852e-05,0.0
73,Move,"(-0.005063291139240506, 0.0, 0.005063291139240506)","(0.0, -0.0, 0.0)","(0.0032087042198908704, 0.16390324155169012, 0.048181973107602194)","(0.002222156040875765, 0.0009420590918583278, 0.08321113814729987)","[-0.006790122378831294, 0.0038754990297606706, 0.0006314140933845608]","[-0.026750000193715096, 0.05299999937415123, 0.03999999910593033]","[0.0, -0.0, 0.5130831860978033]","[-0.062092334032058716, 0.1157289370894432, 0.03999999910593033]","[0.0, 0.0, -0.2950448017589554]","[0.026750000193715096, 0.05299999937415123, 0.03999999910593033]","[0.0, 0.0, -0.5422192338707333]","[0.06390474736690521, 0.1146727204322815, 0.03999999910593033]","[0.0, -0.0, 0.2672655451207165]",0.5131586769090634,0.018116009996282045,"(0.0, 0.0, 0.0, 0.0, 0.0, 0.0)",0.06140265143328146,-0.8081282834062059,-6.868401174172849e-05,"(0.0, 0.0, 0.0, 0.0, 0.0, 0.0)",0.004385145812295748,-0.5428460342762781,-0.15043478038727634,"(0.0, 0.0, 0.0, 0.0, 0.0, 0.0)",0.03200807919714966,0.8094847619863833,-9.303349474825488e-07,"(0.0, 0.0, 0.0, 0.0, 0.0, 0.0)",0.0022872608702363124,True,"(-0.02952565484759627, 0.1825905760706332, 0.05600094650049121)","(0.9962275847644695, 0.08677387238793556, 0.0009457405319850886)",-0.00038348628647791934,0.0,True,"(0.03328522266380542, 0.18112262295690854, 0.023999053499508788)","(-0.996227584764469, -0.0867738723879401, -0.0009457405319863504)",8.643060898642703e-06,0.0
74,Move,"(-0.00569620253164557, 0.0, 0.00569620253164557)","(0.0, -0.0, 0.0)","(0.0032008540634513236, 0.1639308960991639, 0.04824664157464249)","(0.00204439131458192, 0.0008671912253877566, 0.08300941988969052)","[-0.006797972535270841, 0.0039031535772344472, 0.0006960825604248599]","[-0.026750000193715096, 0.05299999937415123, 0.03999999910593033]","[0.0, -0.0, 0.51315868211894]","[-0.06209706887602806, 0.11572626978158951, 0.03999999910593033]","[0.0, 0.0, -0.2949696230329837]","[0.026750000193715096, 0.05299999937415123, 0.03999999910593033]","[0.0, 0.0, -0.5428459563078796]","[0.06394340097904205, 0.11464942246675491, 0.03999999910593033]","[0.0, -0.0, 0.2666387204412751]",0.5133854493382614,0.054425383007521866,"(0.0, 0.0, 0.0, 0.0, 0.0, 0.0)",0.052725099765233485,-0.8081282547879548,6.868380259614611e-06,"(0.0, 0.0, 0.0, 0.0, 0.0, 0.0)",0.0037772551444785136,-0.5433667338210045,-0.1249678907343412,"(0.0, 0.0, 0.0, 0.0, 0.0, 0.0)",0.0369346523528779,0.8094847623740177,9.30322528192222e-08,"(0.0, 0.0, 0.0, 0.0, 0.0, 0.0)",0.0026407025803641213,True,"(-0.029535417638334956, 0.18259035686705, 0.05600094650049121)","(0.9962275847644695, 0.08677387238793556, 0.0009457405319850886)",-0.0003474913843620414,0.0,True,"(0.033365530376749455, 0.181118501553208, 0.023999053499508788)","(-0.996227584764469, -0.0867738723879401, -0.0009457405319863504)",6.500798301550714e-05,0.0
75,Move,"(-0.006329113924050633, 0.0, 0.006329113924050633)","(0.0, -0.0, 0.0)","(0.003195841397631071, 0.1639385863647741, 0.048305883898610014)","(0.0018830514859186742, 0.0007771022430146526, 0.08300787161382289)","[-0.0068029852010910935, 0.003910843842844652, 0.0007553248843923804]","[-0.026750000193715096, 0.05299999937415123, 0.03999999910593033]","[0.0, -0.0, 0.5133854858422889]","[-0.06211129203438759, 0.11571825295686722, 0.03999999910593033]","[0.0, 0.0, -0.29474281926477086]","[0.026750000193715096, 0.05299999937415123, 0.03999999910593033]","[0.0, 0.0, -0.5433666819304517]","[0.063975490629673, 0.11463004350662231, 0.03999999910593033]","[0.0, -0.0, 0.26611805226677815]",0.513750738876318,0.08766948913358696,"(0.0, 0.0, 0.0, 0.0, 0.0, 0.0)",0.048275325987743166,-0.808128257712885,-7.019832396715761e-07,"(0.0, 0.0, 0.0, 0.0, 0.0, 0.0)",0.003451111664341552,-0.5437756975893653,-0.0981513044065716,"(0.0, 0.0, 0.0, 0.0, 0.0, 0.0)",0.03890049370733164,0.8094847623203354,-1.2883735694731649e-08,"(0.0, 0.0, 0.0, 0.0, 0.0, 0.0)",0.0027812525852913203,True,"(-0.029564807000233957, 0.18258972281041513, 0.05600094650049121)","(0.9962275847644695, 0.08677387238793556, 0.0009457405319850886)",-0.00031957380822741265,0.0,True,"(0.033432240696565065, 0.18111503946961155, 0.023999053499508788)","(-0.996227584764469, -0.0867738723879401, -0.0009457405319863504)",0.00013159673259556336,0.0
76,Move,"(-0.006962025316455696, 0.0, 0.006962025316455696)","(0.0, -0.0, 0.0)","(0.0031911661800754884, 0.16394558988087843, 0.048360368079699144)","(0.0017359113941326264, 0.0006945878872563855, 0.083007149495961)","[-0.0068076604186466765, 0.003917847358948984, 0.0008098090654815107]","[-0.026750000193715096, 0.05299999937415123, 0.03999999910593033]","[0.0, -0.0, 0.5137507640398687]","[-0.06213420256972313, 0.11570532619953156, 0.03999999910593033]","[0.0, 0.0, -0.2943775059759732]","[0.026750000193715096, 0.05299999937415123, 0.03999999910593033]","[0.0, 0.0, -0.5437757632360699]","[0.0640006959438324, 0.1146148145198822, 0.03999999910593033]","[0.0, -0.0, 0.2657090546742081]",0.5142433505363799,0.1182267984148739,"(0.0, 0.0, 0.0, 0.0, 0.0, 0.0)",0.04438385854768084,-0.808128257420392,7.019832448662534e-08,"(0.0, 0.0, 0.0, 0.0, 0.0, 0.0)",0.003173731439496359,-0.5440628969514447,-0.0689278468990776,"(0.0, 0.0, 0.0, 0.0, 0.0, 0.0)",0.042401514503755316,0.8094847623257037,1.2883747402270274e-09,"(0.0, 0.0, 0.0, 0.0, 0.0, 0.0)",0.00303167778308734,True,"(-0.02961214438573545, 0.18258868584976845, 0.05600094650049121)","(0.9962275847644695, 0.08677387238793556, 0.0009457405319850886)",-0.000277290374075075,0.0,True,"(0.033484634549192524, 0.18111229596328215, 0.023999053499508788)","(-0.996227584764469, -0.0867738723879401, -0.0009457405319863504)",0.0001856482509952828,0.0
77,Move,"(-0.00759493670886076, 0.0, 0.00759493670886076)","(0.0, -0.0, 0.0)","(0.0031868435239271724, 0.1639520400900668, 0.04841049046238927)","(0.0016004756437055917, 0.0006189682738782482, 0.08300680692048275)","[-0.006811983074794992, 0.003924297568137364, 0.00085993144817164]","[-0.026750000193715096, 0.05299999937415123, 0.03999999910593033]","[0.0, -0.0, 0.5142434101630299]","[-0.06216508522629738, 0.11568789184093475, 0.03999999910593033]","[0.0, 0.0, -0.29388492948692446]","[0.026750000193715096, 0.05299999937415123, 0.03999999910593033]","[0.0, 0.0, -0.5440629142141753]","[0.06401839107275009, 0.11460411548614502, 0.03999999910593033]","[0.0, -0.0, 0.2654218541607985]",0.514862265444977,0.14853957806330628,"(0.0, 0.0, 0.0, 0.0, 0.0, 0.0)",0.04403647493724338,-0.8081282574496412,-7.019832715116081e-09,"(0.0, 0.0, 0.0, 0.0, 0.0, 0.0)",0.003148897401632142,-0.5442252193852257,-0.03895738410743476,"(0.0, 0.0, 0.0, 0.0, 0.0, 0.0)",0.04349330555182053,0.8094847623251669,-1.2883827338328047e-10,"(0.0, 0.0, 0.0, 0.0, 0.0, 0.0)",0.00310980911433071,True,"(-0.02967598095311, 0.18258726021023142, 0.05600094650049121)","(0.9962275847644695, 0.08677387238793556, 0.0009457405319850886)",-0.00021822066653171947,0.0,True,"(0.03352142804025686, 0.18111035649682516, 0.023999053499508788)","(-0.996227584764469, -0.0867738723879401, -0.0009457405319863504)",0.00022414958976110203,0.0
78,Move,"(-0.008227848101265822, 0.0, 0.008227848101265822)","(0.0, -0.0, 0.0)","(0.0031828600150904354, 0.16395798513910106, 0.04845660108261111)","(0.001475912263729859, 0.0005492295499900613, 0.0830064017649295)","[-0.0068159665836317294, 0.00393024261717162, 0.0009060420683934742]","[-0.026750000193715096, 0.05299999937415123, 0.03999999910593033]","[0.0, -0.0, 0.5148623016241446]","[-0.06220387667417526, 0.11566595733165741, 0.03999999910593033]","[0.0, 0.0, -0.29326600368179273]","[0.026750000193715096, 0.05299999937415123, 0.03999999910593033]","[0.0, 0.0, -0.5442252310612424]","[0.06402838975191116, 0.11459806561470032, 0.03999999910593033]","[0.0, -0.0, 0.2652595722567187]",0.5156074661768338,0.17884817564562144,"(0.0, 0.0, 0.0, 0.0, 0.0, 0.0)",0.044038147418902426,-0.8081282574467163,7.019824721510304e-10,"(0.0, 0.0, 0.0, 0.0, 0.0, 0.0)",0.0031491364361175703,-0.544262659417581,-0.008985607765264258,"(0.0, 0.0, 0.0, 0.0, 0.0, 0.0)",0.043502624543826494,0.8094847623252206,1.2883027977750316e-11,"(0.0, 0.0, 0.0, 0.0, 0.0, 0.0)",0.003110520083227919,True,"(-0.02975618387293382, 0.18258542445659753, 0.05600094650049121)","(0.9962275847644695, 0.08677387238793556, 0.0009457405319850886)",-0.00014246377619708624,0.0,True,"(0.03354222313585163, 0.1811092556544041, 0.023999053499508788)","(-0.996227584764469, -0.0867738723879401, -0.0009457405319863504)",0.00024665718988762223,0.0
79,Move,"(-0.008860759493670885, 0.0, 0.008860759493670885)","(0.0, -0.0, 0.0)","(0.0031791888252029363, 0.16396346546215182, 0.04849902113540043)","(0.0013613432847089828, 0.00048493038412119997, 0.08300596269391902)","[-0.006819637773519228, 0.003935722940222375, 0.000948462121182797]","[-0.026750000193715096, 0.05299999937415123, 0.03999999910593033]","[0.0, -0.0, 0.5156075234870362]","[-0.062250565737485886, 0.11563952267169952, 0.03999999910593033]","[0.0, 0.0, -0.29252081030296784]","[0.026750000193715096, 0.05299999937415123, 0.03999999910593033]","[0.0, 0.0, -0.544262598930729]","[0.06403069198131561, 0.11459667235612869, 0.03999999910593033]","[0.0, -0.0, 0.26522210258192347]",0.516478635611317,0.20908066427597022,"(0.0, 0.0, 0.0, 0.0, 0.0, 0.0)",0.04393547884768807,-0.8081282574470088,-7.01971814009994e-11,"(0.0, 0.0, 0.0, 0.0, 0.0, 0.0)",0.0031419310989641586,-0.5441747371677065,0.02110133996989382,"(0.0, 0.0, 0.0, 0.0, 0.0, 0.0)",0.04367715009601199,0.8094847623252153,-1.2896350654045818e-12,"(0.0, 0.0, 0.0, 0.0, 0.0, 0.0)",0.003123018830705075,True,"(-0.029852750182631803, 0.18258314826552255, 0.05600094650049121)","(0.9962275847644695, 0.08677387238793556, 0.0009457405319850886)",-5.0027251060461626e-05,0.0,True,"(0.033547019545763127, 0.1811090012635596, 0.023999053499508788)","(-0.996227584764469, -0.0867738723879401, -0.0009457405319863504)",0.0002531490934508228,0.0
80,Move,"(-0.00949367088607595, 0.0, 0.00949367088607595)","(0.0, -0.0, 0.0)","(0.0031758055039507378, 0.1639685184591357, 0.04853804607248438)","(0.0012559676710341187, 0.0004256446296142259, 0.08300548862130862)","[-0.006823021094771427, 0.0039407759372062645, 0.0009874870582667478]","[-0.026750000193715096, 0.05299999937415123, 0.03999999910593033]","[0.0, -0.0, 0.5164786418398811]","[-0.06230512261390686, 0.1156085729598999, 0.03999999910593033]","[0.0, 0.0, -0.2916496145907067]","[0.026750000193715096, 0.05299999937415123, 0.03999999910593033]","[0.0, 0.0, -0.5441746733545847]","[0.06402527540922165, 0.11459995061159134, 0.03999999910593033]","[0.0, -0.0, 0.26531003794074204]",0.5174754434727947,0.23923388675465723,"(0.0, 0.0, 0.0, 0.0, 0.0, 0.0)",0.04382829872676414,-0.8081282574469796,7.0183858724703896e-12,"(0.0, 0.0, 0.0, 0.0, 0.0, 0.0)",0.0031344289163995885,-0.5439609400971012,0.05131129694528841,"(0.0, 0.0, 0.0, 0.0, 0.0, 0.0)",0.043863037164843174,0.8094847623252158,1.2789769243681803e-13,"(0.0, 0.0, 0.0, 0.0, 0.0, 0.0)",0.0031363174364656085,True,"(-0.02996563786893139, 0.18258039607206616, 0.05600094650049121)","(0.9962275847644695, 0.08677387238793556, 0.0009457405319850886)",5.902288072825632e-05,0.0,True,"(0.033535755887886154, 0.181109598377648, 0.023999053499508788)","(-0.996227584764469, -0.0867738723879401, -0.0009457405319863504)",0.00024357744105413395,0.0
81,Move,"(-0.010126582278481011, 0.0, 0.010126582278481011)","(0.0, -0.0, 0.0)","(0.0031726874774964235, 0.1639731784950701, 0.04857394768331987)","(0.001159047641489274, 0.0003709818064293234, 0.08300498244020421)","[-0.006826139121225741, 0.0039454359731406485, 0.001023388669102239]","[-0.026750000193715096, 0.05299999937415123, 0.03999999910593033]","[0.0, -0.0, 0.5174754936691857]","[-0.0623675137758255, 0.11557310074567795, 0.03999999910593033]","[0.0, 0.0, -0.290652839522464]","[0.026750000193715096, 0.05299999937415123, 0.03999999910593033]","[0.0, 0.0, -0.543960898938886]","[0.06401211023330688, 0.11460791528224945, 0.03999999910593033]","[0.0, -0.0, 0.26552380765834777]",0.5185975300650926,0.26930078215149256,"(0.0, 0.0, 0.0, 0.0, 0.0, 0.0)",0.04371093714805665,-0.8081282574469825,-7.007727731433988e-13,"(0.0, 0.0, 0.0, 0.0, 0.0, 0.0)",0.0031262232753945683,-0.5436207421792228,0.08164750029079319,"(0.0, 0.0, 0.0, 0.0, 0.0, 0.0)",0.04405373586391146,0.8094847623252157,-1.3322676295501878e-14,"(0.0, 0.0, 0.0, 0.0, 0.0, 0.0)",0.0031499829455149224,True,"(-0.03009480300747036, 0.18257712632227613, 0.05600094650049121)","(0.9962275847644695, 0.08677387238793556, 0.0009457405319850886)",0.00018462210589598773,0.0,True,"(0.03350836627615951, 0.18111104622447483, 0.023999053499508788)","(-0.996227584764469, -0.0867738723879401, -0.0009457405319863504)",0.00021788718757522558,0.0
82,Move,"(-0.010759493670886076, 0.0, 0.010759493670886076)","(0.0, -0.0, 0.0)","(0.003169813948984977, 0.16397747717137096, 0.048606975990643016)","(0.0010699047073142503, 0.00032058159017173685, 0.08300444650444676)","[-0.006829012649737187, 0.003949734649441511, 0.0010564169764253825]","[-0.026750000193715096, 0.05299999937415123, 0.03999999910593033]","[0.0, -0.0, 0.5185975235673999]","[-0.06243770569562912, 0.11553309112787247, 0.03999999910593033]","[0.0, 0.0, -0.2895307501319126]","[0.026750000193715096, 0.05299999937415123, 0.03999999910593033]","[0.0, 0.0, -0.5436207402063241]","[0.06399114429950714, 0.11462058871984482, 0.03999999910593033]","[0.0, -0.0, 0.26586400252143244]",0.5198445058073862,0.29927417815047647,"(0.0, 0.0, 0.0, 0.0, 0.0, 0.0)",0.04358322990448343,-0.8081282574469821,6.927791673660977e-14,"(0.0, 0.0, 0.0, 0.0, 0.0, 0.0)",0.003117302284144783,-0.5431536001662084,0.11211408312345614,"(0.0, 0.0, 0.0, 0.0, 0.0, 0.0)",0.04425055687478429,0.8094847623252157,2.6645352591003757e-15,"(0.0, 0.0, 0.0, 0.0, 0.0, 0.0)",0.003164111612440558,True,"(-0.030240197627389644, 0.18257329159058835, 0.05600094650049121)","(0.9962275847644695, 0.08677387238793556, 0.0009457405319850886)",0.00032670419094216554,0.0,True,"(0.03346478277472893, 0.18111333799312412, 0.023999053499508788)","(-0.996227584764469, -0.0867738723879401, -0.0009457405319863504)",0.00017602004816964802,0.0
83,Move,"(-0.01139240506329114, 0.0, 0.01139240506329114)","(0.0, -0.0, 0.0)","(0.0031671657529213242, 0.1639814435451438, 0.048637360995178465)","(0.0009879147810290263, 0.0002741117735990985, 0.08300388318888986)","[-0.006831660845800841, 0.003953701023214351, 0.0010868019809608317]","[-0.026750000193715096, 0.05299999937415123, 0.03999999910593033]","[0.0, -0.0, 0.5198444235882447]","[-0.06251565366983414, 0.11548854410648346, 0.03999999910593033]","[0.0, 0.0, -0.2882837763575804]","[0.026750000193715096, 0.05299999937415123, 0.03999999910593033]","[0.0, 0.0, -0.5431536351472191]","[0.06396235525608063, 0.11463797837495804, 0.03999999910593033]","[0.0, -0.0, 0.2663311446697474]",0.5212159542119448,0.32914761709405593,"(0.0, 0.0, 0.0, 0.0, 0.0, 0.0)",0.04344621178562898,-0.8081282574469821,-7.993605777301127e-15,"(0.0, 0.0, 0.0, 0.0, 0.0, 0.0)",0.0031077396493124207,-0.5425589402050609,0.14271839067538827,"(0.0, 0.0, 0.0, 0.0, 0.0, 0.0)",0.044458165633713013,0.8094847623252157,-2.117582368135751e-22,"(0.0, 0.0, 0.0, 0.0, 0.0, 0.0)",0.0031790373557545014,True,"(-0.030401769623440454, 0.18256883866005436, 0.05600094650049121)","(0.9962275847644695, 0.08677387238793556, 0.0009457405319850886)",0.0004852010681379671,0.0,True,"(0.03340493492164597, 0.18111646077159996, 0.023999053499508788)","(-0.996227584764469, -0.0867738723879401, -0.0009457405319863504)",0.00011791389011548996,0.0
84,Move,"(-0.012025316455696204, 0.0, 0.012025316455696204)","(0.0, -0.0, 0.0)","(0.0031506826587575807, 0.1639779161119664, 0.04866510895493935)","(0.001032893666626433, 0.00015178769580815213, 0.08315122721278055)","[-0.006848143939964584, 0.003950173590036965, 0.0011145499407217152]","[-0.026750000193715096, 0.05299999937415123, 0.03999999910593033]","[0.0, -0.0, 0.5212159601997716]","[-0.06260132044553757, 0.11543942987918854, 0.03999999910593033]","[0.0, 0.0, -0.28691231557151176]","[0.026750000193715096, 0.05299999937415123, 0.03999999910593033]","[0.0, 0.0, -0.5425589587244151]","[0.06392569839954376, 0.1146600991487503, 0.03999999910593033]","[0.0, -0.0, 0.2669258503173452]",0.5227114341094405,0.35891517539899453,"(0.0, 0.0, 0.0, 0.0, 0.0, 0.0)",0.04330065553969212,-0.8081282574469821,0.0,"(0.0, 0.0, 0.0, 0.0, 0.0, 0.0)",0.0030975903353659246,-0.5418536074914463,0.16927985126751072,"(0.0, 0.0, 0.0, 0.0, 0.0, 0.0)",0.8055492354646484,0.8092012409695213,-0.06804512536665165,"(0.0, 0.0, 0.0, 0.0, 0.0, 0.0)",0.40403633775921194,True,"(-0.030579463110544353, 0.18256370859690169, 0.05600094650049121)","(0.9962275847644695, 0.08677387238793556, 0.0009457405319850886)",0.0006600430260696246,0.0,True,"(0.03332874801989075, 0.18112039554240783, 0.023999053499508788)","(-0.996227584764469, -0.0867738723879401, -0.0009457405319863504)",4.35011150823354e-05,6.046543995798481
85,Move,"(-0.012658227848101266, 0.0, 0.012658227848101266)","(0.0, -0.0, 0.0)","(0.0030667417933613306, 0.16395986487500583, 0.04869108400796733)","(0.0009468499314069012, 0.000143707550367429, 0.08437612040196055)","[-0.006932084805360833, 0.003932122353076384, 0.0011405249937496975]","[-0.026750000193715096, 0.05299999937415123, 0.03999999910593033]","[0.0, -0.0, 0.5227114771959132]","[-0.06269465386867523, 0.1153857484459877, 0.03999999910593033]","[0.0, 0.0, -0.28541679245743123]","[0.026750000193715096, 0.05299999937415123, 0.03999999910593033]","[0.0, 0.0, -0.5418536271993177]","[0.06388219445943832, 0.11468630284070969, 0.03999999910593033]","[0.0, -0.0, 0.267347625428177]",0.5243304674138348,0.38856799305461637,"(0.0, 0.0, 0.0, 0.0, 0.0, 0.0)",0.04314229561796466,-0.8081282574469821,0.0,"(0.0, 0.0, 0.0, 0.0, 0.0, 0.0)",0.0030865490403239036,-0.5410049849385912,0.20366941268522457,"(0.0, 0.0, 0.0, 0.0, 0.0, 0.0)",1.2766123794607251,0.8091264810013528,-0.017942392360442157,"(0.0, 0.0, 0.0, 0.0, 0.0, 0.0)",0.6837322506999624,True,"(-0.03077321867775336, 0.18255783683192947, 0.05600094650049121)","(0.9962275847644695, 0.08677387238793556, 0.0009457405319850886)",0.0008325658040788669,0.0,True,"(0.03325721690674216, 0.18113368938515112, 0.023999053499508788)","(-0.996227584764469, -0.0867738723879401, -0.0009457405319863504)",-1.056682221323231e-05,9.454920009850309
86,Move,"(-0.013291139240506327, 0.0, 0.013291139240506327)","(0.0, -0.0, 0.0)","(0.002963452753450784, 0.16393530562186046, 0.0487149533865373)","(0.001018017564313095, -1.5278179478704907e-05, 0.0857174419139623)","[-0.00703537384527138, 0.003907563099931011, 0.0011643943723196673]","[-0.026750000193715096, 0.05299999937415123, 0.03999999910593033]","[0.0, -0.0, 0.5243303995978227]","[-0.06279561668634415, 0.11532747000455856, 0.03999999910593033]","[0.0, 0.0, -0.2837977970575968]","[0.026750000193715096, 0.05299999937415123, 0.03999999910593033]","[0.0, 0.0, -0.5410049947253042]","[0.06382983922958374, 0.11471778899431229, 0.03999999910593033]","[0.0, -0.0, 0.2681214912516925]",0.5260688957198679,0.41722279344794977,"(0.0, 0.0, 0.0, 0.0, 0.0, 0.0)",0.04170167680369554,-0.8081282574469821,0.0,"(0.0, 0.0, 0.0, 0.0, 0.0, 0.0)",0.0029838463469468762,-0.5400265579047769,0.2348224881154064,"(0.0, 0.0, 0.0, 0.0, 0.0, 0.0)",0.8656367631547861,0.8091038737296251,-0.005425745214627704,"(0.0, 0.0, 0.0, 0.0, 0.0, 0.0)",0.4566850729005238,True,"(-0.03098297176582293, 0.1825511533068217, 0.05600094650049121)","(0.9962275847644695, 0.08677387238793556, 0.0009457405319850886)",0.0009292514947048791,0.0,True,"(0.03315344318361231, 0.18114145896885891, 0.023999053499508788)","(-0.996227584764469, -0.0867738723879401, -0.0009457405319863504)",-9.206250507644023e-06,6.480026085609378
87,Move,"(-0.013924050632911392, 0.0, 0.013924050632911392)","(0.0, -0.0, 0.0)","(0.0028508514571955247, 0.16391870562813105, 0.04873692127552451)","(0.0009357307002559501, -1.2974135116481991e-05, 0.08713035194820075)","[-0.00714797514152664, 0.0038909631062016004, 0.0011863622613068753]","[-0.026750000193715096, 0.05299999937415123, 0.03999999910593033]","[0.0, -0.0, 0.5260688585199812]","[-0.06290391087532043, 0.11526471376419067, 0.03999999910593033]","[0.0, 0.0, -0.28205937840303713]","[0.026750000193715096, 0.05299999937415123, 0.03999999910593033]","[0.0, 0.0, -0.5400264551112636]","[0.06376942992210388, 0.11475404351949692, 0.03999999910593033]","[0.0, -0.0, 0.2690772825413618]",0.5279103002175517,0.4419370794441138,"(0.0, 0.0, 0.0, 0.0, 0.0, 0.0)",0.035989033233181006,-0.8081282574469821,0.0,"(0.0, 0.0, 0.0, 0.0, 0.0, 0.0)",0.0025756964640058114,-0.5389306137284361,0.2630266023217993,"(0.0, 0.0, 0.0, 0.0, 0.0, 0.0)",0.731711183918993,0.8090617637101587,-0.010106404671931465,"(0.0, 0.0, 0.0, 0.0, 0.0, 0.0)",0.3915296720543538,True,"(-0.031208180648072112, 0.18254359883223498, 0.05600094650049121)","(0.9962275847644695, 0.08677387238793556, 0.0009457405319850886)",0.001017783626203909,0.0,True,"(0.03302956405742584, 0.1811483578951304, 0.023999053499508788)","(-0.996227584764469, -0.0867738723879401, -0.0009457405319863504)",-9.890384859388775e-06,5.482506227759326
88,Move,"(-0.014556962025316457, 0.0, 0.014556962025316457)","(0.0, -0.0, 0.0)","(0.0027224523947643633, 0.16390229922969596, 0.048757121251918736)","(0.00086033596411072, -1.096028617623815e-05, 0.08863016206701635)","[-0.007276374203957801, 0.0038745567077665133, 0.0012065622377011032]","[-0.026750000193715096, 0.05299999937415123, 0.03999999910593033]","[0.0, -0.0, 0.5279103282798352]","[-0.06301850825548172, 0.1151980385184288, 0.03999999910593033]","[0.0, 0.0, -0.2802179724077356]","[0.026750000193715096, 0.05299999937415123, 0.03999999910593033]","[0.0, 0.0, -0.5389305720439203]","[0.06370173394680023, 0.11479457467794418, 0.03999999910593033]","[0.0, -0.0, 0.2701311152604523]",0.5298511915859698,0.46581392842034575,"(0.0, 0.0, 0.0, 0.0, 0.0, 0.0)",0.03478029892620474,-0.8081282574469821,0.0,"(0.0, 0.0, 0.0, 0.0, 0.0, 0.0)",0.002489561247367289,-0.5377172864163483,0.29119855490106283,"(0.0, 0.0, 0.0, 0.0, 0.0, 0.0)",0.8055312008713028,0.8090161167476743,-0.01095527099625703,"(0.0, 0.0, 0.0, 0.0, 0.0, 0.0)",0.43691486811811975,True,"(-0.03144671512046938, 0.18253516989673127, 0.05600094650049121)","(0.9962275847644695, 0.08677387238793556, 0.0009457405319850886)",0.0011108229669831856,0.0,True,"(0.03289191134075129, 0.18115646044724312, 0.023999053499508788)","(-0.996227584764469, -0.0867738723879401, -0.0009457405319863504)",-1.0529452834405346e-05,5.6456980044671825
89,Move,"(-0.01518987341772152, 0.0, 0.01518987341772152)","(0.0, -0.0, 0.0)","(0.0025804285293489554, 0.16388522549750864, 0.04877570398263121)","(0.0007912777412714318, -9.28304054902373e-06, 0.09021572444101258)","[-0.007418398069373209, 0.003857482975579196, 0.001225144968413576]","[-0.026750000193715096, 0.05299999937415123, 0.03999999910593033]","[0.0, -0.0, 0.5298511840400787]","[-0.06313915550708771, 0.11512752622365952, 0.03999999910593033]","[0.0, 0.0, -0.2782770841923751]","[0.026750000193715096, 0.05299999937415123, 0.03999999910593033]","[0.0, 0.0, -0.5377173014701855]","[0.063626728951931, 0.11483936756849289, 0.03999999910593033]","[0.0, -0.0, 0.2712988143847288]",0.5318903043776301,0.48938706999845927,"(0.0, 0.0, 0.0, 0.0, 0.0, 0.0)",0.03434623647651061,-0.8081282574469821,0.0,"(0.0, 0.0, 0.0, 0.0, 0.0, 0.0)",0.002458822971811037,-0.5363882472233132,0.3189694063284066,"(0.0, 0.0, 0.0, 0.0, 0.0, 0.0)",0.7904213365687717,0.8089722514403701,-0.010527673753008466,"(0.0, 0.0, 0.0, 0.0, 0.0, 0.0)",0.4314651404359143,True,"(-0.03169811980938073, 0.18252581010536043, 0.05600094650049121)","(0.9962275847644695, 0.08677387238793556, 0.0009457405319850886)",0.001199153721123198,0.0,True,"(0.03273943866628162, 0.18116522824054143, 0.023999053499508788)","(-0.996227584764469, -0.0867738723879401, -0.0009457405319863504)",-8.7342531815993e-06,5.257347745929969
90,Move,"(-0.015822784810126587, 0.0, 0.015822784810126587)","(0.0, -0.0, 0.0)","(0.0024253694796327807, 0.16386693062610563, 0.048792798631633195)","(0.0007282105729242291, -8.069170687338958e-06, 0.09189512897178474)","[-0.007573457119089384, 0.003839188104176189, 0.0012422396174155623]","[-0.026750000193715096, 0.05299999937415123, 0.03999999910593033]","[0.0, -0.0, 0.531890317185979]","[-0.06326576322317123, 0.115053191781044, 0.03999999910593033]","[0.0, 0.0, -0.2762379494337245]","[0.026750000193715096, 0.05299999937415123, 0.03999999910593033]","[0.0, 0.0, -0.5363882876524381]","[0.06354450434446335, 0.11488831788301468, 0.03999999910593033]","[0.0, -0.0, 0.2725840176140378]",0.5340238903323598,0.5120606291351333,"(0.0, 0.0, 0.0, 0.0, 0.0, 0.0)",0.03304706877446871,-0.8081282574469821,0.0,"(0.0, 0.0, 0.0, 0.0, 0.0, 0.0)",0.0023662392135363653,-0.5349459659225517,0.3461475121827596,"(0.0, 0.0, 0.0, 0.0, 0.0, 0.0)",0.7846159691103827,0.8089288151838717,-0.010424701559619467,"(0.0, 0.0, 0.0, 0.0, 0.0, 0.0)",0.43113405035779945,True,"(-0.03196222707549356, 0.18251545105512068, 0.05600094650049121)","(0.9962275847644695, 0.08677387238793556, 0.0009457405319850886)",0.0012847427466554416,0.0,True,"(0.03257200444611452, 0.18117443392702548, 0.023999053499508788)","(-0.996227584764469, -0.0867738723879401, -0.0009457405319863504)",-6.762537106966556e-06,4.833379050724592
91,Move,"(-0.016455696202531643, 0.0, 0.016455696202531643)","(0.0, -0.0, 0.0)","(0.0022575455791610612, 0.16384711845413286, 0.04880852680447571)","(0.0006707992732409402, -7.377732840175314e-06, 0.09367425555935785)","[-0.007741281019561104, 0.0038193759322034115, 0.00125796779025808]","[-0.026750000193715096, 0.05299999937415123, 0.03999999910593033]","[0.0, -0.0, 0.5340238875807799]","[-0.063398078083992, 0.11497514694929123, 0.03999999910593033]","[0.0, 0.0, -0.274104364052466]","[0.026750000193715096, 0.05299999937415123, 0.03999999910593033]","[0.0, 0.0, -0.5349459661513245]","[0.06345520913600922, 0.1149413213133812, 0.03999999910593033]","[0.0, -0.0, 0.27398286037090996]",0.5362486976403525,0.5339537539182704,"(0.0, 0.0, 0.0, 0.0, 0.0, 0.0)",0.03192066840425005,-0.8081282574469821,0.0,"(0.0, 0.0, 0.0, 0.0, 0.0, 0.0)",0.0022860113342747794,-0.5333921401629382,0.37291818230723306,"(0.0, 0.0, 0.0, 0.0, 0.0, 0.0)",0.779705212149392,0.8088864310213159,-0.010172199013414257,"(0.0, 0.0, 0.0, 0.0, 0.0, 0.0)",0.4311394254063734,True,"(-0.032238547349615496, 0.18250403553978117, 0.05600094650049121)","(0.9962275847644695, 0.08677387238793556, 0.0009457405319850886)",0.0013674783433176543,0.0,True,"(0.03239001217209247, 0.18118404699793583, 0.023999053499508788)","(-0.996227584764469, -0.0867738723879401, -0.0009457405319863504)",-4.6164032720402616e-06,4.3514382526610955
92,Move,"(-0.017088607594936706, 0.0, 0.017088607594936706)","(0.0, -0.0, 0.0)","(0.002077206283990047, 0.16382558821796375, 0.04882300030472056)","(0.000618751161808272, -7.257568809715627e-06, 0.09555695036018562)","[-0.007921620314732118, 0.0037978456960343077, 0.0012724412905029264]","[-0.026750000193715096, 0.05299999937415123, 0.03999999910593033]","[0.0, -0.0, 0.5362486988366744]","[-0.06353586912155151, 0.11489345878362656, 0.03999999910593033]","[0.0, 0.0, -0.27187955930655044]","[0.026750000193715096, 0.05299999937415123, 0.03999999910593033]","[0.0, 0.0, -0.5333921701817705]","[0.06335891783237457, 0.11499828100204468, 0.03999999910593033]","[0.0, -0.0, 0.27549428786214647]",0.5385615066892167,0.5550741717273882,"(0.0, 0.0, 0.0, 0.0, 0.0, 0.0)",0.030805307192691846,-0.8081282574469821,0.0,"(0.0, 0.0, 0.0, 0.0, 0.0, 0.0)",0.002206575452279381,-0.531728280491402,0.39932632116871575,"(0.0, 0.0, 0.0, 0.0, 0.0, 0.0)",0.7739351526796624,0.808845303014361,-0.00987072166917678,"(0.0, 0.0, 0.0, 0.0, 0.0, 0.0)",0.43050013987764607,False,,,,,True,"(0.03219363539052909, 0.18119397682233812, 0.023999053499508788)","(-0.996227584764469, -0.0867738723879401, -0.0009457405319863504)",-2.2675529348336937e-06,3.82560507131033
93,Move,"(-0.017088607594936706, 0.0, 0.017088607594936706)","(0.0, -0.0, 0.0)","(0.0018890549317002723, 0.1638301523039354, 0.048791191666970754)","(-0.0009166127840394334, -4.657099585926075e-06, 0.09816323301888569)","[-0.008109771667021893, 0.0038024097820059666, 0.0012406326527531208]","[-0.026750000193715096, 0.05299999937415123, 0.03999999910593033]","[0.0, -0.0, 0.5385615382596818]","[-0.06367892026901245, 0.11480820924043655, 0.03999999910593033]","[0.0, 0.0, -0.26956680177754005]","[0.026750000193715096, 0.05299999937415123, 0.03999999910593033]","[0.0, 0.0, -0.5317282854378428]","[0.06325571238994598, 0.11505910754203796, 0.03999999910593033]","[0.0, -0.0, 0.27711701137360545]",0.5409590657593725,0.5754141768374047,"(0.0, 0.0, 0.0, 0.0, 0.0, 0.0)",0.02967857703826119,-0.8081282574469821,0.0,"(0.0, 0.0, 0.0, 0.0, 0.0, 0.0)",0.002126328042564708,-0.5299548210097565,0.42563027559490774,"(0.0, 0.0, 0.0, 0.0, 0.0, 0.0)",0.36920617343582934,0.8088379268841651,-0.0017702712469926194,"(0.0, 0.0, 0.0, 0.0, 0.0, 0.0)",0.19176002519818486,False,,,,,True,"(0.03198316785435814, 0.18120291706882444, 0.03589979598267584)","(-0.9954376344279825, -0.0954144430093243, -5.444504985624629e-06)",-9.567450456082315e-06,2.6344899848443735
