OSUrobotics/InHand-Manipulation/AnalyseData/Data/Trial Data/Better/new_hand_human_sub1_2v2_d_n_1_kpNone_kdNone_dp1_step1_save_data.csv
,Phase,human_cube_pos,human_cube_orn,Cube_Pos,Cube_Orn,Cube_pos_in_start_pos,b'l_prox_pin'_link_pos,b'l_prox_pin'_link_orn,b'l_distal_pin'_link_pos,b'l_distal_pin'_link_orn,b'r_prox_pin'_link_pos,b'r_prox_pin'_link_orn,b'r_distal_pin'_link_pos,b'r_distal_pin'_link_orn,b'l_prox_pin'_joint_angle,b'l_prox_pin'_joint_vel,b'l_prox_pin'_joint_react_forces,b'l_prox_pin'_joint_motor_torque,b'l_distal_pin'_joint_angle,b'l_distal_pin'_joint_vel,b'l_distal_pin'_joint_react_forces,b'l_distal_pin'_joint_motor_torque,b'r_prox_pin'_joint_angle,b'r_prox_pin'_joint_vel,b'r_prox_pin'_joint_react_forces,b'r_prox_pin'_joint_motor_torque,b'r_distal_pin'_joint_angle,b'r_distal_pin'_joint_vel,b'r_distal_pin'_joint_react_forces,b'r_distal_pin'_joint_motor_torque,in_contact_l,contact_point_l_dist,contact_normal_l_dist,contact_distance_l_dist,contact_norm_force_l_dist,in_contact_r,contact_point_r_dist,contact_normal_r_dist,contact_distance_r_dist,contact_norm_force_r_dist
0,Open,,,,,,"[-0.026750000193715096, 0.05299999937415123, 0.03999999910593033]","[0.0, -0.0, 0.0]","[-0.026750000193715096, 0.125, 0.03999999910593033]","[0.0, -0.0, 0.0]","[0.026750000193715096, 0.05299999937415123, 0.03999999910593033]","[0.0, -0.0, 0.0]","[0.026750000193715096, 0.125, 0.03999999910593033]","[0.0, -0.0, 0.0]",0.0028636982559538428,0.6872875814289223,"(0.0, 0.0, 0.0, 0.0, 0.0, 0.0)",-74.42376671286476,0.025717978913313098,6.172314939195144,"(0.0, 0.0, 0.0, 0.0, 0.0, 0.0)",-28.347758017338414,-0.0028861714462846827,-0.6926811471083238,"(0.0, 0.0, 0.0, 0.0, 0.0, 0.0)",77.31812537484876,-0.025998027583603027,-6.239526620064726,"(0.0, 0.0, 0.0, 0.0, 0.0, 0.0)",29.325432325549183,False,,,,,False,,,,
1,Open,,,,,,"[-0.026750000193715096, 0.05299999937415123, 0.03999999910593033]","[0.0, -0.0, 0.0028636982488144678]","[-0.026956185698509216, 0.12499970197677612, 0.03999999910593033]","[0.0, -0.0, 0.028581675581217755]","[0.026750000193715096, 0.05299999937415123, 0.03999999910593033]","[0.0, 0.0, -0.0028861714423951343]","[0.026957804337143898, 0.12499970197677612, 0.03999999910593033]","[0.0, 0.0, -0.028884201286240394]",0.1595773284303585,37.61127124185712,"(0.0, 0.0, 0.0, 0.0, 0.0, 0.0)",53.472225824972774,0.02314589095046895,-0.6173011110825959,"(0.0, 0.0, 0.0, 0.0, 0.0, 0.0)",3.3014509125464437,-0.15959755430165623,-37.61073188528917,"(0.0, 0.0, 0.0, 0.0, 0.0, 0.0)",-53.45543824447724,-0.023397935520559333,0.6240220951304867,"(0.0, 0.0, 0.0, 0.0, 0.0, 0.0)",-3.2927232380167535,False,,,,,False,,,,
2,Open,,,,,,"[-0.026750000193715096, 0.05299999937415123, 0.03999999910593033]","[0.0, -0.0, 0.15957730699277592]","[-0.03819086775183678, 0.1240852028131485, 0.03999999910593033]","[0.0, -0.0, 0.1827232399786182]","[0.026750000193715096, 0.05299999937415123, 0.03999999910593033]","[0.0, 0.0, -0.15959754249378824]","[0.03819230571389198, 0.12408497184515, 0.03999999910593033]","[0.0, 0.0, -0.1829954723320542]",0.30061959558732265,33.8501441176714,"(0.0, 0.0, 0.0, 0.0, 0.0, 0.0)",-5.433290843096747,0.020831748867960086,-0.555394099802127,"(0.0, 0.0, 0.0, 0.0, 0.0, 0.0)",-0.37949999689540415,-0.30063779887149056,-33.849658696760244,"(0.0, 0.0, 0.0, 0.0, 0.0, 0.0)",5.433149501288634,-0.02105858889910766,0.5614431891484022,"(0.0, 0.0, 0.0, 0.0, 0.0, 0.0)",0.37943043762158307,False,,,,,False,,,,
3,Open,,,,,,"[-0.026750000193715096, 0.05299999937415123, 0.03999999910593033]","[0.0, -0.0, 0.30061964608852465]","[-0.048070069402456284, 0.12177103012800217, 0.03999999910593033]","[0.0, -0.0, 0.3214513597309629]","[0.026750000193715096, 0.05299999937415123, 0.03999999910593033]","[0.0, 0.0, -0.30063782483534385]","[0.04807132109999657, 0.12177064269781113, 0.03999999910593033]","[0.0, 0.0, -0.32169639446592324]",0.4275576360285904,30.465129705904268,"(0.0, 0.0, 0.0, 0.0, 0.0, 0.0)",-4.896562760502833,0.018748978964657985,-0.49986477679250463,"(0.0, 0.0, 0.0, 0.0, 0.0, 0.0)",-0.3438186216350169,-0.4275740189843415,-30.464692827084228,"(0.0, 0.0, 0.0, 0.0, 0.0, 0.0)",4.8964345239877005,-0.018953134917884834,0.505308955493478,"(0.0, 0.0, 0.0, 0.0, 0.0, 0.0)",0.34375511365495653,False,,,,,False,,,,
4,Open,,,,,,"[-0.026750000193715096, 0.05299999937415123, 0.03999999910593033]","[0.0, -0.0, 0.42755761853039154]","[-0.056604765355587006, 0.1185186430811882, 0.03999999910593033]","[0.0, -0.0, 0.4463066270391506]","[0.026750000193715096, 0.05299999937415123, 0.03999999910593033]","[0.0, 0.0, -0.42757404208311445]","[0.05660583823919296, 0.1185181587934494, 0.03999999910593033]","[0.0, 0.0, -0.4465272228574986]",0.5418018724257314,27.418616735313837,"(0.0, 0.0, 0.0, 0.0, 0.0, 0.0)",-4.412236817968903,0.016874447698417276,-0.44988750389777044,"(0.0, 0.0, 0.0, 0.0, 0.0, 0.0)",-0.3112578673856835,-0.5418166170859073,-27.418223544375806,"(0.0, 0.0, 0.0, 0.0, 0.0, 0.0)",4.412120589674461,-0.017058187988154127,0.4547872631353701,"(0.0, 0.0, 0.0, 0.0, 0.0, 0.0)",0.31119999541872967,False,,,,,False,,,,
5,Open,,,,,,"[-0.026750000193715096, 0.05299999937415123, 0.03999999910593033]","[0.0, -0.0, 0.5418019400761332]","[-0.06387900561094284, 0.11468822509050369, 0.03999999910593033]","[0.0, -0.0, 0.5586763123738882]","[0.026750000193715096, 0.05299999937415123, 0.03999999910593033]","[0.0, 0.0, -0.5418166677071254]","[0.06387991458177567, 0.11468767374753952, 0.03999999910593033]","[0.0, 0.0, -0.5588748551425957]",0.6446216851831583,24.67675506178245,"(0.0, 0.0, 0.0, 0.0, 0.0, 0.0)",-3.975330693632137,0.015187334633278446,-0.4049071356333192,"(0.0, 0.0, 0.0, 0.0, 0.0, 0.0)",-0.2816071653694913,-0.6446349553773166,-24.67640118993823,"(0.0, 0.0, 0.0, 0.0, 0.0, 0.0)",3.975225427671302,-0.01535270083200906,0.409316917474816,"(0.0, 0.0, 0.0, 0.0, 0.0, 0.0)",0.28155450162657786,False,,,,,False,,,,
6,Open,,,,,,"[-0.026750000193715096, 0.05299999937415123, 0.03999999910593033]","[0.0, -0.0, 0.6446216983098856]","[-0.07001452147960663, 0.11055155843496323, 0.03999999910593033]","[0.0, -0.0, 0.6598089287160823]","[0.026750000193715096, 0.05299999937415123, 0.03999999910593033]","[0.0, 0.0, -0.644634967879878]","[0.07001528143882751, 0.11055097728967667, 0.03999999910593033]","[0.0, 0.0, -0.6599877329949964]",0.7371595166648425,22.209079555604205,"(0.0, 0.0, 0.0, 0.0, 0.0, 0.0)",-3.5812948349547464,0.013668901111545678,-0.3644240452158641,"(0.0, 0.0, 0.0, 0.0, 0.0, 0.0)",-0.25464125660078457,-0.737171459839585,-22.20876107094441,"(0.0, 0.0, 0.0, 0.0, 0.0, 0.0)",3.5811995605906057,-0.01381773063402154,0.3683928475170044,"(0.0, 0.0, 0.0, 0.0, 0.0, 0.0)",0.2545933902665499,False,,,,,False,,,,
7,Open,,,,,,"[-0.026750000193715096, 0.05299999937415123, 0.03999999910593033]","[0.0, -0.0, 0.7371595400859692]","[-0.07514750957489014, 0.10630742460489273, 0.03999999910593033]","[0.0, -0.0, 0.7508283868993905]","[0.026750000193715096, 0.05299999937415123, 0.03999999910593033]","[0.0, 0.0, -0.7371714711336782]","[0.07514814287424088, 0.10630684345960617, 0.03999999910593033]","[0.0, 0.0, -0.750989167509555]",0.8204435649983582,19.988171600043785,"(0.0, 0.0, 0.0, 0.0, 0.0, 0.0)",-3.2259980823944012,0.01230228208777883,-0.32798856570404317,"(0.0, 0.0, 0.0, 0.0, 0.0, 0.0)",-0.23014491551259536,-0.8204543138556265,-19.987884963849964,"(0.0, 0.0, 0.0, 0.0, 0.0, 0.0)",3.225911902119173,-0.012436228606816148,0.33156048652929415,"(0.0, 0.0, 0.0, 0.0, 0.0, 0.0)",0.23010145595163894,False,,,,,False,,,,
8,Open,,,,,,"[-0.026750000193715096, 0.05299999937415123, 0.03999999910593033]","[0.0, -0.0, 0.8204435774406766]","[-0.07941428571939468, 0.1020965725183487, 0.03999999910593033]","[0.0, -0.0, 0.8327459142786269]","[0.026750000193715096, 0.05299999937415123, 0.03999999910593033]","[0.0, 0.0, -0.8204543695347751]","[0.07941480726003647, 0.10209600627422333, 0.03999999910593033]","[0.0, 0.0, -0.8328905496331522]",0.8953992084985224,17.9893544400394,"(0.0, 0.0, 0.0, 0.0, 0.0, 0.0)",-2.905692777507757,0.011072298781000885,-0.2951959936267068,"(0.0, 0.0, 0.0, 0.0, 0.0, 0.0)",-0.20791432075989408,-0.8954088824700639,-17.989096467464968,"(0.0, 0.0, 0.0, 0.0, 0.0, 0.0)",2.9056148642503405,-0.011192850601700187,0.29841072122783063,"(0.0, 0.0, 0.0, 0.0, 0.0, 0.0)",0.20787489947010138,False,,,,,False,,,,
9,Open,,,,,,"[-0.026750000193715096, 0.05299999937415123, 0.03999999910593033]","[0.0, -0.0, 0.8953992050914552]","[-0.08294302970170975, 0.09801492840051651, 0.03999999910593033]","[0.0, -0.0, 0.9064715399310761]","[0.026750000193715096, 0.05299999937415123, 0.03999999910593033]","[0.0, 0.0, -0.8954089117450801]","[0.08294346183538437, 0.09801438450813293, 0.03999999910593033]","[0.0, 0.0, -0.9066016844299951]",0.9628592876486701,16.190418996035465,"(0.0, 0.0, 0.0, 0.0, 0.0, 0.0)",-2.616982039675733,0.009965290062605858,-0.26568209241480656,"(0.0, 0.0, 0.0, 0.0, 0.0, 0.0)",-0.18775783729375353,-0.9628679942230576,-16.190186820718473,"(0.0, 0.0, 0.0, 0.0, 0.0, 0.0)",2.6169116334278195,-0.010073786659150813,0.26857534621184953,"(0.0, 0.0, 0.0, 0.0, 0.0, 0.0)",0.187722108909745,False,,,,,False,,,,
10,Open,,,,,,"[-0.026750000193715096, 0.05299999937415123, 0.03999999910593033]","[0.0, -0.0, 0.9628592963772022]","[-0.08584962040185928, 0.09412462264299393, 0.03999999910593033]","[0.0, -0.0, 0.9728246761305416]","[0.026750000193715096, 0.05299999937415123, 0.03999999910593033]","[0.0, 0.0, -0.9628681466677605]","[0.08584997802972794, 0.09412410855293274, 0.03999999910593033]","[0.0, 0.0, -0.9729417790417357]",1.0235733588838032,14.57137709643192,"(0.0, 0.0, 0.0, 0.0, 0.0, 0.0)",-2.356789246056587,0.008968960705874744,-0.23911904561546746,"(0.0, 0.0, 0.0, 0.0, 0.0, 0.0)",-0.16949635495257384,-1.0235811948007518,-14.571168138646623,"(0.0, 0.0, 0.0, 0.0, 0.0, 0.0)",2.3567256501387286,-0.009066607604651448,0.24172297307984775,"(0.0, 0.0, 0.0, 0.0, 0.0, 0.0)",0.16946399753760524,False,,,,,False,,,,
11,Open,,,,,,"[-0.026750000193715096, 0.05299999937415123, 0.03999999910593033]","[0.0, -0.0, 1.0235732790301837]","[-0.08823604136705399, 0.09046287834644318, 0.03999999910593033]","[0.0, -0.0, 1.0325423083164225]","[0.026750000193715096, 0.05299999937415123, 0.03999999910593033]","[0.0, 0.0, -1.0235812274279317]","[0.08823633193969727, 0.09046239405870438, 0.03999999910593033]","[0.0, 0.0, -1.0326479037372749]",1.078216022995423,13.114239386788727,"(0.0, 0.0, 0.0, 0.0, 0.0, 0.0)",-2.1223296975724493,0.008072244810550301,-0.215211814877866,"(0.0, 0.0, 0.0, 0.0, 0.0, 0.0)",-0.1529632973210469,-1.0782230753206767,-13.114051324781958,"(0.0, 0.0, 0.0, 0.0, 0.0, 0.0)",2.122272274708909,-0.008160126984954354,0.21755534872730237,"(0.0, 0.0, 0.0, 0.0, 0.0, 0.0)",0.15293401213466845,False,,,,,False,,,,
12,Open,,,,,,"[-0.026750000193715096, 0.05299999937415123, 0.03999999910593033]","[0.0, -0.0, 1.078215882979514]","[-0.09019032120704651, 0.08704887330532074, 0.03999999910593033]","[0.0, -0.0, 1.0862882926740116]","[0.026750000193715096, 0.05299999937415123, 0.03999999910593033]","[0.0, 0.0, -1.078222977413882]","[0.09019055962562561, 0.08704842627048492, 0.03999999910593033]","[0.0, 0.0, -1.0863833790205233]",1.1273944206958806,11.802815448109852,"(0.0, 0.0, 0.0, 0.0, 0.0, 0.0)",-1.9110844168611731,0.007265182884681461,-0.19369486220852175,"(0.0, 0.0, 0.0, 0.0, 0.0, 0.0)",-0.13800439004610457,-1.127400767788609,-11.802646192303762,"(0.0, 0.0, 0.0, 0.0, 0.0, 0.0)",1.9110325851897776,-0.007344276810443619,0.19580404188257655,"(0.0, 0.0, 0.0, 0.0, 0.0, 0.0)",0.13797790093405082,False,,,,,False,,,,
13,Open,,,,,,"[-0.026750000193715096, 0.05299999937415123, 0.03999999910593033]","[0.0, -0.0, 1.1273943743462997]","[-0.0917874127626419, 0.08388907462358475, 0.03999999910593033]","[0.0, -0.0, 1.1346596248576977]","[0.026750000193715096, 0.05299999937415123, 0.03999999910593033]","[0.0, 0.0, -1.127400718904607]","[0.09178761392831802, 0.08388865739107132, 0.03999999910593033]","[0.0, 0.0, -1.134745111288055]",1.1716549786262926,10.622533903298867,"(0.0, 0.0, 0.0, 0.0, 0.0, 0.0)",-1.7207759982695574,0.00653881121780902,-0.17432920004938585,"(0.0, 0.0, 0.0, 0.0, 0.0, 0.0)",-0.12447725819906867,-1.1716606910097482,-10.622381573073383,"(0.0, 0.0, 0.0, 0.0, 0.0, 0.0)",1.7207292273800263,-0.006609995722787257,0.17622746103752684,"(0.0, 0.0, 0.0, 0.0, 0.0, 0.0)",0.12445331071934837,False,,,,,False,,,,
14,Open,,,,,,"[-0.026750000193715096, 0.05299999937415123, 0.03999999910593033]","[0.0, -0.0, 1.17165497759142]","[-0.09309044480323792, 0.08098116517066956, 0.03999999910593033]","[0.0, -0.0, 1.1781937273122836]","[0.026750000193715096, 0.05299999937415123, 0.03999999910593033]","[0.0, 0.0, -1.1716605985979762]","[0.09309060126543045, 0.08098078519105911, 0.03999999910593033]","[0.0, 0.0, -1.178270796658152]",1.2114894807636634,9.56028051296898,"(0.0, 0.0, 0.0, 0.0, 0.0, 0.0)",-1.549346412635057,0.005885062316220725,-0.15689973638119079,"(0.0, 0.0, 0.0, 0.0, 0.0, 0.0)",-0.11225090666269867,-1.2114946219087734,-9.560143415766044,"(0.0, 0.0, 0.0, 0.0, 0.0, 0.0)",1.5493042197033076,-0.00594912834521185,0.1586081706180975,"(0.0, 0.0, 0.0, 0.0, 0.0, 0.0)",0.11222926703597672,False,,,,,False,,,,
15,Open,,,,,,"[-0.026750000193715096, 0.05299999937415123, 0.03999999910593033]","[0.0, -0.0, 1.2114893406881728]","[-0.09415213763713837, 0.07831703126430511, 0.03999999910593033]","[0.0, -0.0, 1.2173745989650702]","[0.026750000193715096, 0.05299999937415123, 0.03999999910593033]","[0.0, 0.0, -1.2114945655338818]","[0.09415226429700851, 0.07831668108701706, 0.03999999910593033]","[0.0, 0.0, -1.2174436451143456]",1.247340532687297,8.604252461672083,"(0.0, 0.0, 0.0, 0.0, 0.0, 0.0)",-1.3949366588174594,0.00529667529397997,-0.14121288533778104,"(0.0, 0.0, 0.0, 0.0, 0.0, 0.0)",-0.1012051251161189,-1.2473451597178962,-8.604129074189437,"(0.0, 0.0, 0.0, 0.0, 0.0, 0.0)",1.394898604883462,-0.005354334697048719,0.1427504755591516,"(0.0, 0.0, 0.0, 0.0, 0.0, 0.0)",0.1011855790679586,False,,,,,False,,,,
16,Open,,,,,,"[-0.026750000193715096, 0.05299999937415123, 0.03999999910593033]","[0.0, -0.0, 1.2473405247091465]","[-0.09501627087593079, 0.07588484138250351, 0.03999999910593033]","[0.0, -0.0, 1.2526371614229614]","[0.026750000193715096, 0.05299999937415123, 0.03999999910593033]","[0.0, 0.0, -1.2473450561350814]","[0.09501637518405914, 0.07588452845811844, 0.03999999910593033]","[0.0, 0.0, -1.252699591080442]",1.2796064794185673,7.743827215504874,"(0.0, 0.0, 0.0, 0.0, 0.0, 0.0)",-1.2558681481324276,0.004767115224099335,-0.12709441677135241,"(0.0, 0.0, 0.0, 0.0, 0.0, 0.0)",-0.09122984935698081,-1.2796106437461066,-7.743716166770495,"(0.0, 0.0, 0.0, 0.0, 0.0, 0.0)",1.2558338345532607,-0.004819008666073119,0.128478247434144,"(0.0, 0.0, 0.0, 0.0, 0.0, 0.0)",0.09121220090323832,False,,,,,False,,,,
17,Open,,,,,,"[-0.026750000193715096, 0.05299999937415123, 0.03999999910593033]","[0.0, -0.0, 1.279606409124563]","[-0.09571900963783264, 0.0736706405878067, 0.03999999910593033]","[0.0, -0.0, 1.2843736758198352]","[0.026750000193715096, 0.05299999937415123, 0.03999999910593033]","[0.0, 0.0, -1.2796106525936015]","[0.0957190990447998, 0.07367035001516342, 0.03999999910593033]","[0.0, 0.0, -1.2844295613342638]",1.3086458314767107,6.969444493954387,"(0.0, 0.0, 0.0, 0.0, 0.0, 0.0)",-1.1305941221975622,0.00429170208951155,-0.1140991523010686,"(0.0, 0.0, 0.0, 0.0, 0.0, 0.0)",-0.082192919359827,-1.3086495793714958,-6.969344550093446,"(0.0, 0.0, 0.0, 0.0, 0.0, 0.0)",1.1305631934145834,-0.004338405935744441,0.11534465527888274,"(0.0, 0.0, 0.0, 0.0, 0.0, 0.0)",0.08217699569254354,False,,,,,False,,,,
18,Open,,,,,,"[-0.026750000193715096, 0.05299999937415123, 0.03999999910593033]","[0.0, -0.0, 1.308645825919811]","[-0.09629011154174805, 0.0716593861579895, 0.03999999910593033]","[0.0, -0.0, 1.3129373548657892]","[0.026750000193715096, 0.05299999937415123, 0.03999999910593033]","[0.0, 0.0, -1.308649569130343]","[0.09629017859697342, 0.07165912538766861, 0.03999999910593033]","[0.0, 0.0, -1.3129881167123505]",1.3347812483290395,6.272500044558946,"(0.0, 0.0, 0.0, 0.0, 0.0, 0.0)",-1.0178482622338179,0.003863702481573626,-0.10271990590510163,"(0.0, 0.0, 0.0, 0.0, 0.0, 0.0)",-0.07410352518858664,-1.3347846214343462,-6.272410095084102,"(0.0, 0.0, 0.0, 0.0, 0.0, 0.0)",1.0178203769740246,-0.0039057357160976183,0.10384085271523745,"(0.0, 0.0, 0.0, 0.0, 0.0, 0.0)",0.0740891498002037,False,,,,,False,,,,
19,Open,,,,,,"[-0.026750000193715096, 0.05299999937415123, 0.03999999910593033]","[0.0, -0.0, 1.3347813147466918]","[-0.09675397723913193, 0.06983575969934464, 0.03999999910593033]","[0.0, -0.0, 1.3386449621367835]","[0.026750000193715096, 0.05299999937415123, 0.03999999910593033]","[0.0, 0.0, -1.3347844615433213]","[0.0967540368437767, 0.06983552873134613, 0.03999999910593033]","[0.0, 0.0, -1.3386905382854437]",1.3583031234961356,5.645250040103052,"(0.0, 0.0, 0.0, 0.0, 0.0, 0.0)",-0.9162890978823036,0.0034783869891320215,-0.09247571818598516,"(0.0, 0.0, 0.0, 0.0, 0.0, 0.0)",-0.06677007440367574,-1.3583061592909116,-5.645169085575695,"(0.0, 0.0, 0.0, 0.0, 0.0, 0.0)",0.9162639666346021,-0.003516216695348753,0.09348456497972772,"(0.0, 0.0, 0.0, 0.0, 0.0, 0.0)",0.06675710630673855,False,,,,,False,,,,
20,Open,,,,,,"[-0.026750000193715096, 0.05299999937415123, 0.03999999910593033]","[0.0, -0.0, 1.3583030429358363]","[-0.09713058918714523, 0.06818463653326035, 0.03999999910593033]","[0.0, -0.0, 1.3617816714487538]","[0.026750000193715096, 0.05299999937415123, 0.03999999910593033]","[0.0, 0.0, -1.358306171033049]","[0.09713063389062881, 0.06818442046642303, 0.03999999910593033]","[0.0, 0.0, -1.361822351334537]",1.379472811146522,5.0807250360927485,"(0.0, 0.0, 0.0, 0.0, 0.0, 0.0)",-0.8248429295126702,0.003131498553648039,-0.08325322451615583,"(0.0, 0.0, 0.0, 0.0, 0.0, 0.0)",-0.06015531267018523,-1.3794755433618204,-5.080652177018124,"(0.0, 0.0, 0.0, 0.0, 0.0, 0.0)",0.8248202834423316,-0.003165545104486833,0.08416118180686077,"(0.0, 0.0, 0.0, 0.0, 0.0, 0.0)",0.06014361689139186,False,,,,,False,,,,
21,Open,,,,,,"[-0.026750000193715096, 0.05299999937415123, 0.03999999910593033]","[0.0, -0.0, 1.3794728975130914]","[-0.09743624925613403, 0.06669140607118607, 0.03999999910593033]","[0.0, -0.0, 1.382604304378769]","[0.026750000193715096, 0.05299999937415123, 0.03999999910593033]","[0.0, 0.0, -1.379475506721758]","[0.09743628650903702, 0.06669121235609055, 0.03999999910593033]","[0.0, 0.0, -1.3826409668082853]",1.3985255300318697,4.572652532483473,"(0.0, 0.0, 0.0, 0.0, 0.0, 0.0)",-0.7425066286387145,0.0028192047313806493,-0.07495051734417352,"(0.0, 0.0, 0.0, 0.0, 0.0, 0.0)",-0.054190171953983096,-1.3985279890256384,-4.57258695931631,"(0.0, 0.0, 0.0, 0.0, 0.0, 0.0)",0.7424862245436853,-0.0028498464605416357,0.07576767454684734,"(0.0, 0.0, 0.0, 0.0, 0.0, 0.0)",0.0541796259205944,False,,,,,False,,,,
22,Open,,,,,,"[-0.026750000193715096, 0.05299999937415123, 0.03999999910593033]","[0.0, -0.0, 1.398525454133583]","[-0.09768425673246384, 0.0653422400355339, 0.03999999910593033]","[0.0, -0.0, 1.4013447262228373]","[0.026750000193715096, 0.05299999937415123, 0.03999999910593033]","[0.0, 0.0, -1.3985280648022782]","[0.09768428653478622, 0.06534206122159958, 0.03999999910593033]","[0.0, 0.0, -1.4013779844801912]",1.4156729770286829,4.1153872792351285,"(0.0, 0.0, 0.0, 0.0, 0.0, 0.0)",-0.6683758137814145,0.002538055332395241,-0.06747585575649792,"(0.0, 0.0, 0.0, 0.0, 0.0, 0.0)",-0.04881194552870251,-1.4156751901230746,-4.115328263384682,"(0.0, 0.0, 0.0, 0.0, 0.0, 0.0)",0.6683574317692884,-0.002565632738451909,0.06821129330153437,"(0.0, 0.0, 0.0, 0.0, 0.0, 0.0)",0.0488024380394442,False,,,,,False,,,,
23,Open,,,,,,"[-0.026750000193715096, 0.05299999937415123, 0.03999999910593033]","[0.0, -0.0, 1.4156730334745993]","[-0.09788545966148376, 0.06412414461374283, 0.03999999910593033]","[0.0, -0.0, 1.418211036917125]","[0.026750000193715096, 0.05299999937415123, 0.03999999910593033]","[0.0, 0.0, -1.4156752315845986]","[0.09788548201322556, 0.0641239807009697, 0.03999999910593033]","[0.0, 0.0, -1.418240879504808]",1.4311056793258146,3.703848551311612,"(0.0, 0.0, 0.0, 0.0, 0.0, 0.0)",-0.6016352863054336,0.002284944287465684,-0.060746650783093666,"(0.0, 0.0, 0.0, 0.0, 0.0, 0.0)",-0.04396376851645251,-1.431107671110767,-3.7037954370462103,"(0.0, 0.0, 0.0, 0.0, 0.0, 0.0)",0.6016187276545472,-0.0023097638175418747,0.061408541018408244,"(0.0, 0.0, 0.0, 0.0, 0.0, 0.0)",0.043955198772734246,False,,,,,False,,,,
24,Open,,,,,,"[-0.026750000193715096, 0.05299999937415123, 0.03999999910593033]","[0.0, -0.0, 1.4311058207082674]","[-0.09804865717887878, 0.06302504986524582, 0.03999999910593033]","[0.0, -0.0, 1.433390691262394]","[0.026750000193715096, 0.05299999937415123, 0.03999999910593033]","[0.0, 0.0, -1.4311075924426346]","[0.09804867953062057, 0.06302490830421448, 0.03999999910593033]","[0.0, 0.0, -1.433417470845748]",1.4449951113932331,3.333463696180452,"(0.0, 0.0, 0.0, 0.0, 0.0, 0.0)",-0.5415503506795546,0.0020570753203455715,-0.05468855210882702,"(0.0, 0.0, 0.0, 0.0, 0.0, 0.0)",-0.039594115216637325,-1.4449969039996904,-3.3334158933415914,"(0.0, 0.0, 0.0, 0.0, 0.0, 0.0)",0.541535435877482,-0.002079412775410495,0.055284250111531166,"(0.0, 0.0, 0.0, 0.0, 0.0, 0.0)",0.03958639191865308,False,,,,,False,,,,
25,Open,,,,,,"[-0.026750000193715096, 0.05299999937415123, 0.03999999910593033]","[0.0, -0.0, 1.444995076522675]","[-0.09818101674318314, 0.062033817172050476, 0.03999999910593033]","[0.0, -0.0, 1.4470522962768402]","[0.026750000193715096, 0.05299999937415123, 0.03999999910593033]","[0.0, 0.0, -1.4449971061677662]","[0.09818103164434433, 0.06203368678689003, 0.03999999910593033]","[0.0, 0.0, -1.4470761943538692]",1.45749560025391,3.0001173265624064,"(0.0, 0.0, 0.0, 0.0, 0.0, 0.0)",-0.4874589573784058,0.001851931045420989,-0.04923462598189979,"(0.0, 0.0, 0.0, 0.0, 0.0, 0.0)",-0.03565633120497695,-1.4574972135997213,-3.000074304007432,"(0.0, 0.0, 0.0, 0.0, 0.0, 0.0)",0.4874455243270462,-0.0018720346450414762,0.04977075128856451,"(0.0, 0.0, 0.0, 0.0, 0.0, 0.0)",0.03564937171228022,False,,,,,False,,,,
26,Open,,,,,,"[-0.026750000193715096, 0.05299999937415123, 0.03999999910593033]","[0.0, -0.0, 1.4574954921785264]","[-0.09828835725784302, 0.061140209436416626, 0.03999999910593033]","[0.0, -0.0, 1.4593474823067423]","[0.026750000193715096, 0.05299999937415123, 0.03999999910593033]","[0.0, 0.0, -1.4574971848934346]","[0.09828837215900421, 0.061140093952417374, 0.03999999910593033]","[0.0, 0.0, -1.4593694397653831]",1.4687460402285188,2.700105593906164,"(0.0, 0.0, 0.0, 0.0, 0.0, 0.0)",-0.4387645947805427,0.0016672451487475934,-0.044324615201614966,"(0.0, 0.0, 0.0, 0.0, 0.0, 0.0)",-0.032108199676446195,-1.4687474922397492,-2.70006687360669,"(0.0, 0.0, 0.0, 0.0, 0.0, 0.0)",0.4387524971567325,-0.0016853382893528596,0.04480712536526797,"(0.0, 0.0, 0.0, 0.0, 0.0, 0.0)",0.03210192923147444,False,,,,,False,,,,
27,Open,,,,,,"[-0.026750000193715096, 0.05299999937415123, 0.03999999910593033]","[0.0, -0.0, 1.4687462228928074]","[-0.09837540984153748, 0.06033487245440483, 0.03999999910593033]","[0.0, -0.0, 1.4704133245237396]","[0.026750000193715096, 0.05299999937415123, 0.03999999910593033]","[0.0, 0.0, -1.4687474899518769]","[0.09837542474269867, 0.060334768146276474, 0.03999999910593033]","[0.0, 0.0, -1.4704329951986796]",1.478871436205667,2.430095034515549,"(0.0, 0.0, 0.0, 0.0, 0.0, 0.0)",-0.394929862139441,0.0015009773446580906,-0.03990427298148066,"(0.0, 0.0, 0.0, 0.0, 0.0, 0.0)",-0.028911540991871522,-1.4788727430157742,-2.430060186246021,"(0.0, 0.0, 0.0, 0.0, 0.0, 0.0)",0.39491896790015035,-0.001517261081966714,0.04033852977267494,"(0.0, 0.0, 0.0, 0.0, 0.0, 0.0)",0.02890589200411927,False,,,,,False,,,,
28,Open,,,,,,"[-0.026750000193715096, 0.05299999937415123, 0.03999999910593033]","[0.0, -0.0, 1.4788714352834713]","[-0.09844600409269333, 0.05960927531123161, 0.03999999910593033]","[0.0, -0.0, 1.480372508787761]","[0.026750000193715096, 0.05299999937415123, 0.03999999910593033]","[0.0, 0.0, -1.4788727099725336]","[0.09844601899385452, 0.05960918217897415, 0.03999999910593033]","[0.0, 0.0, -1.4803900544382056]",1.4879842925851003,2.1870855310639947,"(0.0, 0.0, 0.0, 0.0, 0.0, 0.0)",-0.3554706611703565,0.001351290830885638,-0.035924763305388616,"(0.0, 0.0, 0.0, 0.0, 0.0, 0.0)",-0.026031844038894282,-1.487985468714197,-2.1870541676214206,"(0.0, 0.0, 0.0, 0.0, 0.0, 0.0)",0.3554608511915877,-0.001365946114079445,0.03631559229294455,"(0.0, 0.0, 0.0, 0.0, 0.0, 0.0)",0.026026755426892093,False,,,,,False,,,,
29,Close,,,"(3.819349109750643e-09, 0.16999994350316286, 7.914305593764796e-05)","(1.5700606283751846, 1.2357610516186277e-06, -4.058049624060407e-09)",,"[-0.026750000193715096, 0.05299999937415123, 0.03999999910593033]","[0.0, -0.0, 1.4879842849605203]","[-0.09850326180458069, 0.05895565450191498, 0.03999999910593033]","[0.0, -0.0, 1.4893357278409396]","[0.026750000193715096, 0.05299999937415123, 0.03999999910593033]","[0.0, 0.0, -1.4879853833286059]","[0.09850326925516129, 0.05895556882023811, 0.03999999910593033]","[0.0, 0.0, -1.4893513332680077]",1.4961858633265903,1.9683769779575933,"(0.0, 0.0, 0.0, 0.0, 0.0, 0.0)",-0.31995094896823073,0.0012165319928285922,-0.03234212113369103,"(0.0, 0.0, 0.0, 0.0, 0.0, 0.0)",-0.02343792779000599,-1.4961869218427772,-1.9683487508592754,"(0.0, 0.0, 0.0, 0.0, 0.0, 0.0)",0.31994211580738524,-0.0012297216752996233,0.03269386530715718,"(0.0, 0.0, 0.0, 0.0, 0.0, 0.0)",0.02343334437795369,False,,,,,False,,,,
30,Close,,,"(1.09441459674075e-09, 0.16999988769159868, 0.0001519632082907279)","(1.5701173533571526, -2.5467641220651055e-06, -4.573996600559749e-08)",,"[-0.026750000193715096, 0.05299999937415123, 0.03999999910593033]","[0.0, -0.0, 1.4961860174198076]","[-0.09854969382286072, 0.05836696922779083, 0.03999999910593033]","[0.0, -0.0, 1.4974025341106605]","[0.026750000193715096, 0.05299999937415123, 0.03999999910593033]","[0.0, 0.0, -1.4961870219527165]","[0.09854969382286072, 0.05836689472198486, 0.03999999910593033]","[0.0, 0.0, -1.4974167044724178]",1.4065672769939312,-21.50846071983817,"(0.0, 0.0, 0.0, 0.0, 0.0, 0.0)",-36.83524610171859,-0.08890468746940376,-21.629092670935766,"(0.0, 0.0, 0.0, 0.0, 0.0, 0.0)",-4.936581214831643,-1.4065682296584996,21.508486124226657,"(0.0, 0.0, 0.0, 0.0, 0.0, 0.0)",36.83523814678565,0.0888928167555427,21.629409223402156,"(0.0, 0.0, 0.0, 0.0, 0.0, 0.0)",4.936577085092772,False,,,,,False,,,,
31,Close,,,"(3.541182821644653e-08, 0.1699998011443987, 0.00021906657187154062)","(1.570205104748116, 3.3042409171564205e-05, -8.114212850492596e-08)",,"[-0.026750000193715096, 0.05299999937415123, 0.03999999910593033]","[0.0, -0.0, 1.4065674382065954]","[-0.0977812185883522, 0.06477140635251999, 0.03999999910593033]","[0.0, -0.0, 1.3176625934179576]","[0.026750000193715096, 0.05299999937415123, 0.03999999910593033]","[0.0, 0.0, -1.4065680331882469]","[0.0977812260389328, 0.06477133929729462, 0.03999999910593033]","[0.0, 0.0, -1.3176753491400532]",1.3259105492945382,-19.357614647854348,"(0.0, 0.0, 0.0, 0.0, 0.0, 0.0)",3.3395407019063446,-0.17001473426920377,-19.466411231952,"(0.0, 0.0, 0.0, 0.0, 0.0, 0.0)",0.4376834422569755,-1.3259114066926496,19.35763751180399,"(0.0, 0.0, 0.0, 0.0, 0.0, 0.0)",-3.3395473112045253,0.1700040506304986,19.466696129989415,"(0.0, 0.0, 0.0, 0.0, 0.0, 0.0)",-0.43768664266468643,False,,,,,False,,,,
32,Close,,,"(3.361538948490201e-08, 0.16999974452330968, 0.00028077538773600935)","(1.5702911774727688, 7.027968338074274e-05, -7.017997684986258e-06)",,"[-0.026750000193715096, 0.05299999937415123, 0.03999999910593033]","[0.0, -0.0, 1.325910602539969]","[-0.09660188108682632, 0.07045608013868332, 0.03999999910593033]","[0.0, -0.0, 1.1558959321658662]","[0.026750000193715096, 0.05299999937415123, 0.03999999910593033]","[0.0, 0.0, -1.3259115331240872]","[0.09660189598798752, 0.07045602053403854, 0.03999999910593033]","[0.0, 0.0, -1.1559073716167563]",1.2533194943650845,-17.42185318306892,"(0.0, 0.0, 0.0, 0.0, 0.0, 0.0)",3.0100864599566086,-0.2430137284658432,-17.519758607193467,"(0.0, 0.0, 0.0, 0.0, 0.0, 0.0)",0.39699812510351973,-1.2533202660233846,17.42187376062359,"(0.0, 0.0, 0.0, 0.0, 0.0, 0.0)",-3.0100924602349655,0.24300411319445853,17.52001501535039,"(0.0, 0.0, 0.0, 0.0, 0.0, 0.0)",-0.39700105403357716,False,,,,,False,,,,
33,Close,,,"(1.2478111664315067e-07, 0.16999960627903704, 0.000337513976604643)","(1.5703757790333803, 0.0001088681261817636, -5.122611399447184e-06)",,"[-0.026750000193715096, 0.05299999937415123, 0.03999999910593033]","[0.0, -0.0, 1.2533194489161892]","[-0.0951518788933754, 0.07547627389431, 0.03999999910593033]","[0.0, -0.0, 1.0103057011386807]","[0.026750000193715096, 0.05299999937415123, 0.03999999910593033]","[0.0, 0.0, -1.2533201846969224]","[0.09515189379453659, 0.07547622174024582, 0.03999999910593033]","[0.0, 0.0, -1.010316110149499]",1.1879875449285762,-15.679667864762028,"(0.0, 0.0, 0.0, 0.0, 0.0, 0.0)",2.712712783767229,-0.30871235561933186,-15.767670516837281,"(0.0, 0.0, 0.0, 0.0, 0.0, 0.0)",0.3597856734528228,-1.1879882394210461,15.679686384561233,"(0.0, 0.0, 0.0, 0.0, 0.0, 0.0)",-2.712718226071338,0.30870370187508567,15.767901283350515,"(0.0, 0.0, 0.0, 0.0, 0.0, 0.0)",-0.35978834883250516,False,,,,,False,,,,
34,Close,,,"(1.2869376016944667e-07, 0.16999954011037416, 0.00038973303114976833)","(1.5704582297133343, 0.0001496263682483943, -9.931543136061158e-06)",,"[-0.026750000193715096, 0.05299999937415123, 0.03999999910593033]","[0.0, -0.0, 1.1879876003522736]","[-0.09353857487440109, 0.07989397644996643, 0.03999999910593033]","[0.0, -0.0, 0.8792752425767008]","[0.026750000193715096, 0.05299999937415123, 0.03999999910593033]","[0.0, 0.0, -1.1879882623869136]","[0.09353859722614288, 0.07989392429590225, 0.03999999910593033]","[0.0, 0.0, -0.8792844680170303]",1.1291887904356523,-14.1117010783017,"(0.0, 0.0, 0.0, 0.0, 0.0, 0.0)",2.44436472036771,-0.36784112005739866,-14.190903465136039,"(0.0, 0.0, 0.0, 0.0, 0.0, 0.0)",0.3258007578595482,-1.1291894154788755,14.111717746120975,"(0.0, 0.0, 0.0, 0.0, 0.0, 0.0)",-2.444369652349295,0.3678333316875771,14.191111154997946,"(0.0, 0.0, 0.0, 0.0, 0.0, 0.0)",-0.32580319741325486,False,,,,,False,,,,
35,Close,,,"(2.2147778895778094e-07, 0.169999403724105, 0.00043775502472391954)","(1.5705392813318275, 0.0001916771605813282, -8.19762937926826e-06)",,"[-0.026750000193715096, 0.05299999937415123, 0.03999999910593033]","[0.0, -0.0, 1.1291888000608494]","[-0.09184273332357407, 0.08377231657505035, 0.03999999910593033]","[0.0, -0.0, 0.7613476921786614]","[0.026750000193715096, 0.05299999937415123, 0.03999999910593033]","[0.0, 0.0, -1.1291894580384154]","[0.09184275567531586, 0.08377227932214737, 0.03999999910593033]","[0.0, 0.0, -0.7613561373098183]",1.0762699113920273,-12.700530970470014,"(0.0, 0.0, 0.0, 0.0, 0.0, 0.0)",2.202305891359772,-0.4210570080516588,-12.77181311862243,"(0.0, 0.0, 0.0, 0.0, 0.0, 0.0)",0.2948453788489373,-1.0762704739309281,12.700545971507374,"(0.0, 0.0, 0.0, 0.0, 0.0, 0.0)",-2.2023103576802145,0.4210499985188194,12.77200003949815,"(0.0, 0.0, 0.0, 0.0, 0.0, 0.0)",-0.2948476002056522,False,,,,,False,,,,
36,Close,,,"(2.1912693722736075e-07, 0.16999934361709654, 0.000481956449276018)","(1.5706184388641253, 0.00023565575873296478, -1.2845786801691941e-05)",,"[-0.026750000193715096, 0.05299999937415123, 0.03999999910593033]","[0.0, -0.0, 1.0762698553554748]","[-0.09012393653392792, 0.08717226982116699, 0.03999999910593033]","[0.0, -0.0, 0.6552128934948661]","[0.026750000193715096, 0.05299999937415123, 0.03999999910593033]","[0.0, 0.0, -1.0762704893583]","[0.09012395888566971, 0.08717223256826401, 0.03999999910593033]","[0.0, 0.0, -0.6552204147476549]",1.0286429202528247,-11.430477873408655,"(0.0, 0.0, 0.0, 0.0, 0.0, 0.0)",1.9840011930578276,-0.46895130724721834,-11.494631806934295,"(0.0, 0.0, 0.0, 0.0, 0.0, 0.0)",0.26667684533441977,-1.0286434265378352,11.430491374342276,"(0.0, 0.0, 0.0, 0.0, 0.0, 0.0)",-1.984005235051249,0.4689449986676629,11.494800035722442,"(0.0, 0.0, 0.0, 0.0, 0.0, 0.0)",-0.26667886541975433,False,,,,,False,,,,
37,Close,,,"(3.1131510586280866e-07, 0.1699992121070205, 0.0005226007520893923)","(1.5706964879884222, 0.0002806415891397876, -1.1307759452448239e-05)",,"[-0.026750000193715096, 0.05299999937415123, 0.03999999910593033]","[0.0, -0.0, 1.0286429345076582]","[-0.0884251669049263, 0.09015069156885147, 0.03999999910593033]","[0.0, -0.0, 0.5596916647508587]","[0.026750000193715096, 0.05299999937415123, 0.03999999910593033]","[0.0, 0.0, -1.0286435120859125]","[0.08842518925666809, 0.09015065431594849, 0.03999999910593033]","[0.0, 0.0, -0.5596984028120249]",0.9857786282275423,-10.287430086067793,"(0.0, 0.0, 0.0, 0.0, 0.0, 0.0)",1.787161045327472,-0.5120561765231523,-10.345168626224153,"(0.0, 0.0, 0.0, 0.0, 0.0, 0.0)",0.24107512437447856,-0.9857790838840517,10.28744223690805,"(0.0, 0.0, 0.0, 0.0, 0.0, 0.0)",-1.787164701188607,0.5120504988015524,10.345320032133483,"(0.0, 0.0, 0.0, 0.0, 0.0, 0.0)",-0.24107695935135354,False,,,,,False,,,,
38,Close,,,"(3.0991842655903425e-07, 0.169999153087261, 0.0005600347082356065)","(1.570772558536085, 0.00032764712563817383, -1.5390013302753274e-05)",,"[-0.026750000193715096, 0.05299999937415123, 0.03999999910593033]","[0.0, -0.0, 0.9857786218799983]","[-0.08677656948566437, 0.09275941550731659, 0.03999999910593033]","[0.0, -0.0, 0.4737224893055005]","[0.026750000193715096, 0.05299999937415123, 0.03999999910593033]","[0.0, 0.0, -0.9857791586690391]","[0.08677658438682556, 0.0927593931555748, 0.03999999910593033]","[0.0, 0.0, -0.47372859204714834]",0.9472007654041954,-9.258687077603232,"(0.0, 0.0, 0.0, 0.0, 0.0, 0.0)",1.6097085175776904,-0.550850558870837,-9.310651763444346,"(0.0, 0.0, 0.0, 0.0, 0.0, 0.0)",0.21783104241587867,-0.9472011754950539,9.258698013359455,"(0.0, 0.0, 0.0, 0.0, 0.0, 0.0)",-1.609711822487034,0.5508454489213972,9.310788028762744,"(0.0, 0.0, 0.0, 0.0, 0.0, 0.0)",-0.21783270758412676,False,,,,,False,,,,
39,Close,,,"(4.0106165104263135e-07, 0.169999026405202, 0.0005944331352702725)","(1.570848092729261, 0.0003750986118602944, -1.4060502423520339e-05)",,"[-0.026750000193715096, 0.05299999937415123, 0.03999999910593033]","[0.0, -0.0, 0.9472008140782049]","[-0.08519845455884933, 0.09504495561122894, 0.03999999910593033]","[0.0, -0.0, 0.39635019782230363]","[0.026750000193715096, 0.05299999937415123, 0.03999999910593033]","[0.0, 0.0, -0.9472011867132297]","[0.08519846946001053, 0.09504493325948715, 0.03999999910593033]","[0.0, 0.0, -0.3963557154153113]",0.9124806888632406,-8.332818369829143,"(0.0, 0.0, 0.0, 0.0, 0.0, 0.0)",1.4497611633824499,-0.5857655029837533,-8.379586587099913,"(0.0, 0.0, 0.0, 0.0, 0.0, 0.0)",0.19674731686213875,-0.9124810579450133,8.332828212009746,"(0.0, 0.0, 0.0, 0.0, 0.0, 0.0)",-1.4497641496546352,0.5857609040292575,8.379709225886469,"(0.0, 0.0, 0.0, 0.0, 0.0, 0.0)",-0.1967488266016999,False,,,,,False,,,,
40,Close,,,"(3.70657372146465e-07, 0.16999903038777142, 0.0006260749884053443)","(1.5708440552876382, 0.00034508120830118214, -1.4055585689260766e-05)",,"[-0.026750000193715096, 0.05299999937415123, 0.03999999910593033]","[0.0, -0.0, 0.9124807402838544]","[-0.08370371162891388, 0.09704854339361191, 0.03999999910593033]","[0.0, -0.0, 0.32671521193417863]","[0.026750000193715096, 0.05299999937415123, 0.03999999910593033]","[0.0, 0.0, -0.9124811663733811]","[0.08370373398065567, 0.09704852104187012, 0.03999999910593033]","[0.0, 0.0, -0.32672018954414506]",0.8812326199769166,-7.499536532717775,"(0.0, 0.0, 0.0, 0.0, 0.0, 0.0)",1.3056085801322186,-0.6171891619197363,-7.541678144635914,"(0.0, 0.0, 0.0, 0.0, 0.0, 0.0)",0.17763358199117588,-0.881232952150512,7.499545390680321,"(0.0, 0.0, 0.0, 0.0, 0.0, 0.0)",-1.305611277336412,0.617185022862301,7.541788519930457,"(0.0, 0.0, 0.0, 0.0, 0.0, 0.0)",-0.17763494969582577,False,,,,,False,,,,
41,Close,,,"(3.427044292909036e-07, 0.1699990340506735, 0.0006551854712062516)","(1.5708403346470328, 0.0003174583455114455, -1.4051356821419932e-05)",,"[-0.026750000193715096, 0.05299999937415123, 0.03999999910593033]","[0.0, -0.0, 0.8812326035131218]","[-0.08229970186948776, 0.09880644828081131, 0.03999999910593033]","[0.0, -0.0, 0.26404346611112495]","[0.026750000193715096, 0.05299999937415123, 0.03999999910593033]","[0.0, 0.0, -0.8812328730718287]","[0.08229971677064896, 0.09880642592906952, 0.03999999910593033]","[0.0, 0.0, -0.2640479150919315]",0.8531093579792249,-6.749582879446001,"(0.0, 0.0, 0.0, 0.0, 0.0, 0.0)",1.1757252455852583,-0.6454704345862542,-6.78750543996429,"(0.0, 0.0, 0.0, 0.0, 0.0, 0.0)",0.16033509317806058,-0.8531096569354608,6.7495908516122896,"(0.0, 0.0, 0.0, 0.0, 0.0, 0.0)",-1.1757276808922346,0.645466709436021,6.787604777692787,"(0.0, 0.0, 0.0, 0.0, 0.0, 0.0)",-0.16033633143309114,False,,,,,False,,,,
42,Close,,,"(3.170084497545684e-07, 0.16999903740907119, 0.0006819671107693073)","(1.570836911771951, 0.00029204530032808255, -1.4047683015968837e-05)",,"[-0.026750000193715096, 0.05299999937415123, 0.03999999910593033]","[0.0, -0.0, 0.8531093567174074]","[-0.08098968118429184, 0.10035036504268646, 0.03999999910593033]","[0.0, -0.0, 0.2076389231904772]","[0.026750000193715096, 0.05299999937415123, 0.03999999910593033]","[0.0, 0.0, -0.8531096230941355]","[0.08098969608545303, 0.10035035014152527, 0.03999999910593033]","[0.0, 0.0, -0.2076429742570099]",0.8277984221813024,-6.0746245915014,"(0.0, 0.0, 0.0, 0.0, 0.0, 0.0)",1.0586966037970245,-0.6709235615380169,-6.1087504684230565,"(0.0, 0.0, 0.0, 0.0, 0.0, 0.0)",0.14467321668423558,-0.8277986912419147,6.074631766451059,"(0.0, 0.0, 0.0, 0.0, 0.0, 0.0)",-1.0586988018726124,0.6709202089041267,6.108839872345364,"(0.0, 0.0, 0.0, 0.0, 0.0, 0.0)",-0.14467433700617466,False,,,,,False,,,,
43,Close,,,"(2.93385406087929e-07, 0.16999904048782613, 0.0007066062149797113)","(1.5708337628331848, 0.0002686652895538331, -1.4044478861914954e-05)",,"[-0.026750000193715096, 0.05299999937415123, 0.03999999910593033]","[0.0, -0.0, 0.8277984323872327]","[-0.07977395504713058, 0.10170790553092957, 0.03999999910593033]","[0.0, -0.0, 0.15687485461046338]","[0.026750000193715096, 0.05299999937415123, 0.03999999910593033]","[0.0, 0.0, -0.8277987052452376]","[0.07977396249771118, 0.10170789808034897, 0.03999999910593033]","[0.0, 0.0, -0.15687847762667875]",0.8050185799631722,-5.467162132351259,"(0.0, 0.0, 0.0, 0.0, 0.0, 0.0)",0.9532674830029981,-0.6938313591081322,-5.497871416827678,"(0.0, 0.0, 0.0, 0.0, 0.0, 0.0)",0.1305069121449798,-0.8050188221177232,5.467168589805953,"(0.0, 0.0, 0.0, 0.0, 0.0, 0.0)",-0.9532694663734236,0.6938283417388244,5.49795188032743,"(0.0, 0.0, 0.0, 0.0, 0.0, 0.0)",-0.13050792520753388,False,,,,,False,,,,
44,Close,,,"(2.716665250887489e-07, 0.16999904330973556, 0.0007292741870466809)","(1.5708308659078907, 0.0002471556717650467, -1.4041672069322908e-05)",,"[-0.026750000193715096, 0.05299999937415123, 0.03999999910593033]","[0.0, -0.0, 0.8050185839979388]","[-0.07865073531866074, 0.10290304571390152, 0.03999999910593033]","[0.0, -0.0, 0.11118723016400785]","[0.026750000193715096, 0.05299999937415123, 0.03999999910593033]","[0.0, 0.0, -0.8050187952188965]","[0.07865074276924133, 0.10290303081274033, 0.03999999910593033]","[0.0, 0.0, -0.11119048022217565]",0.784516721966855,-4.920445919116134,"(0.0, 0.0, 0.0, 0.0, 0.0, 0.0)",0.8582975670224743,-0.7144483618360385,-4.948080654697517,"(0.0, 0.0, 0.0, 0.0, 0.0, 0.0)",0.11770004006048959,-0.784516939905951,4.92045173082536,"(0.0, 0.0, 0.0, 0.0, 0.0, 0.0)",-0.8582993561887614,0.7144456462047399,4.948153071819748,"(0.0, 0.0, 0.0, 0.0, 0.0, 0.0)",-0.11770095568272418,False,,,,,False,,,,
45,Close,,,"(2.51696986958339e-07, 0.1699990458957082, 0.0007501287178850499)","(1.5708282008276007, 0.000227366816649173, -1.4039201474218165e-05)",,"[-0.026750000193715096, 0.05299999937415123, 0.03999999910593033]","[0.0, -0.0, 0.7845167193080385]","[-0.07761679589748383, 0.10395654290914536, 0.03999999910593033]","[0.0, -0.0, 0.07006835685702544]","[0.026750000193715096, 0.05299999937415123, 0.03999999910593033]","[0.0, 0.0, -0.7845169946958266]","[0.07761680334806442, 0.10395653545856476, 0.03999999910593033]","[0.0, 0.0, -0.0700712989357174]",0.7660650497701694,-4.42840132720452,"(0.0, 0.0, 0.0, 0.0, 0.0, 0.0)",0.7727568402429666,-0.7330036506599046,-4.453269317727849,"(0.0, 0.0, 0.0, 0.0, 0.0, 0.0)",0.106127525293464,-0.7660652459153559,4.428406557742824,"(0.0, 0.0, 0.0, 0.0, 0.0, 0.0)",-0.7727584538402424,0.7330012065927102,4.453334493112861,"(0.0, 0.0, 0.0, 0.0, 0.0, 0.0)",-0.10612835248484857,False,,,,,False,,,,
46,Close,,,"(2.3333473952068603e-07, 0.16999904826492518, 0.0007693148831029557)","(1.5708257490378412, 0.00020916106414766092, -1.403701531280991e-05)",,"[-0.026750000193715096, 0.05299999937415123, 0.03999999910593033]","[0.0, -0.0, 0.7660649977175382]","[-0.07666795700788498, 0.10488639771938324, 0.03999999910593033]","[0.0, -0.0, 0.03306140223906952]","[0.026750000193715096, 0.05299999937415123, 0.03999999910593033]","[0.0, 0.0, -0.7660653079646047]","[0.07666796445846558, 0.10488638281822205, 0.03999999910593033]","[0.0, 0.0, -0.033064041138401834]",0.7494585447931524,-3.985561194484066,"(0.0, 0.0, 0.0, 0.0, 0.0, 0.0)",0.6957152666369016,-0.7497033982890566,-4.007939430996486,"(0.0, 0.0, 0.0, 0.0, 0.0, 0.0)",0.09567473522853766,-0.7494587213238203,3.985565901968542,"(0.0, 0.0, 0.0, 0.0, 0.0, 0.0)",-0.6957167215859875,0.7497011986294615,4.007998088820328,"(0.0, 0.0, 0.0, 0.0, 0.0, 0.0)",-0.09567548223716564,False,,,,,False,,,,
47,Close,,,"(2.1644941757498085e-07, 0.1699990504349868, 0.0007869661522299996)","(1.5708234934689855, 0.0001924117668631307, -1.4035069780186692e-05)",,"[-0.026750000193715096, 0.05299999937415123, 0.03999999910593033]","[0.0, -0.0, 0.7494586090384826]","[-0.07579945772886276, 0.10570816695690155, 0.03999999910593033]","[0.0, 0.0, -0.000244853492999894]","[0.026750000193715096, 0.05299999937415123, 0.03999999910593033]","[0.0, 0.0, -0.7494587081400255]","[0.07579946517944336, 0.10570815205574036, 0.03999999910593033]","[0.0, -0.0, 0.00024247731079752444]",0.7345126903138371,-3.587005075035659,"(0.0, 0.0, 0.0, 0.0, 0.0, 0.0)",0.626333365984163,-0.764733160038395,-3.6071428198412123,"(0.0, 0.0, 0.0, 0.0, 0.0, 0.0)",0.08623682787405348,-0.7345128491914382,3.587009311771688,"(0.0, 0.0, 0.0, 0.0, 0.0, 0.0)",-0.6263346776346612,0.7647311803455538,3.607195611862134,"(0.0, 0.0, 0.0, 0.0, 0.0, 0.0)",-0.08623750223625977,False,,,,,False,,,,
48,Close,,,"(1.9902478529523268e-07, 0.16999905216510106, 0.0008031506134026157)","(1.5708213694672628, 0.00017518801369688713, -1.4031269556480368e-05)",,"[-0.026750000193715096, 0.05299999937415123, 0.03999999910593033]","[0.0, -0.0, 0.7345126628086843]","[-0.07500623911619186, 0.10643533617258072, 0.03999999910593033]","[0.0, 0.0, -0.03022046980229406]","[0.026750000193715096, 0.05299999937415123, 0.03999999910593033]","[0.0, 0.0, -0.7345128981556924]","[0.07500624656677246, 0.10643532872200012, 0.03999999910593033]","[0.0, -0.0, 0.03021832986745902]",0.7210614212824534,-3.228304567532092,"(0.0, 0.0, 0.0, 0.0, 0.0, 0.0)",0.5638237707840803,-0.7782610712626786,-3.246698693828069,"(0.0, 0.0, 0.0, 0.0, 0.0, 0.0)",0.07768823801248652,-0.7210615642722944,3.2283083805945183,"(0.0, 0.0, 0.0, 0.0, 0.0, 0.0)",-0.5638249528147553,0.7782592895487316,3.2467462087626835,"(0.0, 0.0, 0.0, 0.0, 0.0, 0.0)",-0.07768884636877696,False,,,,,False,,,,
49,Close,,,"(1.829952775457341e-07, 0.16999905372445717, 0.0008180403399689366)","(1.5708194143492393, 0.00015934185659229473, -1.4027683329641553e-05)",,"[-0.026750000193715096, 0.05299999937415123, 0.03999999910593033]","[0.0, -0.0, 0.7210614193238458]","[-0.07428312301635742, 0.10707958787679672, 0.03999999910593033]","[0.0, 0.0, -0.05719964992344959]","[0.026750000193715096, 0.05299999937415123, 0.03999999910593033]","[0.0, 0.0, -0.7210615729227128]","[0.07428313046693802, 0.10707958042621613, 0.03999999910593033]","[0.0, -0.0, 0.05719773186848648]",0.7089552791542081,-2.905474110778883,"(0.0, 0.0, 0.0, 0.0, 0.0, 0.0)",0.5075985242705942,-0.7904360705014085,-2.921999817295172,"(0.0, 0.0, 0.0, 0.0, 0.0, 0.0)",0.07003713951344083,-0.7089554078450649,2.905477542535066,"(0.0, 0.0, 0.0, 0.0, 0.0, 0.0)",-0.5075995897946305,0.7904344669675306,2.9220425805117625,"(0.0, 0.0, 0.0, 0.0, 0.0, 0.0)",-0.07003768863744474,False,,,,,False,,,,
50,Close,,,"(1.682467379846132e-07, 0.1699990551245469, 0.0008317388481303276)","(1.570817615731277, 0.00014476218910829968, -1.4024269510216624e-05)",,"[-0.026750000193715096, 0.05299999937415123, 0.03999999910593033]","[0.0, -0.0, 0.7089552779168017]","[-0.07362496107816696, 0.10765105485916138, 0.03999999910593033]","[0.0, 0.0, -0.08148078223376223]","[0.026750000193715096, 0.05299999937415123, 0.03999999910593033]","[0.0, 0.0, -0.7089554724698194]","[0.07362496852874756, 0.10765104740858078, 0.03999999910593033]","[0.0, -0.0, 0.0814790502780401]",0.6980597512387873,-2.6149266997009946,"(0.0, 0.0, 0.0, 0.0, 0.0, 0.0)",0.45693917814201784,-0.8013934602632394,-2.6297735428394082,"(0.0, 0.0, 0.0, 0.0, 0.0, 0.0)",0.06310201359777694,-0.6980598670605584,2.614929788281559,"(0.0, 0.0, 0.0, 0.0, 0.0, 0.0)",-0.45694013827892466,0.8013920170905735,2.6298120295302843,"(0.0, 0.0, 0.0, 0.0, 0.0, 0.0)",-0.06310250889925509,False,,,,,False,,,,
51,Close,,,"(1.546756367802499e-07, 0.16999905637827734, 0.0008443414385910609)","(1.5708159610857961, 0.00013134778772512943, -1.402100024143693e-05)",,"[-0.026750000193715096, 0.05299999937415123, 0.03999999910593033]","[0.0, -0.0, 0.6980597686270504]","[-0.07302673906087875, 0.10815852880477905, 0.03999999910593033]","[0.0, 0.0, -0.10333370902653251]","[0.026750000193715096, 0.05299999937415123, 0.03999999910593033]","[0.0, 0.0, -0.6980598246378259]","[0.07302674651145935, 0.10815852135419846, 0.03999999910593033]","[0.0, -0.0, 0.10333215264877679]",0.6882537761149086,-2.3534340297308955,"(0.0, 0.0, 0.0, 0.0, 0.0, 0.0)",0.41132662822933225,-0.8112550122446371,-2.3667724755354502,"(0.0, 0.0, 0.0, 0.0, 0.0, 0.0)",0.056847326346645,-0.6882538803545026,2.353436809453404,"(0.0, 0.0, 0.0, 0.0, 0.0, 0.0)",-0.4113274932960819,0.8112537133962935,2.3668071133728046,"(0.0, 0.0, 0.0, 0.0, 0.0, 0.0)",-0.0568477730004364,False,,,,,False,,,,
52,Close,,,"(1.4218689550358636e-07, 0.1699990574974972, 0.0008559357877458743)","(1.5708144388885392, 0.00011900551991941484, -1.4017852050493115e-05)",,"[-0.026750000193715096, 0.05299999937415123, 0.03999999910593033]","[0.0, -0.0, 0.6882538042795985]","[-0.07248363643884659, 0.10860966145992279, 0.03999999910593033]","[0.0, 0.0, -0.12300123728040792]","[0.026750000193715096, 0.05299999937415123, 0.03999999910593033]","[0.0, 0.0, -0.688253900607872]","[0.07248364388942719, 0.1086096540093422, 0.03999999910593033]","[0.0, -0.0, 0.12299984676553348]",0.6794283985034177,-2.118090626757806,"(0.0, 0.0, 0.0, 0.0, 0.0, 0.0)",0.3702598465395096,-0.8201303199370257,-2.1300738461732434,"(0.0, 0.0, 0.0, 0.0, 0.0, 0.0)",0.051207533272865695,-0.6794284923190523,2.1180931285080637,"(0.0, 0.0, 0.0, 0.0, 0.0, 0.0)",-0.37026062586363284,0.8201291509798778,2.130105020060234,"(0.0, 0.0, 0.0, 0.0, 0.0, 0.0)",-0.051207935975855504,False,,,,,False,,,,
53,Close,,,"(1.3069318416839e-07, 0.16999905849308636, 0.0008666025576372722)","(1.5708130385376784, 0.00010764969663878531, -1.401480516953977e-05)",,"[-0.026750000193715096, 0.05299999937415123, 0.03999999910593033]","[0.0, -0.0, 0.6794284238724229]","[-0.07199108600616455, 0.10901110619306564, 0.03999999910593033]","[0.0, 0.0, -0.14070193198542613]","[0.026750000193715096, 0.05299999937415123, 0.03999999910593033]","[0.0, 0.0, -0.6794284800706577]","[0.07199109345674515, 0.10901109874248505, 0.03999999910593033]","[0.0, -0.0, 0.1407006814892172]",0.6714855586530759,-1.9062815640820263,"(0.0, 0.0, 0.0, 0.0, 0.0, 0.0)",0.33328720146674756,-0.82811801654313,-1.9170471854650495,"(0.0, 0.0, 0.0, 0.0, 0.0, 0.0)",0.0461231568532664,-0.6714856430871471,1.9062838156572566,"(0.0, 0.0, 0.0, 0.0, 0.0, 0.0)",-0.33328790347714454,0.8281169644874314,1.917075241812861,"(0.0, 0.0, 0.0, 0.0, 0.0, 0.0)",-0.04612351986457081,False,,,,,False,,,,
54,Close,,,"(1.201142787701026e-07, 0.1699990593750365, 0.0008764159571233717)","(1.5708117502799854, 9.720147739875066e-05, -1.4011842957469135e-05)",,"[-0.026750000193715096, 0.05299999937415123, 0.03999999910593033]","[0.0, -0.0, 0.6714856028191667]","[-0.07154478132724762, 0.10936867445707321, 0.03999999910593033]","[0.0, 0.0, -0.1566324602805662]","[0.026750000193715096, 0.05299999937415123, 0.03999999910593033]","[0.0, 0.0, -0.6714856028191667]","[0.07154478132724762, 0.10936867445707321, 0.03999999910593033]","[0.0, -0.0, 0.15663130155257995]",0.6643370027877683,-1.7156534076738226,"(0.0, 0.0, 0.0, 0.0, 0.0, 0.0)",0.30000166468946887,-0.8353068710937589,-1.7253250921509458,"(0.0, 0.0, 0.0, 0.0, 0.0, 0.0)",0.041540284771796165,-0.6643370787784324,1.7156554340915304,"(0.0, 0.0, 0.0, 0.0, 0.0, 0.0)",-0.3000022969997827,0.8353059242487986,1.725350342728124,"(0.0, 0.0, 0.0, 0.0, 0.0, 0.0)",-0.041540611950472935,False,,,,,False,,,,
55,Close,,,"(1.1037647424359984e-07, 0.16999906015252483, 0.0008854442581506275)","(1.5708105651429114, 8.758832292823178e-05, -1.4008951415989527e-05)",,"[-0.026750000193715096, 0.05299999937415123, 0.03999999910593033]","[0.0, -0.0, 0.6643370606126838]","[-0.07114068418741226, 0.1096874549984932, 0.03999999910593033]","[0.0, 0.0, -0.17096987637179278]","[0.026750000193715096, 0.05299999937415123, 0.03999999910593033]","[0.0, 0.0, -0.6643370606126838]","[0.07114069163799286, 0.1096874475479126, 0.03999999910593033]","[0.0, -0.0, 0.17096884643662202]",0.6579033025089914,-1.5440880669064398,"(0.0, 0.0, 0.0, 0.0, 0.0, 0.0)",0.2700364572532802,-0.8417767749452665,-1.5527769243618206,"(0.0, 0.0, 0.0, 0.0, 0.0, 0.0)",0.03741008611729049,-0.6579033709005891,1.5440898906823783,"(0.0, 0.0, 0.0, 0.0, 0.0, 0.0)",-0.27003702673818186,0.8417759227894597,1.5527996497586782,"(0.0, 0.0, 0.0, 0.0, 0.0, 0.0)",-0.03741038095743008,False,,,,,False,,,,
56,Close,,,"(1.0141204673652616e-07, 0.16999906083398159, 0.0008937502707232629)","(1.570809474872104, 7.87434915574051e-05, -1.4006118772737545e-05)",,"[-0.026750000193715096, 0.05299999937415123, 0.03999999910593033]","[0.0, -0.0, 0.6579033304946226]","[-0.07077505439519882, 0.10997187346220016, 0.03999999910593033]","[0.0, 0.0, -0.18387348897538708]","[0.026750000193715096, 0.05299999937415123, 0.03999999910593033]","[0.0, 0.0, -0.6579033304946226]","[0.07077506184577942, 0.10997187346220016, 0.03999999910593033]","[0.0, -0.0, 0.1838725619548152]",0.6521129722580923,-1.3896792602157946,"(0.0, 0.0, 0.0, 0.0, 0.0, 0.0)",0.24306111081870946,-0.8475996296201711,-1.3974851219770965,"(0.0, 0.0, 0.0, 0.0, 0.0, 0.0)",0.033688362136148925,-0.6521130338105302,1.38968090161414,"(0.0, 0.0, 0.0, 0.0, 0.0, 0.0)",-0.24306162368353448,0.8475988626841415,1.3975055747236533,"(0.0, 0.0, 0.0, 0.0, 0.0, 0.0)",-0.03368862779939208,False,,,,,False,,,,
57,Close,,,"(9.31587620256511e-08, 0.16999906142715163, 0.0009013917798737923)","(1.570808471873919, 7.060557585400826e-05, -1.4003335136779464e-05)",,"[-0.026750000193715096, 0.05299999937415123, 0.03999999910593033]","[0.0, -0.0, 0.6521129301518677]","[-0.07044443488121033, 0.11022583395242691, 0.03999999910593033]","[0.0, 0.0, -0.19548665573955404]","[0.026750000193715096, 0.05299999937415123, 0.03999999910593033]","[0.0, 0.0, -0.6521129866161153]","[0.07044444233179092, 0.11022583395242691, 0.03999999910593033]","[0.0, -0.0, 0.19548582525750646]",0.646901675032283,-1.2507113341942153,"(0.0, 0.0, 0.0, 0.0, 0.0, 0.0)",0.2187779064062842,-0.8528401458571484,-1.2577238968745574,"(0.0, 0.0, 0.0, 0.0, 0.0, 0.0)",0.03033513071724496,-0.6469017304294772,1.2507128114527255,"(0.0, 0.0, 0.0, 0.0, 0.0, 0.0)",-0.2187783682505172,0.8528394556185027,1.2577423042466835,"(0.0, 0.0, 0.0, 0.0, 0.0, 0.0)",-0.03033537006280305,False,,,,,False,,,,
58,Close,,,"(8.555942447331213e-08, 0.16999906193915107, 0.000908421947674647)","(1.5708075491625393, 6.311807629477444e-05, -1.4000592203169427e-05)",,"[-0.026750000193715096, 0.05299999937415123, 0.03999999910593033]","[0.0, -0.0, 0.6469017074975589]","[-0.0701456218957901, 0.11045276373624802, 0.03999999910593033]","[0.0, 0.0, -0.20593848593871938]","[0.026750000193715096, 0.05299999937415123, 0.03999999910593033]","[0.0, 0.0, -0.6469017640113621]","[0.0701456293463707, 0.11045276373624802, 0.03999999910593033]","[0.0, -0.0, 0.2059377054983325]",0.6422115075290548,-1.1256402007747932,"(0.0, 0.0, 0.0, 0.0, 0.0, 0.0)",0.19691865600140895,-0.8575565627499749,-1.1319400542783593,"(0.0, 0.0, 0.0, 0.0, 0.0, 0.0)",0.027314243362735774,-0.6422115573865295,1.1256415303074527,"(0.0, 0.0, 0.0, 0.0, 0.0, 0.0)",-0.19691907187647334,0.8575559415385998,1.1319566208232932,"(0.0, 0.0, 0.0, 0.0, 0.0, 0.0)",-0.027314458975022625,False,,,,,False,,,,
59,Move,,,"(7.856146500561274e-08, 0.16999906237651882, 0.0009148896830877347)","(1.5708067003113224, 5.6229009009845055e-05, -1.399788300299107e-05)","[0.0, 0.0, 0.0]","[-0.026750000193715096, 0.05299999937415123, 0.03999999910593033]","[0.0, -0.0, 0.6422115222668433]","[-0.06987567991018295, 0.11065566539764404, 0.03999999910593033]","[0.0, 0.0, -0.21534502689171695]","[0.026750000193715096, 0.05299999937415123, 0.03999999910593033]","[0.0, 0.0, -0.6422115222668433]","[0.06987568736076355, 0.11065565794706345, 0.03999999910593033]","[0.0, -0.0, 0.2153443918565048]",0.6379903567761492,-1.0130761806973148,"(0.0, 0.0, 0.0, 0.0, 0.0, 0.0)",0.17724179525373857,-0.861801294967015,-1.0187357320896053,"(0.0, 0.0, 0.0, 0.0, 0.0, 0.0)",0.024593033118920006,-0.6379904016478766,1.0130773772767077,"(0.0, 0.0, 0.0, 0.0, 0.0, 0.0)",-0.1772421697155535,0.8618007358798453,1.0187506418989196,"(0.0, 0.0, 0.0, 0.0, 0.0, 0.0)",-0.024593227332916724,False,,,,,False,,,,
60,Move,,,"(7.401516452493873e-08, 0.16999906300717518, 0.0009208949427311885)","(1.5708059692049072, 5.171406878091127e-05, -1.3997173418156156e-05)","[-4.546300480674002e-09, 6.306563604674409e-10, 6.005259643453772e-06]","[-0.026750000193715096, 0.05299999937415123, 0.03999999910593033]","[0.0, -0.0, 0.6379903239810443]","[-0.06963192671537399, 0.1108371913433075, 0.03999999910593033]","[0.0, 0.0, -0.2238109552587812]","[0.026750000193715096, 0.05299999937415123, 0.03999999910593033]","[0.0, 0.0, -0.6379904179642307]","[0.06963192671537399, 0.1108371838927269, 0.03999999910593033]","[0.0, -0.0, 0.22381033482023305]",0.615110639462399,-5.491132155300077,"(0.0, 0.0, 0.0, 0.0, 0.0, 0.0)",-6.452665348763696,-0.8613763884842398,0.10197755586604229,"(0.0, 0.0, 0.0, 0.0, 0.0, 0.0)",-0.36782542138199165,-0.6151107211023208,5.491123330933392,"(0.0, 0.0, 0.0, 0.0, 0.0, 0.0)",6.4526488408560905,0.8613758231880564,-0.10197904602934349,"(0.0, 0.0, 0.0, 0.0, 0.0, 0.0)",0.36782252911949487,False,,,,,False,,,,
61,Move,,,"(6.525734425186348e-05, 0.17034549853437667, 0.001059997142676121)","(1.5643418998519334, 0.00019756355969089426, -0.0007979474479338168)","[6.517878278685787e-05, 0.00034643615785784343, 0.00014510745958838623]","[-0.026750000193715096, 0.05299999937415123, 0.03999999910593033]","[0.0, -0.0, 0.6151107619663475]","[-0.06829752027988434, 0.1118030920624733, 0.03999999910593033]","[0.0, 0.0, -0.24626574387408112]","[0.026750000193715096, 0.05299999937415123, 0.03999999910593033]","[0.0, 0.0, -0.6151107619663475]","[0.06829752773046494, 0.1118030920624733, 0.03999999910593033]","[0.0, -0.0, 0.24626510812228053]",0.59557520589455,-4.68850405628373,"(0.0, 0.0, 0.0, 0.0, 0.0, 0.0)",-45.004877301260535,-0.841587039207075,4.749443826519566,"(0.0, 0.0, 0.0, 0.0, 0.0, 0.0)",-23.059879711313982,-0.5955448471476087,4.6958097491309045,"(0.0, 0.0, 0.0, 0.0, 0.0, 0.0)",43.2331221848827,0.8422035798107438,-4.601338410555013,"(0.0, 0.0, 0.0, 0.0, 0.0, 0.0)",22.069611273367745,True,"(-0.03288698015965098, 0.18306432161630465, 0.039999948285931244)","(0.9999999985648672, -1.399717339714095e-05, -5.171406875791205e-05)",0.0009292587523792685,356.63318049990795,True,"(0.032887031061809374, 0.18306436848012048, 0.04000005171406876)","(-0.9999999985648671, 1.3997173395198976e-05, 5.171406875668148e-05)",0.0009247539911204204,342.7710504396539
62,Move,"(0.0078, 0.0, -0.0036000000000000003)","(0.0, 0.08563981573685775, 0.0)","(0.00016176697229314485, 0.17076934431250207, 0.001298992481510786)","(1.553459115144406, 0.0004787126916021603, -0.0016283617000435679)","[0.00016168841082813925, 0.0007702819359832469, 0.0003841027984230513]","[-0.026750000193715096, 0.05299999937415123, 0.03999999910593033]","[0.0, -0.0, 0.5955751094143519]","[-0.06714092195034027, 0.11260347068309784, 0.03999999910593033]","[0.0, 0.0, -0.24601185159459507]","[0.026750000193715096, 0.05299999937415123, 0.03999999910593033]","[0.0, 0.0, -0.5955448282145998]","[0.06713911145925522, 0.11260469257831573, 0.03999999910593033]","[0.0, -0.0, 0.24665872904210193]",0.5770970782178444,-4.434750642409365,"(0.0, 0.0, 0.0, 0.0, 0.0, 0.0)",-74.21698749878065,-0.811850997818181,7.136649933334551,"(0.0, 0.0, 0.0, 0.0, 0.0, 0.0)",-37.92588619525253,-0.5770027641966642,4.450099908226674,"(0.0, 0.0, 0.0, 0.0, 0.0, 0.0)",71.59541053355323,0.8135423707664626,-6.878690170627483,"(0.0, 0.0, 0.0, 0.0, 0.0, 0.0)",36.485404729774935,True,"(-0.03174847742362094, 0.1838726496858637, 0.03999980243644159)","(0.9999996621242782, -0.0007979473476813144, -0.0001975635584110712)",-0.00012778812911608492,569.3446982775357,True,"(0.031700570614753176, 0.18385320841010633, 0.0400001975635584)","(-0.9999996621242783, 0.0007979473476767542, 0.0001975635584049517)",-0.0003431682129125587,549.2893233704585
63,Move,"(0.0081, 0.0, -0.0033)","(0.0, 0.09893224332004658, 0.0)","(0.00035836288172165953, 0.1710685499922981, 0.0015465042221026956)","(1.5461274127704026, 0.0005249551755596078, -0.0037766395546112858)","[0.00035828432025665393, 0.0010694876157792688, 0.0006316145390149609]","[-0.026750000193715096, 0.05299999937415123, 0.03999999910593033]","[0.0, -0.0, 0.5770971029289548]","[-0.06603273004293442, 0.11333960294723511, 0.03999999910593033]","[0.0, 0.0, -0.23475391897699402]","[0.026750000193715096, 0.05299999937415123, 0.03999999910593033]","[0.0, 0.0, -0.5770027543990871]","[0.06602703779935837, 0.11334330588579178, 0.03999999910593033]","[0.0, -0.0, 0.23653961426052006]",0.5768938054767786,-0.04878545785578314,"(0.0, 0.0, 0.0, 0.0, 0.0, 0.0)",3.886419528527412,-0.8143062632560362,-0.5892637050852283,"(0.0, 0.0, 0.0, 0.0, 0.0, 0.0)",-1.388753486675536,-0.5805687303068114,-0.8558318664353477,"(0.0, 0.0, 0.0, 0.0, 0.0, 0.0)",-6.6656848793829,0.8160147871596992,0.593379934376788,"(0.0, 0.0, 0.0, 0.0, 0.0, 0.0)",0.41861122769085385,True,"(-0.03144479909141533, 0.18499061278782541, 0.039999521287326686)","(0.9999985596366134, -0.0016283607938474471, -0.0004787126733201028)",-0.00031179486038545077,13.02136400918326,True,"(0.0313112124765586, 0.1849374824167095, 0.040000478712673315)","(-0.9999985596366132, 0.0016283607938671909, 0.0004787126733090728)",-0.0008521962835819142,2.3256549238005286
64,Move,"(0.0094, 0.0, -0.0033)","(0.0, 0.11229273874406319, 0.0)","(0.0005650174030182073, 0.17125347790648435, 0.001707391920845777)","(1.541450048793044, 0.0005096547083523938, -0.0050394294882479046)","[0.0005649388415532017, 0.0012544155299655246, 0.0007925022377580423]","[-0.026750000193715096, 0.05299999937415123, 0.03999999910593033]","[0.0, -0.0, 0.5768938012698194]","[-0.06602045893669128, 0.11334758251905441, 0.03999999910593033]","[0.0, 0.0, -0.23741249572444104]","[0.026750000193715096, 0.05299999937415123, 0.03999999910593033]","[0.0, 0.0, -0.5805687282354419]","[0.06624197214841843, 0.11320286244153976, 0.03999999910593033]","[0.0, -0.0, 0.2354460423564042]",0.574835688611912,-0.4939480475679836,"(0.0, 0.0, 0.0, 0.0, 0.0, 0.0)",-2.209162339202738,-0.8132945557991244,0.24280978965882816,"(0.0, 0.0, 0.0, 0.0, 0.0, 0.0)",-0.9343558205397272,-0.5822180293007292,-0.39583175854026365,"(0.0, 0.0, 0.0, 0.0, 0.0, 0.0)",1.7436638231054937,0.8151289405456191,-0.212603187379223,"(0.0, 0.0, 0.0, 0.0, 0.0, 0.0)",0.640813998986636,True,"(-0.031242166350895204, 0.18490690047549052, 0.039999475044848555)","(0.9999927307173312, -0.003776630056543304, -0.000524955151449032)",-0.00028725125385380324,12.569254395746245,True,"(0.031604460458384456, 0.1848360138517023, 0.040000524955151454)","(-0.9999927307173313, 0.0037766300565219035, 0.0005249551514558287)",-0.0007863100029249576,8.817730237505438
65,Move,"(0.0099, 0.0, -0.0033)","(0.0, 0.11719536861291525, 0.0)","(0.0008213880058047993, 0.1713246820069813, 0.0017643039599556153)","(1.5400269594605747, 0.0005157170833649035, -0.0051163269188626796)","[0.0008213094443397937, 0.0013256196304624879, 0.0008494142768678806]","[-0.026750000193715096, 0.05299999937415123, 0.03999999910593033]","[0.0, -0.0, 0.5748357197815296]","[-0.065896175801754, 0.1134282797574997, 0.03999999910593033]","[0.0, 0.0, -0.23845884994165636]","[0.026750000193715096, 0.05299999937415123, 0.03999999910593033]","[0.0, 0.0, -0.5822179935055961]","[0.06634120643138885, 0.11313764750957489, 0.03999999910593033]","[0.0, -0.0, 0.23291091415657744]",0.5723858524936684,-0.5879606683784718,"(0.0, 0.0, 0.0, 0.0, 0.0, 0.0)",-3.123077189199537,-0.8121315945769972,0.2791106933105143,"(0.0, 0.0, 0.0, 0.0, 0.0, 0.0)",-1.73041697082814,-0.58400602883559,-0.42911988836661485,"(0.0, 0.0, 0.0, 0.0, 0.0, 0.0)",1.814801909183835,0.8141540004746491,-0.23398561703280826,"(0.0, 0.0, 0.0, 0.0, 0.0, 0.0)",1.0784768033627166,True,"(-0.031043020658436796, 0.1849509479222025, 0.039999490345313714)","(0.9999871722297805, -0.005039407503683226, -0.0005096546862840112)",-0.0002638237073865048,22.75889352115451,True,"(0.031885403575335924, 0.18485710644202039, 0.040000509654686274)","(-0.9999871722297804, 0.005039407503681843, 0.0005096546862700575)",-0.0007280852818051063,14.214221530650079
66,Move,"(0.011, 0.0, -0.0034)","(0.0, 0.11229273874406319, 0.0)","(0.0010868827850340401, 0.17137914534094176, 0.0017553500338019137)","(1.540708846455713, 0.0005394607214075295, -0.005394857628805408)","[0.0010868042235690344, 0.001380082964422935, 0.000840460350714179]","[-0.026750000193715096, 0.05299999937415123, 0.03999999910593033]","[0.0, -0.0, 0.5723859341238243]","[-0.06574802100658417, 0.11352399736642838, 0.03999999910593033]","[0.0, 0.0, -0.23974574251773856]","[0.026750000193715096, 0.05299999937415123, 0.03999999910593033]","[0.0, 0.0, -0.5840060917810428]","[0.06644867360591888, 0.11306676268577576, 0.03999999910593033]","[0.0, -0.0, 0.23014799976333195]",0.5699399558025167,-0.5870152058764188,"(0.0, 0.0, 0.0, 0.0, 0.0, 0.0)",-2.6605436161729035,-0.8112414630446796,0.21363156775623585,"(0.0, 0.0, 0.0, 0.0, 0.0, 0.0)",-1.3720933465114282,-0.5859330227027368,-0.4624785281152259,"(0.0, 0.0, 0.0, 0.0, 0.0, 0.0)",1.6564370545089573,0.8133537514589902,-0.19205976375814363,"(0.0, 0.0, 0.0, 0.0, 0.0, 0.0)",0.9637638209804955,True,"(-0.030802845192638977, 0.185002967303304, 0.0399994842829395)","(0.9999867786476692, -0.005116303917001661, -0.0005157170605051628)",-0.0002464833060228163,20.042448159463262,True,"(0.032191136771041386, 0.1848784607432425, 0.0400005157170605)","(-0.999986778647669, 0.005116303917015231, 0.0005157170605007659)",-0.0006797294920158877,12.931672916143444
67,Move,"(0.0123, 0.0, -0.0040999999999999995)","(0.0, 0.107426760789503, 0.0)","(0.001382489864315987, 0.17145943929903276, 0.0017314811294730516)","(1.5421584987342032, 0.000671086186369658, -0.005861175261732016)","[0.0013824113028509813, 0.0014603769225139396, 0.0008165914463853169]","[-0.026750000193715096, 0.05299999937415123, 0.03999999910593033]","[0.0, -0.0, 0.5699399798791013]","[-0.06559986621141434, 0.11361920088529587, 0.03999999910593033]","[0.0, 0.0, -0.2413015037795104]","[0.026750000193715096, 0.05299999937415123, 0.03999999910593033]","[0.0, 0.0, -0.5859329449051459]","[0.06656434386968613, 0.11299014836549759, 0.03999999910593033]","[0.0, -0.0, 0.22742073266865845]",0.567319209466135,-0.6289791207315972,"(0.0, 0.0, 0.0, 0.0, 0.0, 0.0)",-2.364478754027149,-0.8104227555221161,0.19648980541523992,"(0.0, 0.0, 0.0, 0.0, 0.0, 0.0)",-1.2196982044499138,-0.588029153758682,-0.5030714534268486,"(0.0, 0.0, 0.0, 0.0, 0.0, 0.0)",1.8286616587588724,0.8124326129582067,-0.2210732401880448,"(0.0, 0.0, 0.0, 0.0, 0.0, 0.0)",0.988314700626846,True,"(-0.030543523393822575, 0.18504499553988607, 0.03999946053930475)","(0.999985302284063, -0.005394830674756464, -0.0005394606952472191)",-0.00023570176235712683,17.393975486541056,True,"(0.0325027701838379, 0.1848925629522079, 0.040000539460695254)","(-0.999985302284063, 0.005394830674754669, 0.0005394606952551666)",-0.0006381079080937147,14.307215353670198
68,Move,"(0.0121, 0.0, -0.004)","(0.0, 0.107426760789503, 0.0)","(0.0016977601535055305, 0.17156373700655925, 0.0016934257572081908)","(1.5442249151734957, 0.000989847286556637, -0.00644349329741585)","[0.0016976815920405248, 0.0015646746300404246, 0.0007785360741204561]","[-0.026750000193715096, 0.05299999937415123, 0.03999999910593033]","[0.0, -0.0, 0.5673191678316806]","[-0.06544086337089539, 0.11372081190347672, 0.03999999910593033]","[0.0, 0.0, -0.24310356886020035]","[0.026750000193715096, 0.05299999937415123, 0.03999999910593033]","[0.0, 0.0, -0.5880291671602134]","[0.06669000536203384, 0.1129065603017807, 0.03999999910593033]","[0.0, -0.0, 0.22440347999297666]",0.5644211026116486,-0.6955456450767431,"(0.0, 0.0, 0.0, 0.0, 0.0, 0.0)",-2.5653887029459534,-0.8095021057306824,0.22095594994407386,"(0.0, 0.0, 0.0, 0.0, 0.0, 0.0)",-1.3162484069423614,-0.5902299909915665,-0.5282009358922635,"(0.0, 0.0, 0.0, 0.0, 0.0, 0.0)",2.2182201055397672,0.8113746208308062,-0.2539181105761019,"(0.0, 0.0, 0.0, 0.0, 0.0, 0.0)",1.1935224107699782,True,"(-0.030255858903007457, 0.1850846497580981, 0.039999328913864)","(0.9999825981869901, -0.0058611403834598645, -0.0006710861359990331)",-0.00021666069272913404,18.678270976448303,True,"(0.032845515395868066, 0.18490886975097787, 0.040000671086136017)","(-0.9999825981869901, 0.005861140383469938, 0.0006710861360160668)",-0.0006020320936879877,17.09099476963811
69,Move,"(0.0125, 0.0, -0.004200000000000001)","(0.0, 0.09412735188930618, 0.0)","(0.002007365117121548, 0.17168442856609464, 0.001631606008817028)","(1.546899737981096, 0.0011807130571909253, -0.0068216332494186755)","[0.002007286555656542, 0.001685366189575821, 0.0007167163257292932]","[-0.026750000193715096, 0.05299999937415123, 0.03999999910593033]","[0.0, -0.0, 0.5644211505180216]","[-0.0652647316455841, 0.11383268237113953, 0.03999999910593033]","[0.0, 0.0, -0.24508100688201984]","[0.026750000193715096, 0.05299999937415123, 0.03999999910593033]","[0.0, 0.0, -0.59022999725895]","[0.06682175397872925, 0.11281851679086685, 0.03999999910593033]","[0.0, -0.0, 0.2211446158246776]",0.5616709905271843,-0.6600269002714377,"(0.0, 0.0, 0.0, 0.0, 0.0, 0.0)",-2.191612507785569,-0.8086822422817896,0.1967672277342513,"(0.0, 0.0, 0.0, 0.0, 0.0, 0.0)",-1.194551400940053,-0.5923258497847717,-0.5030061103692526,"(0.0, 0.0, 0.0, 0.0, 0.0, 0.0)",2.311259758184972,0.8103384187914041,-0.2486884894565018,"(0.0, 0.0, 0.0, 0.0, 0.0, 0.0)",1.2235787381007601,True,"(-0.029938661528292485, 0.1851282036494196, 0.03999901015287508)","(0.9999787508802723, -0.00644344555339699, -0.0009898471249186358)",-0.00019893117823850315,16.944674933460483,True,"(0.03321206512423369, 0.18492805774712434, 0.040000989847124926)","(-0.9999787508802723, 0.006443445553393518, 0.0009898471249218607)",-0.000570394774518911,17.213547902199508
70,Move,"(0.012199999999999999, 0.0, -0.0037)","(0.0, 0.09041678189956627, 0.0)","(0.0023167669807555528, 0.17182073245614515, 0.0015469222375109877)","(1.5502194914064034, 0.0013211884254334305, -0.007136651211005224)","[0.002316688419290547, 0.0018216700796263308, 0.000632032554423253]","[-0.026750000193715096, 0.05299999937415123, 0.03999999910593033]","[0.0, -0.0, 0.5616709227452454]","[-0.06509728729724884, 0.11393837630748749, 0.03999999910593033]","[0.0, 0.0, -0.24701125899264445]","[0.026750000193715096, 0.05299999937415123, 0.03999999910593033]","[0.0, 0.0, -0.5923259031798105]","[0.06694703549146652, 0.11273439973592758, 0.03999999910593033]","[0.0, -0.0, 0.21801258742269702]",0.5589454677074716,-0.6541254767310553,"(0.0, 0.0, 0.0, 0.0, 0.0, 0.0)",-2.1846066464895926,-0.8078857708999678,0.19115313163722444,"(0.0, 0.0, 0.0, 0.0, 0.0, 0.0)",-1.1661076652340616,-0.5944048238213584,-0.49895376878081144,"(0.0, 0.0, 0.0, 0.0, 0.0, 0.0)",2.168328561713288,0.8093398329626171,-0.2396605989088758,"(0.0, 0.0, 0.0, 0.0, 0.0, 0.0)",1.1628459040229615,True,"(-0.029633655623666363, 0.18516712449030512, 0.03999881928721714)","(0.9999760357247708, -0.006821575587520846, -0.0011807127828616446)",-0.00018246281359140889,16.57150381951677,True,"(0.03356334177022902, 0.18494610158942895, 0.04000118071278285)","(-0.9999760357247709, 0.006821575587523421, 0.001180712782850965)",-0.0005405477040544396,16.36039144701792
71,Move,"(0.014199999999999999, 0.0, -0.0039)","(0.0, 0.06861063822514908, 0.0)","(0.0026177906014185947, 0.17196740665891144, 0.0014303695648559562)","(1.5542552785001904, 0.0011986763090138396, -0.007270109488107294)","[0.002617712039953589, 0.00196834428239262, 0.0005154798817682215]","[-0.026750000193715096, 0.05299999937415123, 0.03999999910593033]","[0.0, -0.0, 0.5589453891305449]","[-0.06493105739355087, 0.11404266208410263, 0.03999999910593033]","[0.0, 0.0, -0.24894031205157005]","[0.026750000193715096, 0.05299999937415123, 0.03999999910593033]","[0.0, 0.0, -0.5944048279413185]","[0.06707113236188889, 0.11265069991350174, 0.03999999910593033]","[0.0, -0.0, 0.21493502417989044]",0.556432829425038,-0.6030331877840387,"(0.0, 0.0, 0.0, 0.0, 0.0, 0.0)",-1.785275078475235,-0.807210131071695,0.16215355878547066,"(0.0, 0.0, 0.0, 0.0, 0.0, 0.0)",-0.9835265524640631,-0.596416214286185,-0.48273371155838246,"(0.0, 0.0, 0.0, 0.0, 0.0, 0.0)",1.87537204595575,0.8085107054554238,-0.1989906017264118,"(0.0, 0.0, 0.0, 0.0, 0.0, 0.0)",1.0000674483067333,True,"(-0.029330073969115605, 0.18520448475366122, 0.03999867881195893)","(0.9999736614657563, -0.007136584402157874, -0.0013211880410644772)",-0.00016767549148062095,14.031239968989368,True,"(0.03390981130407643, 0.1849620397083817, 0.04000132118804107)","(-0.9999736614657563, 0.007136584402158372, 0.001321188041063982)",-0.0005123765203199018,13.979214736705371
72,Move,"(0.0158, 0.0, -0.0035)","(0.0, 0.08188561251581795, 0.0)","(0.002943335499515833, 0.17212642691773278, 0.00129648843476983)","(1.5591300620745319, 0.001393610262322243, -0.007723559978012378)","[0.002943256938050827, 0.0021273645412139552, 0.0003815987516820954]","[-0.026750000193715096, 0.05299999937415123, 0.03999999910593033]","[0.0, -0.0, 0.5564328123218186]","[-0.06477756053209305, 0.1141384094953537, 0.03999999910593033]","[0.0, 0.0, -0.25077733648799555]","[0.026750000193715096, 0.05299999937415123, 0.03999999910593033]","[0.0, 0.0, -0.5964161891740218]","[0.06719103455543518, 0.11256948113441467, 0.03999999910593033]","[0.0, -0.0, 0.21209447346721713]",0.5536158187919447,-0.6760825519424091,"(0.0, 0.0, 0.0, 0.0, 0.0, 0.0)",-2.0632814303159845,-0.8065569969603632,0.1567521867196494,"(0.0, 0.0, 0.0, 0.0, 0.0, 0.0)",-1.0397864655591766,-0.5987283760023075,-0.5549188118694243,"(0.0, 0.0, 0.0, 0.0, 0.0, 0.0)",1.520924694621696,0.8076952838001357,-0.1957011972691437,"(0.0, 0.0, 0.0, 0.0, 0.0, 0.0)",0.8609360378527077,True,"(-0.02904589746773588, 0.1852364116429182, 0.039998801323978046)","(0.99997285447704, -0.007270040222390389, -0.0011986760219479657)",-0.00015447339269841932,14.768068001607062,True,"(0.03423522217516483, 0.1849720140834792, 0.04000119867602196)","(-0.9999728544770399, 0.007270040222384914, 0.0011986760219637117)",-0.0004842038338052541,12.297403346299028
73,Move,"(0.0157, 0.0, -0.0037)","(0.0, 0.08188561251581795, 0.0)","(0.003293653624102112, 0.17230020999281814, 0.0011456934069500094)","(1.56482603418555, 0.0018979618988841155, -0.008484191770381835)","[0.0032935750626371064, 0.0023011476162993205, 0.00023080372386227472]","[-0.026750000193715096, 0.05299999937415123, 0.03999999910593033]","[0.0, -0.0, 0.5536157892882573]","[-0.06460517644882202, 0.11424528807401657, 0.03999999910593033]","[0.0, 0.0, -0.2529411656095504]","[0.026750000193715096, 0.05299999937415123, 0.03999999910593033]","[0.0, 0.0, -0.5987283892492247]","[0.06732866168022156, 0.11247581243515015, 0.03999999910593033]","[0.0, -0.0, 0.208966906978423]",0.5504985839568713,-0.7481363604175826,"(0.0, 0.0, 0.0, 0.0, 0.0, 0.0)",-2.0131558942971486,-0.805928788562567,0.15077001547108734,"(0.0, 0.0, 0.0, 0.0, 0.0, 0.0)",-1.0085264920711212,-0.6013516471780259,-0.6295850821724092,"(0.0, 0.0, 0.0, 0.0, 0.0, 0.0)",1.448607493267585,0.8069127379432338,-0.18781100565643635,"(0.0, 0.0, 0.0, 0.0, 0.0, 0.0)",0.8217324524111995,True,"(-0.028719741318737245, 0.18526751802233427, 0.039998606390188776)","(0.9999692024132438, -0.007723475688756265, -0.0013936098112314777)",-0.00014246696791511687,14.394276279052722,True,"(0.034599430023324065, 0.18497839247053854, 0.040001393609811225)","(-0.9999692024132439, 0.007723475688748101, 0.0013936098112162817)",-0.0004580809753841731,11.767987305566413
74,Move,"(0.016, 0.0, -0.0039)","(0.0, 0.08188561251581795, 0.0)","(0.0036394414151978663, 0.17249019770340906, 0.0009671498277858256)","(1.5711725212961611, 0.002178261840028949, -0.009040709513605034)","[0.0036393628537328606, 0.0024911353268902425, 5.22601446980909e-05]","[-0.026750000193715096, 0.05299999937415123, 0.03999999910593033]","[0.0, -0.0, 0.5504985298165005]","[-0.06441407650709152, 0.11436299234628677, 0.03999999910593033]","[0.0, 0.0, -0.2554301921352757]","[0.026750000193715096, 0.05299999937415123, 0.03999999910593033]","[0.0, 0.0, -0.6013516861145588]","[0.0674845427274704, 0.11236915737390518, 0.03999999910593033]","[0.0, -0.0, 0.20556107741442126]",0.5474783258891073,-0.7248619362633687,"(0.0, 0.0, 0.0, 0.0, 0.0, 0.0)",-1.797010435858513,-0.8052659524162341,0.1590806751199039,"(0.0, 0.0, 0.0, 0.0, 0.0, 0.0)",-0.9588795406496712,-0.6038130487506853,-0.5907363774382612,"(0.0, 0.0, 0.0, 0.0, 0.0, 0.0)",1.819541700305996,0.8060893431843894,-0.19761474212265814,"(0.0, 0.0, 0.0, 0.0, 0.0, 0.0)",0.9446547728724496,True,"(-0.028351961566625325, 0.18529741236260008, 0.03999810203924061)","(0.9999622083965697, -0.008484074705650895, -0.0018979607593896566)",-0.00013157035373127343,13.828733064585313,True,"(0.03500240616320432, 0.18498014311270417, 0.0400018979607594)","(-0.9999622083965699, 0.008484074705644943, 0.0018979607593988114)",-0.0004337700256336211,13.32742650449319
75,Move,"(0.014400000000000001, 0.0, -0.0043)","(0.0, 0.0771348262918894, 0.0)","(0.003968280768781762, 0.17264385905196197, 0.0009884018164860698)","(1.5730975964368588, 0.0007419399644548533, -0.015047936570411695)","[0.003968202207316756, 0.0026447966754431507, 7.35121333983351e-05]","[-0.026750000193715096, 0.05299999937415123, 0.03999999910593033]","[0.0, -0.0, 0.5474782918601868]","[-0.06422857940196991, 0.11447647213935852, 0.03999999910593033]","[0.0, 0.0, -0.2577876316971776]","[0.026750000193715096, 0.05299999937415123, 0.03999999910593033]","[0.0, 0.0, -0.6038130974855365]","[0.06763055175542831, 0.11226871609687805, 0.03999999910593033]","[0.0, -0.0, 0.20227627818801228]",0.5444271807624204,-0.7322748304048533,"(0.0, 0.0, 0.0, 0.0, 0.0, 0.0)",-2.6561466817739716,-0.8042653861756139,0.24013589774884064,"(0.0, 0.0, 0.0, 0.0, 0.0, 0.0)",-1.6055089471482342,-0.6062240819579391,-0.5786479697409047,"(0.0, 0.0, 0.0, 0.0, 0.0, 0.0)",1.2758408270791415,0.8053899201895401,-0.16786151876382027,"(0.0, 0.0, 0.0, 0.0, 0.0, 0.0)",0.6652417452140438,True,"(-0.02799931866241403, 0.18532747771620053, 0.03999782173988255)","(0.9999567607496688, -0.00904056490991286, -0.0021782601174560614)",-0.0001215319282302258,20.15138310990206,True,"(0.03538707325027482, 0.184983276450517, 0.04000217826011744)","(-0.9999567607496687, 0.009040564909917169, 0.002178260117445827)",-0.00041171303245977144,9.456700242200217
76,Move,"(0.0147, 0.0, -0.0047)","(0.0, 0.06392268385429233, 0.0)","(0.004253598841019239, 0.17278615711556836, 0.0009652516392862807)","(1.5735098291244298, -0.000629058606298074, -0.020333311211135713)","[0.004253520279554234, 0.0027870947390495338, 5.0361956198545976e-05]","[-0.026750000193715096, 0.05299999937415123, 0.03999999910593033]","[0.0, -0.0, 0.5444271681463022]","[-0.06404082477092743, 0.11459053307771683, 0.03999999910593033]","[0.0, 0.0, -0.2598381921837284]","[0.026750000193715096, 0.05299999937415123, 0.03999999910593033]","[0.0, 0.0, -0.606224043337478]","[0.06777332723140717, 0.11216998100280762, 0.03999999910593033]","[0.0, -0.0, 0.19916584608666238]",0.5417836594832426,-0.6344451070026536,"(0.0, 0.0, 0.0, 0.0, 0.0, 0.0)",-1.974248492999267,-0.8033173084884302,0.22753864492409512,"(0.0, 0.0, 0.0, 0.0, 0.0, 0.0)",-1.237921033007409,-0.608168215763642,-0.46659211336869466,"(0.0, 0.0, 0.0, 0.0, 0.0, 0.0)",2.1058540044465386,0.8045884637716283,-0.1923495402988318,"(0.0, 0.0, 0.0, 0.0, 0.0, 0.0)",1.011964175663908,True,"(-0.02766641117321713, 0.1853631477688638, 0.03999925806010362)","(0.999886506732658, -0.015047364525140683, -0.0007419398963772325)",-0.00010856208686892066,16.053760435128734,True,"(0.035756221497389454, 0.18498737644807517, 0.04000074193989638)","(-0.9998865067326583, 0.015047364525121967, 0.0007419398963836426)",-0.0003903483947988938,14.624977255631931
77,Move,"(0.0147, 0.0, -0.0054)","(0.0, 0.05541594908007196, 0.0)","(0.0045167818269284754, 0.17284785649506398, 0.000966156711197803)","(1.5732568142174648, -0.0006075738806358541, -0.022610627859823085)","[0.00451670326546347, 0.0028487941185451615, 5.126702811006833e-05]","[-0.026750000193715096, 0.05299999937415123, 0.03999999910593033]","[0.0, -0.0, 0.5417836645225234]","[-0.0638778805732727, 0.11468890309333801, 0.03999999910593033]","[0.0, 0.0, -0.26153367015333534]","[0.026750000193715096, 0.05299999937415123, 0.03999999910593033]","[0.0, 0.0, -0.6081682447162641]","[0.0678882822394371, 0.1120901107788086, 0.03999999910593033]","[0.0, -0.0, 0.19642024619001236]",0.5390890453513604,-0.6467073916517272,"(0.0, 0.0, 0.0, 0.0, 0.0, 0.0)",-2.2334698593233857,-0.8022052100313692,0.26690362969464076,"(0.0, 0.0, 0.0, 0.0, 0.0, 0.0)",-1.3500738474743863,-0.610105182055716,-0.4648719100977564,"(0.0, 0.0, 0.0, 0.0, 0.0, 0.0)",1.9721412917694983,0.803897005634416,-0.16594995293094905,"(0.0, 0.0, 0.0, 0.0, 0.0, 0.0)",1.021632843949553,True,"(-0.02738359300866658, 0.18539614977408306, 0.04000062905856481)","(0.9997930875333539, -0.02033190610457353, 0.0006290585648119516)",-9.752382028228452e-05,16.875936519117836,True,"(0.03607127375066657, 0.18499768044837892, 0.03999937094143519)","(-0.9997930875333542, 0.02033190610456658, -0.000629058564806059)",-0.0003726365514615728,14.803295156244966
78,Move,"(0.016800000000000002, 0.0, -0.004900000000000001)","(0.0, 0.04689525167183564, 0.0)","(0.004797925338213205, 0.1728633245365715, 0.000968232786323163)","(1.5730445756877538, -0.0005957455602086977, -0.023078486325629324)","[0.004797846776748199, 0.002864262160052672, 5.334310323542831e-05]","[-0.026750000193715096, 0.05299999937415123, 0.03999999910593033]","[0.0, -0.0, 0.5390890285221762]","[-0.06371151655912399, 0.114788718521595, 0.03999999910593033]","[0.0, 0.0, -0.2631161299580077]","[0.026750000193715096, 0.05299999937415123, 0.03999999910593033]","[0.0, 0.0, -0.6101051521840156]","[0.06800266355276108, 0.11201031506061554, 0.03999999910593033]","[0.0, -0.0, 0.19379184127425986]",0.5363986391497174,-0.6456974883943208,"(0.0, 0.0, 0.0, 0.0, 0.0, 0.0)",-2.5244203262542557,-0.8011855791078429,0.24471142164631582,"(0.0, 0.0, 0.0, 0.0, 0.0, 0.0)",-1.5165058293054852,-0.6119159575983382,-0.4345861302293298,"(0.0, 0.0, 0.0, 0.0, 0.0, 0.0)",2.1081381127504693,0.8030658417243759,-0.1994793384096243,"(0.0, 0.0, 0.0, 0.0, 0.0, 0.0)",1.0697334635561202,True,"(-0.02710539650363253, 0.18543743508199925, 0.04000060757384325)","(0.9997442061181658, -0.022608697158027612, 0.000607573843254233)",-8.499195967777688e-05,19.164412146768814,True,"(0.03637738576760135, 0.1850009118312707, 0.039999392426156744)","(-0.9997442061181657, 0.022608697158027328, -0.0006075738432567825)",-0.0003585941702705059,15.556897680070083
79,Move,"(0.017, 0.0, -0.0054)","(0.0, 0.02981895027032312, 0.0)","(0.005127448079590291, 0.17285460157779203, 0.000967801892081783)","(1.572597624158128, -0.00042234842237927686, -0.023704800512478946)","[0.005127369518125285, 0.0028555392012732106, 5.2912208994048316e-05]","[-0.026750000193715096, 0.05299999937415123, 0.03999999910593033]","[0.0, -0.0, 0.5363986755170863]","[-0.06354515254497528, 0.11488793790340424, 0.03999999910593033]","[0.0, 0.0, -0.26478694749388537]","[0.026750000193715096, 0.05299999937415123, 0.03999999910593033]","[0.0, 0.0, -0.6119159707109622]","[0.06810945272445679, 0.11193552613258362, 0.03999999910593033]","[0.0, -0.0, 0.1911498610687433]",0.533390652196488,-0.7219168687750681,"(0.0, 0.0, 0.0, 0.0, 0.0, 0.0)",-2.4962079365189678,-0.8004070495027181,0.18684710522996484,"(0.0, 0.0, 0.0, 0.0, 0.0, 0.0)",-1.389795699420049,-0.6141865737806734,-0.5449478837604504,"(0.0, 0.0, 0.0, 0.0, 0.0, 0.0)",1.5301682782759887,0.8022745811649982,-0.1899025342506644,"(0.0, 0.0, 0.0, 0.0, 0.0, 0.0)",0.8767599404627059,True,"(-0.02682101071046295, 0.1854765962364478, 0.04000059574552498)","(0.9997335261451394, -0.023076433621233856, 0.0005957455249792448)",-8.167278831321363e-05,18.01455569098212,True,"(0.03667706685258662, 0.18500723960903936, 0.039999404254475034)","(-0.9997335261451394, 0.023076433621233544, -0.0005957455249642424)",-0.00034633823647164415,12.738587733576107
80,Move,"(0.0171, 0.0, -0.006200000000000001)","(0.0, 0.017205455766160106, 0.0)","(0.0054555340881261415, 0.17285571268870248, 0.0009677745853966407)","(1.57226127968517, -0.0003629810767938449, -0.02408893141606942)","[0.005455455526661136, 0.002856650312183656, 5.288490230890598e-05]","[-0.026750000193715096, 0.05299999937415123, 0.03999999910593033]","[0.0, -0.0, 0.5333906124141734]","[-0.06335882842540741, 0.11499834060668945, 0.03999999910593033]","[0.0, 0.0, -0.26701641878878046]","[0.026750000193715096, 0.05299999937415123, 0.03999999910593033]","[0.0, 0.0, -0.6141865368449868]","[0.06824316084384918, 0.11184146255254745, 0.03999999910593033]","[0.0, -0.0, 0.18808801639172654]",0.5304615813641383,-0.7029769997639,"(0.0, 0.0, 0.0, 0.0, 0.0, 0.0)",-2.1791184362917444,-0.7996547088109519,0.1805617660238938,"(0.0, 0.0, 0.0, 0.0, 0.0, 0.0)",-1.198028924219213,-0.6163004124572465,-0.50732128237755,"(0.0, 0.0, 0.0, 0.0, 0.0, 0.0)",2.138771335877024,0.8013617333045128,-0.21908348651650325,"(0.0, 0.0, 0.0, 0.0, 0.0, 0.0)",1.1124591199022524,True,"(-0.02647736404401052, 0.18550654781526507, 0.040000422348409816)","(0.9997189652083553, -0.02370257843686926, 0.00042234840981256026)",-8.067073407831948e-05,16.66068436396638,True,"(0.03703460286993733, 0.18500664092999422, 0.039999577651590186)","(-0.9997189652083553, 0.023702578436867267, -0.00042234840981882283)",-0.0003333610765210877,15.736608339294385
81,Move,"(0.0171, 0.0, -0.006500000000000001)","(0.0, 0.008604473212332044, 0.0)","(0.00577569886279611, 0.1728713766946545, 0.0009694682201157894)","(1.57209020492288, -0.0003605736021862858, -0.02434847927678941)","[0.005775620301331105, 0.0028723143181356714, 5.4578537028054735e-05]","[-0.026750000193715096, 0.05299999937415123, 0.03999999910593033]","[0.0, -0.0, 0.5304615936659144]","[-0.06317707151174545, 0.11510530114173889, 0.03999999910593033]","[0.0, 0.0, -0.26919313591672794]","[0.026750000193715096, 0.05299999937415123, 0.03999999910593033]","[0.0, 0.0, -0.6163004697308944]","[0.06836745142936707, 0.11175362020730972, 0.03999999910593033]","[0.0, -0.0, 0.18506132430860406]",0.5275505141136353,-0.6986561401207307,"(0.0, 0.0, 0.0, 0.0, 0.0, 0.0)",-2.458679149138257,-0.79877395270507,0.21138146541164315,"(0.0, 0.0, 0.0, 0.0, 0.0, 0.0)",-1.316933127339168,-0.6182289536686384,-0.46284989073403376,"(0.0, 0.0, 0.0, 0.0, 0.0, 0.0)",2.485687506267311,0.8002750456036901,-0.26080504819744915,"(0.0, 0.0, 0.0, 0.0, 0.0, 0.0)",1.3046958324384124,True,"(-0.02614217508205615, 0.1855348556231069, 0.04000036298106882)","(0.9997098098628665, -0.024086600189629184, 0.00036298106881870845)",-8.023000620239456e-05,18.624037456889234,True,"(0.037380414943827614, 0.18501028123947746, 0.03999963701893118)","(-0.9997098098628666, 0.02408660018962423, -0.00036298106882746403)",-0.0003229770246484026,18.300419768688922
82,Move,"(0.0172, 0.0, -0.006900000000000001)","(0.0, -0.0, 0.0)","(0.006080891510590839, 0.17288925601832608, 0.0009708324781455228)","(1.57194673106954, -0.00035564728801267974, -0.024655335604903544)","[0.006080812949125834, 0.0028901936418072594, 5.5942795057788066e-05]","[-0.026750000193715096, 0.05299999937415123, 0.03999999910593033]","[0.0, -0.0, 0.5275505328619716]","[-0.06299612671136856, 0.11521107703447342, 0.03999999910593033]","[0.0, 0.0, -0.27122345894964073]","[0.026750000193715096, 0.05299999937415123, 0.03999999910593033]","[0.0, 0.0, -0.6182289288757783]","[0.06848068535327911, 0.1116732507944107, 0.03999999910593033]","[0.0, -0.0, 0.1820460814261556]",0.5247148749337629,-0.6805534031693747,"(0.0, 0.0, 0.0, 0.0, 0.0, 0.0)",-2.526632444424737,-0.7978107454809655,0.23116973378507952,"(0.0, 0.0, 0.0, 0.0, 0.0, 0.0)",-1.378121759407816,-0.6200445071039361,-0.43573282447144546,"(0.0, 0.0, 0.0, 0.0, 0.0, 0.0)",2.5372300365255764,0.7991986544286379,-0.25833388201251656,"(0.0, 0.0, 0.0, 0.0, 0.0, 0.0)",1.3567367183405898,True,"(-0.02581826612312043, 0.18556706670506157, 0.04000036057359437)","(0.9997035254353257, -0.02434607193910581, 0.00036057359437524975)",-8.038433671728838e-05,19.28253701040875,True,"(0.03771460150253935, 0.18502025614868087, 0.03999963942640563)","(-0.9997035254353256, 0.0243460719391103, -0.00036057359437252135)",-0.0003122698653402703,18.854810305833738
83,Move,"(0.0152, 0.0, -0.0064)","(0.0, -0.0, 0.0)","(0.006376873360406734, 0.1729100469052523, 0.0009718011742673783)","(1.5718326320287246, -0.0003491348838320643, -0.02495989508273031)","[0.006376794798941729, 0.002910984528733479, 5.69114911796436e-05]","[-0.026750000193715096, 0.05299999937415123, 0.03999999910593033]","[0.0, -0.0, 0.5247148505479242]","[-0.06281957030296326, 0.11531361192464828, 0.03999999910593033]","[0.0, 0.0, -0.2730958607678798]","[0.026750000193715096, 0.05299999937415123, 0.03999999910593033]","[0.0, 0.0, -0.6200445256720071]","[0.06858713924884796, 0.11159738898277283, 0.03999999910593033]","[0.0, -0.0, 0.17915414947802555]",0.5219160496695686,-0.671718063406615,"(0.0, 0.0, 0.0, 0.0, 0.0, 0.0)",-2.694341879992312,-0.7967841963199159,0.24637179865191533,"(0.0, 0.0, 0.0, 0.0, 0.0, 0.0)",-1.4625938884415048,-0.6217500416303695,-0.4093282863440049,"(0.0, 0.0, 0.0, 0.0, 0.0, 0.0)",2.6485347441317884,0.7980755233895008,-0.2695514493929057,"(0.0, 0.0, 0.0, 0.0, 0.0, 0.0)",1.4151739958497216,True,"(-0.025510001088169358, 0.18560142614842945, 0.040000355647280515)","(0.9996960093863876, -0.024652836184579693, 0.00035564728051067936)",-7.919962085321408e-05,20.435404062026414,True,"(0.03803323385515919, 0.1850304779556689, 0.039999644352719486)","(-0.9996960093863876, 0.024652836184576556, -0.00035564728051515056)",-0.00030280512106511156,19.70530748042035
84,Move,"(0.0152, 0.0, -0.0067)","(0.0, -0.0, 0.0)","(0.006609271758821232, 0.17292692424459621, 0.0009732827996449603)","(1.5716985669766486, -0.0003502865823251663, -0.02518897307670714)","[0.006609193197356227, 0.0029278618680773916, 5.8393116557225577e-05]","[-0.026750000193715096, 0.05299999937415123, 0.03999999910593033]","[0.0, -0.0, 0.5219159881913744]","[-0.06264502555131912, 0.1154143214225769, 0.03999999910593033]","[0.0, 0.0, -0.27486816091402105]","[0.026750000193715096, 0.05299999937415123, 0.03999999910593033]","[0.0, 0.0, -0.6217500433168694]","[0.06868702173233032, 0.11152594536542892, 0.03999999910593033]","[0.0, -0.0, 0.17632549379200127]",0.5196884629980306,-0.5346208011691145,"(0.0, 0.0, 0.0, 0.0, 0.0, 0.0)",-2.001813112998252,-0.7959031760094972,0.21144487450047827,"(0.0, 0.0, 0.0, 0.0, 0.0, 0.0)",-1.1706858189274065,-0.6230587930294894,-0.3141003357887844,"(0.0, 0.0, 0.0, 0.0, 0.0, 0.0)",2.619847749767628,0.7971057104210156,-0.2327551124364467,"(0.0, 0.0, 0.0, 0.0, 0.0, 0.0)",1.3780794345334817,True,"(-0.025210906668189162, 0.1856373684002322, 0.04000034913487674)","(0.9996884570616479, -0.024957301988387113, 0.000349134876735778)",-7.804673121893103e-05,16.582229763002445,True,"(0.03834088625783304, 0.1850426477254109, 0.03999965086512326)","(-0.9996884570616479, 0.02495730198839168, -0.0003491348767407524)",-0.00029511545293624643,18.71970620507681
85,Move,"(0.0151, 0.0, -0.0068)","(0.0, 0.013110913340981403, 0.0)","(0.006840982567092041, 0.17294736218502316, 0.0009740466481357959)","(1.5716035641922346, -0.0003445068468236006, -0.02540096196166336)","[0.006840904005627035, 0.0029482998085043344, 5.91569650480612e-05]","[-0.026750000193715096, 0.05299999937415123, 0.03999999910593033]","[0.0, -0.0, 0.5196885102244739]","[-0.06250590085983276, 0.11549412459135056, 0.03999999910593033]","[0.0, 0.0, -0.2762147048949063]","[0.026750000193715096, 0.05299999937415123, 0.03999999910593033]","[0.0, 0.0, -0.6230587769756145]","[0.06876357644796371, 0.1114710122346878, 0.03999999910593033]","[0.0, -0.0, 0.17404691469511996]",0.5174362131565345,-0.5405399619590459,"(0.0, 0.0, 0.0, 0.0, 0.0, 0.0)",-2.5361540866927923,-0.7949746316211822,0.2228506531956048,"(0.0, 0.0, 0.0, 0.0, 0.0, 0.0)",-1.369078667357683,-0.6243074372131246,-0.29967460407245194,"(0.0, 0.0, 0.0, 0.0, 0.0, 0.0)",2.392560135115675,0.7960543735488874,-0.25232084931076115,"(0.0, 0.0, 0.0, 0.0, 0.0, 0.0)",1.278790707464507,True,"(-0.024977229621893193, 0.18566781870171828, 0.04000035028657516)","(0.9996827132602004, -0.02518630794775503, 0.0003502865751575736)",-7.629435259279465e-05,19.0650836475822,True,"(0.038584983683480664, 0.18505461841705734, 0.03999964971342483)","(-0.9996827132602005, 0.025186307947755705, -0.00035028657516468704)",-0.0002862141612272752,17.891657523201328
86,Move,"(0.0148, 0.0, -0.007)","(0.0, 0.021750293138353336, 0.0)","(0.007070969954397134, 0.17296882884339773, 0.0009747167051769968)","(1.5715153969480986, -0.0003381512948411719, -0.025622978982161995)","[0.007070891392932129, 0.002969766466878909, 5.9827022089262096e-05]","[-0.026750000193715096, 0.05299999937415123, 0.03999999910593033]","[0.0, -0.0, 0.5174361967487298]","[-0.062365058809518814, 0.11557449400424957, 0.03999999910593033]","[0.0, 0.0, -0.27753842753378893]","[0.026750000193715096, 0.05299999937415123, 0.03999999910593033]","[0.0, 0.0, -0.6243074463121264]","[0.06883655488491058, 0.11141850799322128, 0.03999999910593033]","[0.0, -0.0, 0.17174691862476751]",0.5151753069463562,-0.5426174904428079,"(0.0, 0.0, 0.0, 0.0, 0.0, 0.0)",-2.613323505915787,-0.7940060609540891,0.23245696010235045,"(0.0, 0.0, 0.0, 0.0, 0.0, 0.0)",-1.4156227050678751,-0.6255236069117666,-0.2918807276740548,"(0.0, 0.0, 0.0, 0.0, 0.0, 0.0)",2.4591552730424415,0.794983018295541,-0.25712526080315995,"(0.0, 0.0, 0.0, 0.0, 0.0, 0.0)",1.3227726103795778,True,"(-0.02474350142070851, 0.1856995643230488, 0.04000034450684)","(0.9996773535876015, -0.025398229054930523, 0.0003445068400020494)",-7.526729712253398e-05,19.682564343504527,True,"(0.0388272257620264, 0.18506924108715295, 0.039999655493159994)","(-0.9996773535876016, 0.025398229054931453, -0.0003445068400073549)",-0.0002785059082091943,18.453830878686002
87,Move,"(0.0174, 0.0, -0.008199999999999999)","(0.0, 0.038988910160301336, 0.0)","(0.0072909867232688365, 0.17299219010328912, 0.0009753062741186668)","(1.5714331064303957, -0.0003315475675010742, -0.025829717058826935)","[0.007290908161803831, 0.002993127726770295, 6.041659103093208e-05]","[-0.026750000193715096, 0.05299999937415123, 0.03999999910593033]","[0.0, -0.0, 0.5151753621462792]","[-0.06222349405288696, 0.115654855966568, 0.03999999910593033]","[0.0, 0.0, -0.2788307818094081]","[0.026750000193715096, 0.05299999937415123, 0.03999999910593033]","[0.0, 0.0, -0.6255236335207748]","[0.06890757381916046, 0.11136727780103683, 0.03999999910593033]","[0.0, -0.0, 0.16945940760653114]",0.5129690538014495,-0.5295007547775865,"(0.0, 0.0, 0.0, 0.0, 0.0, 0.0)",-2.6584905134311425,-0.7929970087716933,0.24217252377498813,"(0.0, 0.0, 0.0, 0.0, 0.0, 0.0)",-1.4431825091574044,-0.6266300721452569,-0.2655516560376881,"(0.0, 0.0, 0.0, 0.0, 0.0, 0.0)",2.6186200921339786,0.7938691207695163,-0.2673354062459196,"(0.0, 0.0, 0.0, 0.0, 0.0, 0.0)",1.4018091974436948,True,"(-0.02451131377498751, 0.18573231836277837, 0.0400003381512884)","(0.999671692279303, -0.025620173870230706, 0.00033815128840446873)",-7.427791047680869e-05,20.183101935583576,True,"(0.03906674264666915, 0.18508440306197244, 0.039999661848711614)","(-0.9996716922793029, 0.02562017387023701, -0.000338151288391592)",-0.00027193773825099157,19.45946338481807
88,Move,"(0.0175, 0.0, -0.008199999999999999)","(0.0, 0.06476916854150959, 0.0)","(0.007586275282996241, 0.17301339772921626, 0.0009758631667024033)","(1.571205118189268, -0.00027546301273273944, -0.02614739811454712)","[0.007586196721531236, 0.0030143353526974337, 6.0973483614668576e-05]","[-0.026750000193715096, 0.05299999937415123, 0.03999999910593033]","[0.0, -0.0, 0.5129691183693481]","[-0.06208517402410507, 0.11573296785354614, 0.03999999910593033]","[0.0, 0.0, -0.28002799106562903]","[0.026750000193715096, 0.05299999937415123, 0.03999999910593033]","[0.0, 0.0, -0.6266301290162657]","[0.06897212564945221, 0.1113205999135971, 0.03999999910593033]","[0.0, -0.0, 0.16723905108580372]",0.5099942284238572,-0.7139580906221641,"(0.0, 0.0, 0.0, 0.0, 0.0, 0.0)",-4.021895271333586,-0.7917199039049944,0.3065051680077501,"(0.0, 0.0, 0.0, 0.0, 0.0, 0.0)",-2.076666143305941,-0.6281164352507194,-0.3567271453109988,"(0.0, 0.0, 0.0, 0.0, 0.0, 0.0)",2.830127640197013,0.7924650920030946,-0.33696690394120943,"(0.0, 0.0, 0.0, 0.0, 0.0, 0.0)",1.5627378077979912,True,"(-0.024289099245092753, 0.18576622016984567, 0.04000033154756143)","(0.9996663764610872, -0.02582684358132304, 0.0003315475614249126)",-7.347485599115462e-05,28.312417563292325,True,"(0.03929499633876714, 0.18510178425367368, 0.03999966845243857)","(-0.9996663764610875, 0.025826843581315623, -0.00033154756142964357)",-0.0002664810260685482,22.336728841315256
89,Move,"(0.0146, 0.0, -0.0091)","(0.0, 0.08188561251581795, 0.0)","(0.007887892845955768, 0.1730456261350681, 0.0009762145087115346)","(1.5711366372619489, -0.0002680186131923865, -0.02644454483192851)","[0.007887814284490762, 0.003046563758549281, 6.132482562379987e-05]","[-0.026750000193715096, 0.05299999937415123, 0.03999999910593033]","[0.0, -0.0, 0.5099941975960004]","[-0.06189839914441109, 0.11583780497312546, 0.03999999910593033]","[0.0, 0.0, -0.2817256847601665]","[0.026750000193715096, 0.05299999937415123, 0.03999999910593033]","[0.0, 0.0, -0.6281165054215756]","[0.06905876845121384, 0.11125777661800385, 0.03999999910593033]","[0.0, -0.0, 0.16434866770382847]",0.5069609364478553,-0.7279900742404514,"(0.0, 0.0, 0.0, 0.0, 0.0, 0.0)",-3.6565733827996367,-0.7903344738612387,0.3325032105013559,"(0.0, 0.0, 0.0, 0.0, 0.0, 0.0)",-1.937849728985841,-0.6295884363546494,-0.35328026494321585,"(0.0, 0.0, 0.0, 0.0, 0.0, 0.0)",3.4768766158654976,0.7909698688066303,-0.3588535671514061,"(0.0, 0.0, 0.0, 0.0, 0.0, 0.0)",1.8918050139910876,True,"(-0.023983444131057872, 0.18580816988250992, 0.04000027546300926)","(0.9996581383346396, -0.026144417787610164, 0.00027546300925407026)",-7.731016495288293e-05,27.392502897655106,True,"(0.039594944876818056, 0.18512186092021155, 0.03999972453699075)","(-0.9996581383346398, 0.02614441778760523, -0.00027546300925220966)",-0.0002680912221979539,26.192027313907744
90,Move,"(0.0172, 0.0, -0.009000000000000001)","(0.0, 0.10865023659515102, 0.0)","(0.008107752285872133, 0.17308769917672132, 0.0009770154673805255)","(1.5710446057879626, -0.00026642266258069055, -0.02662116792091673)","[0.008107673724407127, 0.0030886368002024933, 6.212578429279077e-05]","[-0.026750000193715096, 0.05299999937415123, 0.03999999910593033]","[0.0, -0.0, 0.5069609441990717]","[-0.06170763075351715, 0.11594413220882416, 0.03999999910593033]","[0.0, 0.0, -0.28337350472818396]","[0.026750000193715096, 0.05299999937415123, 0.03999999910593033]","[0.0, 0.0, -0.6295883983718313]","[0.06914447247982025, 0.11119543015956879, 0.03999999910593033]","[0.0, -0.0, 0.16138145778076654]",0.5044659189131995,-0.5988042083174069,"(0.0, 0.0, 0.0, 0.0, 0.0, 0.0)",-3.554777291490578,-0.7887812436057793,0.3727752613102671,"(0.0, 0.0, 0.0, 0.0, 0.0, 0.0)",-1.9441877092298396,-0.6303049894354822,-0.17197273939984564,"(0.0, 0.0, 0.0, 0.0, 0.0, 0.0)",4.471832907786449,0.7892909764294302,-0.40293417052801034,"(0.0, 0.0, 0.0, 0.0, 0.0, 0.0)",2.351875215976282,True,"(-0.023677390713443033, 0.18585327263044973, 0.04000026801860998)","(0.9996503274960772, -0.026441461816817256, 0.0002680186099815982)",-7.755941792804362e-05,28.207218932049113,True,"(0.03989988104641849, 0.1851439507017567, 0.03999973198139001)","(-0.9996503274960775, 0.026441461816808887, -0.0002680186099897422)",-0.0002686430585554161,31.812841368666817
91,Move,"(0.0166, 0.0, -0.0089)","(0.0, 0.13920222515131175, 0.0)","(0.008392451352167292, 0.17312862783744917, 0.0009719000438173733)","(1.5709788065969987, -8.855425742480582e-05, -0.027168093168590545)","[0.008392372790702287, 0.0031295654609303503, 5.701036072963857e-05]","[-0.026750000193715096, 0.05299999937415123, 0.03999999910593033]","[0.0, -0.0, 0.5044659201548416]","[-0.06155047565698624, 0.11603115499019623, 0.03999999910593033]","[0.0, 0.0, -0.28431536034891275]","[0.026750000193715096, 0.05299999937415123, 0.03999999910593033]","[0.0, 0.0, -0.630305020818387]","[0.06918616592884064, 0.11116503924131393, 0.03999999910593033]","[0.0, -0.0, 0.158986008301043]",0.5012188906207727,-0.7792867901824121,"(0.0, 0.0, 0.0, 0.0, 0.0, 0.0)",-4.912179530164393,-0.7869196177578642,0.4467902034996189,"(0.0, 0.0, 0.0, 0.0, 0.0, 0.0)",-2.5114429518755674,-0.6316084065264146,-0.31282010182378184,"(0.0, 0.0, 0.0, 0.0, 0.0, 0.0)",3.786348127668119,0.787668669956974,-0.3893535533894837,"(0.0, 0.0, 0.0, 0.0, 0.0, 0.0)",2.161911555315276,True,"(-0.023454392029311363, 0.18590521401772753, 0.040000266422659435)","(0.9996456421573544, -0.02661802274356877, 0.00026642265943061167)",-7.825894371128797e-05,35.01611914660854,True,"(0.04011873212976207, 0.18518118150250917, 0.03999973357734058)","(-0.9996456421573544, 0.026618022743566713, -0.0002664226594219092)",-0.00027187073790900155,30.065256157122
92,Move,"(0.0155, 0.0, -0.0091)","(0.0, 0.1663263870565556, 0.0)","(0.00868511138504038, 0.17317567178612198, 0.000972209914711035)","(1.570909072356766, -7.950298916937905e-05, -0.027495015380955792)","[0.008685032823575375, 0.003176609409603154, 5.732023162330032e-05]","[-0.026750000193715096, 0.05299999937415123, 0.03999999910593033]","[0.0, -0.0, 0.5012189490325566]","[-0.06134562939405441, 0.11614382266998291, 0.03999999910593033]","[0.0, 0.0, -0.2857007485195277]","[0.026750000193715096, 0.05299999937415123, 0.03999999910593033]","[0.0, 0.0, -0.6316084297962531]","[0.06926193833351135, 0.11110968142747879, 0.03999999910593033]","[0.0, -0.0, 0.15606026512012905]",0.4979945349902105,-0.773845351334928,"(0.0, 0.0, 0.0, 0.0, 0.0, 0.0)",-4.745889750461919,-0.7850461200598893,0.4496394475139875,"(0.0, 0.0, 0.0, 0.0, 0.0, 0.0)",-2.5338605847172766,-0.63273951662393,-0.27146642340369964,"(0.0, 0.0, 0.0, 0.0, 0.0, 0.0)",4.578321749948848,0.7857757186185841,-0.45430832121358455,"(0.0, 0.0, 0.0, 0.0, 0.0, 0.0)",2.473562764137121,True,"(-0.023152754725425176, 0.1859658723867523, 0.04000008855425731)","(0.9996309661367275, -0.02716475103321301, 8.855425730999131e-05)",-8.116992056813116e-05,35.74048430937972,True,"(0.04041111675457547, 0.18520816861398434, 0.03999991144574269)","(-0.9996309661367271, 0.02716475103322644, -8.855425730801614e-05)",-0.000277831379389174,34.08691593637151
