OSUrobotics/InHand-Manipulation/AnalyseData/Data/Trial Data/Better/new_hand_human_sub1_2v2_f_n_1_kpNone_kdNone_dp5_step5_save_data.csv
,Phase,human_cube_pos,human_cube_orn,Cube_Pos,Cube_Orn,Cube_pos_in_start_pos,b'l_prox_pin'_link_pos,b'l_prox_pin'_link_orn,b'l_distal_pin'_link_pos,b'l_distal_pin'_link_orn,b'r_prox_pin'_link_pos,b'r_prox_pin'_link_orn,b'r_distal_pin'_link_pos,b'r_distal_pin'_link_orn,b'l_prox_pin'_joint_angle,b'l_prox_pin'_joint_vel,b'l_prox_pin'_joint_react_forces,b'l_prox_pin'_joint_motor_torque,b'l_distal_pin'_joint_angle,b'l_distal_pin'_joint_vel,b'l_distal_pin'_joint_react_forces,b'l_distal_pin'_joint_motor_torque,b'r_prox_pin'_joint_angle,b'r_prox_pin'_joint_vel,b'r_prox_pin'_joint_react_forces,b'r_prox_pin'_joint_motor_torque,b'r_distal_pin'_joint_angle,b'r_distal_pin'_joint_vel,b'r_distal_pin'_joint_react_forces,b'r_distal_pin'_joint_motor_torque,in_contact_l,contact_point_l_dist,contact_normal_l_dist,contact_distance_l_dist,contact_norm_force_l_dist,in_contact_r,contact_point_r_dist,contact_normal_r_dist,contact_distance_r_dist,contact_norm_force_r_dist
0,Open,,,,,,"[-0.026750000193715096, 0.05299999937415123, 0.03999999910593033]","[0.0, -0.0, 0.42755761853039154]","[-0.056604765355587006, 0.1185186430811882, 0.03999999910593033]","[0.0, -0.0, 0.4463066270391506]","[0.026750000193715096, 0.05299999937415123, 0.03999999910593033]","[0.0, 0.0, -0.42757404208311445]","[0.05660583823919296, 0.1185181587934494, 0.03999999910593033]","[0.0, 0.0, -0.4465272228574986]",0.5418018724257314,27.418616735313837,"(0.0, 0.0, 0.0, 0.0, 0.0, 0.0)",-4.412236817968903,0.016874447698417276,-0.44988750389777044,"(0.0, 0.0, 0.0, 0.0, 0.0, 0.0)",-0.3112578673856835,-0.5418166170859073,-27.418223544375806,"(0.0, 0.0, 0.0, 0.0, 0.0, 0.0)",4.412120589674461,-0.017058187988154127,0.4547872631353701,"(0.0, 0.0, 0.0, 0.0, 0.0, 0.0)",0.31119999541872967,False,,,,,False,,,,
1,Open,,,,,,"[-0.026750000193715096, 0.05299999937415123, 0.03999999910593033]","[0.0, -0.0, 0.8953992050914552]","[-0.08294302970170975, 0.09801492840051651, 0.03999999910593033]","[0.0, -0.0, 0.9064715399310761]","[0.026750000193715096, 0.05299999937415123, 0.03999999910593033]","[0.0, 0.0, -0.8954089117450801]","[0.08294346183538437, 0.09801438450813293, 0.03999999910593033]","[0.0, 0.0, -0.9066016844299951]",0.9628592876486701,16.190418996035465,"(0.0, 0.0, 0.0, 0.0, 0.0, 0.0)",-2.616982039675733,0.009965290062605858,-0.26568209241480656,"(0.0, 0.0, 0.0, 0.0, 0.0, 0.0)",-0.18775783729375353,-0.9628679942230576,-16.190186820718473,"(0.0, 0.0, 0.0, 0.0, 0.0, 0.0)",2.6169116334278195,-0.010073786659150813,0.26857534621184953,"(0.0, 0.0, 0.0, 0.0, 0.0, 0.0)",0.187722108909745,False,,,,,False,,,,
2,Open,,,,,,"[-0.026750000193715096, 0.05299999937415123, 0.03999999910593033]","[0.0, -0.0, 1.17165497759142]","[-0.09309044480323792, 0.08098116517066956, 0.03999999910593033]","[0.0, -0.0, 1.1781937273122836]","[0.026750000193715096, 0.05299999937415123, 0.03999999910593033]","[0.0, 0.0, -1.1716605985979762]","[0.09309060126543045, 0.08098078519105911, 0.03999999910593033]","[0.0, 0.0, -1.178270796658152]",1.2114894807636634,9.56028051296898,"(0.0, 0.0, 0.0, 0.0, 0.0, 0.0)",-1.549346412635057,0.005885062316220725,-0.15689973638119079,"(0.0, 0.0, 0.0, 0.0, 0.0, 0.0)",-0.11225090666269867,-1.2114946219087734,-9.560143415766044,"(0.0, 0.0, 0.0, 0.0, 0.0, 0.0)",1.5493042197033076,-0.00594912834521185,0.1586081706180975,"(0.0, 0.0, 0.0, 0.0, 0.0, 0.0)",0.11222926703597672,False,,,,,False,,,,
3,Open,,,,,,"[-0.026750000193715096, 0.05299999937415123, 0.03999999910593033]","[0.0, -0.0, 1.3347813147466918]","[-0.09675397723913193, 0.06983575969934464, 0.03999999910593033]","[0.0, -0.0, 1.3386449621367835]","[0.026750000193715096, 0.05299999937415123, 0.03999999910593033]","[0.0, 0.0, -1.3347844615433213]","[0.0967540368437767, 0.06983552873134613, 0.03999999910593033]","[0.0, 0.0, -1.3386905382854437]",1.3583031234961356,5.645250040103052,"(0.0, 0.0, 0.0, 0.0, 0.0, 0.0)",-0.9162890978823036,0.0034783869891320215,-0.09247571818598516,"(0.0, 0.0, 0.0, 0.0, 0.0, 0.0)",-0.06677007440367574,-1.3583061592909116,-5.645169085575695,"(0.0, 0.0, 0.0, 0.0, 0.0, 0.0)",0.9162639666346021,-0.003516216695348753,0.09348456497972772,"(0.0, 0.0, 0.0, 0.0, 0.0, 0.0)",0.06675710630673855,False,,,,,False,,,,
4,Open,,,,,,"[-0.026750000193715096, 0.05299999937415123, 0.03999999910593033]","[0.0, -0.0, 1.4311058207082674]","[-0.09804865717887878, 0.06302504986524582, 0.03999999910593033]","[0.0, -0.0, 1.433390691262394]","[0.026750000193715096, 0.05299999937415123, 0.03999999910593033]","[0.0, 0.0, -1.4311075924426346]","[0.09804867953062057, 0.06302490830421448, 0.03999999910593033]","[0.0, 0.0, -1.433417470845748]",1.4449951113932331,3.333463696180452,"(0.0, 0.0, 0.0, 0.0, 0.0, 0.0)",-0.5415503506795546,0.0020570753203455715,-0.05468855210882702,"(0.0, 0.0, 0.0, 0.0, 0.0, 0.0)",-0.039594115216637325,-1.4449969039996904,-3.3334158933415914,"(0.0, 0.0, 0.0, 0.0, 0.0, 0.0)",0.541535435877482,-0.002079412775410495,0.055284250111531166,"(0.0, 0.0, 0.0, 0.0, 0.0, 0.0)",0.03958639191865308,False,,,,,False,,,,
5,Open,,,,,,"[-0.026750000193715096, 0.05299999937415123, 0.03999999910593033]","[0.0, -0.0, 1.4879842849605203]","[-0.09850326180458069, 0.05895565450191498, 0.03999999910593033]","[0.0, -0.0, 1.4893357278409396]","[0.026750000193715096, 0.05299999937415123, 0.03999999910593033]","[0.0, 0.0, -1.4879853833286059]","[0.09850326925516129, 0.05895556882023811, 0.03999999910593033]","[0.0, 0.0, -1.4893513332680077]",1.4961858633265903,1.9683769779575933,"(0.0, 0.0, 0.0, 0.0, 0.0, 0.0)",-0.31995094896823073,0.0012165319928285922,-0.03234212113369103,"(0.0, 0.0, 0.0, 0.0, 0.0, 0.0)",-0.02343792779000599,-1.4961869218427772,-1.9683487508592754,"(0.0, 0.0, 0.0, 0.0, 0.0, 0.0)",0.31994211580738524,-0.0012297216752996233,0.03269386530715718,"(0.0, 0.0, 0.0, 0.0, 0.0, 0.0)",0.02343334437795369,False,,,,,False,,,,
6,Open,,,,,,"[-0.026750000193715096, 0.05299999937415123, 0.03999999910593033]","[0.0, -0.0, 1.5215704989376362]","[-0.09866278618574142, 0.05654282495379448, 0.03999999910593033]","[0.0, -0.0, 1.522369838325666]","[0.026750000193715096, 0.05299999937415123, 0.03999999910593033]","[0.0, 0.0, -1.5215710825913402]","[0.09866278618574142, 0.0565427765250206, 0.03999999910593033]","[0.0, 0.0, -1.522379029767931]",1.5264134904357183,1.1623069217141797,"(0.0, 0.0, 0.0, 0.0, 0.0, 0.0)",-0.18898727227709852,0.000719444125508032,-0.019126791845346432,"(0.0, 0.0, 0.0, 0.0, 0.0, 0.0)",-0.013859938289241243,-1.5264141154789415,-1.162290253894895,"(0.0, 0.0, 0.0, 0.0, 0.0, 0.0)",0.18898204730565804,-0.0007272322869396521,0.019334487584604668,"(0.0, 0.0, 0.0, 0.0, 0.0, 0.0)",0.013857223880827028,False,,,,,False,,,,
7,Close,,,"(1.2478112216283415e-07, 0.16999960627914334, 0.0003375139776509844)","(1.5703757789650807, 0.0001088681168706304, -5.122612185789874e-06)",,"[-0.026750000193715096, 0.05299999937415123, 0.03999999910593033]","[0.0, -0.0, 1.2785329680082034]","[-0.09569678455591202, 0.07374466955661774, 0.03999999910593033]","[0.0, -0.0, 1.0351044933740032]","[0.026750000193715096, 0.05299999937415123, 0.03999999910593033]","[0.0, 0.0, -1.2785333261376617]","[0.09569679200649261, 0.07374463975429535, 0.03999999910593033]","[0.0, 0.0, -1.0351099865887758]",1.2106796019673873,-16.28478938579699,"(0.0, 0.0, 0.0, 0.0, 0.0, 0.0)",2.809472854136235,-0.3090860149933808,-15.757821278062295,"(0.0, 0.0, 0.0, 0.0, 0.0, 0.0)",0.3661538009495806,-1.2106799710491603,16.284799227977608,"(0.0, 0.0, 0.0, 0.0, 0.0, 0.0)",-2.8094757422584213,0.30908141619234186,15.75794391320213,"(0.0, 0.0, 0.0, 0.0, 0.0, 0.0)",-0.3661552191151056,False,,,,,False,,,,
8,Close,,,"(3.0991841452431125e-07, 0.1699991530873768, 0.0005600347089338349)","(1.5707725584893357, 0.0003276471180493337, -1.5390016504502985e-05)",,"[-0.026750000193715096, 0.05299999937415123, 0.03999999910593033]","[0.0, -0.0, 1.0006670909649218]","[-0.08736184239387512, 0.09186135232448578, 0.03999999910593033]","[0.0, -0.0, 0.48836557737534114]","[0.026750000193715096, 0.05299999937415123, 0.03999999910593033]","[0.0, 0.0, -1.0006671906734346]","[0.08736184984445572, 0.09186133742332458, 0.03999999910593033]","[0.0, 0.0, -0.4883688154364048]",0.9606001981650306,-9.616005284561718,"(0.0, 0.0, 0.0, 0.0, 0.0, 0.0)",1.667253264949997,-0.5510712009946406,-9.304767973476249,"(0.0, 0.0, 0.0, 0.0, 0.0, 0.0)",0.2218037572572205,-0.9606004161041268,9.616011096270952,"(0.0, 0.0, 0.0, 0.0, 0.0, 0.0)",-1.6672550198735234,0.5510684854486152,9.30484038803693,"(0.0, 0.0, 0.0, 0.0, 0.0, 0.0)",-0.22180464092959223,False,,,,,False,,,,
9,Close,,,"(2.933853975158492e-07, 0.16999904048792538, 0.0007066062154399696)","(1.5708337628024795, 0.00026866528465535426, -1.404448202163588e-05)",,"[-0.026750000193715096, 0.05299999937415123, 0.03999999910593033]","[0.0, -0.0, 0.8365897781630613]","[-0.08020010590553284, 0.1012398824095726, 0.03999999910593033]","[0.0, -0.0, 0.16552144688028117]","[0.026750000193715096, 0.05299999937415123, 0.03999999910593033]","[0.0, 0.0, -0.8365899294750984]","[0.08020011335611343, 0.101239874958992, 0.03999999910593033]","[0.0, 0.0, -0.1655233971102189]",0.8129308110141114,-5.678154960376304,"(0.0, 0.0, 0.0, 0.0, 0.0, 0.0)",0.9873874064507416,-0.6939616573792659,-5.494397555666588,"(0.0, 0.0, 0.0, 0.0, 0.0, 0.0)",0.13292457281458034,-0.8129309397049683,5.678158392132489,"(0.0, 0.0, 0.0, 0.0, 0.0, 0.0)",-0.987388459985631,0.6939600538790082,5.494440315842426,"(0.0, 0.0, 0.0, 0.0, 0.0, 0.0)",-0.13292511074891808,False,,,,,False,,,,
10,Close,,,"(1.9902477861274505e-07, 0.16999905216518962, 0.0008031506137060285)","(1.5708213694470277, 0.0001751880104672085, -1.4031272711042213e-05)",,"[-0.026750000193715096, 0.05299999937415123, 0.03999999910593033]","[0.0, -0.0, 0.7397039398326887]","[-0.075282983481884, 0.10618411004543304, 0.03999999910593033]","[0.0, 0.0, -0.025114755601520013]","[0.026750000193715096, 0.05299999937415123, 0.03999999910593033]","[0.0, 0.0, -0.7397039829241547]","[0.0752829909324646, 0.10618410259485245, 0.03999999910593033]","[0.0, -0.0, 0.025113617980755978]",0.7257335145957226,-3.3528937225526034,"(0.0, 0.0, 0.0, 0.0, 0.0, 0.0)",0.5840196078844049,-0.7783380408184963,-3.244652289205478,"(0.0, 0.0, 0.0, 0.0, 0.0, 0.0)",0.07914031685893824,-0.7257335905863868,3.3528957489703144,"(0.0, 0.0, 0.0, 0.0, 0.0, 0.0)",-0.5840202358821991,0.778337093974245,3.2446775397467595,"(0.0, 0.0, 0.0, 0.0, 0.0, 0.0)",-0.07914064000385382,False,,,,,False,,,,
11,Close,,,"(1.3069317882946781e-07, 0.16999905849316785, 0.0008666025578373041)","(1.570813038524343, 0.0001076496945073061, -1.4014808324094979e-05)",,"[-0.026750000193715096, 0.05299999937415123, 0.03999999910593033]","[0.0, -0.0, 0.6824937890365349]","[-0.07216256856918335, 0.10887216031551361, 0.03999999910593033]","[0.0, 0.0, -0.137687120736303]","[0.026750000193715096, 0.05299999937415123, 0.03999999910593033]","[0.0, 0.0, -0.6824937890365349]","[0.07216257601976395, 0.10887216031551361, 0.03999999910593033]","[0.0, -0.0, 0.1376864353718678]",0.6742443830336282,-1.9798502142300851,"(0.0, 0.0, 0.0, 0.0, 0.0, 0.0)",0.34523008433021124,-0.8281635344937409,-1.9158370237869804,"(0.0, 0.0, 0.0, 0.0, 0.0, 0.0)",0.046989708289177236,-0.6742444279053555,1.9798514108094807,"(0.0, 0.0, 0.0, 0.0, 0.0, 0.0)",-0.3452304573414294,0.8281629754068567,1.9158519335829844,"(0.0, 0.0, 0.0, 0.0, 0.0, 0.0)",-0.04698990114977892,False,,,,,False,,,,
12,Close,,,"(8.555941999099156e-08, 0.16999906193922792, 0.000908421947806545)","(1.5708075491537519, 6.311807488844542e-05, -1.4000595358663434e-05)",,"[-0.026750000193715096, 0.05299999937415123, 0.03999999910593033]","[0.0, -0.0, 0.6487117277688945]","[-0.070249542593956, 0.11037412285804749, 0.03999999910593033]","[0.0, 0.0, -0.20415830575541527]","[0.026750000193715096, 0.05299999937415123, 0.03999999910593033]","[0.0, 0.0, -0.6487117277688945]","[0.070249542593956, 0.11037411540746689, 0.03999999910593033]","[0.0, -0.0, 0.20415788801885543]",0.6438405657375271,-1.1690817530007243,"(0.0, 0.0, 0.0, 0.0, 0.0, 0.0)",0.20397674457790932,-0.8575834812137779,-1.1312243968345508,"(0.0, 0.0, 0.0, 0.0, 0.0, 0.0)",0.027828964636992654,-0.6438405922338334,1.1690824595688907,"(0.0, 0.0, 0.0, 0.0, 0.0, 0.0)",-0.20397696556653716,0.8575831510875931,1.1312332006820753,"(0.0, 0.0, 0.0, 0.0, 0.0, 0.0)",-0.027829079200348807,False,,,,,False,,,,
13,Close,,,"(5.567361934631568e-08, 0.16999906349286917, 0.0009359839309479349)","(1.5708039321322358, 3.37560108188707e-05, -1.3987283228090085e-05)",,"[-0.026750000193715096, 0.05299999937415123, 0.03999999910593033]","[0.0, -0.0, 0.62876384308693]","[-0.06909646838903427, 0.11123037338256836, 0.03999999910593033]","[0.0, 0.0, -0.24340789693353326]","[0.026750000193715096, 0.05299999937415123, 0.03999999910593033]","[0.0, 0.0, -0.62876384308693]","[0.06909646838903427, 0.11123037338256836, 0.03999999910593033]","[0.0, -0.0, 0.24340764580603796]",0.6258874156623524,-0.6903310843293964,"(0.0, 0.0, 0.0, 0.0, 0.0, 0.0)",0.12048853373387189,-0.8749547691894786,-0.6679421640099914,"(0.0, 0.0, 0.0, 0.0, 0.0, 0.0)",0.016461146679105913,-0.6258874313081562,0.6903315015508323,"(0.0, 0.0, 0.0, 0.0, 0.0, 0.0)",-0.12048866447898966,0.8749545742586229,0.6679473624521103,"(0.0, 0.0, 0.0, 0.0, 0.0, 0.0)",-0.016461214564379854,False,,,,,False,,,,
14,Move,,,"(0.0002849434880139787, 0.17128526654835666, 0.0018667775255450016)","(1.529867145493542, 0.001236551690390913, -0.0026252758006009144)","[0.0, 0.0, 0.0]","[-0.026750000193715096, 0.05299999937415123, 0.03999999910593033]","[0.0, -0.0, 0.5674368798319164]","[-0.06544800847768784, 0.113716259598732, 0.03999999910593033]","[0.0, 0.0, -0.23086444862254737]","[0.026750000193715096, 0.05299999937415123, 0.03999999910593033]","[0.0, 0.0, -0.5672775113046467]","[0.06543833017349243, 0.11372242867946625, 0.03999999910593033]","[0.0, -0.0, 0.2338230653212545]",0.5526433844132694,-3.5504372063580854,"(0.0, 0.0, 0.0, 0.0, 0.0, 0.0)",-74.66311326449657,-0.7739535469156117,5.843468067207706,"(0.0, 0.0, 0.0, 0.0, 0.0, 0.0)",-38.567738900473906,-0.5523653530093062,3.5789086898164406,"(0.0, 0.0, 0.0, 0.0, 0.0, 0.0)",70.97380681712595,0.7784689212282292,-5.431581853362886,"(0.0, 0.0, 0.0, 0.0, 0.0, 0.0)",36.631671368390464,True,"(-0.031139027298926508, 0.18549673152317092, 0.03999924353386678)","(0.9999971505660776, -0.0022642037706561637, -0.0007564661332230728)",-0.000503181178828863,565.4925793008347,True,"(0.030917119596597424, 0.1854085662421605, 0.04000075646613322)","(-0.9999971505660776, 0.002264203770598743, 0.0007564661332168607)",-0.0013606486484191646,538.0249494895718
15,Move,"(-0.0070999999999999995, 0.0, -0.0011)","(0.0, 0.12507378485641765, 0.0)","(-0.0002742221961268364, 0.17118616454938923, 0.0030355551840898142)","(1.496384731612705, -0.003235884159221279, -0.009469102461858609)","[-0.0005591656841408151, -9.910199896742689e-05, 0.0011687776585448126]","[-0.026750000193715096, 0.05299999937415123, 0.03999999910593033]","[0.0, -0.0, 0.5469429256754056]","[-0.0641956552863121, 0.11449652910232544, 0.03999999910593033]","[0.0, 0.0, -0.20919109870768376]","[0.026750000193715096, 0.05299999937415123, 0.03999999910593033]","[0.0, 0.0, -0.5405520813429057]","[0.06380188465118408, 0.11473457515239716, 0.03999999910593033]","[0.0, -0.0, 0.22125392365811022]",0.548997816600188,0.493187155980426,"(0.0, 0.0, 0.0, 0.0, 0.0, 0.0)",-1.0312757247921918,-0.757327964208196,-0.28656248888736724,"(0.0, 0.0, 0.0, 0.0, 0.0, 0.0)",-0.5548333544182774,-0.5409996759646121,-0.10741632406617142,"(0.0, 0.0, 0.0, 0.0, 0.0, 0.0)",1.786454795625902,0.7628203652818026,0.24344326095944332,"(0.0, 0.0, 0.0, 0.0, 0.0, 0.0)",0.9391229192433482,True,"(-0.03145017224949284, 0.1869771164430938, 0.04000328575923242)","(0.9999690140006512, -0.007153658143360984, 0.003285759232418749)",-0.0006182938945610238,7.17227773902219,True,"(0.030184324354332326, 0.18684126741643048, 0.039996714240767575)","(-0.9999690140006514, 0.007153658143319445, -0.0032857592324260056)",-0.0016681674605786127,13.252088433163108
16,Move,"(-0.014199999999999999, 0.0, -0.0025)","(0.0, 0.15092211107845369, 0.0)","(-0.0015995345058663136, 0.17155331792012735, 0.002930682040588915)","(1.5038067493338518, -0.0022183721873071673, -0.010062938238796079)","[-0.0018844779938802922, 0.00026805137177068894, 0.0010639045150439134]","[-0.026750000193715096, 0.05299999937415123, 0.03999999910593033]","[0.0, -0.0, 0.5565394440798649]","[-0.06478407233953476, 0.11413435637950897, 0.03999999910593033]","[0.0, 0.0, -0.1984157375138354]","[0.026750000193715096, 0.05299999937415123, 0.03999999910593033]","[0.0, 0.0, -0.534863975079772]","[0.06345012784004211, 0.11494433134794235, 0.03999999910593033]","[0.0, -0.0, 0.22559360718108562]",0.5580753855876323,0.3686462114504031,"(0.0, 0.0, 0.0, 0.0, 0.0, 0.0)",-2.7960475925038,-0.7539654011992373,0.23752935941702324,"(0.0, 0.0, 0.0, 0.0, 0.0, 0.0)",-1.4810984530121676,-0.5331025204556366,0.42275060745583626,"(0.0, 0.0, 0.0, 0.0, 0.0, 0.0)",2.5042275388262323,0.7596037029856663,-0.2049327602581029,"(0.0, 0.0, 0.0, 0.0, 0.0, 0.0)",1.3501159873640618,True,"(-0.032821520590316365, 0.18694987995011828, 0.04000263252017928)","(0.9999458211646786, -0.010070976755121717, 0.0026325201792716923)",-0.0004163816968221117,20.389456870260936,True,"(0.029520013874232608, 0.18691171173711607, 0.03999736747982072)","(-0.9999458211646787, 0.010070976755110253, -0.0026325201792780427)",-0.0011650892770589958,19.191562626508553
17,Move,"(-0.0209, 0.0, -0.0111)","(0.0, 0.08624544498729982, 0.0)","(-0.0034961730117944075, 0.17268057607835038, 0.002516973205902801)","(1.5282556684605075, -0.002281337756331573, -0.00722667859627876)","[-0.0037811164998083862, 0.0013953095299937268, 0.0006501956803577993]","[-0.026750000193715096, 0.05299999937415123, 0.03999999910593033]","[0.0, -0.0, 0.566669143349721]","[-0.06540138274431229, 0.11374595016241074, 0.03999999910593033]","[0.0, 0.0, -0.18028244993223907]","[0.026750000193715096, 0.05299999937415123, 0.03999999910593033]","[0.0, 0.0, -0.5192446248373922]","[0.062478162348270416, 0.1155099868774414, 0.03999999910593033]","[0.0, -0.0, 0.23360474294908934]",0.5686099051258741,0.4657842998560504,"(0.0, 0.0, 0.0, 0.0, 0.0, 0.0)",-5.464897590233065,-0.745284935974365,0.3999933638672589,"(0.0, 0.0, 0.0, 0.0, 0.0, 0.0)",-2.9504189447446443,-0.5159462954362116,0.7916016235549823,"(0.0, 0.0, 0.0, 0.0, 0.0, 0.0)",4.962502040543669,0.7512634754178278,-0.3806152374415408,"(0.0, 0.0, 0.0, 0.0, 0.0, 0.0)",2.676155094187525,True,"(-0.03476440048151498, 0.18711340445478788, 0.04000234341132654)","(0.9999684440545281, -0.007590738997013712, 0.0023434113265368606)",-0.0003076566890520132,40.146211147341994,True,"(0.027972627582923508, 0.18720877023291213, 0.03999765658867347)","(-0.9999684440545281, 0.007590738997018355, -0.0023434113265224966)",-0.0008780282301920091,37.887352584687065
18,Move,"(-0.024399999999999998, 0.0, -0.024300000000000002)","(0.0, 0.025689501260104535, 0.0)","(-0.005662947886921842, 0.17461175024381748, 0.0019854525035052344)","(1.566003475115295, -0.001905636558953053, -0.005006191512113448)","[-0.0059478913749358205, 0.003326483695460819, 0.0001186749779602328]","[-0.026750000193715096, 0.05299999937415123, 0.03999999910593033]","[0.0, -0.0, 0.5747430369639613]","[-0.06589057296514511, 0.1134319081902504, 0.03999999910593033]","[0.0, 0.0, -0.15689540596924018]","[0.026750000193715096, 0.05299999937415123, 0.03999999910593033]","[0.0, 0.0, -0.4957728233938614]","[0.061001233756542206, 0.11633129417896271, 0.03999999910593033]","[0.0, -0.0, 0.24216241440449585]",0.5759236910293623,0.2833682154013434,"(0.0, 0.0, 0.0, 0.0, 0.0, 0.0)",-10.580377055431148,-0.728330166851054,0.7939770024755309,"(0.0, 0.0, 0.0, 0.0, 0.0, 0.0)",-5.79843121313877,-0.49114431115086626,1.1108451333433165,"(0.0, 0.0, 0.0, 0.0, 0.0, 0.0)",10.043036897278206,0.7347729578510647,-0.7589471033611762,"(0.0, 0.0, 0.0, 0.0, 0.0, 0.0)",5.387989012167719,True,"(-0.036977546271585046, 0.1874745706784236, 0.04000199562951582)","(0.9999835612135615, -0.005375385147010304, 0.001995629515820189)",-0.00025528155333975097,78.24919980488465,True,"(0.025883408674107884, 0.18773851277471268, 0.03999800437048419)","(-0.9999835612135617, 0.005375385147007858, -0.0019956295158055767)",-0.0008062219918409517,75.80559495683129
19,Move,"(-0.029500000000000002, 0.0, -0.0299)","(0.0, 0.052286573731246115, 0.0)","(-0.008025260658117858, 0.1761517519566834, 0.0016626550308139988)","(1.5908281560929698, -0.0016165462847282776, -0.0023627634145708537)","[-0.008310204146131837, 0.004866485408326737, -0.00020412249473100285]","[-0.026750000193715096, 0.05299999937415123, 0.03999999910593033]","[0.0, -0.0, 0.5810006555477868]","[-0.0662679672241211, 0.11318580061197281, 0.03999999910593033]","[0.0, 0.0, -0.1300927046852746]","[0.026750000193715096, 0.05299999937415123, 0.03999999910593033]","[0.0, 0.0, -0.4675231552014031]","[0.05919872224330902, 0.1172734797000885, 0.03999999910593033]","[0.0, -0.0, 0.25023850156594035]",0.582084185138131,0.26006264044188937,"(0.0, 0.0, 0.0, 0.0, 0.0, 0.0)",-12.507445251985033,-0.7071503933983511,0.9462970004581855,"(0.0, 0.0, 0.0, 0.0, 0.0, 0.0)",-6.860945017829375,-0.462287136747818,1.2566581995554111,"(0.0, 0.0, 0.0, 0.0, 0.0, 0.0)",12.314719965572285,0.7140905299328651,-0.8810823389779661,"(0.0, 0.0, 0.0, 0.0, 0.0, 0.0)",6.641930953258365,True,"(-0.039349400820503366, 0.18795252665416437, 0.040001633463840114)","(0.9999948254696024, -0.0027714310207172903, 0.0016334638401145519)",-0.00023207658880437953,92.19482847600052,True,"(0.02350535557463715, 0.18840023141792994, 0.0399983665361599)","(-0.9999948254696025, 0.0027714310207168948, -0.0016334638401022483)",-0.0008347367567429415,92.24658553223591
20,Move,"(-0.0268, 0.0, -0.0349)","(0.0, 0.09839817256893633, 0.0)","(-0.009760512284363077, 0.17682820102899172, 0.0016569803293157378)","(1.5907203925785103, -0.0015303520731377836, -0.0008890939087722833)","[-0.010045455772377056, 0.005542934480635059, -0.0002097971962292638]","[-0.026750000193715096, 0.05299999937415123, 0.03999999910593033]","[0.0, -0.0, 0.581780346071575]","[-0.06631488353013992, 0.11315496265888214, 0.03999999910593033]","[0.0, 0.0, -0.10530796398204095]","[0.026750000193715096, 0.05299999937415123, 0.03999999910593033]","[0.0, 0.0, -0.441201312698457]","[0.057495877146720886, 0.11810523271560669, 0.03999999910593033]","[0.0, -0.0, 0.2540071715535577]",0.5814350545697631,-0.08287560925816619,"(0.0, 0.0, 0.0, 0.0, 0.0, 0.0)",-14.179729523410165,-0.6826270873048651,1.0706962218502492,"(0.0, 0.0, 0.0, 0.0, 0.0, 0.0)",-7.843140423262406,-0.43679746360823113,1.0569285041667036,"(0.0, 0.0, 0.0, 0.0, 0.0, 0.0)",14.017010469789822,0.6910232255570696,-1.004463252562551,"(0.0, 0.0, 0.0, 0.0, 0.0, 0.0)",7.460114634765565,True,"(-0.041257231328703965, 0.18854268078883984, 0.04000154963068693)","(0.9999981499082959, -0.0011396599138182536, 0.0015496306869338754)",-0.00022321279706178008,104.4409665302485,True,"(0.021534713144135763, 0.18909909558829793, 0.039998450369313064)","(-0.9999981499082962, 0.0011396599138309416, -0.0015496306869314897)",-0.000905596204868554,104.07915694208025
21,Move,"(-0.0209, 0.0, -0.0354)","(0.0, 0.11331201102722786, 0.0)","(-0.01058815065199082, 0.1775295824871814, 0.0016510661818365305)","(1.5906196877572196, -0.0014418741871800717, -0.0004306556125885784)","[-0.0108730941400048, 0.0062443159388247405, -0.00021571134370847113]","[-0.026750000193715096, 0.05299999937415123, 0.03999999910593033]","[0.0, -0.0, 0.5755713753866926]","[-0.06594061851501465, 0.1133994609117508, 0.03999999910593033]","[0.0, 0.0, -0.0870900863250255]","[0.026750000193715096, 0.05299999937415123, 0.03999999910593033]","[0.0, 0.0, -0.42159330599864625]","[0.056213464587926865, 0.11869554221630096, 0.03999999910593033]","[0.0, -0.0, 0.25072313075051744]",0.5740767080555537,-0.3587161117437187,"(0.0, 0.0, 0.0, 0.0, 0.0, 0.0)",-13.714272991271308,-0.658360382557343,1.0322543592056475,"(0.0, 0.0, 0.0, 0.0, 0.0, 0.0)",-7.604052064883766,-0.4185699517498934,0.7256115609994868,"(0.0, 0.0, 0.0, 0.0, 0.0, 0.0)",13.71984790545022,0.6682918891295998,-0.9658926630760477,"(0.0, 0.0, 0.0, 0.0, 0.0, 0.0)",7.248953692452179,True,"(-0.04226030795342294, 0.1892135632833948, 0.04000146104823194)","(0.9999988078154828, -0.0004997055903098449, 0.0014610482319462113)",-0.00021722350493632596,100.80161051916265,True,"(0.020485632312241167, 0.1898031980206502, 0.03999853895176805)","(-0.9999988078154829, 0.0004997055903103296, -0.0014610482319452856)",-0.0009572083247979435,100.9751513872491
22,Move,"(-0.0246, 0.0, -0.04020000000000001)","(0.0, 0.14520441244892024, 0.0)","(-0.011470118384166759, 0.1782804612316863, 0.0016447153759854092)","(1.5904978260298632, -0.0013474216295969452, 2.683370762729851e-05)","[-0.011755061872180738, 0.006995194683329653, -0.00022206214955959244]","[-0.026750000193715096, 0.05299999937415123, 0.03999999910593033]","[0.0, -0.0, 0.5671177327251787]","[-0.06542862951755524, 0.1137286052107811, 0.03999999910593033]","[0.0, 0.0, -0.069280364101017]","[0.026750000193715096, 0.05299999937415123, 0.03999999910593033]","[0.0, 0.0, -0.4023004760022126]","[0.0549406036734581, 0.11925171315670013, 0.03999999910593033]","[0.0, -0.0, 0.24542830281473027]",0.565606568864042,-0.36267962313103264,"(0.0, 0.0, 0.0, 0.0, 0.0, 0.0)",-15.415005741701638,-0.6315107293638912,1.1729672845749315,"(0.0, 0.0, 0.0, 0.0, 0.0, 0.0)",-8.54965288618462,-0.3986560561585937,0.874654400609602,"(0.0, 0.0, 0.0, 0.0, 0.0, 0.0)",15.391277656251848,0.643176391254458,-1.0925706163687487,"(0.0, 0.0, 0.0, 0.0, 0.0, 0.0)",8.112645771992247,True,"(-0.0431020816613883, 0.18993501524094092, 0.040001368702093046)","(0.9999990605984987, -7.386948296373496e-05, 0.001368702093044346)",-0.00021510067039126005,112.66130681345138,True,"(0.019589753468174723, 0.19054182502768585, 0.039998631297906956)","(-0.9999990605984986, 7.38694829633509e-05, -0.001368702093047618)",-0.001013170041827368,112.72635814762401
23,Move,"(-0.023899999999999998, 0.0, -0.0422)","(0.0, 0.1988924855695178, 0.0)","(-0.012002423234228956, 0.17907725941996225, 0.0016378162945548706)","(1.5903713636665988, -0.0012456479368353863, 6.975873675599616e-05)","[-0.012287366722242935, 0.007791992871605591, -0.00022896123099013107]","[-0.026750000193715096, 0.05299999937415123, 0.03999999910593033]","[0.0, -0.0, 0.5559440943533636]","[-0.06474767625331879, 0.11415698379278183, 0.03999999910593033]","[0.0, 0.0, -0.052335692278085134]","[0.026750000193715096, 0.05299999937415123, 0.03999999910593033]","[0.0, 0.0, -0.3838356831892165]","[0.053712546825408936, 0.1197609230875969, 0.03999999910593033]","[0.0, -0.0, 0.2376711684227012]",0.5537098785091431,-0.5362143786725652,"(0.0, 0.0, 0.0, 0.0, 0.0, 0.0)",-16.075273664239678,-0.6032011489386508,1.2188756865582635,"(0.0, 0.0, 0.0, 0.0, 0.0, 0.0)",-8.921795638937791,-0.3807314480881532,0.7450228192463972,"(0.0, 0.0, 0.0, 0.0, 0.0, 0.0)",16.110352696950653,0.6167748935654841,-1.135668183073869,"(0.0, 0.0, 0.0, 0.0, 0.0, 0.0)",8.453396874844959,True,"(-0.04371541553591028, 0.19071394317969487, 0.04000126820737648)","(0.9999991940656304, 5.931390889879658e-05, 0.0012682073764722463)",-0.0002151195683653958,117.00495535168457,True,"(0.018915734495595138, 0.19131521893919357, 0.03999873179262352)","(-0.9999991940656303, -5.931390890426353e-05, -0.0012682073764796388)",-0.0010737468069714406,117.13868911675064
24,Move,"(-0.021, 0.0, -0.04)","(0.0, 0.18846763394735566, 0.0)","(-0.012158964885658746, 0.17981244163561608, 0.001630959050351626)","(1.5902655253169025, -0.0011402629205221582, -0.00011067789144743445)","[-0.012443908373672725, 0.00852717508725942, -0.00023581847519337559]","[-0.026750000193715096, 0.05299999937415123, 0.03999999910593033]","[0.0, -0.0, 0.5428705108741875]","[-0.06394490599632263, 0.11464851349592209, 0.03999999910593033]","[0.0, 0.0, -0.038961735560733506]","[0.026750000193715096, 0.05299999937415123, 0.03999999910593033]","[0.0, 0.0, -0.3694312819410016]","[0.05274813249707222, 0.120142363011837, 0.03999999910593033]","[0.0, -0.0, 0.2274469363108271]",0.5404958541912515,-0.5699003604560102,"(0.0, 0.0, 0.0, 0.0, 0.0, 0.0)",-14.450659584512552,-0.5773105644899106,1.0851875808251652,"(0.0, 0.0, 0.0, 0.0, 0.0, 0.0)",-8.014367198244562,-0.3671433132550743,0.549115009864322,"(0.0, 0.0, 0.0, 0.0, 0.0, 0.0)",14.502238780758818,0.592663781113858,-1.011469005042796,"(0.0, 0.0, 0.0, 0.0, 0.0, 0.0)",7.587506371593105,True,"(-0.04393827419676078, 0.19146638274244834, 0.040001160818301684)","(0.9999993226005048, -8.543653723296967e-05, 0.0011608183016874735)",-0.00020697033323622302,104.71872932621893,True,"(0.018684657379136424, 0.19203860331474798, 0.03999883918169831)","(-0.9999993226005048, 8.543653723192344e-05, -0.0011608183016885312)",-0.0010901904727128686,104.76994702461087
25,Move,"(-0.0213, 0.0, -0.0399)","(0.0, 0.18846763394735566, 0.0)","(-0.012271647560315527, 0.1804954436978702, 0.0016239176904789881)","(1.5901687048142026, -0.0010265929227844688, -0.00023388265683822938)","[-0.012556591048329506, 0.009210177149513554, -0.00024285983506601352]","[-0.026750000193715096, 0.05299999937415123, 0.03999999910593033]","[0.0, -0.0, 0.5299753571875475]","[-0.06314686685800552, 0.11512301117181778, 0.03999999910593033]","[0.0, 0.0, -0.027091003563842957]","[0.026750000193715096, 0.05299999937415123, 0.03999999910593033]","[0.0, 0.0, -0.3568573992147779]","[0.05190185457468033, 0.12046394497156143, 0.03999999910593033]","[0.0, -0.0, 0.2169240097686808]",0.527720370895784,-0.5411849318342321,"(0.0, 0.0, 0.0, 0.0, 0.0, 0.0)",-13.850039854569085,-0.5527098563211684,1.0455494404483918,"(0.0, 0.0, 0.0, 0.0, 0.0, 0.0)",-7.661480116708573,-0.35464445180424053,0.5311034355014207,"(0.0, 0.0, 0.0, 0.0, 0.0, 0.0)",13.901265386797705,0.5697171854897851,-0.975413113250845,"(0.0, 0.0, 0.0, 0.0, 0.0, 0.0)",7.2734448954883755,True,"(-0.04405470190494519, 0.19211441676403768, 0.040934339615391134)","(0.9999994154347001, -0.00023569990660984752, 0.001055261016125452)",-0.0001950842517423869,99.8791188853894,True,"(0.018596756315247168, 0.1927042628478925, 0.039998948693920316)","(-0.9999994218848699, 0.00022579958549447424, -0.0010513060796858915)",-0.0010746086945008838,99.95031899984342
26,Move,"(-0.0209, 0.0, -0.0417)","(0.0, 0.1988924855695178, 0.0)","(-0.012247174353307315, 0.1811770339074012, 0.001616290358088813)","(1.590068063983417, -0.0008975312167699862, -0.00047783153830953205)","[-0.012532117841321294, 0.00989176735904454, -0.00025048716745618865]","[-0.026750000193715096, 0.05299999937415123, 0.03999999910593033]","[0.0, -0.0, 0.5163644285306294]","[-0.06229797378182411, 0.11561263352632523, 0.03999999910593033]","[0.0, 0.0, -0.016001332846071185]","[0.026750000193715096, 0.05299999937415123, 0.03999999910593033]","[0.0, 0.0, -0.3450499347781314]","[0.05110354349017143, 0.12075621634721756, 0.03999999910593033]","[0.0, -0.0, 0.2056636680141441]",0.5138545412377481,-0.6023716705612395,"(0.0, 0.0, 0.0, 0.0, 0.0, 0.0)",-14.019208341919159,-0.5279379435938606,1.062674993323559,"(0.0, 0.0, 0.0, 0.0, 0.0, 0.0)",-7.743381125872592,-0.343004697363757,0.4908602396829965,"(0.0, 0.0, 0.0, 0.0, 0.0, 0.0)",14.078394882074168,0.5465789488008391,-0.9923179579836577,"(0.0, 0.0, 0.0, 0.0, 0.0, 0.0)",7.360165424472584,True,"(-0.0440616811141254, 0.1927393243934732, 0.04214579966980238)","(0.9999994674359705, -0.0004497668270292935, 0.0009288905083753088)",-0.00018716749738194468,100.72323886705493,True,"(0.018613926065848302, 0.1933559358226775, 0.03999907110949162)","(-0.9999994674359706, 0.0004497668270258874, -0.0009288905083805358)",-0.001059528486129573,100.70520287391682
27,Move,"(-0.0227, 0.0, -0.039700000000000006)","(0.0, 0.18542901571963355, 0.0)","(-0.012452248948823283, 0.18176125580159058, 0.0016090727224943471)","(1.5899699524180577, -0.0007487410419203357, -0.00032804161535305605)","[-0.012737192436837262, 0.010475989253233925, -0.0002577048030506545]","[-0.026750000193715096, 0.05299999937415123, 0.03999999910593033]","[0.0, -0.0, 0.5047387157778961]","[-0.06156767159700394, 0.11602166295051575, 0.03999999910593033]","[0.0, 0.0, -0.004517242214212937]","[0.026750000193715096, 0.05299999937415123, 0.03999999910593033]","[0.0, 0.0, -0.33306829103595886]","[0.05028998479247093, 0.1210431382060051, 0.03999999910593033]","[0.0, -0.0, 0.19603029002114428]",0.5028938023256313,-0.44278075282449453,"(0.0, 0.0, 0.0, 0.0, 0.0, 0.0)",-12.666047404826621,-0.5052765759852311,0.9550532297010288,"(0.0, 0.0, 0.0, 0.0, 0.0, 0.0)",-6.968066391323695,-0.33089057131849314,0.522657275520959,"(0.0, 0.0, 0.0, 0.0, 0.0, 0.0)",12.711583326205032,0.52538927471124,-0.8902345798298364,"(0.0, 0.0, 0.0, 0.0, 0.0, 0.0)",6.657085385471137,True,"(-0.044218233382625004, 0.19334358693236436, 0.04214568103516394)","(0.9999995839615788, -0.0004190013059519329, 0.0008102558699301213)",-0.00017602938072374937,90.33432344479081,True,"(0.018501193682116876, 0.1939427689104824, 0.03999921804094548)","(-0.9999996221783368, 0.0003797146565983828, -0.0007819590545231769)",-0.0010264715699132478,90.62801537691455
28,Move,"(-0.0265, 0.0, -0.044700000000000004)","(0.0, 0.19366347913054283, 0.0)","(-0.012680984183273864, 0.18238835356384056, 0.0015955904854660155)","(1.589564696619844, -0.0006423108159371989, 0.0024312011702890637)","[-0.012965927671287843, 0.011103087015483903, -0.00027118704007898613]","[-0.026750000193715096, 0.05299999937415123, 0.03999999910593033]","[0.0, -0.0, 0.4950867564822617]","[-0.06095777451992035, 0.11635477840900421, 0.03999999910593033]","[0.0, -0.0, 0.0093197702655683]","[0.026750000193715096, 0.05299999937415123, 0.03999999910593033]","[0.0, 0.0, -0.318389725472571]","[0.049288708716630936, 0.12138133496046066, 0.03999999910593033]","[0.0, -0.0, 0.1853922955818194]",0.4934657129145501,-0.38905231669228457,"(0.0, 0.0, 0.0, 0.0, 0.0, 0.0)",-15.118301506081698,-0.48158151359065615,1.0045153666113842,"(0.0, 0.0, 0.0, 0.0, 0.0, 0.0)",-7.356856652908174,-0.31556351719149,0.6782882809611954,"(0.0, 0.0, 0.0, 0.0, 0.0, 0.0)",16.108987027610606,0.49846732710956393,-1.2755243109623504,"(0.0, 0.0, 0.0, 0.0, 0.0, 0.0)",8.90468544243617,True,"(-0.044679869756678633, 0.19390935956548622, 0.04214568103516394)","(0.9999995839615788, -0.0004190013059519329, 0.0008102558699301213)",1.1215737868374813e-05,82.5593105742891,True,"(0.018277145747090585, 0.19460231789080906, 0.03999933729865459)","(-0.9999983990399651, -0.0016621505447428618, -0.0006627013454104283)",-0.000974554443718628,113.29135795527762
29,Move,"(-0.024300000000000002, 0.0, -0.0405)","(0.0, 0.19064405952459257, 0.0)","(-0.012720458574749337, 0.18303355904021995, 0.0015607724653627674)","(1.5889068800631454, 0.00015724064110917422, 0.009488036104980042)","[-0.013005402062763316, 0.011748292491863294, -0.00030600506018223423]","[-0.026750000193715096, 0.05299999937415123, 0.03999999910593033]","[0.0, -0.0, 0.4859385439935561]","[-0.06037677079439163, 0.1166650652885437, 0.03999999910593033]","[0.0, -0.0, 0.019310055453113144]","[0.026750000193715096, 0.05299999937415123, 0.03999999910593033]","[0.0, 0.0, -0.3053016975324525]","[0.048391830176115036, 0.12167045474052429, 0.03999999910593033]","[0.0, -0.0, 0.1724602808080724]",0.48430696778701887,-0.3915782406871948,"(0.0, 0.0, 0.0, 0.0, 0.0, 0.0)",-11.888623326843831,-0.4634899645217918,0.7532456760687256,"(0.0, 0.0, 0.0, 0.0, 0.0, 0.0)",-5.591975293764931,-0.3032288619573991,0.49749073836635993,"(0.0, 0.0, 0.0, 0.0, 0.0, 0.0)",12.894509276665625,0.47347895022848774,-1.0279399412160506,"(0.0, 0.0, 0.0, 0.0, 0.0, 0.0)",7.210139332641919,True,"(-0.044874454771352545, 0.19437839247684008, 0.04214568103516394)","(0.9999995839615788, -0.0004190013059519329, 0.0008102558699301213)",0.00010306755952746312,56.13245951116936,True,"(0.018329698158648523, 0.19526685017090004, 0.039999991642876945)","(-0.9999661573865664, -0.008227029336484603, -8.357123057236057e-06)",-0.0008136675954623396,90.13351792566755
30,Move,"(-0.0218, 0.0, -0.041600000000000005)","(0.0, 0.18235898156537556, 0.0)","(-0.012443250672162133, 0.18350981447050058, 0.0015428375891645538)","(1.5886230848231295, -4.2937738431686545e-05, 0.01642367220561612)","[-0.012728194160176112, 0.012224547922143919, -0.0003239399363804479]","[-0.026750000193715096, 0.05299999937415123, 0.03999999910593033]","[0.0, -0.0, 0.47558228431894745]","[-0.059715643525123596, 0.11700989305973053, 0.03999999910593033]","[0.0, -0.0, 0.025839846101923115]","[0.026750000193715096, 0.05299999937415123, 0.03999999910593033]","[0.0, 0.0, -0.2950435700473861]","[0.047686271369457245, 0.12188883870840073, 0.03999999910593033]","[0.0, -0.0, 0.15897741985874103]",0.4736353761638639,-0.467254199542182,"(0.0, 0.0, 0.0, 0.0, 0.0, 0.0)",-11.40526491933888,-0.44671663395518446,0.7261885992008767,"(0.0, 0.0, 0.0, 0.0, 0.0, 0.0)",-5.107882849434629,-0.29334746721863364,0.40706590380637925,"(0.0, 0.0, 0.0, 0.0, 0.0, 0.0)",12.485675350296708,0.44989543805625903,-0.9901367137580924,"(0.0, 0.0, 0.0, 0.0, 0.0, 0.0)",7.062611824423399,True,"(-0.044721109231376975, 0.1948227896546761, 0.04214568103516394)","(0.9999995839615788, -0.0004190013059519329, 0.0008102558699301213)",8.502685499366817e-05,54.25236249741037,True,"(0.018619233865356237, 0.19586335079861927, 0.040000029682118084)","(-0.9998836494329625, -0.01525407209870775, 2.968211808200418e-05)",-0.0006538281570931591,86.81675730158113
31,Move,"(-0.0274, 0.0, -0.0444)","(0.0, 0.18542901571963355, 0.0)","(-0.012677949239926404, 0.18382504083674606, 0.0015295866425415695)","(1.5876631585373508, -0.0005630165652131354, 0.02723807051242408)","[-0.012962892727940383, 0.0125397742883894, -0.0003371908830034321]","[-0.026750000193715096, 0.05299999937415123, 0.03999999910593033]","[0.0, -0.0, 0.4678783375659645]","[-0.0592215433716774, 0.11726195365190506, 0.03999999910593033]","[0.0, -0.0, 0.03540144368243936]","[0.026750000193715096, 0.05299999937415123, 0.03999999910593033]","[0.0, 0.0, -0.28148156171628486]","[0.04675010219216347, 0.12216643989086151, 0.03999999910593033]","[0.0, -0.0, 0.14836904468783563]",0.46680212673391325,-0.2582893846808005,"(0.0, 0.0, 0.0, 0.0, 0.0, 0.0)",-11.70939788675425,-0.42935921422006784,0.7482418894206675,"(0.0, 0.0, 0.0, 0.0, 0.0, 0.0)",-5.24783004477858,-0.27869851672305695,0.6679279901219001,"(0.0, 0.0, 0.0, 0.0, 0.0, 0.0)",12.832763572985735,0.425463534999879,-1.0528911666141594,"(0.0, 0.0, 0.0, 0.0, 0.0, 0.0)",7.283270117997036,True,"(-0.04497169721937823, 0.19521466538991605, 0.04214568103516394)","(0.9999995839615788, -0.0004190013059519329, 0.0008102558699301213)",9.209191538625753e-05,55.42810183186315,True,"(0.01846974497248175, 0.19642453718474884, 0.03999948441692043)","(-0.9996812687920695, -0.02524074088385708, -0.000515583079566111)",-0.0005484570780376157,89.31944347611814
