OSUrobotics/InHand-Manipulation/AnalyseData/Data/Trial Data/Better/new_hand_expected_exp_2v2_e_n_1_kpNone_kdNone_dp5_step5_save_data.csv
,Phase,human_cube_pos,human_cube_orn,Cube_Pos,Cube_Orn,Cube_pos_in_start_pos,b'l_prox_pin'_link_pos,b'l_prox_pin'_link_orn,b'l_distal_pin'_link_pos,b'l_distal_pin'_link_orn,b'r_prox_pin'_link_pos,b'r_prox_pin'_link_orn,b'r_distal_pin'_link_pos,b'r_distal_pin'_link_orn,b'l_prox_pin'_joint_angle,b'l_prox_pin'_joint_vel,b'l_prox_pin'_joint_react_forces,b'l_prox_pin'_joint_motor_torque,b'l_distal_pin'_joint_angle,b'l_distal_pin'_joint_vel,b'l_distal_pin'_joint_react_forces,b'l_distal_pin'_joint_motor_torque,b'r_prox_pin'_joint_angle,b'r_prox_pin'_joint_vel,b'r_prox_pin'_joint_react_forces,b'r_prox_pin'_joint_motor_torque,b'r_distal_pin'_joint_angle,b'r_distal_pin'_joint_vel,b'r_distal_pin'_joint_react_forces,b'r_distal_pin'_joint_motor_torque,in_contact_l,contact_point_l_dist,contact_normal_l_dist,contact_distance_l_dist,contact_norm_force_l_dist,in_contact_r,contact_point_r_dist,contact_normal_r_dist,contact_distance_r_dist,contact_norm_force_r_dist
0,Open,,,,,,"[-0.026750000193715096, 0.05299999937415123, 0.03999999910593033]","[0.0, -0.0, 0.4254700097131474]","[-0.056467924267053604, 0.11858082562685013, 0.03999999910593033]","[0.0, -0.0, 0.4254700097131474]","[0.026750000193715096, 0.05299999937415123, 0.03999999910593033]","[0.0, 0.0, -0.4429245237535421]","[0.057608019560575485, 0.1180521547794342, 0.03999999910593033]","[0.0, 0.0, -0.5266622746639338]",0.5399229999999999,27.46872,"(0.0, 0.0, 0.0, 0.0, 0.0, 0.0)",-4.377393708535371,5.294901130302062e-32,0.0,"(0.0, 0.0, 0.0, 0.0, 0.0, 0.0)",-0.30017707799641646,-0.5623038734984663,-28.651050680519948,"(0.0, 0.0, 0.0, 0.0, 0.0, 0.0)",144.45470973647488,-0.10456727132876567,-4.999096204557077,"(0.0, 0.0, 0.0, 0.0, 0.0, 0.0)",33.97911746732963,False,,,,,False,,,,
1,Open,,,,,,"[-0.026750000193715096, 0.05299999937415123, 0.03999999910593033]","[0.0, -0.0, 0.894166469119967]","[-0.08288749307394028, 0.09808415919542313, 0.03999999910593033]","[0.0, -0.0, 0.894166894674561]","[0.026750000193715096, 0.05299999937415123, 0.03999999910593033]","[0.0, 0.0, -0.9122733503889549]","[0.08369457721710205, 0.09706035256385803, 0.03999999910593033]","[0.0, 0.0, -0.9997066729229968]",0.96174983227,16.220004472800003,"(0.0, 0.0, 0.0, 0.0, 0.0, 0.0)",-2.5959652512206968,5.681494863714967e-07,3.553320838026869e-05,"(0.0, 0.0, 0.0, 0.0, 0.0, 0.0)",-0.18114955764248034,-0.9780460127037736,-15.785439661232708,"(0.0, 0.0, 0.0, 0.0, 0.0, 0.0)",2.503992476159733,-0.0786900142246732,2.098357403184359,"(0.0, 0.0, 0.0, 0.0, 0.0, 0.0)",0.15360133560797545,False,,,,,False,,,,
2,Open,,,,,,"[-0.026750000193715096, 0.05299999937415123, 0.03999999910593033]","[0.0, -0.0, 1.170927100750299]","[-0.09307006001472473, 0.08102945238351822, 0.03999999910593033]","[0.0, -0.0, 1.1709279927689973]","[0.026750000193715096, 0.05299999937415123, 0.03999999910593033]","[0.0, 0.0, -1.181618964677462]","[0.09336595237255096, 0.08031877130270004, 0.03999999910593033]","[0.0, 0.0, -1.233247876832181]",1.2108343584571122,9.577750441143678,"(0.0, 0.0, 0.0, 0.0, 0.0, 0.0)",-1.5367816122769582,9.012180617793662e-07,6.275974057005224e-06,"(0.0, 0.0, 0.0, 0.0, 0.0, 0.0)",-0.1083256720668905,-1.2204570900414513,-9.3211442655613,"(0.0, 0.0, 0.0, 0.0, 0.0, 0.0)",1.4819475463743526,-0.046466145575958295,1.239071567699341,"(0.0, 0.0, 0.0, 0.0, 0.0, 0.0)",0.09166748660725833,False,,,,,False,,,,
3,Open,,,,,,"[-0.026750000193715096, 0.05299999937415123, 0.03999999910593033]","[0.0, -0.0, 1.334351465706577]","[-0.09674673527479172, 0.06986585259437561, 0.03999999910593033]","[0.0, -0.0, 1.33435435145599]","[0.026750000193715096, 0.05299999937415123, 0.03999999910593033]","[0.0, 0.0, -1.3406650641721125]","[0.09685182571411133, 0.06942359358072281, 0.03999999910593033]","[0.0, 0.0, -1.3711530696282732]",1.3579162851496,5.655565729344001,"(0.0, 0.0, 0.0, 0.0, 0.0, 0.0)",-0.9088150211252332,3.4316066113876724e-06,0.0001607445165674468,"(0.0, 0.0, 0.0, 0.0, 0.0, 0.0)",-0.06444344013525093,-1.3635984108023202,-5.504042378604797,"(0.0, 0.0, 0.0, 0.0, 0.0, 0.0)",0.8762522980402716,-0.02744024570882781,0.7315266716392431,"(0.0, 0.0, 0.0, 0.0, 0.0, 0.0)",0.05446985052483407,False,,,,,False,,,,
4,Open,,,,,,"[-0.026750000193715096, 0.05299999937415123, 0.03999999910593033]","[0.0, -0.0, 1.4308518944899675]","[-0.09804610908031464, 0.06304314732551575, 0.03999999910593033]","[0.0, -0.0, 1.4308566269594332]","[0.026750000193715096, 0.05299999937415123, 0.03999999910593033]","[0.0, 0.0, -1.4345798203875788]","[0.09808305650949478, 0.06277728080749512, 0.03999999910593033]","[0.0, 0.0, -1.4525855975984745]",1.4447666872179874,3.339555007520341,"(0.0, 0.0, 0.0, 0.0, 0.0, 0.0)",-0.5371183361845069,4.8269553674989e-06,2.0878160072459843e-05,"(0.0, 0.0, 0.0, 0.0, 0.0, 0.0)",-0.03821759960562203,-1.448121925594662,-3.2500819841423465,"(0.0, 0.0, 0.0, 0.0, 0.0, 0.0)",0.5178266556878065,-0.016205556838873442,0.4320218239148067,"(0.0, 0.0, 0.0, 0.0, 0.0, 0.0)",0.0322808466635012,False,,,,,False,,,,
5,Open,,,,,,"[-0.026750000193715096, 0.05299999937415123, 0.03999999910593033]","[0.0, -0.0, 1.487834617901085]","[-0.09850236773490906, 0.05896640568971634, 0.03999999910593033]","[0.0, -0.0, 1.4878390921106803]","[0.026750000193715096, 0.05299999937415123, 0.03999999910593033]","[0.0, 0.0, -1.4900358577435544]","[0.09851532429456711, 0.05880843847990036, 0.03999999910593033]","[0.0, 0.0, -1.5006695807985118]",1.4960509811353493,1.9719738363906854,"(0.0, 0.0, 0.0, 0.0, 0.0, 0.0)",-0.3173274216127963,4.509251873886308e-06,-3.168767150011037e-05,"(0.0, 0.0, 0.0, 0.0, 0.0, 0.0)",-0.022624215793833224,-1.498032215844392,-1.9191409108162163,"(0.0, 0.0, 0.0, 0.0, 0.0, 0.0)",0.30591369390909257,-0.00957062017308593,0.2551417656412126,"(0.0, 0.0, 0.0, 0.0, 0.0, 0.0)",0.019102112305110365,False,,,,,False,,,,
6,Open,,,,,,"[-0.026750000193715096, 0.05299999937415123, 0.03999999910593033]","[0.0, -0.0, 1.5214821319654974]","[-0.09866246581077576, 0.05654918774962425, 0.03999999910593033]","[0.0, -0.0, 1.5214858439169519]","[0.026750000193715096, 0.05299999937415123, 0.03999999910593033]","[0.0, 0.0, -1.5227821585534602]","[0.09866702556610107, 0.05645570904016495, 0.03999999910593033]","[0.0, 0.0, -1.529061933448946]",1.5263338438506127,1.164430830650334,"(0.0, 0.0, 0.0, 0.0, 0.0, 0.0)",-0.18743587261192823,3.6440993970645793e-06,-4.480530101024996e-05,"(0.0, 0.0, 0.0, 0.0, 0.0, 0.0)",-0.013379159967550349,-1.527503743133955,-1.1332335164278682,"(0.0, 0.0, 0.0, 0.0, 0.0, 0.0)",0.18068846528573543,-0.005652184024362593,0.1506807000213291,"(0.0, 0.0, 0.0, 0.0, 0.0, 0.0)",0.011293655891939093,False,,,,,False,,,,
7,Close,,,"(0.010000824637423049, 0.16001319418745247, 0.017848014970055004)","(-0.00026934863811186216, 1.6834304115272585e-05, -2.2671484573282825e-09)",,"[-0.026750000193715096, 0.05299999937415123, 0.03999999910593033]","[0.0, -0.0, 1.2784808254221978]","[-0.09569569677114487, 0.07374827563762665, 0.03999999910593033]","[0.0, -0.0, 1.034582661993943]","[0.026750000193715096, 0.05299999937415123, 0.03999999910593033]","[0.0, 0.0, -1.2792482299640686]","[0.0957116037607193, 0.0736953467130661, 0.03999999910593033]","[0.0, 0.0, -1.0390562259147462]",1.210632571455348,-16.283535238809286,"(0.0, 0.0, 0.0, 0.0, 0.0, 0.0)",2.771136716181199,-0.3095085607892871,-15.746535439217235,"(0.0, 0.0, 0.0, 0.0, 0.0, 0.0)",0.3469037989659341,-1.211323385283169,16.3019569408845,"(0.0, 0.0, 0.0, 0.0, 0.0, 0.0)",-2.7749564531312414,0.30617317599991634,15.835479338328643,"(0.0, 0.0, 0.0, 0.0, 0.0, 0.0)",-0.3479929302165593,False,,,,,False,,,,
8,Close,,,"(0.010001648057231211, 0.16002636889308344, 0.03133184175509247)","(-0.0005384699893107284, 3.3654401557527444e-05, -9.06094284338731e-09)",,"[-0.026750000193715096, 0.05299999937415123, 0.03999999910593033]","[0.0, -0.0, 1.0006360422079206]","[-0.08736064285039902, 0.0918632224202156, 0.03999999910593033]","[0.0, -0.0, 0.4880565025715103]","[0.026750000193715096, 0.05299999937415123, 0.03999999910593033]","[0.0, 0.0, -1.001089448203126]","[0.08737824857234955, 0.09183574467897415, 0.03999999910593033]","[0.0, 0.0, -0.49069812233338583]",0.9605724271186684,-9.615264723164493,"(0.0, 0.0, 0.0, 0.0, 0.0, 0.0)",1.6441783201079794,-0.5513218025251249,-9.298144061583436,"(0.0, 0.0, 0.0, 0.0, 0.0, 0.0)",0.21014173445603831,-0.9609803457758583,9.626142554022893,"(0.0, 0.0, 0.0, 0.0, 0.0, 0.0)",-1.6464751946207798,0.5493522946545342,9.350664461360347,"(0.0, 0.0, 0.0, 0.0, 0.0, 0.0)",-0.2108204377510729,False,,,,,False,,,,
9,Close,,,"(0.010002470404691093, 0.16003952644115657, 0.04045997120998789)","(-0.0008073642479911328, 5.0460303253361964e-05, -2.0369923505779015e-08)",,"[-0.026750000193715096, 0.05299999937415123, 0.03999999910593033]","[0.0, -0.0, 0.8365715799965936]","[-0.0801992267370224, 0.1012408509850502, 0.03999999910593033]","[0.0, -0.0, 0.16533874626364803]","[0.026750000193715096, 0.05299999937415123, 0.03999999910593033]","[0.0, 0.0, -0.8368392086626993]","[0.08021213859319687, 0.10122654587030411, 0.03999999910593033]","[0.0, 0.0, -0.1668985823484083]",0.8129144124893025,-5.677717666381402,"(0.0, 0.0, 0.0, 0.0, 0.0, 0.0)",0.9736078226475493,-0.6941096683608667,-5.490444078796776,"(0.0, 0.0, 0.0, 0.0, 0.0, 0.0)",0.12593397924105265,-0.8131552843771866,5.684140916724979,"(0.0, 0.0, 0.0, 0.0, 0.0, 0.0)",-0.9749785244213759,0.6929466958025952,5.521456795952681,"(0.0, 0.0, 0.0, 0.0, 0.0, 0.0)",-0.12634715317523504,False,,,,,False,,,,
10,Close,,,"(0.010003291824242136, 0.16005266914270105, 0.04523936165140331)","(-0.0010760316083767074, 6.725202012489063e-05, -3.618265319583079e-08)",,"[-0.026750000193715096, 0.05299999937415123, 0.03999999910593033]","[0.0, -0.0, 0.7396932119518481]","[-0.07528240978717804, 0.10618463158607483, 0.03999999910593033]","[0.0, 0.0, -0.025223688738047617]","[0.026750000193715096, 0.05299999937415123, 0.03999999910593033]","[0.0, 0.0, -0.7398511766938903]","[0.07529081404209137, 0.10617695748806, 0.03999999910593033]","[0.0, -0.0, 0.02430263317545323]",0.7257238314308083,-3.352635504821555,"(0.0, 0.0, 0.0, 0.0, 0.0, 0.0)",0.5758654822812497,-0.7784262532781683,-3.242260203768412,"(0.0, 0.0, 0.0, 0.0, 0.0, 0.0)",0.0750123771406224,-0.725866063871885,3.3564283699169333,"(0.0, 0.0, 0.0, 0.0, 0.0, 0.0)",-0.5766799137830688,0.7777395376647703,3.260573592131318,"(0.0, 0.0, 0.0, 0.0, 0.0, 0.0)",-0.0752606958188736,False,,,,,False,,,,
11,Close,,,"(0.009997966950406065, 0.16004795201914346, 0.046616050094935475)","(-0.0009640430328522325, -5.7324486097668704e-05, 4.2980615420070005e-09)",,"[-0.026750000193715096, 0.05299999937415123, 0.03999999910593033]","[0.0, -0.0, 0.682487397988505]","[-0.0721622109413147, 0.10887245088815689, 0.03999999910593033]","[0.0, 0.0, -0.13775029188859572]","[0.026750000193715096, 0.05299999937415123, 0.03999999910593033]","[0.0, 0.0, -0.6825807377410441]","[0.07216742634773254, 0.10886821150779724, 0.03999999910593033]","[0.0, -0.0, 0.1372064129763775]",0.6742386185346878,-1.979696494258342,"(0.0, 0.0, 0.0, 0.0, 0.0, 0.0)",0.34037467823530393,-0.8282145265472606,-1.9144534778819295,"(0.0, 0.0, 0.0, 0.0, 0.0, 0.0)",0.04449932044982575,-0.674322605213594,1.981936139029174,"(0.0, 0.0, 0.0, 0.0, 0.0, 0.0)",-0.3408573424145132,0.8278090365055835,1.9252671252731466,"(0.0, 0.0, 0.0, 0.0, 0.0, 0.0)",-0.04464739446319682,False,,,,,False,,,,
12,Close,,,"(0.009998679410322496, 0.16003066597344334, 0.0474253884764576)","(-0.0006112814540129935, -4.2805404436077314e-05, 1.9447426774393396e-07)",,"[-0.026750000193715096, 0.05299999937415123, 0.03999999910593033]","[0.0, -0.0, 0.6487079580530938]","[-0.07024932652711868, 0.11037428677082062, 0.03999999910593033]","[0.0, 0.0, -0.20419532625251113]","[0.026750000193715096, 0.05299999937415123, 0.03999999910593033]","[0.0, 0.0, -0.6487631098841893]","[0.07025248557329178, 0.11037188768386841, 0.03999999910593033]","[0.0, -0.0, 0.20387417727936794]",0.6438371618585478,-1.1689909828946077,"(0.0, 0.0, 0.0, 0.0, 0.0, 0.0)",0.20110328062585062,-0.8576133287829941,-1.1304144347684295,"(0.0, 0.0, 0.0, 0.0, 0.0, 0.0)",0.026365137971139978,-0.6438867551525752,1.1703134707353389,"(0.0, 0.0, 0.0, 0.0, 0.0, 0.0)",-0.20138889834359572,0.857373897412956,1.136799615752827,"(0.0, 0.0, 0.0, 0.0, 0.0, 0.0)",-0.026453134766811503,False,,,,,False,,,,
13,Close,,,"(0.008562352819313064, 0.15963169911231415, 0.04795936059784778)","(0.002880050037504477, -0.0018080766405500393, 0.027156574699580344)",,"[-0.026750000193715096, 0.05299999937415123, 0.03999999910593033]","[0.0, -0.0, 0.6287615983534538]","[-0.06909634172916412, 0.11123047024011612, 0.03999999910593033]","[0.0, 0.0, -0.24342883421715172]","[0.026750000193715096, 0.05299999937415123, 0.03999999910593033]","[0.0, 0.0, -0.6288059721302652]","[0.06909892708063126, 0.1112285852432251, 0.03999999910593033]","[0.0, -0.0, 0.24295585513718987]",0.6258854057058539,-0.6902774854894381,"(0.0, 0.0, 0.0, 0.0, 0.0, 0.0)",0.11878846609148704,-0.8749713231347032,-0.6674313830745814,"(0.0, 0.0, 0.0, 0.0, 0.0, 0.0)",0.015594191474811038,-0.6259255556368085,0.6912982329409242,"(0.0, 0.0, 0.0, 0.0, 0.0, 0.0)",0.23889456753769728,0.8745816224765113,0.6767593625972839,"(0.0, 0.0, 0.0, 0.0, 0.0, 0.0)",0.18939691443679915,False,,,,,True,"(0.040048198705117485, 0.17954190147604243, 0.02399995236517949)","(-0.9999968496142797, -0.00250969405768167, -4.6874861287478436e-05)",-8.481535683957195e-06,2.863336982423626
14,Move,,,"(0.003226703519616097, 0.15887842572556865, 0.048057042824217085)","(0.00733137607255103, 0.004060605831319912, 0.12411081910370701)","[0.0, 0.0, 0.0]","[-0.026750000193715096, 0.05299999937415123, 0.03999999910593033]","[0.0, -0.0, 0.5601465041237582]","[-0.06500434130430222, 0.11399676650762558, 0.03999999910593033]","[0.0, 0.0, -0.31665092698218517]","[0.026750000193715096, 0.05299999937415123, 0.03999999910593033]","[0.0, 0.0, -0.5704848668453074]","[0.0656328946352005, 0.11359802633523941, 0.03999999910593033]","[0.0, -0.0, 0.3056114929739557]",0.5446837312064112,-3.7110582962534506,"(0.0, 0.0, 0.0, 0.0, 0.0, 0.0)",-53.09089974488294,-0.8536776571297426,5.5487419201507295,"(0.0, 0.0, 0.0, 0.0, 0.0, 0.0)",-27.521806933097807,-0.5577558572400253,3.0549589579805563,"(0.0, 0.0, 0.0, 0.0, 0.0, 0.0)",39.845640952717,0.8551826533669656,-5.0192908628628805,"(0.0, 0.0, 0.0, 0.0, 0.0, 0.0)",19.520428399002,True,"(-0.031006456029053206, 0.18019920383377602, 0.023994329638221932)","(0.9922239401206523, 0.12433627092149606, -0.005669601818851313)",-0.0005148038489068186,428.5206410406488,True,"(0.03236246380961459, 0.17994971919477992, 0.023997959838382148)","(-0.9993845697424365, -0.035018889211399305, -0.00203940165862912)",0.0005577664042068458,310.72647358115125
15,Move,"(0.0, 0.0, 0.0)","(0.0, -0.0, 0.0)","(0.003504402033646404, 0.1613948858976077, 0.04817079317234074)","(-0.01182613504509735, 0.002137449988488053, 0.11742566033651587)","[0.00027769851403030687, 0.002516460172039048, 0.00011375034812365764]","[-0.026750000193715096, 0.05299999937415123, 0.03999999910593033]","[0.0, -0.0, 0.5308887471047733]","[-0.0632035955786705, 0.11508973687887192, 0.03999999910593033]","[0.0, 0.0, -0.30561217044041405]","[0.026750000193715096, 0.05299999937415123, 0.03999999910593033]","[0.0, 0.0, -0.5530530160976456]","[0.06457070261240005, 0.11426658928394318, 0.03999999910593033]","[0.0, -0.0, 0.28633845186065504]",0.5308886342742289,-2.743219973176496e-05,"(0.0, 0.0, 0.0, 0.0, 0.0, 0.0)",-1.479968393802807,-0.8377176048323264,-0.292020181278713,"(0.0, 0.0, 0.0, 0.0, 0.0, 0.0)",-0.7628834231627771,-0.5548130719939204,-0.42243279192450156,"(0.0, 0.0, 0.0, 0.0, 0.0, 0.0)",0.8255153500339152,0.8405146749784174,0.2695910008350374,"(0.0, 0.0, 0.0, 0.0, 0.0, 0.0)",0.4581689805558429,True,"(-0.02993623661702797, 0.18164521985802554, 0.02399768538251049)","(0.9931207992795509, 0.11707144870409551, -0.0023138575302940555)",-0.0007845701781099983,10.805815356635755,True,"(0.03269094966236777, 0.18010672723331056, 0.05600231461748951)","(-0.9931207992795511, -0.11707144870409283, 0.002313857530288821)",-0.00014723643191122778,5.690113724073641
16,Move,"(0.0, 0.0, -0.0031645569620253164)","(0.0, -0.0, 0.0)","(0.00407892451846698, 0.16159335795798085, 0.04849412614776611)","(-0.009526324249482609, 0.0014624579896586178, 0.11337689379151844)","[0.0008522209988508825, 0.002714932232412204, 0.0004370833235490257]","[-0.026750000193715096, 0.05299999937415123, 0.03999999910593033]","[0.0, -0.0, 0.5276290114308487]","[-0.06300100684165955, 0.1152082309126854, 0.03999999910593033]","[0.0, 0.0, -0.3097139766613249]","[0.026750000193715096, 0.05299999937415123, 0.03999999910593033]","[0.0, 0.0, -0.5593110599712507]","[0.06495337188243866, 0.114028699696064, 0.03999999910593033]","[0.0, -0.0, 0.28095257637558535]",0.5267495121466408,-0.21108542759321747,"(0.0, 0.0, 0.0, 0.0, 0.0, 0.0)",-1.16275615012395,-0.8369835479344634,0.08626382048567657,"(0.0, 0.0, 0.0, 0.0, 0.0, 0.0)",-0.6009721358893267,-0.5600933175102145,-0.18774179844760736,"(0.0, 0.0, 0.0, 0.0, 0.0, 0.0)",0.5698114551336998,0.8399702686222167,-0.07040427851880256,"(0.0, 0.0, 0.0, 0.0, 0.0, 0.0)",0.28424490437388117,True,"(-0.02946111818042163, 0.18162836320173123, 0.02399842217754846)","(0.9934036686376579, 0.11465890288650797, -0.0015770624923235304)",-0.0005419100676598722,9.24431812767036,True,"(0.03342902177354569, 0.1800366493145632, 0.05600157782245154)","(-0.9934036686376585, -0.1146589028865029, 0.0015770624923222515)",-8.976951703718494e-05,3.636237966458535
17,Move,"(0.0, 0.0, -0.006329113924050633)","(0.0, -0.0, 0.0)","(0.004467531586209276, 0.16165536858221366, 0.048632981740214486)","(-0.00630619022923119, 5.5072249998224105e-05, 0.10335687362426446)","[0.0012408280665931787, 0.0027769428566450094, 0.000575938915997401]","[-0.026750000193715096, 0.05299999937415123, 0.03999999910593033]","[0.0, -0.0, 0.5233348580858719]","[-0.06273353844881058, 0.11536332964897156, 0.03999999910593033]","[0.0, 0.0, -0.3130186330929964]","[0.026750000193715096, 0.05299999937415123, 0.03999999910593033]","[0.0, 0.0, -0.5637242235409411]","[0.06522233039140701, 0.11385951191186905, 0.03999999910593033]","[0.0, -0.0, 0.2757700442387345]",0.5226311430100706,-0.16888117620301324,"(0.0, 0.0, 0.0, 0.0, 0.0, 0.0)",-0.6697813614690056,-0.8362148153438623,0.03326648625210343,"(0.0, 0.0, 0.0, 0.0, 0.0, 0.0)",-0.38100151980656466,-0.5645125948977868,-0.18919890305992673,"(0.0, 0.0, 0.0, 0.0, 0.0, 0.0)",0.2996466866505095,0.839411787305032,-0.019804449857732487,"(0.0, 0.0, 0.0, 0.0, 0.0, 0.0)",0.14923595934564712,True,"(-0.028973702169333204, 0.18166645791249802, 0.02399934318832565)","(0.9944111315779367, 0.10557495436908673, -0.0006560517151317999)",-0.0003625758096709485,0.0,True,"(0.034040063851744295, 0.1800338787046049, 0.05600065681167434)","(-0.994411131577937, -0.10557495436908233, 0.0006560517151242932)",-4.318800007656976e-05,0.0
18,Move,"(0.0, 0.0, -0.00949367088607595)","(0.0, -0.0, 0.0)","(0.004791782272215054, 0.1618327419759145, 0.048739393875524624)","(-0.004157911460854579, -0.0004619140503906567, 0.09346471860123064)","[0.0015650787525989568, 0.0029543162503458398, 0.0006823510513075393]","[-0.026750000193715096, 0.05299999937415123, 0.03999999910593033]","[0.0, -0.0, 0.519590311872374]","[-0.062499769032001495, 0.1154976338148117, 0.03999999910593033]","[0.0, 0.0, -0.31646522321192894]","[0.026750000193715096, 0.05299999937415123, 0.03999999910593033]","[0.0, 0.0, -0.5680377900577036]","[0.06548448652029037, 0.1136929914355278, 0.03999999910593033]","[0.0, -0.0, 0.27130490540703645]",0.5189422161247912,-0.1555478199186252,"(0.0, 0.0, 0.0, 0.0, 0.0, 0.0)",-0.5157000682729924,-0.8360583506714542,-0.0006791775298804057,"(0.0, 0.0, 0.0, 0.0, 0.0, 0.0)",-0.2855556789814949,-0.5687948844423648,-0.1817066506100433,"(0.0, 0.0, 0.0, 0.0, 0.0, 0.0)",0.029240739925216173,0.8393495877967375,0.0016586535545171086,"(0.0, 0.0, 0.0, 0.0, 0.0, 0.0)",0.0020725001527391916,True,"(-0.028511426643832792, 0.18168217002701892, 0.023999944167790815)","(0.9946634300889169, 0.103172950964861, -5.50722499693511e-05)",-0.0002166651720812793,3.6966094570169648,True,"(0.03459785529326021, 0.18000747184490876, 0.05600005583220919)","(-0.9946634300889171, -0.10317295096485825, 5.507224996832029e-05)",2.8541096640562218e-05,0.0
19,Move,"(0.0, 0.0, -0.012658227848101266)","(0.0, -0.0, 0.0)","(0.005105977197813384, 0.16194858893865233, 0.048825063088795105)","(-0.0027383891979304406, -0.0002987381284495182, 0.08606663419181225)","[0.0018792736781972868, 0.0030701632130836765, 0.0007680202645780204]","[-0.026750000193715096, 0.05299999937415123, 0.03999999910593033]","[0.0, -0.0, 0.5162161820591347]","[-0.062288690358400345, 0.11561790108680725, 0.03999999910593033]","[0.0, 0.0, -0.3198107911833555]","[0.026750000193715096, 0.05299999937415123, 0.03999999910593033]","[0.0, 0.0, -0.5722800857058365]","[0.06574162095785141, 0.11352812498807907, 0.03999999910593033]","[0.0, -0.0, 0.2670740569968145]",0.5156397122262684,-0.13835681774274539,"(0.0, 0.0, 0.0, 0.0, 0.0, 0.0)",-0.5217310082815544,-0.8360188926613815,0.0019401684488733566,"(0.0, 0.0, 0.0, 0.0, 0.0, 0.0)",-0.2899206961179615,-0.5730343201315808,-0.1810159740389636,"(0.0, 0.0, 0.0, 0.0, 0.0, 0.0)",0.02914986768638968,0.8393536687064767,-0.00010882425971026066,"(0.0, 0.0, 0.0, 0.0, 0.0, 0.0)",0.0020848908526554504,True,"(-0.02807911258074136, 0.18168835730309324, 0.023999944167790815)","(0.9946634300889169, 0.103172950964861, -5.50722499693511e-05)",-0.00013516722151501356,3.428760349023678,True,"(0.03513582808421323, 0.17997268570183436, 0.05600005583220919)","(-0.9946634300889171, -0.10317295096485825, 5.507224996832029e-05)",0.00011181287968392658,0.0
20,Move,"(0.0, 0.0, -0.015822784810126587)","(0.0, -0.0, 0.0)","(0.005392894303122785, 0.16205697084134663, 0.04888137427528905)","(-0.002142406261938568, 0.00014687196654841799, 0.08015413345978795)","[0.002166190783506688, 0.0031785451157779754, 0.0008243314510719621]","[-0.026750000193715096, 0.05299999937415123, 0.03999999910593033]","[0.0, -0.0, 0.5131951726056329]","[-0.062099359929561615, 0.11572497338056564, 0.03999999910593033]","[0.0, 0.0, -0.3227851639365086]","[0.026750000193715096, 0.05299999937415123, 0.03999999910593033]","[0.0, 0.0, -0.5764565174751644]","[0.06599406898021698, 0.11336474865674973, 0.03999999910593033]","[0.0, -0.0, 0.2628968615433401]",0.5126778282335189,-0.12417182316550182,"(0.0, 0.0, 0.0, 0.0, 0.0, 0.0)",-0.5411376427079814,-0.8359627268760911,0.004232560810675495,"(0.0, 0.0, 0.0, 0.0, 0.0, 0.0)",-0.3033779618171361,-0.5771945185572647,-0.17711652689464064,"(0.0, 0.0, 0.0, 0.0, 0.0, 0.0)",0.02852065588642396,0.8393534009579887,7.13995967949188e-06,"(0.0, 0.0, 0.0, 0.0, 0.0, 0.0)",0.0020386854559289176,True,"(-0.027692273612874324, 0.18168038413306875, 0.023999838562641904)","(0.996713170681323, 0.08101129287424877, -0.00016067739887859475)",-0.00010587660499302994,4.214658392374744,True,"(0.035665214883683766, 0.17994679445760625, 0.056000161437358094)","(-0.9967131706813226, -0.08101129287425338, 0.00016067739887676215)",0.00023553758954887127,0.0
21,Move,"(0.0, 0.0, -0.0189873417721519)","(0.0, -0.0, 0.0)","(0.005653741280426224, 0.16209529907041076, 0.048918127939480326)","(-0.0014073031896901754, 9.303899181023413e-05, 0.07558213253518835)","[0.002427037760810127, 0.0032168733448421083, 0.0008610851152632409]","[-0.026750000193715096, 0.05299999937415123, 0.03999999910593033]","[0.0, -0.0, 0.510481890541931]","[-0.061929039657115936, 0.11582066118717194, 0.03999999910593033]","[0.0, 0.0, -0.32541345871954286]","[0.026750000193715096, 0.05299999937415123, 0.03999999910593033]","[0.0, 0.0, -0.5805424666914293]","[0.06624038517475128, 0.11320389807224274, 0.03999999910593033]","[0.0, -0.0, 0.2588109892201147]",0.510016461895526,-0.11170472194961656,"(0.0, 0.0, 0.0, 0.0, 0.0, 0.0)",-0.561768990713519,-0.835880985323274,0.0034503056410076487,"(0.0, 0.0, 0.0, 0.0, 0.0, 0.0)",-0.3145260774873372,-0.5812643851008816,-0.1732648145320317,"(0.0, 0.0, 0.0, 0.0, 0.0, 0.0)",0.027900550318016904,0.839353418524967,-4.6845275392115666e-07,"(0.0, 0.0, 0.0, 0.0, 0.0, 0.0)",0.0019944506507745875,True,"(-0.027348556524485187, 0.18168331365977852, 0.023999897046698103)","(0.9970850333631666, 0.07629826865462608, -0.00010219334267994183)",-7.393979622476869e-05,4.428970510610808,True,"(0.03618378040909824, 0.17990994651950487, 0.056000102953301906)","(-0.9970850333631666, -0.07629826865462679, 0.00010219334268565665)",0.0004085068450980966,0.0
22,Move,"(0.0, 0.0, -0.02215189873417721)","(0.0, -0.0, 0.0)","(0.005891721193499476, 0.1621200532239477, 0.04894230747180486)","(-0.0009212409080288979, 5.654948359726558e-05, 0.07176076638518662)","[0.0026650176738833788, 0.003241627498379057, 0.0008852646475877787]","[-0.026750000193715096, 0.05299999937415123, 0.03999999910593033]","[0.0, -0.0, 0.5080229407999574]","[-0.06177445501089096, 0.1159069761633873, 0.03999999910593033]","[0.0, 0.0, -0.3277791629992799]","[0.026750000193715096, 0.05299999937415123, 0.03999999910593033]","[0.0, 0.0, -0.5845142465662093]","[0.06647919118404388, 0.1130465716123581, 0.03999999910593033]","[0.0, -0.0, 0.2548391596668135]",0.5075992480194763,-0.10167419863960363,"(0.0, 0.0, 0.0, 0.0, 0.0, 0.0)",-0.5656878258259229,-0.8357841658718178,0.004297917222604462,"(0.0, 0.0, 0.0, 0.0, 0.0, 0.0)",-0.31826248985664934,-0.5852137260863071,-0.16786788426739818,"(0.0, 0.0, 0.0, 0.0, 0.0, 0.0)",0.02703154126907917,0.8393534173723975,3.07351850636914e-08,"(0.0, 0.0, 0.0, 0.0, 0.0, 0.0)",0.0019323403804033103,True,"(-0.027038143005828928, 0.18168606748455882, 0.023999936467261482)","(0.9973778871079891, 0.07236951269409855, -6.277277930094585e-05)",-5.2965497976105805e-05,4.467113364281774,True,"(0.03668777171737928, 0.17987144424270374, 0.05600006353273851)","(-0.997377887107989, -0.07236951269410023, 6.277277929645063e-05)",0.0006044513502945679,0.0
23,Move,"(0.0, 0.0, -0.02531645569620253)","(0.0, -0.0, 0.0)","(0.006115743101638386, 0.1620926847234303, 0.04891710908191211)","(0.001044135888041119, -0.00024298062913506214, 0.06844767096340376)","[0.002889039582022289, 0.003214258997861652, 0.0008600662576950246]","[-0.026750000193715096, 0.05299999937415123, 0.03999999910593033]","[0.0, -0.0, 0.5057787580288797]","[-0.06163319945335388, 0.11598541587591171, 0.03999999910593033]","[0.0, 0.0, -0.3299638379827601]","[0.026750000193715096, 0.05299999937415123, 0.03999999910593033]","[0.0, 0.0, -0.5883621225500768]","[0.06670995056629181, 0.11289326101541519, 0.03999999910593033]","[0.0, -0.0, 0.2509912766433762]",0.5053919330712282,-0.09284188255967052,"(0.0, 0.0, 0.0, 0.0, 0.0, 0.0)",-0.5463086541206956,-0.8357188283474651,0.005707818324958701,"(0.0, 0.0, 0.0, 0.0, 0.0, 0.0)",-0.3023279628941067,-0.5890397189836126,-0.16262215715170747,"(0.0, 0.0, 0.0, 0.0, 0.0, 0.0)",0.026186881366899343,0.8393534174480176,-2.016536271298719e-09,"(0.0, 0.0, 0.0, 0.0, 0.0, 0.0)",0.0018719749908293188,True,"(-0.026753244201136034, 0.1816881985772496, 0.023999942690557222)","(0.9974262993552142, 0.07169919216224313, -5.65494835629005e-05)",-2.9018223998383334e-05,4.242697192768989,True,"(0.03717588110472348, 0.17983223873146292, 0.05600005730944279)","(-0.9974262993552143, -0.07169919216224559, 5.6549483566380796e-05)",0.0008128086446734369,0.0
24,Move,"(0.0, 0.0, -0.02848101265822785)","(0.0, -0.0, 0.0)","(0.00631956228978421, 0.16209148785924535, 0.04894254415722944)","(0.0007002161134480261, -0.00015582673046346182, 0.0657306247939475)","[0.0030928587701681124, 0.0032130621336766974, 0.0008855013330123576]","[-0.026750000193715096, 0.05299999937415123, 0.03999999910593033]","[0.0, -0.0, 0.5037217217298792]","[-0.061503563076257706, 0.11605703830718994, 0.03999999910593033]","[0.0, 0.0, -0.33188810553941256]","[0.026750000193715096, 0.05299999937415123, 0.03999999910593033]","[0.0, 0.0, -0.5920753971347427]","[0.0669320747256279, 0.11274446547031403, 0.03999999910593033]","[0.0, -0.0, 0.2472780003518847]",0.5033660782649747,-0.08536376015410092,"(0.0, 0.0, 0.0, 0.0, 0.0, 0.0)",-0.5732505652666138,-0.8355798507970524,0.0072014546050669075,"(0.0, 0.0, 0.0, 0.0, 0.0, 0.0)",-0.316063610738005,-0.5927279757627775,-0.15661558847788462,"(0.0, 0.0, 0.0, 0.0, 0.0, 0.0)",0.025219707194344913,0.8393534174430561,1.3230749829062916e-10,"(0.0, 0.0, 0.0, 0.0, 0.0, 0.0)",0.001802852290331119,True,"(-0.026497244076744225, 0.18169258080059686, 0.023999942690557222)","(0.9974262993552142, 0.07169919216224313, -5.65494835629005e-05)",-1.9070171485323156e-05,4.410234442033913,True,"(0.037646772286522315, 0.17979265015096096, 0.05600005730944279)","(-0.9974262993552143, -0.07169919216224559, 5.6549483566380796e-05)",0.001030047515627234,0.0
25,Move,"(0.0, 0.0, -0.031645569620253174)","(0.0, -0.0, 0.0)","(0.006503875800364664, 0.16208232936989042, 0.04896005497585801)","(0.0004896428309831168, -9.082247828686474e-05, 0.06325675440742046)","[0.0032771722807485673, 0.0032039036443217705, 0.0009030121516409237]","[-0.026750000193715096, 0.05299999937415123, 0.03999999910593033]","[0.0, -0.0, 0.5018307192592643]","[-0.061384256929159164, 0.11612264811992645, 0.03999999910593033]","[0.0, 0.0, -0.33361394593997784]","[0.026750000193715096, 0.05299999937415123, 0.03999999910593033]","[0.0, 0.0, -0.5956582927239921]","[0.06714586913585663, 0.11260011047124863, 0.03999999910593033]","[0.0, -0.0, 0.24369516262398241]",0.5015038845819546,-0.078435075594064,"(0.0, 0.0, 0.0, 0.0, 0.0, 0.0)",-0.5733629706117457,-0.8353993394851239,0.010862186417000836,"(0.0, 0.0, 0.0, 0.0, 0.0, 0.0)",-0.31570268513507993,-0.5962885208091266,-0.15126416798747222,"(0.0, 0.0, 0.0, 0.0, 0.0, 0.0)",0.02435802090572892,0.8393534174433817,-8.681055874149024e-12,"(0.0, 0.0, 0.0, 0.0, 0.0, 0.0)",0.0017412676632780316,True,"(-0.02626471520606255, 0.18169767740304588, 0.023999942690557222)","(0.9974262993552142, 0.07169919216224313, -5.65494835629005e-05)",-1.0387650891854379e-05,4.4058525138878935,True,"(0.038100979487344366, 0.1797527950115424, 0.05600005730944279)","(-0.9974262993552143, -0.07169919216224559, 5.6549483566380796e-05)",0.00125431241870039,0.0
26,Move,"(0.0, 0.0, -0.034810126582278486)","(0.0, -0.0, 0.0)","(0.006666426021321118, 0.1620769307368948, 0.04897326433058057)","(0.0003981088895525317, -2.823092779520393e-05, 0.06110343068068649)","[0.003439722501705021, 0.0031985050113261526, 0.0009162215063634876]","[-0.026750000193715096, 0.05299999937415123, 0.03999999910593033]","[0.0, -0.0, 0.5000892056167657]","[-0.06127427518367767, 0.11618286371231079, 0.03999999910593033]","[0.0, 0.0, -0.33510912052600433]","[0.026750000193715096, 0.05299999937415123, 0.03999999910593033]","[0.0, 0.0, -0.5991214481225422]","[0.06735203415155411, 0.11245986074209213, 0.03999999910593033]","[0.0, -0.0, 0.24023192927395232]",0.4997882202551674,-0.0722369770122592,"(0.0, 0.0, 0.0, 0.0, 0.0, 0.0)",-0.5703117762088432,-0.8351248701066903,0.017617721566727904,"(0.0, 0.0, 0.0, 0.0, 0.0, 0.0)",-0.3130203784266289,-0.5997309627988792,-0.14627660073001358,"(0.0, 0.0, 0.0, 0.0, 0.0, 0.0)",0.023554919147931248,0.8393534174433602,5.702105454474804e-13,"(0.0, 0.0, 0.0, 0.0, 0.0, 0.0)",0.0016838691888409535,True,"(-0.02605672887806549, 0.181705313948777, 0.023999942690557222)","(0.9974262993552142, 0.07169919216224313, -5.65494835629005e-05)",-4.03983081658343e-06,3.658472506031136,False,,,,
27,Move,"(0.0, 0.0, -0.034810126582278486)","(0.0, -0.0, 0.0)","(0.008377959715814697, 0.1645081918710475, 0.0490437784574132)","(0.00017784326804271594, -0.003555102409000085, 0.026897951137751504)","[0.005151256196198599, 0.0056297661454788595, 0.000986735633196116]","[-0.026750000193715096, 0.05299999937415123, 0.03999999910593033]","[0.0, -0.0, 0.4473564479369413]","[-0.057896021753549576, 0.11791475117206573, 0.03999999910593033]","[0.0, 0.0, -0.3305763013654184]","[0.026750000193715096, 0.05299999937415123, 0.03999999910593033]","[0.0, 0.0, -0.5502113900734165]","[0.0643964558839798, 0.11437381058931351, 0.03999999910593033]","[0.0, -0.0, 0.22995349697567735]",0.4339662674410451,-3.2136436777915867,"(0.0, 0.0, 0.0, 0.0, 0.0, 0.0)",-69.03050598172479,-0.7532837927478082,5.915746183993086,"(0.0, 0.0, 0.0, 0.0, 0.0, 0.0)",-35.515349598196934,-0.5373929500293129,3.0764375136917494,"(0.0, 0.0, 0.0, 0.0, 0.0, 0.0)",68.76509370086887,0.7551273418663665,-6.009017683412694,"(0.0, 0.0, 0.0, 0.0, 0.0, 0.0)",36.241110306098555,True,"(-0.022975835490871788, 0.1835961631171324, 0.023999942690557222)","(0.9974262993552142, 0.07169919216224313, -5.65494835629005e-05)",-0.00038643773118398494,496.2030760249139,True,"(0.03623674982174024, 0.18303515065766485, 0.02399637321337661)","(-0.9996421991306361, -0.026501427297048435, -0.00362602654218001)",-0.003257473094337794,530.8653595900328
28,Move,"(0.0, 0.0, -0.0379746835443038)","(0.0, -0.0, 0.0)","(0.00791132327719292, 0.1668476455682954, 0.04893861066579851)","(-0.002462693015674303, 0.0026023303711952862, 0.0167792272047239)","[0.004684619757576822, 0.007969219842726749, 0.0008815678415814224]","[-0.026750000193715096, 0.05299999937415123, 0.03999999910593033]","[0.0, -0.0, 0.4264941188074415]","[-0.05653506889939308, 0.1185503602027893, 0.03999999910593033]","[0.0, 0.0, -0.30916166111832355]","[0.026750000193715096, 0.05299999937415123, 0.03999999910593033]","[0.0, 0.0, -0.5320221590994539]","[0.06327394396066666, 0.1150483787059784, 0.03999999910593033]","[0.0, -0.0, 0.20576586358908475]",0.42775367791199953,0.3022953696884228,"(0.0, 0.0, 0.0, 0.0, 0.0, 0.0)",-1.6718275270140621,-0.7364855040420029,-0.19913411193350034,"(0.0, 0.0, 0.0, 0.0, 0.0, 0.0)",-0.8998464543408922,-0.5336838968821108,-0.39882390567593184,"(0.0, 0.0, 0.0, 0.0, 0.0, 0.0)",1.2696114971629933,0.7388571877323074,0.25660999395071316,"(0.0, 0.0, 0.0, 0.0, 0.0, 0.0)",0.7029460850223012,True,"(-0.023025532239405698, 0.18489922802348252, 0.056002254682213544)","(0.9996630245699939, 0.025860339171076444, 0.002253922254318476)",-0.0007518731124557845,8.079633684147778,True,"(0.036796432232857994, 0.18325243243554507, 0.02399774534319572)","(-0.9996630245699939, -0.025860339171077624, -0.0022539222543212657)",-0.0022834464079556738,8.007410488182407
29,Move,"(0.0, 0.0, -0.041139240506329125)","(0.0, -0.0, 0.0)","(0.007570857906900291, 0.1670563410758555, 0.04875141414613605)","(0.0010322332875254232, -0.002366086674330575, 0.004977510566661242)","[0.004344154387284194, 0.008177915350286863, 0.0006943713219189629]","[-0.026750000193715096, 0.05299999937415123, 0.03999999910593033]","[0.0, -0.0, 0.4293887594960986]","[-0.05672468990087509, 0.11846386641263962, 0.03999999910593033]","[0.0, 0.0, -0.3069557911302407]","[0.026750000193715096, 0.05299999937415123, 0.03999999910593033]","[0.0, 0.0, -0.5382630416641969]","[0.06366047263145447, 0.1148192286491394, 0.03999999910593033]","[0.0, -0.0, 0.20086162518440726]",0.4295358180036157,0.03528915701961271,"(0.0, 0.0, 0.0, 0.0, 0.0, 0.0)",-0.914593910630334,-0.7360226157046823,0.07726700949232804,"(0.0, 0.0, 0.0, 0.0, 0.0, 0.0)",-0.45878006175643166,-0.5390883002275582,-0.1980615118460152,"(0.0, 0.0, 0.0, 0.0, 0.0, 0.0)",0.30335385136082066,0.7389500631931543,-0.04190685968192331,"(0.0, 0.0, 0.0, 0.0, 0.0, 0.0)",0.1517889296007374,True,"(-0.023361247237149337, 0.18486747850388852, 0.023998121517731407)","(0.9999697726031642, 0.007545067190209082, -0.0018777223093788043)",-0.0005358890673754503,5.042609725173663,True,"(0.03750988572993403, 0.18426306764292244, 0.02399755636517241)","(-0.9999846748928473, -0.004968132629440724, -0.002442874868368925)",-0.0014695875700429138,2.0681615147353543
30,Move,"(0.0, 0.0, -0.044303797468354424)","(0.0, -0.0, 0.0)","(0.007610609786738861, 0.1670779296983645, 0.04883203319601249)","(0.0006108905116589724, -0.0015499085638969138, 0.00499315269471597)","[0.004383906267122763, 0.00819950397279584, 0.0007749903717954032]","[-0.026750000193715096, 0.05299999937415123, 0.03999999910593033]","[0.0, -0.0, 0.43023069316573226]","[-0.05677978694438934, 0.11843860894441605, 0.03999999910593033]","[0.0, 0.0, -0.30539944084050624]","[0.026750000193715096, 0.05299999937415123, 0.03999999910593033]","[0.0, 0.0, -0.5435551101660622]","[0.06398709863424301, 0.11462303251028061, 0.03999999910593033]","[0.0, -0.0, 0.19524752188875172]",0.43038329742237286,0.03664842339430151,"(0.0, 0.0, 0.0, 0.0, 0.0, 0.0)",-0.23322784194855348,-0.7355842378621316,0.010993071728562048,"(0.0, 0.0, 0.0, 0.0, 0.0, 0.0)",-0.11453701013542016,-0.5445560580175849,-0.24023979088347502,"(0.0, 0.0, 0.0, 0.0, 0.0, 0.0)",0.03864371138464439,0.738817336550689,0.00353937713240704,"(0.0, 0.0, 0.0, 0.0, 0.0, 0.0)",0.002724329527611809,True,"(-0.023519731760705105, 0.18489406639773556, 0.023998121517731407)","(0.9999697726031642, 0.007545067190209082, -0.0018777223093788043)",-0.0003604162695605546,1.5947850500342693,True,"(0.03822833525796614, 0.18311140467705134, 0.02399829667016464)","(-0.9999860958613156, -0.004990925751878264, -0.0017025698761406682)",-0.0007744999663564998,0.0
31,Move,"(0.0, 0.0, -0.04746835443037975)","(0.0, -0.0, 0.0)","(0.0076361559046561785, 0.1670911036587153, 0.04888556939178851)","(0.0003497535941846449, -0.0010315346107284582, 0.004995058562841866)","[0.004409452385040081, 0.008212677933146645, 0.0008285265675714235]","[-0.026750000193715096, 0.05299999937415123, 0.03999999910593033]","[0.0, -0.0, 0.43110041964454215]","[-0.05683669447898865, 0.11841246485710144, 0.03999999910593033]","[0.0, 0.0, -0.30445123686912656]","[0.026750000193715096, 0.05299999937415123, 0.03999999910593033]","[0.0, 0.0, -0.5491336535280287]","[0.06433028727769852, 0.11441434919834137, 0.03999999910593033]","[0.0, -0.0, 0.1896933655187311]",0.43125619220362504,0.03739859168535231,"(0.0, 0.0, 0.0, 0.0, 0.0, 0.0)",-0.006002857576772816,-0.7355551093467841,-0.0008413118498887836,"(0.0, 0.0, 0.0, 0.0, 0.0, 0.0)",-0.0004109162582715607,-0.5501226578117921,-0.23736870404066585,"(0.0, 0.0, 0.0, 0.0, 0.0, 0.0)",0.0382248287313138,0.7388260447459245,-0.00023221853971354162,"(0.0, 0.0, 0.0, 0.0, 0.0, 0.0)",0.002734689463471602,True,"(-0.023639665380868063, 0.18489943022386654, 0.023998121517731407)","(0.9999697726031642, 0.007545067190209082, -0.0018777223093788043)",-0.00022640446550585916,0.0,True,"(0.03895232282055445, 0.183039169705627, 0.02399888559864486)","(-0.9999869039831499, -0.004995164165053292, -0.00111364139591303)",-6.523687782782985e-05,0.0
