OSUrobotics/InHand-Manipulation/AnalyseData/Data/Trial Data/Better/new_hand_expected_exp_2v2_b_n_1_kpNone_kdNone_dp5_step5_save_data.csv
,Phase,human_cube_pos,human_cube_orn,Cube_Pos,Cube_Orn,Cube_pos_in_start_pos,b'l_prox_pin'_link_pos,b'l_prox_pin'_link_orn,b'l_distal_pin'_link_pos,b'l_distal_pin'_link_orn,b'r_prox_pin'_link_pos,b'r_prox_pin'_link_orn,b'r_distal_pin'_link_pos,b'r_distal_pin'_link_orn,b'l_prox_pin'_joint_angle,b'l_prox_pin'_joint_vel,b'l_prox_pin'_joint_react_forces,b'l_prox_pin'_joint_motor_torque,b'l_distal_pin'_joint_angle,b'l_distal_pin'_joint_vel,b'l_distal_pin'_joint_react_forces,b'l_distal_pin'_joint_motor_torque,b'r_prox_pin'_joint_angle,b'r_prox_pin'_joint_vel,b'r_prox_pin'_joint_react_forces,b'r_prox_pin'_joint_motor_torque,b'r_distal_pin'_joint_angle,b'r_distal_pin'_joint_vel,b'r_distal_pin'_joint_react_forces,b'r_distal_pin'_joint_motor_torque,in_contact_l,contact_point_l_dist,contact_normal_l_dist,contact_distance_l_dist,contact_norm_force_l_dist,in_contact_r,contact_point_r_dist,contact_normal_r_dist,contact_distance_r_dist,contact_norm_force_r_dist
0,Open,,,,,,"[-0.026750000193715096, 0.05299999937415123, 0.03999999910593033]","[0.0, -0.0, 0.4254700097131474]","[-0.056467924267053604, 0.11858082562685013, 0.03999999910593033]","[0.0, -0.0, 0.4254700097131474]","[0.026750000193715096, 0.05299999937415123, 0.03999999910593033]","[0.0, 0.0, -0.4429245237535421]","[0.057608019560575485, 0.1180521547794342, 0.03999999910593033]","[0.0, 0.0, -0.5266622746639338]",0.5399229999999999,27.46872,"(0.0, 0.0, 0.0, 0.0, 0.0, 0.0)",-4.377393708535371,5.294901130302062e-32,0.0,"(0.0, 0.0, 0.0, 0.0, 0.0, 0.0)",-0.30017707799641646,-0.5623038734984663,-28.651050680519948,"(0.0, 0.0, 0.0, 0.0, 0.0, 0.0)",144.45470973647488,-0.10456727132876567,-4.999096204557077,"(0.0, 0.0, 0.0, 0.0, 0.0, 0.0)",33.97911746732963,False,,,,,False,,,,
1,Open,,,,,,"[-0.026750000193715096, 0.05299999937415123, 0.03999999910593033]","[0.0, -0.0, 0.894166469119967]","[-0.08288749307394028, 0.09808415919542313, 0.03999999910593033]","[0.0, -0.0, 0.894166894674561]","[0.026750000193715096, 0.05299999937415123, 0.03999999910593033]","[0.0, 0.0, -0.9122733503889549]","[0.08369457721710205, 0.09706035256385803, 0.03999999910593033]","[0.0, 0.0, -0.9997066729229968]",0.96174983227,16.220004472800003,"(0.0, 0.0, 0.0, 0.0, 0.0, 0.0)",-2.5959652512206968,5.681494863714967e-07,3.553320838026869e-05,"(0.0, 0.0, 0.0, 0.0, 0.0, 0.0)",-0.18114955764248034,-0.9780460127037736,-15.785439661232708,"(0.0, 0.0, 0.0, 0.0, 0.0, 0.0)",2.503992476159733,-0.0786900142246732,2.098357403184359,"(0.0, 0.0, 0.0, 0.0, 0.0, 0.0)",0.15360133560797545,False,,,,,False,,,,
2,Open,,,,,,"[-0.026750000193715096, 0.05299999937415123, 0.03999999910593033]","[0.0, -0.0, 1.170927100750299]","[-0.09307006001472473, 0.08102945238351822, 0.03999999910593033]","[0.0, -0.0, 1.1709279927689973]","[0.026750000193715096, 0.05299999937415123, 0.03999999910593033]","[0.0, 0.0, -1.181618964677462]","[0.09336595237255096, 0.08031877130270004, 0.03999999910593033]","[0.0, 0.0, -1.233247876832181]",1.2108343584571122,9.577750441143678,"(0.0, 0.0, 0.0, 0.0, 0.0, 0.0)",-1.5367816122769582,9.012180617793662e-07,6.275974057005224e-06,"(0.0, 0.0, 0.0, 0.0, 0.0, 0.0)",-0.1083256720668905,-1.2204570900414513,-9.3211442655613,"(0.0, 0.0, 0.0, 0.0, 0.0, 0.0)",1.4819475463743526,-0.046466145575958295,1.239071567699341,"(0.0, 0.0, 0.0, 0.0, 0.0, 0.0)",0.09166748660725833,False,,,,,False,,,,
3,Open,,,,,,"[-0.026750000193715096, 0.05299999937415123, 0.03999999910593033]","[0.0, -0.0, 1.334351465706577]","[-0.09674673527479172, 0.06986585259437561, 0.03999999910593033]","[0.0, -0.0, 1.33435435145599]","[0.026750000193715096, 0.05299999937415123, 0.03999999910593033]","[0.0, 0.0, -1.3406650641721125]","[0.09685182571411133, 0.06942359358072281, 0.03999999910593033]","[0.0, 0.0, -1.3711530696282732]",1.3579162851496,5.655565729344001,"(0.0, 0.0, 0.0, 0.0, 0.0, 0.0)",-0.9088150211252332,3.4316066113876724e-06,0.0001607445165674468,"(0.0, 0.0, 0.0, 0.0, 0.0, 0.0)",-0.06444344013525093,-1.3635984108023202,-5.504042378604797,"(0.0, 0.0, 0.0, 0.0, 0.0, 0.0)",0.8762522980402716,-0.02744024570882781,0.7315266716392431,"(0.0, 0.0, 0.0, 0.0, 0.0, 0.0)",0.05446985052483407,False,,,,,False,,,,
4,Open,,,,,,"[-0.026750000193715096, 0.05299999937415123, 0.03999999910593033]","[0.0, -0.0, 1.4308518944899675]","[-0.09804610908031464, 0.06304314732551575, 0.03999999910593033]","[0.0, -0.0, 1.4308566269594332]","[0.026750000193715096, 0.05299999937415123, 0.03999999910593033]","[0.0, 0.0, -1.4345798203875788]","[0.09808305650949478, 0.06277728080749512, 0.03999999910593033]","[0.0, 0.0, -1.4525855975984745]",1.4447666872179874,3.339555007520341,"(0.0, 0.0, 0.0, 0.0, 0.0, 0.0)",-0.5371183361845069,4.8269553674989e-06,2.0878160072459843e-05,"(0.0, 0.0, 0.0, 0.0, 0.0, 0.0)",-0.03821759960562203,-1.448121925594662,-3.2500819841423465,"(0.0, 0.0, 0.0, 0.0, 0.0, 0.0)",0.5178266556878065,-0.016205556838873442,0.4320218239148067,"(0.0, 0.0, 0.0, 0.0, 0.0, 0.0)",0.0322808466635012,False,,,,,False,,,,
5,Open,,,,,,"[-0.026750000193715096, 0.05299999937415123, 0.03999999910593033]","[0.0, -0.0, 1.487834617901085]","[-0.09850236773490906, 0.05896640568971634, 0.03999999910593033]","[0.0, -0.0, 1.4878390921106803]","[0.026750000193715096, 0.05299999937415123, 0.03999999910593033]","[0.0, 0.0, -1.4900358577435544]","[0.09851532429456711, 0.05880843847990036, 0.03999999910593033]","[0.0, 0.0, -1.5006695807985118]",1.4960509811353493,1.9719738363906854,"(0.0, 0.0, 0.0, 0.0, 0.0, 0.0)",-0.3173274216127963,4.509251873886308e-06,-3.168767150011037e-05,"(0.0, 0.0, 0.0, 0.0, 0.0, 0.0)",-0.022624215793833224,-1.498032215844392,-1.9191409108162163,"(0.0, 0.0, 0.0, 0.0, 0.0, 0.0)",0.30591369390909257,-0.00957062017308593,0.2551417656412126,"(0.0, 0.0, 0.0, 0.0, 0.0, 0.0)",0.019102112305110365,False,,,,,False,,,,
6,Open,,,,,,"[-0.026750000193715096, 0.05299999937415123, 0.03999999910593033]","[0.0, -0.0, 1.5214821319654974]","[-0.09866246581077576, 0.05654918774962425, 0.03999999910593033]","[0.0, -0.0, 1.5214858439169519]","[0.026750000193715096, 0.05299999937415123, 0.03999999910593033]","[0.0, 0.0, -1.5227821585534602]","[0.09866702556610107, 0.05645570904016495, 0.03999999910593033]","[0.0, 0.0, -1.529061933448946]",1.5263338438506127,1.164430830650334,"(0.0, 0.0, 0.0, 0.0, 0.0, 0.0)",-0.18743587261192823,3.6440993970645793e-06,-4.480530101024996e-05,"(0.0, 0.0, 0.0, 0.0, 0.0, 0.0)",-0.013379159967550349,-1.527503743133955,-1.1332335164278682,"(0.0, 0.0, 0.0, 0.0, 0.0, 0.0)",0.18068846528573543,-0.005652184024362593,0.1506807000213291,"(0.0, 0.0, 0.0, 0.0, 0.0, 0.0)",0.011293655891939093,False,,,,,False,,,,
7,Close,,,"(0.010000824637423049, 0.16001319418745247, 0.017848014970055004)","(-0.00026934863811186216, 1.6834304115272585e-05, -2.2671484573282825e-09)",,"[-0.026750000193715096, 0.05299999937415123, 0.03999999910593033]","[0.0, -0.0, 1.2784808254221978]","[-0.09569569677114487, 0.07374827563762665, 0.03999999910593033]","[0.0, -0.0, 1.034582661993943]","[0.026750000193715096, 0.05299999937415123, 0.03999999910593033]","[0.0, 0.0, -1.2792482299640686]","[0.0957116037607193, 0.0736953467130661, 0.03999999910593033]","[0.0, 0.0, -1.0390562259147462]",1.210632571455348,-16.283535238809286,"(0.0, 0.0, 0.0, 0.0, 0.0, 0.0)",2.771136716181199,-0.3095085607892871,-15.746535439217235,"(0.0, 0.0, 0.0, 0.0, 0.0, 0.0)",0.3469037989659341,-1.211323385283169,16.3019569408845,"(0.0, 0.0, 0.0, 0.0, 0.0, 0.0)",-2.7749564531312414,0.30617317599991634,15.835479338328643,"(0.0, 0.0, 0.0, 0.0, 0.0, 0.0)",-0.3479929302165593,False,,,,,False,,,,
8,Close,,,"(0.010001648057231211, 0.16002636889308344, 0.03133184175509247)","(-0.0005384699893107284, 3.3654401557527444e-05, -9.06094284338731e-09)",,"[-0.026750000193715096, 0.05299999937415123, 0.03999999910593033]","[0.0, -0.0, 1.0006360422079206]","[-0.08736064285039902, 0.0918632224202156, 0.03999999910593033]","[0.0, -0.0, 0.4880565025715103]","[0.026750000193715096, 0.05299999937415123, 0.03999999910593033]","[0.0, 0.0, -1.001089448203126]","[0.08737824857234955, 0.09183574467897415, 0.03999999910593033]","[0.0, 0.0, -0.49069812233338583]",0.9605724271186684,-9.615264723164493,"(0.0, 0.0, 0.0, 0.0, 0.0, 0.0)",1.6441783201079794,-0.5513218025251249,-9.298144061583436,"(0.0, 0.0, 0.0, 0.0, 0.0, 0.0)",0.21014173445603831,-0.9609803457758583,9.626142554022893,"(0.0, 0.0, 0.0, 0.0, 0.0, 0.0)",-1.6464751946207798,0.5493522946545342,9.350664461360347,"(0.0, 0.0, 0.0, 0.0, 0.0, 0.0)",-0.2108204377510729,False,,,,,False,,,,
9,Close,,,"(0.010002470404691093, 0.16003952644115657, 0.04045997120998789)","(-0.0008073642479911328, 5.0460303253361964e-05, -2.0369923505779015e-08)",,"[-0.026750000193715096, 0.05299999937415123, 0.03999999910593033]","[0.0, -0.0, 0.8365715799965936]","[-0.0801992267370224, 0.1012408509850502, 0.03999999910593033]","[0.0, -0.0, 0.16533874626364803]","[0.026750000193715096, 0.05299999937415123, 0.03999999910593033]","[0.0, 0.0, -0.8368392086626993]","[0.08021213859319687, 0.10122654587030411, 0.03999999910593033]","[0.0, 0.0, -0.1668985823484083]",0.8129144124893025,-5.677717666381402,"(0.0, 0.0, 0.0, 0.0, 0.0, 0.0)",0.9736078226475493,-0.6941096683608667,-5.490444078796776,"(0.0, 0.0, 0.0, 0.0, 0.0, 0.0)",0.12593397924105265,-0.8131552843771866,5.684140916724979,"(0.0, 0.0, 0.0, 0.0, 0.0, 0.0)",-0.9749785244213759,0.6929466958025952,5.521456795952681,"(0.0, 0.0, 0.0, 0.0, 0.0, 0.0)",-0.12634715317523504,False,,,,,False,,,,
10,Close,,,"(0.010003291824242136, 0.16005266914270105, 0.04523936165140331)","(-0.0010760316083767074, 6.725202012489063e-05, -3.618265319583079e-08)",,"[-0.026750000193715096, 0.05299999937415123, 0.03999999910593033]","[0.0, -0.0, 0.7396932119518481]","[-0.07528240978717804, 0.10618463158607483, 0.03999999910593033]","[0.0, 0.0, -0.025223688738047617]","[0.026750000193715096, 0.05299999937415123, 0.03999999910593033]","[0.0, 0.0, -0.7398511766938903]","[0.07529081404209137, 0.10617695748806, 0.03999999910593033]","[0.0, -0.0, 0.02430263317545323]",0.7257238314308083,-3.352635504821555,"(0.0, 0.0, 0.0, 0.0, 0.0, 0.0)",0.5758654822812497,-0.7784262532781683,-3.242260203768412,"(0.0, 0.0, 0.0, 0.0, 0.0, 0.0)",0.0750123771406224,-0.725866063871885,3.3564283699169333,"(0.0, 0.0, 0.0, 0.0, 0.0, 0.0)",-0.5766799137830688,0.7777395376647703,3.260573592131318,"(0.0, 0.0, 0.0, 0.0, 0.0, 0.0)",-0.0752606958188736,False,,,,,False,,,,
11,Close,,,"(0.009997966950406065, 0.16004795201914346, 0.046616050094935475)","(-0.0009640430328522325, -5.7324486097668704e-05, 4.2980615420070005e-09)",,"[-0.026750000193715096, 0.05299999937415123, 0.03999999910593033]","[0.0, -0.0, 0.682487397988505]","[-0.0721622109413147, 0.10887245088815689, 0.03999999910593033]","[0.0, 0.0, -0.13775029188859572]","[0.026750000193715096, 0.05299999937415123, 0.03999999910593033]","[0.0, 0.0, -0.6825807377410441]","[0.07216742634773254, 0.10886821150779724, 0.03999999910593033]","[0.0, -0.0, 0.1372064129763775]",0.6742386185346878,-1.979696494258342,"(0.0, 0.0, 0.0, 0.0, 0.0, 0.0)",0.34037467823530393,-0.8282145265472606,-1.9144534778819295,"(0.0, 0.0, 0.0, 0.0, 0.0, 0.0)",0.04449932044982575,-0.674322605213594,1.981936139029174,"(0.0, 0.0, 0.0, 0.0, 0.0, 0.0)",-0.3408573424145132,0.8278090365055835,1.9252671252731466,"(0.0, 0.0, 0.0, 0.0, 0.0, 0.0)",-0.04464739446319682,False,,,,,False,,,,
12,Close,,,"(0.009998679410322496, 0.16003066597344334, 0.0474253884764576)","(-0.0006112814540129935, -4.2805404436077314e-05, 1.9447426774393396e-07)",,"[-0.026750000193715096, 0.05299999937415123, 0.03999999910593033]","[0.0, -0.0, 0.6487079580530938]","[-0.07024932652711868, 0.11037428677082062, 0.03999999910593033]","[0.0, 0.0, -0.20419532625251113]","[0.026750000193715096, 0.05299999937415123, 0.03999999910593033]","[0.0, 0.0, -0.6487631098841893]","[0.07025248557329178, 0.11037188768386841, 0.03999999910593033]","[0.0, -0.0, 0.20387417727936794]",0.6438371618585478,-1.1689909828946077,"(0.0, 0.0, 0.0, 0.0, 0.0, 0.0)",0.20110328062585062,-0.8576133287829941,-1.1304144347684295,"(0.0, 0.0, 0.0, 0.0, 0.0, 0.0)",0.026365137971139978,-0.6438867551525752,1.1703134707353389,"(0.0, 0.0, 0.0, 0.0, 0.0, 0.0)",-0.20138889834359572,0.857373897412956,1.136799615752827,"(0.0, 0.0, 0.0, 0.0, 0.0, 0.0)",-0.026453134766811503,False,,,,,False,,,,
13,Close,,,"(0.008562352819313064, 0.15963169911231415, 0.04795936059784778)","(0.002880050037504477, -0.0018080766405500393, 0.027156574699580344)",,"[-0.026750000193715096, 0.05299999937415123, 0.03999999910593033]","[0.0, -0.0, 0.6287615983534538]","[-0.06909634172916412, 0.11123047024011612, 0.03999999910593033]","[0.0, 0.0, -0.24342883421715172]","[0.026750000193715096, 0.05299999937415123, 0.03999999910593033]","[0.0, 0.0, -0.6288059721302652]","[0.06909892708063126, 0.1112285852432251, 0.03999999910593033]","[0.0, -0.0, 0.24295585513718987]",0.6258854057058539,-0.6902774854894381,"(0.0, 0.0, 0.0, 0.0, 0.0, 0.0)",0.11878846609148704,-0.8749713231347032,-0.6674313830745814,"(0.0, 0.0, 0.0, 0.0, 0.0, 0.0)",0.015594191474811038,-0.6259255556368085,0.6912982329409242,"(0.0, 0.0, 0.0, 0.0, 0.0, 0.0)",0.23889456753769728,0.8745816224765113,0.6767593625972839,"(0.0, 0.0, 0.0, 0.0, 0.0, 0.0)",0.18939691443679915,False,,,,,True,"(0.040048198705117485, 0.17954190147604243, 0.02399995236517949)","(-0.9999968496142797, -0.00250969405768167, -4.6874861287478436e-05)",-8.481535683957195e-06,2.863336982423626
14,Move,,,"(0.003226703519616097, 0.15887842572556865, 0.048057042824217085)","(0.00733137607255103, 0.004060605831319912, 0.12411081910370701)","[0.0, 0.0, 0.0]","[-0.026750000193715096, 0.05299999937415123, 0.03999999910593033]","[0.0, -0.0, 0.5601465041237582]","[-0.06500434130430222, 0.11399676650762558, 0.03999999910593033]","[0.0, 0.0, -0.31665092698218517]","[0.026750000193715096, 0.05299999937415123, 0.03999999910593033]","[0.0, 0.0, -0.5704848668453074]","[0.0656328946352005, 0.11359802633523941, 0.03999999910593033]","[0.0, -0.0, 0.3056114929739557]",0.5446837312064112,-3.7110582962534506,"(0.0, 0.0, 0.0, 0.0, 0.0, 0.0)",-53.09089974488294,-0.8536776571297426,5.5487419201507295,"(0.0, 0.0, 0.0, 0.0, 0.0, 0.0)",-27.521806933097807,-0.5577558572400253,3.0549589579805563,"(0.0, 0.0, 0.0, 0.0, 0.0, 0.0)",39.845640952717,0.8551826533669656,-5.0192908628628805,"(0.0, 0.0, 0.0, 0.0, 0.0, 0.0)",19.520428399002,True,"(-0.031006456029053206, 0.18019920383377602, 0.023994329638221932)","(0.9922239401206523, 0.12433627092149606, -0.005669601818851313)",-0.0005148038489068186,428.5206410406488,True,"(0.03236246380961459, 0.17994971919477992, 0.023997959838382148)","(-0.9993845697424365, -0.035018889211399305, -0.00203940165862912)",0.0005577664042068458,310.72647358115125
15,Move,"(0.0, 0.0, 0.0)","(0.0, -0.0, 0.0)","(0.003504402033646404, 0.1613948858976077, 0.04817079317234074)","(-0.01182613504509735, 0.002137449988488053, 0.11742566033651587)","[0.00027769851403030687, 0.002516460172039048, 0.00011375034812365764]","[-0.026750000193715096, 0.05299999937415123, 0.03999999910593033]","[0.0, -0.0, 0.5308887471047733]","[-0.0632035955786705, 0.11508973687887192, 0.03999999910593033]","[0.0, 0.0, -0.30561217044041405]","[0.026750000193715096, 0.05299999937415123, 0.03999999910593033]","[0.0, 0.0, -0.5530530160976456]","[0.06457070261240005, 0.11426658928394318, 0.03999999910593033]","[0.0, -0.0, 0.28633845186065504]",0.5308886342742289,-2.743219973176496e-05,"(0.0, 0.0, 0.0, 0.0, 0.0, 0.0)",-1.479968393802807,-0.8377176048323264,-0.292020181278713,"(0.0, 0.0, 0.0, 0.0, 0.0, 0.0)",-0.7628834231627771,-0.5548130719939204,-0.42243279192450156,"(0.0, 0.0, 0.0, 0.0, 0.0, 0.0)",0.8255153500339152,0.8405146749784174,0.2695910008350374,"(0.0, 0.0, 0.0, 0.0, 0.0, 0.0)",0.4581689805558429,True,"(-0.02993623661702797, 0.18164521985802554, 0.02399768538251049)","(0.9931207992795509, 0.11707144870409551, -0.0023138575302940555)",-0.0007845701781099983,10.805815356635755,True,"(0.03269094966236777, 0.18010672723331056, 0.05600231461748951)","(-0.9931207992795511, -0.11707144870409283, 0.002313857530288821)",-0.00014723643191122778,5.690113724073641
16,Move,"(0.0031645569620253164, 0.0, 0.0031645569620253164)","(0.0, -0.0, 0.0)","(0.004331063177977964, 0.1616355675525, 0.04849343246777738)","(-0.009488369293945515, 0.0014608498072812728, 0.11077900922180037)","[0.0011043596583618673, 0.0027571418269313475, 0.00043638964356029764]","[-0.026750000193715096, 0.05299999937415123, 0.03999999910593033]","[0.0, -0.0, 0.5257102011792417]","[-0.06288157403469086, 0.11527767777442932, 0.03999999910593033]","[0.0, 0.0, -0.3116784182644438]","[0.026750000193715096, 0.05299999937415123, 0.03999999910593033]","[0.0, 0.0, -0.5611993146295403]","[0.06506853550672531, 0.11395645886659622, 0.03999999910593033]","[0.0, -0.0, 0.2791337551211559]",0.5243153449806733,-0.33476282136279334,"(0.0, 0.0, 0.0, 0.0, 0.0, 0.0)",-1.0785775362472727,-0.8370308418405015,0.08585564179726721,"(0.0, 0.0, 0.0, 0.0, 0.0, 0.0)",-0.5763263631891729,-0.5624898899892077,-0.30975537179903556,"(0.0, 0.0, 0.0, 0.0, 0.0, 0.0)",0.5658278998970929,0.8400480514744798,-0.06837637825275597,"(0.0, 0.0, 0.0, 0.0, 0.0, 0.0)",0.2733596159678504,True,"(-0.029211253659772923, 0.18163164800214887, 0.023998423527157017)","(0.9936434921871155, 0.11256166116001366, -0.0015757128837663617)",-0.0005409117466677698,8.750857979759585,True,"(0.03366426460481395, 0.18002192465366926, 0.05600157647284299)","(-0.9936434921871155, -0.11256166116001402, 0.0015757128837708538)",-8.885981805242105e-05,3.391741353699077
17,Move,"(0.006329113924050633, 0.0, 0.006329113924050633)","(0.0, -0.0, 0.0)","(0.005182991249503722, 0.16177880446363402, 0.048622143575485846)","(-0.006261586447830141, -0.00031909624876921085, 0.09275199220018907)","[0.001956287729887625, 0.002900378738065368, 0.0005651007512687614]","[-0.026750000193715096, 0.05299999937415123, 0.03999999910593033]","[0.0, -0.0, 0.5169061221587925]","[-0.06233188509941101, 0.11559336632490158, 0.03999999910593033]","[0.0, 0.0, -0.3195773772976584]","[0.026750000193715096, 0.05299999937415123, 0.03999999910593033]","[0.0, 0.0, -0.570073370312699]","[0.0656079575419426, 0.11361401528120041, 0.03999999910593033]","[0.0, -0.0, 0.26963298716585243]",0.5152452177586218,-0.3986184435393898,"(0.0, 0.0, 0.0, 0.0, 0.0, 0.0)",-0.37702574569684016,-0.8365232971420665,-0.009553281908168407,"(0.0, 0.0, 0.0, 0.0, 0.0, 0.0)",-0.23281237750652706,-0.5717981497354161,-0.4139253893023028,"(0.0, 0.0, 0.0, 0.0, 0.0, 0.0)",0.07271819402842356,0.839727537123543,0.005062957030242706,"(0.0, 0.0, 0.0, 0.0, 0.0, 0.0)",0.007923197882910803,True,"(-0.02813805230289944, 0.1816750630567192, 0.023999498446455433)","(0.9945496830257762, 0.10426253976914643, -0.0005007935853515368)",-0.0003320683638227624,2.5761484489995965,True,"(0.034832468602778575, 0.1799777742152438, 0.056000501553544565)","(-0.9945496830257757, -0.10426253976915258, 0.000500793585349701)",-1.0476840823057894e-05,0.005742823663699706
18,Move,"(0.00949367088607595, 0.0, 0.00949367088607595)","(0.0, -0.0, 0.0)","(0.006300777374412461, 0.16187370100296897, 0.04857353525886547)","(0.0011870618695153067, 0.0008943757236962777, 0.0735241730188585)","[0.0030740738547963635, 0.0029952752774003166, 0.0005164924346483871]","[-0.026750000193715096, 0.05299999937415123, 0.03999999910593033]","[0.0, -0.0, 0.5062978398872126]","[-0.061665888875722885, 0.1159672960639, 0.03999999910593033]","[0.0, 0.0, -0.3301980033442192]","[0.026750000193715096, 0.05299999937415123, 0.03999999910593033]","[0.0, 0.0, -0.5812087861031857]","[0.06628049165010452, 0.11317756772041321, 0.03999999910593033]","[0.0, -0.0, 0.2585048536793206]",0.5042924013809061,-0.4813193977355445,"(0.0, 0.0, 0.0, 0.0, 0.0, 0.0)",-0.26398892219273984,-0.8364937887187714,0.0005044536071203776,"(0.0, 0.0, 0.0, 0.0, 0.0, 0.0)",-0.18233635054407074,-0.5833221108549091,-0.5071992202500314,"(0.0, 0.0, 0.0, 0.0, 0.0, 0.0)",0.08165924582211723,0.8397149946465237,0.0003344660538475707,"(0.0, 0.0, 0.0, 0.0, 0.0, 0.0)",0.00583089097157781,True,"(-0.026771160646338908, 0.18167009661233083, 0.023997989234278243)","(0.9969610638853675, 0.07787552229931234, -0.002010005762539225)",-0.0002341042171783467,0.0,True,"(0.036244458316081, 0.17989093567445133, 0.056002010765721755)","(-0.9969610638853675, -0.07787552229931279, 0.0020100057625363735)",-1.8658807335565113e-05,0.0
19,Move,"(0.012658227848101266, 0.0, 0.012658227848101266)","(0.0, -0.0, 0.0)","(0.0074905353744608985, 0.1622404008277807, 0.04863302030245723)","(-0.0025672934457294594, 0.0012362400898740975, 0.04996136219634491)","[0.004263831854844802, 0.0033619751022120614, 0.0005759774782401472]","[-0.026750000193715096, 0.05299999937415123, 0.03999999910593033]","[0.0, -0.0, 0.4938502813870836]","[-0.0608794130384922, 0.11639703065156937, 0.03999999910593033]","[0.0, 0.0, -0.34257231347008266]","[0.026750000193715096, 0.05299999937415123, 0.03999999910593033]","[0.0, 0.0, -0.5943502254028175]","[0.06706787645816803, 0.11265290528535843, 0.03999999910593033]","[0.0, -0.0, 0.24536569855320514]",0.4915257606741946,-0.5578834785551825,"(0.0, 0.0, 0.0, 0.0, 0.0, 0.0)",-0.2221552239328538,-0.8364284528366529,-0.001404875642601204,"(0.0, 0.0, 0.0, 0.0, 0.0, 0.0)",-0.1653602755739571,-0.5968051856821793,-0.5891902772239455,"(0.0, 0.0, 0.0, 0.0, 0.0, 0.0)",0.09486159718968173,0.8397158175584408,-2.1944317792232937e-05,"(0.0, 0.0, 0.0, 0.0, 0.0, 0.0)",0.006777166706054825,True,"(-0.025173604876407657, 0.18165054075836834, 0.023998731592713412)","(0.9985902552803131, 0.05306500852212004, -0.0012676473273717974)",-0.00012075751696793723,2.387068015723093,True,"(0.03791027387512823, 0.179766849305882, 0.05600126840728659)","(-0.9985902552803133, -0.053065008522114106, 0.0012676473273748208)",0.00010117787860658055,0.0
20,Move,"(0.015822784810126587, 0.0, 0.015822784810126587)","(0.0, -0.0, 0.0)","(0.00901532425646919, 0.16228707503125805, 0.0487547484296069)","(-0.0012312358996284395, 0.0012831252931364764, 0.03212671182640561)","[0.005788620736853092, 0.003408649305689404, 0.0006977056053898145]","[-0.026750000193715096, 0.05299999937415123, 0.03999999910593033]","[0.0, -0.0, 0.47963950771237407]","[-0.059975072741508484, 0.11687561869621277, 0.03999999910593033]","[0.0, 0.0, -0.356687203379925]","[0.026750000193715096, 0.05299999937415123, 0.03999999910593033]","[0.0, 0.0, -0.6094095748584168]","[0.06796161085367203, 0.1120389997959137, 0.03999999910593033]","[0.0, -0.0, 0.2303061590050177]",0.4770030510542446,-0.6327431001754733,"(0.0, 0.0, 0.0, 0.0, 0.0, 0.0)",-0.4615008640821154,-0.8363311220753892,-0.0010641355086944883,"(0.0, 0.0, 0.0, 0.0, 0.0, 0.0)",-0.2934728381892416,-0.6122058752734858,-0.671106981683141,"(0.0, 0.0, 0.0, 0.0, 0.0, 0.0)",0.10804679402730855,0.8397157635671899,1.4397666925347608e-06,"(0.0, 0.0, 0.0, 0.0, 0.0, 0.0)",0.007717936437902704,True,"(-0.023351663291770713, 0.18161475057566928, 0.02399911618781117)","(0.9993850548120672, 0.035053279975505586, -0.0008830522296109863)",-8.403304976630184e-05,4.343136685682687,True,"(0.039794852280940415, 0.18021834244971016, 0.05600089977190993)","(-0.9993850416341614, -0.035053249997647515, 0.0008990119507142975)",0.00024050885371597184,0.0
21,Move,"(0.0189873417721519, 0.0, 0.0189873417721519)","(0.0, -0.0, 0.0)","(0.010670535300186315, 0.1623009287934711, 0.04871495949074033)","(-0.0015819572007528962, 0.0011637960062866662, 0.009433503467943244)","[0.0074438317805702175, 0.003422503067902455, 0.0006579166665232478]","[-0.026750000193715096, 0.05299999937415123, 0.03999999910593033]","[0.0, -0.0, 0.4637263744888382]","[-0.058954447507858276, 0.11739622056484222, 0.03999999910593033]","[0.0, 0.0, -0.37253126312057167]","[0.026750000193715096, 0.05299999937415123, 0.03999999910593033]","[0.0, 0.0, -0.625983068733026]","[0.0689343810081482, 0.11134790629148483, 0.03999999910593033]","[0.0, -0.0, 0.2137327122366451]",0.4607933210861665,-0.7039259389499665,"(0.0, 0.0, 0.0, 0.0, 0.0, 0.0)",-0.6462678869058736,-0.8362421727101044,0.0037076423051048794,"(0.0, 0.0, 0.0, 0.0, 0.0, 0.0)",-0.40404565119035957,-0.6290121851915378,-0.7269900240128234,"(0.0, 0.0, 0.0, 0.0, 0.0, 0.0)",0.11704137946077987,0.8397157671093266,-9.445697823906585e-08,"(0.0, 0.0, 0.0, 0.0, 0.0, 0.0)",0.008359759854873184,True,"(-0.0213099535049917, 0.18154733528455747, 0.023998967743526667)","(0.9995379377156258, 0.0303783982812675, -0.0010314965141159666)",-3.1504733665686345e-05,5.846792727084537,True,"(0.041901426301625556, 0.17998394250414868, 0.05600104096309346)","(-0.9995379283587217, -0.030378409270312764, 0.0010402031342429399)",0.00036074285006284026,0.0
22,Move,"(0.02215189873417721, 0.0, 0.02215189873417721)","(0.0, -0.0, 0.0)","(0.012648179796423352, 0.1621771052780572, 0.04881575438883565)","(0.0007751785960358417, 0.0028265969737765093, -0.010397816281290686)","[0.009421476276807254, 0.0032986795524885537, 0.0007587115646185624]","[-0.026750000193715096, 0.05299999937415123, 0.03999999910593033]","[0.0, -0.0, 0.4461098033213379]","[-0.057815071195364, 0.11795353144407272, 0.03999999910593033]","[0.0, 0.0, -0.39005864285524133]","[0.026750000193715096, 0.05299999937415123, 0.03999999910593033]","[0.0, 0.0, -0.6437602211004336]","[0.0699649229645729, 0.11058880388736725, 0.03999999910593033]","[0.0, -0.0, 0.19595554884739488]",0.44286880716064164,-0.7778392510139679,"(0.0, 0.0, 0.0, 0.0, 0.0, 0.0)",0.1249905651048966,-0.8361760637266268,-0.0018454227500606462,"(0.0, 0.0, 0.0, 0.0, 0.0, 0.0)",0.008808410466059227,-0.6469941192442813,-0.776138710995399,"(0.0, 0.0, 0.0, 0.0, 0.0, 0.0)",0.12495171270210012,0.8397157668735042,5.37585597642587e-09,"(0.0, 0.0, 0.0, 0.0, 0.0, 0.0)",0.008924111384426838,True,"(-0.019052042324841, 0.18142660882297434, 0.02399717567184678)","(0.9999756849789418, -0.0063762774053161215, -0.0028235681940065737)",-3.501622623342334e-05,0.0,True,"(0.04415536970969079, 0.18016654125548945, 0.05600282432815323)","(-0.9999756849789421, 0.006376277405309112, 0.002823568194014084)",0.00028455558830711014,0.0
23,Move,"(0.02531645569620253, 0.0, 0.02531645569620253)","(0.0, -0.0, 0.0)","(0.014600028426051124, 0.1622545144073751, 0.04870307512164383)","(-0.005273084425320022, 0.001982373370326539, -0.039402949863911345)","[0.011373324906435027, 0.003376088681806444, 0.0006460322974267477]","[-0.026750000193715096, 0.05299999937415123, 0.03999999910593033]","[0.0, -0.0, 0.4268839071095159]","[-0.056560616940259933, 0.1185387447476387, 0.03999999910593033]","[0.0, 0.0, -0.40922401828830324]","[0.026750000193715096, 0.05299999937415123, 0.03999999910593033]","[0.0, 0.0, -0.6623954773529827]","[0.07103054225444794, 0.10977353155612946, 0.03999999910593033]","[0.0, -0.0, 0.17732025933186227]",0.4233672573972963,-0.8439980336371861,"(0.0, 0.0, 0.0, 0.0, 0.0, 0.0)",-0.17664140664565997,-0.8361135425587948,-0.0013397123642188025,"(0.0, 0.0, 0.0, 0.0, 0.0, 0.0)",-0.16091089073728343,-0.6657555865361146,-0.8064209680416089,"(0.0, 0.0, 0.0, 0.0, 0.0, 0.0)",0.1298254046725565,0.8397157668889765,-4.125952912659159e-10,"(0.0, 0.0, 0.0, 0.0, 0.0, 0.0)",0.009271778021910582,True,"(-0.016588584198681276, 0.18124755180355354, 0.023998487399429384)","(0.9993761374327594, -0.03528526984372182, -0.0015118406113967806)",-2.6632042967976343e-05,2.3964256335763263,True,"(0.04652230305172933, 0.1798304020514533, 0.05600151260057062)","(-0.9993761374327594, 0.03528526984371931, 0.0015118406114021047)",0.0002257676197741361,0.0
24,Move,"(0.02848101265822785, 0.0, 0.02848101265822785)","(0.0, -0.0, 0.0)","(0.016884640777915693, 0.1620772685543379, 0.04863038775589772)","(0.0008188191286006861, -5.0020604060321734e-05, -0.06120697167985337)","[0.013657937258299595, 0.003198842828769255, 0.0005733449316806319]","[-0.026750000193715096, 0.05299999937415123, 0.03999999910593033]","[0.0, -0.0, 0.405958478112297]","[-0.05518276244401932, 0.1191481500864029, 0.03999999910593033]","[0.0, 0.0, -0.4301384748790354]","[0.026750000193715096, 0.05299999937415123, 0.03999999910593033]","[0.0, 0.0, -0.681768960716141]","[0.07212205976247787, 0.10890506207942963, 0.03999999910593033]","[0.0, -0.0, 0.1579468191196468]",0.4021372238769198,-0.9170955392522608,"(0.0, 0.0, 0.0, 0.0, 0.0, 0.0)",-0.2981974886952133,-0.8359184774264057,0.042828180183134376,"(0.0, 0.0, 0.0, 0.0, 0.0, 0.0)",-0.23100481993467503,-0.6852731686286555,-0.8410110207729401,"(0.0, 0.0, 0.0, 0.0, 0.0, 0.0)",0.46510875406047103,0.8395477477323144,-0.040324597328204065,"(0.0, 0.0, 0.0, 0.0, 0.0, 0.0)",0.18418327137663018,True,"(-0.01390821730184505, 0.18100436385144, 0.023999561346159902)","(0.998740934010007, -0.05016328320363261, -0.00043789388087963976)",-1.9713535855511533e-05,2.876342221552484,True,"(0.04897579100657898, 0.17942727579129775, 0.05600043865384011)","(-0.9987409340100069, 0.0501632832036351, 0.00043789388088801077)",1.945893343996176e-05,1.4899710327958724
25,Move,"(0.031645569620253174, 0.0, 0.031645569620253174)","(0.0, -0.0, 0.0)","(0.01938668788266097, 0.1616907184483802, 0.04868022870030216)","(-0.0012870519667792489, -0.00034636811102942735, -0.07199326135132976)","[0.01615998436304487, 0.0028122927228115546, 0.0006231858760850778]","[-0.026750000193715096, 0.05299999937415123, 0.03999999910593033]","[0.0, -0.0, 0.3836429550368062]","[-0.05369967594742775, 0.11976612359285355, 0.03999999910593033]","[0.0, 0.0, -0.449754821587487]","[0.026750000193715096, 0.05299999937415123, 0.03999999910593033]","[0.0, 0.0, -0.7017208231151485]","[0.0732283666729927, 0.10798873752355576, 0.03999999910593033]","[0.0, -0.0, 0.13581117423931327]",0.3795873025909195,-0.9733529673316839,"(0.0, 0.0, 0.0, 0.0, 0.0, 0.0)",-1.7658925359535034,-0.8329250301177471,0.11345389595739776,"(0.0, 0.0, 0.0, 0.0, 0.0, 0.0)",-0.936957483916763,-0.7052953096328972,-0.8578669572187941,"(0.0, 0.0, 0.0, 0.0, 0.0, 0.0)",1.8398885412646633,0.8369295807387682,-0.14459194767729994,"(0.0, 0.0, 0.0, 0.0, 0.0, 0.0)",0.9384663811449943,True,"(-0.011219209169926136, 0.18080810176196546, 0.023999899596154166)","(0.997446091963505, -0.07142327140244258, -9.964388662000766e-05)",-2.3268312508530086e-05,9.72473713695205,True,"(0.05164800969431637, 0.17899698243779966, 0.05600010040384583)","(-0.9974460919635049, 0.07142327140244273, 9.964388661347476e-05)",-1.7902667775839805e-05,8.882475413577001
26,Move,"(0.034810126582278486, 0.0, 0.034810126582278486)","(0.0, -0.0, 0.0)","(0.02205903210953071, 0.1613266156585281, 0.048706494997073656)","(-0.0003952711474364587, -0.0001561082943014587, -0.07651501089272386)","[0.018832328589914613, 0.002448189932959449, 0.0006494521728565711]","[-0.026750000193715096, 0.05299999937415123, 0.03999999910593033]","[0.0, -0.0, 0.3600962999263419]","[-0.052120231091976166, 0.12038213014602661, 0.03999999910593033]","[0.0, 0.0, -0.4696451945017147]","[0.026750000193715096, 0.05299999937415123, 0.03999999910593033]","[0.0, 0.0, -0.7217390324389005]","[0.0743197500705719, 0.10704737156629562, 0.03999999910593033]","[0.0, -0.0, 0.1123335161242366]",0.3558394442952079,-1.0216415249495938,"(0.0, 0.0, 0.0, 0.0, 0.0, 0.0)",-2.703403695343367,-0.8289536215593877,0.1890608868557863,"(0.0, 0.0, 0.0, 0.0, 0.0, 0.0)",-1.4116451907120873,-0.725295263113532,-0.8535201892239689,"(0.0, 0.0, 0.0, 0.0, 0.0, 0.0)",2.098380905020834,0.833452930041659,-0.148683633044964,"(0.0, 0.0, 0.0, 0.0, 0.0, 0.0)",1.0950183632622326,True,"(-0.008433026900139015, 0.18057980282344138, 0.023999864857997086)","(0.9972112689703683, -0.07463020152708927, -0.00013438204369505308)",-4.4569161867633886e-05,22.266232825484703,True,"(0.05432174576381027, 0.17743537153035616, 0.05600013514200291)","(-0.9972112689703687, 0.07463020152708347, 0.00013438204369331888)",-8.107682016638691e-06,15.387934549084786
27,Move,"(0.0379746835443038, 0.0, 0.0379746835443038)","(0.0, -0.0, 0.0)","(0.02476223635982466, 0.1609520438706225, 0.04876642665374371)","(-0.000681175113609423, -0.0005564609327320629, -0.0812106826709343)","[0.021535532840208562, 0.002073618145053857, 0.0007093838295266219]","[-0.026750000193715096, 0.05299999937415123, 0.03999999910593033]","[0.0, -0.0, 0.3356195002447444]","[-0.05046349763870239, 0.12098286300897598, 0.03999999910593033]","[0.0, 0.0, -0.4889324648841012]","[0.026750000193715096, 0.05299999937415123, 0.03999999910593033]","[0.0, 0.0, -0.7416304644207415]","[0.07538535445928574, 0.10609050840139389, 0.03999999910593033]","[0.0, -0.0, 0.08823132067146643]",0.3311992191403941,-1.060861296352006,"(0.0, 0.0, 0.0, 0.0, 0.0, 0.0)",-2.9017453953346406,-0.823699315576145,0.20461887285304076,"(0.0, 0.0, 0.0, 0.0, 0.0, 0.0)",-1.4985987686960756,-0.7451773264068461,-0.851242880164728,"(0.0, 0.0, 0.0, 0.0, 0.0, 0.0)",3.1841417118840023,0.8288527115038887,-0.24218291137661227,"(0.0, 0.0, 0.0, 0.0, 0.0, 0.0)",1.6593554406153563,True,"(-0.005623437868424168, 0.18032678568717553, 0.023999864857997086)","(0.9972112689703683, -0.07463020152708927, -0.00013438204369505308)",-8.568457928841266e-05,21.246957015239747,True,"(0.05708949923716776, 0.17694001085394856, 0.05600013514200291)","(-0.9972112689703687, 0.07463020152708347, 0.00013438204369331888)",3.301137449903485e-07,21.08008433029731
28,Move,"(0.041139240506329125, 0.0, 0.041139240506329125)","(0.0, -0.0, 0.0)","(0.027533431294982487, 0.16052497499769097, 0.048771605953613364)","(0.000985555032595155, 0.00021836203283363904, -0.0845511874332412)","[0.02430672777536639, 0.0016465492721223218, 0.0007145631293962798]","[-0.026750000193715096, 0.05299999937415123, 0.03999999910593033]","[0.0, -0.0, 0.31025438909210135]","[-0.04873166233301163, 0.1215624287724495, 0.03999999910593033]","[0.0, 0.0, -0.5084005234889263]","[0.026750000193715096, 0.05299999937415123, 0.03999999910593033]","[0.0, 0.0, -0.7613537908141682]","[0.07642294466495514, 0.10512099415063858, 0.03999999910593033]","[0.0, -0.0, 0.0630496486120468]",0.30569036762557705,-1.0953610384038828,"(0.0, 0.0, 0.0, 0.0, 0.0, 0.0)",-3.974669171127719,-0.8175022269803206,0.2766297751579237,"(0.0, 0.0, 0.0, 0.0, 0.0, 0.0)",-2.0060922184075025,-0.7648453524468779,-0.8379877297914288,"(0.0, 0.0, 0.0, 0.0, 0.0, 0.0)",3.2823321693552794,0.8234889774325678,-0.21945758614511304,"(0.0, 0.0, 0.0, 0.0, 0.0, 0.0)",1.7533719247227288,True,"(-0.0027448613830399968, 0.1800222086900527, 0.023999864857997086)","(0.9972112689703683, -0.07463020152708927, -0.00013438204369505308)",-0.0001261582015460743,32.21123041196758,True,"(0.059916811007385086, 0.17640870898241676, 0.05600013514200291)","(-0.9972112689703687, 0.07463020152708347, 0.00013438204369331888)",-9.68043706706103e-07,24.683846425860207
29,Move,"(0.044303797468354424, 0.0, 0.044303797468354424)","(0.0, -0.0, 0.0)","(0.03031306916916564, 0.16009521764773293, 0.04881071166251213)","(2.2199310505999353e-05, -0.00020979695306402448, -0.08890343148328632)","[0.027086365649549544, 0.0012167919221642842, 0.0007536688382950435]","[-0.026750000193715096, 0.05299999937415123, 0.03999999910593033]","[0.0, -0.0, 0.28411354439533953]","[-0.046932075172662735, 0.12211355566978455, 0.03999999910593033]","[0.0, 0.0, -0.5273213613386966]","[0.026750000193715096, 0.05299999937415123, 0.03999999910593033]","[0.0, 0.0, -0.7808106998983414]","[0.07742759585380554, 0.10414470732212067, 0.03999999910593033]","[0.0, -0.0, 0.03717196609299146]",0.279411655109146,-1.1284424558050712,"(0.0, 0.0, 0.0, 0.0, 0.0, 0.0)",-4.593745312279523,-0.8101028544714307,0.3196703427896378,"(0.0, 0.0, 0.0, 0.0, 0.0, 0.0)",-2.290688351133062,-0.784252747336321,-0.826095394423981,"(0.0, 0.0, 0.0, 0.0, 0.0, 0.0)",3.7765716573124632,0.8168917669338718,-0.26181187536163947,"(0.0, 0.0, 0.0, 0.0, 0.0, 0.0)",2.044018598350871,True,"(0.00015681557520144662, 0.17972884653634924, 0.023999780878009684)","(0.9964276535393816, -0.08445048004615148, -0.00021836203110285341)",-0.00015808863782774399,36.99523258803662,True,"(0.06276521667890489, 0.17578740051523, 0.056000219121990324)","(-0.996427653539381, 0.0844504800461587, 0.00021836203109992731)",1.1642891744599991e-05,26.72142937183224
30,Move,"(0.04746835443037975, 0.0, 0.04746835443037975)","(0.0, -0.0, 0.0)","(0.03316125032697831, 0.15960448432346236, 0.04880258725386448)","(0.0008971470045055588, -0.0005697707922051251, -0.09215766618141155)","[0.02993454680736221, 0.0007260585978937084, 0.0007455444296473948]","[-0.026750000193715096, 0.05299999937415123, 0.03999999910593033]","[0.0, -0.0, 0.25718043439469035]","[-0.04506354406476021, 0.1226319894194603, 0.03999999910593033]","[0.0, 0.0, -0.5462498255360508]","[0.026750000193715096, 0.05299999937415123, 0.03999999910593033]","[0.0, 0.0, -0.7999743475100404]","[0.07839835435152054, 0.1031642034649849, 0.03999999910593033]","[0.0, -0.0, 0.010324602830327887]",0.25234597759602545,-1.1602767201905915,"(0.0, 0.0, 0.0, 0.0, 0.0, 0.0)",-5.216566973446691,-0.801846692035675,0.38006146992416784,"(0.0, 0.0, 0.0, 0.0, 0.0, 0.0)",-2.550643340514719,-0.8033609680769098,-0.8127805158402801,"(0.0, 0.0, 0.0, 0.0, 0.0, 0.0)",4.551799809581728,0.8089817822282369,-0.31612868221664736,"(0.0, 0.0, 0.0, 0.0, 0.0, 0.0)",2.4733358750762036,True,"(0.003107418411333364, 0.17934568971534842, 0.023999780878009684)","(0.9964276535393816, -0.08445048004615148, -0.00021836203110285341)",-0.000188417740936202,41.672377761278575,True,"(0.0656644434381756, 0.17517467981176155, 0.056000219121990324)","(-0.996427653539381, 0.0844504800461587, 0.00021836203109992731)",1.8038162425336865e-05,30.72489844894642
