OSUrobotics/InHand-Manipulation/AnalyseData/Data/Trial Data/Better/new_hand_human_sub1_2v2_f_n_1_kpNone_kdNone_dp1_step1_save_data.csv
,Phase,human_cube_pos,human_cube_orn,Cube_Pos,Cube_Orn,Cube_pos_in_start_pos,b'l_prox_pin'_link_pos,b'l_prox_pin'_link_orn,b'l_distal_pin'_link_pos,b'l_distal_pin'_link_orn,b'r_prox_pin'_link_pos,b'r_prox_pin'_link_orn,b'r_distal_pin'_link_pos,b'r_distal_pin'_link_orn,b'l_prox_pin'_joint_angle,b'l_prox_pin'_joint_vel,b'l_prox_pin'_joint_react_forces,b'l_prox_pin'_joint_motor_torque,b'l_distal_pin'_joint_angle,b'l_distal_pin'_joint_vel,b'l_distal_pin'_joint_react_forces,b'l_distal_pin'_joint_motor_torque,b'r_prox_pin'_joint_angle,b'r_prox_pin'_joint_vel,b'r_prox_pin'_joint_react_forces,b'r_prox_pin'_joint_motor_torque,b'r_distal_pin'_joint_angle,b'r_distal_pin'_joint_vel,b'r_distal_pin'_joint_react_forces,b'r_distal_pin'_joint_motor_torque,in_contact_l,contact_point_l_dist,contact_normal_l_dist,contact_distance_l_dist,contact_norm_force_l_dist,in_contact_r,contact_point_r_dist,contact_normal_r_dist,contact_distance_r_dist,contact_norm_force_r_dist
0,Open,,,,,,"[-0.026750000193715096, 0.05299999937415123, 0.03999999910593033]","[0.0, -0.0, 0.0]","[-0.026750000193715096, 0.125, 0.03999999910593033]","[0.0, -0.0, 0.0]","[0.026750000193715096, 0.05299999937415123, 0.03999999910593033]","[0.0, -0.0, 0.0]","[0.026750000193715096, 0.125, 0.03999999910593033]","[0.0, -0.0, 0.0]",0.0,0.0,"(0.0, 0.0, 0.0, 0.0, 0.0, 0.0)",1.3400621000080305e-17,5.883223478113402e-32,1.4119736347472167e-29,"(0.0, 0.0, 0.0, 0.0, 0.0, 0.0)",1.0542555313129702e-18,-0.008068665190486622,-1.9364796457167894,"(0.0, 0.0, 0.0, 0.0, 0.0, 0.0)",193.26378306879909,-0.0700246186727924,-16.805908481470176,"(0.0, 0.0, 0.0, 0.0, 0.0, 0.0)",71.94009191575694,False,,,,,False,,,,
1,Open,,,,,,"[-0.026750000193715096, 0.05299999937415123, 0.03999999910593033]","[0.0, -0.0, 0.0]","[-0.026750000193715096, 0.125, 0.03999999910593033]","[0.0, -0.0, 5.883223447970011e-32]","[0.026750000193715096, 0.05299999937415123, 0.03999999910593033]","[0.0, 0.0, -0.008068665592501188]","[0.02733093686401844, 0.12499765306711197, 0.03999999910593033]","[0.0, 0.0, -0.0780932845685428]",0.157,37.68,"(0.0, 0.0, 0.0, 0.0, 0.0, 0.0)",54.702693795169004,5.294901130302062e-32,-1.4119736347472162e-30,"(0.0, 0.0, 0.0, 0.0, 0.0, 0.0)",3.9113724975844915,-0.1670280316324969,-38.150247946082466,"(0.0, 0.0, 0.0, 0.0, 0.0, 0.0)",-25.93345404555236,-0.0659493391739072,0.9780670797324476,"(0.0, 0.0, 0.0, 0.0, 0.0, 0.0)",-6.754749483880455,False,,,,,False,,,,
2,Open,,,,,,"[-0.026750000193715096, 0.05299999937415123, 0.03999999910593033]","[0.0, -0.0, 0.1569999988554567]","[-0.03800761699676514, 0.12411445379257202, 0.03999999910593033]","[0.0, -0.0, 0.1569999988554567]","[0.026750000193715096, 0.05299999937415123, 0.03999999910593033]","[0.0, 0.0, -0.16702801712980753]","[0.038720179349184036, 0.1239979937672615, 0.03999999910593033]","[0.0, 0.0, -0.23297739431320727]",0.29829999999999995,33.91199999999999,"(0.0, 0.0, 0.0, 0.0, 0.0, 0.0)",-5.390828189440958,5.294901130302062e-32,0.0,"(0.0, 0.0, 0.0, 0.0, 0.0, 0.0)",-0.3659219356209609,-0.3122944613104081,-34.863943122698686,"(0.0, 0.0, 0.0, 0.0, 0.0, 0.0)",95.8006544774165,-0.06705867534034729,-0.2662406799456205,"(0.0, 0.0, 0.0, 0.0, 0.0, 0.0)",9.049911776264722,False,,,,,False,,,,
3,Open,,,,,,"[-0.026750000193715096, 0.05299999937415123, 0.03999999910593033]","[0.0, -0.0, 0.29830000998707634]","[-0.04791048914194107, 0.12182030081748962, 0.03999999910593033]","[0.0, -0.0, 0.29830000998707634]","[0.026750000193715096, 0.05299999937415123, 0.03999999910593033]","[0.0, 0.0, -0.3122944642903269]","[0.048871491104364395, 0.12151744216680527, 0.03999999910593033]","[0.0, 0.0, -0.3793531994353912]",0.42546999999999996,30.5208,"(0.0, 0.0, 0.0, 0.0, 0.0, 0.0)",-4.858074537215091,5.294901130302062e-32,0.0,"(0.0, 0.0, 0.0, 0.0, 0.0, 0.0)",-0.33154044974508506,-0.44292449566296654,-31.35120824461403,"(0.0, 0.0, 0.0, 0.0, 0.0, 0.0)",100.88457241511576,-0.08373770380977785,-4.0029668326633345,"(0.0, 0.0, 0.0, 0.0, 0.0, 0.0)",24.077304806401806,False,,,,,False,,,,
4,Open,,,,,,"[-0.026750000193715096, 0.05299999937415123, 0.03999999910593033]","[0.0, -0.0, 0.4254700097131474]","[-0.056467924267053604, 0.11858082562685013, 0.03999999910593033]","[0.0, -0.0, 0.4254700097131474]","[0.026750000193715096, 0.05299999937415123, 0.03999999910593033]","[0.0, 0.0, -0.4429245237535421]","[0.057608019560575485, 0.1180521547794342, 0.03999999910593033]","[0.0, 0.0, -0.5266622746639338]",0.5399229999999999,27.46872,"(0.0, 0.0, 0.0, 0.0, 0.0, 0.0)",-4.377393708535371,5.294901130302062e-32,0.0,"(0.0, 0.0, 0.0, 0.0, 0.0, 0.0)",-0.30017707799641646,-0.5623038734984663,-28.651050680519948,"(0.0, 0.0, 0.0, 0.0, 0.0, 0.0)",144.45470973647488,-0.10456727132876567,-4.999096204557077,"(0.0, 0.0, 0.0, 0.0, 0.0, 0.0)",33.97911746732963,False,,,,,False,,,,
5,Open,,,,,,"[-0.026750000193715096, 0.05299999937415123, 0.03999999910593033]","[0.0, -0.0, 0.5399230359738098]","[-0.06376303732395172, 0.11475787311792374, 0.03999999910593033]","[0.0, -0.0, 0.5399230359738098]","[0.026750000193715096, 0.05299999937415123, 0.03999999910593033]","[0.0, 0.0, -0.5623038790270362]","[0.06513584405183792, 0.11391409486532211, 0.03999999910593033]","[0.0, 0.0, -0.6668711870723439]",0.6429307,24.721848,"(0.0, 0.0, 0.0, 0.0, 0.0, 0.0)",-3.943806903965684,5.294901130302062e-32,0.0,"(0.0, 0.0, 0.0, 0.0, 0.0, 0.0)",-0.2716098155097054,-0.6673401099248648,-25.208696742335626,"(0.0, 0.0, 0.0, 0.0, 0.0, 0.0)",94.97739775913854,-0.11755295807544866,-3.116564819203918,"(0.0, 0.0, 0.0, 0.0, 0.0, 0.0)",25.79194570087013,False,,,,,False,,,,
6,Open,,,,,,"[-0.026750000193715096, 0.05299999937415123, 0.03999999910593033]","[0.0, -0.0, 0.6429307111289271]","[-0.06991713494062424, 0.11062463372945786, 0.03999999910593033]","[0.0, -0.0, 0.6429307111289271]","[0.026750000193715096, 0.05299999937415123, 0.03999999910593033]","[0.0, 0.0, -0.6673401753977319]","[0.07131072133779526, 0.10955388844013214, 0.03999999910593033]","[0.0, 0.0, -0.7848931559948581]",0.73563763,22.249663200000004,"(0.0, 0.0, 0.0, 0.0, 0.0, 0.0)",-3.552789792259023,5.294901130302062e-32,0.0,"(0.0, 0.0, 0.0, 0.0, 0.0, 0.0)",-0.24562369466220793,-0.7579917869736262,-21.756402491702737,"(0.0, 0.0, 0.0, 0.0, 0.0, 0.0)",34.46450837185191,-0.10794166402774508,2.3067105714488583,"(0.0, 0.0, 0.0, 0.0, 0.0, 0.0)",8.765009015475858,False,,,,,False,,,,
7,Open,,,,,,"[-0.026750000193715096, 0.05299999937415123, 0.03999999910593033]","[0.0, -0.0, 0.7356376306875043]","[-0.07506632059812546, 0.10638101398944855, 0.03999999910593033]","[0.0, -0.0, 0.7356376306875043]","[0.026750000193715096, 0.05299999937415123, 0.03999999910593033]","[0.0, 0.0, -0.757991847340814]","[0.076247438788414, 0.10528770089149475, 0.03999999910593033]","[0.0, 0.0, -0.8659334873334429]",0.8190738670000001,20.024696880000004,"(0.0, 0.0, 0.0, 0.0, 0.0, 0.0)",-3.2002295086701533,2.3293280891773424e-07,5.5903874140256216e-05,"(0.0, 0.0, 0.0, 0.0, 0.0, 0.0)",-0.22200715926400075,-0.8391926082762636,-19.488197112632974,"(0.0, 0.0, 0.0, 0.0, 0.0, 0.0)",3.295349739497939,-0.09714776835574307,2.590534961280482,"(0.0, 0.0, 0.0, 0.0, 0.0, 0.0)",0.25803221970863044,False,,,,,False,,,,
8,Open,,,,,,"[-0.026750000193715096, 0.05299999937415123, 0.03999999910593033]","[0.0, -0.0, 0.8190738875671263]","[-0.07934698462486267, 0.10216865688562393, 0.03999999910593033]","[0.0, -0.0, 0.8190741465287105]","[0.026750000193715096, 0.05299999937415123, 0.03999999910593033]","[0.0, 0.0, -0.839192558822362]","[0.08032548427581787, 0.10110059380531311, 0.03999999910593033]","[0.0, 0.0, -0.9363403253067936]",0.8941664803,18.022227192,"(0.0, 0.0, 0.0, 0.0, 0.0, 0.0)",-2.8824197251771095,4.2009445145371055e-07,4.4918794208634316e-05,"(0.0, 0.0, 0.0, 0.0, 0.0, 0.0)",-0.2005835928406654,-0.9122733474486373,-17.539377401369673,"(0.0, 0.0, 0.0, 0.0, 0.0, 0.0)",2.7804978356880783,-0.0874331700712747,2.33150358827241,"(0.0, 0.0, 0.0, 0.0, 0.0, 0.0)",0.17017621517521792,False,,,,,False,,,,
9,Open,,,,,,"[-0.026750000193715096, 0.05299999937415123, 0.03999999910593033]","[0.0, -0.0, 0.894166469119967]","[-0.08288749307394028, 0.09808415919542313, 0.03999999910593033]","[0.0, -0.0, 0.894166894674561]","[0.026750000193715096, 0.05299999937415123, 0.03999999910593033]","[0.0, 0.0, -0.9122733503889549]","[0.08369457721710205, 0.09706035256385803, 0.03999999910593033]","[0.0, 0.0, -0.9997066729229968]",0.96174983227,16.220004472800003,"(0.0, 0.0, 0.0, 0.0, 0.0, 0.0)",-2.5959652512206968,5.681494863714967e-07,3.553320838026869e-05,"(0.0, 0.0, 0.0, 0.0, 0.0, 0.0)",-0.18114955764248034,-0.9780460127037736,-15.785439661232708,"(0.0, 0.0, 0.0, 0.0, 0.0, 0.0)",2.503992476159733,-0.0786900142246732,2.098357403184359,"(0.0, 0.0, 0.0, 0.0, 0.0, 0.0)",0.15360133560797545,False,,,,,False,,,,
10,Open,,,,,,"[-0.026750000193715096, 0.05299999937415123, 0.03999999910593033]","[0.0, -0.0, 0.9617498658906226]","[-0.08580395579338074, 0.09419016540050507, 0.03999999910593033]","[0.0, -0.0, 0.9617504517765805]","[0.026750000193715096, 0.05299999937415123, 0.03999999910593033]","[0.0, 0.0, -0.9780460255881384]","[0.08646733313798904, 0.09322238713502884, 0.03999999910593033]","[0.0, 0.0, -1.0567360258914282]",1.022574849043,14.598004025520002,"(0.0, 0.0, 0.0, 0.0, 0.0, 0.0)",-2.337816594086846,6.829231533297027e-07,2.7545680069969436e-05,"(0.0, 0.0, 0.0, 0.0, 0.0, 0.0)",-0.16354029854134106,-1.0372414114333963,-14.206895695109438,"(0.0, 0.0, 0.0, 0.0, 0.0, 0.0)",2.2548456713339484,-0.07082115822448021,1.8885254400463192,"(0.0, 0.0, 0.0, 0.0, 0.0, 0.0)",0.13860128234430863,False,,,,,False,,,,
11,Open,,,,,,"[-0.026750000193715096, 0.05299999937415123, 0.03999999910593033]","[0.0, -0.0, 1.0225748785172661]","[-0.08819860219955444, 0.09052424877882004, 0.03999999910593033]","[0.0, -0.0, 1.0225755149967983]","[0.026750000193715096, 0.05299999937415123, 0.03999999910593033]","[0.0, 0.0, -1.037241417801626]","[0.08874232321977615, 0.08961901068687439, 0.03999999910593033]","[0.0, 0.0, -1.1080626941470386]",1.0773173641387,13.138203622968001,"(0.0, 0.0, 0.0, 0.0, 0.0, 0.0)",-2.105207702642618,7.694903593429899e-07,2.0776129443188934e-05,"(0.0, 0.0, 0.0, 0.0, 0.0, 0.0)",-0.14759587787833617,-1.0905172702900567,-12.78620612559849,"(0.0, 0.0, 0.0, 0.0, 0.0, 0.0)",2.0303755786213302,-0.06373917358809339,1.6996763127328351,"(0.0, 0.0, 0.0, 0.0, 0.0, 0.0)",0.1250328149112744,False,,,,,False,,,,
12,Open,,,,,,"[-0.026750000193715096, 0.05299999937415123, 0.03999999910593033]","[0.0, -0.0, 1.0773173786594632]","[-0.09015969932079315, 0.08710587024688721, 0.03999999910593033]","[0.0, -0.0, 1.0773182784199262]","[0.026750000193715096, 0.05299999937415123, 0.03999999910593033]","[0.0, 0.0, -1.090517334189526]","[0.09060435742139816, 0.0862659215927124, 0.03999999910593033]","[0.0, 0.0, -1.1542564269670996]",1.1265856277248298,11.824383260671203,"(0.0, 0.0, 0.0, 0.0, 0.0, 0.0)",-1.895636869852492,8.322629993378343e-07,1.5065433598762668e-05,"(0.0, 0.0, 0.0, 0.0, 0.0, 0.0)",-0.13316806895824274,-1.138465543261051,-11.50758551303864,"(0.0, 0.0, 0.0, 0.0, 0.0, 0.0)",1.828159741200242,-0.05736537454460671,1.5297117704368035,"(0.0, 0.0, 0.0, 0.0, 0.0, 0.0)",0.11276577482950233,False,,,,,False,,,,
13,Open,,,,,,"[-0.026750000193715096, 0.05299999937415123, 0.03999999910593033]","[0.0, -0.0, 1.126585512342968]","[-0.09176240861415863, 0.08394166082143784, 0.03999999910593033]","[0.0, -0.0, 1.1265864725026016]","[0.026750000193715096, 0.05299999937415123, 0.03999999910593033]","[0.0, 0.0, -1.13846552283997]","[0.09212540090084076, 0.08316715806722641, 0.03999999910593033]","[0.0, 0.0, -1.1958309904194953]",1.1709270649523469,10.641944934604087,"(0.0, 0.0, 0.0, 0.0, 0.0, 0.0)",-1.7068426281171958,8.750681698751778e-07,1.0273240928962424e-05,"(0.0, 0.0, 0.0, 0.0, 0.0, 0.0)",-0.12011999884119333,-1.181618988934946,-10.356826961734775,"(0.0, 0.0, 0.0, 0.0, 0.0, 0.0)",1.6460093571929852,-0.051628943774705546,1.376743384776279,"(0.0, 0.0, 0.0, 0.0, 0.0, 0.0)",0.10168054944364863,False,,,,,False,,,,
14,Open,,,,,,"[-0.026750000193715096, 0.05299999937415123, 0.03999999910593033]","[0.0, -0.0, 1.170927100750299]","[-0.09307006001472473, 0.08102945238351822, 0.03999999910593033]","[0.0, -0.0, 1.1709279927689973]","[0.026750000193715096, 0.05299999937415123, 0.03999999910593033]","[0.0, 0.0, -1.181618964677462]","[0.09336595237255096, 0.08031877130270004, 0.03999999910593033]","[0.0, 0.0, -1.233247876832181]",1.2108343584571122,9.577750441143678,"(0.0, 0.0, 0.0, 0.0, 0.0, 0.0)",-1.5367816122769582,9.012180617793662e-07,6.275974057005224e-06,"(0.0, 0.0, 0.0, 0.0, 0.0, 0.0)",-0.1083256720668905,-1.2204570900414513,-9.3211442655613,"(0.0, 0.0, 0.0, 0.0, 0.0, 0.0)",1.4819475463743526,-0.046466145575958295,1.239071567699341,"(0.0, 0.0, 0.0, 0.0, 0.0, 0.0)",0.09166748660725833,False,,,,,False,,,,
15,Open,,,,,,"[-0.026750000193715096, 0.05299999937415123, 0.03999999910593033]","[0.0, -0.0, 1.2108343955497323]","[-0.09413553774356842, 0.07836118340492249, 0.03999999910593033]","[0.0, -0.0, 1.210835255049739]","[0.026750000193715096, 0.05299999937415123, 0.03999999910593033]","[0.0, 0.0, -1.2204571829136446]","[0.09437645971775055, 0.07771158218383789, 0.03999999910593033]","[0.0, 0.0, -1.2669233179031547]",1.2467509226114009,8.619975397029307,"(0.0, 0.0, 0.0, 0.0, 0.0, 0.0)",-1.3836082777937824,9.135722823677317e-07,2.9650129412077397e-06,"(0.0, 0.0, 0.0, 0.0, 0.0, 0.0)",-0.09766941677677543,-1.2554113810373062,-8.38902983900517,"(0.0, 0.0, 0.0, 0.0, 0.0, 0.0)",1.334189480132575,-0.04181961771093252,1.1151666876061868,"(0.0, 0.0, 0.0, 0.0, 0.0, 0.0)",0.08262627878010878,False,,,,,False,,,,
16,Open,,,,,,"[-0.026750000193715096, 0.05299999937415123, 0.03999999910593033]","[0.0, -0.0, 1.2467510110527222]","[-0.09500277042388916, 0.07592508941888809, 0.03999999910593033]","[0.0, -0.0, 1.246751870145374]","[0.026750000193715096, 0.05299999937415123, 0.03999999910593033]","[0.0, 0.0, -1.255411348379259]","[0.09519875049591064, 0.0753331333398819, 0.03999999910593033]","[0.0, 0.0, -1.2972309672073006]",1.2790758303502607,7.757977857326381,"(0.0, 0.0, 0.0, 0.0, 0.0, 0.0)",-1.2456264712746363,2.1141758111398655e-06,0.0002881448469053121,"(0.0, 0.0, 0.0, 0.0, 0.0, 0.0)",-0.088015399348708,-1.2868702429335757,-7.5501268551046525,"(0.0, 0.0, 0.0, 0.0, 0.0, 0.0)",1.2010989712673745,-0.037638748630864464,1.0034085792163332,"(0.0, 0.0, 0.0, 0.0, 0.0, 0.0)",0.07444006052486639,False,,,,,False,,,,
17,Open,,,,,,"[-0.026750000193715096, 0.05299999937415123, 0.03999999910593033]","[0.0, -0.0, 1.2790758758817962]","[-0.09570803493261337, 0.0737072303891182, 0.03999999910593033]","[0.0, -0.0, 1.2790780932516201]","[0.026750000193715096, 0.05299999937415123, 0.03999999910593033]","[0.0, 0.0, -1.2868702529032277]","[0.0958673357963562, 0.07316911965608597, 0.03999999910593033]","[0.0, 0.0, -1.3245087793274308]",1.3081682532711112,6.982181501004109,"(0.0, 0.0, 0.0, 0.0, 0.0, 0.0)",-1.12145472366965,1.9027582300258812e-06,-5.0740219467356254e-05,"(0.0, 0.0, 0.0, 0.0, 0.0, 0.0)",-0.07939114715284208,-1.315183223212741,-6.795115266999686,"(0.0, 0.0, 0.0, 0.0, 0.0, 0.0)",1.0813262344929835,-0.033874873767778015,0.9033299671407473,"(0.0, 0.0, 0.0, 0.0, 0.0, 0.0)",0.06713055017345074,False,,,,,False,,,,
18,Open,,,,,,"[-0.026750000193715096, 0.05299999937415123, 0.03999999910593033]","[0.0, -0.0, 1.3081682459906412]","[-0.09628119319677353, 0.07169260084629059, 0.03999999910593033]","[0.0, -0.0, 1.3081702011658356]","[0.026750000193715096, 0.05299999937415123, 0.03999999910593033]","[0.0, 0.0, -1.3151833180210462]","[0.0964106097817421, 0.07120437920093536, 0.03999999910593033]","[0.0, 0.0, -1.349058153261439]",1.334351427944,6.283961921493333,"(0.0, 0.0, 0.0, 0.0, 0.0, 0.0)",-1.0095234585863413,2.7618377923566443e-06,0.00020617909495938315,"(0.0, 0.0, 0.0, 0.0, 0.0, 0.0)",-0.07148780084672787,-1.3406649008914668,-6.11560264289422,"(0.0, 0.0, 0.0, 0.0, 0.0, 0.0)",0.9733796231570812,-0.030488273507324658,0.8127840625088054,"(0.0, 0.0, 0.0, 0.0, 0.0, 0.0)",0.060435192896783604,False,,,,,False,,,,
19,Open,,,,,,"[-0.026750000193715096, 0.05299999937415123, 0.03999999910593033]","[0.0, -0.0, 1.334351465706577]","[-0.09674673527479172, 0.06986585259437561, 0.03999999910593033]","[0.0, -0.0, 1.33435435145599]","[0.026750000193715096, 0.05299999937415123, 0.03999999910593033]","[0.0, 0.0, -1.3406650641721125]","[0.09685182571411133, 0.06942359358072281, 0.03999999910593033]","[0.0, 0.0, -1.3711530696282732]",1.3579162851496,5.655565729344001,"(0.0, 0.0, 0.0, 0.0, 0.0, 0.0)",-0.9088150211252332,3.4316066113876724e-06,0.0001607445165674468,"(0.0, 0.0, 0.0, 0.0, 0.0, 0.0)",-0.06444344013525093,-1.3635984108023202,-5.504042378604797,"(0.0, 0.0, 0.0, 0.0, 0.0, 0.0)",0.8762522980402716,-0.02744024570882781,0.7315266716392431,"(0.0, 0.0, 0.0, 0.0, 0.0, 0.0)",0.05446985052483407,False,,,,,False,,,,
20,Open,,,,,,"[-0.026750000193715096, 0.05299999937415123, 0.03999999910593033]","[0.0, -0.0, 1.3579163939939654]","[-0.09712471067905426, 0.0682118609547615, 0.03999999910593033]","[0.0, -0.0, 1.3579197824809437]","[0.026750000193715096, 0.05299999937415123, 0.03999999910593033]","[0.0, 0.0, -1.3635984874387626]","[0.09721000492572784, 0.06781173497438431, 0.03999999910593033]","[0.0, 0.0, -1.3910385869420074]",1.37912465663464,5.090009156409601,"(0.0, 0.0, 0.0, 0.0, 0.0, 0.0)",-0.8181093185961676,3.940702417530038e-06,0.0001221829934741677,"(0.0, 0.0, 0.0, 0.0, 0.0, 0.0)",-0.05806034967263589,-1.3842385697220883,-4.953638140744317,"(0.0, 0.0, 0.0, 0.0, 0.0, 0.0)",0.7887791417834831,-0.024696941374704916,0.6583930401894944,"(0.0, 0.0, 0.0, 0.0, 0.0, 0.0)",0.04906644857689494,False,,,,,False,,,,
21,Open,,,,,,"[-0.026750000193715096, 0.05299999937415123, 0.03999999910593033]","[0.0, -0.0, 1.3791247702213432]","[-0.0974314734339714, 0.0667160153388977, 0.03999999910593033]","[0.0, -0.0, 1.3791284782568445]","[0.026750000193715096, 0.05299999937415123, 0.03999999910593033]","[0.0, 0.0, -1.3842387704807777]","[0.09750068932771683, 0.06635437905788422, 0.03999999910593033]","[0.0, 0.0, -1.408935619520831]",1.398212190971176,4.581008240768642,"(0.0, 0.0, 0.0, 0.0, 0.0, 0.0)",-0.7364407507487188,4.314390796743166e-06,8.968521101115077e-05,"(0.0, 0.0, 0.0, 0.0, 0.0, 0.0)",-0.05230389643117988,-1.4028147127498793,-4.458274326669883,"(0.0, 0.0, 0.0, 0.0, 0.0, 0.0)",0.7100243788118592,-0.02222789596809768,0.5925708975857369,"(0.0, 0.0, 0.0, 0.0, 0.0, 0.0)",0.04419507766734469,False,,,,,False,,,,
22,Open,,,,,,"[-0.026750000193715096, 0.05299999937415123, 0.03999999910593033]","[0.0, -0.0, 1.3982120672717784]","[-0.09768038988113403, 0.06536446511745453, 0.03999999910593033]","[0.0, -0.0, 1.3982164487645397]","[0.026750000193715096, 0.05299999937415123, 0.03999999910593033]","[0.0, 0.0, -1.4028147367436141]","[0.09773654490709305, 0.06503787636756897, 0.03999999910593033]","[0.0, 0.0, -1.4250426427007885]",1.4153909718740585,4.122907416691778,"(0.0, 0.0, 0.0, 0.0, 0.0, 0.0)",-0.6629119687698639,4.574523674952359e-06,6.243189077020624e-05,"(0.0, 0.0, 0.0, 0.0, 0.0, 0.0)",-0.04711364623212332,-1.4195332414748913,-4.012446894002898,"(0.0, 0.0, 0.0, 0.0, 0.0, 0.0)",0.6391216750959775,-0.02000569064819732,0.5333292767760867,"(0.0, 0.0, 0.0, 0.0, 0.0, 0.0)",0.039804123486470444,False,,,,,False,,,,
23,Open,,,,,,"[-0.026750000193715096, 0.05299999937415123, 0.03999999910593033]","[0.0, -0.0, 1.415391158105469]","[-0.09788231551647186, 0.06414420157670975, 0.03999999910593033]","[0.0, -0.0, 1.415395709317307]","[0.026750000193715096, 0.05299999937415123, 0.03999999910593033]","[0.0, 0.0, -1.419533200978404]","[0.09792786836624146, 0.06384945660829544, 0.03999999910593033]","[0.0, 0.0, -1.4395389386881268]",1.4308518746866525,3.7106166750225977,"(0.0, 0.0, 0.0, 0.0, 0.0, 0.0)",-0.5967141397561109,4.7399630338636504e-06,3.9705446138709865e-05,"(0.0, 0.0, 0.0, 0.0, 0.0, 0.0)",-0.042434775014060074,-1.4345799173274023,-3.611202204602609,"(0.0, 0.0, 0.0, 0.0, 0.0, 0.0)",0.5752902758042565,-0.018005647771851804,0.4800102903229233,"(0.0, 0.0, 0.0, 0.0, 0.0, 0.0)",0.0358468230863414,False,,,,,False,,,,
24,Open,,,,,,"[-0.026750000193715096, 0.05299999937415123, 0.03999999910593033]","[0.0, -0.0, 1.4308518944899675]","[-0.09804610908031464, 0.06304314732551575, 0.03999999910593033]","[0.0, -0.0, 1.4308566269594332]","[0.026750000193715096, 0.05299999937415123, 0.03999999910593033]","[0.0, 0.0, -1.4345798203875788]","[0.09808305650949478, 0.06277728080749512, 0.03999999910593033]","[0.0, 0.0, -1.4525855975984745]",1.4447666872179874,3.339555007520341,"(0.0, 0.0, 0.0, 0.0, 0.0, 0.0)",-0.5371183361845069,4.8269553674989e-06,2.0878160072459843e-05,"(0.0, 0.0, 0.0, 0.0, 0.0, 0.0)",-0.03821759960562203,-1.448121925594662,-3.2500819841423465,"(0.0, 0.0, 0.0, 0.0, 0.0, 0.0)",0.5178266556878065,-0.016205556838873442,0.4320218239148067,"(0.0, 0.0, 0.0, 0.0, 0.0, 0.0)",0.0322808466635012,False,,,,,False,,,,
25,Open,,,,,,"[-0.026750000193715096, 0.05299999937415123, 0.03999999910593033]","[0.0, -0.0, 1.4447668540021588]","[-0.09817895293235779, 0.06205013021826744, 0.03999999910593033]","[0.0, -0.0, 1.4447715863131299]","[0.026750000193715096, 0.05299999937415123, 0.03999999910593033]","[0.0, 0.0, -1.448121993206969]","[0.09820891171693802, 0.06181041896343231, 0.03999999910593033]","[0.0, 0.0, -1.46432761016298]",1.4572900184961886,3.005599506768304,"(0.0, 0.0, 0.0, 0.0, 0.0, 0.0)",-0.483467731204937,4.849462099751187e-06,5.401615740548756e-06,"(0.0, 0.0, 0.0, 0.0, 0.0, 0.0)",-0.03441712855198442,-1.4603097330351957,-2.925073785728113,"(0.0, 0.0, 0.0, 0.0, 0.0, 0.0)",0.4660969568661882,-0.014585427836986846,0.38883096045278315,"(0.0, 0.0, 0.0, 0.0, 0.0, 0.0)",0.029067900465992856,False,,,,,False,,,,
26,Open,,,,,,"[-0.026750000193715096, 0.05299999937415123, 0.03999999910593033]","[0.0, -0.0, 1.4572900807517244]","[-0.0982866883277893, 0.061154916882514954, 0.03999999910593033]","[0.0, -0.0, 1.4572948921008348]","[0.026750000193715096, 0.05299999937415123, 0.03999999910593033]","[0.0, 0.0, -1.4603097470714805]","[0.09831098467111588, 0.06093886122107506, 0.03999999910593033]","[0.0, 0.0, -1.4748951413427742]",1.4685610166465697,2.705039556091476,"(0.0, 0.0, 0.0, 0.0, 0.0, 0.0)",-0.43517053908893033,4.819450845044722e-06,-7.202701129551542e-06,"(0.0, 0.0, 0.0, 0.0, 0.0, 0.0)",-0.030992645518402973,-1.471278759731676,-2.632566407155304,"(0.0, 0.0, 0.0, 0.0, 0.0, 0.0)",0.4195301522878829,-0.013127269246907155,0.3499580616191257,"(0.0, 0.0, 0.0, 0.0, 0.0, 0.0)",0.02617336062226555,False,,,,,False,,,,
27,Open,,,,,,"[-0.026750000193715096, 0.05299999937415123, 0.03999999910593033]","[0.0, -0.0, 1.4685611215819594]","[-0.09837405383586884, 0.06034812703728676, 0.03999999910593033]","[0.0, -0.0, 1.468565853091142]","[0.026750000193715096, 0.05299999937415123, 0.03999999910593033]","[0.0, 0.0, -1.4712788457263521]","[0.0983937606215477, 0.06015344336628914, 0.03999999910593033]","[0.0, 0.0, -1.4844061039497418]",1.4787049149819127,2.434535600482329,"(0.0, 0.0, 0.0, 0.0, 0.0, 0.0)",-0.39169363303347604,4.747151892642784e-06,-1.7351748576465223e-05,"(0.0, 0.0, 0.0, 0.0, 0.0, 0.0)",-0.02790732436186781,-1.4811508837585086,-2.3693097664397755,"(0.0, 0.0, 0.0, 0.0, 0.0, 0.0)",0.37761186810531283,-0.011814888241968555,0.3149714411852639,"(0.0, 0.0, 0.0, 0.0, 0.0, 0.0)",0.023565936472848985,False,,,,,False,,,,
28,Open,,,,,,"[-0.026750000193715096, 0.05299999937415123, 0.03999999910593033]","[0.0, -0.0, 1.4787049625213984]","[-0.09844490885734558, 0.059621214866638184, 0.03999999910593033]","[0.0, -0.0, 1.4787095898811649]","[0.026750000193715096, 0.05299999937415123, 0.03999999910593033]","[0.0, 0.0, -1.4811508165812142]","[0.09846089035272598, 0.059445831924676895, 0.03999999910593033]","[0.0, 0.0, -1.492965762433775]",1.4878344234837215,2.191082040434097,"(0.0, 0.0, 0.0, 0.0, 0.0, 0.0)",-0.35255677801820895,4.641283838470101e-06,-2.5408333001444004e-05,"(0.0, 0.0, 0.0, 0.0, 0.0, 0.0)",-0.02512787460267613,-1.4900357953826577,-2.132378789795796,"(0.0, 0.0, 0.0, 0.0, 0.0, 0.0)",0.33987880377374147,-0.010633710863257649,0.2834825708906175,"(0.0, 0.0, 0.0, 0.0, 0.0, 0.0)",0.021217361806457186,False,,,,,False,,,,
29,Close,,,"(0.010000165031897679, 0.16000264050809818, 0.003919197399597577)","(-5.388791991209616e-05, 3.3679978815229247e-06, -9.074720008653711e-11)",,"[-0.026750000193715096, 0.05299999937415123, 0.03999999910593033]","[0.0, -0.0, 1.487834617901085]","[-0.09850236773490906, 0.05896640568971634, 0.03999999910593033]","[0.0, -0.0, 1.4878390921106803]","[0.026750000193715096, 0.05299999937415123, 0.03999999910593033]","[0.0, 0.0, -1.4900358577435544]","[0.09851532429456711, 0.05880843847990036, 0.03999999910593033]","[0.0, 0.0, -1.5006695807985118]",1.4960509811353493,1.9719738363906854,"(0.0, 0.0, 0.0, 0.0, 0.0, 0.0)",-0.3173274216127963,4.509251873886308e-06,-3.168767150011037e-05,"(0.0, 0.0, 0.0, 0.0, 0.0, 0.0)",-0.022624215793833224,-1.498032215844392,-1.9191409108162163,"(0.0, 0.0, 0.0, 0.0, 0.0, 0.0)",0.30591369390909257,-0.00957062017308593,0.2551417656412126,"(0.0, 0.0, 0.0, 0.0, 0.0, 0.0)",0.019102112305110365,False,,,,,False,,,,
30,Close,,,"(0.010000330010418335, 0.1600052801621647, 0.0076635160840755065)","(-0.00010776674212266888, 6.7354271463595154e-06, -3.629275205618536e-10)",,"[-0.026750000193715096, 0.05299999937415123, 0.03999999910593033]","[0.0, -0.0, 1.4960509653323988]","[-0.09854896366596222, 0.058376654982566833, 0.03999999910593033]","[0.0, -0.0, 1.4960555203126162]","[0.026750000193715096, 0.05299999937415123, 0.03999999910593033]","[0.0, 0.0, -1.4980320325532246]","[0.09855947643518448, 0.05823439359664917, 0.03999999910593033]","[0.0, 0.0, -1.5076028800413472]",1.4064458830218143,-21.505223547248388,"(0.0, 0.0, 0.0, 0.0, 0.0, 0.0)",-36.32500847077206,-0.08999559064729075,-21.600023975799512,"(0.0, 0.0, 0.0, 0.0, 0.0, 0.0)",-4.679136399120495,-1.4082289942599528,21.552773180265405,"(0.0, 0.0, 0.0, 0.0, 0.0, 0.0)",36.31473208701179,0.08138609105625041,21.82961069504072,"(0.0, 0.0, 0.0, 0.0, 0.0, 0.0)",4.675963213372079,False,,,,,False,,,,
31,Close,,,"(0.010000494936733278, 0.16000791898094055, 0.011233038807318392)","(-0.00016163646818851668, 1.0102287881965475e-05, -8.164490687548302e-10)",,"[-0.026750000193715096, 0.05299999937415123, 0.03999999910593033]","[0.0, -0.0, 1.4064459844712927]","[-0.0977797880768776, 0.06478003412485123, 0.03999999910593033]","[0.0, -0.0, 1.316450240076391]","[0.026750000193715096, 0.05299999937415123, 0.03999999910593033]","[0.0, 0.0, -1.4082291009672807]","[0.09780067950487137, 0.06465335935354233, 0.03999999910593033]","[0.0, 0.0, -1.3268428349863826]",1.325801294719633,-19.354701192523546,"(0.0, 0.0, 0.0, 0.0, 0.0, 0.0)",3.2936342521930255,-0.17099646652613912,-19.44021021092361,"(0.0, 0.0, 0.0, 0.0, 0.0, 0.0)",0.4145426679866387,-1.3274060948339577,19.39749586223887,"(0.0, 0.0, 0.0, 0.0, 0.0, 0.0)",-3.3024243844052092,0.16324791947241268,19.646838819878944,"(0.0, 0.0, 0.0, 0.0, 0.0, 0.0)",-0.41699994760359754,False,,,,,False,,,,
32,Close,,,"(0.010000659812012168, 0.16001055698314023, 0.0146278458391823)","(-0.0002154970996661642, 1.346858017578936e-05, -1.4512199879406586e-09)",,"[-0.026750000193715096, 0.05299999937415123, 0.03999999910593033]","[0.0, -0.0, 1.3258013857525741]","[-0.09659997373819351, 0.07046370953321457, 0.03999999910593033]","[0.0, -0.0, 1.1548048042561467]","[0.026750000193715096, 0.05299999937415123, 0.03999999910593033]","[0.0, 0.0, -1.3274060658778382]","[0.09662791341543198, 0.07035159319639206, 0.03999999910593033]","[0.0, 0.0, -1.1641581075845935]",1.2532211652476697,-17.41923107327119,"(0.0, 0.0, 0.0, 0.0, 0.0, 0.0)",2.9685258329366073,-0.24389721437960032,-17.496179484830687,"(0.0, 0.0, 0.0, 0.0, 0.0, 0.0)",0.3760018756193849,-1.2546654853505619,17.457746276014984,"(0.0, 0.0, 0.0, 0.0, 0.0, 0.0)",-2.976480273609718,0.2369235243908578,17.682145180426822,"(0.0, 0.0, 0.0, 0.0, 0.0, 0.0)",-0.3782508099482112,False,,,,,False,,,,
33,Close,,,"(0.010000824637423049, 0.16001319418745247, 0.017848014970055004)","(-0.00026934863811186216, 1.6834304115272585e-05, -2.2671484573282825e-09)",,"[-0.026750000193715096, 0.05299999937415123, 0.03999999910593033]","[0.0, -0.0, 1.2532212515508983]","[-0.09514966607093811, 0.07548300176858902, 0.03999999910593033]","[0.0, -0.0, 1.0093239867956962]","[0.026750000193715096, 0.05299999937415123, 0.03999999910593033]","[0.0, 0.0, -1.254665405963893]","[0.09518206864595413, 0.07538418471813202, 0.03999999910593033]","[0.0, 0.0, -1.0177419933055243]",1.1878990487229026,-15.677307965944074,"(0.0, 0.0, 0.0, 0.0, 0.0, 0.0)",2.675103284419244,-0.30950785045582774,-15.746552658294572,"(0.0, 0.0, 0.0, 0.0, 0.0, 0.0)",0.34074508229325023,-1.1891989368155058,15.711971648413485,"(0.0, 0.0, 0.0, 0.0, 0.0, 0.0)",-2.6822973218910153,0.30323153162132754,15.913921735312746,"(0.0, 0.0, 0.0, 0.0, 0.0, 0.0)",-0.34279935345822066,False,,,,,False,,,,
34,Close,,,"(0.010000989414132393, 0.1600158306125408, 0.020893621515273818)","(-0.00032319108508158773, 2.0199459787849396e-05, -3.2641426920478403e-09)",,"[-0.026750000193715096, 0.05299999937415123, 0.03999999910593033]","[0.0, -0.0, 1.1878990574339587]","[-0.09353619813919067, 0.07989988476037979, 0.03999999910593033]","[0.0, -0.0, 0.8783912846834516]","[0.026750000193715096, 0.05299999937415123, 0.03999999910593033]","[0.0, 0.0, -1.1891990098250689]","[0.09357111155986786, 0.07981304824352264, 0.03999999910593033]","[0.0, 0.0, -0.8859674697633095]",1.1291091438506125,-14.109577169349663,"(0.0, 0.0, 0.0, 0.0, 0.0, 0.0)",2.4103712722760626,-0.36855738916456426,-14.17188929009676,"(0.0, 0.0, 0.0, 0.0, 0.0, 0.0)",0.3085687115248564,-1.1302790431339553,14.140774483572143,"(0.0, 0.0, 0.0, 0.0, 0.0, 0.0)",-2.4168742890236286,0.36290870417903687,14.322521413850238,"(0.0, 0.0, 0.0, 0.0, 0.0, 0.0)",-0.31044204201279674,False,,,,,False,,,,
35,Close,,,"(0.010001154143305145, 0.16001846627704427, 0.023764738319401603)","(-0.00037702444213104407, 2.3564047280946926e-05, -4.4421109431381166e-09)",,"[-0.026750000193715096, 0.05299999937415123, 0.03999999910593033]","[0.0, -0.0, 1.1291090274464952]","[-0.09184028208255768, 0.08377750217914581, 0.03999999910593033]","[0.0, -0.0, 0.7605517150898052]","[0.026750000193715096, 0.05299999937415123, 0.03999999910593033]","[0.0, 0.0, -1.130279133319625]","[0.09187624603509903, 0.08370133489370346, 0.03999999910593033]","[0.0, 0.0, -0.7673703325611945]",1.0761982294655512,-12.698619452414698,"(0.0, 0.0, 0.0, 0.0, 0.0, 0.0)",2.1715845710489208,-0.42170194324014043,-12.754692978138287,"(0.0, 0.0, 0.0, 0.0, 0.0, 0.0)",0.27924932151422227,-1.07725113882056,12.72669703521493,"(0.0, 0.0, 0.0, 0.0, 0.0, 0.0)",-2.177460276301377,0.41661812854294633,12.890261847338277,"(0.0, 0.0, 0.0, 0.0, 0.0, 0.0)",-0.2809551529003472,False,,,,,False,,,,
36,Close,,,"(0.010001318826104761, 0.16002110119957821, 0.02646143576036139)","(-0.0004308487108156613, 2.692806668198511e-05, -5.800961497533997e-09)",,"[-0.026750000193715096, 0.05299999937415123, 0.03999999910593033]","[0.0, -0.0, 1.076198055145404]","[-0.09012148529291153, 0.08717681467533112, 0.03999999910593033]","[0.0, -0.0, 0.6544962762796218]","[0.026750000193715096, 0.05299999937415123, 0.03999999910593033]","[0.0, 0.0, -1.0772510781061955]","[0.09015743434429169, 0.08711007237434387, 0.03999999910593033]","[0.0, 0.0, -0.6606329452337051]",1.028578406518996,-11.428757507173229,"(0.0, 0.0, 0.0, 0.0, 0.0, 0.0)",1.9562489498726314,-0.46953201391559385,-11.479216962108818,"(0.0, 0.0, 0.0, 0.0, 0.0, 0.0)",0.2525697399559188,-1.0295260249385039,11.454027331693439,"(0.0, 0.0, 0.0, 0.0, 0.0, 0.0)",-1.961555706583625,0.46495658231577774,11.601228905479532,"(0.0, 0.0, 0.0, 0.0, 0.0, 0.0)",-0.25412105363877113,False,,,,,False,,,,
37,Close,,,"(0.010001483463693249, 0.1600237353987347, 0.0289837817534302)","(-0.0004846638926905951, 3.0291518078376737e-05, -7.3406026780539124e-09)",,"[-0.026750000193715096, 0.05299999937415123, 0.03999999910593033]","[0.0, -0.0, 1.028578444789276]","[-0.08842276781797409, 0.09015467017889023, 0.03999999910593033]","[0.0, -0.0, 0.5590464126725148]","[0.026750000193715096, 0.05299999937415123, 0.03999999910593033]","[0.0, 0.0, -1.029526007298545]","[0.08845794945955276, 0.09009620547294617, 0.03999999910593033]","[0.0, 0.0, -0.564569399435659]",0.9857205658670964,-10.285881756455906,"(0.0, 0.0, 0.0, 0.0, 0.0, 0.0)",1.7621005438122825,-0.5125790520819234,-10.331289159919107,"(0.0, 0.0, 0.0, 0.0, 0.0, 0.0)",0.22832149176550065,-0.9865734224446535,10.308624598524094,"(0.0, 0.0, 0.0, 0.0, 0.0, 0.0)",-1.766891708603882,0.508461165120635,10.441099873165749,"(0.0, 0.0, 0.0, 0.0, 0.0, 0.0)",-0.22973068702752517,False,,,,,False,,,,
38,Close,,,"(0.010001648057231211, 0.16002636889308344, 0.03133184175509247)","(-0.0005384699893107284, 3.3654401557527444e-05, -9.06094284338731e-09)",,"[-0.026750000193715096, 0.05299999937415123, 0.03999999910593033]","[0.0, -0.0, 0.9857205423734198]","[-0.08677425980567932, 0.09276290237903595, 0.03999999910593033]","[0.0, -0.0, 0.47314147483112123]","[0.026750000193715096, 0.05299999937415123, 0.03999999910593033]","[0.0, 0.0, -0.9865734261287252]","[0.08680814504623413, 0.09271169453859329, 0.03999999910593033]","[0.0, 0.0, -0.4781122693565934]",0.9471485092803869,-9.257293580810316,"(0.0, 0.0, 0.0, 0.0, 0.0, 0.0)",1.587086438141582,-0.5513213633331018,-9.29815470028281,"(0.0, 0.0, 0.0, 0.0, 0.0, 0.0)",0.206306403170868,-0.9479160802001881,9.277762138671687,"(0.0, 0.0, 0.0, 0.0, 0.0, 0.0)",-1.5914107042435905,0.5476152664096928,9.396984309373877,"(0.0, 0.0, 0.0, 0.0, 0.0, 0.0)",-0.2075852193448244,False,,,,,False,,,,
39,Close,,,"(0.01000181260787789, 0.16002900170117218, 0.03350567876675359)","(-0.00059226700223067, 3.7016717206835695e-05, -1.0961890388082131e-08)",,"[-0.026750000193715096, 0.05299999937415123, 0.03999999910593033]","[0.0, -0.0, 0.9471486716739237]","[-0.08519625663757324, 0.09504801034927368, 0.03999999910593033]","[0.0, -0.0, 0.39582717163487297]","[0.026750000193715096, 0.05299999937415123, 0.03999999910593033]","[0.0, 0.0, -0.9479160840165974]","[0.08522851020097733, 0.09500313550233841, 0.03999999910593033]","[0.0, 0.0, -0.4003008647547732]",0.9124336583523481,-8.331564222729286,"(0.0, 0.0, 0.0, 0.0, 0.0, 0.0)",1.4293465062267445,-0.5861894225076075,-8.368334201881392,"(0.0, 0.0, 0.0, 0.0, 0.0, 0.0)",0.18633757536892917,-0.9131244721801693,8.349985924804516,"(0.0, 0.0, 0.0, 0.0, 0.0, 0.0)",-1.433248242084051,0.5828539364930729,8.45728082001123,"(0.0, 0.0, 0.0, 0.0, 0.0, 0.0)",-0.18749704763631705,False,,,,,False,,,,
40,Close,,,"(0.010001977116791199, 0.1600316338415276, 0.035505353338314005)","(-0.0006460549330047555, 4.037846511369274e-05, -1.3043353742532214e-08)",,"[-0.026750000193715096, 0.05299999937415123, 0.03999999910593033]","[0.0, -0.0, 0.9124336635104583]","[-0.08370164036750793, 0.0970512256026268, 0.03999999910593033]","[0.0, -0.0, 0.3262442150321584]","[0.026750000193715096, 0.05299999937415123, 0.03999999910593033]","[0.0, 0.0, -0.9131245532476111]","[0.08373206108808517, 0.09701187163591385, 0.03999999910593033]","[0.0, 0.0, -0.3302705841133475]",0.8811902925171133,-7.498407800456356,"(0.0, 0.0, 0.0, 0.0, 0.0, 0.0)",1.2871965063691413,-0.6175706567763247,-7.531496224492115,"(0.0, 0.0, 0.0, 0.0, 0.0, 0.0)",0.16823988009592084,-0.8818120249621524,7.514987332324067,"(0.0, 0.0, 0.0, 0.0, 0.0, 0.0)",-1.2907160846573733,0.6145687204653795,7.61154815335357,"(0.0, 0.0, 0.0, 0.0, 0.0, 0.0)",-0.16929032064296096,False,,,,,False,,,,
41,Close,,,"(0.010002141585127773, 0.16003426533265583, 0.03733092357160428)","(-0.0006998337831870475, 4.3739645365482716e-05, -1.5305241372964883e-08)",,"[-0.026750000193715096, 0.05299999937415123, 0.03999999910593033]","[0.0, -0.0, 0.8811903688816151]","[-0.08229776471853256, 0.09880879521369934, 0.03999999910593033]","[0.0, -0.0, 0.2636196251065186]","[0.026750000193715096, 0.05299999937415123, 0.03999999910593033]","[0.0, 0.0, -0.8818121535754343]","[0.08232623338699341, 0.098774254322052, 0.03999999910593033]","[0.0, 0.0, -0.26724331826119446]",0.853071263265402,-6.7485670204107215,"(0.0, 0.0, 0.0, 0.0, 0.0, 0.0)",1.1591124175888132,-0.6458137504217961,-6.77834247491313,"(0.0, 0.0, 0.0, 0.0, 0.0, 0.0)",0.1518500972569631,-0.8536308224659371,6.763488599091658,"(0.0, 0.0, 0.0, 0.0, 0.0, 0.0)",-1.1622865309865396,0.643112008739745,6.850389185847702,"(0.0, 0.0, 0.0, 0.0, 0.0, 0.0)",-0.15280109527428076,False,,,,,False,,,,
42,Close,,,"(0.010002306014043007, 0.16003689619304312, 0.038982445123681576)","(-0.0007536035543313348, 4.7100258049582536e-05, -1.7747461781428295e-08)",,"[-0.026750000193715096, 0.05299999937415123, 0.03999999910593033]","[0.0, -0.0, 0.8530713239495782]","[-0.08098787814378738, 0.10035242885351181, 0.03999999910593033]","[0.0, -0.0, 0.2072574956851119]","[0.026750000193715096, 0.05299999937415123, 0.03999999910593033]","[0.0, 0.0, -0.8536307856313979]","[0.08101436495780945, 0.10032207518815994, 0.03999999910593033]","[0.0, 0.0, -0.21051882644475053]",0.8277641369388617,-6.073710318369648,"(0.0, 0.0, 0.0, 0.0, 0.0, 0.0)",1.043715976216214,-0.6712325191394197,-6.100504492229669,"(0.0, 0.0, 0.0, 0.0, 0.0, 0.0)",0.1370167890019201,-0.8282677402193435,6.0871397391824935,"(0.0, 0.0, 0.0, 0.0, 0.0, 0.0)",-1.0465779375227178,0.6688009525283538,6.165346509266115,"(0.0, 0.0, 0.0, 0.0, 0.0, 0.0)",-0.1378772244212715,False,,,,,False,,,,
43,Close,,,"(0.010002470404691093, 0.16003952644115657, 0.04045997120998789)","(-0.0008073642479911328, 5.0460303253361964e-05, -2.0369923505779015e-08)",,"[-0.026750000193715096, 0.05299999937415123, 0.03999999910593033]","[0.0, -0.0, 0.8277641182932235]","[-0.07977228611707687, 0.10170972347259521, 0.03999999910593033]","[0.0, -0.0, 0.1565316389415725]","[0.026750000193715096, 0.05299999937415123, 0.03999999910593033]","[0.0, 0.0, -0.8282677342123946]","[0.07979680597782135, 0.10168302059173584, 0.03999999910593033]","[0.0, 0.0, -0.1594667900835625]",0.8049877232449756,-5.4663392865326825,"(0.0, 0.0, 0.0, 0.0, 0.0, 0.0)",0.9397613626777375,-0.6941093969081942,-5.49045066450586,"(0.0, 0.0, 0.0, 0.0, 0.0, 0.0)",0.12359998406321729,-0.8054409661974091,5.478425765264244,"(0.0, 0.0, 0.0, 0.0, 0.0, 0.0)",-0.9423413878167864,0.6919209877745929,5.54880845909737,"(0.0, 0.0, 0.0, 0.0, 0.0, 0.0)",-0.12437805104754245,False,,,,,False,,,,
44,Close,,,"(0.010002634758225062, 0.1600421560954447, 0.041763552607370504)","(-0.000861115865719684, 5.381978106418352e-05, -2.3172535119669436e-08)",,"[-0.026750000193715096, 0.05299999937415123, 0.03999999910593033]","[0.0, -0.0, 0.8049877164750058]","[-0.07864919304847717, 0.10290464758872986, 0.03999999910593033]","[0.0, -0.0, 0.11087832859978779]","[0.026750000193715096, 0.05299999937415123, 0.03999999910593033]","[0.0, 0.0, -0.805440964305088]","[0.07867180556058884, 0.10288111865520477, 0.03999999910593033]","[0.0, 0.0, -0.11351997099607207]",0.784488950920478,-4.919705357879415,"(0.0, 0.0, 0.0, 0.0, 0.0, 0.0)",0.8461229797239068,-0.7146985741739192,-4.941402543774016,"(0.0, 0.0, 0.0, 0.0, 0.0, 0.0)",0.11147072977230046,-0.7848968695776682,4.93058318873782,"(0.0, 0.0, 0.0, 0.0, 0.0, 0.0)",-0.8484484528940599,0.7127290066915236,4.993924540063379,"(0.0, 0.0, 0.0, 0.0, 0.0, 0.0)",-0.1121739668696123,False,,,,,False,,,,
45,Close,,,"(0.010002799075796832, 0.16004478517433812, 0.04289323765696492)","(-0.0009148584090699577, 5.7178691569402595e-05, -2.615520523253533e-08)",,"[-0.026750000193715096, 0.05299999937415123, 0.03999999910593033]","[0.0, -0.0, 0.7844889896573499]","[-0.07761538028717041, 0.10395795851945877, 0.03999999910593033]","[0.0, -0.0, 0.06979037514545033]","[0.026750000193715096, 0.05299999937415123, 0.03999999910593033]","[0.0, 0.0, -0.7848969068252226]","[0.07763615995645523, 0.10393720120191574, 0.03999999910593033]","[0.0, 0.0, -0.07216786709232846]",0.7660400558284302,-4.427734822091471,"(0.0, 0.0, 0.0, 0.0, 0.0, 0.0)",0.7617842585328375,-0.7332288222135146,-4.44725952950288,"(0.0, 0.0, 0.0, 0.0, 0.0, 0.0)",0.10051055612556806,-0.7664071826199014,4.437524869864038,"(0.0, 0.0, 0.0, 0.0, 0.0, 0.0)",-0.7638799793048979,0.7314562121459494,4.494529309062177,"(0.0, 0.0, 0.0, 0.0, 0.0, 0.0)",-0.10114588070786824,False,,,,,False,,,,
46,Close,,,"(0.010002963358557236, 0.16004741369625017, 0.04384907226694074)","(-0.0009685918795946493, 6.053703485636736e-05, -2.9317842489583264e-08)",,"[-0.026750000193715096, 0.05299999937415123, 0.03999999910593033]","[0.0, -0.0, 0.7660400058439011]","[-0.07666666060686111, 0.10488764196634293, 0.03999999910593033]","[0.0, -0.0, 0.0328112365488731]","[0.026750000193715096, 0.05299999937415123, 0.03999999910593033]","[0.0, 0.0, -0.7664072421942376]","[0.07668570429086685, 0.1048693135380745, 0.03999999910593033]","[0.0, 0.0, -0.03495097036229706]",0.7494360502455871,-3.984961339882325,"(0.0, 0.0, 0.0, 0.0, 0.0, 0.0)",0.6858274268188955,-0.7499060350622873,-4.002531083705426,"(0.0, 0.0, 0.0, 0.0, 0.0, 0.0)",0.09061088591719418,-0.7497664643579113,3.9937723828776335,"(0.0, 0.0, 0.0, 0.0, 0.0, 0.0)",-0.6877158393779155,0.7483106866034595,4.045073869802414,"(0.0, 0.0, 0.0, 0.0, 0.0, 0.0)",-0.09118463108881669,False,,,,,False,,,,
47,Close,,,"(0.010003127607656072, 0.16005004167957756, 0.04463109991511072)","(-0.0010223162788461832, 6.389481101241881e-05, -3.266035557177819e-08)",,"[-0.026750000193715096, 0.05299999937415123, 0.03999999910593033]","[0.0, -0.0, 0.7494360616149593]","[-0.07579827308654785, 0.1057092696428299, 0.03999999910593033]","[0.0, 0.0, -0.00046998485639781964]","[0.026750000193715096, 0.05299999937415123, 0.03999999910593033]","[0.0, 0.0, -0.7497665229086657]","[0.07581568509340286, 0.10569305717945099, 0.03999999910593033]","[0.0, 0.0, -0.0014557777936095985]",0.7344924452210284,-3.5864652058940925,"(0.0, 0.0, 0.0, 0.0, 0.0, 0.0)",0.6173964503690262,-0.7649166300024903,-3.602542785648727,"(0.0, 0.0, 0.0, 0.0, 0.0, 0.0)",0.08164469448201127,-0.7347898179221202,3.594395144589871,"(0.0, 0.0, 0.0, 0.0, 0.0, 0.0)",-0.61909767957405,0.7634808239898891,3.6408329727431203,"(0.0, 0.0, 0.0, 0.0, 0.0, 0.0)",-0.08216247127692902,False,,,,,False,,,,
48,Close,,,"(0.010003291824242136, 0.16005266914270105, 0.04523936165140331)","(-0.0010760316083767074, 6.725202012489063e-05, -3.618265319583079e-08)",,"[-0.026750000193715096, 0.05299999937415123, 0.03999999910593033]","[0.0, -0.0, 0.7344924171356654]","[-0.07500515878200531, 0.10643631219863892, 0.03999999910593033]","[0.0, 0.0, -0.03042418292779103]","[0.026750000193715096, 0.05299999937415123, 0.03999999910593033]","[0.0, 0.0, -0.7347898072320369]","[0.07502105087041855, 0.10642196238040924, 0.03999999910593033]","[0.0, -0.0, 0.028691003185096618]",0.7210432006989256,-3.227818685304683,"(0.0, 0.0, 0.0, 0.0, 0.0, 0.0)",0.5558325671900768,-0.77842604750784,-3.2422602012839143,"(0.0, 0.0, 0.0, 0.0, 0.0, 0.0)",0.07360992294062317,-0.7213108361299082,3.234955630130884,"(0.0, 0.0, 0.0, 0.0, 0.0, 0.0)",-0.5573653507703412,0.7771338289584356,3.2767211924511668,"(0.0, 0.0, 0.0, 0.0, 0.0, 0.0)",-0.07407739542501454,False,,,,,False,,,,
49,Close,,,"(0.010003456009463264, 0.16005529610398603, 0.04567389610019914)","(-0.0011297378697381003, 7.060866228110946e-05, -3.988464411418517e-08)",,"[-0.026750000193715096, 0.05299999937415123, 0.03999999910593033]","[0.0, -0.0, 0.7210432248946826]","[-0.07428213953971863, 0.10708045959472656, 0.03999999910593033]","[0.0, 0.0, -0.05738284539856889]","[0.026750000193715096, 0.05299999937415123, 0.03999999910593033]","[0.0, 0.0, -0.7213108742429458]","[0.07429660856723785, 0.10706773400306702, 0.03999999910593033]","[0.0, -0.0, 0.0558229905847104]",0.708938880629033,-2.905036816774215,"(0.0, 0.0, 0.0, 0.0, 0.0, 0.0)",0.5003668258645501,-0.7905844163893876,-2.9180085315714246,"(0.0, 0.0, 0.0, 0.0, 0.0, 0.0)",0.06632913423961855,-0.7091797525169173,2.911460067117798,"(0.0, 0.0, 0.0, 0.0, 0.0, 0.0)",-0.5017475327577147,0.7894214258858812,2.9490232625869344,"(0.0, 0.0, 0.0, 0.0, 0.0, 0.0)",-0.06675089596581112,False,,,,,False,,,,
50,Close,,,"(0.010001644182078712, 0.16005595153396976, 0.045940321410535084)","(-0.0011271805217326655, 1.767785898679914e-05, -1.508889111938428e-08)",,"[-0.026750000193715096, 0.05299999937415123, 0.03999999910593033]","[0.0, -0.0, 0.7089389671526269]","[-0.07362406700849533, 0.10765182226896286, 0.03999999910593033]","[0.0, 0.0, -0.08164554069303018]","[0.026750000193715096, 0.05299999937415123, 0.03999999910593033]","[0.0, 0.0, -0.7091797033714331]","[0.0736372321844101, 0.10764053463935852, 0.03999999910593033]","[0.0, -0.0, 0.08024167743029369]",0.6980449925661297,-2.6145331350967917,"(0.0, 0.0, 0.0, 0.0, 0.0, 0.0)",0.4504252929298086,-0.8015268519725993,-2.6261845399708146,"(0.0, 0.0, 0.0, 0.0, 0.0, 0.0)",0.059761147909024356,-0.6982617772652256,2.6203140604060167,"(0.0, 0.0, 0.0, 0.0, 0.0, 0.0)",-0.4516689022418484,0.8004801661036254,2.6540976522586175,"(0.0, 0.0, 0.0, 0.0, 0.0, 0.0)",-0.06014157277442886,False,,,,,False,,,,
51,Close,,,"(0.009998458164918766, 0.16005543218265145, 0.046184544665354044)","(-0.001116587313714928, -4.731063982249702e-05, 3.3486629919706074e-09)",,"[-0.026750000193715096, 0.05299999937415123, 0.03999999910593033]","[0.0, -0.0, 0.6980450466292163]","[-0.07302592694759369, 0.10815921425819397, 0.03999999910593033]","[0.0, 0.0, -0.1034818592301779]","[0.026750000193715096, 0.05299999937415123, 0.03999999910593033]","[0.0, 0.0, -0.6982617371246688]","[0.07303788512945175, 0.10814917832612991, 0.03999999910593033]","[0.0, -0.0, 0.10221840210156648]",0.6882404933095168,-2.3530798215871136,"(0.0, 0.0, 0.0, 0.0, 0.0, 0.0)",0.40545980991383274,-0.8113749570468809,-2.3635452178275753,"(0.0, 0.0, 0.0, 0.0, 0.0, 0.0)",0.0538375991228723,-0.688435599538703,2.358282654365416,"(0.0, 0.0, 0.0, 0.0, 0.0, 0.0)",-0.4065798463491374,0.810432944800545,2.3886668872606847,"(0.0, 0.0, 0.0, 0.0, 0.0, 0.0)",-0.0541806611811555,False,,,,,False,,,,
52,Close,,,"(0.0099979269032565, 0.16005188637635104, 0.04640949954916324)","(-0.0010442772263960227, -5.814874739306873e-05, 7.787963860925158e-09)",,"[-0.026750000193715096, 0.05299999937415123, 0.03999999910593033]","[0.0, -0.0, 0.688240548987758]","[-0.07248289883136749, 0.10861026495695114, 0.03999999910593033]","[0.0, 0.0, -0.12313446206189271]","[0.026750000193715096, 0.05299999937415123, 0.03999999910593033]","[0.0, 0.0, -0.6884356086136862]","[0.07249374687671661, 0.10860133916139603, 0.03999999910593033]","[0.0, -0.0, 0.1219973374555316]",0.679416393078237,-2.117784055507141,"(0.0, 0.0, 0.0, 0.0, 0.0, 0.0)",0.3649762140031281,-0.8202374613421928,-2.12700103087486,"(0.0, 0.0, 0.0, 0.0, 0.0, 0.0)",0.04851286211734207,-0.6795919883598663,2.1224666829208143,"(0.0, 0.0, 0.0, 0.0, 0.0, 0.0)",-0.36598488497268467,0.8193896503204905,2.149609324786922,"(0.0, 0.0, 0.0, 0.0, 0.0, 0.0)",-0.04882227338805697,False,,,,,False,,,,
53,Close,,,"(0.009997966950406065, 0.16004795201914346, 0.046616050094935475)","(-0.0009640430328522325, -5.7324486097668704e-05, 4.2980615420070005e-09)",,"[-0.026750000193715096, 0.05299999937415123, 0.03999999910593033]","[0.0, -0.0, 0.6794163791618646]","[-0.07199041545391083, 0.10901165008544922, 0.03999999910593033]","[0.0, 0.0, -0.1408210743259801]","[0.026750000193715096, 0.05299999937415123, 0.03999999910593033]","[0.0, 0.0, -0.6795920181483843]","[0.07200025022029877, 0.1090037003159523, 0.03999999910593033]","[0.0, -0.0, 0.13979766167419433]",0.6714747537704133,-1.9059934338776885,"(0.0, 0.0, 0.0, 0.0, 0.0, 0.0)",0.3285291326313333,-0.8282143561304102,-1.914454749172182,"(0.0, 0.0, 0.0, 0.0, 0.0, 0.0)",0.043663125146434535,-0.6716327895238797,1.9102077206367922,"(0.0, 0.0, 0.0, 0.0, 0.0, 0.0)",-0.3294374536237565,0.8274513303019508,1.934803195550486,"(0.0, 0.0, 0.0, 0.0, 0.0, 0.0)",-0.043941831288343336,False,,,,,False,,,,
54,Close,,,"(0.009998107600018924, 0.16004411888380865, 0.0468059782297436)","(-0.0008858309445970004, -5.447527859797503e-05, 4.128601528647624e-08)",,"[-0.026750000193715096, 0.05299999937415123, 0.03999999910593033]","[0.0, -0.0, 0.6714747449539094]","[-0.07154417037963867, 0.10936915874481201, 0.03999999910593033]","[0.0, 0.0, -0.15673960659097733]","[0.026750000193715096, 0.05299999937415123, 0.03999999910593033]","[0.0, 0.0, -0.6716327690441329]","[0.07155308127403259, 0.10936208069324493, 0.03999999910593033]","[0.0, -0.0, 0.15581855230220754]",0.664327278393372,-1.7153940904899205,"(0.0, 0.0, 0.0, 0.0, 0.0, 0.0)",0.2957170811345372,-0.8353934979980445,-1.7229940482322428,"(0.0, 0.0, 0.0, 0.0, 0.0, 0.0)",0.03934112702889199,-0.6644695105714917,1.7191869485731137,"(0.0, 0.0, 0.0, 0.0, 0.0, 0.0)",-0.2965349881453131,0.8347067784412298,1.7413075534269409,"(0.0, 0.0, 0.0, 0.0, 0.0, 0.0)",-0.039592428071821256,False,,,,,False,,,,
55,Close,,,"(0.009998248644105466, 0.16004048002584464, 0.0469807018618576)","(-0.0008115684428503489, -5.1596750749095254e-05, 7.881188886077776e-08)",,"[-0.026750000193715096, 0.05299999937415123, 0.03999999910593033]","[0.0, -0.0, 0.6643273336690038]","[-0.07114013284444809, 0.10968788713216782, 0.03999999910593033]","[0.0, 0.0, -0.17106622141763456]","[0.026750000193715096, 0.05299999937415123, 0.03999999910593033]","[0.0, 0.0, -0.6644694779113771]","[0.07114819437265396, 0.10968156903982162, 0.03999999910593033]","[0.0, -0.0, 0.17023725548976373]",0.6578945505540348,-1.543854681440929,"(0.0, 0.0, 0.0, 0.0, 0.0, 0.0)",0.2661784897251144,-0.8418546682622772,-1.5506808634158242,"(0.0, 0.0, 0.0, 0.0, 0.0, 0.0)",0.03542959308904228,-0.6580225595143425,1.547268253715802,"(0.0, 0.0, 0.0, 0.0, 0.0, 0.0)",-0.26691494494593054,0.8412366239853526,1.567162930589489,"(0.0, 0.0, 0.0, 0.0, 0.0, 0.0)",-0.035656056287006674,False,,,,,False,,,,
56,Close,,,"(0.009998390752654573, 0.16003702894197389, 0.04714144752999396)","(-0.0007411380797103218, -4.869650481896534e-05, 1.1687517768299383e-07)",,"[-0.026750000193715096, 0.05299999937415123, 0.03999999910593033]","[0.0, -0.0, 0.6578945475257985]","[-0.07077455520629883, 0.1099722608923912, 0.03999999910593033]","[0.0, 0.0, -0.18396012465064338]","[0.026750000193715096, 0.05299999937415123, 0.03999999910593033]","[0.0, 0.0, -0.6580225896942233]","[0.07078184932470322, 0.10996662080287933, 0.03999999910593033]","[0.0, -0.0, 0.18321406389742323]",0.6521050954986313,-1.3894692132968354,"(0.0, 0.0, 0.0, 0.0, 0.0, 0.0)",0.23958744527110798,-0.8476696697618468,-1.395600359896693,"(0.0, 0.0, 0.0, 0.0, 0.0, 0.0)",0.031904902566438624,-0.6522203035629083,1.392541428344221,"(0.0, 0.0, 0.0, 0.0, 0.0, 0.0)",-0.24025052935853647,0.8471134329078756,1.410434141405507,"(0.0, 0.0, 0.0, 0.0, 0.0, 0.0)",-0.032108956045352514,False,,,,,False,,,,
57,Close,,,"(0.009998534235924597, 0.16003375955333046, 0.04728933347451534)","(-0.0006744157946989166, -4.576820860538318e-05, 1.554405829918684e-07)",,"[-0.026750000193715096, 0.05299999937415123, 0.03999999910593033]","[0.0, -0.0, 0.6521051450040646]","[-0.07044398784637451, 0.11022617667913437, 0.03999999910593033]","[0.0, 0.0, -0.19556454293122102]","[0.026750000193715096, 0.05299999937415123, 0.03999999910593033]","[0.0, 0.0, -0.6522203497730787]","[0.07045057415962219, 0.11022114753723145, 0.03999999910593033]","[0.0, -0.0, 0.19489313608724637]",0.6468945859487681,-1.250522291967151,"(0.0, 0.0, 0.0, 0.0, 0.0, 0.0)",0.2156503992603495,-0.8529031244958994,-1.2560291361726517,"(0.0, 0.0, 0.0, 0.0, 0.0, 0.0)",0.02872919688306315,-0.6469982732066174,1.253287285509799,"(0.0, 0.0, 0.0, 0.0, 0.0, 0.0)",-0.2162473971085442,0.8524025140258721,1.2693794683191757,"(0.0, 0.0, 0.0, 0.0, 0.0, 0.0)",-0.02891303657535659,False,,,,,False,,,,
58,Close,,,"(0.009998679410322496, 0.16003066597344334, 0.0474253884764576)","(-0.0006112814540129935, -4.2805404436077314e-05, 1.9447426774393396e-07)",,"[-0.026750000193715096, 0.05299999937415123, 0.03999999910593033]","[0.0, -0.0, 0.6468945636476681]","[-0.07014521211385727, 0.11045306921005249, 0.03999999910593033]","[0.0, 0.0, -0.20600854729134555]","[0.026750000193715096, 0.05299999937415123, 0.03999999910593033]","[0.0, 0.0, -0.6469982503054421]","[0.07015117257833481, 0.11044856905937195, 0.03999999910593033]","[0.0, -0.0, 0.20540423443750838]",0.6422051273538913,-1.125470062770436,"(0.0, 0.0, 0.0, 0.0, 0.0, 0.0)",0.1941029233168818,-0.8576131917611358,-1.1304161436567226,"(0.0, 0.0, 0.0, 0.0, 0.0, 0.0)",0.025868240883426936,-0.6422984458859556,1.1279585569588184,"(0.0, 0.0, 0.0, 0.0, 0.0, 0.0)",-0.19464040126091972,0.8571626447690798,1.1424313783698345,"(0.0, 0.0, 0.0, 0.0, 0.0, 0.0)",-0.026033851694478666,False,,,,,False,,,,
59,Move,,,"(0.009998826598722164, 0.16002774252192944, 0.04755055901421763)","(-0.0005516191299448554, -3.980150267197137e-05, 2.339437659612592e-07)","[0.0, 0.0, 0.0]","[-0.026750000193715096, 0.05299999937415123, 0.03999999910593033]","[0.0, -0.0, 0.6422051137296667]","[-0.0698753148317337, 0.11065594106912613, 0.03999999910593033]","[0.0, 0.0, -0.2154080556264429]","[0.026750000193715096, 0.05299999937415123, 0.03999999910593033]","[0.0, 0.0, -0.6422983956794274]","[0.06988069415092468, 0.1106519103050232, 0.03999999910593033]","[0.0, -0.0, 0.21486417441436167]",0.6379846146185022,-1.0129230564933929,"(0.0, 0.0, 0.0, 0.0, 0.0, 0.0)",0.17470684718642912,-0.8618522144704561,-1.0173654502368856,"(0.0, 0.0, 0.0, 0.0, 0.0, 0.0)",0.023291096758263134,-0.6380686012973601,1.0151627012629356,"(0.0, 0.0, 0.0, 0.0, 0.0, 0.0)",-0.1751907229705418,0.8614467243673204,1.02817910357775,"(0.0, 0.0, 0.0, 0.0, 0.0, 0.0)",-0.023440272040621463,False,,,,,True,"(0.04276013174954747, 0.17974174897294792, 0.02399995643463635)","(-0.9999999990838299, -1.9447426661030803e-07, -4.2805404423670755e-05)",0.0013234533115717422,0.0
60,Move,,,"(0.008699259039732246, 0.1597652061907072, 0.04782485533738502)","(0.0040480273580015685, 0.009650479713711625, 0.017575803187450934)","[-0.0012995675589899183, -0.00026253633122225173, 0.00027429632316738894]","[-0.026750000193715096, 0.05299999937415123, 0.03999999910593033]","[0.0, -0.0, 0.6379846501970732]","[-0.06963159143924713, 0.1108374372124672, 0.03999999910593033]","[0.0, 0.0, -0.22386762157269943]","[0.026750000193715096, 0.05299999937415123, 0.03999999910593033]","[0.0, 0.0, -0.638068602671057]","[0.06963644921779633, 0.11083383113145828, 0.03999999910593033]","[0.0, -0.0, 0.22337816170537766]",0.6141590059460926,-5.718146081378296,"(0.0, 0.0, 0.0, 0.0, 0.0, 0.0)",-6.715100343954984,-0.8614283121995241,0.10173654502368734,"(0.0, 0.0, 0.0, 0.0, 0.0, 0.0)",-0.3723637437215536,-0.6186765363685498,4.654095582914465,"(0.0, 0.0, 0.0, 0.0, 0.0, 0.0)",16.91452213543579,0.8602423878670417,-0.28904076006690205,"(0.0, 0.0, 0.0, 0.0, 0.0, 0.0)",7.026754130549747,False,,,,,True,"(0.041928616181162004, 0.17969877893574898, 0.023999959438538117)","(-0.9999999992078928, -2.3394376620903917e-07, -3.980150265941498e-05)",0.0004918567139684023,94.17969713248019
61,Move,,,"(0.006953428279101256, 0.15936555806379668, 0.04799883027777207)","(0.0036027003309908674, 0.011726089522938334, 0.045571805054608026)","[-0.0030453983196209082, -0.000662184458132764, 0.0004482712635544353]","[-0.026750000193715096, 0.05299999937415123, 0.03999999910593033]","[0.0, -0.0, 0.6141590305095613]","[-0.06824154406785965, 0.11184260249137878, 0.03999999910593033]","[0.0, 0.0, -0.24726930604170874]","[0.026750000193715096, 0.05299999937415123, 0.03999999910593033]","[0.0, 0.0, -0.6186765449450942]","[0.06850694119930267, 0.11165456473827362, 0.03999999910593033]","[0.0, -0.0, 0.24156588090171732]",0.5923752537221402,-5.228100533748595,"(0.0, 0.0, 0.0, 0.0, 0.0, 0.0)",0.6968351830029371,-0.8614707024266173,-0.010173654502368734,"(0.0, 0.0, 0.0, 0.0, 0.0, 0.0)",0.03860943376531379,-0.6008618977467228,4.275513269238477,"(0.0, 0.0, 0.0, 0.0, 0.0, 0.0)",3.1840553339598543,0.8603207379647874,0.018804023458970476,"(0.0, 0.0, 0.0, 0.0, 0.0, 0.0)",2.2071937117843152,False,,,,,True,"(0.03955126028332891, 0.18000420521160232, 0.023999959438538117)","(-0.9999999992078928, -2.3394376620903917e-07, -3.980150265941498e-05)",-4.69285261207243e-06,0.0
62,Move,,,"(0.005232479171843643, 0.15895611509417099, 0.04805192961782931)","(0.0015613319654504138, 0.011710638263295036, 0.07400765980182708)","[-0.004766347426878521, -0.0010716274277584592, 0.0005013706036116755]","[-0.026750000193715096, 0.05299999937415123, 0.03999999910593033]","[0.0, -0.0, 0.5923752994005711]","[-0.0669499859213829, 0.1127324104309082, 0.03999999910593033]","[0.0, 0.0, -0.2690954538189607]","[0.026750000193715096, 0.05299999937415123, 0.03999999910593033]","[0.0, 0.0, -0.6008619062673114]","[0.0674554631114006, 0.11238910257816315, 0.03999999910593033]","[0.0, -0.0, 0.2594588653702835]",0.5711748754471921,-5.088090785987531,"(0.0, 0.0, 0.0, 0.0, 0.0, 0.0)",0.20179723839696584,-0.8614666854136499,0.0009640831121563087,"(0.0, 0.0, 0.0, 0.0, 0.0, 0.0)",0.015124512099487388,-0.5830478441846109,4.27537285490686,"(0.0, 0.0, 0.0, 0.0, 0.0, 0.0)",-0.00040728805220429705,0.8603129289032243,-0.001874174775147154,"(0.0, 0.0, 0.0, 0.0, 0.0, 0.0)",-0.0017677334094061982,False,,,,,True,"(0.03728150083157586, 0.18020972647077313, 0.023999959438538117)","(-0.9999999992078928, -2.3394376620903917e-07, -3.980150265941498e-05)",0.00010136561290409651,0.0
63,Move,,,"(0.003536438132730313, 0.15853702184869162, 0.04798413986117641)","(-0.002178499075898401, 0.009685758062407228, 0.10285468498251224)","[-0.006462388465991851, -0.0014907206732378275, 0.0004335808469587768]","[-0.026750000193715096, 0.05299999937415123, 0.03999999910593033]","[0.0, -0.0, 0.5711748797881039]","[-0.06567469984292984, 0.1135711818933487, 0.03999999910593033]","[0.0, 0.0, -0.2902918330000066]","[0.026750000193715096, 0.05299999937415123, 0.03999999910593033]","[0.0, 0.0, -0.5830479010023177]","[0.06639109551906586, 0.11310476809740067, 0.03999999910593033]","[0.0, -0.0, 0.2772650915613622]",0.5507922484404775,-4.891830481611522,"(0.0, 0.0, 0.0, 0.0, 0.0, 0.0)",0.282294284049585,-0.8614673765775518,-0.00016587933645189224,"(0.0, 0.0, 0.0, 0.0, 0.0, 0.0)",0.019719768305812027,-0.565275293151566,4.265412247930778,"(0.0, 0.0, 0.0, 0.0, 0.0, 0.0)",-0.012306804327906049,0.8603137161198487,0.00018893198985979812,"(0.0, 0.0, 0.0, 0.0, 0.0, 0.0)",-0.0004299034376783175,False,,,,,True,"(0.035014354147368115, 0.18037738642755824, 0.023999959438538117)","(-0.9999999992078928, -2.3394376620903917e-07, -3.980150265941498e-05)",0.0001657852207818292,0.0
64,Move,,,"(0.0033070809685918903, 0.15939336139403074, 0.0480245948749005)","(-0.003221721649284341, 0.008758192496794307, 0.10007245081902345)","[-0.006691745630130274, -0.0006343811278987088, 0.00047403586068286985]","[-0.026750000193715096, 0.05299999937415123, 0.03999999910593033]","[0.0, -0.0, 0.5507922756468575]","[-0.06443209946155548, 0.11435192823410034, 0.03999999910593033]","[0.0, 0.0, -0.31067510738133]","[0.026750000193715096, 0.05299999937415123, 0.03999999910593033]","[0.0, 0.0, -0.5652752430676895]","[0.06531667709350586, 0.11379976570606232, 0.03999999910593033]","[0.0, -0.0, 0.2950384296353975]",0.5330621314256022,-4.255228083570051,"(0.0, 0.0, 0.0, 0.0, 0.0, 0.0)",-63.6841566907319,-0.833899768100212,6.616226034561552,"(0.0, 0.0, 0.0, 0.0, 0.0, 0.0)",-32.0033096547166,-0.5494184347075574,3.805646026562078,"(0.0, 0.0, 0.0, 0.0, 0.0, 0.0)",54.08522476914028,0.834294882877888,-6.244519978070589,"(0.0, 0.0, 0.0, 0.0, 0.0, 0.0)",25.974823871813367,True,"(-0.030827226021807298, 0.18072875671023755, 0.023990313633420805)","(0.9946684597633704, 0.10266861339458756, -0.009685606619977753)",0.00023266339136997558,510.2877732171601,True,"(0.03274929454054999, 0.18050411530517568, 0.023999959438538117)","(-0.9999999992078928, -2.3394376620903917e-07, -3.980150265941498e-05)",0.00018643181396489492,418.4587664295024
65,Move,"(-0.0070999999999999995, 0.0, -0.0011)","(0.0, 0.12507378485641765, 0.0)","(0.0031969503873777684, 0.16028143882127593, 0.048054583489053525)","(-0.004372781608329888, 0.007939463136719069, 0.09861198334618497)","[-0.006801876211344396, 0.00025369629934648974, 0.0005040244748358916]","[-0.026750000193715096, 0.05299999937415123, 0.03999999910593033]","[0.0, -0.0, 0.5330621158171134]","[-0.06333845853805542, 0.11501035839319229, 0.03999999910593033]","[0.0, 0.0, -0.30083767855036603]","[0.026750000193715096, 0.05299999937415123, 0.03999999910593033]","[0.0, 0.0, -0.549418426545043]","[0.0643477737903595, 0.11440364271402359, 0.03999999910593033]","[0.0, -0.0, 0.2848764361199625]",0.5161701590322703,-4.054073374399667,"(0.0, 0.0, 0.0, 0.0, 0.0, 0.0)",-68.88180562685734,-0.8061093417891989,6.669702314643141,"(0.0, 0.0, 0.0, 0.0, 0.0, 0.0)",-35.756361121383094,-0.5337544439677235,3.7593577775601132,"(0.0, 0.0, 0.0, 0.0, 0.0, 0.0)",68.77952387616044,0.8075007011486295,-6.430603615022057,"(0.0, 0.0, 0.0, 0.0, 0.0, 0.0)",33.85011913137436,True,"(-0.030386831991674287, 0.18170201039644102, 0.02399124115951112)","(0.9949587688124035, 0.09990167360330966, -0.008758080529661552)",-0.0003521033588324185,534.8399967547618,True,"(0.03245991098360225, 0.1814354915724969, 0.023999959438538117)","(-0.9999999992078928, -2.3394376620903917e-07, -3.980150265941498e-05)",3.895377007335016e-05,524.277520594291
66,Move,"(-0.0116, 0.0, -0.0009000000000000001)","(0.0, 0.14231763786612162, 0.0)","(0.003014835168891829, 0.1610645564347052, 0.04808540237987141)","(-0.004939789427833024, 0.004909094153774489, 0.09569790684316323)","[-0.0069839914298303355, 0.0010368139127757414, 0.0005348433656537782]","[-0.026750000193715096, 0.05299999937415123, 0.03999999910593033]","[0.0, -0.0, 0.5161702079325045]","[-0.062285806983709335, 0.11561953276395798, 0.03999999910593033]","[0.0, 0.0, -0.28993919682770425]","[0.026750000193715096, 0.05299999937415123, 0.03999999910593033]","[0.0, 0.0, -0.5337544427276155]","[0.0633813738822937, 0.11498501896858215, 0.03999999910593033]","[0.0, -0.0, 0.27374624928461355]",0.5183022742194793,0.5117076449301718,"(0.0, 0.0, 0.0, 0.0, 0.0, 0.0)",5.8656037175216476,-0.8088883844203002,-0.6669702314643153,"(0.0, 0.0, 0.0, 0.0, 0.0, 0.0)",-0.28746878564599443,-0.5348746592714861,-0.2688516729030179,"(0.0, 0.0, 0.0, 0.0, 0.0, 0.0)",-4.638007329933587,0.8101554855162375,0.637148248225933,"(0.0, 0.0, 0.0, 0.0, 0.0, 0.0)",0.5925771551649279,True,"(-0.03006166347399304, 0.18265404950541297, 0.023992059860314583)","(0.9951104129424696, 0.09844913561342714, -0.007939379726199769)",-0.0007346128178897825,0.0,True,"(0.032241548852435555, 0.18236762460912842, 0.023999959438538117)","(-0.9999999992078928, -2.3394376620903917e-07, -3.980150265941498e-05)",-0.00012424112725224057,3.7105606297614178
67,Move,"(-0.010199999999999999, 0.0, -0.0012)","(0.0, 0.1595161123152738, 0.0)","(0.0026805203345067813, 0.16172892158390872, 0.048090888566745864)","(-0.005425264765376621, 0.0014166709474130047, 0.09282609156150427)","[-0.007318306264215383, 0.00170117906197928, 0.0005403295525282306]","[-0.026750000193715096, 0.05299999937415123, 0.03999999910593033]","[0.0, -0.0, 0.518302298409033]","[-0.062419239431619644, 0.11554362624883652, 0.03999999910593033]","[0.0, 0.0, -0.2905861371304283]","[0.026750000193715096, 0.05299999937415123, 0.03999999910593033]","[0.0, 0.0, -0.5348746761750368]","[0.06345079094171524, 0.11494394391775131, 0.03999999910593033]","[0.0, -0.0, 0.2752808197041879]",0.5196641267005753,0.3268445954630437,"(0.0, 0.0, 0.0, 0.0, 0.0, 0.0)",-0.19210000213576164,-0.8086104801571901,0.066697023146431,"(0.0, 0.0, 0.0, 0.0, 0.0, 0.0)",0.05696551870206464,-0.5333303179767315,0.37064191074111424,"(0.0, 0.0, 0.0, 0.0, 0.0, 0.0)",2.0388497187693693,0.8098283209952699,-0.07851948503222506,"(0.0, 0.0, 0.0, 0.0, 0.0, 0.0)",0.6807936657588078,True,"(-0.030151496385585758, 0.18255502548840302, 0.023995090165604527)","(0.9954124544096264, 0.09555075402309895, -0.004909074436254101)",-0.0005945122576817709,0.0,True,"(0.032207595856497184, 0.1822786851575352, 0.023999959438538117)","(-0.9999999992078928, -2.3394376620903917e-07, -3.980150265941498e-05)",-0.00011481216031604956,9.253372896166727
68,Move,"(-0.011800000000000001, 0.0, -0.0019)","(0.0, 0.16421802932014654, 0.0)","(0.0023410417855259913, 0.1623459691487229, 0.0480177145115408)","(-0.005445791996291849, -0.003939154346555091, 0.08853034290550196)","[-0.007657784813196173, 0.002318226626793457, 0.00046715549732316564]","[-0.026750000193715096, 0.05299999937415123, 0.03999999910593033]","[0.0, -0.0, 0.5196641604246082]","[-0.06250438094139099, 0.1154949963092804, 0.03999999910593033]","[0.0, 0.0, -0.28894636877074226]","[0.026750000193715096, 0.05299999937415123, 0.03999999910593033]","[0.0, 0.0, -0.533330311109429]","[0.06335508823394775, 0.11500054597854614, 0.03999999910593033]","[0.0, -0.0, 0.27649801480034236]",0.5205144621063884,0.20408049739516182,"(0.0, 0.0, 0.0, 0.0, 0.0, 0.0)",-0.18576684910633628,-0.808638757917974,-0.00678666258816242,"(0.0, 0.0, 0.0, 0.0, 0.0, 0.0)",-0.02036201364122581,-0.5321209105338478,0.29025778629208876,"(0.0, 0.0, 0.0, 0.0, 0.0, 0.0)",-0.10763926353289097,0.809861036788433,0.0078517903591441,"(0.0, 0.0, 0.0, 0.0, 0.0, 0.0)",0.0006280265559563625,True,"(-0.030346124884306033, 0.18255472228659306, 0.023998582569567238)","(0.9956937519509967, 0.09269274713005467, -0.0014166704735461973)",-0.0005171073404307603,0.0,True,"(0.0321232950364638, 0.18116580506130608, 0.056001417430432764)","(-0.9956937519509969, -0.09269274713005325, 0.0014166704735482682)",-0.0003305617725094032,0.0
69,Move,"(-0.0132, 0.0, -0.0019)","(0.0, 0.1595161123152738, 0.0)","(0.002107873756752429, 0.16273411093135107, 0.04808898989199063)","(-0.004522929741866142, -0.003966769642580778, 0.08675715973477906)","[-0.007890952841969735, 0.0027063684094216223, 0.0005384308777729996]","[-0.026750000193715096, 0.05299999937415123, 0.03999999910593033]","[0.0, -0.0, 0.5205144309133819]","[-0.06255751103162766, 0.11546456813812256, 0.03999999910593033]","[0.0, 0.0, -0.2881243094461912]","[0.026750000193715096, 0.05299999937415123, 0.03999999910593033]","[0.0, 0.0, -0.5321209726036569]","[0.06328007578849792, 0.11504477262496948, 0.03999999910593033]","[0.0, -0.0, 0.2777401472171736]",0.5218340396859901,0.3166986191043959,"(0.0, 0.0, 0.0, 0.0, 0.0, 0.0)",-1.1159267268793651,-0.8081523860150596,0.11672925669947053,"(0.0, 0.0, 0.0, 0.0, 0.0, 0.0)",-0.6865190012383734,-0.5307177439066741,0.33675999052168903,"(0.0, 0.0, 0.0, 0.0, 0.0, 0.0)",1.050004597106073,0.8092771165700491,-0.14014085241215085,"(0.0, 0.0, 0.0, 0.0, 0.0, 0.0)",0.588190016699345,True,"(-0.030454391479539898, 0.18255070975857282, 0.023998582569567238)","(0.9956937519509967, 0.09269274713005467, -0.0014166704735461973)",-0.0004574158118745579,5.154391740247649,True,"(0.031966123071185445, 0.18117118540548277, 0.056001417430432764)","(-0.9956937519509969, -0.09269274713005325, 0.0014166704735482682)",-0.0002339121637707064,5.316833180170716
70,Move,"(-0.014199999999999999, 0.0, -0.0025)","(0.0, 0.15092211107845369, 0.0)","(0.0018717231327290873, 0.16300709619424658, 0.04812323906111911)","(-0.002927574590218239, -0.00368151443854482, 0.08571545916397814)","[-0.008127103465993078, 0.0029793536723171365, 0.0005726800469014748]","[-0.026750000193715096, 0.05299999937415123, 0.03999999910593033]","[0.0, -0.0, 0.5218340692133497]","[-0.06263990700244904, 0.11541726440191269, 0.03999999910593033]","[0.0, 0.0, -0.2863183438976361]","[0.026750000193715096, 0.05299999937415123, 0.03999999910593033]","[0.0, 0.0, -0.5307178387171216]","[0.06319297850131989, 0.11509596556425095, 0.03999999910593033]","[0.0, -0.0, 0.2785593973138972]",0.5234359861640473,0.3844671547337411,"(0.0, 0.0, 0.0, 0.0, 0.0, 0.0)",-0.4623716201743477,-0.8078412507814594,0.07467245606404656,"(0.0, 0.0, 0.0, 0.0, 0.0, 0.0)",-0.3020930839209071,-0.5291641374542811,0.372865548574327,"(0.0, 0.0, 0.0, 0.0, 0.0, 0.0)",0.9472539471599372,0.8089317094736352,-0.0828977031393145,"(0.0, 0.0, 0.0, 0.0, 0.0, 0.0)",0.5451268455508376,True,"(-0.03065799359226873, 0.18256127178038895, 0.023998582569567238)","(0.9956937519509967, 0.09269274713005467, -0.0014166704735461973)",-0.0004087846657340321,3.0411373430491033,True,"(0.03182486467265119, 0.18119670606034222, 0.056001417430432764)","(-0.9956937519509969, -0.09269274713005325, 0.0014166704735482682)",-0.00020474700358536827,6.949508557096135
71,Move,"(-0.0157, 0.0, -0.004200000000000001)","(0.0, 0.1469584683471746, 0.0)","(0.0016268826868818624, 0.16318825576088972, 0.04811914535693232)","(-0.000283245443560779, -0.0033942898331380303, 0.08467795553959188)","[-0.008371943911840303, 0.003160513238960272, 0.0005685863427146859]","[-0.026750000193715096, 0.05299999937415123, 0.03999999910593033]","[0.0, -0.0, 0.5234360358506404]","[-0.06273984909057617, 0.11535968631505966, 0.03999999910593033]","[0.0, 0.0, -0.28440527647783725]","[0.026750000193715096, 0.05299999937415123, 0.03999999910593033]","[0.0, 0.0, -0.529164146745427]","[0.06309646368026733, 0.115152508020401, 0.03999999910593033]","[0.0, -0.0, 0.27976751864264815]",0.5252260683895267,0.42961973411505766,"(0.0, 0.0, 0.0, 0.0, 0.0, 0.0)",-0.19184740644574055,-0.8076851767784112,0.03745776073155219,"(0.0, 0.0, 0.0, 0.0, 0.0, 0.0)",-0.13742335812660136,-0.5275288791235928,0.39246199936518794,"(0.0, 0.0, 0.0, 0.0, 0.0, 0.0)",0.6826384406477002,0.8087328421191341,-0.0477281650802725,"(0.0, 0.0, 0.0, 0.0, 0.0, 0.0)",0.39657048119378163,True,"(-0.03088538766957341, 0.1825531557600779, 0.05600368226608151)","(0.9963219267785057, 0.08560995697369117, 0.0036815061222813263)",-0.0005027215639387242,1.9388266801138927,True,"(0.03164850807872258, 0.18121530197314548, 0.056001417430432764)","(-0.9956937519509969, -0.09269274713005325, 0.0014166704735482682)",-0.0001879304557343059,5.120738171054389
72,Move,"(-0.017, 0.0, -0.0054)","(0.0, 0.13830861657429064, 0.0)","(0.0013621143141597201, 0.1633063355900309, 0.04805777667352327)","(0.0035946377358901708, -0.002677241969678212, 0.08435467754284755)","[-0.008636712284562444, 0.0032785930681014652, 0.0005072176593056352]","[-0.026750000193715096, 0.05299999937415123, 0.03999999910593033]","[0.0, -0.0, 0.525226011584012]","[-0.0628514215350151, 0.1152951642870903, 0.03999999910593033]","[0.0, 0.0, -0.28245911615022085]","[0.026750000193715096, 0.05299999937415123, 0.03999999910593033]","[0.0, 0.0, -0.5275288698144232]","[0.06299477815628052, 0.1152118667960167, 0.03999999910593033]","[0.0, -0.0, 0.28120397401724906]",0.5273104036238555,0.5002404562389157,"(0.0, 0.0, 0.0, 0.0, 0.0, 0.0)",-0.03610519216104638,-0.807575801331341,0.026250107296866564,"(0.0, 0.0, 0.0, 0.0, 0.0, 0.0)",-0.06786673520180149,-0.5256632107942354,0.447760399045791,"(0.0, 0.0, 0.0, 0.0, 0.0, 0.0)",0.6545044627800178,0.8086005401132635,-0.031752481408944065,"(0.0, 0.0, 0.0, 0.0, 0.0, 0.0)",0.3500550041586858,True,"(-0.03112753035013901, 0.18254752508146144, 0.05600339504327465)","(0.996411223705388, 0.08457630941762372, 0.003394283315423968)",-0.00046423224919542414,1.0535943391136002,True,"(0.031451964593887764, 0.1812294150087457, 0.056001417430432764)","(-0.9956937519509969, -0.09269274713005325, 0.0014166704735482682)",-0.00017426647435247016,4.628318620687736
73,Move,"(-0.0182, 0.0, -0.006900000000000001)","(0.0, 0.12965178348439882, 0.0)","(0.0011479941714950643, 0.1634068236749533, 0.048100896646285175)","(0.003307406166147969, -0.0014410254613273258, 0.08804186597989637)","[-0.0088508324272271, 0.0033790811530238496, 0.0005503376320675421]","[-0.026750000193715096, 0.05299999937415123, 0.03999999910593033]","[0.0, -0.0, 0.5273103681350529]","[-0.06298118829727173, 0.11521977931261063, 0.03999999910593033]","[0.0, 0.0, -0.28026537958622877]","[0.026750000193715096, 0.05299999937415123, 0.03999999910593033]","[0.0, 0.0, -0.5256632671536993]","[0.06287864595651627, 0.11527937650680542, 0.03999999910593033]","[0.0, -0.0, 0.28293736910171935]",0.5296249604287918,0.5554936331847181,"(0.0, 0.0, 0.0, 0.0, 0.0, 0.0)",-0.09375606663701525,-0.8074503629183678,0.03010521911357259,"(0.0, 0.0, 0.0, 0.0, 0.0, 0.0)",-0.07983667292796494,-0.5236460105590643,0.48412805644104506,"(0.0, 0.0, 0.0, 0.0, 0.0, 0.0)",0.8752064418831033,0.8083723145683536,-0.05477413077839742,"(0.0, 0.0, 0.0, 0.0, 0.0, 0.0)",0.5032345851260241,True,"(-0.03140468688693216, 0.18253906594188896, 0.05600267799873066)","(0.9964406823439542, 0.08425437058382095, 0.002677238771437325)",-0.00042853833706682157,1.3481415558246077,True,"(0.03122144972164361, 0.18124215303311778, 0.056001417430432764)","(-0.9956937519509969, -0.09269274713005325, 0.0014166704735482682)",-0.00016062513692904098,6.694366014065068
74,Move,"(-0.02, 0.0, -0.0085)","(0.0, 0.11230670137807913, 0.0)","(0.0009234805971664536, 0.16349536319600266, 0.04813556805962348)","(0.003044790597472319, -0.00013663930794181235, 0.09235899547899208)","[-0.00907534600155571, 0.0034676206740732185, 0.0005850090454058501]","[-0.026750000193715096, 0.05299999937415123, 0.03999999910593033]","[0.0, -0.0, 0.5296249563000992]","[-0.06312509626150131, 0.11513575911521912, 0.03999999910593033]","[0.0, 0.0, -0.27782538153586583]","[0.026750000193715096, 0.05299999937415123, 0.03999999910593033]","[0.0, 0.0, -0.5236460282866545]","[0.06275294721126556, 0.11535213142633438, 0.03999999910593033]","[0.0, -0.0, 0.284726334353252]",0.532130229415575,0.6012645568279629,"(0.0, 0.0, 0.0, 0.0, 0.0, 0.0)",-0.04891567319171483,-0.8073639652176468,0.020735448173044436,"(0.0, 0.0, 0.0, 0.0, 0.0, 0.0)",-0.05137935917743235,-0.5214870362595374,0.5181538318864629,"(0.0, 0.0, 0.0, 0.0, 0.0, 0.0)",0.8184742758073233,0.8082137430382209,-0.038057167231849535,"(0.0, 0.0, 0.0, 0.0, 0.0, 0.0)",0.4713576379273469,True,"(-0.03171305984694686, 0.18253312890289253, 0.05600144178492183)","(0.9961257835041982, 0.0879280779114643, 0.0014410249625985026)",-0.00039638105395356553,0.8870143139112011,True,"(0.030977791311988696, 0.18125816553983015, 0.056001417430432764)","(-0.9956937519509969, -0.09269274713005325, 0.0014166704735482682)",-0.0001477237191401979,6.221915205197337
75,Move,"(-0.0209, 0.0, -0.0111)","(0.0, 0.08624544498729982, 0.0)","(0.0007200782011581109, 0.1635896995583157, 0.048128386333187285)","(0.0028067730853495697, 0.002357673910037868, 0.09700481597283302)","[-0.009278748397564054, 0.0035619570363862596, 0.0005778273189696523]","[-0.026750000193715096, 0.05299999937415123, 0.03999999910593033]","[0.0, -0.0, 0.5321301994316094]","[-0.06328064948320389, 0.11504442989826202, 0.03999999910593033]","[0.0, 0.0, -0.27523375009759776]","[0.026750000193715096, 0.05299999937415123, 0.03999999910593033]","[0.0, 0.0, -0.5214869885631604]","[0.06261824816465378, 0.11542971432209015, 0.03999999910593033]","[0.0, -0.0, 0.28672668808979207]",0.5349679533901116,0.6810537538887891,"(0.0, 0.0, 0.0, 0.0, 0.0, 0.0)",0.11363206261342701,-0.8073726049877189,-0.0020735448173052617,"(0.0, 0.0, 0.0, 0.0, 0.0, 0.0)",0.00593228476528055,-0.5190215514067305,0.5917163646736777,"(0.0, 0.0, 0.0, 0.0, 0.0, 0.0)",0.3976304772058075,0.8082265426420179,0.0030719049112752847,"(0.0, 0.0, 0.0, 0.0, 0.0, 0.0)",0.18089414499891948,True,"(-0.032043545767097864, 0.18252470603498933, 0.05600013739926674)","(0.9957379296547475, 0.09222774407181816, 0.00013663930751541478)",-0.0003665894875356556,0.0,True,"(0.03063386677283677, 0.18210295489121608, 0.023999856660532372)","(-0.9957379304970718, -0.09222772598569429, -0.0001425795084021796)",-0.00014040335825707336,2.2847734027980846
76,Move,"(-0.0247, 0.0, -0.012400000000000001)","(0.0, 0.06015975398699254, 0.0)","(0.0004710636214570212, 0.1636406365159974, 0.048089657821165456)","(-0.0009787756002324103, 0.002179258258497709, 0.10265203006713593)","[-0.009527762977265142, 0.003612893994067945, 0.0005390988069478228]","[-0.026750000193715096, 0.05299999937415123, 0.03999999910593033]","[0.0, -0.0, 0.5349679116894273]","[-0.06345657259225845, 0.11494051665067673, 0.03999999910593033]","[0.0, 0.0, -0.27240467968772]","[0.026750000193715096, 0.05299999937415123, 0.03999999910593033]","[0.0, 0.0, -0.5190215129066623]","[0.062464214861392975, 0.11551795899868011, 0.03999999910593033]","[0.0, -0.0, 0.28920503377575124]",0.53792684694154,0.7101344523428129,"(0.0, 0.0, 0.0, 0.0, 0.0, 0.0)",-0.05128198054639137,-0.8072805385393605,0.022095947605998457,"(0.0, 0.0, 0.0, 0.0, 0.0, 0.0)",-0.04045859260160694,-0.5165058199519621,0.6037755491444077,"(0.0, 0.0, 0.0, 0.0, 0.0, 0.0)",0.758318117543966,0.8080965144320971,-0.031206770380988267,"(0.0, 0.0, 0.0, 0.0, 0.0, 0.0)",0.4277980784498754,True,"(-0.03241049554741339, 0.18250889469501078, 0.05600013739926674)","(0.9957379296547475, 0.09222774407181816, 0.00013663930751541478)",-0.0002756943361936602,0.6905946620211397,True,"(0.030314701534790517, 0.18211172661719952, 0.023999856660532372)","(-0.9957379304970718, -0.09222772598569429, -0.0001425795084021796)",-0.00012958227835722504,4.293170557938306
77,Move,"(-0.0251, 0.0, -0.0156)","(0.0, 0.03408628029144926, 0.0)","(9.104967865900925e-05, 0.16365971341842747, 0.04816104642536583)","(-0.0024866086179655645, 0.0004412954171604622, 0.10670507154447108)","[-0.009907776920063156, 0.003631970896498027, 0.0006104874111481987]","[-0.026750000193715096, 0.05299999937415123, 0.03999999910593033]","[0.0, -0.0, 0.5379267235366205]","[-0.06363968551158905, 0.11483163386583328, 0.03999999910593033]","[0.0, 0.0, -0.2693537228264475]","[0.026750000193715096, 0.05299999937415123, 0.03999999910593033]","[0.0, 0.0, -0.51650576397926]","[0.06230682507157326, 0.1156076043844223, 0.03999999910593033]","[0.0, -0.0, 0.29159068059377824]",0.5416475293681345,0.8929637823826765,"(0.0, 0.0, 0.0, 0.0, 0.0, 0.0)",0.05469779712464875,-0.8070918046888715,0.04529612411735109,"(0.0, 0.0, 0.0, 0.0, 0.0, 0.0)",-0.07193393284180086,-0.5132408247171664,0.7835988563509793,"(0.0, 0.0, 0.0, 0.0, 0.0, 0.0)",2.6131148528964006,0.8077155393687353,-0.09143401520681292,"(0.0, 0.0, 0.0, 0.0, 0.0, 0.0)",1.338882412943783,True,"(-0.03279990258405515, 0.18249441858352988, 0.05600013739926674)","(0.9957379296547475, 0.09222774407181816, 0.00013663930751541478)",-0.0002546433705419661,1.6648110029119418,True,"(0.029998528963278738, 0.18212448742404685, 0.023999856660532372)","(-0.9957379304970718, -0.09222772598569429, -0.0001425795084021796)",-0.00011464618825701684,18.570779801776286
78,Move,"(-0.0268, 0.0, -0.018000000000000002)","(0.0, 0.01672374489260967, 0.0)","(-0.0002989170578171651, 0.16368467115497942, 0.04822658765574028)","(-0.0038482869310298897, -0.0011340421387417766, 0.10983925070497459)","[-0.01029774365653933, 0.0036569286330499773, 0.0006760286415226496]","[-0.026750000193715096, 0.05299999937415123, 0.03999999910593033]","[0.0, -0.0, 0.541647586981982]","[-0.06386948376893997, 0.11469395458698273, 0.03999999910593033]","[0.0, 0.0, -0.26544426977289043]","[0.026750000193715096, 0.05299999937415123, 0.03999999910593033]","[0.0, 0.0, -0.5132408282403298]","[0.062102220952510834, 0.11572336405515671, 0.03999999910593033]","[0.0, -0.0, 0.2944747241545661]",0.5452891470801658,0.8739882508875164,"(0.0, 0.0, 0.0, 0.0, 0.0, 0.0)",-0.3796755658687713,-0.806948765204329,0.03432947629021782,"(0.0, 0.0, 0.0, 0.0, 0.0, 0.0)",-0.15887570892527114,-0.5100363901794288,0.7690642890570065,"(0.0, 0.0, 0.0, 0.0, 0.0, 0.0)",1.0692247743163146,0.8074290639771734,-0.0687540939748618,"(0.0, 0.0, 0.0, 0.0, 0.0, 0.0)",0.6098090026884835,True,"(-0.033294459574227386, 0.182476784293068, 0.05600013739926674)","(0.9957379296547475, 0.09222774407181816, 0.00013663930751541478)",-0.0002386526909286121,2.7359110226657015,True,"(0.029602224871866388, 0.18214679210013363, 0.023999856660532372)","(-0.9957379304970718, -0.09222772598569429, -0.0001425795084021796)",-0.00010807079643699674,8.553413812475387
79,Move,"(-0.0272, 0.0, -0.0211)","(0.0, 0.004593706591249077, 0.0)","(-0.0007175729314677075, 0.16368549574850852, 0.04828765357435715)","(-0.0035435316456866152, -0.0010429598783856847, 0.11232780191068797)","[-0.010716399530189873, 0.0036577532265790746, 0.0007370945601395187]","[-0.026750000193715096, 0.05299999937415123, 0.03999999910593033]","[0.0, -0.0, 0.5452892087298871]","[-0.06409390270709991, 0.11455836892127991, 0.03999999910593033]","[0.0, 0.0, -0.2616596364061906]","[0.026750000193715096, 0.05299999937415123, 0.03999999910593033]","[0.0, 0.0, -0.5100364404035482]","[0.06190104782581329, 0.11583632230758667, 0.03999999910593033]","[0.0, -0.0, 0.2973927018508055]",0.5491652537879519,0.9302656098686475,"(0.0, 0.0, 0.0, 0.0, 0.0, 0.0)",0.07803281234047621,-0.8069630691527833,-0.0034329476290206884,"(0.0, 0.0, 0.0, 0.0, 0.0, 0.0)",0.0019519314341915248,-0.5065168269654918,0.8446951713448848,"(0.0, 0.0, 0.0, 0.0, 0.0, 0.0)",1.0484088806383944,0.8073988033280343,-0.007262555793388414,"(0.0, 0.0, 0.0, 0.0, 0.0, 0.0)",0.5456095402345374,True,"(-0.03377605311314934, 0.18246031416595287, 0.0560011348018549)","(0.9939730927483377, 0.10961845118994923, 0.0011340418956713675)",-0.00022860120371066706,0.0,True,"(0.029293242171176147, 0.18133846777835075, 0.0239988651981451)","(-0.9939730927483386, -0.10961845118994099, -0.0011340418956784905)",-0.00011548347472778187,7.244112035869789
80,Move,"(-0.024399999999999998, 0.0, -0.024300000000000002)","(0.0, 0.025689501260104535, 0.0)","(-0.0011285851770009197, 0.1636734685069643, 0.04834384623287612)","(-0.0032626438892871404, -0.0009594311008054982, 0.11499463531635172)","[-0.011127411775723083, 0.003645725985034848, 0.0007932872186584838]","[-0.026750000193715096, 0.05299999937415123, 0.03999999910593033]","[0.0, -0.0, 0.549165215334988]","[-0.06433223187923431, 0.11441315710544586, 0.03999999910593033]","[0.0, 0.0, -0.2577978041051707]","[0.026750000193715096, 0.05299999937415123, 0.03999999910593033]","[0.0, 0.0, -0.5065168025280941]","[0.06167967617511749, 0.11595965176820755, 0.03999999910593033]","[0.0, -0.0, 0.3008819641911215]",0.5529979151552089,0.9198387281416897,"(0.0, 0.0, 0.0, 0.0, 0.0, 0.0)",-0.014477658022627689,-0.8069616387579378,0.00034329476290206884,"(0.0, 0.0, 0.0, 0.0, 0.0, 0.0)",-0.0006594729150911239,-0.5030182298631137,0.839663304570756,"(0.0, 0.0, 0.0, 0.0, 0.0, 0.0)",0.616675590339117,0.8073615819869616,-0.008933121857429206,"(0.0, 0.0, 0.0, 0.0, 0.0, 0.0)",0.3545796232840263,True,"(-0.03427667316643593, 0.18243031360175813, 0.05600104371964853)","(0.9936973226393355, 0.11209167326123273, 0.0010429596893056156)",-0.00019859479530846068,0.0,True,"(0.02884339789689532, 0.18134861202712854, 0.023998956280351466)","(-0.9936973226393353, -0.11209167326123369, -0.0010429596893046652)",-0.00010778640258550833,4.935813170306655
81,Move,"(-0.029, 0.0, -0.026600000000000002)","(0.0, 0.034222415973104825, 0.0)","(-0.0014862633209992728, 0.163651046037795, 0.04839554883760671)","(-0.002207027611719478, -0.0016816610531715582, 0.11659595371794843)","[-0.011485089919721437, 0.003623303515865567, 0.0008449898233890765]","[-0.026750000193715096, 0.05299999937415123, 0.03999999910593033]","[0.0, -0.0, 0.5529979398271292]","[-0.06456732749938965, 0.11426866799592972, 0.03999999910593033]","[0.0, 0.0, -0.25396370098422916]","[0.026750000193715096, 0.05299999937415123, 0.03999999910593033]","[0.0, 0.0, -0.5030182652551026]","[0.061459191143512726, 0.11608146876096725, 0.03999999910593033]","[0.0, -0.0, 0.3043433788174964]",0.5561675829854567,0.7607202792594536,"(0.0, 0.0, 0.0, 0.0, 0.0, 0.0)",-0.26369917547849747,-0.8069369560220417,0.0059238566150679,"(0.0, 0.0, 0.0, 0.0, 0.0, 0.0)",-0.03165301652306343,-0.5002051258451689,0.6751449643067711,"(0.0, 0.0, 0.0, 0.0, 0.0, 0.0)",0.05796896232025442,0.8073267789450123,-0.008352730067846495,"(0.0, 0.0, 0.0, 0.0, 0.0, 0.0)",0.14732545885678608,True,"(-0.03477264199692054, 0.18239939902178487, 0.056000960190912843)","(0.9933949426654145, 0.11474130633308582, 0.0009594309536175476)",-0.0001711484019081388,0.2604150523178037,True,"(0.028396683952361806, 0.1813571703846937, 0.023999039809087165)","(-0.9933949426654143, -0.11474130633308889, -0.0009594309536083929)",-0.00010105316848715089,2.3462251504230855
82,Move,"(-0.0291, 0.0, -0.028100000000000003)","(0.0, 0.04274660403984511, 0.0)","(-0.001949348007413582, 0.16359774953803674, 0.04836551101397535)","(0.00018972240328107214, -0.001226369680600056, 0.11891604890664013)","[-0.011948174606135746, 0.003570007016107296, 0.0008149519997577154]","[-0.026750000193715096, 0.05299999937415123, 0.03999999910593033]","[0.0, -0.0, 0.5561675347324805]","[-0.06476134061813354, 0.11414849013090134, 0.03999999910593033]","[0.0, 0.0, -0.2507693962694448]","[0.026750000193715096, 0.05299999937415123, 0.03999999910593033]","[0.0, 0.0, -0.5002051169343281]","[0.06128159910440445, 0.11617886275053024, 0.03999999910593033]","[0.0, -0.0, 0.3071216701540398]",0.5602988515941373,0.9915044660833553,"(0.0, 0.0, 0.0, 0.0, 0.0, 0.0)",0.32487199752002965,-0.8069236931568453,0.0031830876471560065,"(0.0, 0.0, 0.0, 0.0, 0.0, 0.0)",0.01889395561334241,-0.49629310091735324,0.9388859826757506,"(0.0, 0.0, 0.0, 0.0, 0.0, 0.0)",1.4350923484292297,0.807274379664187,-0.012575827398058338,"(0.0, 0.0, 0.0, 0.0, 0.0, 0.0)",0.6241253266115886,True,"(-0.03518425247262522, 0.18237246781168462, 0.05600168242021977)","(0.9932089844749312, 0.116331789193856, 0.0016816602605512286)",-0.00015854193550231193,0.0,True,"(0.028037727747098305, 0.18136362083490476, 0.02399831757978023)","(-0.9932089844749319, -0.1163317891938517, -0.0016816602605452134)",-9.399924634819344e-05,5.249659797145197
83,Move,"(-0.029500000000000002, 0.0, -0.0294)","(0.0, 0.047499135593025675, 0.0)","(-0.002368489602603518, 0.163567030545838, 0.04839783707879808)","(0.00017850944089841772, -0.0005672537349267865, 0.12267283048834891)","[-0.012367316201325682, 0.0035392880239085434, 0.0008472780645804451]","[-0.026750000193715096, 0.05299999937415123, 0.03999999910593033]","[0.0, -0.0, 0.5602988543220012]","[-0.06501363217830658, 0.11399093270301819, 0.03999999910593033]","[0.0, 0.0, -0.24662483918072317]","[0.026750000193715096, 0.05299999937415123, 0.03999999910593033]","[0.0, 0.0, -0.49629313495094357]","[0.061034176498651505, 0.11631346493959427, 0.03999999910593033]","[0.0, -0.0, 0.31098126973022255]",0.564297716920485,0.9597276783234671,"(0.0, 0.0, 0.0, 0.0, 0.0, 0.0)",-0.2753626266382065,-0.8068375349894311,0.020677960179416272,"(0.0, 0.0, 0.0, 0.0, 0.0, 0.0)",-0.10725404373750734,-0.49250097935079973,0.9101091759728436,"(0.0, 0.0, 0.0, 0.0, 0.0, 0.0)",0.6990481088368492,0.8070494350274688,-0.053986712812353226,"(0.0, 0.0, 0.0, 0.0, 0.0, 0.0)",0.4398295497173452,True,"(-0.03571933909981935, 0.18233509698251707, 0.05600122712933242)","(0.9929370680757509, 0.11863589195219146, 0.0012263693731906391)",-0.0001378102868869848,0.0,True,"(0.02753878185211652, 0.18137095986228094, 0.02399877287066758)","(-0.9929370680757511, -0.11863589195219, -0.001226369373195099)",-7.848485179840812e-05,0.07013161122773379
84,Move,"(-0.0294, 0.0, -0.0298)","(0.0, 0.047499135593025675, 0.0)","(-0.0027907238952324795, 0.16353274948142732, 0.04842554738403569)","(0.00016774083807469104, 0.00010194517201907786, 0.12618481779806534)","[-0.012789550493954645, 0.003505006959497875, 0.0008749883698180583]","[-0.026750000193715096, 0.05299999937415123, 0.03999999910593033]","[0.0, -0.0, 0.5642977257665882]","[-0.06525722146034241, 0.11383743584156036, 0.03999999910593033]","[0.0, 0.0, -0.24253983123121559]","[0.026750000193715096, 0.05299999937415123, 0.03999999910593033]","[0.0, 0.0, -0.4925009908149034]","[0.060793839395046234, 0.11644302308559418, 0.03999999910593033]","[0.0, -0.0, 0.314548409214606]",0.5682672235717839,0.9526815963117419,"(0.0, 0.0, 0.0, 0.0, 0.0, 0.0)",-0.2514963469664281,-0.8067392714480266,0.023583249937072847,"(0.0, 0.0, 0.0, 0.0, 0.0, 0.0)",-0.11103506142205329,-0.48869383218468226,0.9137153198681965,"(0.0, 0.0, 0.0, 0.0, 0.0, 0.0)",0.8912469307314341,0.806795200179282,-0.06101636356484666,"(0.0, 0.0, 0.0, 0.0, 0.0, 0.0)",0.5331060340895815,True,"(-0.03624231739797232, 0.18230037023217113, 0.05600056801366374)","(0.9924849597963743, 0.12236536602006366, 0.0005672537045101706)",-0.00011436012299192321,0.0,True,"(0.02706660816883235, 0.18138042816741082, 0.02399943198633627)","(-0.992484959796374, -0.12236536602006666, -0.0005672537045054546)",-5.7205433206382556e-05,1.0020908329612108
85,Move,"(-0.029500000000000002, 0.0, -0.0299)","(0.0, 0.052286573731246115, 0.0)","(-0.003199006956459896, 0.1635101272918841, 0.048411994293310896)","(-0.0017976571897673457, 0.00010258793788889846, 0.1303218440485938)","[-0.013197833555182061, 0.0034823847699546606, 0.0008614352790932631]","[-0.026750000193715096, 0.05299999937415123, 0.03999999910593033]","[0.0, -0.0, 0.5682672679415378]","[-0.06549841165542603, 0.11368410289287567, 0.03999999910593033]","[0.0, 0.0, -0.23847208317893567]","[0.026750000193715096, 0.05299999937415123, 0.03999999910593033]","[0.0, 0.0, -0.48869384989147013]","[0.06055205687880516, 0.11657217144966125, 0.03999999910593033]","[0.0, -0.0, 0.31810135669735345]",0.5721173495071203,0.9240302244807288,"(0.0, 0.0, 0.0, 0.0, 0.0, 0.0)",-0.3178535946400051,-0.8066085383193566,0.03137595088078293,"(0.0, 0.0, 0.0, 0.0, 0.0, 0.0)",-0.12898801414458605,-0.484967524410714,0.8943138657523781,"(0.0, 0.0, 0.0, 0.0, 0.0, 0.0)",0.48403021284901937,0.8066282231069795,-0.04007449735260375,"(0.0, 0.0, 0.0, 0.0, 0.0, 0.0)",0.2902059574651443,True,"(-0.03676223875814871, 0.1822644958729563, 0.05600056801366374)","(0.9924849597963743, 0.12236536602006366, 0.0005672537045101706)",-9.175020202200651e-05,1.9122619694167373,True,"(0.026594321556823917, 0.1813893384771641, 0.02399943198633627)","(-0.992484959796374, -0.12236536602006666, -0.0005672537045054546)",-3.563224749631389e-05,3.756359224767917
86,Move,"(-0.0253, 0.0, -0.03270000000000001)","(0.0, 0.060845668383026325, 0.0)","(-0.003631194185828667, 0.16349139577262425, 0.04845720313063283)","(-0.0027258216390435184, -0.0009622576239448538, 0.1330599859805156)","[-0.013630020784550832, 0.0034636532506948092, 0.000906644116415195]","[-0.026750000193715096, 0.05299999937415123, 0.03999999910593033]","[0.0, -0.0, 0.5721174078259581]","[-0.06573176383972168, 0.11353446543216705, 0.03999999910593033]","[0.0, 0.0, -0.23449120715616664]","[0.026750000193715096, 0.05299999937415123, 0.03999999910593033]","[0.0, 0.0, -0.4849675445388197]","[0.06031493470072746, 0.11669768393039703, 0.03999999910593033]","[0.0, -0.0, 0.3216607151764095]",0.5759052613910546,0.9090988521442116,"(0.0, 0.0, 0.0, 0.0, 0.0, 0.0)",-0.42852814284078367,-0.8064207509469122,0.04506896938664757,"(0.0, 0.0, 0.0, 0.0, 0.0, 0.0)",-0.17815084540832737,-0.4812741578547306,0.8864079734360183,"(0.0, 0.0, 0.0, 0.0, 0.0, 0.0)",1.5490515067439397,0.8062445118980694,-0.0920906901383935,"(0.0, 0.0, 0.0, 0.0, 0.0, 0.0)",0.8556324469545847,True,"(-0.037268828278771, 0.1822287111511992, 0.05600056801366374)","(0.9924849597963743, 0.12236536602006366, 0.0005672537045101706)",-8.60576820720015e-05,3.1854989998292673,True,"(0.02612670780842502, 0.18139357655870827, 0.02399943198633627)","(-0.992484959796374, -0.12236536602006666, -0.0005672537045054546)",-3.25922005966358e-05,12.35739123202685
87,Move,"(-0.024, 0.0, -0.0324)","(0.0, 0.0730402838667107, 0.0)","(-0.003962900170821863, 0.1634826067104367, 0.048499983779052624)","(-0.0025086830091739965, -0.0008905513631464194, 0.1342070744665511)","[-0.013961726769544026, 0.0034548641885072673, 0.0009494247648349913]","[-0.026750000193715096, 0.05299999937415123, 0.03999999910593033]","[0.0, -0.0, 0.5759053128478875]","[-0.06596078723669052, 0.1133863776922226, 0.03999999910593033]","[0.0, 0.0, -0.23051549652222858]","[0.026750000193715096, 0.05299999937415123, 0.03999999910593033]","[0.0, 0.0, -0.48127412410861675]","[0.06007944419980049, 0.11682122200727463, 0.03999999910593033]","[0.0, -0.0, 0.3249703491552504]",0.5787039580216536,0.6716871913437696,"(0.0, 0.0, 0.0, 0.0, 0.0, 0.0)",-0.5271610847517835,-0.8064294389305537,-0.0020851160739678992,"(0.0, 0.0, 0.0, 0.0, 0.0, 0.0)",-0.1162938608778951,-0.4785761139354975,0.6475305406159518,"(0.0, 0.0, 0.0, 0.0, 0.0, 0.0)",-0.24129110488413735,0.8062708852512733,0.006329604768927105,"(0.0, 0.0, 0.0, 0.0, 0.0, 0.0)",0.03862525481165718,True,"(-0.037770960949049484, 0.18219161205112197, 0.05600096301743467)","(0.9911601145490686, 0.1326676350419659, 0.0009622574754447729)",-8.719746791749483e-05,1.3754522275380054,True,"(0.025677282737303277, 0.18140363853660296, 0.02399903698256533)","(-0.9911601145490675, -0.13266763504197226, -0.0009622574754509554)",-3.476691887111426e-05,0.7535447315649952
88,Move,"(-0.027800000000000002, 0.0, -0.0332)","(0.0, 0.08151385738514316, 0.0)","(-0.004256642694106048, 0.16346974076554005, 0.048539162981717815)","(-0.0023097620641407404, -0.0008199048109204101, 0.13555043179196413)","[-0.014255469292828213, 0.0034419982436106056, 0.0009886039675001818]","[-0.026750000193715096, 0.05299999937415123, 0.03999999910593033]","[0.0, -0.0, 0.578703954680781]","[-0.06612963229417801, 0.1132763996720314, 0.03999999910593033]","[0.0, 0.0, -0.2277255222772562]","[0.026750000193715096, 0.05299999937415123, 0.03999999910593033]","[0.0, 0.0, -0.4785761195273407]","[0.059907130897045135, 0.1169109120965004, 0.03999999910593033]","[0.0, -0.0, 0.32769478431518206]",0.5812367465089395,0.6078692369486216,"(0.0, 0.0, 0.0, 0.0, 0.0, 0.0)",-0.09430913699383435,-0.8064183757532712,0.0026551625477906687,"(0.0, 0.0, 0.0, 0.0, 0.0, 0.0)",-0.007236495879839386,-0.47611760038111134,0.5900432530526795,"(0.0, 0.0, 0.0, 0.0, 0.0, 0.0)",0.3079922633184605,0.8062387204278879,-0.007719557612504023,"(0.0, 0.0, 0.0, 0.0, 0.0, 0.0)",0.2132736461754568,True,"(-0.03813166575035257, 0.18215839060866826, 0.05600089131120466)","(0.9910073468073493, 0.1338045047535298, 0.000890551245434034)",-8.10863331226785e-05,0.018095332427007487,True,"(0.025289918576585003, 0.18169068605166167, 0.023999108672851092)","(-0.9910081971844928, -0.133798206278043, -0.0008905671896816165)",-3.273804839524813e-05,3.1081122708129483
89,Move,"(-0.027100000000000003, 0.0, -0.034)","(0.0, 0.08996648695255173, 0.0)","(-0.004632872303175726, 0.16342202665311126, 0.048575422730535965)","(-0.002144738706532403, -0.0007461829841123908, 0.13792829730162212)","[-0.014631698901897892, 0.003394284131181813, 0.001024863716318332]","[-0.026750000193715096, 0.05299999937415123, 0.03999999910593033]","[0.0, -0.0, 0.5812367720981474]","[-0.06628217548131943, 0.11317646503448486, 0.03999999910593033]","[0.0, 0.0, -0.22518165396644949]","[0.026750000193715096, 0.05299999937415123, 0.03999999910593033]","[0.0, 0.0, -0.47611761201885]","[0.05974990501999855, 0.11699223518371582, 0.03999999910593033]","[0.0, -0.0, 0.3301211012271252]",0.5845520578977699,0.7956747333192782,"(0.0, 0.0, 0.0, 0.0, 0.0, 0.0)",0.1856713809750109,-0.8063031366481255,0.0276573852349736,"(0.0, 0.0, 0.0, 0.0, 0.0, 0.0)",-0.018731031478030173,-0.4727619818346678,0.8053484511464557,"(0.0, 0.0, 0.0, 0.0, 0.0, 0.0)",1.8336084671498447,0.8060227454117811,-0.051834003865623514,"(0.0, 0.0, 0.0, 0.0, 0.0, 0.0)",0.871118647980224,True,"(-0.03845935961265085, 0.18212826744621463, 0.056000820664678284)","(0.9908267652742632, 0.13513566876436342, 0.0008199047190575874)",-7.558305734816147e-05,0.6978946138120703,True,"(0.024902739674761323, 0.1822192939050414, 0.023999171079179548)","(-0.9908267559563293, -0.13513568673982657, -0.0008281608612306176)",-3.149063849805039e-05,11.996443373402673
90,Move,"(-0.0268, 0.0, -0.0349)","(0.0, 0.09839817256893633, 0.0)","(-0.0049956266326832525, 0.16336590632912593, 0.0485433885465249)","(-7.430412683092539e-05, -0.00045179207167090355, 0.13891644056885846)","[-0.014994453231405417, 0.0033381638071964814, 0.0009928295323072683]","[-0.026750000193715096, 0.05299999937415123, 0.03999999910593033]","[0.0, -0.0, 0.5845520749622252]","[-0.06648146361112595, 0.11304507404565811, 0.03999999910593033]","[0.0, 0.0, -0.2217510812648182]","[0.026750000193715096, 0.05299999937415123, 0.03999999910593033]","[0.0, 0.0, -0.4727619558168065]","[0.059534989297389984, 0.11710260808467865, 0.03999999910593033]","[0.0, -0.0, 0.33326076230344837]",0.5875813086464964,0.72702017969436,"(0.0, 0.0, 0.0, 0.0, 0.0, 0.0)",-0.31763955117901,-0.8062102182615714,0.022300412772982454,"(0.0, 0.0, 0.0, 0.0, 0.0, 0.0)",-0.11500796777258333,-0.469677996951767,0.7401563718961957,"(0.0, 0.0, 0.0, 0.0, 0.0, 0.0)",0.39985789716100517,0.8058800534595605,-0.03424606853294958,"(0.0, 0.0, 0.0, 0.0, 0.0, 0.0)",0.26643918859195814,True,"(-0.03889520626592926, 0.18209087455590525, 0.05600074694287409)","(0.9905026871233663, 0.1374913452274301, 0.0007461829148656681)",-7.241190068472097e-05,0.03467565667691977,True,"(0.024483040403696567, 0.18222110484607842, 0.023999236107823986)","(-0.9905026694558478, -0.1374913794754387, -0.0007631322167896811)",-3.123810228254921e-05,2.5947429810303526
91,Move,"(-0.0265, 0.0, -0.0361)","(0.0, 0.09839817256893633, 0.0)","(-0.005353277744407928, 0.16329287337251794, 0.04845774841959575)","(0.0037162727546764473, -0.0002234437017744287, 0.13945597320039696)","[-0.015352104343130092, 0.0032651308505884935, 0.0009071894053781157]","[-0.026750000193715096, 0.05299999937415123, 0.03999999910593033]","[0.0, -0.0, 0.5875812647443232]","[-0.06666316837072372, 0.11292444169521332, 0.03999999910593033]","[0.0, 0.0, -0.21862888601609312]","[0.026750000193715096, 0.05299999937415123, 0.03999999910593033]","[0.0, 0.0, -0.4696779817160201]","[0.05933713912963867, 0.11720341444015503, 0.03999999910593033]","[0.0, -0.0, 0.3362020696836009]",0.5904743077567468,0.6943197864601095,"(0.0, 0.0, 0.0, 0.0, 0.0, 0.0)",-0.3334686575206131,-0.8060706004677699,0.03350827051234151,"(0.0, 0.0, 0.0, 0.0, 0.0, 0.0)",-0.15560405470413763,-0.466688206897155,0.7175496131068697,"(0.0, 0.0, 0.0, 0.0, 0.0, 0.0)",0.6100269958494027,0.8057107425024206,-0.04063462971356992,"(0.0, 0.0, 0.0, 0.0, 0.0, 0.0)",0.33385180869963477,True,"(-0.03929232412170332, 0.18205392184495897, 0.05600045255201552)","(0.9903665170593412, 0.13847006092180167, 0.00045179205630079157)",-6.179894627154605e-05,0.37111715928207645,True,"(0.02405560252453231, 0.18248516033240564, 0.02399954744798447)","(-0.9903665170593424, -0.13847006092179262, -0.0004517920563045657)",-2.927990494584179e-05,2.2382696938457642
92,Move,"(-0.0267, 0.0, -0.0368)","(0.0, 0.10333396369357628, 0.0)","(-0.00566146731837064, 0.16324611527904284, 0.048481391438605755)","(0.0034120095009780986, 0.0003781844742323975, 0.14142375674068242)","[-0.015660293917092803, 0.003218372757113397, 0.0009308324243881214]","[-0.026750000193715096, 0.05299999937415123, 0.03999999910593033]","[0.0, -0.0, 0.590474280341394]","[-0.06683636456727982, 0.1128087192773819, 0.03999999910593033]","[0.0, 0.0, -0.21559628055274388]","[0.026750000193715096, 0.05299999937415123, 0.03999999910593033]","[0.0, 0.0, -0.46668825239416156]","[0.059145040810108185, 0.11730055510997772, 0.03999999910593033]","[0.0, -0.0, 0.33902253835046453]",0.593237613467599,0.6631933706045053,"(0.0, 0.0, 0.0, 0.0, 0.0, 0.0)",-0.5814206343512167,-0.8058948451013511,0.04218128794050341,"(0.0, 0.0, 0.0, 0.0, 0.0, 0.0)",-0.24799949861907516,-0.46384099837892023,0.6833300443763448,"(0.0, 0.0, 0.0, 0.0, 0.0, 0.0)",1.0973251007408478,0.8053068167017438,-0.09694219216244071,"(0.0, 0.0, 0.0, 0.0, 0.0, 0.0)",0.6856666983492347,True,"(-0.0396749372780669, 0.18201842131782334, 0.05600022420365914)","(0.9902917401470533, 0.13900438651148433, 0.0002234436999160832)",-5.316277444665888e-05,0.0,True,"(0.02367919749986662, 0.18248479000211398, 0.02399977579634086)","(-0.9902917401470536, -0.1390043865114806, -0.00022344369991529205)",-2.4084048234229956e-05,3.1465112134576265
