OSUrobotics/InHand-Manipulation/AnalyseData/Data/Trial Data/Better/new_hand_expected_exp_2v2_d_n_1_kpNone_kdNone_dp5_step5_save_data.csv
,Phase,human_cube_pos,human_cube_orn,Cube_Pos,Cube_Orn,Cube_pos_in_start_pos,b'l_prox_pin'_link_pos,b'l_prox_pin'_link_orn,b'l_distal_pin'_link_pos,b'l_distal_pin'_link_orn,b'r_prox_pin'_link_pos,b'r_prox_pin'_link_orn,b'r_distal_pin'_link_pos,b'r_distal_pin'_link_orn,b'l_prox_pin'_joint_angle,b'l_prox_pin'_joint_vel,b'l_prox_pin'_joint_react_forces,b'l_prox_pin'_joint_motor_torque,b'l_distal_pin'_joint_angle,b'l_distal_pin'_joint_vel,b'l_distal_pin'_joint_react_forces,b'l_distal_pin'_joint_motor_torque,b'r_prox_pin'_joint_angle,b'r_prox_pin'_joint_vel,b'r_prox_pin'_joint_react_forces,b'r_prox_pin'_joint_motor_torque,b'r_distal_pin'_joint_angle,b'r_distal_pin'_joint_vel,b'r_distal_pin'_joint_react_forces,b'r_distal_pin'_joint_motor_torque,in_contact_l,contact_point_l_dist,contact_normal_l_dist,contact_distance_l_dist,contact_norm_force_l_dist,in_contact_r,contact_point_r_dist,contact_normal_r_dist,contact_distance_r_dist,contact_norm_force_r_dist
0,Open,,,,,,"[-0.026750000193715096, 0.05299999937415123, 0.03999999910593033]","[0.0, -0.0, 0.4254700097131474]","[-0.056467924267053604, 0.11858082562685013, 0.03999999910593033]","[0.0, -0.0, 0.4254700097131474]","[0.026750000193715096, 0.05299999937415123, 0.03999999910593033]","[0.0, 0.0, -0.4429245237535421]","[0.057608019560575485, 0.1180521547794342, 0.03999999910593033]","[0.0, 0.0, -0.5266622746639338]",0.5399229999999999,27.46872,"(0.0, 0.0, 0.0, 0.0, 0.0, 0.0)",-4.377393708535371,5.294901130302062e-32,0.0,"(0.0, 0.0, 0.0, 0.0, 0.0, 0.0)",-0.30017707799641646,-0.5623038734984663,-28.651050680519948,"(0.0, 0.0, 0.0, 0.0, 0.0, 0.0)",144.45470973647488,-0.10456727132876567,-4.999096204557077,"(0.0, 0.0, 0.0, 0.0, 0.0, 0.0)",33.97911746732963,False,,,,,False,,,,
1,Open,,,,,,"[-0.026750000193715096, 0.05299999937415123, 0.03999999910593033]","[0.0, -0.0, 0.894166469119967]","[-0.08288749307394028, 0.09808415919542313, 0.03999999910593033]","[0.0, -0.0, 0.894166894674561]","[0.026750000193715096, 0.05299999937415123, 0.03999999910593033]","[0.0, 0.0, -0.9122733503889549]","[0.08369457721710205, 0.09706035256385803, 0.03999999910593033]","[0.0, 0.0, -0.9997066729229968]",0.96174983227,16.220004472800003,"(0.0, 0.0, 0.0, 0.0, 0.0, 0.0)",-2.5959652512206968,5.681494863714967e-07,3.553320838026869e-05,"(0.0, 0.0, 0.0, 0.0, 0.0, 0.0)",-0.18114955764248034,-0.9780460127037736,-15.785439661232708,"(0.0, 0.0, 0.0, 0.0, 0.0, 0.0)",2.503992476159733,-0.0786900142246732,2.098357403184359,"(0.0, 0.0, 0.0, 0.0, 0.0, 0.0)",0.15360133560797545,False,,,,,False,,,,
2,Open,,,,,,"[-0.026750000193715096, 0.05299999937415123, 0.03999999910593033]","[0.0, -0.0, 1.170927100750299]","[-0.09307006001472473, 0.08102945238351822, 0.03999999910593033]","[0.0, -0.0, 1.1709279927689973]","[0.026750000193715096, 0.05299999937415123, 0.03999999910593033]","[0.0, 0.0, -1.181618964677462]","[0.09336595237255096, 0.08031877130270004, 0.03999999910593033]","[0.0, 0.0, -1.233247876832181]",1.2108343584571122,9.577750441143678,"(0.0, 0.0, 0.0, 0.0, 0.0, 0.0)",-1.5367816122769582,9.012180617793662e-07,6.275974057005224e-06,"(0.0, 0.0, 0.0, 0.0, 0.0, 0.0)",-0.1083256720668905,-1.2204570900414513,-9.3211442655613,"(0.0, 0.0, 0.0, 0.0, 0.0, 0.0)",1.4819475463743526,-0.046466145575958295,1.239071567699341,"(0.0, 0.0, 0.0, 0.0, 0.0, 0.0)",0.09166748660725833,False,,,,,False,,,,
3,Open,,,,,,"[-0.026750000193715096, 0.05299999937415123, 0.03999999910593033]","[0.0, -0.0, 1.334351465706577]","[-0.09674673527479172, 0.06986585259437561, 0.03999999910593033]","[0.0, -0.0, 1.33435435145599]","[0.026750000193715096, 0.05299999937415123, 0.03999999910593033]","[0.0, 0.0, -1.3406650641721125]","[0.09685182571411133, 0.06942359358072281, 0.03999999910593033]","[0.0, 0.0, -1.3711530696282732]",1.3579162851496,5.655565729344001,"(0.0, 0.0, 0.0, 0.0, 0.0, 0.0)",-0.9088150211252332,3.4316066113876724e-06,0.0001607445165674468,"(0.0, 0.0, 0.0, 0.0, 0.0, 0.0)",-0.06444344013525093,-1.3635984108023202,-5.504042378604797,"(0.0, 0.0, 0.0, 0.0, 0.0, 0.0)",0.8762522980402716,-0.02744024570882781,0.7315266716392431,"(0.0, 0.0, 0.0, 0.0, 0.0, 0.0)",0.05446985052483407,False,,,,,False,,,,
4,Open,,,,,,"[-0.026750000193715096, 0.05299999937415123, 0.03999999910593033]","[0.0, -0.0, 1.4308518944899675]","[-0.09804610908031464, 0.06304314732551575, 0.03999999910593033]","[0.0, -0.0, 1.4308566269594332]","[0.026750000193715096, 0.05299999937415123, 0.03999999910593033]","[0.0, 0.0, -1.4345798203875788]","[0.09808305650949478, 0.06277728080749512, 0.03999999910593033]","[0.0, 0.0, -1.4525855975984745]",1.4447666872179874,3.339555007520341,"(0.0, 0.0, 0.0, 0.0, 0.0, 0.0)",-0.5371183361845069,4.8269553674989e-06,2.0878160072459843e-05,"(0.0, 0.0, 0.0, 0.0, 0.0, 0.0)",-0.03821759960562203,-1.448121925594662,-3.2500819841423465,"(0.0, 0.0, 0.0, 0.0, 0.0, 0.0)",0.5178266556878065,-0.016205556838873442,0.4320218239148067,"(0.0, 0.0, 0.0, 0.0, 0.0, 0.0)",0.0322808466635012,False,,,,,False,,,,
5,Open,,,,,,"[-0.026750000193715096, 0.05299999937415123, 0.03999999910593033]","[0.0, -0.0, 1.487834617901085]","[-0.09850236773490906, 0.05896640568971634, 0.03999999910593033]","[0.0, -0.0, 1.4878390921106803]","[0.026750000193715096, 0.05299999937415123, 0.03999999910593033]","[0.0, 0.0, -1.4900358577435544]","[0.09851532429456711, 0.05880843847990036, 0.03999999910593033]","[0.0, 0.0, -1.5006695807985118]",1.4960509811353493,1.9719738363906854,"(0.0, 0.0, 0.0, 0.0, 0.0, 0.0)",-0.3173274216127963,4.509251873886308e-06,-3.168767150011037e-05,"(0.0, 0.0, 0.0, 0.0, 0.0, 0.0)",-0.022624215793833224,-1.498032215844392,-1.9191409108162163,"(0.0, 0.0, 0.0, 0.0, 0.0, 0.0)",0.30591369390909257,-0.00957062017308593,0.2551417656412126,"(0.0, 0.0, 0.0, 0.0, 0.0, 0.0)",0.019102112305110365,False,,,,,False,,,,
6,Open,,,,,,"[-0.026750000193715096, 0.05299999937415123, 0.03999999910593033]","[0.0, -0.0, 1.5214821319654974]","[-0.09866246581077576, 0.05654918774962425, 0.03999999910593033]","[0.0, -0.0, 1.5214858439169519]","[0.026750000193715096, 0.05299999937415123, 0.03999999910593033]","[0.0, 0.0, -1.5227821585534602]","[0.09866702556610107, 0.05645570904016495, 0.03999999910593033]","[0.0, 0.0, -1.529061933448946]",1.5263338438506127,1.164430830650334,"(0.0, 0.0, 0.0, 0.0, 0.0, 0.0)",-0.18743587261192823,3.6440993970645793e-06,-4.480530101024996e-05,"(0.0, 0.0, 0.0, 0.0, 0.0, 0.0)",-0.013379159967550349,-1.527503743133955,-1.1332335164278682,"(0.0, 0.0, 0.0, 0.0, 0.0, 0.0)",0.18068846528573543,-0.005652184024362593,0.1506807000213291,"(0.0, 0.0, 0.0, 0.0, 0.0, 0.0)",0.011293655891939093,False,,,,,False,,,,
7,Close,,,"(0.010000824637423049, 0.16001319418745247, 0.017848014970055004)","(-0.00026934863811186216, 1.6834304115272585e-05, -2.2671484573282825e-09)",,"[-0.026750000193715096, 0.05299999937415123, 0.03999999910593033]","[0.0, -0.0, 1.2784808254221978]","[-0.09569569677114487, 0.07374827563762665, 0.03999999910593033]","[0.0, -0.0, 1.034582661993943]","[0.026750000193715096, 0.05299999937415123, 0.03999999910593033]","[0.0, 0.0, -1.2792482299640686]","[0.0957116037607193, 0.0736953467130661, 0.03999999910593033]","[0.0, 0.0, -1.0390562259147462]",1.210632571455348,-16.283535238809286,"(0.0, 0.0, 0.0, 0.0, 0.0, 0.0)",2.771136716181199,-0.3095085607892871,-15.746535439217235,"(0.0, 0.0, 0.0, 0.0, 0.0, 0.0)",0.3469037989659341,-1.211323385283169,16.3019569408845,"(0.0, 0.0, 0.0, 0.0, 0.0, 0.0)",-2.7749564531312414,0.30617317599991634,15.835479338328643,"(0.0, 0.0, 0.0, 0.0, 0.0, 0.0)",-0.3479929302165593,False,,,,,False,,,,
8,Close,,,"(0.010001648057231211, 0.16002636889308344, 0.03133184175509247)","(-0.0005384699893107284, 3.3654401557527444e-05, -9.06094284338731e-09)",,"[-0.026750000193715096, 0.05299999937415123, 0.03999999910593033]","[0.0, -0.0, 1.0006360422079206]","[-0.08736064285039902, 0.0918632224202156, 0.03999999910593033]","[0.0, -0.0, 0.4880565025715103]","[0.026750000193715096, 0.05299999937415123, 0.03999999910593033]","[0.0, 0.0, -1.001089448203126]","[0.08737824857234955, 0.09183574467897415, 0.03999999910593033]","[0.0, 0.0, -0.49069812233338583]",0.9605724271186684,-9.615264723164493,"(0.0, 0.0, 0.0, 0.0, 0.0, 0.0)",1.6441783201079794,-0.5513218025251249,-9.298144061583436,"(0.0, 0.0, 0.0, 0.0, 0.0, 0.0)",0.21014173445603831,-0.9609803457758583,9.626142554022893,"(0.0, 0.0, 0.0, 0.0, 0.0, 0.0)",-1.6464751946207798,0.5493522946545342,9.350664461360347,"(0.0, 0.0, 0.0, 0.0, 0.0, 0.0)",-0.2108204377510729,False,,,,,False,,,,
9,Close,,,"(0.010002470404691093, 0.16003952644115657, 0.04045997120998789)","(-0.0008073642479911328, 5.0460303253361964e-05, -2.0369923505779015e-08)",,"[-0.026750000193715096, 0.05299999937415123, 0.03999999910593033]","[0.0, -0.0, 0.8365715799965936]","[-0.0801992267370224, 0.1012408509850502, 0.03999999910593033]","[0.0, -0.0, 0.16533874626364803]","[0.026750000193715096, 0.05299999937415123, 0.03999999910593033]","[0.0, 0.0, -0.8368392086626993]","[0.08021213859319687, 0.10122654587030411, 0.03999999910593033]","[0.0, 0.0, -0.1668985823484083]",0.8129144124893025,-5.677717666381402,"(0.0, 0.0, 0.0, 0.0, 0.0, 0.0)",0.9736078226475493,-0.6941096683608667,-5.490444078796776,"(0.0, 0.0, 0.0, 0.0, 0.0, 0.0)",0.12593397924105265,-0.8131552843771866,5.684140916724979,"(0.0, 0.0, 0.0, 0.0, 0.0, 0.0)",-0.9749785244213759,0.6929466958025952,5.521456795952681,"(0.0, 0.0, 0.0, 0.0, 0.0, 0.0)",-0.12634715317523504,False,,,,,False,,,,
10,Close,,,"(0.010003291824242136, 0.16005266914270105, 0.04523936165140331)","(-0.0010760316083767074, 6.725202012489063e-05, -3.618265319583079e-08)",,"[-0.026750000193715096, 0.05299999937415123, 0.03999999910593033]","[0.0, -0.0, 0.7396932119518481]","[-0.07528240978717804, 0.10618463158607483, 0.03999999910593033]","[0.0, 0.0, -0.025223688738047617]","[0.026750000193715096, 0.05299999937415123, 0.03999999910593033]","[0.0, 0.0, -0.7398511766938903]","[0.07529081404209137, 0.10617695748806, 0.03999999910593033]","[0.0, -0.0, 0.02430263317545323]",0.7257238314308083,-3.352635504821555,"(0.0, 0.0, 0.0, 0.0, 0.0, 0.0)",0.5758654822812497,-0.7784262532781683,-3.242260203768412,"(0.0, 0.0, 0.0, 0.0, 0.0, 0.0)",0.0750123771406224,-0.725866063871885,3.3564283699169333,"(0.0, 0.0, 0.0, 0.0, 0.0, 0.0)",-0.5766799137830688,0.7777395376647703,3.260573592131318,"(0.0, 0.0, 0.0, 0.0, 0.0, 0.0)",-0.0752606958188736,False,,,,,False,,,,
11,Close,,,"(0.009997966950406065, 0.16004795201914346, 0.046616050094935475)","(-0.0009640430328522325, -5.7324486097668704e-05, 4.2980615420070005e-09)",,"[-0.026750000193715096, 0.05299999937415123, 0.03999999910593033]","[0.0, -0.0, 0.682487397988505]","[-0.0721622109413147, 0.10887245088815689, 0.03999999910593033]","[0.0, 0.0, -0.13775029188859572]","[0.026750000193715096, 0.05299999937415123, 0.03999999910593033]","[0.0, 0.0, -0.6825807377410441]","[0.07216742634773254, 0.10886821150779724, 0.03999999910593033]","[0.0, -0.0, 0.1372064129763775]",0.6742386185346878,-1.979696494258342,"(0.0, 0.0, 0.0, 0.0, 0.0, 0.0)",0.34037467823530393,-0.8282145265472606,-1.9144534778819295,"(0.0, 0.0, 0.0, 0.0, 0.0, 0.0)",0.04449932044982575,-0.674322605213594,1.981936139029174,"(0.0, 0.0, 0.0, 0.0, 0.0, 0.0)",-0.3408573424145132,0.8278090365055835,1.9252671252731466,"(0.0, 0.0, 0.0, 0.0, 0.0, 0.0)",-0.04464739446319682,False,,,,,False,,,,
12,Close,,,"(0.009998679410322496, 0.16003066597344334, 0.0474253884764576)","(-0.0006112814540129935, -4.2805404436077314e-05, 1.9447426774393396e-07)",,"[-0.026750000193715096, 0.05299999937415123, 0.03999999910593033]","[0.0, -0.0, 0.6487079580530938]","[-0.07024932652711868, 0.11037428677082062, 0.03999999910593033]","[0.0, 0.0, -0.20419532625251113]","[0.026750000193715096, 0.05299999937415123, 0.03999999910593033]","[0.0, 0.0, -0.6487631098841893]","[0.07025248557329178, 0.11037188768386841, 0.03999999910593033]","[0.0, -0.0, 0.20387417727936794]",0.6438371618585478,-1.1689909828946077,"(0.0, 0.0, 0.0, 0.0, 0.0, 0.0)",0.20110328062585062,-0.8576133287829941,-1.1304144347684295,"(0.0, 0.0, 0.0, 0.0, 0.0, 0.0)",0.026365137971139978,-0.6438867551525752,1.1703134707353389,"(0.0, 0.0, 0.0, 0.0, 0.0, 0.0)",-0.20138889834359572,0.857373897412956,1.136799615752827,"(0.0, 0.0, 0.0, 0.0, 0.0, 0.0)",-0.026453134766811503,False,,,,,False,,,,
13,Close,,,"(0.008562352819313064, 0.15963169911231415, 0.04795936059784778)","(0.002880050037504477, -0.0018080766405500393, 0.027156574699580344)",,"[-0.026750000193715096, 0.05299999937415123, 0.03999999910593033]","[0.0, -0.0, 0.6287615983534538]","[-0.06909634172916412, 0.11123047024011612, 0.03999999910593033]","[0.0, 0.0, -0.24342883421715172]","[0.026750000193715096, 0.05299999937415123, 0.03999999910593033]","[0.0, 0.0, -0.6288059721302652]","[0.06909892708063126, 0.1112285852432251, 0.03999999910593033]","[0.0, -0.0, 0.24295585513718987]",0.6258854057058539,-0.6902774854894381,"(0.0, 0.0, 0.0, 0.0, 0.0, 0.0)",0.11878846609148704,-0.8749713231347032,-0.6674313830745814,"(0.0, 0.0, 0.0, 0.0, 0.0, 0.0)",0.015594191474811038,-0.6259255556368085,0.6912982329409242,"(0.0, 0.0, 0.0, 0.0, 0.0, 0.0)",0.23889456753769728,0.8745816224765113,0.6767593625972839,"(0.0, 0.0, 0.0, 0.0, 0.0, 0.0)",0.18939691443679915,False,,,,,True,"(0.040048198705117485, 0.17954190147604243, 0.02399995236517949)","(-0.9999968496142797, -0.00250969405768167, -4.6874861287478436e-05)",-8.481535683957195e-06,2.863336982423626
14,Move,,,"(0.003226703519616097, 0.15887842572556865, 0.048057042824217085)","(0.00733137607255103, 0.004060605831319912, 0.12411081910370701)","[0.0, 0.0, 0.0]","[-0.026750000193715096, 0.05299999937415123, 0.03999999910593033]","[0.0, -0.0, 0.5601465041237582]","[-0.06500434130430222, 0.11399676650762558, 0.03999999910593033]","[0.0, 0.0, -0.31665092698218517]","[0.026750000193715096, 0.05299999937415123, 0.03999999910593033]","[0.0, 0.0, -0.5704848668453074]","[0.0656328946352005, 0.11359802633523941, 0.03999999910593033]","[0.0, -0.0, 0.3056114929739557]",0.5446837312064112,-3.7110582962534506,"(0.0, 0.0, 0.0, 0.0, 0.0, 0.0)",-53.09089974488294,-0.8536776571297426,5.5487419201507295,"(0.0, 0.0, 0.0, 0.0, 0.0, 0.0)",-27.521806933097807,-0.5577558572400253,3.0549589579805563,"(0.0, 0.0, 0.0, 0.0, 0.0, 0.0)",39.845640952717,0.8551826533669656,-5.0192908628628805,"(0.0, 0.0, 0.0, 0.0, 0.0, 0.0)",19.520428399002,True,"(-0.031006456029053206, 0.18019920383377602, 0.023994329638221932)","(0.9922239401206523, 0.12433627092149606, -0.005669601818851313)",-0.0005148038489068186,428.5206410406488,True,"(0.03236246380961459, 0.17994971919477992, 0.023997959838382148)","(-0.9993845697424365, -0.035018889211399305, -0.00203940165862912)",0.0005577664042068458,310.72647358115125
15,Move,"(0.0, 0.0, 0.0)","(0.0, -0.0, 0.0)","(0.003504402033646404, 0.1613948858976077, 0.04817079317234074)","(-0.01182613504509735, 0.002137449988488053, 0.11742566033651587)","[0.00027769851403030687, 0.002516460172039048, 0.00011375034812365764]","[-0.026750000193715096, 0.05299999937415123, 0.03999999910593033]","[0.0, -0.0, 0.5308887471047733]","[-0.0632035955786705, 0.11508973687887192, 0.03999999910593033]","[0.0, 0.0, -0.30561217044041405]","[0.026750000193715096, 0.05299999937415123, 0.03999999910593033]","[0.0, 0.0, -0.5530530160976456]","[0.06457070261240005, 0.11426658928394318, 0.03999999910593033]","[0.0, -0.0, 0.28633845186065504]",0.5308886342742289,-2.743219973176496e-05,"(0.0, 0.0, 0.0, 0.0, 0.0, 0.0)",-1.479968393802807,-0.8377176048323264,-0.292020181278713,"(0.0, 0.0, 0.0, 0.0, 0.0, 0.0)",-0.7628834231627771,-0.5548130719939204,-0.42243279192450156,"(0.0, 0.0, 0.0, 0.0, 0.0, 0.0)",0.8255153500339152,0.8405146749784174,0.2695910008350374,"(0.0, 0.0, 0.0, 0.0, 0.0, 0.0)",0.4581689805558429,True,"(-0.02993623661702797, 0.18164521985802554, 0.02399768538251049)","(0.9931207992795509, 0.11707144870409551, -0.0023138575302940555)",-0.0007845701781099983,10.805815356635755,True,"(0.03269094966236777, 0.18010672723331056, 0.05600231461748951)","(-0.9931207992795511, -0.11707144870409283, 0.002313857530288821)",-0.00014723643191122778,5.690113724073641
16,Move,"(0.005063291139240506, 0.0, -0.005063291139240506)","(0.0, -0.0, 0.0)","(0.004481905969039172, 0.1616509801317827, 0.04849451925435117)","(-0.009515980192851764, 0.0014605026154034424, 0.10913339641820227)","[0.0012552024494230751, 0.002772554406214045, 0.0004374764301340872]","[-0.026750000193715096, 0.05299999937415123, 0.03999999910593033]","[0.0, -0.0, 0.5245557193501018]","[-0.06280965358018875, 0.11531934887170792, 0.03999999910593033]","[0.0, 0.0, -0.31285787732248477]","[0.026750000193715096, 0.05299999937415123, 0.03999999910593033]","[0.0, 0.0, -0.5623284741274192]","[0.0651373416185379, 0.1139131486415863, 0.03999999910593033]","[0.0, -0.0, 0.2780441204688268]",0.5228507452461294,-0.4091927222425407,"(0.0, 0.0, 0.0, 0.0, 0.0, 0.0)",-1.032297152707652,-0.8370565304611607,0.08569034905201625,"(0.0, 0.0, 0.0, 0.0, 0.0, 0.0)",-0.5621342357250902,-0.5639230992368093,-0.38271789670938117,"(0.0, 0.0, 0.0, 0.0, 0.0, 0.0)",0.5688106717003076,0.8400912149282384,-0.06751939169015823,"(0.0, 0.0, 0.0, 0.0, 0.0, 0.0)",0.2694896817587328,True,"(-0.029061070194515773, 0.1816333639736538, 0.023998423724838482)","(0.9937975227044119, 0.11119353226883967, -0.0015755152023014555)",-0.0005399776463222379,8.475080195028733,True,"(0.03380504410287845, 0.18001308100020091, 0.05600157627516151)","(-0.9937975227044121, -0.11119353226883706, 0.0015755152022940337)",-8.842033502144513e-05,3.303677088567171
17,Move,"(0.010126582278481011, 0.0, -0.010126582278481011)","(0.0, -0.0, 0.0)","(0.005633050044921729, 0.16180273172295223, 0.04856349985282601)","(-0.004161405191414867, -0.00019351514150800706, 0.08701192338450754)","[0.002406346525305632, 0.0029243059973835805, 0.0005064570286089226]","[-0.026750000193715096, 0.05299999937415123, 0.03999999910593033]","[0.0, -0.0, 0.5130178381920317]","[-0.06208823621273041, 0.11573124676942825, 0.03999999910593033]","[0.0, 0.0, -0.3235775406219994]","[0.026750000193715096, 0.05299999937415123, 0.03999999910593033]","[0.0, 0.0, -0.5738545460036047]","[0.06583686172962189, 0.11346666514873505, 0.03999999910593033]","[0.0, -0.0, 0.26595976236026625]",0.5107830681959903,-0.536350352274141,"(0.0, 0.0, 0.0, 0.0, 0.0, 0.0)",-0.28329765187411454,-0.8366206877297656,-0.0060636966873229715,"(0.0, 0.0, 0.0, 0.0, 0.0, 0.0)",-0.19492766724917324,-0.5761391604868731,-0.5483312049586097,"(0.0, 0.0, 0.0, 0.0, 0.0, 0.0)",0.11040092058966622,0.8398135869602048,-0.00015866284990921284,"(0.0, 0.0, 0.0, 0.0, 0.0, 0.0)",0.018890261434104133,True,"(-0.027630499952207843, 0.18167727831470926, 0.023999226205574355)","(0.9943284268349927, 0.10635027976250266, -0.0007730344664312742)",-0.000324625634297969,1.2883460437658139,True,"(0.035305481202815625, 0.17994161520010976, 0.056000773794425654)","(-0.994328426834993, -0.10635027976250051, 0.0007730344664311044)",-6.3286215223118595e-06,0.0
18,Move,"(0.01518987341772152, 0.0, -0.01518987341772152)","(0.0, -0.0, 0.0)","(0.007249720943360404, 0.16168781338585117, 0.04845125877564339)","(0.0031251410822071466, -0.0006648085497811627, 0.06559780648694961)","[0.004023017423744307, 0.0028093876602825196, 0.00039421595142630217]","[-0.026750000193715096, 0.05299999937415123, 0.03999999910593033]","[0.0, -0.0, 0.4982421981911363]","[-0.06115751713514328, 0.11624652147293091, 0.03999999910593033]","[0.0, 0.0, -0.3381262990477356]","[0.026750000193715096, 0.05299999937415123, 0.03999999910593033]","[0.0, 0.0, -0.5889970554492489]","[0.06674796342849731, 0.11286787688732147, 0.03999999910593033]","[0.0, -0.0, 0.2506690728502367]",0.4954041959107672,-0.681118017327762,"(0.0, 0.0, 0.0, 0.0, 0.0, 0.0)",0.08910465216610114,-0.8363924594273754,-0.005762590561296985,"(0.0, 0.0, 0.0, 0.0, 0.0, 0.0)",-0.003339174736637108,-0.5918988187756741,-0.6964425750979331,"(0.0, 0.0, 0.0, 0.0, 0.0, 0.0)",0.11208404005245626,0.8396807982964487,0.0035410310334951234,"(0.0, 0.0, 0.0, 0.0, 0.0, 0.0)",0.007968275120836513,True,"(-0.025743341424025137, 0.18167561076354433, 0.02399926686817858)","(0.9966644020411685, 0.08160596384686208, -0.0007323718622015632)",-0.0001846020769904277,0.0,True,"(0.03723593821489977, 0.17980980175712685, 0.05600073313182142)","(-0.9966644020411691, -0.08160596384685564, 0.0007323718622034257)",3.2447067400853436e-05,0.0
19,Move,"(0.020253164556962026, 0.0, -0.020253164556962026)","(0.0, -0.0, 0.0)","(0.009209098162663115, 0.161764510410162, 0.04857133463834964)","(0.0006323512469449494, 0.00238386849410899, 0.040073666604540766)","[0.005982394643047017, 0.0028860846845933374, 0.0005142918141325531]","[-0.026750000193715096, 0.05299999937415123, 0.03999999910593033]","[0.0, -0.0, 0.48016748590468444]","[-0.06000879779458046, 0.11685806512832642, 0.03999999910593033]","[0.0, 0.0, -0.35614393437761616]","[0.026750000193715096, 0.05299999937415123, 0.03999999910593033]","[0.0, 0.0, -0.6071491196529814]","[0.06782804429531097, 0.1121320053935051, 0.03999999910593033]","[0.0, -0.0, 0.232512209889773]",0.4767539093230944,-0.8192603043284192,"(0.0, 0.0, 0.0, 0.0, 0.0, 0.0)",0.1301038599488923,-0.8363201967402967,-0.0021072454946092604,"(0.0, 0.0, 0.0, 0.0, 0.0, 0.0)",0.008389178967537951,-0.6105475067927942,-0.8156180631249442,"(0.0, 0.0, 0.0, 0.0, 0.0, 0.0)",0.15704534455210287,0.8396740533625144,0.0030556473076021875,"(0.0, 0.0, 0.0, 0.0, 0.0, 0.0)",0.022385268247393068,True,"(-0.023420928094142673, 0.1816261158586806, 0.023997571322570375)","(0.9990008000319227, 0.044626301127649114, -0.002427917470407333)",-0.00013762661755429466,0.0,True,"(0.03953566089364469, 0.17961077537964765, 0.056002428677429626)","(-0.9990008000319226, -0.044626301127649724, 0.002427917470408133)",-1.0333151455637002e-05,0.1832768969946898
20,Move,"(0.02531645569620253, 0.0, -0.02531645569620253)","(0.0, -0.0, 0.0)","(0.011306281552236872, 0.16198694945058933, 0.0486249772861501)","(-0.0006196476126739141, -0.0003074293361323163, 0.00619145238645975)","[0.008079578032620775, 0.0031085237250206843, 0.0005679344619330187]","[-0.026750000193715096, 0.05299999937415123, 0.03999999910593033]","[0.0, -0.0, 0.45895266347628605]","[-0.05864667892456055, 0.11754921823740005, 0.03999999910593033]","[0.0, 0.0, -0.3773018518919241]","[0.026750000193715096, 0.05299999937415123, 0.03999999910593033]","[0.0, 0.0, -0.6278789682172612]","[0.06904493272304535, 0.1112678200006485, 0.03999999910593033]","[0.0, -0.0, 0.2117898744703698]",0.45499103863408424,-0.950794913263393,"(0.0, 0.0, 0.0, 0.0, 0.0, 0.0)",-0.10959973483620133,-0.8362341826293931,0.004888210550322583,"(0.0, 0.0, 0.0, 0.0, 0.0, 0.0)",-0.1339575146920932,-0.6317193182395675,-0.9216822590081912,"(0.0, 0.0, 0.0, 0.0, 0.0, 0.0)",0.16274306581613562,0.8396525029527387,-0.003914563414058199,"(0.0, 0.0, 0.0, 0.0, 0.0, 0.0)",0.017470428269534877,True,"(-0.020696629507171417, 0.181523454926401, 0.02399898163731933)","(0.9996206466873915, 0.02752321203970337, -0.0010176027214528528)",-3.905734987445099e-05,2.0196329478073376,True,"(0.042152394930815525, 0.17956503610352556, 0.056001018361728834)","(-0.9996209251300422, -0.02751309740463742, 0.0010176017696189243)",2.7640221665044304e-05,0.0
21,Move,"(0.03037974683544304, 0.0, -0.03037974683544304)","(0.0, -0.0, 0.0)","(0.014017106759378525, 0.1619502915887793, 0.04865137023218846)","(0.0009437709570862475, -0.00047565470493258463, -0.013696598958294549)","[0.010790403239762427, 0.003071865863210649, 0.0005943274079713776]","[-0.026750000193715096, 0.05299999937415123, 0.03999999910593033]","[0.0, -0.0, 0.43467626658865455]","[-0.057070404291152954, 0.11830446124076843, 0.03999999910593033]","[0.0, 0.0, -0.4002084591472874]","[0.026750000193715096, 0.05299999937415123, 0.03999999910593033]","[0.0, 0.0, -0.6510064306673055]","[0.07038108259439468, 0.11027415841817856, 0.03999999910593033]","[0.0, -0.0, 0.1878171869516263]",0.4301746292199882,-1.0803759196609801,"(0.0, 0.0, 0.0, 0.0, 0.0, 0.0)",-1.0637692926523243,-0.8344509436207473,0.1040718212151395,"(0.0, 0.0, 0.0, 0.0, 0.0, 0.0)",-0.6759853681754439,-0.6552689904892638,-1.0230367891360448,"(0.0, 0.0, 0.0, 0.0, 0.0, 0.0)",1.0321642995420726,0.8385223276579495,-0.072285346065605,"(0.0, 0.0, 0.0, 0.0, 0.0, 0.0)",0.45881670247237927,True,"(-0.01766508614230121, 0.1813844261339311, 0.023999387066713857)","(0.9999648278601762, -0.0083647047996968, -0.00061217332692845)",-4.509133643656966e-05,4.7671260143428915,True,"(0.045138583648007116, 0.18005669592331525, 0.056000017386439414)","(-0.9999329791466423, 0.011577432292208303, 1.6626480193994285e-05)",-1.4293321169514938e-05,2.281391392296527
22,Move,"(0.03544303797468354, 0.0, -0.03544303797468354)","(0.0, -0.0, 0.0)","(0.01716888164823966, 0.1616067457322464, 0.04866411476992961)","(0.0015539502060395527, -5.047924476745297e-05, -0.023836555311383633)","[0.013942178128623563, 0.002728320006677748, 0.0006070719457125229]","[-0.026750000193715096, 0.05299999937415123, 0.03999999910593033]","[0.0, -0.0, 0.4076258885015168]","[-0.055293019860982895, 0.1191006526350975, 0.03999999910593033]","[0.0, 0.0, -0.4245701831095258]","[0.026750000193715096, 0.05299999937415123, 0.03999999910593033]","[0.0, 0.0, -0.6758875095025091]","[0.07179247587919235, 0.10917094349861145, 0.03999999910593033]","[0.0, -0.0, 0.16085002533922044]",0.40265683305651995,-1.1925689719960082,"(0.0, 0.0, 0.0, 0.0, 0.0, 0.0)",-1.6964127048382085,-0.8316286854292324,0.13615186878268434,"(0.0, 0.0, 0.0, 0.0, 0.0, 0.0)",-0.9325881397674753,-0.6804016726489218,-1.0833907528650801,"(0.0, 0.0, 0.0, 0.0, 0.0, 0.0)",1.529479365544392,0.8362644945665764,-0.11353711757388071,"(0.0, 0.0, 0.0, 0.0, 0.0, 0.0)",0.7319999871389121,True,"(-0.01436237195784007, 0.18121658804904023, 0.02399991399989585)","(0.9997420180055171, -0.02271321572067535, -8.524014492963493e-05)",-4.739425740224783e-05,13.708772088670477,True,"(0.048404140452701944, 0.17849797564153938, 0.05600008600010415)","(-0.9997420180055172, 0.022713215720675976, 8.5240144935055e-05)",-1.726542302947316e-05,9.887128000933458
23,Move,"(0.04050632911392405, 0.0, -0.04050632911392405)","(0.0, -0.0, 0.0)","(0.02055081702503221, 0.16122960743479886, 0.04868608698380769)","(0.0016861749289881006, -0.0005204708360335307, -0.031760765218898535)","[0.017324113505416114, 0.00235118170923021, 0.0006290441595906068]","[-0.026750000193715096, 0.05299999937415123, 0.03999999910593033]","[0.0, -0.0, 0.3781702219016015]","[-0.05333388224244118, 0.11991260945796967, 0.03999999910593033]","[0.0, 0.0, -0.44962859272876166]","[0.026750000193715096, 0.05299999937415123, 0.03999999910593033]","[0.0, 0.0, -0.7017768442437843]","[0.07323144376277924, 0.10798613727092743, 0.03999999910593033]","[0.0, -0.0, 0.13140388283853469]",0.3727825155797356,-1.2930508498996154,"(0.0, 0.0, 0.0, 0.0, 0.0, 0.0)",-2.518149000101762,-0.8270980847002891,0.16815349947367036,"(0.0, 0.0, 0.0, 0.0, 0.0, 0.0)",-1.3408462233622316,-0.7064374469128155,-1.1185498220975958,"(0.0, 0.0, 0.0, 0.0, 0.0, 0.0)",2.628823728091805,0.8323657502945893,-0.19559127085706612,"(0.0, 0.0, 0.0, 0.0, 0.0, 0.0)",1.384304656207188,True,"(-0.010859722713518094, 0.1809834964716529, 0.02399991399989585)","(0.9997420180055171, -0.02271321572067535, -8.524014492963493e-05)",-4.218014732990882e-05,20.03458819873533,True,"(0.05189436585288494, 0.17797170812384472, 0.05600008600010415)","(-0.9997420180055172, 0.022713215720675976, 8.5240144935055e-05)",4.152463463850129e-06,16.7839383888281
24,Move,"(0.04556962025316456, 0.0, -0.04556962025316456)","(0.0, -0.0, 0.0)","(0.024088348361645976, 0.16080043282331027, 0.04875141216281397)","(-0.0008054486290294363, -0.0007712390362207002, -0.04024161011013926)","[0.02086164484202988, 0.0019220070977416237, 0.0006943693385968869]","[-0.026750000193715096, 0.05299999937415123, 0.03999999910593033]","[0.0, -0.0, 0.3465152053635138]","[-0.05120280012488365, 0.12072046101093292, 0.03999999910593033]","[0.0, 0.0, -0.4756371321989886]","[0.026750000193715096, 0.05299999937415123, 0.03999999910593033]","[0.0, 0.0, -0.7282818604802849]","[0.07467235624790192, 0.1067349761724472, 0.03999999910593033]","[0.0, -0.0, 0.09960954376569156]",0.3407552563012664,-1.3823953159486047,"(0.0, 0.0, 0.0, 0.0, 0.0, 0.0)",-3.514703666169002,-0.8210516633628295,0.26418911054383964,"(0.0, 0.0, 0.0, 0.0, 0.0, 0.0)",-1.8227123554806055,-0.7330201594196343,-1.1371969631438958,"(0.0, 0.0, 0.0, 0.0, 0.0, 0.0)",3.234724981334267,0.8269970079803398,-0.21465007684426513,"(0.0, 0.0, 0.0, 0.0, 0.0, 0.0)",1.698222020126366,True,"(-0.007154809185230329, 0.18066611826514015, 0.02399991399989585)","(0.9997420180055171, -0.02271321572067535, -8.524014492963493e-05)",-5.137299751441378e-05,28.965359662363447,True,"(0.055570832001572666, 0.17736346140339043, 0.05600008600010415)","(-0.9997420180055172, 0.022713215720675976, 8.5240144935055e-05)",2.7118152457613554e-05,19.58566519313233
25,Move,"(0.05063291139240506, 0.0, -0.05063291139240506)","(0.0, -0.0, 0.0)","(0.02781068932831597, 0.1602473970897457, 0.04877510336351484)","(-0.00042986862471608347, -0.0006284609878246622, -0.046288975376466375)","[0.024583985808699874, 0.0013689713641770462, 0.0007180605392977588]","[-0.026750000193715096, 0.05299999937415123, 0.03999999910593033]","[0.0, -0.0, 0.3128082221949108]","[-0.04890669137239456, 0.12150606513023376, 0.03999999910593033]","[0.0, 0.0, -0.5020422175490546]","[0.026750000193715096, 0.05299999937415123, 0.03999999910593033]","[0.0, 0.0, -0.7551085358466839]","[0.07609647512435913, 0.10543019324541092, 0.03999999910593033]","[0.0, -0.0, 0.06611331606552807]",0.30668861260958125,-1.468710027453068,"(0.0, 0.0, 0.0, 0.0, 0.0, 0.0)",-4.560172723097004,-0.8133974193353103,0.3487133760116059,"(0.0, 0.0, 0.0, 0.0, 0.0, 0.0)",-2.30871998152067,-0.7598940231862392,-1.1485075708594692,"(0.0, 0.0, 0.0, 0.0, 0.0, 0.0)",4.1385887592920545,0.8200336624039499,-0.28517265446062173,"(0.0, 0.0, 0.0, 0.0, 0.0, 0.0)",2.218317709000318,True,"(-0.0032913752255927867, 0.18026787980877523, 0.02399991399989585)","(0.9997420180055171, -0.02271321572067535, -8.524014492963493e-05)",-9.793822259794506e-05,36.982807795896235,True,"(0.05937101103725708, 0.17665877129436117, 0.05600008600010415)","(-0.9997420180055172, 0.022713215720675976, 8.5240144935055e-05)",2.6232865310897404e-05,25.92179123624667
26,Move,"(0.055696202531645575, 0.0, -0.055696202531645575)","(0.0, -0.0, 0.0)","(0.03165010914233309, 0.15961285703271336, 0.04880281085926306)","(-0.00039493752406858474, -0.0008369311043634841, -0.052539622668623595)","[0.028423405622716995, 0.0007344313071447062, 0.0007457680350459739]","[-0.026750000193715096, 0.05299999937415123, 0.03999999910593033]","[0.0, -0.0, 0.27721331848796066]","[-0.04645470157265663, 0.12225116789340973, 0.03999999910593033]","[0.0, 0.0, -0.528499232948918]","[0.026750000193715096, 0.05299999937415123, 0.03999999910593033]","[0.0, 0.0, -0.7820186026895711]","[0.07748933881521225, 0.10408345609903336, 0.03999999910593033]","[0.0, -0.0, 0.030628413808016397]",0.2707730839665614,-1.5456558550925639,"(0.0, 0.0, 0.0, 0.0, 0.0, 0.0)",-5.729805261702855,-0.8039007344863394,0.43480728960659726,"(0.0, 0.0, 0.0, 0.0, 0.0, 0.0)",-2.849117004668488,-0.7868020086629957,-1.148014124141373,"(0.0, 0.0, 0.0, 0.0, 0.0, 0.0)",5.113194875747079,0.8111178261368807,-0.3670089978717477,"(0.0, 0.0, 0.0, 0.0, 0.0, 0.0)",2.7897106136099956,True,"(0.0006991265373516714, 0.17978571857179124, 0.02399991399989585)","(0.9997420180055171, -0.02271321572067535, -8.524014492963493e-05)",-0.00013828722393838315,45.2636671227075,True,"(0.06330141050631047, 0.17586057010126022, 0.05600008600010415)","(-0.9997420180055172, 0.022713215720675976, 8.5240144935055e-05)",3.6746032072307e-05,31.092460736879694
27,Move,"(0.06075949367088608, 0.0, -0.06075949367088608)","(0.0, -0.0, 0.0)","(0.03559784917264405, 0.1588863936436413, 0.04882879110561795)","(-0.00044502359574392913, -0.0011193706534526765, -0.05868541248814807)","[0.032371145653027955, 7.967918072643299e-06, 0.0007717482814008636]","[-0.026750000193715096, 0.05299999937415123, 0.03999999910593033]","[0.0, -0.0, 0.23987646828019574]","[-0.043855950236320496, 0.12293844670057297, 0.03999999910593033]","[0.0, 0.0, -0.5548392223676123]","[0.026750000193715096, 0.05299999937415123, 0.03999999910593033]","[0.0, 0.0, -0.8087820970661519]","[0.07883817702531815, 0.10270736366510391, 0.03999999910593033]","[0.0, 0.0, -0.0067587265744341605]",0.23313509025909976,-1.617931835256488,"(0.0, 0.0, 0.0, 0.0, 0.0, 0.0)",-6.943478867351504,-0.7925403965487732,0.5220453189435931,"(0.0, 0.0, 0.0, 0.0, 0.0, 0.0)",-3.3953982731849015,-0.8135273378344213,-1.1388665380913106,"(0.0, 0.0, 0.0, 0.0, 0.0, 0.0)",6.146905644524307,0.8001271874020613,-0.45507525008839467,"(0.0, 0.0, 0.0, 0.0, 0.0, 0.0)",3.4045141486541293,True,"(0.004796806972989606, 0.17921114962379672, 0.02399991399989585)","(0.9997420180055171, -0.02271321572067535, -8.524014492963493e-05)",-0.00017418080053160283,53.71944803311646,True,"(0.06734307643930815, 0.17496464214724444, 0.05600008600010415)","(-0.9997420180055172, 0.022713215720675976, 8.5240144935055e-05)",5.1710294262614016e-05,36.11243047002756
28,Move,"(0.0658227848101266, 0.0, -0.0658227848101266)","(0.0, -0.0, 0.0)","(0.039659927841744255, 0.15807089438090155, 0.04883433547100134)","(-0.0008841201557577566, -0.001548885857047613, -0.06466250437359311)","[0.03643322432212816, -0.0008075313446671006, 0.000777292646784257]","[-0.026750000193715096, 0.05299999937415123, 0.03999999910593033]","[0.0, -0.0, 0.20090401038145528]","[-0.04111797735095024, 0.12355183064937592, 0.03999999910593033]","[0.0, 0.0, -0.5811548693769704]","[0.026750000193715096, 0.05299999937415123, 0.03999999910593033]","[0.0, 0.0, -0.8352088900988529]","[0.08013344556093216, 0.10131364315748215, 0.03999999910593033]","[0.0, 0.0, -0.04632498947145489]",0.1938877288809134,-1.683905754652669,"(0.0, 0.0, 0.0, 0.0, 0.0, 0.0)",-8.199794088034807,-0.7795149988477253,0.610527624597404,"(0.0, 0.0, 0.0, 0.0, 0.0, 0.0)",-3.9438272125268226,-0.8398796377301779,-1.1209698484712982,"(0.0, 0.0, 0.0, 0.0, 0.0, 0.0)",7.207008515017017,0.78663948305139,-0.5386703118900505,"(0.0, 0.0, 0.0, 0.0, 0.0, 0.0)",4.04407735382081,True,"(0.00899862203793736, 0.1785248658225941, 0.02399991399989585)","(0.9997420180055171, -0.02271321572067535, -8.524014492963493e-05)",-0.00019425733808765247,62.52461304282738,True,"(0.07150554695906569, 0.17396906647160032, 0.05600008600010415)","(-0.9997420180055172, 0.022713215720675976, 8.5240144935055e-05)",7.44397032965224e-05,40.17148853157198
29,Move,"(0.07088607594936708, 0.0, -0.07088607594936708)","(0.0, -0.0, 0.0)","(0.04338979814641978, 0.15733205615447524, 0.04885273977207672)","(-0.0006045136790844414, -0.001982177429062168, -0.0901049250276047)","[0.04016309462680368, -0.0015463695710934144, 0.0007956969478596365]","[-0.026750000193715096, 0.05299999937415123, 0.03999999910593033]","[0.0, -0.0, 0.1605281324352926]","[-0.038258448243141174, 0.1240742951631546, 0.03999999910593033]","[0.0, 0.0, -0.6049295283479708]","[0.026750000193715096, 0.05299999937415123, 0.03999999910593033]","[0.0, 0.0, -0.8611447512656693]","[0.08136840909719467, 0.09991300106048584, 0.03999999910593033]","[0.0, 0.0, -0.0869056685485195]",0.1532490274805894,-1.746984831644847,"(0.0, 0.0, 0.0, 0.0, 0.0, 0.0)",-9.972320196641205,-0.76208123110584,0.8103321237104544,"(0.0, 0.0, 0.0, 0.0, 0.0, 0.0)",-5.105893854823749,-0.8657404822886353,-1.1029594835865262,"(0.0, 0.0, 0.0, 0.0, 0.0, 0.0)",8.7793345218755,0.7717170596200758,-0.6053025428698465,"(0.0, 0.0, 0.0, 0.0, 0.0, 0.0)",4.113065264073145,True,"(0.013150826647778079, 0.17784040188680866, 0.02399991399989585)","(0.9997420180055171, -0.02271321572067535, -8.524014492963493e-05)",-0.00012588795060061066,67.67911043831953,True,"(0.07569521030698584, 0.17285863987690947, 0.05600008600010415)","(-0.9997420180055172, 0.022713215720675976, 8.5240144935055e-05)",0.00014683160487179807,30.60996804694058
30,Move,"(0.07594936708860758, 0.0, -0.07594936708860758)","(0.0, -0.0, 0.0)","(0.047017630796488706, 0.15663005294470672, 0.04887820129849742)","(-0.001010601979831594, 0.005264771019195814, -0.13710253518751125)","[0.04379092727687261, -0.002248372780861929, 0.0008211584742803327]","[-0.026750000193715096, 0.05299999937415123, 0.03999999910593033]","[0.0, -0.0, 0.11800221364521667]","[-0.03522645682096481, 0.12449929863214493, 0.03999999910593033]","[0.0, 0.0, -0.6289587609394724]","[0.026750000193715096, 0.05299999937415123, 0.03999999910593033]","[0.0, 0.0, -0.8866818907722993]","[0.08254848420619965, 0.09850306063890457, 0.03999999910593033]","[0.0, 0.0, -0.12788597890450093]",0.11035101399324805,-1.8362862861148963,"(0.0, 0.0, 0.0, 0.0, 0.0, 0.0)",-12.672755961911708,-0.7422703715336195,1.1257401338458455,"(0.0, 0.0, 0.0, 0.0, 0.0, 0.0)",-6.613195188655274,-0.8912447368445867,-1.095094127060292,"(0.0, 0.0, 0.0, 0.0, 0.0, 0.0)",11.22081225672331,0.7557807671679225,-0.7236257349788917,"(0.0, 0.0, 0.0, 0.0, 0.0, 0.0)",5.083268155684447,True,"(0.017478461842848847, 0.1771214853019781, 0.056002417000309064)","(0.9942382905271739, -0.10716521558871088, 0.0024162403498382383)",-5.9687398037890476e-05,81.3066583836976,True,"(0.07359036829162505, 0.12292747831490654, 0.023997584483628844)","(-0.9938384736970091, 0.11081180961914891, -0.0024147564119314418)",-4.892173744072822e-05,5.524824384236829
