OSUrobotics/InHand-Manipulation/AnalyseData/Data/Trial Data/Better/new_hand_human_sub1_2v2_e_n_1_kpNone_kdNone_dp5_step5_save_data.csv
,Phase,human_cube_pos,human_cube_orn,Cube_Pos,Cube_Orn,Cube_pos_in_start_pos,b'l_prox_pin'_link_pos,b'l_prox_pin'_link_orn,b'l_distal_pin'_link_pos,b'l_distal_pin'_link_orn,b'r_prox_pin'_link_pos,b'r_prox_pin'_link_orn,b'r_distal_pin'_link_pos,b'r_distal_pin'_link_orn,b'l_prox_pin'_joint_angle,b'l_prox_pin'_joint_vel,b'l_prox_pin'_joint_react_forces,b'l_prox_pin'_joint_motor_torque,b'l_distal_pin'_joint_angle,b'l_distal_pin'_joint_vel,b'l_distal_pin'_joint_react_forces,b'l_distal_pin'_joint_motor_torque,b'r_prox_pin'_joint_angle,b'r_prox_pin'_joint_vel,b'r_prox_pin'_joint_react_forces,b'r_prox_pin'_joint_motor_torque,b'r_distal_pin'_joint_angle,b'r_distal_pin'_joint_vel,b'r_distal_pin'_joint_react_forces,b'r_distal_pin'_joint_motor_torque,in_contact_l,contact_point_l_dist,contact_normal_l_dist,contact_distance_l_dist,contact_norm_force_l_dist,in_contact_r,contact_point_r_dist,contact_normal_r_dist,contact_distance_r_dist,contact_norm_force_r_dist
0,Open,,,,,,"[-0.026750000193715096, 0.05299999937415123, 0.03999999910593033]","[0.0, -0.0, 0.4254700097131474]","[-0.056467924267053604, 0.11858082562685013, 0.03999999910593033]","[0.0, -0.0, 0.4254700097131474]","[0.026750000193715096, 0.05299999937415123, 0.03999999910593033]","[0.0, 0.0, -0.4429245237535421]","[0.057608019560575485, 0.1180521547794342, 0.03999999910593033]","[0.0, 0.0, -0.5266622746639338]",0.5399229999999999,27.46872,"(0.0, 0.0, 0.0, 0.0, 0.0, 0.0)",-4.377393708535371,5.294901130302062e-32,0.0,"(0.0, 0.0, 0.0, 0.0, 0.0, 0.0)",-0.30017707799641646,-0.5623038734984663,-28.651050680519948,"(0.0, 0.0, 0.0, 0.0, 0.0, 0.0)",144.45470973647488,-0.10456727132876567,-4.999096204557077,"(0.0, 0.0, 0.0, 0.0, 0.0, 0.0)",33.97911746732963,False,,,,,False,,,,
1,Open,,,,,,"[-0.026750000193715096, 0.05299999937415123, 0.03999999910593033]","[0.0, -0.0, 0.894166469119967]","[-0.08288749307394028, 0.09808415919542313, 0.03999999910593033]","[0.0, -0.0, 0.894166894674561]","[0.026750000193715096, 0.05299999937415123, 0.03999999910593033]","[0.0, 0.0, -0.9122733503889549]","[0.08369457721710205, 0.09706035256385803, 0.03999999910593033]","[0.0, 0.0, -0.9997066729229968]",0.96174983227,16.220004472800003,"(0.0, 0.0, 0.0, 0.0, 0.0, 0.0)",-2.5959652512206968,5.681494863714967e-07,3.553320838026869e-05,"(0.0, 0.0, 0.0, 0.0, 0.0, 0.0)",-0.18114955764248034,-0.9780460127037736,-15.785439661232708,"(0.0, 0.0, 0.0, 0.0, 0.0, 0.0)",2.503992476159733,-0.0786900142246732,2.098357403184359,"(0.0, 0.0, 0.0, 0.0, 0.0, 0.0)",0.15360133560797545,False,,,,,False,,,,
2,Open,,,,,,"[-0.026750000193715096, 0.05299999937415123, 0.03999999910593033]","[0.0, -0.0, 1.170927100750299]","[-0.09307006001472473, 0.08102945238351822, 0.03999999910593033]","[0.0, -0.0, 1.1709279927689973]","[0.026750000193715096, 0.05299999937415123, 0.03999999910593033]","[0.0, 0.0, -1.181618964677462]","[0.09336595237255096, 0.08031877130270004, 0.03999999910593033]","[0.0, 0.0, -1.233247876832181]",1.2108343584571122,9.577750441143678,"(0.0, 0.0, 0.0, 0.0, 0.0, 0.0)",-1.5367816122769582,9.012180617793662e-07,6.275974057005224e-06,"(0.0, 0.0, 0.0, 0.0, 0.0, 0.0)",-0.1083256720668905,-1.2204570900414513,-9.3211442655613,"(0.0, 0.0, 0.0, 0.0, 0.0, 0.0)",1.4819475463743526,-0.046466145575958295,1.239071567699341,"(0.0, 0.0, 0.0, 0.0, 0.0, 0.0)",0.09166748660725833,False,,,,,False,,,,
3,Open,,,,,,"[-0.026750000193715096, 0.05299999937415123, 0.03999999910593033]","[0.0, -0.0, 1.334351465706577]","[-0.09674673527479172, 0.06986585259437561, 0.03999999910593033]","[0.0, -0.0, 1.33435435145599]","[0.026750000193715096, 0.05299999937415123, 0.03999999910593033]","[0.0, 0.0, -1.3406650641721125]","[0.09685182571411133, 0.06942359358072281, 0.03999999910593033]","[0.0, 0.0, -1.3711530696282732]",1.3579162851496,5.655565729344001,"(0.0, 0.0, 0.0, 0.0, 0.0, 0.0)",-0.9088150211252332,3.4316066113876724e-06,0.0001607445165674468,"(0.0, 0.0, 0.0, 0.0, 0.0, 0.0)",-0.06444344013525093,-1.3635984108023202,-5.504042378604797,"(0.0, 0.0, 0.0, 0.0, 0.0, 0.0)",0.8762522980402716,-0.02744024570882781,0.7315266716392431,"(0.0, 0.0, 0.0, 0.0, 0.0, 0.0)",0.05446985052483407,False,,,,,False,,,,
4,Open,,,,,,"[-0.026750000193715096, 0.05299999937415123, 0.03999999910593033]","[0.0, -0.0, 1.4308518944899675]","[-0.09804610908031464, 0.06304314732551575, 0.03999999910593033]","[0.0, -0.0, 1.4308566269594332]","[0.026750000193715096, 0.05299999937415123, 0.03999999910593033]","[0.0, 0.0, -1.4345798203875788]","[0.09808305650949478, 0.06277728080749512, 0.03999999910593033]","[0.0, 0.0, -1.4525855975984745]",1.4447666872179874,3.339555007520341,"(0.0, 0.0, 0.0, 0.0, 0.0, 0.0)",-0.5371183361845069,4.8269553674989e-06,2.0878160072459843e-05,"(0.0, 0.0, 0.0, 0.0, 0.0, 0.0)",-0.03821759960562203,-1.448121925594662,-3.2500819841423465,"(0.0, 0.0, 0.0, 0.0, 0.0, 0.0)",0.5178266556878065,-0.016205556838873442,0.4320218239148067,"(0.0, 0.0, 0.0, 0.0, 0.0, 0.0)",0.0322808466635012,False,,,,,False,,,,
5,Open,,,,,,"[-0.026750000193715096, 0.05299999937415123, 0.03999999910593033]","[0.0, -0.0, 1.487834617901085]","[-0.09850236773490906, 0.05896640568971634, 0.03999999910593033]","[0.0, -0.0, 1.4878390921106803]","[0.026750000193715096, 0.05299999937415123, 0.03999999910593033]","[0.0, 0.0, -1.4900358577435544]","[0.09851532429456711, 0.05880843847990036, 0.03999999910593033]","[0.0, 0.0, -1.5006695807985118]",1.4960509811353493,1.9719738363906854,"(0.0, 0.0, 0.0, 0.0, 0.0, 0.0)",-0.3173274216127963,4.509251873886308e-06,-3.168767150011037e-05,"(0.0, 0.0, 0.0, 0.0, 0.0, 0.0)",-0.022624215793833224,-1.498032215844392,-1.9191409108162163,"(0.0, 0.0, 0.0, 0.0, 0.0, 0.0)",0.30591369390909257,-0.00957062017308593,0.2551417656412126,"(0.0, 0.0, 0.0, 0.0, 0.0, 0.0)",0.019102112305110365,False,,,,,False,,,,
6,Open,,,,,,"[-0.026750000193715096, 0.05299999937415123, 0.03999999910593033]","[0.0, -0.0, 1.5214821319654974]","[-0.09866246581077576, 0.05654918774962425, 0.03999999910593033]","[0.0, -0.0, 1.5214858439169519]","[0.026750000193715096, 0.05299999937415123, 0.03999999910593033]","[0.0, 0.0, -1.5227821585534602]","[0.09866702556610107, 0.05645570904016495, 0.03999999910593033]","[0.0, 0.0, -1.529061933448946]",1.5263338438506127,1.164430830650334,"(0.0, 0.0, 0.0, 0.0, 0.0, 0.0)",-0.18743587261192823,3.6440993970645793e-06,-4.480530101024996e-05,"(0.0, 0.0, 0.0, 0.0, 0.0, 0.0)",-0.013379159967550349,-1.527503743133955,-1.1332335164278682,"(0.0, 0.0, 0.0, 0.0, 0.0, 0.0)",0.18068846528573543,-0.005652184024362593,0.1506807000213291,"(0.0, 0.0, 0.0, 0.0, 0.0, 0.0)",0.011293655891939093,False,,,,,False,,,,
7,Close,,,"(0.010000824637423049, 0.16001319418745247, 0.017848014970055004)","(-0.00026934863811186216, 1.6834304115272585e-05, -2.2671484573282825e-09)",,"[-0.026750000193715096, 0.05299999937415123, 0.03999999910593033]","[0.0, -0.0, 1.2784808254221978]","[-0.09569569677114487, 0.07374827563762665, 0.03999999910593033]","[0.0, -0.0, 1.034582661993943]","[0.026750000193715096, 0.05299999937415123, 0.03999999910593033]","[0.0, 0.0, -1.2792482299640686]","[0.0957116037607193, 0.0736953467130661, 0.03999999910593033]","[0.0, 0.0, -1.0390562259147462]",1.210632571455348,-16.283535238809286,"(0.0, 0.0, 0.0, 0.0, 0.0, 0.0)",2.771136716181199,-0.3095085607892871,-15.746535439217235,"(0.0, 0.0, 0.0, 0.0, 0.0, 0.0)",0.3469037989659341,-1.211323385283169,16.3019569408845,"(0.0, 0.0, 0.0, 0.0, 0.0, 0.0)",-2.7749564531312414,0.30617317599991634,15.835479338328643,"(0.0, 0.0, 0.0, 0.0, 0.0, 0.0)",-0.3479929302165593,False,,,,,False,,,,
8,Close,,,"(0.010001648057231211, 0.16002636889308344, 0.03133184175509247)","(-0.0005384699893107284, 3.3654401557527444e-05, -9.06094284338731e-09)",,"[-0.026750000193715096, 0.05299999937415123, 0.03999999910593033]","[0.0, -0.0, 1.0006360422079206]","[-0.08736064285039902, 0.0918632224202156, 0.03999999910593033]","[0.0, -0.0, 0.4880565025715103]","[0.026750000193715096, 0.05299999937415123, 0.03999999910593033]","[0.0, 0.0, -1.001089448203126]","[0.08737824857234955, 0.09183574467897415, 0.03999999910593033]","[0.0, 0.0, -0.49069812233338583]",0.9605724271186684,-9.615264723164493,"(0.0, 0.0, 0.0, 0.0, 0.0, 0.0)",1.6441783201079794,-0.5513218025251249,-9.298144061583436,"(0.0, 0.0, 0.0, 0.0, 0.0, 0.0)",0.21014173445603831,-0.9609803457758583,9.626142554022893,"(0.0, 0.0, 0.0, 0.0, 0.0, 0.0)",-1.6464751946207798,0.5493522946545342,9.350664461360347,"(0.0, 0.0, 0.0, 0.0, 0.0, 0.0)",-0.2108204377510729,False,,,,,False,,,,
9,Close,,,"(0.010002470404691093, 0.16003952644115657, 0.04045997120998789)","(-0.0008073642479911328, 5.0460303253361964e-05, -2.0369923505779015e-08)",,"[-0.026750000193715096, 0.05299999937415123, 0.03999999910593033]","[0.0, -0.0, 0.8365715799965936]","[-0.0801992267370224, 0.1012408509850502, 0.03999999910593033]","[0.0, -0.0, 0.16533874626364803]","[0.026750000193715096, 0.05299999937415123, 0.03999999910593033]","[0.0, 0.0, -0.8368392086626993]","[0.08021213859319687, 0.10122654587030411, 0.03999999910593033]","[0.0, 0.0, -0.1668985823484083]",0.8129144124893025,-5.677717666381402,"(0.0, 0.0, 0.0, 0.0, 0.0, 0.0)",0.9736078226475493,-0.6941096683608667,-5.490444078796776,"(0.0, 0.0, 0.0, 0.0, 0.0, 0.0)",0.12593397924105265,-0.8131552843771866,5.684140916724979,"(0.0, 0.0, 0.0, 0.0, 0.0, 0.0)",-0.9749785244213759,0.6929466958025952,5.521456795952681,"(0.0, 0.0, 0.0, 0.0, 0.0, 0.0)",-0.12634715317523504,False,,,,,False,,,,
10,Close,,,"(0.010003291824242136, 0.16005266914270105, 0.04523936165140331)","(-0.0010760316083767074, 6.725202012489063e-05, -3.618265319583079e-08)",,"[-0.026750000193715096, 0.05299999937415123, 0.03999999910593033]","[0.0, -0.0, 0.7396932119518481]","[-0.07528240978717804, 0.10618463158607483, 0.03999999910593033]","[0.0, 0.0, -0.025223688738047617]","[0.026750000193715096, 0.05299999937415123, 0.03999999910593033]","[0.0, 0.0, -0.7398511766938903]","[0.07529081404209137, 0.10617695748806, 0.03999999910593033]","[0.0, -0.0, 0.02430263317545323]",0.7257238314308083,-3.352635504821555,"(0.0, 0.0, 0.0, 0.0, 0.0, 0.0)",0.5758654822812497,-0.7784262532781683,-3.242260203768412,"(0.0, 0.0, 0.0, 0.0, 0.0, 0.0)",0.0750123771406224,-0.725866063871885,3.3564283699169333,"(0.0, 0.0, 0.0, 0.0, 0.0, 0.0)",-0.5766799137830688,0.7777395376647703,3.260573592131318,"(0.0, 0.0, 0.0, 0.0, 0.0, 0.0)",-0.0752606958188736,False,,,,,False,,,,
11,Close,,,"(0.009997966950406065, 0.16004795201914346, 0.046616050094935475)","(-0.0009640430328522325, -5.7324486097668704e-05, 4.2980615420070005e-09)",,"[-0.026750000193715096, 0.05299999937415123, 0.03999999910593033]","[0.0, -0.0, 0.682487397988505]","[-0.0721622109413147, 0.10887245088815689, 0.03999999910593033]","[0.0, 0.0, -0.13775029188859572]","[0.026750000193715096, 0.05299999937415123, 0.03999999910593033]","[0.0, 0.0, -0.6825807377410441]","[0.07216742634773254, 0.10886821150779724, 0.03999999910593033]","[0.0, -0.0, 0.1372064129763775]",0.6742386185346878,-1.979696494258342,"(0.0, 0.0, 0.0, 0.0, 0.0, 0.0)",0.34037467823530393,-0.8282145265472606,-1.9144534778819295,"(0.0, 0.0, 0.0, 0.0, 0.0, 0.0)",0.04449932044982575,-0.674322605213594,1.981936139029174,"(0.0, 0.0, 0.0, 0.0, 0.0, 0.0)",-0.3408573424145132,0.8278090365055835,1.9252671252731466,"(0.0, 0.0, 0.0, 0.0, 0.0, 0.0)",-0.04464739446319682,False,,,,,False,,,,
12,Close,,,"(0.009998679410322496, 0.16003066597344334, 0.0474253884764576)","(-0.0006112814540129935, -4.2805404436077314e-05, 1.9447426774393396e-07)",,"[-0.026750000193715096, 0.05299999937415123, 0.03999999910593033]","[0.0, -0.0, 0.6487079580530938]","[-0.07024932652711868, 0.11037428677082062, 0.03999999910593033]","[0.0, 0.0, -0.20419532625251113]","[0.026750000193715096, 0.05299999937415123, 0.03999999910593033]","[0.0, 0.0, -0.6487631098841893]","[0.07025248557329178, 0.11037188768386841, 0.03999999910593033]","[0.0, -0.0, 0.20387417727936794]",0.6438371618585478,-1.1689909828946077,"(0.0, 0.0, 0.0, 0.0, 0.0, 0.0)",0.20110328062585062,-0.8576133287829941,-1.1304144347684295,"(0.0, 0.0, 0.0, 0.0, 0.0, 0.0)",0.026365137971139978,-0.6438867551525752,1.1703134707353389,"(0.0, 0.0, 0.0, 0.0, 0.0, 0.0)",-0.20138889834359572,0.857373897412956,1.136799615752827,"(0.0, 0.0, 0.0, 0.0, 0.0, 0.0)",-0.026453134766811503,False,,,,,False,,,,
13,Close,,,"(0.008562352819313064, 0.15963169911231415, 0.04795936059784778)","(0.002880050037504477, -0.0018080766405500393, 0.027156574699580344)",,"[-0.026750000193715096, 0.05299999937415123, 0.03999999910593033]","[0.0, -0.0, 0.6287615983534538]","[-0.06909634172916412, 0.11123047024011612, 0.03999999910593033]","[0.0, 0.0, -0.24342883421715172]","[0.026750000193715096, 0.05299999937415123, 0.03999999910593033]","[0.0, 0.0, -0.6288059721302652]","[0.06909892708063126, 0.1112285852432251, 0.03999999910593033]","[0.0, -0.0, 0.24295585513718987]",0.6258854057058539,-0.6902774854894381,"(0.0, 0.0, 0.0, 0.0, 0.0, 0.0)",0.11878846609148704,-0.8749713231347032,-0.6674313830745814,"(0.0, 0.0, 0.0, 0.0, 0.0, 0.0)",0.015594191474811038,-0.6259255556368085,0.6912982329409242,"(0.0, 0.0, 0.0, 0.0, 0.0, 0.0)",0.23889456753769728,0.8745816224765113,0.6767593625972839,"(0.0, 0.0, 0.0, 0.0, 0.0, 0.0)",0.18939691443679915,False,,,,,True,"(0.040048198705117485, 0.17954190147604243, 0.02399995236517949)","(-0.9999968496142797, -0.00250969405768167, -4.6874861287478436e-05)",-8.481535683957195e-06,2.863336982423626
14,Move,,,"(0.003226703519616097, 0.15887842572556865, 0.048057042824217085)","(0.00733137607255103, 0.004060605831319912, 0.12411081910370701)","[0.0, 0.0, 0.0]","[-0.026750000193715096, 0.05299999937415123, 0.03999999910593033]","[0.0, -0.0, 0.5601465041237582]","[-0.06500434130430222, 0.11399676650762558, 0.03999999910593033]","[0.0, 0.0, -0.31665092698218517]","[0.026750000193715096, 0.05299999937415123, 0.03999999910593033]","[0.0, 0.0, -0.5704848668453074]","[0.0656328946352005, 0.11359802633523941, 0.03999999910593033]","[0.0, -0.0, 0.3056114929739557]",0.5446837312064112,-3.7110582962534506,"(0.0, 0.0, 0.0, 0.0, 0.0, 0.0)",-53.09089974488294,-0.8536776571297426,5.5487419201507295,"(0.0, 0.0, 0.0, 0.0, 0.0, 0.0)",-27.521806933097807,-0.5577558572400253,3.0549589579805563,"(0.0, 0.0, 0.0, 0.0, 0.0, 0.0)",39.845640952717,0.8551826533669656,-5.0192908628628805,"(0.0, 0.0, 0.0, 0.0, 0.0, 0.0)",19.520428399002,True,"(-0.031006456029053206, 0.18019920383377602, 0.023994329638221932)","(0.9922239401206523, 0.12433627092149606, -0.005669601818851313)",-0.0005148038489068186,428.5206410406488,True,"(0.03236246380961459, 0.17994971919477992, 0.023997959838382148)","(-0.9993845697424365, -0.035018889211399305, -0.00203940165862912)",0.0005577664042068458,310.72647358115125
15,Move,"(0.0028, 0.0, -0.0019)","(0.0, 0.03882310388136187, 0.0)","(0.003666885190243545, 0.16144119993173203, 0.048130260025229146)","(-0.010635819620886496, 0.0023754821041445666, 0.11426147213060879)","[0.00044018167062744766, 0.002562774206163382, 7.321720101206158e-05]","[-0.026750000193715096, 0.05299999937415123, 0.03999999910593033]","[0.0, -0.0, 0.5293760249841509]","[-0.0631096288561821, 0.11514481157064438, 0.03999999910593033]","[0.0, 0.0, -0.306866057401514]","[0.026750000193715096, 0.05299999937415123, 0.03999999910593033]","[0.0, 0.0, -0.5545269413816263]","[0.06466096639633179, 0.11421077698469162, 0.03999999910593033]","[0.0, -0.0, 0.28477936346004784]",0.5289656792266685,-0.09847702205505919,"(0.0, 0.0, 0.0, 0.0, 0.0, 0.0)",-1.4792465086758044,-0.8374881300828556,-0.299068679502112,"(0.0, 0.0, 0.0, 0.0, 0.0, 0.0)",-0.7809527161650491,-0.5566813397343768,-0.5170642300539697,"(0.0, 0.0, 0.0, 0.0, 0.0, 0.0)",0.829458052234119,0.8404568601417567,0.2761369253115012,"(0.0, 0.0, 0.0, 0.0, 0.0, 0.0)",0.4534292926215911,True,"(-0.02975867563610958, 0.18165709741483504, 0.02399742569043039)","(0.9934318965017237, 0.11439599580138865, -0.002573549610391584)",-0.0007793743024497301,10.994710819698978,True,"(0.03288377128447009, 0.18010166348948164, 0.05600257430956961)","(-0.9934318965017244, -0.11439599580138328, 0.0025735496103940665)",-0.00012392329397229,5.601305588915537
16,Move,"(0.0048, 0.0, -0.0057)","(0.0, 0.008576547944300137, 0.0)","(0.004640040725639966, 0.16172766634941643, 0.04844864035645701)","(-0.00807964644523192, 0.0016145068487607112, 0.10666392860780868)","[0.0014133372060238692, 0.002849240623847782, 0.0003915975322399262]","[-0.026750000193715096, 0.05299999937415123, 0.03999999910593033]","[0.0, -0.0, 0.5227052035511224]","[-0.06269426643848419, 0.11538597196340561, 0.03999999910593033]","[0.0, 0.0, -0.3145709461638957]","[0.026750000193715096, 0.05299999937415123, 0.03999999910593033]","[0.0, 0.0, -0.5641862459880662]","[0.0652504414319992, 0.11384172737598419, 0.03999999910593033]","[0.0, -0.0, 0.27618741950965586]",0.5211181669279591,-0.3808820073468409,"(0.0, 0.0, 0.0, 0.0, 0.0, 0.0)",-0.9634368172321442,-0.8369479283616147,0.07876004841721779,"(0.0, 0.0, 0.0, 0.0, 0.0, 0.0)",-0.5247399560639061,-0.5656820539409698,-0.3589900772653044,"(0.0, 0.0, 0.0, 0.0, 0.0, 0.0)",0.5020856788800897,0.8401143244779533,-0.062240016756516345,"(0.0, 0.0, 0.0, 0.0, 0.0, 0.0)",0.2381387333741335,True,"(-0.028832044996419844, 0.18164126556706436, 0.023998255694717873)","(0.9940752445631261, 0.10868011868077655, -0.0017435453229109918)",-0.0005356953753229669,7.9080136881245835,True,"(0.034040852753710216, 0.18000038812970326, 0.056001744305282125)","(-0.9940752445631267, -0.10868011868077314, 0.001743545322907867)",-7.204389652928179e-05,2.8285050774210108
17,Move,"(0.0055, 0.0, -0.0063)","(0.0, 0.004593706591249077, 0.0)","(0.005361014750794316, 0.16193069014153905, 0.04855491530853187)","(-0.005246733743551729, -0.0015747589985822498, 0.08901572190009319)","[0.002134311231178219, 0.003052264415970396, 0.0004978724843147861]","[-0.026750000193715096, 0.05299999937415123, 0.03999999910593033]","[0.0, -0.0, 0.5143398423948449]","[-0.06217113509774208, 0.11568447202444077, 0.03999999910593033]","[0.0, 0.0, -0.32221927062060823]","[0.026750000193715096, 0.05299999937415123, 0.03999999910593033]","[0.0, 0.0, -0.572763309307096]","[0.06577085703611374, 0.11350927501916885, 0.03999999910593033]","[0.0, -0.0, 0.26709369162297714]",0.5128979980603655,-0.34604192990357174,"(0.0, 0.0, 0.0, 0.0, 0.0, 0.0)",-0.3977265118895889,-0.8365916679792633,-0.00781453978266713,"(0.0, 0.0, 0.0, 0.0, 0.0, 0.0)",-0.23805129606191713,-0.5743039613314918,-0.3697697222810791,"(0.0, 0.0, 0.0, 0.0, 0.0, 0.0)",0.05946792863099962,0.8398826798507298,0.006177190059293735,"(0.0, 0.0, 0.0, 0.0, 0.0, 0.0)",0.004183822922141852,True,"(-0.027802679843934586, 0.18167395384894416, 0.023999917606596685)","(0.9950256294985951, 0.09961922493628135, -8.163344409873715e-05)",-0.00033075982801672243,2.7631419123520744,True,"(0.03516382804744926, 0.17995256106831015, 0.056000082393403317)","(-0.9950256294985944, -0.09961922493628697, 8.16334440981717e-05)",5.6121697914635236e-05,0.0
18,Move,"(0.0105, 0.0, -0.0068)","(0.0, 0.034222415973104825, 0.0)","(0.006664599741775531, 0.16183518203539488, 0.04848407264262433)","(-0.0007958382681666767, 0.003516272581127244, 0.07357835930409681)","[0.003437896222159434, 0.002956756309826225, 0.00042702981840724713]","[-0.026750000193715096, 0.05299999937415123, 0.03999999910593033]","[0.0, -0.0, 0.5038067556061845]","[-0.06150892376899719, 0.11605408042669296, 0.03999999910593033]","[0.0, 0.0, -0.33248653716942367]","[0.026750000193715096, 0.05299999937415123, 0.03999999910593033]","[0.0, 0.0, -0.5839814971126507]","[0.0664471909403801, 0.11306773871183395, 0.03999999910593033]","[0.0, -0.0, 0.25568946772346646]",0.5017032225473225,-0.5048552141243012,"(0.0, 0.0, 0.0, 0.0, 0.0, 0.0)",-0.31161683024465403,-0.8363127631560141,-0.004666734591104123,"(0.0, 0.0, 0.0, 0.0, 0.0, 0.0)",-0.2038941943616612,-0.586205943463325,-0.5338847663379767,"(0.0, 0.0, 0.0, 0.0, 0.0, 0.0)",0.0933759174739957,0.8396920647357922,0.0050830697316701645,"(0.0, 0.0, 0.0, 0.0, 0.0, 0.0)",0.010054541928712291,True,"(-0.0264639435352729, 0.1816770670823061, 0.02399617719411755)","(0.9971149377786249, 0.0758102422083556, -0.0038220459232364994)",-0.00023175681187404397,2.95457756619065,True,"(0.036599159322053015, 0.17986465644383276, 0.05600382280588246)","(-0.9971149377786251, -0.07581024220835055, 0.003822045923242367)",-2.0815479011400267e-05,0.0
19,Move,"(0.0103, 0.0, -0.0073)","(0.0, 0.034222415973104825, 0.0)","(0.007752907627393611, 0.161828591268074, 0.04865635259865471)","(-0.0006619427917354659, 0.002182279444834935, 0.05988224720348941)","[0.004526204107777513, 0.002950165542505351, 0.0005993097744376244]","[-0.026750000193715096, 0.05299999937415123, 0.03999999910593033]","[0.0, -0.0, 0.49300687331494886]","[-0.060825929045677185, 0.11642578989267349, 0.03999999910593033]","[0.0, 0.0, -0.3432733819248263]","[0.026750000193715096, 0.05299999937415123, 0.03999999910593033]","[0.0, 0.0, -0.5955249023399203]","[0.06713792681694031, 0.1126054972410202, 0.03999999910593033]","[0.0, -0.0, 0.2441810494622161]",0.491176699990019,-0.43923823566048537,"(0.0, 0.0, 0.0, 0.0, 0.0, 0.0)",-0.38968191538066593,-0.8362671135066192,0.003149856710763217,"(0.0, 0.0, 0.0, 0.0, 0.0, 0.0)",-0.24287484672567183,-0.5974931809908065,-0.47238536859954205,"(0.0, 0.0, 0.0, 0.0, 0.0, 0.0)",0.07606262317215147,0.8397045709934832,-0.00033350020509459455,"(0.0, 0.0, 0.0, 0.0, 0.0, 0.0)",0.0054384269386935635,True,"(-0.02507495450351597, 0.18166413873902573, 0.02399762621455156)","(0.9980578962463266, 0.062247927599113045, -0.002373025489219489)",-0.00015445396618098082,3.5417576884225634,True,"(0.03806043947121782, 0.1797435754371265, 0.05600237378544845)","(-0.9980578962463267, -0.06224792759911016, 0.002373025489229277)",9.773309647016468e-05,0.0
20,Move,"(0.007, 0.0, -0.0085)","(0.0, 0.038950512916757454, 0.0)","(0.008469441210731144, 0.16178781618813415, 0.04866431749303228)","(0.002083270597609178, 0.00021153179506604107, 0.04992240561508968)","[0.005242737691115046, 0.0029093904625654976, 0.0006072746688151956]","[-0.026750000193715096, 0.05299999937415123, 0.03999999910593033]","[0.0, -0.0, 0.485334213267035]","[-0.06033829227089882, 0.11668536812067032, 0.03999999910593033]","[0.0, 0.0, -0.3509048292899421]","[0.026750000193715096, 0.05299999937415123, 0.03999999910593033]","[0.0, 0.0, -0.6041658245769805]","[0.06765145808458328, 0.11225429177284241, 0.03999999910593033]","[0.0, -0.0, 0.23553779160074828]",0.48420537296582833,-0.2709396212545431,"(0.0, 0.0, 0.0, 0.0, 0.0, 0.0)",-0.21446438114274768,-0.8362397333009507,-0.0001515913842854912,"(0.0, 0.0, 0.0, 0.0, 0.0, 0.0)",-0.13046679362400013,-0.6054843158375979,-0.31642829673057715,"(0.0, 0.0, 0.0, 0.0, 0.0, 0.0)",0.05095090055505194,0.8397037504579161,2.188094845578803e-05,"(0.0, 0.0, 0.0, 0.0, 0.0, 0.0)",0.003641175887635204,True,"(-0.02409039540350677, 0.181647047862953, 0.023998217115753426)","(0.9986095153367712, 0.05268643005445693, -0.0017821242873586765)",-0.00010452014470562538,0.0,True,"(0.03915529344336166, 0.17964211033435074, 0.05600178288424658)","(-0.9986095153367714, -0.05268643005445568, 0.001782124287363085)",0.0002255993068261867,0.0
21,Move,"(0.0111, 0.0, -0.009800000000000001)","(0.0, 0.017139133254584316, 0.0)","(0.009345733016508626, 0.1619203646712299, 0.048683618361311874)","(-0.0015261124149778301, -0.0005308974230712796, 0.03345037213291431)","[0.006119029496892529, 0.003041938945661238, 0.0006265755370947895]","[-0.026750000193715096, 0.05299999937415123, 0.03999999910593033]","[0.0, -0.0, 0.47653442418997427]","[-0.05977657437324524, 0.1169784739613533, 0.03999999910593033]","[0.0, 0.0, -0.35960676766925365]","[0.026750000193715096, 0.05299999937415123, 0.03999999910593033]","[0.0, 0.0, -0.6138695064657144]","[0.06822450459003448, 0.11185461282730103, 0.03999999910593033]","[0.0, -0.0, 0.22583441391651032]",0.47474264760270046,-0.4300175876038239,"(0.0, 0.0, 0.0, 0.0, 0.0, 0.0)",-0.6319791563223512,-0.8361317839284058,0.0022439941900362147,"(0.0, 0.0, 0.0, 0.0, 0.0, 0.0)",-0.3659124288797099,-0.6158058576307501,-0.4647421769831288,"(0.0, 0.0, 0.0, 0.0, 0.0, 0.0)",0.07482839284401845,0.8397038042932548,-1.435609028987983e-06,"(0.0, 0.0, 0.0, 0.0, 0.0, 0.0)",0.005346754217953909,True,"(-0.02296469142636768, 0.18162061216968356, 0.023999787708247303)","(0.9987541131462015, 0.04990167059172283, -0.00021153179347905302)",1.6189418783629875e-05,5.409632322595379,True,"(0.04038349645763232, 0.17951723897865562, 0.05600021229175271)","(-0.9987541131462018, -0.04990167059171795, 0.00021153179349174352)",0.0004131093462845042,0.0
22,Move,"(0.0105, 0.0, -0.0125)","(0.0, 0.09133133442761127, 0.0)","(0.010264559782680885, 0.16208125581228394, 0.048787966589910546)","(-0.002043553059576283, 0.0006832549566392918, 0.02449276882898054)","[0.007037856263064787, 0.0032028300867152915, 0.0007309237656934614]","[-0.026750000193715096, 0.05299999937415123, 0.03999999910593033]","[0.0, -0.0, 0.4677628283260286]","[-0.05921412259340286, 0.11726570874452591, 0.03999999910593033]","[0.0, 0.0, -0.3682992308063794]","[0.026750000193715096, 0.05299999937415123, 0.03999999910593033]","[0.0, 0.0, -0.6233354510492164]","[0.06877975165843964, 0.1114593893289566, 0.03999999910593033]","[0.0, -0.0, 0.21636835109979172]",0.46631884870834844,-0.34655723639123615,"(0.0, 0.0, 0.0, 0.0, 0.0, 0.0)",-0.44695125158823074,-0.8360489953363245,0.003136164190686927,"(0.0, 0.0, 0.0, 0.0, 0.0, 0.0)",-0.27060399834725346,-0.62489210760949,-0.37360074264660437,"(0.0, 0.0, 0.0, 0.0, 0.0, 0.0)",0.06015572835040241,0.8397038007611183,9.419030622126795e-08,"(0.0, 0.0, 0.0, 0.0, 0.0, 0.0)",0.004298905452873594,True,"(-0.021841512585274524, 0.18157797924667043, 0.02399925651097822)","(0.9996560888994314, 0.026213589602187868, -0.0007427290625619865)",-2.036595082269232e-05,3.866603483956133,True,"(0.041580311018381194, 0.17938837039903155, 0.05600074348902178)","(-0.9996560888994314, -0.026213589602185366, 0.0007427290625633123)",0.00046521195148909697,0.0
23,Move,"(0.0136, 0.0, -0.0141)","(0.0, 0.16568410589182173, 0.0)","(0.01133024780570224, 0.16193907943145494, 0.048848742087200914)","(3.578591271320006e-06, 0.0015378301761856087, 0.012217711592014777)","[0.008103544286086142, 0.0030606537058862904, 0.000791699262983829]","[-0.026750000193715096, 0.05299999937415123, 0.03999999910593033]","[0.0, -0.0, 0.4581351473829229]","[-0.05859389901161194, 0.1175752729177475, 0.03999999910593033]","[0.0, 0.0, -0.377848141669561]","[0.026750000193715096, 0.05299999937415123, 0.03999999910593033]","[0.0, 0.0, -0.6328350071317604]","[0.06933318078517914, 0.11105749011039734, 0.03999999910593033]","[0.0, -0.0, 0.20686884286454807]",0.4562822564360471,-0.4447018516729467,"(0.0, 0.0, 0.0, 0.0, 0.0, 0.0)",0.029397554362720173,-0.8359910111974155,-0.0018472089153149266,"(0.0, 0.0, 0.0, 0.0, 0.0, 0.0)",-0.018362346182757252,-0.634594744849126,-0.4223477651050666,"(0.0, 0.0, 0.0, 0.0, 0.0, 0.0)",0.06800352531096601,0.8397038009928617,-6.179824652008392e-09,"(0.0, 0.0, 0.0, 0.0, 0.0, 0.0)",0.004859383556641712,True,"(-0.020608861570645683, 0.1815257987515514, 0.023998036833598694)","(0.999889869225963, 0.014710485384325072, -0.0019624064420887557)",-1.6738343822508317e-05,0.32161177075641956,True,"(0.042780223338214005, 0.17924379474129348, 0.0560019631664013)","(-0.9998898692259632, -0.014710485384322401, 0.0019624064420847797)",0.0004284678741597332,0.0
24,Move,"(0.0146, 0.0, -0.0146)","(0.0, 0.18759147866285453, 0.0)","(0.012310679720011772, 0.16206180885137675, 0.048793475563420195)","(-0.002630741777646611, 0.00026419488499228083, -0.004409907931685817)","[0.009083976200395675, 0.003183383125808098, 0.0007364327392031106]","[-0.026750000193715096, 0.05299999937415123, 0.03999999910593033]","[0.0, -0.0, 0.44768130214622187]","[-0.05791711062192917, 0.11790463328361511, 0.03999999910593033]","[0.0, 0.0, -0.38826161938425485]","[0.026750000193715096, 0.05299999937415123, 0.03999999910593033]","[0.0, 0.0, -0.642385740255072]","[0.0698857307434082, 0.11064814776182175, 0.03999999910593033]","[0.0, -0.0, 0.19731807892112557]",0.4458167004276339,-0.4475103495355258,"(0.0, 0.0, 0.0, 0.0, 0.0, 0.0)",-0.7312590520611327,-0.8359213244918945,0.00519807476606549,"(0.0, 0.0, 0.0, 0.0, 0.0, 0.0)",-0.42641707137090473,-0.6440554883924149,-0.40074129736794717,"(0.0, 0.0, 0.0, 0.0, 0.0, 0.0)",0.06452513024162508,0.8397038009776571,4.0545700130678597e-10,"(0.0, 0.0, 0.0, 0.0, 0.0, 0.0)",0.0046109720713032425,True,"(-0.01926818771627578, 0.18145470748790282, 0.023999911644407186)","(0.9999524792623834, 0.009748412384472183, -8.759563359527991e-05)",2.8692166098137738e-06,6.19561381338297,True,"(0.043984361599369914, 0.17932535697237864, 0.05600008835559911)","(-0.999952491414675, -0.009747165772050424, 8.759563989416412e-05)",0.0004209203882589595,0.0
25,Move,"(0.0126, 0.0, -0.014199999999999999)","(0.0, 0.19366347913054283, 0.0)","(0.013197744931251311, 0.1620903872324743, 0.048860415712630244)","(-0.001736547460203089, 0.00017375175401383914, -0.013074451147525265)","[0.009971041411635214, 0.0032119615069056418, 0.0008033728884131591]","[-0.026750000193715096, 0.05299999937415123, 0.03999999910593033]","[0.0, -0.0, 0.4389742398703697]","[-0.05735080689191818, 0.11817353963851929, 0.03999999910593033]","[0.0, 0.0, -0.3968670755881418]","[0.026750000193715096, 0.05299999937415123, 0.03999999910593033]","[0.0, 0.0, -0.6501293973840143]","[0.07033083587884903, 0.11031239479780197, 0.03999999910593033]","[0.0, -0.0, 0.1895744947239378]",0.4375849095883804,-0.33344244422596336,"(0.0, 0.0, 0.0, 0.0, 0.0, 0.0)",-0.461019187098251,-0.8358279020386518,0.0032422569991448396,"(0.0, 0.0, 0.0, 0.0, 0.0, 0.0)",-0.27954117500144393,-0.6513589421624204,-0.29511076080170445,"(0.0, 0.0, 0.0, 0.0, 0.0, 0.0)",0.04751899617495355,0.8397038009786547,-2.660272002685815e-11,"(0.0, 0.0, 0.0, 0.0, 0.0, 0.0)",0.003396241684651271,True,"(-0.018156491060426834, 0.18138292460314442, 0.023999810298287964)","(0.9999339813896022, -0.011489001843172655, -0.00018894175281626755)",-1.5618753996022575e-05,3.9615070154894703,True,"(0.044965763560735644, 0.18005214158110747, 0.056000189701712035)","(-0.9999339813896024, 0.011489001843173911, 0.00018894175282249925)",0.0002689491007522944,0.0
26,Move,"(0.0135, 0.0, -0.016100000000000003)","(0.0, 0.1605144406474145, 0.0)","(0.014100521535058065, 0.16187602639114496, 0.048904591461103014)","(0.000939614182446091, 0.0022019202018376165, -0.022298876319914847)","[0.010873818015441968, 0.0029976006655763054, 0.0008475486368859295]","[-0.026750000193715096, 0.05299999937415123, 0.03999999910593033]","[0.0, -0.0, 0.43100290997123697]","[-0.05683032050728798, 0.11841540038585663, 0.03999999910593033]","[0.0, 0.0, -0.4047919148175271]","[0.026750000193715096, 0.05299999937415123, 0.03999999910593033]","[0.0, 0.0, -0.657548081540377]","[0.07075481861829758, 0.10998750478029251, 0.03999999910593033]","[0.0, -0.0, 0.18215571646642262]",0.42956870417433474,-0.3442122846583976,"(0.0, 0.0, 0.0, 0.0, 0.0, 0.0)",-0.5689373109106812,-0.8357906509696864,0.0010038693812938425,"(0.0, 0.0, 0.0, 0.0, 0.0, 0.0)",-0.31183520580580976,-0.6589153021274559,-0.32812985441134224,"(0.0, 0.0, 0.0, 0.0, 0.0, 0.0)",0.05283509734890551,0.8397038009785893,1.745270594710746e-12,"(0.0, 0.0, 0.0, 0.0, 0.0, 0.0)",0.0037760059752520903,True,"(-0.017136349716930982, 0.18131082589176678, 0.023998930005499294)","(0.9997834881982792, -0.02078060306094306, -0.0010692345414934203)",-1.3780927917783874e-05,4.851218868980202,True,"(0.04590786331563773, 0.17991538141463687, 0.056001069994500705)","(-0.9997834881982792, 0.02078060306094203, 0.0010692345414891184)",0.00016512433694114296,0.0
27,Move,"(0.0148, 0.0, -0.0166)","(0.0, 0.12016417367055761, 0.0)","(0.014951871509628335, 0.16178560120985758, 0.04889900458982347)","(0.0007184207196558638, 0.0002070620886118152, -0.03274340819974015)","[0.011725167990012237, 0.0029071754842889264, 0.000841961765606386]","[-0.026750000193715096, 0.05299999937415123, 0.03999999910593033]","[0.0, -0.0, 0.4225520752065151]","[-0.056276436895132065, 0.11866726726293564, 0.03999999910593033]","[0.0, 0.0, -0.4131783294747291]","[0.026750000193715096, 0.05299999937415123, 0.03999999910593033]","[0.0, 0.0, -0.6657263613663469]","[0.07121939957141876, 0.10962572693824768, 0.03999999910593033]","[0.0, -0.0, 0.1739774827291899]",0.4210108125829243,-0.3699014329537417,"(0.0, 0.0, 0.0, 0.0, 0.0, 0.0)",-0.07014486552479098,-0.8357351600579712,-0.0011515005700293377,"(0.0, 0.0, 0.0, 0.0, 0.0, 0.0)",-0.0636380311885182,-0.6672275081599606,-0.3602842599499123,"(0.0, 0.0, 0.0, 0.0, 0.0, 0.0)",0.0580118548869117,0.8397038009785937,-1.1457501614131615e-13,"(0.0, 0.0, 0.0, 0.0, 0.0, 0.0)",0.0041457804220680575,True,"(-0.016056449390229363, 0.1812260634829796, 0.02399865234431927)","(0.9995278718081443, -0.030695591712777536, -0.001346895721512993)",-1.243173280033227e-05,0.9980981871916524,True,"(0.04694520640898081, 0.1797562008326233, 0.05600134765568073)","(-0.9995278718081441, 0.030695591712781717, 0.0013468957215149121)",0.0001123564928830187,0.0
28,Move,"(0.0145, 0.0, -0.0205)","(0.0, 0.07314849428033433, 0.0)","(0.01581041738978852, 0.16192657667536417, 0.04886175402822062)","(-0.0026192840396412004, 0.0009863751402246581, -0.0428045709703797)","[0.012583713870172424, 0.0030481509497955195, 0.0008047112040035359]","[-0.026750000193715096, 0.05299999937415123, 0.03999999910593033]","[0.0, -0.0, 0.41445122645452726]","[-0.0557435117661953, 0.11890429258346558, 0.03999999910593033]","[0.0, 0.0, -0.42120741540719164]","[0.026750000193715096, 0.05299999937415123, 0.03999999910593033]","[0.0, 0.0, -0.6738001780436387]","[0.0716751292347908, 0.10926484316587448, 0.03999999910593033]","[0.0, -0.0, 0.16590364325791723]",0.41305932802845086,-0.3340522179176605,"(0.0, 0.0, 0.0, 0.0, 0.0, 0.0)",-0.3309255960419968,-0.8356490848186314,0.0023033668278550573,"(0.0, 0.0, 0.0, 0.0, 0.0, 0.0)",-0.21051887541481393,-0.6752047905307701,-0.3371104450839413,"(0.0, 0.0, 0.0, 0.0, 0.0, 0.0)",0.05428095675405233,0.8397038009785932,1.0658141036401503e-14,"(0.0, 0.0, 0.0, 0.0, 0.0, 0.0)",0.003879286873262048,True,"(-0.015022651265674133, 0.18113516572313715, 0.02399892660930983)","(0.9991294586964237, -0.04170340787401556, -0.0010726307309573953)",-1.3237490065079036e-05,2.9585829048650627,True,"(0.04796806434505517, 0.1795919572175122, 0.05600107339069017)","(-0.9991294586964236, 0.04170340787401628, 0.001072630730951602)",0.00010514745707542242,0.0
29,Move,"(0.0116, 0.0, -0.0212)","(0.0, 0.025778513051956248, 0.0)","(0.016358804007131123, 0.16190857076046059, 0.0489051952529449)","(-0.0017227919157143394, 0.0006465019228825741, -0.04820325312248887)","[0.013132100487515026, 0.0030301450348919345, 0.000848152428727815]","[-0.026750000193715096, 0.05299999937415123, 0.03999999910593033]","[0.0, -0.0, 0.40875800133525964]","[-0.055367834866046906, 0.11906829476356506, 0.03999999910593033]","[0.0, 0.0, -0.4268107258005256]","[0.026750000193715096, 0.05299999937415123, 0.03999999910593033]","[0.0, 0.0, -0.6800381431990762]","[0.07202523201704025, 0.10898350924253464, 0.03999999910593033]","[0.0, -0.0, 0.15966566811727778]",0.4079378342603257,-0.19683246820270453,"(0.0, 0.0, 0.0, 0.0, 0.0, 0.0)",-0.5427302648218911,-0.8355496170820215,0.004563399707379915,"(0.0, 0.0, 0.0, 0.0, 0.0, 0.0)",-0.3140023952261441,-0.6809982704531174,-0.23043009136212333,"(0.0, 0.0, 0.0, 0.0, 0.0, 0.0)",0.037104968877900615,0.8397038009785932,0.0,"(0.0, 0.0, 0.0, 0.0, 0.0, 0.0)",0.0026521914213374752,True,"(-0.014298920745531359, 0.18107007923587318, 0.02399929552129999)","(0.9988831701626057, -0.04724317036182702, -0.0007037187407928837)",-1.2106820628706899e-05,4.42631760711954,True,"(0.0487572913819559, 0.17945644525737264, 0.056000704478700015)","(-0.9988831701626056, 0.04724317036182968, 0.0007037187407980964)",0.00017760889102316177,0.0
30,Move,"(0.0094, 0.0, -0.018000000000000002)","(0.0, 0.06938556441303458, 0.0)","(0.01658536610222508, 0.16190219609736073, 0.04891320651518755)","(-0.0011264016316070813, -0.0002542312975156814, -0.05168811650998348)","[0.013358662582608982, 0.0030237703717920783, 0.0008561636909704684]","[-0.026750000193715096, 0.05299999937415123, 0.03999999910593033]","[0.0, -0.0, 0.40585736877877276]","[-0.05517607554793358, 0.1191510260105133, 0.03999999910593033]","[0.0, 0.0, -0.42957214789740955]","[0.026750000193715096, 0.05299999937415123, 0.03999999910593033]","[0.0, 0.0, -0.6837946779539427]","[0.07223521173000336, 0.10881303995847702, 0.03999999910593033]","[0.0, -0.0, 0.15590918625827563]",0.405494941613069,-0.08698104402161858,"(0.0, 0.0, 0.0, 0.0, 0.0, 0.0)",-0.2935140225953606,-0.8354293759358445,1.593890718378302e-05,"(0.0, 0.0, 0.0, 0.0, 0.0, 0.0)",-0.1601888739543164,-0.6843144080605137,-0.12474738378812941,"(0.0, 0.0, 0.0, 0.0, 0.0, 0.0)",0.020088233850330754,0.8397038009785932,4.235164736271502e-22,"(0.0, 0.0, 0.0, 0.0, 0.0, 0.0)",0.0014360920745789204,True,"(-0.013936139902240664, 0.18103849861470606, 0.023999540472409635)","(0.9987154318142043, -0.050668291745704065, -0.00045876763114758136)",-1.0763335464573199e-05,0.6479080255125848,True,"(0.049232149602189655, 0.17937255640719538, 0.05600045952759037)","(-0.9987154318142044, 0.05066829174570569, 0.0004587676311486773)",0.0002936381331299774,0.0
31,Move,"(0.0032, 0.0, -0.016399999999999998)","(0.0, 0.11331201102722786, 0.0)","(0.016612650148386154, 0.1618852312784293, 0.04893923500761796)","(-0.000646954035871397, -0.0002030942508532844, -0.05214356928261924)","[0.013385946628770056, 0.0030068055528606474, 0.0008821921834008747]","[-0.026750000193715096, 0.05299999937415123, 0.03999999910593033]","[0.0, -0.0, 0.40789172969355564]","[-0.05531059205532074, 0.11909306049346924, 0.03999999910593033]","[0.0, 0.0, -0.4274380620491735]","[0.026750000193715096, 0.05299999937415123, 0.03999999910593033]","[0.0, 0.0, -0.6830141111584634]","[0.07219164073467255, 0.10884851962327957, 0.03999999910593033]","[0.0, -0.0, 0.1566896814900202]",0.4086228862707,0.17548116559603727,"(0.0, 0.0, 0.0, 0.0, 0.0, 0.0)",-0.028229910315337062,-0.835339738228374,-0.002390338865880359,"(0.0, 0.0, 0.0, 0.0, 0.0, 0.0)",-0.0019924431360331158,-0.6825384927222296,0.11414972553166722,"(0.0, 0.0, 0.0, 0.0, 0.0, 0.0)",-0.018381753569097218,0.8397037994524494,4.069716830201742e-08,"(0.0, 0.0, 0.0, 0.0, 0.0, 0.0)",-0.0013141181233811846,True,"(-0.014202818126624578, 0.18106839881833622, 0.023999540472409635)","(0.9987154318142043, -0.050668291745704065, -0.00045876763114758136)",0.00034147119241196205,0.0,True,"(0.049133507749295244, 0.1793900655103119, 0.05600045952759037)","(-0.9987154318142044, 0.05066829174570569, 0.0004587676311486773)",0.00012893492120070514,0.0
32,Move,"(0.0024, 0.0, -0.0167)","(0.0, 0.1302259968083049, 0.0)","(0.016348535427099846, 0.16184404077124592, 0.048956682650893986)","(0.00019255499424216, -0.0007387762582211814, -0.04912424718512501)","[0.013121831907483748, 0.0029656150456772723, 0.0008996398266769012]","[-0.026750000193715096, 0.05299999937415123, 0.03999999910593033]","[0.0, -0.0, 0.41221919117050165]","[-0.05559634044766426, 0.11896884441375732, 0.03999999910593033]","[0.0, 0.0, -0.42312708952755373]","[0.026750000193715096, 0.05299999937415123, 0.03999999910593033]","[0.0, 0.0, -0.6800346386250469]","[0.07202503830194473, 0.10898366570472717, 0.03999999910593033]","[0.0, -0.0, 0.15951559578021718]",0.413009589193317,0.18969594376111362,"(0.0, 0.0, 0.0, 0.0, 0.0, 0.0)",-0.03054803631586764,-0.8353456193583612,0.000156830132989505,"(0.0, 0.0, 0.0, 0.0, 0.0, 0.0)",-0.002185321418620956,-0.6794755813334727,0.13417340190198843,"(0.0, 0.0, 0.0, 0.0, 0.0, 0.0)",0.5197684093368966,0.8395175334399106,-0.007845494293365738,"(0.0, 0.0, 0.0, 0.0, 0.0, 0.0)",0.3259086275364141,True,"(-0.014756121474611583, 0.18112082346801808, 0.023999540472409635)","(0.9987154318142043, -0.050668291745704065, -0.00045876763114758136)",0.0006635128730242663,0.0,True,"(0.04876765554025285, 0.17945976822455825, 0.05600045952759037)","(-0.9987154318142044, 0.05066829174570569, 0.0004587676311486773)",1.5966736796132677e-05,0.0
33,Move,"(0.0017, 0.0, -0.016800000000000002)","(0.0, 0.13186660630517957, 0.0)","(0.01600030890054377, 0.16181488448933282, 0.0489680695079807)","(7.106254844059617e-05, -0.000505401217418673, -0.04505922015692048)","[0.012773605380927672, 0.002936458763764166, 0.0009110266837636175]","[-0.026750000193715096, 0.05299999937415123, 0.03999999910593033]","[0.0, -0.0, 0.4169499204262003]","[-0.05590809881687164, 0.11883164197206497, 0.03999999910593033]","[0.0, 0.0, -0.41839524438553266]","[0.026750000193715096, 0.05299999937415123, 0.03999999910593033]","[0.0, 0.0, -0.6766338841025511]","[0.07183438539505005, 0.10913731157779694, 0.03999999910593033]","[0.0, -0.0, 0.16275894753128975]",0.4178185615370377,0.20846708128982258,"(0.0, 0.0, 0.0, 0.0, 0.0, 0.0)",-0.03356854025766233,-0.8353452334974226,-1.0289625026693727e-05,"(0.0, 0.0, 0.0, 0.0, 0.0, 0.0)",-0.002399382196071225,-0.6760042309917556,0.15111376847268584,"(0.0, 0.0, 0.0, 0.0, 0.0, 0.0)",0.4967159833574584,0.8393837103054523,-0.0021868854636761083,"(0.0, 0.0, 0.0, 0.0, 0.0, 0.0)",0.3181246571135233,True,"(-0.015362429667765638, 0.18117617361201302, 0.023999540472409635)","(0.9987154318142043, -0.050668291745704065, -0.00045876763114758136)",0.0008582001211814714,0.0,True,"(0.04834854979862899, 0.17953761125602535, 0.05600045952759037)","(-0.9987154318142044, 0.05066829174570569, 0.0004587676311486773)",5.525885634754373e-06,0.7920554533479855
34,Move,"(-0.0008, 0.0, -0.0169)","(0.0, 0.12517850461153732, 0.0)","(0.01549274622584856, 0.1617972397673071, 0.048975610360393336)","(4.515533253765168e-06, -0.0003471079310535855, -0.038863973713711863)","[0.012266042706232463, 0.002918814041738438, 0.0009185675361762513]","[-0.026750000193715096, 0.05299999937415123, 0.03999999910593033]","[0.0, -0.0, 0.42322561871904585]","[-0.056320659816265106, 0.11864735931158066, 0.03999999910593033]","[0.0, 0.0, -0.41211962841475946]","[0.026750000193715096, 0.05299999937415123, 0.03999999910593033]","[0.0, 0.0, -0.6719583754769743]","[0.07157142460346222, 0.10934749245643616, 0.03999999910593033]","[0.0, -0.0, 0.1673733961647321]",0.4244698487689037,0.2986141209808131,"(0.0, 0.0, 0.0, 0.0, 0.0, 0.0)",-0.04808305412730148,-0.8353452588137588,6.751022967321774e-07,"(0.0, 0.0, 0.0, 0.0, 0.0, 0.0)",-0.003436545044233921,-0.6710226522296887,0.2245599856561678,"(0.0, 0.0, 0.0, 0.0, 0.0, 0.0)",0.44907309823278563,0.8393159478343506,-0.0037840235213917224,"(0.0, 0.0, 0.0, 0.0, 0.0, 0.0)",0.2953278493622054,True,"(-0.016167036139710884, 0.18124511093463544, 0.023999540472409635)","(0.9987154318142043, -0.050668291745704065, -0.00045876763114758136)",0.001085823911642676,0.0,True,"(0.04776097787368747, 0.17963866807896028, 0.05600045952759037)","(-0.9987154318142044, 0.05066829174570569, 0.0004587676311486773)",-9.563865112612423e-07,1.6573024936974723
35,Move,"(-0.0032, 0.0, -0.0171)","(0.0, 0.09982934255557166, 0.0)","(0.01486506411815522, 0.1618452309764017, 0.048973529176205156)","(-0.0002788211498806087, -0.00023323195776504423, -0.030685198589807165)","[0.011638360598539123, 0.002966805250833038, 0.0009164863519880717]","[-0.026750000193715096, 0.05299999937415123, 0.03999999910593033]","[0.0, -0.0, 0.4313477275774875]","[-0.056852877140045166, 0.11840502172708511, 0.03999999910593033]","[0.0, 0.0, -0.40399745113539504]","[0.026750000193715096, 0.05299999937415123, 0.03999999910593033]","[0.0, 0.0, -0.6659164038598929]","[0.07123015820980072, 0.10961727052927017, 0.03999999910593033]","[0.0, -0.0, 0.1732904224620463]",0.432896751724083,0.371750571754192,"(0.0, 0.0, 0.0, 0.0, 0.0, 0.0)",-0.05985786370716673,-0.835345257152754,-4.4293459566802085e-08,"(0.0, 0.0, 0.0, 0.0, 0.0, 0.0)",-0.00427763138141573,-0.6647688035406694,0.2754193123569603,"(0.0, 0.0, 0.0, 0.0, 0.0, 0.0)",0.43268033780560383,0.8391895500730354,-0.004140711925800267,"(0.0, 0.0, 0.0, 0.0, 0.0, 0.0)",0.289356975773827,True,"(-0.017209002358618698, 0.1813268366652817, 0.023999540472409635)","(0.9987154318142043, -0.050668291745704065, -0.00045876763114758136)",0.0013849731482811533,0.0,True,"(0.04700421868749028, 0.17976632944910187, 0.05600045952759037)","(-0.9987154318142044, 0.05066829174570569, 0.0004587676311486773)",-1.8576705273912955e-06,1.7859210164328836
36,Move,"(-0.001, 0.0, -0.0172)","(0.0, 0.12517850461153732, 0.0)","(0.014388734326892385, 0.16185955040844588, 0.04897820250674165)","(-0.00022004497155433966, -0.00011645230509727953, -0.02483691839057658)","[0.011162030807276287, 0.0029811246828772286, 0.0009211596825245624]","[-0.026750000193715096, 0.05299999937415123, 0.03999999910593033]","[0.0, -0.0, 0.4382563949591978]","[-0.057304009795188904, 0.11819549649953842, 0.03999999910593033]","[0.0, 0.0, -0.39708895297403385]","[0.026750000193715096, 0.05299999937415123, 0.03999999910593033]","[0.0, 0.0, -0.6608588339286137]","[0.07094324380159378, 0.10984151065349579, 0.03999999910593033]","[0.0, -0.0, 0.17825242922748777]",0.4393230695388963,0.2560171604396104,"(0.0, 0.0, 0.0, 0.0, 0.0, 0.0)",-0.04122472206949918,-0.8353452572617325,2.9060940320846385e-09,"(0.0, 0.0, 0.0, 0.0, 0.0, 0.0)",-0.002946552158841061,-0.6600846906824707,0.18578950470202404,"(0.0, 0.0, 0.0, 0.0, 0.0, 0.0)",0.473599447995092,0.8390974703863081,-0.003299223072781449,"(0.0, 0.0, 0.0, 0.0, 0.0, 0.0)",0.3061709158633429,False,,,,,True,"(0.04636952632062243, 0.17986949409420297, 0.05600045952759037)","(-0.9987154318142044, 0.05066829174570569, 0.0004587676311486773)",-2.3885714510227168e-06,2.0468012656509313
37,Move,"(-0.001, 0.0, -0.0172)","(0.0, 0.12517850461153732, 0.0)","(0.012814155031710359, 0.16394978007692143, 0.04986204431654104)","(-0.04187032576084986, 0.0035475063812899594, 0.007596460049883835)","[0.009587451512094261, 0.00507135435135278, 0.001805001492323953]","[-0.026750000193715096, 0.05299999937415123, 0.03999999910593033]","[0.0, -0.0, 0.38719453054333286]","[-0.05393663048744202, 0.11966998875141144, 0.03999999910593033]","[0.0, 0.0, -0.3914941428859543]","[0.026750000193715096, 0.05299999937415123, 0.03999999910593033]","[0.0, 0.0, -0.6104413606005712]","[0.06802248954772949, 0.11199644953012466, 0.03999999910593033]","[0.0, -0.0, 0.17119196425525643]",0.3736638623171341,-3.247353976321259,"(0.0, 0.0, 0.0, 0.0, 0.0, 0.0)",-75.27022462338736,-0.7531666338372852,6.125274136194474,"(0.0, 0.0, 0.0, 0.0, 0.0, 0.0)",-36.251308863413364,-0.5979263836292362,3.0035627103739744,"(0.0, 0.0, 0.0, 0.0, 0.0, 0.0)",65.2259828394949,0.7578363739288045,-5.711235929609977,"(0.0, 0.0, 0.0, 0.0, 0.0, 0.0)",34.52286036024936,True,"(-0.015082931008984973, 0.18312490286528652, 0.0560006419201437)","(0.9999879505487429, 0.004866998673818299, 0.0006411561697501504)",-0.0037672689588186497,562.4894909075546,True,"(0.04391839564581043, 0.18105792336041077, 0.05600202929086372)","(-0.9999690432236369, -0.00760247701564452, 0.002028530904501489)",-0.00012239558565798348,508.51216900363346
38,Move,"(-0.0013000000000000002, 0.0, -0.0159)","(0.0, 0.1470247908587503, 0.0)","(0.01281729702741136, 0.1654618855889926, 0.050709717453599125)","(-0.0714164141110999, 0.003519097674662279, 0.007594465637439648)","[0.009590593507795262, 0.006583459863423957, 0.0026526746293820402]","[-0.026750000193715096, 0.05299999937415123, 0.03999999910593033]","[0.0, -0.0, 0.3699528969287725]","[-0.05278314650058746, 0.12012879550457001, 0.03999999910593033]","[0.0, 0.0, -0.36341423916398025]","[0.026750000193715096, 0.05299999937415123, 0.03999999910593033]","[0.0, 0.0, -0.5880811887271071]","[0.06669312715530396, 0.11290448158979416, 0.03999999910593033]","[0.0, -0.0, 0.15097795316628188]",0.37224788870381387,0.5508022154784515,"(0.0, 0.0, 0.0, 0.0, 0.0, 0.0)",-2.6249492617719907,-0.7342074320594394,-0.20168072804634227,"(0.0, 0.0, 0.0, 0.0, 0.0, 0.0)",-1.3359189654719692,-0.5884712970296236,-0.09361748635849633,"(0.0, 0.0, 0.0, 0.0, 0.0, 0.0)",2.287412481953125,0.7398034276384405,0.17862140620428035,"(0.0, 0.0, 0.0, 0.0, 0.0, 0.0)",1.3139228598194572,True,"(-0.01572633781963688, 0.18464956134094965, 0.0560006419201437)","(0.9999879505487429, 0.004866998673818299, 0.0006411561697501504)",-0.0030060747454576575,18.566198805130234,True,"(0.0439898209265169, 0.1824188407239028, 0.05600379019081955)","(-0.9999639508014947, -0.007598507170539494, 0.0037894308603293233)",-0.0001712983332413984,17.980183329738313
39,Move,"(-0.0009000000000000001, 0.0, -0.0162)","(0.0, 0.14520441244892024, 0.0)","(0.012685620817477565, 0.1653953488756572, 0.050711237197748)","(-0.06785003650014368, 0.0022968342217644017, 0.00788781814249095)","[0.009458917297861467, 0.0065169231500885605, 0.002654194373530913]","[-0.026750000193715096, 0.05299999937415123, 0.03999999910593033]","[0.0, -0.0, 0.37833636750372646]","[-0.05334499850869179, 0.11990819126367569, 0.03999999910593033]","[0.0, 0.0, -0.35485228030470295]","[0.026750000193715096, 0.05299999937415123, 0.03999999910593033]","[0.0, 0.0, -0.5868688946915896]","[0.06662046909332275, 0.11295285820960999, 0.03999999910593033]","[0.0, -0.0, 0.15121544556069022]",0.3794183319510724,0.2596703047228112,"(0.0, 0.0, 0.0, 0.0, 0.0, 0.0)",-1.5290463255834728,-0.7326639553761056,0.12592479746136073,"(0.0, 0.0, 0.0, 0.0, 0.0, 0.0)",-0.6503369780020328,-0.5863438716830505,0.1260048208063996,"(0.0, 0.0, 0.0, 0.0, 0.0, 0.0)",1.986103876990692,0.7373856527920793,-0.16768432412227896,"(0.0, 0.0, 0.0, 0.0, 0.0, 0.0)",0.9858153240195656,True,"(-0.016841965018672723, 0.18474386585149496, 0.0560006419201437)","(0.9999879505487429, 0.004866998673818299, 0.0006411561697501504)",-0.0020264155443284666,11.408117813915823,True,"(0.04390065487761535, 0.18246178613999176, 0.056002520999807584)","(-0.9999658005354298, -0.007876937897675074, 0.0025202398483663052)",-0.00012554984146988593,15.087117957646694
40,Move,"(-0.0029, 0.0, -0.014400000000000001)","(0.0, 0.1708869323920168, 0.0)","(0.0122736840434229, 0.16527823833260546, 0.050349046888946834)","(-0.051737122570896556, 0.0014949631860996751, 0.013831201532096679)","[0.009046980523806803, 0.006399812607036814, 0.0022920040647297496]","[-0.026750000193715096, 0.05299999937415123, 0.03999999910593033]","[0.0, -0.0, 0.3859610396903542]","[-0.05385437235236168, 0.11970347166061401, 0.03999999910593033]","[0.0, 0.0, -0.345578240671969]","[0.026750000193715096, 0.05299999937415123, 0.03999999910593033]","[0.0, 0.0, -0.5826227108520765]","[0.06636554002761841, 0.11312162131071091, 0.03999999910593033]","[0.0, -0.0, 0.15339822587717067]",0.38746194234549713,0.3602290348548324,"(0.0, 0.0, 0.0, 0.0, 0.0, 0.0)",-0.7726323581113971,-0.7313193313357192,0.052775712250111406,"(0.0, 0.0, 0.0, 0.0, 0.0, 0.0)",-0.32130581390323304,-0.5817496992839302,0.20950798885227,"(0.0, 0.0, 0.0, 0.0, 0.0, 0.0)",0.8221315890784688,0.7358075179559732,-0.05120481491855145,"(0.0, 0.0, 0.0, 0.0, 0.0, 0.0)",0.4292757019312397,True,"(-0.017954185251266797, 0.18487488346659772, 0.0560006419201437)","(0.9999879505487429, 0.004866998673818299, 0.0006411561697501504)",-0.0013670097377336318,5.255309033312595,True,"(0.043494079408410394, 0.18257833583877595, 0.05600161771190327)","(-0.9999204297396651, -0.01251078157648122, 0.0016169519440484147)",-9.30129327655961e-05,6.486905474873591
41,Move,"(-0.003, 0.0, -0.0156)","(0.0, 0.19064405952459257, 0.0)","(0.01185842277062755, 0.1645872922733915, 0.04920262397730694)","(-0.01189085284247833, -0.0010416750439260737, 0.024363508031402345)","[0.008631719251011452, 0.0057088665478228495, 0.001145581153089853]","[-0.026750000193715096, 0.05299999937415123, 0.03999999910593033]","[0.0, -0.0, 0.39399565373662165]","[-0.05438942462205887, 0.11948354542255402, 0.03999999910593033]","[0.0, 0.0, -0.3369501834739911]","[0.026750000193715096, 0.05299999937415123, 0.03999999910593033]","[0.0, 0.0, -0.5777642584021533]","[0.066072978079319, 0.11331337690353394, 0.03999999910593033]","[0.0, -0.0, 0.15766234153625372]",0.3953931107320093,0.33540663750679933,"(0.0, 0.0, 0.0, 0.0, 0.0, 0.0)",-0.2735655787282823,-0.7308655903028469,0.019235982152758572,"(0.0, 0.0, 0.0, 0.0, 0.0, 0.0)",-0.09962681097886965,-0.576907195137175,0.20569334434395434,"(0.0, 0.0, 0.0, 0.0, 0.0, 0.0)",0.337834100531502,0.7353241369757197,-0.024590263322209763,"(0.0, 0.0, 0.0, 0.0, 0.0, 0.0)",0.18163677516833396,True,"(-0.019049562599835465, 0.18489992887915624, 0.05600112742565323)","(0.9997609399989948, 0.02183560113072091, 0.001126665694012215)",-0.0009208120939899038,1.6993283024084744,True,"(0.04290561372939359, 0.18266871617418248, 0.0560012648379624)","(-0.9998355344696366, -0.018091603539156825, 0.001264078003187097)",-6.320666101351431e-05,2.801581982945166
42,Move,"(-0.001, 0.0, -0.0157)","(0.0, 0.18024538784121039, 0.0)","(0.011745377755316491, 0.16391682202461064, 0.04870880812550611)","(0.013316681280680608, 0.002774027463430409, 0.03656737833142238)","[0.008518674235700394, 0.005038396299041986, 0.000651765301289027]","[-0.026750000193715096, 0.05299999937415123, 0.03999999910593033]","[0.0, -0.0, 0.40002178416326406]","[-0.05478956550359726, 0.11931578069925308, 0.03999999910593033]","[0.0, 0.0, -0.33026201003957234]","[0.026750000193715096, 0.05299999937415123, 0.03999999910593033]","[0.0, 0.0, -0.5746550024219302]","[0.06588525325059891, 0.11343535035848618, 0.03999999910593033]","[0.0, -0.0, 0.15975248446104992]",0.40091416613713415,0.2141726219292441,"(0.0, 0.0, 0.0, 0.0, 0.0, 0.0)",-0.14845679192544345,-0.7303411269817872,-0.013752296271136943,"(0.0, 0.0, 0.0, 0.0, 0.0, 0.0)",-0.051786271669391884,-0.5742376221299781,0.10016589759759233,"(0.0, 0.0, 0.0, 0.0, 0.0, 0.0)",-0.01192691870973997,0.7344991271405465,0.02200026227128493,"(0.0, 0.0, 0.0, 0.0, 0.0, 0.0)",0.0011996564270706936,True,"(-0.0198881096637072, 0.18497066138944607, 0.05600089175897843)","(0.9995643715155195, 0.02950039520976022, 0.0008909990192078777)",-0.000496138499865903,0.4140211687155323,True,"(0.042573367720405146, 0.18272882920392594, 0.05600301676420954)","(-0.999369723810782, -0.03537031027179266, 0.0030160042503203257)",-3.160058563152418e-05,0.0
43,Move,"(-0.0019, 0.0, -0.0172)","(0.0, 0.11675554564141268, 0.0)","(0.011490733268465276, 0.16423116845919197, 0.048736281412661606)","(0.006486818490195984, 0.001822873092229941, 0.03989316251413395)","[0.008264029748849178, 0.005352742733623322, 0.000679238588444521]","[-0.026750000193715096, 0.05299999937415123, 0.03999999910593033]","[0.0, -0.0, 0.4055712543259489]","[-0.055157147347927094, 0.11915915459394455, 0.03999999910593033]","[0.0, 0.0, -0.3248081659141438]","[0.026750000193715096, 0.05299999937415123, 0.03999999910593033]","[0.0, 0.0, -0.572256153086281]","[0.06574016809463501, 0.11352905631065369, 0.03999999910593033]","[0.0, -0.0, 0.1621493664531635]",0.4066079872138434,0.2488185560191311,"(0.0, 0.0, 0.0, 0.0, 0.0, 0.0)",-0.04007624479238226,-0.730375537020282,0.0009176010265274925,"(0.0, 0.0, 0.0, 0.0, 0.0, 0.0)",-0.0028742963189929416,-0.5718233384779118,0.10386100682482528,"(0.0, 0.0, 0.0, 0.0, 0.0, 0.0)",0.5421037940112982,0.7343772466585906,-0.006768431947961918,"(0.0, 0.0, 0.0, 0.0, 0.0, 0.0)",0.3329913798539814,True,"(-0.020614287307758106, 0.18500340914770302, 0.05600089175897843)","(0.9995643715155195, 0.02950039520976022, 0.0008909990192078777)",-0.00011299319300020117,0.0,True,"(0.04226231352501202, 0.18276492533529892, 0.056001981531619074)","(-0.9992254217148606, -0.039301821107809345, 0.0019807716598549668)",-1.8727083254642284e-05,4.481824287934569
44,Move,"(0.0025, 0.0, -0.0176)","(0.0, 0.10333396369357628, 0.0)","(0.011426272758265485, 0.1643515335603246, 0.04882294069598407)","(0.004180442226030172, 0.0012574259612619667, 0.040414729543203236)","[0.008199569238649387, 0.005473107834755936, 0.0007658978717669865]","[-0.026750000193715096, 0.05299999937415123, 0.03999999910593033]","[0.0, -0.0, 0.4084786759986863]","[-0.05534938722848892, 0.11907628178596497, 0.03999999910593033]","[0.0, 0.0, -0.32189425696639945]","[0.026750000193715096, 0.05299999937415123, 0.03999999910593033]","[0.0, 0.0, -0.5727222151445579]","[0.06576837599277496, 0.11351087689399719, 0.03999999910593033]","[0.0, -0.0, 0.16163064082900405]",0.4087310075270721,0.06053904573890945,"(0.0, 0.0, 0.0, 0.0, 0.0, 0.0)",-0.009748226090652519,-0.7303732793773701,-6.020373976615989e-05,"(0.0, 0.0, 0.0, 0.0, 0.0, 0.0)",-0.0006963155357997343,-0.5730686982809304,-0.08316109320413911,"(0.0, 0.0, 0.0, 0.0, 0.0, 0.0)",0.013385005499365148,0.734355272564902,0.0005859757344641312,"(0.0, 0.0, 0.0, 0.0, 0.0, 0.0)",0.0009506792507227028,True,"(-0.020998532575202733, 0.1850209083686675, 0.05600089175897843)","(0.9995643715155195, 0.02950039520976022, 0.0008909990192078777)",0.00014112495864633689,0.0,True,"(0.042326502160569504, 0.1827572942220373, 0.056001335858194515)","(-0.9991825426392357, -0.04040376217252644, 0.0013350982352955273)",0.00016816185253031666,0.0
45,Move,"(0.0035, 0.0, -0.0177)","(0.0, 0.06454576639725429, 0.0)","(0.011414543966075158, 0.16443641176034152, 0.04888020970115225)","(0.002446207746335243, 0.0010933963227735721, 0.040416157302347294)","[0.00818784044645906, 0.005557986034772866, 0.0008231668769351635]","[-0.026750000193715096, 0.05299999937415123, 0.03999999910593033]","[0.0, -0.0, 0.4094168565389019]","[-0.055411361157894135, 0.11904942244291306, 0.03999999910593033]","[0.0, 0.0, -0.32095656581525833]","[0.026750000193715096, 0.05299999937415123, 0.03999999910593033]","[0.0, 0.0, -0.5753864904337262]","[0.06592945009469986, 0.1134067103266716, 0.03999999910593033]","[0.0, -0.0, 0.15897042080604257]",0.4095403165861993,0.02962403172169894,"(0.0, 0.0, 0.0, 0.0, 0.0, 0.0)",-0.004770614250591058,-0.730373427500764,3.949957169346874e-06,"(0.0, 0.0, 0.0, 0.0, 0.0, 0.0)",-0.0003411375651847693,-0.5759260481217211,-0.12950274351860247,"(0.0, 0.0, 0.0, 0.0, 0.0, 0.0)",0.020854400473445018,0.7343567142879744,-3.8445948600696056e-05,"(0.0, 0.0, 0.0, 0.0, 0.0, 0.0)",0.00149126511083726,True,"(-0.021122359347217214, 0.18502623160514992, 0.05600089175897843)","(0.9995643715155195, 0.02950039520976022, 0.0008909990192078777)",0.0002500322147921402,0.0,True,"(0.042671977055039466, 0.18271258036988014, 0.056001100878110534)","(-0.9991827761552026, -0.040405068677523595, 0.0011001181513178035)",0.0005251226233912387,0.0
46,Move,"(0.0054, 0.0, -0.016800000000000002)","(0.0, 0.13688617323391528, 0.0)","(0.011417459549913675, 0.16450409831923327, 0.04891787876039238)","(0.0010740657092870357, 0.0012129187073337217, 0.040415982523962876)","[0.008190756030297577, 0.005625672593664616, 0.0008608359361752943]","[-0.026750000193715096, 0.05299999937415123, 0.03999999910593033]","[0.0, -0.0, 0.40903234724721516]","[-0.05538596212863922, 0.1190604418516159, 0.03999999910593033]","[0.0, 0.0, -0.32134106117168243]","[0.026750000193715096, 0.05299999937415123, 0.03999999910593033]","[0.0, 0.0, -0.5789256161569903]","[0.06614299863576889, 0.11326766759157181, 0.03999999910593033]","[0.0, -0.0, 0.15543097501487552]",0.40886582856542236,-0.03996648773639144,"(0.0, 0.0, 0.0, 0.0, 0.0, 0.0)",0.006436065833751181,-0.7303734177567169,-2.6049948739819705e-07,"(0.0, 0.0, 0.0, 0.0, 0.0, 0.0)",0.0004601696480778724,-0.5796019131543512,-0.162303749955341,"(0.0, 0.0, 0.0, 0.0, 0.0, 0.0)",0.026135582753339343,0.7343566197095158,2.519419812295369e-06,"(0.0, 0.0, 0.0, 0.0, 0.0, 0.0)",0.001868281862873617,True,"(-0.021071593844698915, 0.18502405879804712, 0.05600089175897843)","(0.9995643715155195, 0.02950039520976022, 0.0008909990192078777)",0.0002021516174908961,0.0,True,"(0.04313110962596678, 0.18265188640940427, 0.05600117047482522)","(-0.9991826963286131, -0.040405087855549006, 0.0011697148660008772)",0.0009777808694602398,0.0
47,Move,"(0.0075, 0.0, -0.016800000000000002)","(0.0, 0.18235898156537556, 0.0)","(0.011564601293971, 0.1645738402998329, 0.04894262588814604)","(-0.0002395418965623675, 0.0017305941648985542, 0.03885354908511691)","[0.008337897774354902, 0.005695414574264257, 0.0008855830639289547]","[-0.026750000193715096, 0.05299999937415123, 0.03999999910593033]","[0.0, -0.0, 0.40680177995742883]","[-0.05523853749036789, 0.1191241517663002, 0.03999999910593033]","[0.0, 0.0, -0.3233360829693119]","[0.026750000193715096, 0.05299999937415123, 0.03999999910593033]","[0.0, 0.0, -0.583487649374234]","[0.06641753017902374, 0.11308732628822327, 0.03999999910593033]","[0.0, -0.0, 0.1508689474247708]",0.4062837165763802,-0.12433463100903146,"(0.0, 0.0, 0.0, 0.0, 0.0, 0.0)",-0.494813772747695,-0.7301407901845443,-0.0007063591738891333,"(0.0, 0.0, 0.0, 0.0, 0.0, 0.0)",-0.28106506771179507,-0.5843692659075826,-0.21157562168271848,"(0.0, 0.0, 0.0, 0.0, 0.0, 0.0)",0.034069176729944174,0.7343566259088907,-1.6531666435781744e-07,"(0.0, 0.0, 0.0, 0.0, 0.0, 0.0)",0.0024352684036316997,True,"(-0.020792640159889984, 0.18501918047544175, 0.05600089175897843)","(0.9995643715155195, 0.02950039520976022, 0.0008909990192078777)",4.938329799701204e-05,0.0,False,,,,
48,Move,"(0.0075, 0.0, -0.016800000000000002)","(0.0, 0.18235898156537556, 0.0)","(0.013325104610997, 0.1661877696238488, 0.04976744712816734)","(-0.03806106768387938, -0.001171386819534738, 0.002373253853148262)","[0.010098401091380903, 0.007309343898280141, 0.0017104043039502526]","[-0.026750000193715096, 0.05299999937415123, 0.03999999910593033]","[0.0, -0.0, 0.3556549159008147]","[-0.05182071402668953, 0.12049414217472076, 0.03999999910593033]","[0.0, 0.0, -0.3203290639540206]","[0.026750000193715096, 0.05299999937415123, 0.03999999910593033]","[0.0, 0.0, -0.5379810078947335]","[0.06364303827285767, 0.1148296371102333, 0.03999999910593033]","[0.0, -0.0, 0.13992127545820093]",0.3427890478289175,-3.087812321286641,"(0.0, 0.0, 0.0, 0.0, 0.0, 0.0)",-64.91285668929922,-0.6534843807516098,5.399903620779223,"(0.0, 0.0, 0.0, 0.0, 0.0, 0.0)",-32.433386218590975,-0.5259485006113342,2.8878112613437694,"(0.0, 0.0, 0.0, 0.0, 0.0, 0.0)",66.84680588156282,0.6537625524488585,-5.793541765265815,"(0.0, 0.0, 0.0, 0.0, 0.0, 0.0)",34.43587363824713,True,"(-0.01757223947629711, 0.18645294960340092, 0.056000198599445064)","(0.9999967282196496, 0.0025503743910205703, 0.00019783948583415036)",-0.0005300697925219907,489.34883471347484,True,"(0.04170973560010654, 0.1845968342575286, 0.0560008715559813)","(-0.9999931106252079, -0.0036083813662164347, 0.0008707962085216796)",-0.0030667188200480203,499.1337290472426
49,Move,"(0.004200000000000001, 0.0, -0.0162)","(0.0, 0.18759147866285453, 0.0)","(0.01291322118928854, 0.1674644241929355, 0.05046554187625772)","(-0.06242368484693478, -0.0009698392906102926, -0.00034611215321919285)","[0.009686517669672443, 0.008585998467366851, 0.002408499052040637]","[-0.026750000193715096, 0.05299999937415123, 0.03999999910593033]","[0.0, -0.0, 0.3365804085437326]","[-0.050528813153505325, 0.1209600493311882, 0.03999999910593033]","[0.0, 0.0, -0.3002132007722327]","[0.026750000193715096, 0.05299999937415123, 0.03999999910593033]","[0.0, 0.0, -0.5195047222705976]","[0.06249441206455231, 0.11550069600343704, 0.03999999910593033]","[0.0, -0.0, 0.11573316139965557]",0.33804132786073077,0.3506227034126964,"(0.0, 0.0, 0.0, 0.0, 0.0, 0.0)",-1.6105164501168234,-0.6376704881055936,-0.2104564307865581,"(0.0, 0.0, 0.0, 0.0, 0.0, 0.0)",-0.8288998719833517,-0.5206811103741544,-0.282357745092083,"(0.0, 0.0, 0.0, 0.0, 0.0, 0.0)",2.169521924815574,0.6361362382163269,0.21562653692315226,"(0.0, 0.0, 0.0, 0.0, 0.0, 0.0)",1.1872412976676774,True,"(-0.01761373932994264, 0.18757253573771404, 0.0560010353019865)","(0.9999991458016382, 0.000798823376955506, 0.0010345420272740934)",-0.0008315667589540368,11.359388735297575,True,"(0.04225489915632801, 0.18577795835635924, 0.0560008715559813)","(-0.9999931106252079, -0.0036083813662164347, 0.0008707962085216796)",-0.002176717421584089,16.101159203341062
50,Move,"(0.0054, 0.0, -0.016399999999999998)","(0.0, 0.19064405952459257, 0.0)","(0.012801922237299023, 0.1673451191704432, 0.0503873010650952)","(-0.055996051043702616, -0.0006848647555250665, 0.0009690746120511548)","[0.009575218717682925, 0.008466693444874551, 0.0023302582408781178]","[-0.026750000193715096, 0.05299999937415123, 0.03999999910593033]","[0.0, -0.0, 0.33988099281289613]","[-0.05075298994779587, 0.12088119238615036, 0.03999999910593033]","[0.0, 0.0, -0.29689885899448143]","[0.026750000193715096, 0.05299999937415123, 0.03999999910593033]","[0.0, 0.0, -0.5232667304232969]","[0.06272929161787033, 0.11536578088998795, 0.03999999910593033]","[0.0, -0.0, 0.11154053994501947]",0.3400248948112035,0.0345427292002228,"(0.0, 0.0, 0.0, 0.0, 0.0, 0.0)",-1.3904859757439199,-0.6362761775796136,0.1208699693241473,"(0.0, 0.0, 0.0, 0.0, 0.0, 0.0)",-0.6162181755153708,-0.5236814109006559,-0.09952066387784533,"(0.0, 0.0, 0.0, 0.0, 0.0, 0.0)",1.7767291478739942,0.63421858451555,-0.14128466869763437,"(0.0, 0.0, 0.0, 0.0, 0.0, 0.0)",0.8693514960581221,True,"(-0.01805886489903224, 0.18759832029185058, 0.05600075350149915)","(0.9999997163707162, 2.527175059784609e-05, 0.0007527415399296742)",-0.000583763925919768,10.42799289415236,True,"(0.04278460553473889, 0.1857272807184538, 0.0560008715559813)","(-0.9999931106252079, -0.0036083813662164347, 0.0008707962085216796)",-0.00144852955983432,12.611325587885219
51,Move,"(0.0107, 0.0, -0.0181)","(0.0, 0.16568410589182173, 0.0)","(0.01322424452390784, 0.16700776682223406, 0.04977014117382473)","(-0.031053025762510345, -0.00034870027198316393, -0.006536438770730172)","[0.009997541004291743, 0.00812934109666541, 0.0017130983496076446]","[-0.026750000193715096, 0.05299999937415123, 0.03999999910593033]","[0.0, -0.0, 0.33731567582262706]","[-0.050578776746988297, 0.12094254791736603, 0.03999999910593033]","[0.0, 0.0, -0.298110501187346]","[0.026750000193715096, 0.05299999937415123, 0.03999999910593033]","[0.0, 0.0, -0.5293601797388472]","[0.0631086453795433, 0.11514538526535034, 0.03999999910593033]","[0.0, -0.0, 0.10395083986049844]",0.336550208498367,-0.18371565513359878,"(0.0, 0.0, 0.0, 0.0, 0.0, 0.0)",-0.5030590891328335,-0.6353508576948279,0.018071663518825422,"(0.0, 0.0, 0.0, 0.0, 0.0, 0.0)",-0.24677667354649127,-0.5307908512888595,-0.3433601113528983,"(0.0, 0.0, 0.0, 0.0, 0.0, 0.0)",0.4491234419283505,0.6331972621882165,-0.027302136379659826,"(0.0, 0.0, 0.0, 0.0, 0.0, 0.0)",0.19654564684580902,True,"(-0.017803847966207133, 0.18761689173578266, 0.056000378076307415)","(0.9999906680816973, -0.004303647510404002, 0.0003773163481887375)",-0.00040357255380798064,3.673273863932954,True,"(0.043698548983948024, 0.18565623256307628, 0.0560008715559813)","(-0.9999931106252079, -0.0036083813662164347, 0.0008707962085216796)",-0.0009616698849302364,2.666443087211595
52,Move,"(0.012, 0.0, -0.021)","(0.0, 0.08996648695255173, 0.0)","(0.01362540623708235, 0.1661835347284666, 0.04863384255556553)","(0.013742363651408641, -0.0015936830129439443, -0.028602230103965027)","[0.010398702717466252, 0.007305109002897936, 0.000576799731348443]","[-0.026750000193715096, 0.05299999937415123, 0.03999999910593033]","[0.0, -0.0, 0.33217069749369815]","[-0.05022890120744705, 0.12106424570083618, 0.03999999910593033]","[0.0, 0.0, -0.30310934929191785]","[0.026750000193715096, 0.05299999937415123, 0.03999999910593033]","[0.0, 0.0, -0.5386971183730447]","[0.0636872947216034, 0.11480320245027542, 0.03999999910593033]","[0.0, -0.0, 0.0944198672183958]",0.3312042198566771,-0.2319543418068371,"(0.0, 0.0, 0.0, 0.0, 0.0, 0.0)",-1.5272356624959798,-0.6348622670959744,0.10026413699091809,"(0.0, 0.0, 0.0, 0.0, 0.0, 0.0)",-0.8296334490481041,-0.5404958506142017,-0.4317149738604157,"(0.0, 0.0, 0.0, 0.0, 0.0, 0.0)",0.5460386099662562,0.6328254460464147,-0.06995068375684461,"(0.0, 0.0, 0.0, 0.0, 0.0, 0.0)",0.2522311542582994,True,"(-0.017121237881488505, 0.18756338828877653, 0.05600011041948947)","(0.9998245253637934, -0.018732497320229642, 0.00010965953024209749)",-0.0002210749291246415,11.666256775154338,True,"(0.04494880641216002, 0.1854615454104488, 0.023999889580510535)","(-0.9998245253637937, 0.018732497320220344, -0.00010965953024084936)",-0.0004951109734455567,3.679334831375256
53,Move,"(0.009800000000000001, 0.0, -0.0257)","(0.0, 0.025778513051956248, 0.0)","(0.014080234828535107, 0.16620698778996199, 0.048724756197078285)","(0.006873173935841571, -0.0013122354244801025, -0.039373538505719057)","[0.01085353130891901, 0.007328562064393335, 0.0006677133728612006]","[-0.026750000193715096, 0.05299999937415123, 0.03999999910593033]","[0.0, -0.0, 0.3275716996232589]","[-0.0499156229197979, 0.1211715042591095, 0.03999999910593033]","[0.0, 0.0, -0.3072838607180979]","[0.026750000193715096, 0.05299999937415123, 0.03999999910593033]","[0.0, 0.0, -0.5477666940420224]","[0.06424630433320999, 0.11446566134691238, 0.03999999910593033]","[0.0, -0.0, 0.08508587899298922]",0.32683540981372616,-0.1767039536609162,"(0.0, 0.0, 0.0, 0.0, 0.0, 0.0)",-0.11965664249972302,-0.6348450038008016,0.0025198265361509246,"(0.0, 0.0, 0.0, 0.0, 0.0, 0.0)",-0.0773648914159982,-0.5492920204233919,-0.36608457805068806,"(0.0, 0.0, 0.0, 0.0, 0.0, 0.0)",0.0589531547315443,0.6328498409034785,-0.0006505295217014151,"(0.0, 0.0, 0.0, 0.0, 0.0, 0.0)",0.004219959606403482,True,"(-0.016531093799113813, 0.18751767168543448, 0.056001426142370636)","(0.9992691670980364, -0.0381981671311297, 0.001425382411413802)",-0.00012800585367141862,1.0866961025116257,True,"(0.04616842211335868, 0.18530399068982345, 0.023998573857629355)","(-0.9992691670980366, 0.038198167131127406, -0.0014253824114194697)",-5.335904082714927e-05,0.0
54,Move,"(0.006, 0.0, -0.0212)","(0.0, 0.1553779366587952, 0.0)","(0.014375881447753409, 0.1666438815203233, 0.048682212837774644)","(-0.0032106505436331994, 0.0015504832967702283, -0.041572475542751265)","[0.011149177928137311, 0.007765455794754655, 0.0006251700135575591]","[-0.026750000193715096, 0.05299999937415123, 0.03999999910593033]","[0.0, -0.0, 0.32623744438388635]","[-0.04982464760541916, 0.12120234966278076, 0.03999999910593033]","[0.0, 0.0, -0.30860005910049565]","[0.026750000193715096, 0.05299999937415123, 0.03999999910593033]","[0.0, 0.0, -0.552960883953633]","[0.06456506252288818, 0.11427006870508194, 0.03999999910593033]","[0.0, -0.0, 0.07988710351274526]",0.3262548167390647,0.004170687569073017,"(0.0, 0.0, 0.0, 0.0, 0.0, 0.0)",-0.0006695637637252517,-0.6348382306174404,-0.00018061822294038147,"(0.0, 0.0, 0.0, 0.0, 0.0, 0.0)",-4.594408189045862e-05,-0.5535786251465422,-0.148239673043185,"(0.0, 0.0, 0.0, 0.0, 0.0, 0.0)",0.023870578712277674,0.6328482403569032,4.2681241116558116e-05,"(0.0, 0.0, 0.0, 0.0, 0.0, 0.0)",0.0017059737072654979,True,"(-0.016352900391160045, 0.1875025168536773, 0.05600111102740885)","(0.9991355451040409, -0.041556345073179735, 0.0011102674496319838)",0.00014817087809330102,0.0,True,"(0.046855683780196944, 0.18520103173543015, 0.023998888972591146)","(-0.9991355451040409, 0.04155634507317918, -0.0011102674496298623)",0.00028188583304760405,0.0
55,Move,"(0.002, 0.0, -0.019899999999999998)","(0.0, 0.18235898156537556, 0.0)","(0.01435081851908517, 0.16659265404837134, 0.048787730866409564)","(-0.0021515653364988603, 0.0010835413952991738, -0.04156889810061862)","[0.011124114999469073, 0.007714228322802691, 0.0007306880421924788]","[-0.026750000193715096, 0.05299999937415123, 0.03999999910593033]","[0.0, -0.0, 0.32904355058065804]","[-0.05001593753695488, 0.121137335896492, 0.03999999910593033]","[0.0, 0.0, -0.3057952493751359]","[0.026750000193715096, 0.05299999937415123, 0.03999999910593033]","[0.0, 0.0, -0.5540040817708463]","[0.0646289512515068, 0.11423058807849884, 0.03999999910593033]","[0.0, -0.0, 0.07884430957553432]",0.32978948970683414,0.1790316934527891,"(0.0, 0.0, 0.0, 0.0, 0.0, 0.0)",-0.028829266264779406,-0.6348386877344737,1.2766423604674366e-05,"(0.0, 0.0, 0.0, 0.0, 0.0, 0.0)",-0.0020609591011521433,-0.5539689251877923,0.00842488351829296,"(0.0, 0.0, 0.0, 0.0, 0.0, 0.0)",-0.0013567017247505843,0.6328483341687784,-2.4745159491896226e-06,"(0.0, 0.0, 0.0, 0.0, 0.0, 0.0)",-9.698002457379868e-05,True,"(-0.016730282536586753, 0.1875311203854766, 0.05600111102740885)","(0.9991355451040409, -0.041556345073179735, 0.0011102674496319838)",0.0005001810867817034,0.0,True,"(0.04699354761434875, 0.18517998323383386, 0.023998888972591146)","(-0.9991355451040409, 0.04155634507317918, -0.0011102674496298623)",0.0004297551263927722,0.0
56,Move,"(0.0039, 0.0, -0.0185)","(0.0, 0.18846763394735566, 0.0)","(0.014334452176145356, 0.16655892842504472, 0.0488572615132913)","(-0.0014554065276266145, 0.0007789997309892221, -0.04156606409469464)","[0.011107748656529259, 0.007680502699476066, 0.0008002186890742127]","[-0.026750000193715096, 0.05299999937415123, 0.03999999910593033]","[0.0, -0.0, 0.3317335173903224]","[-0.05019913986325264, 0.12107450515031815, 0.03999999910593033]","[0.0, 0.0, -0.3031051642642324]","[0.026750000193715096, 0.05299999937415123, 0.03999999910593033]","[0.0, 0.0, -0.5550595352778855]","[0.06469355523586273, 0.11419057101011276, 0.03999999910593033]","[0.0, -0.0, 0.07778882619082184]",0.33207585735625206,0.08216347480890061,"(0.0, 0.0, 0.0, 0.0, 0.0, 0.0)",-0.013231099829512592,-0.6348386496456266,-7.510392424862155e-07,"(0.0, 0.0, 0.0, 0.0, 0.0, 0.0)",-0.0009459351868400357,-0.5553613678345011,-0.07244819178380357,"(0.0, 0.0, 0.0, 0.0, 0.0, 0.0)",0.011666663781013302,0.6328483339408301,-2.272971179897285e-07,"(0.0, 0.0, 0.0, 0.0, 0.0, 0.0)",0.0008341099319889879,True,"(-0.017092211354766434, 0.18755758963592592, 0.05600111102740885)","(0.9991355451040409, -0.041556345073179735, 0.0011102674496319838)",0.000844202434241433,0.0,True,"(0.047133049198389745, 0.18515854329310072, 0.023998888972591146)","(-0.9991355451040409, 0.04155634507317918, -0.0011102674496298623)",0.0005780545391033766,0.0
57,Move,"(0.0047, 0.0, -0.0158)","(0.0, 0.11176215865145692, 0.0)","(0.014323686731688722, 0.16653667975783873, 0.048903076396898316)","(-0.0009973310908216507, 0.0005789407995600972, -0.04156364898827888)","[0.011096983212072625, 0.007658254032270079, 0.0008460335726812318]","[-0.026750000193715096, 0.05299999937415123, 0.03999999910593033]","[0.0, -0.0, 0.3332638588970989]","[-0.05030329152941704, 0.1210385337471962, 0.03999999910593033]","[0.0, 0.0, -0.30157478350853656]","[0.026750000193715096, 0.05299999937415123, 0.03999999910593033]","[0.0, 0.0, -0.5578915731066632]","[0.06486669927835464, 0.11408287286758423, 0.03999999910593033]","[0.0, -0.0, 0.07495684432043309]",0.33350055798002337,0.05680667790430327,"(0.0, 0.0, 0.0, 0.0, 0.0, 0.0)",-0.00914789368163857,-0.6348386498167997,1.875600380044809e-07,"(0.0, 0.0, 0.0, 0.0, 0.0, 0.0)",-0.0006540452678651449,-0.5584990381482635,-0.1458079498303393,"(0.0, 0.0, 0.0, 0.0, 0.0, 0.0)",0.023479468806318734,0.6328483388603667,-6.0081207111595e-07,"(0.0, 0.0, 0.0, 0.0, 0.0, 0.0)",0.0016784880822009627,True,"(-0.017298143050008104, 0.18757221176459926, 0.05600111102740885)","(0.9991355451040409, -0.041556345073179735, 0.0011102674496319838)",0.0010382591203446673,0.0,True,"(0.04750724010950808, 0.1851002883956786, 0.023998888972591146)","(-0.9991355451040409, 0.04155634507317918, -0.0011102674496298623)",0.0009596441106754386,0.0
58,Move,"(0.008, 0.0, -0.016300000000000002)","(0.0, 0.05125159348481349, 0.0)","(0.014316600644998671, 0.16652197602111, 0.048933268338054496)","(-0.0006959160625417013, 0.000447520522485638, -0.04156142976747612)","[0.011089897125382574, 0.00764355029554134, 0.0008762255138374114]","[-0.026750000193715096, 0.05299999937415123, 0.03999999910593033]","[0.0, -0.0, 0.3322514505041859]","[-0.05023439601063728, 0.12106234580278397, 0.03999999910593033]","[0.0, 0.0, -0.30258719326744954]","[0.026750000193715096, 0.05299999937415123, 0.03999999910593033]","[0.0, 0.0, -0.5636499559496227]","[0.06521780788898468, 0.11386236548423767, 0.03999999910593033]","[0.0, -0.0, 0.06919841736843231]",0.33185813404806663,-0.09439643864733281,"(0.0, 0.0, 0.0, 0.0, 0.0, 0.0)",0.015200967265850537,-0.6348386384812416,-6.06347306999431e-07,"(0.0, 0.0, 0.0, 0.0, 0.0, 0.0)",0.001086763626568436,-0.5648884627872838,-0.2972460421515865,"(0.0, 0.0, 0.0, 0.0, 0.0, 0.0)",0.047862807309720846,0.6328483486879386,-1.2191822071163006e-06,"(0.0, 0.0, 0.0, 0.0, 0.0, 0.0)",0.003420826772452552,True,"(-0.01716190651077959, 0.18756257412045926, 0.05600111102740885)","(0.9991355451040409, -0.041556345073179735, 0.0011102674496319838)",0.0008936327400010873,0.0,False,,,,
59,Move,"(0.008, 0.0, -0.016300000000000002)","(0.0, 0.05125159348481349, 0.0)","(0.01564339943509557, 0.16789306666837142, 0.04963741127691228)","(-0.03540913435023313, -0.0018238912117153477, -0.06162173904414744)","[0.012416695915479472, 0.00901464094280277, 0.0015803684526951925]","[-0.026750000193715096, 0.05299999937415123, 0.03999999910593033]","[0.0, -0.0, 0.28387410392475637]","[-0.046915531158447266, 0.12211838364601135, 0.03999999910593033]","[0.0, 0.0, -0.30111215717657147]","[0.026750000193715096, 0.05299999937415123, 0.03999999910593033]","[0.0, 0.0, -0.5208141133213563]","[0.06257622689008713, 0.11545383185148239, 0.03999999910593033]","[0.0, -0.0, 0.05925028679640109]",0.27162831876306265,-2.938995381910533,"(0.0, 0.0, 0.0, 0.0, 0.0, 0.0)",-60.34353179387621,-0.5638469906655061,5.073438182471874,"(0.0, 0.0, 0.0, 0.0, 0.0, 0.0)",-30.198678496556177,-0.509255140380987,2.774149990925041,"(0.0, 0.0, 0.0, 0.0, 0.0, 0.0)",62.7355241626194,0.5573564971435416,-5.449892315626646,"(0.0, 0.0, 0.0, 0.0, 0.0, 0.0)",32.33128432194251,True,"(-0.013942479707009493, 0.18863983544317758, 0.05600101968931521)","(0.9981051858208398, -0.06152235220238362, 0.0010189293559881567)",-0.0005913945018467059,446.50505025920984,True,"(0.0463360804514224, 0.18675867145761402, 0.056000961004786076)","(-0.9981024791371945, 0.0615671915027526, 0.0009602450987678039)",-0.0020025002477542225,460.2569726810522
60,Move,"(0.012199999999999999, 0.0, -0.016300000000000002)","(0.0, 0.026150268182631043, 0.0)","(0.01652341201467755, 0.16932091163479837, 0.05025551634540159)","(-0.05512483954439165, -0.0015575727489892997, -0.06271572189235587)","[0.013296708495061451, 0.01044248590922972, 0.0021984735211845047]","[-0.026750000193715096, 0.05299999937415123, 0.03999999910593033]","[0.0, -0.0, 0.2600510565063584]","[-0.04526335000991821, 0.12257913500070572, 0.03999999910593033]","[0.0, 0.0, -0.2898596145683955]","[0.026750000193715096, 0.05299999937415123, 0.03999999910593033]","[0.0, 0.0, -0.5095520449521549]","[0.06187060847878456, 0.11585333943367004, 0.03999999910593033]","[0.0, -0.0, 0.032579918660985197]",0.25990961473100477,-0.0339385387516485,"(0.0, 0.0, 0.0, 0.0, 0.0, 0.0)",-0.4357475682175727,-0.5511925128198968,-0.3076599085771581,"(0.0, 0.0, 0.0, 0.0, 0.0, 0.0)",-0.23802292791383753,-0.5124277450701358,-0.6901663240701045,"(0.0, 0.0, 0.0, 0.0, 0.0, 0.0)",0.2147551931231868,0.5435573634754577,0.34209432216309094,"(0.0, 0.0, 0.0, 0.0, 0.0, 0.0)",0.06508220432099628,True,"(-0.0130416300046532, 0.18945472472827563, 0.05600169786735545)","(0.9980146619722436, -0.06295914798433999, 0.001697107396222633)",-0.0008518243475987132,2.7324352295342407,True,"(0.04753774141689815, 0.18756589984767183, 0.056000961004786076)","(-0.9981024791371945, 0.0615671915027526, 0.0009602450987678039)",-0.0014450180971754586,0.8182207114580183
61,Move,"(0.0149, 0.0, -0.016399999999999998)","(0.0, 0.025778513051956248, 0.0)","(0.01785135766090053, 0.16921656723879402, 0.049880618474134164)","(-0.0393376453913879, 0.0007920153166308125, -0.06005830933756773)","[0.014624654141284433, 0.010338141513225374, 0.0018235756499170794]","[-0.026750000193715096, 0.05299999937415123, 0.03999999910593033]","[0.0, -0.0, 0.25445511879760385]","[-0.04487370327115059, 0.1226816400885582, 0.03999999910593033]","[0.0, 0.0, -0.2973645496709431]","[0.026750000193715096, 0.05299999937415123, 0.03999999910593033]","[0.0, 0.0, -0.5230338087350695]","[0.06271477043628693, 0.11537415534257889, 0.03999999910593033]","[0.0, -0.0, 0.02126434986550952]",0.25302254659366935,-0.3438124291003176,"(0.0, 0.0, 0.0, 0.0, 0.0, 0.0)",-0.23635351324295129,-0.5516883420606511,0.031512833058312456,"(0.0, 0.0, 0.0, 0.0, 0.0, 0.0)",-0.13440638374099795,-0.5251921628365793,-0.5179997674975754,"(0.0, 0.0, 0.0, 0.0, 0.0, 0.0)",0.23847548233723817,0.5441183922223004,-0.04314944528281162,"(0.0, 0.0, 0.0, 0.0, 0.0, 0.0)",0.09207454360524306,True,"(-0.012150681006885586, 0.18931811574389704, 0.05600131368448023)","(0.998023568545307, -0.062827007387689, 0.0013129245210093507)",-0.0005031120374391434,1.5411734716562717,True,"(0.049188765634529195, 0.18718761725665725, 0.02399868631551976)","(-0.9980235685453078, 0.06282700738768036, -0.0013129245210147472)",-0.0009871339808659699,0.9911736682537888
62,Move,"(0.012400000000000001, 0.0, -0.012400000000000001)","(0.0, 0.06454576639725429, 0.0)","(0.018559369461896725, 0.16790950918398526, 0.048653219005256716)","(0.004545514521640439, -0.00045080093880563166, -0.055538857751048956)","[0.015332665942280627, 0.009031083458416606, 0.0005961761810396315]","[-0.026750000193715096, 0.05299999937415123, 0.03999999910593033]","[0.0, -0.0, 0.24966976917044043]","[-0.04454004764556885, 0.12276757508516312, 0.03999999910593033]","[0.0, 0.0, -0.30191812256161593]","[0.026750000193715096, 0.05299999937415123, 0.03999999910593033]","[0.0, 0.0, -0.5327789693608657]","[0.06332089006900787, 0.11502072215080261, 0.03999999910593033]","[0.0, -0.0, 0.011206824046468736]",0.2491150318782907,-0.1331368124846879,"(0.0, 0.0, 0.0, 0.0, 0.0, 0.0)",-0.22904952846212429,-0.5515875159834848,8.59931797120646e-05,"(0.0, 0.0, 0.0, 0.0, 0.0, 0.0)",-0.11779628854063542,-0.5342968894231708,-0.36431643629868926,"(0.0, 0.0, 0.0, 0.0, 0.0, 0.0)",0.05862440099802592,0.5439989947080478,0.003183933713402531,"(0.0, 0.0, 0.0, 0.0, 0.0, 0.0)",0.004155534582340734,True,"(-0.011513116223329616, 0.18926705344336742, 0.023999401625158377)","(0.9983696307104363, -0.05707646915813534, -0.0005976148824070607)",-0.0003138910936294152,1.7497471686253323,True,"(0.05051635941780378, 0.18694487707462418, 0.02399951238041853)","(-0.9983997049979871, 0.05654902322445803, -0.0004868596222483602)",-0.0004983841411238367,0.0
63,Move,"(0.0119, 0.0, -0.0126)","(0.0, 0.05973912963726191, 0.0)","(0.019038185286432974, 0.16763226817908977, 0.04885566197231334)","(0.007821594022567649, 0.0038816173989598946, -0.05755912814542581)","[0.015811481766816876, 0.008753842453521121, 0.0007986191480962579]","[-0.026750000193715096, 0.05299999937415123, 0.03999999910593033]","[0.0, -0.0, 0.2469709077609908]","[-0.044351689517498016, 0.1228153333067894, 0.03999999910593033]","[0.0, 0.0, -0.3042801237649801]","[0.026750000193715096, 0.05299999937415123, 0.03999999910593033]","[0.0, 0.0, -0.5405621700387331]","[0.06380250304937363, 0.11473420262336731, 0.03999999910593033]","[0.0, -0.0, 0.003151999071708886]",0.24652068616130796,-0.10805003814063836,"(0.0, 0.0, 0.0, 0.0, 0.0, 0.0)",-0.4629074039951581,-0.5512679376275383,-0.004049629899860548,"(0.0, 0.0, 0.0, 0.0, 0.0, 0.0)",-0.2549206538701055,-0.5418723204753222,-0.3144260301899635,"(0.0, 0.0, 0.0, 0.0, 0.0, 0.0)",0.05055017687535905,0.5437426894565701,0.006834806706071284,"(0.0, 0.0, 0.0, 0.0, 0.0, 0.0)",0.003539789381218724,True,"(-0.011167580442359583, 0.1892400783503636, 0.023995779523985298)","(0.9983883149092347, -0.05659475814162883, -0.004219716055485241)",-0.00021439485750473353,3.331579290693629,True,"(0.051577557610274764, 0.18675662282215427, 0.02399954843911723)","(-0.9984580125841725, 0.05551030431363015, -0.0004508009235468495)",0.00012446389819595647,0.0
64,Move,"(0.0106, 0.0, -0.011)","(0.0, 0.06938556441303458, 0.0)","(0.01916812004258232, 0.16774669515557772, 0.04890147002835885)","(0.005144955983217275, 0.0025540118380784505, -0.060018638828121904)","[0.015941416522966222, 0.008868269430009068, 0.0008444272041417678]","[-0.026750000193715096, 0.05299999937415123, 0.03999999910593033]","[0.0, -0.0, 0.24557320687783013]","[-0.04425409063696861, 0.12283986806869507, 0.03999999910593033]","[0.0, 0.0, -0.3056000391843368]","[0.026750000193715096, 0.05299999937415123, 0.03999999910593033]","[0.0, 0.0, -0.5468300944251513]","[0.06418871879577637, 0.1145007535815239, 0.03999999910593033]","[0.0, 0.0, -0.0030687040111134637]",0.24542832268246054,-0.03477095833171614,"(0.0, 0.0, 0.0, 0.0, 0.0, 0.0)",-0.5505324278068547,-0.5511221140002185,0.012271601510881597,"(0.0, 0.0, 0.0, 0.0, 0.0, 0.0)",-0.29553743124195164,-0.547846550975639,-0.24395360567832736,"(0.0, 0.0, 0.0, 0.0, 0.0, 0.0)",0.03928754774609182,0.5437595056441196,-0.00044843166798536055,"(0.0, 0.0, 0.0, 0.0, 0.0, 0.0)",0.0028129320101277504,True,"(-0.010982436340057009, 0.18921902439269372, 0.02399722169045782)","(0.9982158915496505, -0.059643265135726084, -0.002777549582967389)",-0.00014382881828123943,3.9876952571054796,True,"(0.05241203263997649, 0.1865978253209747, 0.02399954843911723)","(-0.9984580125841725, 0.05551030431363015, -0.0004508009235468495)",0.0007071829124510869,0.0
65,Move,"(0.0066, 0.0, -0.011800000000000001)","(0.0, 0.08280714636087097, 0.0)","(0.019151775760477458, 0.1678382708223756, 0.04893184078959662)","(0.003297225616234262, 0.001634830930996248, -0.06032736511854974)","[0.01592507224086136, 0.008959845096806945, 0.0008747979653795368]","[-0.026750000193715096, 0.05299999937415123, 0.03999999910593033]","[0.0, -0.0, 0.24751150226671026]","[-0.044389426708221436, 0.12280580401420593, 0.03999999910593033]","[0.0, 0.0, -0.3035679328573812]","[0.026750000193715096, 0.05299999937415123, 0.03999999910593033]","[0.0, 0.0, -0.550115589536739]","[0.06439057737588882, 0.11437741667032242, 0.03999999910593033]","[0.0, 0.0, -0.0063573212240532195]",0.24810680210204486,0.14287493724027753,"(0.0, 0.0, 0.0, 0.0, 0.0, 0.0)",-0.022994786802750525,-0.551083723907353,-0.001023735809745574,"(0.0, 0.0, 0.0, 0.0, 0.0, 0.0)",-0.0016329446953314826,-0.5504798896632488,-0.0874299247832407,"(0.0, 0.0, 0.0, 0.0, 0.0, 0.0)",0.014078438783392544,0.5437584002226353,2.9477906246633268e-05,"(0.0, 0.0, 0.0, 0.0, 0.0, 0.0)",0.001006227044116106,True,"(-0.011252884919185774, 0.18924976474269162, 0.023998184477950033)","(0.998179337267166, -0.06028861659911518, -0.001814762090750872)",0.00016666308542759113,0.0,True,"(0.05285105514602857, 0.1865128269983725, 0.02399954843911723)","(-0.9984580125841725, 0.05551030431363015, -0.0004508009235468495)",0.0011109462529745047,0.0
66,Move,"(0.0054, 0.0, -0.012199999999999999)","(0.0, 0.08151385738514316, 0.0)","(0.019112790509599218, 0.16791767205859667, 0.04895215355011111)","(0.0017381574956845606, 0.0007359863022852746, -0.06032846514563431)","[0.01588608698998312, 0.009039246333028023, 0.000895110725894023]","[-0.026750000193715096, 0.05299999937415123, 0.03999999910593033]","[0.0, -0.0, 0.2514821161820584]","[-0.044666461646556854, 0.12273521721363068, 0.03999999910593033]","[0.0, 0.0, -0.2996043908317639]","[0.026750000193715096, 0.05299999937415123, 0.03999999910593033]","[0.0, 0.0, -0.5516820121961282]","[0.06448666751384735, 0.1143183782696724, 0.03999999910593033]","[0.0, 0.0, -0.007923483314632388]",0.252245966875525,0.18332391264493786,"(0.0, 0.0, 0.0, 0.0, 0.0, 0.0)",-0.029521100105288033,-0.551086242681346,6.716730647937651e-05,"(0.0, 0.0, 0.0, 0.0, 0.0, 0.0)",-0.002110975492503027,-0.5519171285818061,-0.05643984296278933,"(0.0, 0.0, 0.0, 0.0, 0.0, 0.0)",0.009088868831298386,0.5437584727493389,-1.9340454278093944e-06,"(0.0, 0.0, 0.0, 0.0, 0.0, 0.0)",0.0006498422657712744,True,"(-0.011793762511651963, 0.18930603117817588, 0.023999083472464707)","(0.9981803497118097, -0.060292211926217754, -0.0009157675760757227)",0.0006887473709380766,0.0,True,"(0.05306013808476951, 0.1864717771442816, 0.02399954843911723)","(-0.9984580125841725, 0.05551030431363015, -0.0004508009235468495)",0.001343215373916135,0.0
67,Move,"(0.0060999999999999995, 0.0, -0.0143)","(0.0, 0.025689501260104535, 0.0)","(0.01908643063096751, 0.1679698584273551, 0.048964764201586644)","(0.0007175030052021201, 0.00013223518134958362, -0.06032838504194073)","[0.01585972711135141, 0.009091432701786445, 0.0009077213773695594]","[-0.026750000193715096, 0.05299999937415123, 0.03999999910593033]","[0.0, -0.0, 0.25504517504007784]","[-0.044914815574884415, 0.12267093360424042, 0.03999999910593033]","[0.0, 0.0, -0.2960409173433962]","[0.026750000193715096, 0.05299999937415123, 0.03999999910593033]","[0.0, 0.0, -0.5538864625514622]","[0.06462175399065018, 0.1142350435256958, 0.03999999910593033]","[0.0, 0.0, -0.010127946506657829]",0.2556132288445169,0.13633580307114135,"(0.0, 0.0, 0.0, 0.0, 0.0, 0.0)",-0.0219535470344386,-0.5510860761160838,-4.441740324878652e-06,"(0.0, 0.0, 0.0, 0.0, 0.0, 0.0)",-0.0015693675402194697,-0.5543592249768214,-0.11347489787454132,"(0.0, 0.0, 0.0, 0.0, 0.0, 0.0)",0.018272556864072732,0.5437584675877473,1.3764244410907665e-07,"(0.0, 0.0, 0.0, 0.0, 0.0, 0.0)",0.001306311004346175,True,"(-0.012279760080433147, 0.18935491460892123, 0.023999867097390774)","(0.9981808356395742, -0.06029097693852195, -0.00013214265000969534)",0.0011581877441889225,0.0,False,,,,
68,Move,"(0.0060999999999999995, 0.0, -0.0143)","(0.0, 0.025689501260104535, 0.0)","(0.020166910752833642, 0.16932188003886442, 0.04904103251425302)","(0.0024057632101302964, -0.002419395013990235, -0.07141594702451023)","[0.016940207233217545, 0.010443454313295769, 0.0009839896900359357]","[-0.026750000193715096, 0.05299999937415123, 0.03999999910593033]","[0.0, -0.0, 0.21010866052974078]","[-0.04176676273345947, 0.12341659516096115, 0.03999999910593033]","[0.0, 0.0, -0.29353470588000785]","[0.026750000193715096, 0.05299999937415123, 0.03999999910593033]","[0.0, 0.0, -0.5125176223236675]","[0.06205684691667557, 0.11574891954660416, 0.03999999910593033]","[0.0, 0.0, -0.01986776396321361]",0.19828271302195247,-2.838226963180089,"(0.0, 0.0, 0.0, 0.0, 0.0, 0.0)",-58.43321651767226,-0.4832606341645238,4.891853364079844,"(0.0, 0.0, 0.0, 0.0, 0.0, 0.0)",-29.111735568675194,-0.5016739175795925,2.602469692113812,"(0.0, 0.0, 0.0, 0.0, 0.0, 0.0)",57.68581623205285,0.4709419947658314,-5.209867932565014,"(0.0, 0.0, 0.0, 0.0, 0.0, 0.0)",30.731732573089282,True,"(-0.009298996868974396, 0.19018107368247072, 0.02399986788949363)","(0.9981807493646219, -0.060292407025394255, -0.00013135054715626728)",-0.000483720960376132,406.51231091478184,True,"(0.05149188191101202, 0.1880202581784507, 0.023997547228473713)","(-0.9974290432664183, 0.07161907069986534, -0.0024520115670671203)",-0.0015974788936276298,427.0450182131779
69,Move,"(0.0058, 0.0, -0.0175)","(0.0, 0.06341304771270997, 0.0)","(0.020168934331510117, 0.1707853017177367, 0.04880161964873987)","(-0.0071590182416506835, -0.0014710354775199518, -0.06490477792628004)","[0.01694223081189402, 0.011906875992168053, 0.0007445768245227871]","[-0.026750000193715096, 0.05299999937415123, 0.03999999910593033]","[0.0, -0.0, 0.1940244362166782]","[-0.04063227400183678, 0.12364900857210159, 0.03999999910593033]","[0.0, 0.0, -0.27582543822477984]","[0.026750000193715096, 0.05299999937415123, 0.03999999910593033]","[0.0, 0.0, -0.4963982041003024]","[0.061040833592414856, 0.11630986630916595, 0.03999999910593033]","[0.0, 0.0, -0.03970947057333082]",0.19574254138423713,0.41234929225669026,"(0.0, 0.0, 0.0, 0.0, 0.0, 0.0)",-0.06311911795250043,-0.47119097374742575,-0.3218701371265339,"(0.0, 0.0, 0.0, 0.0, 0.0, 0.0)",-0.0012923532366252383,-0.4976040370936592,-0.2894026415358009,"(0.0, 0.0, 0.0, 0.0, 0.0, 0.0)",0.042662913771236176,0.45811404729439853,0.3420787689228573,"(0.0, 0.0, 0.0, 0.0, 0.0, 0.0)",-0.0006064711371430254,True,"(-0.009353206532321433, 0.19095333328059333, 0.023998480732974125)","(0.9978021998972956, -0.06624548298869948, -0.0015185070666590215)",-0.0006039654195910643,0.0,True,"(0.05190982729351073, 0.18875111727269198, 0.023998765742139338)","(-0.9978241882640305, 0.06591940380613172, -0.001233497901439101)",-0.0009948826724895865,0.0
70,Move,"(0.0075, 0.0, -0.0233)","(0.0, 0.06454576639725429, 0.0)","(0.020193822977301205, 0.1707220761213848, 0.04887085956769638)","(-0.004756323772325198, -0.0008920668048990892, -0.06409536035885507)","[0.016967119457685108, 0.011843650395816141, 0.000813816743479294]","[-0.026750000193715096, 0.05299999937415123, 0.03999999910593033]","[0.0, -0.0, 0.19878051950011183]","[-0.04096812754869461, 0.12358218431472778, 0.03999999910593033]","[0.0, 0.0, -0.2732903417943326]","[0.026750000193715096, 0.05299999937415123, 0.03999999910593033]","[0.0, 0.0, -0.5010711751891227]","[0.061336301267147064, 0.1161489337682724, 0.03999999910593033]","[0.0, 0.0, -0.04203834231222007]",0.19918176781579458,0.09630277117739092,"(0.0, 0.0, 0.0, 0.0, 0.0, 0.0)",-0.01575104894022491,-0.47198286406598927,0.021117075161693588,"(0.0, 0.0, 0.0, 0.0, 0.0, 0.0)",-0.0013517601884155323,-0.501711576311972,-0.15370083138258356,"(0.0, 0.0, 0.0, 0.0, 0.0, 0.0)",0.0250042115647931,0.45894093524695295,-0.022050345401450677,"(0.0, 0.0, 0.0, 0.0, 0.0, 0.0)",0.0020230628789094907,True,"(-0.00985978347472019, 0.19096558786148096, 0.023998480732974125)","(0.9978021998972956, -0.06624548298869948, -0.0015185070666590215)",-0.0001298643159142823,0.0,True,"(0.05237374922460324, 0.18860706229015542, 0.02399898171569741)","(-0.9979461697326186, 0.06405003481814829, -0.0010175243433667598)",-0.0004879175781756679,0.0
71,Move,"(0.009300000000000001, 0.0, -0.023100000000000002)","(0.0, 0.053339007270198704, 0.0)","(0.020221559032154415, 0.17061437807924637, 0.04891213586557846)","(-0.0026127181613505627, -0.0001776213427311837, -0.06409896474103488)","[0.016994855512538317, 0.01173595235367772, 0.0008550930413613739]","[-0.026750000193715096, 0.05299999937415123, 0.03999999910593033]","[0.0, -0.0, 0.20018463555802968]","[-0.0410672202706337, 0.12356214970350266, 0.03999999910593033]","[0.0, 0.0, -0.2717404426306577]","[0.026750000193715096, 0.05299999937415123, 0.03999999910593033]","[0.0, 0.0, -0.5060106149798799]","[0.061647795140743256, 0.11597732454538345, 0.03999999910593033]","[0.0, 0.0, -0.04712981763425863]",0.20035723346172613,0.041429331022314386,"(0.0, 0.0, 0.0, 0.0, 0.0, 0.0)",-0.006655693666939698,-0.4719308197694219,-0.0013860431137474132,"(0.0, 0.0, 0.0, 0.0, 0.0, 0.0)",-0.0004610716505097262,-0.507011972195367,-0.24033571377230695,"(0.0, 0.0, 0.0, 0.0, 0.0, 0.0)",0.038683493997490825,0.4588867328759701,0.0014346329993013798,"(0.0, 0.0, 0.0, 0.0, 0.0, 0.0)",0.0027497711752064603,True,"(-0.010063349909701813, 0.19099368879735423, 0.023998480732974125)","(0.9978021998972956, -0.06624548298869948, -0.0015185070666590215)",9.125883869939551e-05,0.0,True,"(0.05305393898214164, 0.1884750740373906, 0.023999665156935395)","(-0.9979463435134995, 0.06405453814145705, -0.00033408310538116245)",0.0001831622739835676,0.0
72,Move,"(0.008199999999999999, 0.0, -0.023600000000000003)","(0.0, 0.043708280457693996, 0.0)","(0.02025835129582377, 0.1705220724112507, 0.04893921636784513)","(-0.0007944074558937318, 0.0006999152112459435, -0.06409959946648267)","[0.01703164777620767, 0.011643646685682046, 0.0008821735436280453]","[-0.026750000193715096, 0.05299999937415123, 0.03999999910593033]","[0.0, -0.0, 0.2019688032962083]","[-0.04119309037923813, 0.12353649735450745, 0.03999999910593033]","[0.0, 0.0, -0.26996594585627487]","[0.026750000193715096, 0.05299999937415123, 0.03999999910593033]","[0.0, 0.0, -0.5108957651466658]","[0.0619550384581089, 0.11580609530210495, 0.03999999910593033]","[0.0, 0.0, -0.052005146944518535]",0.20236052804329263,0.09401414245627769,"(0.0, 0.0, 0.0, 0.0, 0.0, 0.0)",-0.015140558317206544,-0.47193428606800164,9.66758806791436e-05,"(0.0, 0.0, 0.0, 0.0, 0.0, 0.0)",-0.0010835143692028463,-0.5116981080755322,-0.19255657801329387,"(0.0, 0.0, 0.0, 0.0, 0.0, 0.0)",0.03100810902440983,0.4588902223850076,-0.00010173443635290362,"(0.0, 0.0, 0.0, 0.0, 0.0, 0.0)",0.0022177034011231275,True,"(-0.010309185470765286, 0.19101885717148417, 0.023999487292852683)","(0.9979461848980097, -0.06405583468805919, -0.0005119471881026947)",0.00035879037513827,0.0,True,"(0.05371466182406806, 0.18834388351062387, 0.023999821618698975)","(-0.9979463489055044, 0.06405507908692458, -0.00017762134179783367)",0.0008308903594353873,0.0
73,Move,"(0.012, 0.0, -0.0257)","(0.0, 0.04850444524217441, 0.0)","(0.020274592609696135, 0.17047260832562797, 0.04895688716494583)","(0.0001839336095811959, 0.001100350853873256, -0.06409786822137944)","[0.017047889090080037, 0.011594182600059316, 0.0008998443407287476]","[-0.026750000193715096, 0.05299999937415123, 0.03999999910593033]","[0.0, -0.0, 0.20149681738174371]","[-0.041159797459840775, 0.12354330718517303, 0.03999999910593033]","[0.0, 0.0, -0.27043699855681214]","[0.026750000193715096, 0.05299999937415123, 0.03999999910593033]","[0.0, 0.0, -0.5177352113003627]","[0.06238376349210739, 0.11556384712457657, 0.03999999910593033]","[0.0, 0.0, -0.05884490052013111]",0.20116962930638374,-0.07852350156299702,"(0.0, 0.0, 0.0, 0.0, 0.0, 0.0)",0.01264507453439716,-0.4719338497289907,-1.1888679483684134e-05,"(0.0, 0.0, 0.0, 0.0, 0.0, 0.0)",0.0009041509460597629,-0.5191648878538302,-0.34313795265381847,"(0.0, 0.0, 0.0, 0.0, 0.0, 0.0)",0.055251274264105,0.458890242422777,-1.6390943987528856e-06,"(0.0, 0.0, 0.0, 0.0, 0.0, 0.0)",0.003948508889284799,True,"(-0.010244073736541535, 0.19101158051042505, 0.023998783480422926)","(0.9979456424325013, -0.06405479434463932, -0.0012157596178574727)",0.00030988961700487253,0.0,False,,,,
74,Move,"(0.012, 0.0, -0.0257)","(0.0, 0.04850444524217441, 0.0)","(0.02205828103163835, 0.1712694756897545, 0.0491197785517957)","(0.002415424607344362, -0.004787713096902001, -0.08332248433444006)","[0.018831577512022253, 0.012391049964185857, 0.0010627357275786176]","[-0.026750000193715096, 0.05299999937415123, 0.03999999910593033]","[0.0, -0.0, 0.15786919893547424]","[-0.03806942701339722, 0.12410464882850647, 0.03999999910593033]","[0.0, 0.0, -0.26984324203858956]","[0.026750000193715096, 0.05299999937415123, 0.03999999910593033]","[0.0, 0.0, -0.48024549252331644]","[0.0600137785077095, 0.11685547232627869, 0.03999999910593033]","[0.0, 0.0, -0.07113127945899045]",0.14683666340697638,-2.6478075360136235,"(0.0, 0.0, 0.0, 0.0, 0.0, 0.0)",-56.41656330668602,-0.40783774103780196,4.769929980419579,"(0.0, 0.0, 0.0, 0.0, 0.0, 0.0)",-28.041693664767504,-0.46992413860463356,2.477134924706588,"(0.0, 0.0, 0.0, 0.0, 0.0, 0.0)",55.67362357780799,0.38809015657406715,-5.045784095383372,"(0.0, 0.0, 0.0, 0.0, 0.0, 0.0)",29.540178102588794,True,"(-0.00719372655240574, 0.19159188728024795, 0.02399900791013025)","(0.9979459558563197, -0.06405377783569885, -0.0009913299105320057)",-0.00041887766673370005,383.90560715111445,True,"(0.0531618825908052, 0.18953378848483415, 0.023995146112683077)","(-0.9965214095984002, 0.08319571031807897, -0.004853245994981361)",-0.0021316190452401926,407.1796210842121
75,Move,"(0.0083, 0.0, -0.028800000000000003)","(0.0, 0.026150268182631043, 0.0)","(0.022185062004003223, 0.17252296887458007, 0.04882357424554293)","(-0.00611760447955888, 0.004170386649724971, -0.08416725199828193)","[0.018958358484387126, 0.013644543149011423, 0.0007665314213258431]","[-0.026750000193715096, 0.05299999937415123, 0.03999999910593033]","[0.0, -0.0, 0.14176989823182448]","[-0.03692327439785004, 0.12427765876054764, 0.03999999910593033]","[0.0, 0.0, -0.25299211861977583]","[0.026750000193715096, 0.05299999937415123, 0.03999999910593033]","[0.0, 0.0, -0.46643961657001143]","[0.05912905931472778, 0.1173086017370224, 0.03999999910593033]","[0.0, 0.0, -0.09212703009475037]",0.14307834648949913,0.3140290129588695,"(0.0, 0.0, 0.0, 0.0, 0.0, 0.0)",-0.046953454788305704,-0.39606955031556207,-0.3138184192597308,"(0.0, 0.0, 0.0, 0.0, 0.0, 0.0)",-2.4210760828641937e-06,-0.46800192699523724,-0.3749402939066997,"(0.0, 0.0, 0.0, 0.0, 0.0, 0.0)",0.16076111538495724,0.37567827333056736,0.32774851755899054,"(0.0, 0.0, 0.0, 0.0, 0.0, 0.0)",0.0570175268324855,True,"(-0.007256223514734046, 0.19114585188190042, 0.023996896961878685)","(0.9966180201725877, -0.08211514925686025, -0.0031022781620992207)",-0.0006456399171692916,0.0,True,"(0.05284399135444429, 0.19019421817529636, 0.023990597743154162)","(-0.9965192683642106, 0.08322515098980171, -0.0047876948089060675)",-0.001282536383374066,0.7681970974072887
