OSUrobotics/InHand-Manipulation/AnalyseData/Data/Trial Data/Better/new_hand_expected_exp_2v2_b_n_1_kpNone_kdNone_dp1_step1_save_data.csv
,Phase,human_cube_pos,human_cube_orn,Cube_Pos,Cube_Orn,Cube_pos_in_start_pos,b'l_prox_pin'_link_pos,b'l_prox_pin'_link_orn,b'l_distal_pin'_link_pos,b'l_distal_pin'_link_orn,b'r_prox_pin'_link_pos,b'r_prox_pin'_link_orn,b'r_distal_pin'_link_pos,b'r_distal_pin'_link_orn,b'l_prox_pin'_joint_angle,b'l_prox_pin'_joint_vel,b'l_prox_pin'_joint_react_forces,b'l_prox_pin'_joint_motor_torque,b'l_distal_pin'_joint_angle,b'l_distal_pin'_joint_vel,b'l_distal_pin'_joint_react_forces,b'l_distal_pin'_joint_motor_torque,b'r_prox_pin'_joint_angle,b'r_prox_pin'_joint_vel,b'r_prox_pin'_joint_react_forces,b'r_prox_pin'_joint_motor_torque,b'r_distal_pin'_joint_angle,b'r_distal_pin'_joint_vel,b'r_distal_pin'_joint_react_forces,b'r_distal_pin'_joint_motor_torque,in_contact_l,contact_point_l_dist,contact_normal_l_dist,contact_distance_l_dist,contact_norm_force_l_dist,in_contact_r,contact_point_r_dist,contact_normal_r_dist,contact_distance_r_dist,contact_norm_force_r_dist
0,Open,,,,,,"[-0.026750000193715096, 0.05299999937415123, 0.03999999910593033]","[0.0, -0.0, 0.0]","[-0.026750000193715096, 0.125, 0.03999999910593033]","[0.0, -0.0, 0.0]","[0.026750000193715096, 0.05299999937415123, 0.03999999910593033]","[0.0, -0.0, 0.0]","[0.026750000193715096, 0.125, 0.03999999910593033]","[0.0, -0.0, 0.0]",0.0028636982559538428,0.6872875814289223,"(0.0, 0.0, 0.0, 0.0, 0.0, 0.0)",-74.42376671286476,0.025717978913313098,6.172314939195144,"(0.0, 0.0, 0.0, 0.0, 0.0, 0.0)",-28.347758017338414,-0.0028861714462846827,-0.6926811471083238,"(0.0, 0.0, 0.0, 0.0, 0.0, 0.0)",77.31812537484876,-0.025998027583603027,-6.239526620064726,"(0.0, 0.0, 0.0, 0.0, 0.0, 0.0)",29.325432325549183,False,,,,,False,,,,
1,Open,,,,,,"[-0.026750000193715096, 0.05299999937415123, 0.03999999910593033]","[0.0, -0.0, 0.0028636982488144678]","[-0.026956185698509216, 0.12499970197677612, 0.03999999910593033]","[0.0, -0.0, 0.028581675581217755]","[0.026750000193715096, 0.05299999937415123, 0.03999999910593033]","[0.0, 0.0, -0.0028861714423951343]","[0.026957804337143898, 0.12499970197677612, 0.03999999910593033]","[0.0, 0.0, -0.028884201286240394]",0.1595773284303585,37.61127124185712,"(0.0, 0.0, 0.0, 0.0, 0.0, 0.0)",53.472225824972774,0.02314589095046895,-0.6173011110825959,"(0.0, 0.0, 0.0, 0.0, 0.0, 0.0)",3.3014509125464437,-0.15959755430165623,-37.61073188528917,"(0.0, 0.0, 0.0, 0.0, 0.0, 0.0)",-53.45543824447724,-0.023397935520559333,0.6240220951304867,"(0.0, 0.0, 0.0, 0.0, 0.0, 0.0)",-3.2927232380167535,False,,,,,False,,,,
2,Open,,,,,,"[-0.026750000193715096, 0.05299999937415123, 0.03999999910593033]","[0.0, -0.0, 0.15957730699277592]","[-0.03819086775183678, 0.1240852028131485, 0.03999999910593033]","[0.0, -0.0, 0.1827232399786182]","[0.026750000193715096, 0.05299999937415123, 0.03999999910593033]","[0.0, 0.0, -0.15959754249378824]","[0.03819230571389198, 0.12408497184515, 0.03999999910593033]","[0.0, 0.0, -0.1829954723320542]",0.30061959558732265,33.8501441176714,"(0.0, 0.0, 0.0, 0.0, 0.0, 0.0)",-5.433290843096747,0.020831748867960086,-0.555394099802127,"(0.0, 0.0, 0.0, 0.0, 0.0, 0.0)",-0.37949999689540415,-0.30063779887149056,-33.849658696760244,"(0.0, 0.0, 0.0, 0.0, 0.0, 0.0)",5.433149501288634,-0.02105858889910766,0.5614431891484022,"(0.0, 0.0, 0.0, 0.0, 0.0, 0.0)",0.37943043762158307,False,,,,,False,,,,
3,Open,,,,,,"[-0.026750000193715096, 0.05299999937415123, 0.03999999910593033]","[0.0, -0.0, 0.30061964608852465]","[-0.048070069402456284, 0.12177103012800217, 0.03999999910593033]","[0.0, -0.0, 0.3214513597309629]","[0.026750000193715096, 0.05299999937415123, 0.03999999910593033]","[0.0, 0.0, -0.30063782483534385]","[0.04807132109999657, 0.12177064269781113, 0.03999999910593033]","[0.0, 0.0, -0.32169639446592324]",0.4275576360285904,30.465129705904268,"(0.0, 0.0, 0.0, 0.0, 0.0, 0.0)",-4.896562760502833,0.018748978964657985,-0.49986477679250463,"(0.0, 0.0, 0.0, 0.0, 0.0, 0.0)",-0.3438186216350169,-0.4275740189843415,-30.464692827084228,"(0.0, 0.0, 0.0, 0.0, 0.0, 0.0)",4.8964345239877005,-0.018953134917884834,0.505308955493478,"(0.0, 0.0, 0.0, 0.0, 0.0, 0.0)",0.34375511365495653,False,,,,,False,,,,
4,Open,,,,,,"[-0.026750000193715096, 0.05299999937415123, 0.03999999910593033]","[0.0, -0.0, 0.42755761853039154]","[-0.056604765355587006, 0.1185186430811882, 0.03999999910593033]","[0.0, -0.0, 0.4463066270391506]","[0.026750000193715096, 0.05299999937415123, 0.03999999910593033]","[0.0, 0.0, -0.42757404208311445]","[0.05660583823919296, 0.1185181587934494, 0.03999999910593033]","[0.0, 0.0, -0.4465272228574986]",0.5418018724257314,27.418616735313837,"(0.0, 0.0, 0.0, 0.0, 0.0, 0.0)",-4.412236817968903,0.016874447698417276,-0.44988750389777044,"(0.0, 0.0, 0.0, 0.0, 0.0, 0.0)",-0.3112578673856835,-0.5418166170859073,-27.418223544375806,"(0.0, 0.0, 0.0, 0.0, 0.0, 0.0)",4.412120589674461,-0.017058187988154127,0.4547872631353701,"(0.0, 0.0, 0.0, 0.0, 0.0, 0.0)",0.31119999541872967,False,,,,,False,,,,
5,Open,,,,,,"[-0.026750000193715096, 0.05299999937415123, 0.03999999910593033]","[0.0, -0.0, 0.5418019400761332]","[-0.06387900561094284, 0.11468822509050369, 0.03999999910593033]","[0.0, -0.0, 0.5586763123738882]","[0.026750000193715096, 0.05299999937415123, 0.03999999910593033]","[0.0, 0.0, -0.5418166677071254]","[0.06387991458177567, 0.11468767374753952, 0.03999999910593033]","[0.0, 0.0, -0.5588748551425957]",0.6446216851831583,24.67675506178245,"(0.0, 0.0, 0.0, 0.0, 0.0, 0.0)",-3.975330693632137,0.015187334633278446,-0.4049071356333192,"(0.0, 0.0, 0.0, 0.0, 0.0, 0.0)",-0.2816071653694913,-0.6446349553773166,-24.67640118993823,"(0.0, 0.0, 0.0, 0.0, 0.0, 0.0)",3.975225427671302,-0.01535270083200906,0.409316917474816,"(0.0, 0.0, 0.0, 0.0, 0.0, 0.0)",0.28155450162657786,False,,,,,False,,,,
6,Open,,,,,,"[-0.026750000193715096, 0.05299999937415123, 0.03999999910593033]","[0.0, -0.0, 0.6446216983098856]","[-0.07001452147960663, 0.11055155843496323, 0.03999999910593033]","[0.0, -0.0, 0.6598089287160823]","[0.026750000193715096, 0.05299999937415123, 0.03999999910593033]","[0.0, 0.0, -0.644634967879878]","[0.07001528143882751, 0.11055097728967667, 0.03999999910593033]","[0.0, 0.0, -0.6599877329949964]",0.7371595166648425,22.209079555604205,"(0.0, 0.0, 0.0, 0.0, 0.0, 0.0)",-3.5812948349547464,0.013668901111545678,-0.3644240452158641,"(0.0, 0.0, 0.0, 0.0, 0.0, 0.0)",-0.25464125660078457,-0.737171459839585,-22.20876107094441,"(0.0, 0.0, 0.0, 0.0, 0.0, 0.0)",3.5811995605906057,-0.01381773063402154,0.3683928475170044,"(0.0, 0.0, 0.0, 0.0, 0.0, 0.0)",0.2545933902665499,False,,,,,False,,,,
7,Open,,,,,,"[-0.026750000193715096, 0.05299999937415123, 0.03999999910593033]","[0.0, -0.0, 0.7371595400859692]","[-0.07514750957489014, 0.10630742460489273, 0.03999999910593033]","[0.0, -0.0, 0.7508283868993905]","[0.026750000193715096, 0.05299999937415123, 0.03999999910593033]","[0.0, 0.0, -0.7371714711336782]","[0.07514814287424088, 0.10630684345960617, 0.03999999910593033]","[0.0, 0.0, -0.750989167509555]",0.8204435649983582,19.988171600043785,"(0.0, 0.0, 0.0, 0.0, 0.0, 0.0)",-3.2259980823944012,0.01230228208777883,-0.32798856570404317,"(0.0, 0.0, 0.0, 0.0, 0.0, 0.0)",-0.23014491551259536,-0.8204543138556265,-19.987884963849964,"(0.0, 0.0, 0.0, 0.0, 0.0, 0.0)",3.225911902119173,-0.012436228606816148,0.33156048652929415,"(0.0, 0.0, 0.0, 0.0, 0.0, 0.0)",0.23010145595163894,False,,,,,False,,,,
8,Open,,,,,,"[-0.026750000193715096, 0.05299999937415123, 0.03999999910593033]","[0.0, -0.0, 0.8204435774406766]","[-0.07941428571939468, 0.1020965725183487, 0.03999999910593033]","[0.0, -0.0, 0.8327459142786269]","[0.026750000193715096, 0.05299999937415123, 0.03999999910593033]","[0.0, 0.0, -0.8204543695347751]","[0.07941480726003647, 0.10209600627422333, 0.03999999910593033]","[0.0, 0.0, -0.8328905496331522]",0.8953992084985224,17.9893544400394,"(0.0, 0.0, 0.0, 0.0, 0.0, 0.0)",-2.905692777507757,0.011072298781000885,-0.2951959936267068,"(0.0, 0.0, 0.0, 0.0, 0.0, 0.0)",-0.20791432075989408,-0.8954088824700639,-17.989096467464968,"(0.0, 0.0, 0.0, 0.0, 0.0, 0.0)",2.9056148642503405,-0.011192850601700187,0.29841072122783063,"(0.0, 0.0, 0.0, 0.0, 0.0, 0.0)",0.20787489947010138,False,,,,,False,,,,
9,Open,,,,,,"[-0.026750000193715096, 0.05299999937415123, 0.03999999910593033]","[0.0, -0.0, 0.8953992050914552]","[-0.08294302970170975, 0.09801492840051651, 0.03999999910593033]","[0.0, -0.0, 0.9064715399310761]","[0.026750000193715096, 0.05299999937415123, 0.03999999910593033]","[0.0, 0.0, -0.8954089117450801]","[0.08294346183538437, 0.09801438450813293, 0.03999999910593033]","[0.0, 0.0, -0.9066016844299951]",0.9628592876486701,16.190418996035465,"(0.0, 0.0, 0.0, 0.0, 0.0, 0.0)",-2.616982039675733,0.009965290062605858,-0.26568209241480656,"(0.0, 0.0, 0.0, 0.0, 0.0, 0.0)",-0.18775783729375353,-0.9628679942230576,-16.190186820718473,"(0.0, 0.0, 0.0, 0.0, 0.0, 0.0)",2.6169116334278195,-0.010073786659150813,0.26857534621184953,"(0.0, 0.0, 0.0, 0.0, 0.0, 0.0)",0.187722108909745,False,,,,,False,,,,
10,Open,,,,,,"[-0.026750000193715096, 0.05299999937415123, 0.03999999910593033]","[0.0, -0.0, 0.9628592963772022]","[-0.08584962040185928, 0.09412462264299393, 0.03999999910593033]","[0.0, -0.0, 0.9728246761305416]","[0.026750000193715096, 0.05299999937415123, 0.03999999910593033]","[0.0, 0.0, -0.9628681466677605]","[0.08584997802972794, 0.09412410855293274, 0.03999999910593033]","[0.0, 0.0, -0.9729417790417357]",1.0235733588838032,14.57137709643192,"(0.0, 0.0, 0.0, 0.0, 0.0, 0.0)",-2.356789246056587,0.008968960705874744,-0.23911904561546746,"(0.0, 0.0, 0.0, 0.0, 0.0, 0.0)",-0.16949635495257384,-1.0235811948007518,-14.571168138646623,"(0.0, 0.0, 0.0, 0.0, 0.0, 0.0)",2.3567256501387286,-0.009066607604651448,0.24172297307984775,"(0.0, 0.0, 0.0, 0.0, 0.0, 0.0)",0.16946399753760524,False,,,,,False,,,,
11,Open,,,,,,"[-0.026750000193715096, 0.05299999937415123, 0.03999999910593033]","[0.0, -0.0, 1.0235732790301837]","[-0.08823604136705399, 0.09046287834644318, 0.03999999910593033]","[0.0, -0.0, 1.0325423083164225]","[0.026750000193715096, 0.05299999937415123, 0.03999999910593033]","[0.0, 0.0, -1.0235812274279317]","[0.08823633193969727, 0.09046239405870438, 0.03999999910593033]","[0.0, 0.0, -1.0326479037372749]",1.078216022995423,13.114239386788727,"(0.0, 0.0, 0.0, 0.0, 0.0, 0.0)",-2.1223296975724493,0.008072244810550301,-0.215211814877866,"(0.0, 0.0, 0.0, 0.0, 0.0, 0.0)",-0.1529632973210469,-1.0782230753206767,-13.114051324781958,"(0.0, 0.0, 0.0, 0.0, 0.0, 0.0)",2.122272274708909,-0.008160126984954354,0.21755534872730237,"(0.0, 0.0, 0.0, 0.0, 0.0, 0.0)",0.15293401213466845,False,,,,,False,,,,
12,Open,,,,,,"[-0.026750000193715096, 0.05299999937415123, 0.03999999910593033]","[0.0, -0.0, 1.078215882979514]","[-0.09019032120704651, 0.08704887330532074, 0.03999999910593033]","[0.0, -0.0, 1.0862882926740116]","[0.026750000193715096, 0.05299999937415123, 0.03999999910593033]","[0.0, 0.0, -1.078222977413882]","[0.09019055962562561, 0.08704842627048492, 0.03999999910593033]","[0.0, 0.0, -1.0863833790205233]",1.1273944206958806,11.802815448109852,"(0.0, 0.0, 0.0, 0.0, 0.0, 0.0)",-1.9110844168611731,0.007265182884681461,-0.19369486220852175,"(0.0, 0.0, 0.0, 0.0, 0.0, 0.0)",-0.13800439004610457,-1.127400767788609,-11.802646192303762,"(0.0, 0.0, 0.0, 0.0, 0.0, 0.0)",1.9110325851897776,-0.007344276810443619,0.19580404188257655,"(0.0, 0.0, 0.0, 0.0, 0.0, 0.0)",0.13797790093405082,False,,,,,False,,,,
13,Open,,,,,,"[-0.026750000193715096, 0.05299999937415123, 0.03999999910593033]","[0.0, -0.0, 1.1273943743462997]","[-0.0917874127626419, 0.08388907462358475, 0.03999999910593033]","[0.0, -0.0, 1.1346596248576977]","[0.026750000193715096, 0.05299999937415123, 0.03999999910593033]","[0.0, 0.0, -1.127400718904607]","[0.09178761392831802, 0.08388865739107132, 0.03999999910593033]","[0.0, 0.0, -1.134745111288055]",1.1716549786262926,10.622533903298867,"(0.0, 0.0, 0.0, 0.0, 0.0, 0.0)",-1.7207759982695574,0.00653881121780902,-0.17432920004938585,"(0.0, 0.0, 0.0, 0.0, 0.0, 0.0)",-0.12447725819906867,-1.1716606910097482,-10.622381573073383,"(0.0, 0.0, 0.0, 0.0, 0.0, 0.0)",1.7207292273800263,-0.006609995722787257,0.17622746103752684,"(0.0, 0.0, 0.0, 0.0, 0.0, 0.0)",0.12445331071934837,False,,,,,False,,,,
14,Open,,,,,,"[-0.026750000193715096, 0.05299999937415123, 0.03999999910593033]","[0.0, -0.0, 1.17165497759142]","[-0.09309044480323792, 0.08098116517066956, 0.03999999910593033]","[0.0, -0.0, 1.1781937273122836]","[0.026750000193715096, 0.05299999937415123, 0.03999999910593033]","[0.0, 0.0, -1.1716605985979762]","[0.09309060126543045, 0.08098078519105911, 0.03999999910593033]","[0.0, 0.0, -1.178270796658152]",1.2114894807636634,9.56028051296898,"(0.0, 0.0, 0.0, 0.0, 0.0, 0.0)",-1.549346412635057,0.005885062316220725,-0.15689973638119079,"(0.0, 0.0, 0.0, 0.0, 0.0, 0.0)",-0.11225090666269867,-1.2114946219087734,-9.560143415766044,"(0.0, 0.0, 0.0, 0.0, 0.0, 0.0)",1.5493042197033076,-0.00594912834521185,0.1586081706180975,"(0.0, 0.0, 0.0, 0.0, 0.0, 0.0)",0.11222926703597672,False,,,,,False,,,,
15,Open,,,,,,"[-0.026750000193715096, 0.05299999937415123, 0.03999999910593033]","[0.0, -0.0, 1.2114893406881728]","[-0.09415213763713837, 0.07831703126430511, 0.03999999910593033]","[0.0, -0.0, 1.2173745989650702]","[0.026750000193715096, 0.05299999937415123, 0.03999999910593033]","[0.0, 0.0, -1.2114945655338818]","[0.09415226429700851, 0.07831668108701706, 0.03999999910593033]","[0.0, 0.0, -1.2174436451143456]",1.247340532687297,8.604252461672083,"(0.0, 0.0, 0.0, 0.0, 0.0, 0.0)",-1.3949366588174594,0.00529667529397997,-0.14121288533778104,"(0.0, 0.0, 0.0, 0.0, 0.0, 0.0)",-0.1012051251161189,-1.2473451597178962,-8.604129074189437,"(0.0, 0.0, 0.0, 0.0, 0.0, 0.0)",1.394898604883462,-0.005354334697048719,0.1427504755591516,"(0.0, 0.0, 0.0, 0.0, 0.0, 0.0)",0.1011855790679586,False,,,,,False,,,,
16,Open,,,,,,"[-0.026750000193715096, 0.05299999937415123, 0.03999999910593033]","[0.0, -0.0, 1.2473405247091465]","[-0.09501627087593079, 0.07588484138250351, 0.03999999910593033]","[0.0, -0.0, 1.2526371614229614]","[0.026750000193715096, 0.05299999937415123, 0.03999999910593033]","[0.0, 0.0, -1.2473450561350814]","[0.09501637518405914, 0.07588452845811844, 0.03999999910593033]","[0.0, 0.0, -1.252699591080442]",1.2796064794185673,7.743827215504874,"(0.0, 0.0, 0.0, 0.0, 0.0, 0.0)",-1.2558681481324276,0.004767115224099335,-0.12709441677135241,"(0.0, 0.0, 0.0, 0.0, 0.0, 0.0)",-0.09122984935698081,-1.2796106437461066,-7.743716166770495,"(0.0, 0.0, 0.0, 0.0, 0.0, 0.0)",1.2558338345532607,-0.004819008666073119,0.128478247434144,"(0.0, 0.0, 0.0, 0.0, 0.0, 0.0)",0.09121220090323832,False,,,,,False,,,,
17,Open,,,,,,"[-0.026750000193715096, 0.05299999937415123, 0.03999999910593033]","[0.0, -0.0, 1.279606409124563]","[-0.09571900963783264, 0.0736706405878067, 0.03999999910593033]","[0.0, -0.0, 1.2843736758198352]","[0.026750000193715096, 0.05299999937415123, 0.03999999910593033]","[0.0, 0.0, -1.2796106525936015]","[0.0957190990447998, 0.07367035001516342, 0.03999999910593033]","[0.0, 0.0, -1.2844295613342638]",1.3086458314767107,6.969444493954387,"(0.0, 0.0, 0.0, 0.0, 0.0, 0.0)",-1.1305941221975622,0.00429170208951155,-0.1140991523010686,"(0.0, 0.0, 0.0, 0.0, 0.0, 0.0)",-0.082192919359827,-1.3086495793714958,-6.969344550093446,"(0.0, 0.0, 0.0, 0.0, 0.0, 0.0)",1.1305631934145834,-0.004338405935744441,0.11534465527888274,"(0.0, 0.0, 0.0, 0.0, 0.0, 0.0)",0.08217699569254354,False,,,,,False,,,,
18,Open,,,,,,"[-0.026750000193715096, 0.05299999937415123, 0.03999999910593033]","[0.0, -0.0, 1.308645825919811]","[-0.09629011154174805, 0.0716593861579895, 0.03999999910593033]","[0.0, -0.0, 1.3129373548657892]","[0.026750000193715096, 0.05299999937415123, 0.03999999910593033]","[0.0, 0.0, -1.308649569130343]","[0.09629017859697342, 0.07165912538766861, 0.03999999910593033]","[0.0, 0.0, -1.3129881167123505]",1.3347812483290395,6.272500044558946,"(0.0, 0.0, 0.0, 0.0, 0.0, 0.0)",-1.0178482622338179,0.003863702481573626,-0.10271990590510163,"(0.0, 0.0, 0.0, 0.0, 0.0, 0.0)",-0.07410352518858664,-1.3347846214343462,-6.272410095084102,"(0.0, 0.0, 0.0, 0.0, 0.0, 0.0)",1.0178203769740246,-0.0039057357160976183,0.10384085271523745,"(0.0, 0.0, 0.0, 0.0, 0.0, 0.0)",0.0740891498002037,False,,,,,False,,,,
19,Open,,,,,,"[-0.026750000193715096, 0.05299999937415123, 0.03999999910593033]","[0.0, -0.0, 1.3347813147466918]","[-0.09675397723913193, 0.06983575969934464, 0.03999999910593033]","[0.0, -0.0, 1.3386449621367835]","[0.026750000193715096, 0.05299999937415123, 0.03999999910593033]","[0.0, 0.0, -1.3347844615433213]","[0.0967540368437767, 0.06983552873134613, 0.03999999910593033]","[0.0, 0.0, -1.3386905382854437]",1.3583031234961356,5.645250040103052,"(0.0, 0.0, 0.0, 0.0, 0.0, 0.0)",-0.9162890978823036,0.0034783869891320215,-0.09247571818598516,"(0.0, 0.0, 0.0, 0.0, 0.0, 0.0)",-0.06677007440367574,-1.3583061592909116,-5.645169085575695,"(0.0, 0.0, 0.0, 0.0, 0.0, 0.0)",0.9162639666346021,-0.003516216695348753,0.09348456497972772,"(0.0, 0.0, 0.0, 0.0, 0.0, 0.0)",0.06675710630673855,False,,,,,False,,,,
20,Open,,,,,,"[-0.026750000193715096, 0.05299999937415123, 0.03999999910593033]","[0.0, -0.0, 1.3583030429358363]","[-0.09713058918714523, 0.06818463653326035, 0.03999999910593033]","[0.0, -0.0, 1.3617816714487538]","[0.026750000193715096, 0.05299999937415123, 0.03999999910593033]","[0.0, 0.0, -1.358306171033049]","[0.09713063389062881, 0.06818442046642303, 0.03999999910593033]","[0.0, 0.0, -1.361822351334537]",1.379472811146522,5.0807250360927485,"(0.0, 0.0, 0.0, 0.0, 0.0, 0.0)",-0.8248429295126702,0.003131498553648039,-0.08325322451615583,"(0.0, 0.0, 0.0, 0.0, 0.0, 0.0)",-0.06015531267018523,-1.3794755433618204,-5.080652177018124,"(0.0, 0.0, 0.0, 0.0, 0.0, 0.0)",0.8248202834423316,-0.003165545104486833,0.08416118180686077,"(0.0, 0.0, 0.0, 0.0, 0.0, 0.0)",0.06014361689139186,False,,,,,False,,,,
21,Open,,,,,,"[-0.026750000193715096, 0.05299999937415123, 0.03999999910593033]","[0.0, -0.0, 1.3794728975130914]","[-0.09743624925613403, 0.06669140607118607, 0.03999999910593033]","[0.0, -0.0, 1.382604304378769]","[0.026750000193715096, 0.05299999937415123, 0.03999999910593033]","[0.0, 0.0, -1.379475506721758]","[0.09743628650903702, 0.06669121235609055, 0.03999999910593033]","[0.0, 0.0, -1.3826409668082853]",1.3985255300318697,4.572652532483473,"(0.0, 0.0, 0.0, 0.0, 0.0, 0.0)",-0.7425066286387145,0.0028192047313806493,-0.07495051734417352,"(0.0, 0.0, 0.0, 0.0, 0.0, 0.0)",-0.054190171953983096,-1.3985279890256384,-4.57258695931631,"(0.0, 0.0, 0.0, 0.0, 0.0, 0.0)",0.7424862245436853,-0.0028498464605416357,0.07576767454684734,"(0.0, 0.0, 0.0, 0.0, 0.0, 0.0)",0.0541796259205944,False,,,,,False,,,,
22,Open,,,,,,"[-0.026750000193715096, 0.05299999937415123, 0.03999999910593033]","[0.0, -0.0, 1.398525454133583]","[-0.09768425673246384, 0.0653422400355339, 0.03999999910593033]","[0.0, -0.0, 1.4013447262228373]","[0.026750000193715096, 0.05299999937415123, 0.03999999910593033]","[0.0, 0.0, -1.3985280648022782]","[0.09768428653478622, 0.06534206122159958, 0.03999999910593033]","[0.0, 0.0, -1.4013779844801912]",1.4156729770286829,4.1153872792351285,"(0.0, 0.0, 0.0, 0.0, 0.0, 0.0)",-0.6683758137814145,0.002538055332395241,-0.06747585575649792,"(0.0, 0.0, 0.0, 0.0, 0.0, 0.0)",-0.04881194552870251,-1.4156751901230746,-4.115328263384682,"(0.0, 0.0, 0.0, 0.0, 0.0, 0.0)",0.6683574317692884,-0.002565632738451909,0.06821129330153437,"(0.0, 0.0, 0.0, 0.0, 0.0, 0.0)",0.0488024380394442,False,,,,,False,,,,
23,Open,,,,,,"[-0.026750000193715096, 0.05299999937415123, 0.03999999910593033]","[0.0, -0.0, 1.4156730334745993]","[-0.09788545966148376, 0.06412414461374283, 0.03999999910593033]","[0.0, -0.0, 1.418211036917125]","[0.026750000193715096, 0.05299999937415123, 0.03999999910593033]","[0.0, 0.0, -1.4156752315845986]","[0.09788548201322556, 0.0641239807009697, 0.03999999910593033]","[0.0, 0.0, -1.418240879504808]",1.4311056793258146,3.703848551311612,"(0.0, 0.0, 0.0, 0.0, 0.0, 0.0)",-0.6016352863054336,0.002284944287465684,-0.060746650783093666,"(0.0, 0.0, 0.0, 0.0, 0.0, 0.0)",-0.04396376851645251,-1.431107671110767,-3.7037954370462103,"(0.0, 0.0, 0.0, 0.0, 0.0, 0.0)",0.6016187276545472,-0.0023097638175418747,0.061408541018408244,"(0.0, 0.0, 0.0, 0.0, 0.0, 0.0)",0.043955198772734246,False,,,,,False,,,,
24,Open,,,,,,"[-0.026750000193715096, 0.05299999937415123, 0.03999999910593033]","[0.0, -0.0, 1.4311058207082674]","[-0.09804865717887878, 0.06302504986524582, 0.03999999910593033]","[0.0, -0.0, 1.433390691262394]","[0.026750000193715096, 0.05299999937415123, 0.03999999910593033]","[0.0, 0.0, -1.4311075924426346]","[0.09804867953062057, 0.06302490830421448, 0.03999999910593033]","[0.0, 0.0, -1.433417470845748]",1.4449951113932331,3.333463696180452,"(0.0, 0.0, 0.0, 0.0, 0.0, 0.0)",-0.5415503506795546,0.0020570753203455715,-0.05468855210882702,"(0.0, 0.0, 0.0, 0.0, 0.0, 0.0)",-0.039594115216637325,-1.4449969039996904,-3.3334158933415914,"(0.0, 0.0, 0.0, 0.0, 0.0, 0.0)",0.541535435877482,-0.002079412775410495,0.055284250111531166,"(0.0, 0.0, 0.0, 0.0, 0.0, 0.0)",0.03958639191865308,False,,,,,False,,,,
25,Open,,,,,,"[-0.026750000193715096, 0.05299999937415123, 0.03999999910593033]","[0.0, -0.0, 1.444995076522675]","[-0.09818101674318314, 0.062033817172050476, 0.03999999910593033]","[0.0, -0.0, 1.4470522962768402]","[0.026750000193715096, 0.05299999937415123, 0.03999999910593033]","[0.0, 0.0, -1.4449971061677662]","[0.09818103164434433, 0.06203368678689003, 0.03999999910593033]","[0.0, 0.0, -1.4470761943538692]",1.45749560025391,3.0001173265624064,"(0.0, 0.0, 0.0, 0.0, 0.0, 0.0)",-0.4874589573784058,0.001851931045420989,-0.04923462598189979,"(0.0, 0.0, 0.0, 0.0, 0.0, 0.0)",-0.03565633120497695,-1.4574972135997213,-3.000074304007432,"(0.0, 0.0, 0.0, 0.0, 0.0, 0.0)",0.4874455243270462,-0.0018720346450414762,0.04977075128856451,"(0.0, 0.0, 0.0, 0.0, 0.0, 0.0)",0.03564937171228022,False,,,,,False,,,,
26,Open,,,,,,"[-0.026750000193715096, 0.05299999937415123, 0.03999999910593033]","[0.0, -0.0, 1.4574954921785264]","[-0.09828835725784302, 0.061140209436416626, 0.03999999910593033]","[0.0, -0.0, 1.4593474823067423]","[0.026750000193715096, 0.05299999937415123, 0.03999999910593033]","[0.0, 0.0, -1.4574971848934346]","[0.09828837215900421, 0.061140093952417374, 0.03999999910593033]","[0.0, 0.0, -1.4593694397653831]",1.4687460402285188,2.700105593906164,"(0.0, 0.0, 0.0, 0.0, 0.0, 0.0)",-0.4387645947805427,0.0016672451487475934,-0.044324615201614966,"(0.0, 0.0, 0.0, 0.0, 0.0, 0.0)",-0.032108199676446195,-1.4687474922397492,-2.70006687360669,"(0.0, 0.0, 0.0, 0.0, 0.0, 0.0)",0.4387524971567325,-0.0016853382893528596,0.04480712536526797,"(0.0, 0.0, 0.0, 0.0, 0.0, 0.0)",0.03210192923147444,False,,,,,False,,,,
27,Open,,,,,,"[-0.026750000193715096, 0.05299999937415123, 0.03999999910593033]","[0.0, -0.0, 1.4687462228928074]","[-0.09837540984153748, 0.06033487245440483, 0.03999999910593033]","[0.0, -0.0, 1.4704133245237396]","[0.026750000193715096, 0.05299999937415123, 0.03999999910593033]","[0.0, 0.0, -1.4687474899518769]","[0.09837542474269867, 0.060334768146276474, 0.03999999910593033]","[0.0, 0.0, -1.4704329951986796]",1.478871436205667,2.430095034515549,"(0.0, 0.0, 0.0, 0.0, 0.0, 0.0)",-0.394929862139441,0.0015009773446580906,-0.03990427298148066,"(0.0, 0.0, 0.0, 0.0, 0.0, 0.0)",-0.028911540991871522,-1.4788727430157742,-2.430060186246021,"(0.0, 0.0, 0.0, 0.0, 0.0, 0.0)",0.39491896790015035,-0.001517261081966714,0.04033852977267494,"(0.0, 0.0, 0.0, 0.0, 0.0, 0.0)",0.02890589200411927,False,,,,,False,,,,
28,Open,,,,,,"[-0.026750000193715096, 0.05299999937415123, 0.03999999910593033]","[0.0, -0.0, 1.4788714352834713]","[-0.09844600409269333, 0.05960927531123161, 0.03999999910593033]","[0.0, -0.0, 1.480372508787761]","[0.026750000193715096, 0.05299999937415123, 0.03999999910593033]","[0.0, 0.0, -1.4788727099725336]","[0.09844601899385452, 0.05960918217897415, 0.03999999910593033]","[0.0, 0.0, -1.4803900544382056]",1.4879842925851003,2.1870855310639947,"(0.0, 0.0, 0.0, 0.0, 0.0, 0.0)",-0.3554706611703565,0.001351290830885638,-0.035924763305388616,"(0.0, 0.0, 0.0, 0.0, 0.0, 0.0)",-0.026031844038894282,-1.487985468714197,-2.1870541676214206,"(0.0, 0.0, 0.0, 0.0, 0.0, 0.0)",0.3554608511915877,-0.001365946114079445,0.03631559229294455,"(0.0, 0.0, 0.0, 0.0, 0.0, 0.0)",0.026026755426892093,False,,,,,False,,,,
29,Close,,,"(3.819349109750643e-09, 0.16999994350316286, 7.914305593764796e-05)","(1.5700606283751846, 1.2357610516186277e-06, -4.058049624060407e-09)",,"[-0.026750000193715096, 0.05299999937415123, 0.03999999910593033]","[0.0, -0.0, 1.4879842849605203]","[-0.09850326180458069, 0.05895565450191498, 0.03999999910593033]","[0.0, -0.0, 1.4893357278409396]","[0.026750000193715096, 0.05299999937415123, 0.03999999910593033]","[0.0, 0.0, -1.4879853833286059]","[0.09850326925516129, 0.05895556882023811, 0.03999999910593033]","[0.0, 0.0, -1.4893513332680077]",1.4961858633265903,1.9683769779575933,"(0.0, 0.0, 0.0, 0.0, 0.0, 0.0)",-0.31995094896823073,0.0012165319928285922,-0.03234212113369103,"(0.0, 0.0, 0.0, 0.0, 0.0, 0.0)",-0.02343792779000599,-1.4961869218427772,-1.9683487508592754,"(0.0, 0.0, 0.0, 0.0, 0.0, 0.0)",0.31994211580738524,-0.0012297216752996233,0.03269386530715718,"(0.0, 0.0, 0.0, 0.0, 0.0, 0.0)",0.02343334437795369,False,,,,,False,,,,
30,Close,,,"(1.09441459674075e-09, 0.16999988769159868, 0.0001519632082907279)","(1.5701173533571526, -2.5467641220651055e-06, -4.573996600559749e-08)",,"[-0.026750000193715096, 0.05299999937415123, 0.03999999910593033]","[0.0, -0.0, 1.4961860174198076]","[-0.09854969382286072, 0.05836696922779083, 0.03999999910593033]","[0.0, -0.0, 1.4974025341106605]","[0.026750000193715096, 0.05299999937415123, 0.03999999910593033]","[0.0, 0.0, -1.4961870219527165]","[0.09854969382286072, 0.05836689472198486, 0.03999999910593033]","[0.0, 0.0, -1.4974167044724178]",1.4065672769939312,-21.50846071983817,"(0.0, 0.0, 0.0, 0.0, 0.0, 0.0)",-36.83524610171859,-0.08890468746940376,-21.629092670935766,"(0.0, 0.0, 0.0, 0.0, 0.0, 0.0)",-4.936581214831643,-1.4065682296584996,21.508486124226657,"(0.0, 0.0, 0.0, 0.0, 0.0, 0.0)",36.83523814678565,0.0888928167555427,21.629409223402156,"(0.0, 0.0, 0.0, 0.0, 0.0, 0.0)",4.936577085092772,False,,,,,False,,,,
31,Close,,,"(3.541182821644653e-08, 0.1699998011443987, 0.00021906657187154062)","(1.570205104748116, 3.3042409171564205e-05, -8.114212850492596e-08)",,"[-0.026750000193715096, 0.05299999937415123, 0.03999999910593033]","[0.0, -0.0, 1.4065674382065954]","[-0.0977812185883522, 0.06477140635251999, 0.03999999910593033]","[0.0, -0.0, 1.3176625934179576]","[0.026750000193715096, 0.05299999937415123, 0.03999999910593033]","[0.0, 0.0, -1.4065680331882469]","[0.0977812260389328, 0.06477133929729462, 0.03999999910593033]","[0.0, 0.0, -1.3176753491400532]",1.3259105492945382,-19.357614647854348,"(0.0, 0.0, 0.0, 0.0, 0.0, 0.0)",3.3395407019063446,-0.17001473426920377,-19.466411231952,"(0.0, 0.0, 0.0, 0.0, 0.0, 0.0)",0.4376834422569755,-1.3259114066926496,19.35763751180399,"(0.0, 0.0, 0.0, 0.0, 0.0, 0.0)",-3.3395473112045253,0.1700040506304986,19.466696129989415,"(0.0, 0.0, 0.0, 0.0, 0.0, 0.0)",-0.43768664266468643,False,,,,,False,,,,
32,Close,,,"(3.361538948490201e-08, 0.16999974452330968, 0.00028077538773600935)","(1.5702911774727688, 7.027968338074274e-05, -7.017997684986258e-06)",,"[-0.026750000193715096, 0.05299999937415123, 0.03999999910593033]","[0.0, -0.0, 1.325910602539969]","[-0.09660188108682632, 0.07045608013868332, 0.03999999910593033]","[0.0, -0.0, 1.1558959321658662]","[0.026750000193715096, 0.05299999937415123, 0.03999999910593033]","[0.0, 0.0, -1.3259115331240872]","[0.09660189598798752, 0.07045602053403854, 0.03999999910593033]","[0.0, 0.0, -1.1559073716167563]",1.2533194943650845,-17.42185318306892,"(0.0, 0.0, 0.0, 0.0, 0.0, 0.0)",3.0100864599566086,-0.2430137284658432,-17.519758607193467,"(0.0, 0.0, 0.0, 0.0, 0.0, 0.0)",0.39699812510351973,-1.2533202660233846,17.42187376062359,"(0.0, 0.0, 0.0, 0.0, 0.0, 0.0)",-3.0100924602349655,0.24300411319445853,17.52001501535039,"(0.0, 0.0, 0.0, 0.0, 0.0, 0.0)",-0.39700105403357716,False,,,,,False,,,,
33,Close,,,"(1.2478111664315067e-07, 0.16999960627903704, 0.000337513976604643)","(1.5703757790333803, 0.0001088681261817636, -5.122611399447184e-06)",,"[-0.026750000193715096, 0.05299999937415123, 0.03999999910593033]","[0.0, -0.0, 1.2533194489161892]","[-0.0951518788933754, 0.07547627389431, 0.03999999910593033]","[0.0, -0.0, 1.0103057011386807]","[0.026750000193715096, 0.05299999937415123, 0.03999999910593033]","[0.0, 0.0, -1.2533201846969224]","[0.09515189379453659, 0.07547622174024582, 0.03999999910593033]","[0.0, 0.0, -1.010316110149499]",1.1879875449285762,-15.679667864762028,"(0.0, 0.0, 0.0, 0.0, 0.0, 0.0)",2.712712783767229,-0.30871235561933186,-15.767670516837281,"(0.0, 0.0, 0.0, 0.0, 0.0, 0.0)",0.3597856734528228,-1.1879882394210461,15.679686384561233,"(0.0, 0.0, 0.0, 0.0, 0.0, 0.0)",-2.712718226071338,0.30870370187508567,15.767901283350515,"(0.0, 0.0, 0.0, 0.0, 0.0, 0.0)",-0.35978834883250516,False,,,,,False,,,,
34,Close,,,"(1.2869376016944667e-07, 0.16999954011037416, 0.00038973303114976833)","(1.5704582297133343, 0.0001496263682483943, -9.931543136061158e-06)",,"[-0.026750000193715096, 0.05299999937415123, 0.03999999910593033]","[0.0, -0.0, 1.1879876003522736]","[-0.09353857487440109, 0.07989397644996643, 0.03999999910593033]","[0.0, -0.0, 0.8792752425767008]","[0.026750000193715096, 0.05299999937415123, 0.03999999910593033]","[0.0, 0.0, -1.1879882623869136]","[0.09353859722614288, 0.07989392429590225, 0.03999999910593033]","[0.0, 0.0, -0.8792844680170303]",1.1291887904356523,-14.1117010783017,"(0.0, 0.0, 0.0, 0.0, 0.0, 0.0)",2.44436472036771,-0.36784112005739866,-14.190903465136039,"(0.0, 0.0, 0.0, 0.0, 0.0, 0.0)",0.3258007578595482,-1.1291894154788755,14.111717746120975,"(0.0, 0.0, 0.0, 0.0, 0.0, 0.0)",-2.444369652349295,0.3678333316875771,14.191111154997946,"(0.0, 0.0, 0.0, 0.0, 0.0, 0.0)",-0.32580319741325486,False,,,,,False,,,,
35,Close,,,"(2.2147778895778094e-07, 0.169999403724105, 0.00043775502472391954)","(1.5705392813318275, 0.0001916771605813282, -8.19762937926826e-06)",,"[-0.026750000193715096, 0.05299999937415123, 0.03999999910593033]","[0.0, -0.0, 1.1291888000608494]","[-0.09184273332357407, 0.08377231657505035, 0.03999999910593033]","[0.0, -0.0, 0.7613476921786614]","[0.026750000193715096, 0.05299999937415123, 0.03999999910593033]","[0.0, 0.0, -1.1291894580384154]","[0.09184275567531586, 0.08377227932214737, 0.03999999910593033]","[0.0, 0.0, -0.7613561373098183]",1.0762699113920273,-12.700530970470014,"(0.0, 0.0, 0.0, 0.0, 0.0, 0.0)",2.202305891359772,-0.4210570080516588,-12.77181311862243,"(0.0, 0.0, 0.0, 0.0, 0.0, 0.0)",0.2948453788489373,-1.0762704739309281,12.700545971507374,"(0.0, 0.0, 0.0, 0.0, 0.0, 0.0)",-2.2023103576802145,0.4210499985188194,12.77200003949815,"(0.0, 0.0, 0.0, 0.0, 0.0, 0.0)",-0.2948476002056522,False,,,,,False,,,,
36,Close,,,"(2.1912693722736075e-07, 0.16999934361709654, 0.000481956449276018)","(1.5706184388641253, 0.00023565575873296478, -1.2845786801691941e-05)",,"[-0.026750000193715096, 0.05299999937415123, 0.03999999910593033]","[0.0, -0.0, 1.0762698553554748]","[-0.09012393653392792, 0.08717226982116699, 0.03999999910593033]","[0.0, -0.0, 0.6552128934948661]","[0.026750000193715096, 0.05299999937415123, 0.03999999910593033]","[0.0, 0.0, -1.0762704893583]","[0.09012395888566971, 0.08717223256826401, 0.03999999910593033]","[0.0, 0.0, -0.6552204147476549]",1.0286429202528247,-11.430477873408655,"(0.0, 0.0, 0.0, 0.0, 0.0, 0.0)",1.9840011930578276,-0.46895130724721834,-11.494631806934295,"(0.0, 0.0, 0.0, 0.0, 0.0, 0.0)",0.26667684533441977,-1.0286434265378352,11.430491374342276,"(0.0, 0.0, 0.0, 0.0, 0.0, 0.0)",-1.984005235051249,0.4689449986676629,11.494800035722442,"(0.0, 0.0, 0.0, 0.0, 0.0, 0.0)",-0.26667886541975433,False,,,,,False,,,,
37,Close,,,"(3.1131510586280866e-07, 0.1699992121070205, 0.0005226007520893923)","(1.5706964879884222, 0.0002806415891397876, -1.1307759452448239e-05)",,"[-0.026750000193715096, 0.05299999937415123, 0.03999999910593033]","[0.0, -0.0, 1.0286429345076582]","[-0.0884251669049263, 0.09015069156885147, 0.03999999910593033]","[0.0, -0.0, 0.5596916647508587]","[0.026750000193715096, 0.05299999937415123, 0.03999999910593033]","[0.0, 0.0, -1.0286435120859125]","[0.08842518925666809, 0.09015065431594849, 0.03999999910593033]","[0.0, 0.0, -0.5596984028120249]",0.9857786282275423,-10.287430086067793,"(0.0, 0.0, 0.0, 0.0, 0.0, 0.0)",1.787161045327472,-0.5120561765231523,-10.345168626224153,"(0.0, 0.0, 0.0, 0.0, 0.0, 0.0)",0.24107512437447856,-0.9857790838840517,10.28744223690805,"(0.0, 0.0, 0.0, 0.0, 0.0, 0.0)",-1.787164701188607,0.5120504988015524,10.345320032133483,"(0.0, 0.0, 0.0, 0.0, 0.0, 0.0)",-0.24107695935135354,False,,,,,False,,,,
38,Close,,,"(3.0991842655903425e-07, 0.169999153087261, 0.0005600347082356065)","(1.570772558536085, 0.00032764712563817383, -1.5390013302753274e-05)",,"[-0.026750000193715096, 0.05299999937415123, 0.03999999910593033]","[0.0, -0.0, 0.9857786218799983]","[-0.08677656948566437, 0.09275941550731659, 0.03999999910593033]","[0.0, -0.0, 0.4737224893055005]","[0.026750000193715096, 0.05299999937415123, 0.03999999910593033]","[0.0, 0.0, -0.9857791586690391]","[0.08677658438682556, 0.0927593931555748, 0.03999999910593033]","[0.0, 0.0, -0.47372859204714834]",0.9472007654041954,-9.258687077603232,"(0.0, 0.0, 0.0, 0.0, 0.0, 0.0)",1.6097085175776904,-0.550850558870837,-9.310651763444346,"(0.0, 0.0, 0.0, 0.0, 0.0, 0.0)",0.21783104241587867,-0.9472011754950539,9.258698013359455,"(0.0, 0.0, 0.0, 0.0, 0.0, 0.0)",-1.609711822487034,0.5508454489213972,9.310788028762744,"(0.0, 0.0, 0.0, 0.0, 0.0, 0.0)",-0.21783270758412676,False,,,,,False,,,,
39,Close,,,"(4.0106165104263135e-07, 0.169999026405202, 0.0005944331352702725)","(1.570848092729261, 0.0003750986118602944, -1.4060502423520339e-05)",,"[-0.026750000193715096, 0.05299999937415123, 0.03999999910593033]","[0.0, -0.0, 0.9472008140782049]","[-0.08519845455884933, 0.09504495561122894, 0.03999999910593033]","[0.0, -0.0, 0.39635019782230363]","[0.026750000193715096, 0.05299999937415123, 0.03999999910593033]","[0.0, 0.0, -0.9472011867132297]","[0.08519846946001053, 0.09504493325948715, 0.03999999910593033]","[0.0, 0.0, -0.3963557154153113]",0.9124806888632406,-8.332818369829143,"(0.0, 0.0, 0.0, 0.0, 0.0, 0.0)",1.4497611633824499,-0.5857655029837533,-8.379586587099913,"(0.0, 0.0, 0.0, 0.0, 0.0, 0.0)",0.19674731686213875,-0.9124810579450133,8.332828212009746,"(0.0, 0.0, 0.0, 0.0, 0.0, 0.0)",-1.4497641496546352,0.5857609040292575,8.379709225886469,"(0.0, 0.0, 0.0, 0.0, 0.0, 0.0)",-0.1967488266016999,False,,,,,False,,,,
40,Close,,,"(3.70657372146465e-07, 0.16999903038777142, 0.0006260749884053443)","(1.5708440552876382, 0.00034508120830118214, -1.4055585689260766e-05)",,"[-0.026750000193715096, 0.05299999937415123, 0.03999999910593033]","[0.0, -0.0, 0.9124807402838544]","[-0.08370371162891388, 0.09704854339361191, 0.03999999910593033]","[0.0, -0.0, 0.32671521193417863]","[0.026750000193715096, 0.05299999937415123, 0.03999999910593033]","[0.0, 0.0, -0.9124811663733811]","[0.08370373398065567, 0.09704852104187012, 0.03999999910593033]","[0.0, 0.0, -0.32672018954414506]",0.8812326199769166,-7.499536532717775,"(0.0, 0.0, 0.0, 0.0, 0.0, 0.0)",1.3056085801322186,-0.6171891619197363,-7.541678144635914,"(0.0, 0.0, 0.0, 0.0, 0.0, 0.0)",0.17763358199117588,-0.881232952150512,7.499545390680321,"(0.0, 0.0, 0.0, 0.0, 0.0, 0.0)",-1.305611277336412,0.617185022862301,7.541788519930457,"(0.0, 0.0, 0.0, 0.0, 0.0, 0.0)",-0.17763494969582577,False,,,,,False,,,,
41,Close,,,"(3.427044292909036e-07, 0.1699990340506735, 0.0006551854712062516)","(1.5708403346470328, 0.0003174583455114455, -1.4051356821419932e-05)",,"[-0.026750000193715096, 0.05299999937415123, 0.03999999910593033]","[0.0, -0.0, 0.8812326035131218]","[-0.08229970186948776, 0.09880644828081131, 0.03999999910593033]","[0.0, -0.0, 0.26404346611112495]","[0.026750000193715096, 0.05299999937415123, 0.03999999910593033]","[0.0, 0.0, -0.8812328730718287]","[0.08229971677064896, 0.09880642592906952, 0.03999999910593033]","[0.0, 0.0, -0.2640479150919315]",0.8531093579792249,-6.749582879446001,"(0.0, 0.0, 0.0, 0.0, 0.0, 0.0)",1.1757252455852583,-0.6454704345862542,-6.78750543996429,"(0.0, 0.0, 0.0, 0.0, 0.0, 0.0)",0.16033509317806058,-0.8531096569354608,6.7495908516122896,"(0.0, 0.0, 0.0, 0.0, 0.0, 0.0)",-1.1757276808922346,0.645466709436021,6.787604777692787,"(0.0, 0.0, 0.0, 0.0, 0.0, 0.0)",-0.16033633143309114,False,,,,,False,,,,
42,Close,,,"(3.170084497545684e-07, 0.16999903740907119, 0.0006819671107693073)","(1.570836911771951, 0.00029204530032808255, -1.4047683015968837e-05)",,"[-0.026750000193715096, 0.05299999937415123, 0.03999999910593033]","[0.0, -0.0, 0.8531093567174074]","[-0.08098968118429184, 0.10035036504268646, 0.03999999910593033]","[0.0, -0.0, 0.2076389231904772]","[0.026750000193715096, 0.05299999937415123, 0.03999999910593033]","[0.0, 0.0, -0.8531096230941355]","[0.08098969608545303, 0.10035035014152527, 0.03999999910593033]","[0.0, 0.0, -0.2076429742570099]",0.8277984221813024,-6.0746245915014,"(0.0, 0.0, 0.0, 0.0, 0.0, 0.0)",1.0586966037970245,-0.6709235615380169,-6.1087504684230565,"(0.0, 0.0, 0.0, 0.0, 0.0, 0.0)",0.14467321668423558,-0.8277986912419147,6.074631766451059,"(0.0, 0.0, 0.0, 0.0, 0.0, 0.0)",-1.0586988018726124,0.6709202089041267,6.108839872345364,"(0.0, 0.0, 0.0, 0.0, 0.0, 0.0)",-0.14467433700617466,False,,,,,False,,,,
43,Close,,,"(2.93385406087929e-07, 0.16999904048782613, 0.0007066062149797113)","(1.5708337628331848, 0.0002686652895538331, -1.4044478861914954e-05)",,"[-0.026750000193715096, 0.05299999937415123, 0.03999999910593033]","[0.0, -0.0, 0.8277984323872327]","[-0.07977395504713058, 0.10170790553092957, 0.03999999910593033]","[0.0, -0.0, 0.15687485461046338]","[0.026750000193715096, 0.05299999937415123, 0.03999999910593033]","[0.0, 0.0, -0.8277987052452376]","[0.07977396249771118, 0.10170789808034897, 0.03999999910593033]","[0.0, 0.0, -0.15687847762667875]",0.8050185799631722,-5.467162132351259,"(0.0, 0.0, 0.0, 0.0, 0.0, 0.0)",0.9532674830029981,-0.6938313591081322,-5.497871416827678,"(0.0, 0.0, 0.0, 0.0, 0.0, 0.0)",0.1305069121449798,-0.8050188221177232,5.467168589805953,"(0.0, 0.0, 0.0, 0.0, 0.0, 0.0)",-0.9532694663734236,0.6938283417388244,5.49795188032743,"(0.0, 0.0, 0.0, 0.0, 0.0, 0.0)",-0.13050792520753388,False,,,,,False,,,,
44,Close,,,"(2.716665250887489e-07, 0.16999904330973556, 0.0007292741870466809)","(1.5708308659078907, 0.0002471556717650467, -1.4041672069322908e-05)",,"[-0.026750000193715096, 0.05299999937415123, 0.03999999910593033]","[0.0, -0.0, 0.8050185839979388]","[-0.07865073531866074, 0.10290304571390152, 0.03999999910593033]","[0.0, -0.0, 0.11118723016400785]","[0.026750000193715096, 0.05299999937415123, 0.03999999910593033]","[0.0, 0.0, -0.8050187952188965]","[0.07865074276924133, 0.10290303081274033, 0.03999999910593033]","[0.0, 0.0, -0.11119048022217565]",0.784516721966855,-4.920445919116134,"(0.0, 0.0, 0.0, 0.0, 0.0, 0.0)",0.8582975670224743,-0.7144483618360385,-4.948080654697517,"(0.0, 0.0, 0.0, 0.0, 0.0, 0.0)",0.11770004006048959,-0.784516939905951,4.92045173082536,"(0.0, 0.0, 0.0, 0.0, 0.0, 0.0)",-0.8582993561887614,0.7144456462047399,4.948153071819748,"(0.0, 0.0, 0.0, 0.0, 0.0, 0.0)",-0.11770095568272418,False,,,,,False,,,,
45,Close,,,"(2.51696986958339e-07, 0.1699990458957082, 0.0007501287178850499)","(1.5708282008276007, 0.000227366816649173, -1.4039201474218165e-05)",,"[-0.026750000193715096, 0.05299999937415123, 0.03999999910593033]","[0.0, -0.0, 0.7845167193080385]","[-0.07761679589748383, 0.10395654290914536, 0.03999999910593033]","[0.0, -0.0, 0.07006835685702544]","[0.026750000193715096, 0.05299999937415123, 0.03999999910593033]","[0.0, 0.0, -0.7845169946958266]","[0.07761680334806442, 0.10395653545856476, 0.03999999910593033]","[0.0, 0.0, -0.0700712989357174]",0.7660650497701694,-4.42840132720452,"(0.0, 0.0, 0.0, 0.0, 0.0, 0.0)",0.7727568402429666,-0.7330036506599046,-4.453269317727849,"(0.0, 0.0, 0.0, 0.0, 0.0, 0.0)",0.106127525293464,-0.7660652459153559,4.428406557742824,"(0.0, 0.0, 0.0, 0.0, 0.0, 0.0)",-0.7727584538402424,0.7330012065927102,4.453334493112861,"(0.0, 0.0, 0.0, 0.0, 0.0, 0.0)",-0.10612835248484857,False,,,,,False,,,,
46,Close,,,"(2.3333473952068603e-07, 0.16999904826492518, 0.0007693148831029557)","(1.5708257490378412, 0.00020916106414766092, -1.403701531280991e-05)",,"[-0.026750000193715096, 0.05299999937415123, 0.03999999910593033]","[0.0, -0.0, 0.7660649977175382]","[-0.07666795700788498, 0.10488639771938324, 0.03999999910593033]","[0.0, -0.0, 0.03306140223906952]","[0.026750000193715096, 0.05299999937415123, 0.03999999910593033]","[0.0, 0.0, -0.7660653079646047]","[0.07666796445846558, 0.10488638281822205, 0.03999999910593033]","[0.0, 0.0, -0.033064041138401834]",0.7494585447931524,-3.985561194484066,"(0.0, 0.0, 0.0, 0.0, 0.0, 0.0)",0.6957152666369016,-0.7497033982890566,-4.007939430996486,"(0.0, 0.0, 0.0, 0.0, 0.0, 0.0)",0.09567473522853766,-0.7494587213238203,3.985565901968542,"(0.0, 0.0, 0.0, 0.0, 0.0, 0.0)",-0.6957167215859875,0.7497011986294615,4.007998088820328,"(0.0, 0.0, 0.0, 0.0, 0.0, 0.0)",-0.09567548223716564,False,,,,,False,,,,
47,Close,,,"(2.1644941757498085e-07, 0.1699990504349868, 0.0007869661522299996)","(1.5708234934689855, 0.0001924117668631307, -1.4035069780186692e-05)",,"[-0.026750000193715096, 0.05299999937415123, 0.03999999910593033]","[0.0, -0.0, 0.7494586090384826]","[-0.07579945772886276, 0.10570816695690155, 0.03999999910593033]","[0.0, 0.0, -0.000244853492999894]","[0.026750000193715096, 0.05299999937415123, 0.03999999910593033]","[0.0, 0.0, -0.7494587081400255]","[0.07579946517944336, 0.10570815205574036, 0.03999999910593033]","[0.0, -0.0, 0.00024247731079752444]",0.7345126903138371,-3.587005075035659,"(0.0, 0.0, 0.0, 0.0, 0.0, 0.0)",0.626333365984163,-0.764733160038395,-3.6071428198412123,"(0.0, 0.0, 0.0, 0.0, 0.0, 0.0)",0.08623682787405348,-0.7345128491914382,3.587009311771688,"(0.0, 0.0, 0.0, 0.0, 0.0, 0.0)",-0.6263346776346612,0.7647311803455538,3.607195611862134,"(0.0, 0.0, 0.0, 0.0, 0.0, 0.0)",-0.08623750223625977,False,,,,,False,,,,
48,Close,,,"(1.9902478529523268e-07, 0.16999905216510106, 0.0008031506134026157)","(1.5708213694672628, 0.00017518801369688713, -1.4031269556480368e-05)",,"[-0.026750000193715096, 0.05299999937415123, 0.03999999910593033]","[0.0, -0.0, 0.7345126628086843]","[-0.07500623911619186, 0.10643533617258072, 0.03999999910593033]","[0.0, 0.0, -0.03022046980229406]","[0.026750000193715096, 0.05299999937415123, 0.03999999910593033]","[0.0, 0.0, -0.7345128981556924]","[0.07500624656677246, 0.10643532872200012, 0.03999999910593033]","[0.0, -0.0, 0.03021832986745902]",0.7210614212824534,-3.228304567532092,"(0.0, 0.0, 0.0, 0.0, 0.0, 0.0)",0.5638237707840803,-0.7782610712626786,-3.246698693828069,"(0.0, 0.0, 0.0, 0.0, 0.0, 0.0)",0.07768823801248652,-0.7210615642722944,3.2283083805945183,"(0.0, 0.0, 0.0, 0.0, 0.0, 0.0)",-0.5638249528147553,0.7782592895487316,3.2467462087626835,"(0.0, 0.0, 0.0, 0.0, 0.0, 0.0)",-0.07768884636877696,False,,,,,False,,,,
49,Close,,,"(1.829952775457341e-07, 0.16999905372445717, 0.0008180403399689366)","(1.5708194143492393, 0.00015934185659229473, -1.4027683329641553e-05)",,"[-0.026750000193715096, 0.05299999937415123, 0.03999999910593033]","[0.0, -0.0, 0.7210614193238458]","[-0.07428312301635742, 0.10707958787679672, 0.03999999910593033]","[0.0, 0.0, -0.05719964992344959]","[0.026750000193715096, 0.05299999937415123, 0.03999999910593033]","[0.0, 0.0, -0.7210615729227128]","[0.07428313046693802, 0.10707958042621613, 0.03999999910593033]","[0.0, -0.0, 0.05719773186848648]",0.7089552791542081,-2.905474110778883,"(0.0, 0.0, 0.0, 0.0, 0.0, 0.0)",0.5075985242705942,-0.7904360705014085,-2.921999817295172,"(0.0, 0.0, 0.0, 0.0, 0.0, 0.0)",0.07003713951344083,-0.7089554078450649,2.905477542535066,"(0.0, 0.0, 0.0, 0.0, 0.0, 0.0)",-0.5075995897946305,0.7904344669675306,2.9220425805117625,"(0.0, 0.0, 0.0, 0.0, 0.0, 0.0)",-0.07003768863744474,False,,,,,False,,,,
50,Close,,,"(1.682467379846132e-07, 0.1699990551245469, 0.0008317388481303276)","(1.570817615731277, 0.00014476218910829968, -1.4024269510216624e-05)",,"[-0.026750000193715096, 0.05299999937415123, 0.03999999910593033]","[0.0, -0.0, 0.7089552779168017]","[-0.07362496107816696, 0.10765105485916138, 0.03999999910593033]","[0.0, 0.0, -0.08148078223376223]","[0.026750000193715096, 0.05299999937415123, 0.03999999910593033]","[0.0, 0.0, -0.7089554724698194]","[0.07362496852874756, 0.10765104740858078, 0.03999999910593033]","[0.0, -0.0, 0.0814790502780401]",0.6980597512387873,-2.6149266997009946,"(0.0, 0.0, 0.0, 0.0, 0.0, 0.0)",0.45693917814201784,-0.8013934602632394,-2.6297735428394082,"(0.0, 0.0, 0.0, 0.0, 0.0, 0.0)",0.06310201359777694,-0.6980598670605584,2.614929788281559,"(0.0, 0.0, 0.0, 0.0, 0.0, 0.0)",-0.45694013827892466,0.8013920170905735,2.6298120295302843,"(0.0, 0.0, 0.0, 0.0, 0.0, 0.0)",-0.06310250889925509,False,,,,,False,,,,
51,Close,,,"(1.546756367802499e-07, 0.16999905637827734, 0.0008443414385910609)","(1.5708159610857961, 0.00013134778772512943, -1.402100024143693e-05)",,"[-0.026750000193715096, 0.05299999937415123, 0.03999999910593033]","[0.0, -0.0, 0.6980597686270504]","[-0.07302673906087875, 0.10815852880477905, 0.03999999910593033]","[0.0, 0.0, -0.10333370902653251]","[0.026750000193715096, 0.05299999937415123, 0.03999999910593033]","[0.0, 0.0, -0.6980598246378259]","[0.07302674651145935, 0.10815852135419846, 0.03999999910593033]","[0.0, -0.0, 0.10333215264877679]",0.6882537761149086,-2.3534340297308955,"(0.0, 0.0, 0.0, 0.0, 0.0, 0.0)",0.41132662822933225,-0.8112550122446371,-2.3667724755354502,"(0.0, 0.0, 0.0, 0.0, 0.0, 0.0)",0.056847326346645,-0.6882538803545026,2.353436809453404,"(0.0, 0.0, 0.0, 0.0, 0.0, 0.0)",-0.4113274932960819,0.8112537133962935,2.3668071133728046,"(0.0, 0.0, 0.0, 0.0, 0.0, 0.0)",-0.0568477730004364,False,,,,,False,,,,
52,Close,,,"(1.4218689550358636e-07, 0.1699990574974972, 0.0008559357877458743)","(1.5708144388885392, 0.00011900551991941484, -1.4017852050493115e-05)",,"[-0.026750000193715096, 0.05299999937415123, 0.03999999910593033]","[0.0, -0.0, 0.6882538042795985]","[-0.07248363643884659, 0.10860966145992279, 0.03999999910593033]","[0.0, 0.0, -0.12300123728040792]","[0.026750000193715096, 0.05299999937415123, 0.03999999910593033]","[0.0, 0.0, -0.688253900607872]","[0.07248364388942719, 0.1086096540093422, 0.03999999910593033]","[0.0, -0.0, 0.12299984676553348]",0.6794283985034177,-2.118090626757806,"(0.0, 0.0, 0.0, 0.0, 0.0, 0.0)",0.3702598465395096,-0.8201303199370257,-2.1300738461732434,"(0.0, 0.0, 0.0, 0.0, 0.0, 0.0)",0.051207533272865695,-0.6794284923190523,2.1180931285080637,"(0.0, 0.0, 0.0, 0.0, 0.0, 0.0)",-0.37026062586363284,0.8201291509798778,2.130105020060234,"(0.0, 0.0, 0.0, 0.0, 0.0, 0.0)",-0.051207935975855504,False,,,,,False,,,,
53,Close,,,"(1.3069318416839e-07, 0.16999905849308636, 0.0008666025576372722)","(1.5708130385376784, 0.00010764969663878531, -1.401480516953977e-05)",,"[-0.026750000193715096, 0.05299999937415123, 0.03999999910593033]","[0.0, -0.0, 0.6794284238724229]","[-0.07199108600616455, 0.10901110619306564, 0.03999999910593033]","[0.0, 0.0, -0.14070193198542613]","[0.026750000193715096, 0.05299999937415123, 0.03999999910593033]","[0.0, 0.0, -0.6794284800706577]","[0.07199109345674515, 0.10901109874248505, 0.03999999910593033]","[0.0, -0.0, 0.1407006814892172]",0.6714855586530759,-1.9062815640820263,"(0.0, 0.0, 0.0, 0.0, 0.0, 0.0)",0.33328720146674756,-0.82811801654313,-1.9170471854650495,"(0.0, 0.0, 0.0, 0.0, 0.0, 0.0)",0.0461231568532664,-0.6714856430871471,1.9062838156572566,"(0.0, 0.0, 0.0, 0.0, 0.0, 0.0)",-0.33328790347714454,0.8281169644874314,1.917075241812861,"(0.0, 0.0, 0.0, 0.0, 0.0, 0.0)",-0.04612351986457081,False,,,,,False,,,,
54,Close,,,"(1.201142787701026e-07, 0.1699990593750365, 0.0008764159571233717)","(1.5708117502799854, 9.720147739875066e-05, -1.4011842957469135e-05)",,"[-0.026750000193715096, 0.05299999937415123, 0.03999999910593033]","[0.0, -0.0, 0.6714856028191667]","[-0.07154478132724762, 0.10936867445707321, 0.03999999910593033]","[0.0, 0.0, -0.1566324602805662]","[0.026750000193715096, 0.05299999937415123, 0.03999999910593033]","[0.0, 0.0, -0.6714856028191667]","[0.07154478132724762, 0.10936867445707321, 0.03999999910593033]","[0.0, -0.0, 0.15663130155257995]",0.6643370027877683,-1.7156534076738226,"(0.0, 0.0, 0.0, 0.0, 0.0, 0.0)",0.30000166468946887,-0.8353068710937589,-1.7253250921509458,"(0.0, 0.0, 0.0, 0.0, 0.0, 0.0)",0.041540284771796165,-0.6643370787784324,1.7156554340915304,"(0.0, 0.0, 0.0, 0.0, 0.0, 0.0)",-0.3000022969997827,0.8353059242487986,1.725350342728124,"(0.0, 0.0, 0.0, 0.0, 0.0, 0.0)",-0.041540611950472935,False,,,,,False,,,,
55,Close,,,"(1.1037647424359984e-07, 0.16999906015252483, 0.0008854442581506275)","(1.5708105651429114, 8.758832292823178e-05, -1.4008951415989527e-05)",,"[-0.026750000193715096, 0.05299999937415123, 0.03999999910593033]","[0.0, -0.0, 0.6643370606126838]","[-0.07114068418741226, 0.1096874549984932, 0.03999999910593033]","[0.0, 0.0, -0.17096987637179278]","[0.026750000193715096, 0.05299999937415123, 0.03999999910593033]","[0.0, 0.0, -0.6643370606126838]","[0.07114069163799286, 0.1096874475479126, 0.03999999910593033]","[0.0, -0.0, 0.17096884643662202]",0.6579033025089914,-1.5440880669064398,"(0.0, 0.0, 0.0, 0.0, 0.0, 0.0)",0.2700364572532802,-0.8417767749452665,-1.5527769243618206,"(0.0, 0.0, 0.0, 0.0, 0.0, 0.0)",0.03741008611729049,-0.6579033709005891,1.5440898906823783,"(0.0, 0.0, 0.0, 0.0, 0.0, 0.0)",-0.27003702673818186,0.8417759227894597,1.5527996497586782,"(0.0, 0.0, 0.0, 0.0, 0.0, 0.0)",-0.03741038095743008,False,,,,,False,,,,
56,Close,,,"(1.0141204673652616e-07, 0.16999906083398159, 0.0008937502707232629)","(1.570809474872104, 7.87434915574051e-05, -1.4006118772737545e-05)",,"[-0.026750000193715096, 0.05299999937415123, 0.03999999910593033]","[0.0, -0.0, 0.6579033304946226]","[-0.07077505439519882, 0.10997187346220016, 0.03999999910593033]","[0.0, 0.0, -0.18387348897538708]","[0.026750000193715096, 0.05299999937415123, 0.03999999910593033]","[0.0, 0.0, -0.6579033304946226]","[0.07077506184577942, 0.10997187346220016, 0.03999999910593033]","[0.0, -0.0, 0.1838725619548152]",0.6521129722580923,-1.3896792602157946,"(0.0, 0.0, 0.0, 0.0, 0.0, 0.0)",0.24306111081870946,-0.8475996296201711,-1.3974851219770965,"(0.0, 0.0, 0.0, 0.0, 0.0, 0.0)",0.033688362136148925,-0.6521130338105302,1.38968090161414,"(0.0, 0.0, 0.0, 0.0, 0.0, 0.0)",-0.24306162368353448,0.8475988626841415,1.3975055747236533,"(0.0, 0.0, 0.0, 0.0, 0.0, 0.0)",-0.03368862779939208,False,,,,,False,,,,
57,Close,,,"(9.31587620256511e-08, 0.16999906142715163, 0.0009013917798737923)","(1.570808471873919, 7.060557585400826e-05, -1.4003335136779464e-05)",,"[-0.026750000193715096, 0.05299999937415123, 0.03999999910593033]","[0.0, -0.0, 0.6521129301518677]","[-0.07044443488121033, 0.11022583395242691, 0.03999999910593033]","[0.0, 0.0, -0.19548665573955404]","[0.026750000193715096, 0.05299999937415123, 0.03999999910593033]","[0.0, 0.0, -0.6521129866161153]","[0.07044444233179092, 0.11022583395242691, 0.03999999910593033]","[0.0, -0.0, 0.19548582525750646]",0.646901675032283,-1.2507113341942153,"(0.0, 0.0, 0.0, 0.0, 0.0, 0.0)",0.2187779064062842,-0.8528401458571484,-1.2577238968745574,"(0.0, 0.0, 0.0, 0.0, 0.0, 0.0)",0.03033513071724496,-0.6469017304294772,1.2507128114527255,"(0.0, 0.0, 0.0, 0.0, 0.0, 0.0)",-0.2187783682505172,0.8528394556185027,1.2577423042466835,"(0.0, 0.0, 0.0, 0.0, 0.0, 0.0)",-0.03033537006280305,False,,,,,False,,,,
58,Close,,,"(8.555942447331213e-08, 0.16999906193915107, 0.000908421947674647)","(1.5708075491625393, 6.311807629477444e-05, -1.4000592203169427e-05)",,"[-0.026750000193715096, 0.05299999937415123, 0.03999999910593033]","[0.0, -0.0, 0.6469017074975589]","[-0.0701456218957901, 0.11045276373624802, 0.03999999910593033]","[0.0, 0.0, -0.20593848593871938]","[0.026750000193715096, 0.05299999937415123, 0.03999999910593033]","[0.0, 0.0, -0.6469017640113621]","[0.0701456293463707, 0.11045276373624802, 0.03999999910593033]","[0.0, -0.0, 0.2059377054983325]",0.6422115075290548,-1.1256402007747932,"(0.0, 0.0, 0.0, 0.0, 0.0, 0.0)",0.19691865600140895,-0.8575565627499749,-1.1319400542783593,"(0.0, 0.0, 0.0, 0.0, 0.0, 0.0)",0.027314243362735774,-0.6422115573865295,1.1256415303074527,"(0.0, 0.0, 0.0, 0.0, 0.0, 0.0)",-0.19691907187647334,0.8575559415385998,1.1319566208232932,"(0.0, 0.0, 0.0, 0.0, 0.0, 0.0)",-0.027314458975022625,False,,,,,False,,,,
59,Move,,,"(7.856146500561274e-08, 0.16999906237651882, 0.0009148896830877347)","(1.5708067003113224, 5.6229009009845055e-05, -1.399788300299107e-05)","[0.0, 0.0, 0.0]","[-0.026750000193715096, 0.05299999937415123, 0.03999999910593033]","[0.0, -0.0, 0.6422115222668433]","[-0.06987567991018295, 0.11065566539764404, 0.03999999910593033]","[0.0, 0.0, -0.21534502689171695]","[0.026750000193715096, 0.05299999937415123, 0.03999999910593033]","[0.0, 0.0, -0.6422115222668433]","[0.06987568736076355, 0.11065565794706345, 0.03999999910593033]","[0.0, -0.0, 0.2153443918565048]",0.6379903567761492,-1.0130761806973148,"(0.0, 0.0, 0.0, 0.0, 0.0, 0.0)",0.17724179525373857,-0.861801294967015,-1.0187357320896053,"(0.0, 0.0, 0.0, 0.0, 0.0, 0.0)",0.024593033118920006,-0.6379904016478766,1.0130773772767077,"(0.0, 0.0, 0.0, 0.0, 0.0, 0.0)",-0.1772421697155535,0.8618007358798453,1.0187506418989196,"(0.0, 0.0, 0.0, 0.0, 0.0, 0.0)",-0.024593227332916724,False,,,,,False,,,,
60,Move,,,"(7.401516452493873e-08, 0.16999906300717518, 0.0009208949427311885)","(1.5708059692049072, 5.171406878091127e-05, -1.3997173418156156e-05)","[-4.546300480674002e-09, 6.306563604674409e-10, 6.005259643453772e-06]","[-0.026750000193715096, 0.05299999937415123, 0.03999999910593033]","[0.0, -0.0, 0.6379903239810443]","[-0.06963192671537399, 0.1108371913433075, 0.03999999910593033]","[0.0, 0.0, -0.2238109552587812]","[0.026750000193715096, 0.05299999937415123, 0.03999999910593033]","[0.0, 0.0, -0.6379904179642307]","[0.06963192671537399, 0.1108371838927269, 0.03999999910593033]","[0.0, -0.0, 0.22381033482023305]",0.615110639462399,-5.491132155300077,"(0.0, 0.0, 0.0, 0.0, 0.0, 0.0)",-6.452665348763696,-0.8613763884842398,0.10197755586604229,"(0.0, 0.0, 0.0, 0.0, 0.0, 0.0)",-0.36782542138199165,-0.6151107211023208,5.491123330933392,"(0.0, 0.0, 0.0, 0.0, 0.0, 0.0)",6.4526488408560905,0.8613758231880564,-0.10197904602934349,"(0.0, 0.0, 0.0, 0.0, 0.0, 0.0)",0.36782252911949487,False,,,,,False,,,,
61,Move,,,"(6.525734425186348e-05, 0.17034549853437667, 0.001059997142676121)","(1.5643418998519334, 0.00019756355969089426, -0.0007979474479338168)","[6.517878278685787e-05, 0.00034643615785784343, 0.00014510745958838623]","[-0.026750000193715096, 0.05299999937415123, 0.03999999910593033]","[0.0, -0.0, 0.6151107619663475]","[-0.06829752027988434, 0.1118030920624733, 0.03999999910593033]","[0.0, 0.0, -0.24626574387408112]","[0.026750000193715096, 0.05299999937415123, 0.03999999910593033]","[0.0, 0.0, -0.6151107619663475]","[0.06829752773046494, 0.1118030920624733, 0.03999999910593033]","[0.0, -0.0, 0.24626510812228053]",0.59557520589455,-4.68850405628373,"(0.0, 0.0, 0.0, 0.0, 0.0, 0.0)",-45.004877301260535,-0.841587039207075,4.749443826519566,"(0.0, 0.0, 0.0, 0.0, 0.0, 0.0)",-23.059879711313982,-0.5955448471476087,4.6958097491309045,"(0.0, 0.0, 0.0, 0.0, 0.0, 0.0)",43.2331221848827,0.8422035798107438,-4.601338410555013,"(0.0, 0.0, 0.0, 0.0, 0.0, 0.0)",22.069611273367745,True,"(-0.03288698015965098, 0.18306432161630465, 0.039999948285931244)","(0.9999999985648672, -1.399717339714095e-05, -5.171406875791205e-05)",0.0009292587523792685,356.63318049990795,True,"(0.032887031061809374, 0.18306436848012048, 0.04000005171406876)","(-0.9999999985648671, 1.3997173395198976e-05, 5.171406875668148e-05)",0.0009247539911204204,342.7710504396539
62,Move,"(0.0, 0.0, 0.0)","(0.0, -0.0, 0.0)","(0.00016176697229314485, 0.17076934431250207, 0.001298992481510786)","(1.553459115144406, 0.0004787126916021603, -0.0016283617000435679)","[0.00016168841082813925, 0.0007702819359832469, 0.0003841027984230513]","[-0.026750000193715096, 0.05299999937415123, 0.03999999910593033]","[0.0, -0.0, 0.5955751094143519]","[-0.06714092195034027, 0.11260347068309784, 0.03999999910593033]","[0.0, 0.0, -0.24601185159459507]","[0.026750000193715096, 0.05299999937415123, 0.03999999910593033]","[0.0, 0.0, -0.5955448282145998]","[0.06713911145925522, 0.11260469257831573, 0.03999999910593033]","[0.0, -0.0, 0.24665872904210193]",0.5770970782178444,-4.434750642409365,"(0.0, 0.0, 0.0, 0.0, 0.0, 0.0)",-74.21698749878065,-0.811850997818181,7.136649933334551,"(0.0, 0.0, 0.0, 0.0, 0.0, 0.0)",-37.92588619525253,-0.5770027641966642,4.450099908226674,"(0.0, 0.0, 0.0, 0.0, 0.0, 0.0)",71.59541053355323,0.8135423707664626,-6.878690170627483,"(0.0, 0.0, 0.0, 0.0, 0.0, 0.0)",36.485404729774935,True,"(-0.03174847742362094, 0.1838726496858637, 0.03999980243644159)","(0.9999996621242782, -0.0007979473476813144, -0.0001975635584110712)",-0.00012778812911608492,569.3446982775357,True,"(0.031700570614753176, 0.18385320841010633, 0.0400001975635584)","(-0.9999996621242783, 0.0007979473476767542, 0.0001975635584049517)",-0.0003431682129125587,549.2893233704585
63,Move,"(0.0006329113924050633, 0.0, 0.0006329113924050633)","(0.0, -0.0, 0.0)","(0.00020568050408397375, 0.17108007690663649, 0.0015665957858292871)","(1.5453980212159237, 0.00011151380297923225, -0.0017071234802152205)","[0.00020560194261896815, 0.0010810145301176632, 0.0006517061027415524]","[-0.026750000193715096, 0.05299999937415123, 0.03999999910593033]","[0.0, -0.0, 0.5770971029289548]","[-0.06603273004293442, 0.11333960294723511, 0.03999999910593033]","[0.0, 0.0, -0.23475391897699402]","[0.026750000193715096, 0.05299999937415123, 0.03999999910593033]","[0.0, 0.0, -0.5770027543990871]","[0.06602703779935837, 0.11334330588579178, 0.03999999910593033]","[0.0, -0.0, 0.23653961426052006]",0.579404895675538,0.5538761898464655,"(0.0, 0.0, 0.0, 0.0, 0.0, 0.0)",6.4633983195225495,-0.8148246019570704,-0.7136649933334551,"(0.0, 0.0, 0.0, 0.0, 0.0, 0.0)",-0.3132438216507522,-0.5792909153140746,-0.5491562681785016,"(0.0, 0.0, 0.0, 0.0, 0.0, 0.0)",-6.16852739973914,0.8163981315451861,0.6853825868936365,"(0.0, 0.0, 0.0, 0.0, 0.0, 0.0)",0.4843271556067679,True,"(-0.03144479909141533, 0.18499061278782541, 0.039999521287326686)","(0.9999985596366134, -0.0016283607938474471, -0.0004787126733201028)",-0.00031179486038545077,0.0,True,"(0.0313112124765586, 0.1849374824167095, 0.040000478712673315)","(-0.9999985596366132, 0.0016283607938671909, 0.0004787126733090728)",-0.0008521962835819142,2.606367117194445
64,Move,"(0.0012658227848101268, 0.0, 0.0012658227848101268)","(0.0, -0.0, 0.0)","(0.0002452926507353158, 0.17132944611721324, 0.001783452199567141)","(1.5389273245860413, -0.0002498851916740172, -0.001614061269365973)","[0.0002452140892703102, 0.001330383740694413, 0.0008685625164794064]","[-0.026750000193715096, 0.05299999937415123, 0.03999999910593033]","[0.0, -0.0, 0.579404963823502]","[-0.06617187708616257, 0.1132487803697586, 0.03999999910593033]","[0.0, 0.0, -0.23541970778940716]","[0.026750000193715096, 0.05299999937415123, 0.03999999910593033]","[0.0, 0.0, -0.5792908612503161]","[0.0661650076508522, 0.11325327306985855, 0.03999999910593033]","[0.0, -0.0, 0.23710723316040327]",0.5797039874010956,0.07178201413383167,"(0.0, 0.0, 0.0, 0.0, 0.0, 0.0)",-0.6217355969338644,-0.8145272415594007,0.07136649544072693,"(0.0, 0.0, 0.0, 0.0, 0.0, 0.0)",0.03317582783020552,-0.5797997253716181,-0.12211441381043109,"(0.0, 0.0, 0.0, 0.0, 0.0, 0.0)",0.5443274483686593,0.8161131613491462,-0.06839284704957205,"(0.0, 0.0, 0.0, 0.0, 0.0, 0.0)",-0.03578267147177312,True,"(-0.03153624923514486, 0.18487733778001617, 0.039999888486197246)","(0.9999985366474105, -0.001707122640433851, -0.00011151380275540046)",-0.00019027644015300206,0.0,True,"(0.031408552968427136, 0.18482838253269274, 0.04000011151380275)","(-0.9999985366474103, 0.0017071226404405677, 0.0001115138027507468)",-0.000784928296535469,0.0
65,Move,"(0.00189873417721519, 0.0, 0.00189873417721519)","(0.0, -0.0, 0.0)","(0.00027812591567438587, 0.1715159105100719, 0.0019494642920401869)","(1.5340618368099126, -0.00022622110533485385, -0.0007284083845542611)","[0.00027804735420938027, 0.0015168481335530726, 0.0010345746089524522]","[-0.026750000193715096, 0.05299999937415123, 0.03999999910593033]","[0.0, -0.0, 0.5797039946555991]","[-0.06618989259004593, 0.11323698610067368, 0.03999999910593033]","[0.0, 0.0, -0.23482326754388813]","[0.026750000193715096, 0.05299999937415123, 0.03999999910593033]","[0.0, 0.0, -0.5797997932360207]","[0.06619565933942795, 0.11323320865631104, 0.03999999910593033]","[0.0, -0.0, 0.23631344135632332]",0.5798618647823408,0.03789057149883668,"(0.0, 0.0, 0.0, 0.0, 0.0, 0.0)",-0.05834072618181455,-0.8145569775991677,-0.007136649544072782,"(0.0, 0.0, 0.0, 0.0, 0.0, 0.0)",-0.012307030654501918,-0.5804063561177043,-0.14559137906068922,"(0.0, 0.0, 0.0, 0.0, 0.0, 0.0)",0.015407786364886628,0.8161364326927435,0.005585122463341793,"(0.0, 0.0, 0.0, 0.0, 0.0, 0.0)",0.03036804553651678,True,"(-0.0315969972572616, 0.18488568668989608, 0.04000024988518908)","(0.9999986661821284, -0.001614060518158191, 0.00024988518908028613)",-0.00010542097163177008,0.0,True,"(0.031496029388711384, 0.1848349995767741, 0.03999975011481094)","(-0.9999986661821285, 0.0016140605181530743, -0.0002498851890644037)",-0.0007215532273804637,0.31910859264078967
66,Move,"(0.002531645569620253, 0.0, 0.002531645569620253)","(0.0, -0.0, 0.0)","(0.00031002546493954554, 0.1716406567066417, 0.00206522049141076)","(1.5307800778826819, -0.00020479534249490979, 0.00017528429025573391)","[0.00030994690347453994, 0.0016415943301228697, 0.0011503308083230255]","[-0.026750000193715096, 0.05299999937415123, 0.03999999910593033]","[0.0, -0.0, 0.5798619310410577]","[-0.0661994069814682, 0.11323075741529465, 0.03999999910593033]","[0.0, 0.0, -0.23469511260829584]","[0.026750000193715096, 0.05299999937415123, 0.03999999910593033]","[0.0, 0.0, -0.5804063957467014]","[0.06623218953609467, 0.11320926994085312, 0.03999999910593033]","[0.0, -0.0, 0.23573007453001477]",0.5800990164998283,0.05691641219699051,"(0.0, 0.0, 0.0, 0.0, 0.0, 0.0)",0.028803030564285747,-0.8145540504847596,0.0007025074579266937,"(0.0, 0.0, 0.0, 0.0, 0.0, 0.0)",0.0029429676584406335,-0.5813271760493081,-0.22099678358491198,"(0.0, 0.0, 0.0, 0.0, 0.0, 0.0)",-0.11142193591704759,0.8161342466377515,-0.0005246531980886929,"(0.0, 0.0, 0.0, 0.0, 0.0, 0.0)",-0.008930864025379735,True,"(-0.03161568742364941, 0.1848846489749933, 0.0400002262211034)","(0.999999709122637, -0.0007284083015009009, 0.00022622110339511167)",-6.506511191584394e-05,0.0,True,"(0.031574334770047306, 0.18482982070588633, 0.03999977377889657)","(-0.9999997091226369, 0.0007284083015145121, -0.00022622110343182796)",-0.0006648896174816321,0.0
67,Move,"(0.0031645569620253164, 0.0, 0.0031645569620253164)","(0.0, -0.0, 0.0)","(0.00034093504110360587, 0.1717036106533397, 0.00213090240066292)","(1.529080395075512, -0.00018547880805727917, 0.0011048614526029794)","[0.00034085647963860027, 0.001704548276820872, 0.0012160127175751853]","[-0.026750000193715096, 0.05299999937415123, 0.03999999910593033]","[0.0, -0.0, 0.5800989613678872]","[-0.0662136897444725, 0.11322140693664551, 0.03999999910593033]","[0.0, 0.0, -0.23445505469317934]","[0.026750000193715096, 0.05299999937415123, 0.03999999910593033]","[0.0, 0.0, -0.5813272497283121]","[0.06628762185573578, 0.11317288875579834, 0.03999999910593033]","[0.0, -0.0, 0.2348070912559257]",0.5803449781152231,0.05903078769475911,"(0.0, 0.0, 0.0, 0.0, 0.0, 0.0)",0.003033144434014447,-0.8145543745364374,-7.77724026647462e-05,"(0.0, 0.0, 0.0, 0.0, 0.0, 0.0)",0.0001472292194028881,-0.5824844286083664,-0.2777406141739833,"(0.0, 0.0, 0.0, 0.0, 0.0, 0.0)",-0.08327494602050155,0.8161357684875606,0.0003652439542133929,"(0.0, 0.0, 0.0, 0.0, 0.0, 0.0)",-0.00612234178986913,True,"(-0.03164717361233538, 0.18488425615446794, 0.040000204795341075)","(0.9999999636671433, 0.00017528428568241755, 0.00020479534107174894)",-1.2891575520033945e-05,0.0,True,"(0.031695879517479, 0.184823571394784, 0.03999979520465895)","(-0.9999999636671429, -0.00017528428567659793, -0.0002047953410567667)",-0.0005640666946282591,0.0
68,Move,"(0.00379746835443038, 0.0, 0.00379746835443038)","(0.0, -0.0, 0.0)","(0.0003708006035822943, 0.17170472763955827, 0.0021466319762969747)","(1.5289620509188961, -0.00016859615602942858, 0.002067646720646694)","[0.0003707220421172887, 0.0017056652630394464, 0.00123174229320924]","[-0.026750000193715096, 0.05299999937415123, 0.03999999910593033]","[0.0, -0.0, 0.5803449432917779]","[-0.06622849404811859, 0.11321169883012772, 0.03999999910593033]","[0.0, 0.0, -0.23420937835831274]","[0.026750000193715096, 0.05299999937415123, 0.03999999910593033]","[0.0, 0.0, -0.5824844481218022]","[0.06635722517967224, 0.11312709748744965, 0.03999999910593033]","[0.0, -0.0, 0.23365133484669748]",0.580585720947923,0.05777827984799,"(0.0, 0.0, 0.0, 0.0, 0.0, 0.0)",-0.0018143298567370415,-0.8145543153171235,1.421263534509124e-05,"(0.0, 0.0, 0.0, 0.0, 0.0, 0.0)",-0.00012596668660263595,-0.5838655901688554,-0.33147877451736996,"(0.0, 0.0, 0.0, 0.0, 0.0, 0.0)",-0.0789855647636316,0.8161368728803723,0.000265054274782335,"(0.0, 0.0, 0.0, 0.0, 0.0, 0.0)",-0.005903113232230168,True,"(-0.03167958922134693, 0.18488372039218698, 0.040000185478807)","(0.9999993724394638, 0.0011048612088159807, 0.00018547880699717854)",3.891883742701381e-05,0.0,True,"(0.03184832036049423, 0.1848156216683322, 0.039999814521193)","(-0.9999993724394638, -0.0011048612088117198, -0.00018547880700150118)",-0.0004311228091995607,0.0
69,Move,"(0.004430379746835442, 0.0, 0.004430379746835442)","(0.0, -0.0, 0.0)","(0.0004005711469808102, 0.17170132381655553, 0.0021112294961640214)","(1.5304652542712183, -0.00015493910753256005, 0.0030291336974094412)","[0.0004004925855158046, 0.001702261440036712, 0.0011963398130762867]","[-0.026750000193715096, 0.05299999937415123, 0.03999999910593033]","[0.0, -0.0, 0.5805857985683857]","[-0.0662429928779602, 0.11320219188928604, 0.03999999910593033]","[0.0, 0.0, -0.23396859531850903]","[0.026750000193715096, 0.05299999937415123, 0.03999999910593033]","[0.0, 0.0, -0.5838656253361151]","[0.06644023209810257, 0.11307233572006226, 0.03999999910593033]","[0.0, -0.0, 0.2322712759861982]",0.5808071352154531,0.053139424207212294,"(0.0, 0.0, 0.0, 0.0, 0.0, 0.0)",-0.006795701429740735,-0.8145542135631326,2.44209578168733e-05,"(0.0, 0.0, 0.0, 0.0, 0.0, 0.0)",-0.0005058366982697355,-0.5854572518884371,-0.3819988126996092,"(0.0, 0.0, 0.0, 0.0, 0.0, 0.0)",-0.0742652775925849,0.8161379421877492,0.0002566337704387136,"(0.0, 0.0, 0.0, 0.0, 0.0, 0.0)",-0.005542178247128853,True,"(-0.031711344612669556, 0.18488325383420878, 0.04000016859615524)","(0.9999978482069795, 0.0020676452180003664, 0.0001685961552370606)",8.844651593217243e-05,0.0,True,"(0.03203029698142674, 0.18480607349729677, 0.03999983140384477)","(-0.9999978482069795, -0.002067645217999926, -0.0001685961552324235)",-0.00026710009662082515,0.0
70,Move,"(0.005063291139240506, 0.0, 0.005063291139240506)","(0.0, -0.0, 0.0)","(0.0004303308973394991, 0.17169438740187706, 0.0020247491371270785)","(1.5335914442620096, -0.00014448225375250816, 0.003990357233300112)","[0.0004302523358744935, 0.0016953250253582408, 0.0011098594540393438]","[-0.026750000193715096, 0.05299999937415123, 0.03999999910593033]","[0.0, -0.0, 0.5808071284904951]","[-0.0662563219666481, 0.11319344490766525, 0.03999999910593033]","[0.0, 0.0, -0.233747092864819]","[0.026750000193715096, 0.05299999937415123, 0.03999999910593033]","[0.0, 0.0, -0.5854572516715845]","[0.06653580069541931, 0.11300908774137497, 0.03999999910593033]","[0.0, -0.0, 0.23068069180759726]",0.580994082332978,0.04486730820596385,"(0.0, 0.0, 0.0, 0.0, 0.0, 0.0)",-0.012130510799821267,-0.8145540315469698,4.368387906710071e-05,"(0.0, 0.0, 0.0, 0.0, 0.0, 0.0)",-0.0009028717193297393,-0.5872449038384889,-0.42903646801244383,"(0.0, 0.0, 0.0, 0.0, 0.0, 0.0)",-0.0691675204992625,0.8161389343859665,0.0002381275721633495,"(0.0, 0.0, 0.0, 0.0, 0.0, 0.0)",-0.005163454835077686,True,"(-0.03174055458495815, 0.1848828955694296, 0.04000015493910691)","(0.9999954001750212, 0.0030291290286786907, 0.00015493910690904614)",0.00013517954169500529,0.0,True,"(0.03224000859388122, 0.18479491334895826, 0.03999984506089309)","(-0.9999954001750211, -0.003029129028671846, -0.00015493910691367818)",-7.517559732015147e-05,0.0
71,Move,"(0.00569620253164557, 0.0, 0.00569620253164557)","(0.0, -0.0, 0.0)","(0.0004600839764424414, 0.17168429131049734, 0.0018872595922744498)","(1.538341693292023, -0.00013935260592408885, 0.004950550880640379)","[0.0004600054149774358, 0.0016852289339785165, 0.0009723699091867151]","[-0.026750000193715096, 0.05299999937415123, 0.03999999910593033]","[0.0, -0.0, 0.5809940899995476]","[-0.06626757234334946, 0.1131860539317131, 0.03999999910593033]","[0.0, 0.0, -0.23355993999383165]","[0.026750000193715096, 0.05299999937415123, 0.03999999910593033]","[0.0, 0.0, -0.5872448729102686]","[0.06664300709962845, 0.11293786764144897, 0.03999999910593033]","[0.0, -0.0, 0.22889402387472876]",0.5811396018031313,0.03492467283679179,"(0.0, 0.0, 0.0, 0.0, 0.0, 0.0)",-0.014586654144311366,-0.8145538183005417,5.117914273364388e-05,"(0.0, 0.0, 0.0, 0.0, 0.0, 0.0)",-0.0010872896379732632,-0.589222096252962,-0.47452617947353737,"(0.0, 0.0, 0.0, 0.0, 0.0, 0.0)",-0.06690693035503303,0.8161398982639979,0.00023133072753309943,"(0.0, 0.0, 0.0, 0.0, 0.0, 0.0)",-0.004994189011885486,True,"(-0.031765225462328385, 0.18488274066437912, 0.04000014448225325)","(0.9999920280976617, 0.003990346601949967, 0.00014448225324877924)",0.00017718763974222906,0.0,True,"(0.03247553903160067, 0.1847821067673367, 0.039999855517746756)","(-0.9999920280976617, -0.003990346601947608, -0.00014448225324088836)",0.0001426647496452247,0.0
72,Move,"(0.006329113924050633, 0.0, 0.006329113924050633)","(0.0, -0.0, 0.0)","(0.0004897746331562949, 0.1716716853042772, 0.0016988042622881993)","(1.5447169533102427, -0.00013868035317819052, 0.0059069113198429975)","[0.0004896960716912893, 0.0016726229277583826, 0.0007839145792004646]","[-0.026750000193715096, 0.05299999937415123, 0.03999999910593033]","[0.0, -0.0, 0.5811396947793562]","[-0.06627633422613144, 0.11318030208349228, 0.03999999910593033]","[0.0, 0.0, -0.23341424807961442]","[0.026750000193715096, 0.05299999937415123, 0.03999999910593033]","[0.0, 0.0, -0.5892220973908686]","[0.06676144152879715, 0.11285886913537979, 0.03999999910593033]","[0.0, -0.0, 0.22691779997547218]",0.5812358806279369,0.0231069179533403,"(0.0, 0.0, 0.0, 0.0, 0.0, 0.0)",-0.017342080974506204,-0.8145535644707704,6.091914511037246e-05,"(0.0, 0.0, 0.0, 0.0, 0.0, 0.0)",-0.0012926121028587877,-0.5913814895944435,-0.5182544019555646,"(0.0, 0.0, 0.0, 0.0, 0.0, 0.0)",-0.06433410457051138,0.8161408242959859,0.00022224767712346446,"(0.0, 0.0, 0.0, 0.0, 0.0, 0.0)",-0.004803092839954784,True,"(-0.03178443590545266, 0.184882831262834, 0.04000013935260546)","(0.9999877363385603, 0.004950530611290092, 0.0001393526054631294)",0.00021347435208420495,0.0,True,"(0.032736027163122856, 0.1847675594956058, 0.03999986064739453)","(-0.9999877363385604, -0.0049505306112854, -0.00013935260546785367)",0.0003856283865641588,0.0
73,Move,"(0.006962025316455696, 0.0, 0.006962025316455696)","(0.0, -0.0, 0.0)","(0.0005193290474988144, 0.1716574486694048, 0.0014593786666910863)","(1.5527175844516785, -0.00014133029582764713, 0.006856831338441852)","[0.0005192504860338088, 0.0016583862928859772, 0.0005444889836033516]","[-0.026750000193715096, 0.05299999937415123, 0.03999999910593033]","[0.0, -0.0, 0.5812358242555338]","[-0.06628212332725525, 0.11317650228738785, 0.03999999910593033]","[0.0, 0.0, -0.23331770750376726]","[0.026750000193715096, 0.05299999937415123, 0.03999999910593033]","[0.0, 0.0, -0.5913815185611578]","[0.06689060479402542, 0.11277233064174652, 0.03999999910593033]","[0.0, -0.0, 0.22475931910709623]",0.5812747533567029,0.009329454903856949,"(0.0, 0.0, 0.0, 0.0, 0.0, 0.0)",-0.02022237794548501,-0.8145532689677452,7.092072605860003e-05,"(0.0, 0.0, 0.0, 0.0, 0.0, 0.0)",-0.001507448578154413,-0.5937153809673152,-0.5601339294892345,"(0.0, 0.0, 0.0, 0.0, 0.0, 0.0)",-0.061632705117126034,0.8161417113565262,0.0002128945296805651,"(0.0, 0.0, 0.0, 0.0, 0.0, 0.0)",-0.004602234749082627,True,"(-0.03179715631634246, 0.18488321451018003, 0.04000013868035273)","(0.9999825446341032, 0.005906876912840256, 0.0001386803527319681)",0.00024301766110769712,0.0,True,"(0.03302049786641173, 0.1847511799420693, 0.03999986131964726)","(-0.9999825446341032, -0.005906876912838065, -0.00013868035274096715)",0.0006527267778080483,0.0
74,Move,"(0.00759493670886076, 0.0, 0.00759493670886076)","(0.0, -0.0, 0.0)","(0.0005486632283184594, 0.17164270655375455, 0.0011689760886682238)","(1.5623438056609738, -0.00014590842058227876, 0.007797539019336028)","[0.0005485846668534538, 0.0016436441772357258, 0.00025408640558048905]","[-0.026750000193715096, 0.05299999937415123, 0.03999999910593033]","[0.0, -0.0, 0.5812746917966995]","[-0.06628446280956268, 0.11317496001720428, 0.03999999910593033]","[0.0, 0.0, -0.23327849243240747]","[0.026750000193715096, 0.05299999937415123, 0.03999999910593033]","[0.0, 0.0, -0.5937153417676023]","[0.06702999770641327, 0.11267848312854767, 0.03999999910593033]","[0.0, -0.0, 0.22242633114946586]",0.5812477160261588,-0.006488959330578579,"(0.0, 0.0, 0.0, 0.0, 0.0, 0.0)",-0.023222411055569363,-0.8145529300035538,8.135140592095377e-05,"(0.0, 0.0, 0.0, 0.0, 0.0, 0.0)",-0.0017311962681229975,-0.5962156900160642,-0.6000741716997507,"(0.0, 0.0, 0.0, 0.0, 0.0, 0.0)",-0.05879795573696274,0.8161425574506055,0.00020306257901134652,"(0.0, 0.0, 0.0, 0.0, 0.0, 0.0)",-0.00439147585526883,True,"(-0.03180230999337089, 0.18488393913646686, 0.04000014133029536)","(0.9999764820372112, 0.006856777539801219, 0.0001413302953630044)",0.0002647416328491778,0.0,True,"(0.03332792665406088, 0.18473287369314095, 0.039999858669704645)","(-0.9999764820372111, -0.006856777539806031, -0.00014133029535420271)",0.0009429290444517926,0.0
75,Move,"(0.008227848101265822, 0.0, 0.008227848101265822)","(0.0, -0.0, 0.0)","(0.0005500273625317982, 0.1716343520918536, 0.0009539722741311182)","(1.5707209797439274, 0.0010893794122047806, 0.007759145705871735)","[0.0005499488010667926, 0.0016352897153347756, 3.908259104338347e-05]","[-0.026750000193715096, 0.05299999937415123, 0.03999999910593033]","[0.0, -0.0, 0.5812477678529129]","[-0.06628283858299255, 0.11317603290081024, 0.03999999910593033]","[0.0, 0.0, -0.2333052127012427]","[0.026750000193715096, 0.05299999937415123, 0.03999999910593033]","[0.0, 0.0, -0.5962157287875917]","[0.06717909127473831, 0.11257758736610413, 0.03999999910593033]","[0.0, -0.0, 0.21992688961555124]",0.5811458179411355,-0.02445554040558129,"(0.0, 0.0, 0.0, 0.0, 0.0, 0.0)",-0.026391339877270964,-0.8145529638999729,-8.135140593168444e-06,"(0.0, 0.0, 0.0, 0.0, 0.0, 0.0)",-0.0019777086108143864,-0.5988738456423475,-0.6379573503079783,"(0.0, 0.0, 0.0, 0.0, 0.0, 0.0)",-0.05581319720302201,0.8161424728411976,-2.030625790183649e-05,"(0.0, 0.0, 0.0, 0.0, 0.0, 0.0)",-0.004191138622480869,True,"(-0.03179877558437305, 0.18488505475822645, 0.04000014590842007)","(0.9999695887023454, 0.007797459919419297, 0.00014590842006737434)",0.0002775334223196687,0.0,True,"(0.03365723851801029, 0.18471254662594233, 0.03999985409157993)","(-0.9999695887023454, -0.007797459919412576, -0.0001459084200652564)",0.0012551465323481742,0.0
76,Move,"(0.008860759493670885, 0.0, 0.008860759493670885)","(0.0, -0.0, 0.0)","(0.0005549543488420354, 0.17162925309209504, 0.0009568374828766734)","(1.5755719809057585, 0.005846301398294597, 0.007791017846293201)","[0.0005548757873770298, 0.001630190715576213, 4.1947799788938714e-05]","[-0.026750000193715096, 0.05299999937415123, 0.03999999910593033]","[0.0, -0.0, 0.581145860578153]","[-0.06627670675516129, 0.11318005621433258, 0.03999999910593033]","[0.0, 0.0, -0.23340714969010795]","[0.026750000193715096, 0.05299999937415123, 0.03999999910593033]","[0.0, 0.0, -0.5988738263550966]","[0.06733731180429459, 0.11246991157531738, 0.03999999910593033]","[0.0, -0.0, 0.21726861154564686]",0.5809595866708487,-0.0446955048688471,"(0.0, 0.0, 0.0, 0.0, 0.0, 0.0)",-0.029710614893168393,-0.8145524913669342,0.00011340792929022164,"(0.0, 0.0, 0.0, 0.0, 0.0, 0.0)",-0.0022039276915098555,-0.6016806405617399,-0.6736307806541858,"(0.0, 0.0, 0.0, 0.0, 0.0, 0.0)",-0.05253165841953538,0.8161433118938618,0.00020137263942966396,"(0.0, 0.0, 0.0, 0.0, 0.0, 0.0)",-0.0039019287327737243,True,"(-0.03178533536679589, 0.18488563089720852, 0.039998910620803255)","(0.9999693046241491, 0.007759063246367336, -0.0010893791967380379)",0.0003140882276612915,0.0,True,"(0.03400734973941251, 0.18469110383911344, 0.04000108937919674)","(-0.9999693046241493, -0.0077590632463667595, 0.001089379196739995)",0.0015550672485469999,0.0
77,Move,"(0.00949367088607595, 0.0, 0.00949367088607595)","(0.0, -0.0, 0.0)","(0.0005565066930392966, 0.17162750816569022, 0.0010586829872329382)","(1.576796227960891, 0.006976373652882005, 0.007807320400559451)","[0.000556428131574291, 0.001628445789171401, 0.0001437933041452035]","[-0.026750000193715096, 0.05299999937415123, 0.03999999910593033]","[0.0, -0.0, 0.5809595614146965]","[-0.06626549363136292, 0.11318741738796234, 0.03999999910593033]","[0.0, 0.0, -0.23359288362618183]","[0.026750000193715096, 0.05299999937415123, 0.03999999910593033]","[0.0, 0.0, -0.6016806119372908]","[0.06750407069921494, 0.11235575377941132, 0.03999999910593033]","[0.0, -0.0, 0.21446267627169555]",0.5806977086434709,-0.06285072657066193,"(0.0, 0.0, 0.0, 0.0, 0.0, 0.0)",-0.026681630138034915,-0.814552538620238,-1.134079292874901e-05,"(0.0, 0.0, 0.0, 0.0, 0.0, 0.0)",-0.0020029639417158684,-0.6046421844827947,-0.7107705410531767,"(0.0, 0.0, 0.0, 0.0, 0.0, 0.0)",-0.05474434656556164,0.8161432279885954,-2.0137263941677475e-05,"(0.0, 0.0, 0.0, 0.0, 0.0, 0.0)",-0.004112564603712419,True,"(-0.03176082609882868, 0.18488680014748918, 0.039994153731905346)","(0.9999525611213008, 0.0077908058836423716, -0.005846268094658711)",0.00047918387538723264,0.0,True,"(0.03437692449109484, 0.18466734980146918, 0.04000584626809466)","(-0.9999525611213008, -0.007790805883646329, 0.005846268094660669)",0.0017336527834988325,0.0
78,Move,"(0.010126582278481011, 0.0, 0.010126582278481011)","(0.0, -0.0, 0.0)","(0.0005564271155682367, 0.1716272970127456, 0.0010808550055893098)","(1.5767710752716333, 0.0068572209168343235, 0.0078101641294475435)","[0.0005563485541032311, 0.001628234636226772, 0.00016596532250157505]","[-0.026750000193715096, 0.05299999937415123, 0.03999999910593033]","[0.0, -0.0, 0.580697696614262]","[-0.06624973565340042, 0.11319776624441147, 0.03999999910593033]","[0.0, 0.0, -0.2338548563975973]","[0.026750000193715096, 0.05299999937415123, 0.03999999910593033]","[0.0, 0.0, -0.6046421483792229]","[0.06767967343330383, 0.11223480105400085, 0.03999999910593033]","[0.0, -0.0, 0.21150105046443043]",0.58041015927298,-0.06901184891780598,"(0.0, 0.0, 0.0, 0.0, 0.0, 0.0)",-0.009056712273691436,-0.8145523910832435,3.540887869572165e-05,"(0.0, 0.0, 0.0, 0.0, 0.0, 0.0)",-0.0006708963261806688,-0.6077479809023123,-0.7453911406842142,"(0.0, 0.0, 0.0, 0.0, 0.0, 0.0)",-0.051009406750691995,0.8161440432266119,0.0001956571239748857,"(0.0, 0.0, 0.0, 0.0, 0.0, 0.0)",-0.003790383788841989,True,"(-0.03172629366319166, 0.18488838437731064, 0.03999302368293675)","(0.9999451889745665, 0.007807051098294298, -0.006976317063251251)",0.0004891216812083279,0.0,False,,,,
79,Move,"(0.010126582278481011, 0.0, 0.010126582278481011)","(0.0, -0.0, 0.0)","(0.0005546316573547612, 0.1716289380242453, 0.001023477624264544)","(1.5754955636830843, 0.005487680489470855, 0.007809676935132531)","[0.0005545530958897556, 0.0016298756477264864, 0.00010858794117680928]","[-0.026750000193715096, 0.05299999937415123, 0.03999999910593033]","[0.0, -0.0, 0.5804101524893496]","[-0.06623242050409317, 0.11320912092924118, 0.03999999910593033]","[0.0, 0.0, -0.2341422470414266]","[0.026750000193715096, 0.05299999937415123, 0.03999999910593033]","[0.0, 0.0, -0.607748094336698]","[0.06786344945430756, 0.11210739612579346, 0.03999999910593033]","[0.0, -0.0, 0.2083960548649716]",0.5800802598706143,-0.07917585656778464,"(0.0, 0.0, 0.0, 0.0, 0.0, 0.0)",-0.014944999378079697,-0.814552405836943,-3.5408878682474665e-06,"(0.0, 0.0, 0.0, 0.0, 0.0, 0.0)",-0.0011188249178622016,-0.6110525505446323,-0.793096714156799,"(0.0, 0.0, 0.0, 0.0, 0.0, 0.0)",-0.07028010178525802,0.8161439617028103,-1.95657123969184e-05,"(0.0, 0.0, 0.0, 0.0, 0.0, 0.0)",-0.005272265212964,True,"(-0.03168838101217833, 0.18489010518776314, 0.03999314283282249)","(0.9999459908930001, 0.007809901107942291, -0.006857167177516695)",0.0004463142683038165,0.0,False,,,,
80,Move,"(0.010126582278481011, 0.0, 0.010126582278481011)","(0.0, -0.0, 0.0)","(0.002255916719360455, 0.17173799525452785, 0.0014346677166998353)","(1.5748234157872067, 0.018551882580457032, -0.01433366379082467)","[0.0022558381578954493, 0.0017389328780090252, 0.0005197780336121006]","[-0.026750000193715096, 0.05299999937415123, 0.03999999910593033]","[0.0, -0.0, 0.5800802466201559]","[-0.06621255725622177, 0.1132221445441246, 0.03999999910593033]","[0.0, 0.0, -0.23447211805662727]","[0.026750000193715096, 0.05299999937415123, 0.03999999910593033]","[0.0, 0.0, -0.611052554243465]","[0.0680585503578186, 0.11197120696306229, 0.03999999910593033]","[0.0, -0.0, 0.20509141780216877]",0.5579475272775538,-5.311855822334514,"(0.0, 0.0, 0.0, 0.0, 0.0, 0.0)",-24.820051305959353,-0.8138020041865149,0.18009639610272743,"(0.0, 0.0, 0.0, 0.0, 0.0, 0.0)",-10.100190932521759,-0.5881254903353642,5.502494450224326,"(0.0, 0.0, 0.0, 0.0, 0.0, 0.0)",9.243458475013188,0.8161439698551904,1.9565712383595724e-06,"(0.0, 0.0, 0.0, 0.0, 0.0, 0.0)",0.6895010505728378,True,"(-0.03164486328523044, 0.18489205614524457, 0.039994512347053736)","(0.9999544478064676, 0.007809479957336312, -0.005487652946260134)",0.0003483104545568068,130.43049360226348,False,,,,
81,Move,"(0.010126582278481011, 0.0, 0.010126582278481011)","(0.0, -0.0, 0.0)","(0.002296753878822892, 0.17235039124238136, 0.0016335945457604647)","(1.5639682022837047, 0.0167820831073078, -0.01887007266421761)","[0.0022966753173578863, 0.002351328865862534, 0.00071870486267273]","[-0.026750000193715096, 0.05299999937415123, 0.03999999910593033]","[0.0, -0.0, 0.5579475498513429]","[-0.06487011909484863, 0.11408073455095291, 0.03999999910593033]","[0.0, 0.0, -0.2558545108707304]","[0.026750000193715096, 0.05299999937415123, 0.03999999910593033]","[0.0, 0.0, -0.5881255596369989]","[0.06669577211141586, 0.11290271580219269, 0.03999999910593033]","[0.0, -0.0, 0.22801847948081402]",0.5400715976547624,-4.290223109469926,"(0.0, 0.0, 0.0, 0.0, 0.0, 0.0)",-64.01030615934357,-0.7825159137256222,7.5086617106142395,"(0.0, 0.0, 0.0, 0.0, 0.0, 0.0)",-34.010338497334935,-0.5698831849806907,4.378153285121643,"(0.0, 0.0, 0.0, 0.0, 0.0, 0.0)",74.51737848868298,0.7865817756516764,-7.094926608843371,"(0.0, 0.0, 0.0, 0.0, 0.0, 0.0)",38.95242180963642,True,"(-0.02877797530324351, 0.1849951847082485, 0.039994512347053736)","(0.9999544478064676, 0.007809479957336312, -0.005487652946260134)",-2.583906797026213e-06,500.32829323402984,True,"(0.0326156639314379, 0.18469011615267816, 0.04216342205503221)","(-0.999725211238948, 0.014330706507995535, 0.01855081842460733)",-0.0025497592636599346,580.0736669621433
82,Move,"(0.010759493670886076, 0.0, 0.010759493670886076)","(0.0, -0.0, 0.0)","(0.002332702816573584, 0.1729033602593311, 0.0018377533117669073)","(1.5529236448231176, 0.015043650668255462, -0.023997052219727463)","[0.002332624255108578, 0.002904297882812268, 0.0009228636286791726]","[-0.026750000193715096, 0.05299999937415123, 0.03999999910593033]","[0.0, -0.0, 0.540071575960938]","[-0.06377221643924713, 0.1147523745894432, 0.03999999910593033]","[0.0, 0.0, -0.24244432743063132]","[0.026750000193715096, 0.05299999937415123, 0.03999999910593033]","[0.0, 0.0, -0.5698832312814092]","[0.06559642404317856, 0.11362140625715256, 0.03999999910593033]","[0.0, -0.0, 0.2166985936578014]",0.5221092918876569,-4.310953384105341,"(0.0, 0.0, 0.0, 0.0, 0.0, 0.0)",-78.77235918375459,-0.7512376249016307,7.5067893177579785,"(0.0, 0.0, 0.0, 0.0, 0.0, 0.0)",-42.33930193295403,-0.552219024048146,4.239398623810717,"(0.0, 0.0, 0.0, 0.0, 0.0, 0.0)",74.96437796800909,0.757866124527053,-6.891756269909614,"(0.0, 0.0, 0.0, 0.0, 0.0, 0.0)",38.61565359110866,True,"(-0.02863425890344655, 0.18614443281829912, 0.039994512347053736)","(0.9999544478064676, 0.007809479957336312, -0.005487652946260134)",-0.00010565545895041239,590.2228967452542,True,"(0.032330923832928654, 0.1857832065905864, 0.04216165206563653)","(-0.9996811746801401, 0.018866295761710436, 0.016781295372136382)",-0.0028689456598889975,562.2748725527629
83,Move,"(0.01139240506329114, 0.0, 0.01139240506329114)","(0.0, -0.0, 0.0)","(0.0023512814737521003, 0.1733866723867876, 0.0020233216265036044)","(1.5440162603595597, 0.011651589446079913, -0.029970265107841794)","[0.0023512029122870945, 0.003387610010268771, 0.0011084319434158697]","[-0.026750000193715096, 0.05299999937415123, 0.03999999910593033]","[0.0, -0.0, 0.5221092365728527]","[-0.06265708804130554, 0.11540738493204117, 0.03999999910593033]","[0.0, 0.0, -0.22912834878914332]","[0.026750000193715096, 0.05299999937415123, 0.03999999910593033]","[0.0, 0.0, -0.5522190287981662]","[0.06451959162950516, 0.11429810523986816, 0.03999999910593033]","[0.0, -0.0, 0.20564710307181344]",0.5242032059912966,0.5025393848735114,"(0.0, 0.0, 0.0, 0.0, 0.0, 0.0)",5.935644024636596,-0.7543535671590539,-0.7478261417815615,"(0.0, 0.0, 0.0, 0.0, 0.0, 0.0)",-0.5139885729610607,-0.5579903888288077,-1.385127547358798,"(0.0, 0.0, 0.0, 0.0, 0.0, 0.0)",-7.426676175266497,0.7607376896395154,0.689175626990961,"(0.0, 0.0, 0.0, 0.0, 0.0, 0.0)",0.21409851214903225,True,"(-0.028472873720841785, 0.1872609928130189, 0.039994512347053736)","(0.9999544478064676, 0.007809479957336312, -0.005487652946260134)",-0.00021603051450937963,0.0,True,"(0.032053416145779334, 0.18681720138414307, 0.04215991385476868)","(-0.999598963559294, 0.023992034043166507, 0.015043083249671704)",-0.0031915959164564686,0.0
84,Move,"(0.012025316455696204, 0.0, 0.012025316455696204)","(0.0, -0.0, 0.0)","(0.0024038611757144774, 0.173815646533056, 0.002146863554270222)","(1.536834436571124, 0.008023604472543158, -0.036184790016593096)","[0.0024037826142494717, 0.003816584156537184, 0.0012319738711824872]","[-0.026750000193715096, 0.05299999937415123, 0.03999999910593033]","[0.0, -0.0, 0.5242032246819592]","[-0.06278768181800842, 0.11533205956220627, 0.03999999910593033]","[0.0, 0.0, -0.23015038075362299]","[0.026750000193715096, 0.05299999937415123, 0.03999999910593033]","[0.0, 0.0, -0.5579903696763573]","[0.06487274169921875, 0.11407910287380219, 0.03999999910593033]","[0.0, -0.0, 0.20274733930902739]",0.5242418294962523,0.009269641189392663,"(0.0, 0.0, 0.0, 0.0, 0.0, 0.0)",-1.2099032229057116,-0.7540199709315193,0.08006309460829086,"(0.0, 0.0, 0.0, 0.0, 0.0, 0.0)",-0.3125370768627283,-0.5617779361478964,-0.9090113565812938,"(0.0, 0.0, 0.0, 0.0, 0.0, 0.0)",0.6156406453260396,0.7604505331282692,-0.0689175626990961,"(0.0, 0.0, 0.0, 0.0, 0.0, 0.0)",-0.030905077616008254,True,"(-0.028554875932653614, 0.1870044799200696, 0.03784347789489387)","(0.9994830767024455, -0.029963744629685377, -0.011651325812130983)",-0.0002444250765082254,4.346432224714033,True,"(0.03261702807681116, 0.186695113842408, 0.04215652258597939)","(-0.9994830767024397, 0.02996374462987303, 0.011651325812133786)",-0.002576273396715028,0.0
85,Move,"(0.012658227848101266, 0.0, 0.012658227848101266)","(0.0, -0.0, 0.0)","(0.002508273970437724, 0.17419153579392385, 0.0022179425948367676)","(1.5315617126305328, 0.004653159981590001, -0.04222382735901758)","[0.0025081954089727185, 0.004192473417405029, 0.001303052911749033]","[-0.026750000193715096, 0.05299999937415123, 0.03999999910593033]","[0.0, -0.0, 0.5242418266146075]","[-0.06279008835554123, 0.11533066630363464, 0.03999999910593033]","[0.0, 0.0, -0.22977815607530108]","[0.026750000193715096, 0.05299999937415123, 0.03999999910593033]","[0.0, 0.0, -0.5617779066660582]","[0.06510380655527115, 0.11393427103757858, 0.03999999910593033]","[0.0, -0.0, 0.19867258342089728]",0.5240989036453165,-0.03430220422458212,"(0.0, 0.0, 0.0, 0.0, 0.0, 0.0)",-0.8483321461311066,-0.7540284803174495,-0.0020422526232530547,"(0.0, 0.0, 0.0, 0.0, 0.0, 0.0)",-0.48224384433666706,-0.5657254781957124,-0.9474100914758427,"(0.0, 0.0, 0.0, 0.0, 0.0, 0.0)",-0.04834631308833306,0.7604792487793938,0.006891756269909344,"(0.0, 0.0, 0.0, 0.0, 0.0, 0.0)",0.004062085847515367,True,"(-0.028583963648794106, 0.18701582513258244, 0.03784347789489387)","(0.9994830767024455, -0.029963744629685377, -0.011651325812130983)",-0.00022381097158132954,1.9928931532551166,True,"(0.03314424976420259, 0.18668111368090848, 0.04215652258597939)","(-0.9994830767024397, 0.02996374462987303, 0.011651325812133786)",-0.0020299524413580562,0.0
86,Move,"(0.013291139240506327, 0.0, 0.013291139240506327)","(0.0, -0.0, 0.0)","(0.0026254913132785548, 0.17453058522226966, 0.002228843480671413)","(1.5279262721606124, 0.001014108213351465, -0.04778784587247315)","[0.002625412751813549, 0.0045315228457508405, 0.0013139537975836784]","[-0.026750000193715096, 0.05299999937415123, 0.03999999910593033]","[0.0, -0.0, 0.5240989522797027]","[-0.06278117746114731, 0.11533581465482712, 0.03999999910593033]","[0.0, 0.0, -0.22992958680124329]","[0.026750000193715096, 0.05299999937415123, 0.03999999910593033]","[0.0, 0.0, -0.5657254775614838]","[0.06534404307603836, 0.11378239840269089, 0.03999999910593033]","[0.0, -0.0, 0.1947537802621317]",0.5239864468643982,-0.026989627420407124,"(0.0, 0.0, 0.0, 0.0, 0.0, 0.0)",-0.4501814804566227,-0.7540146700432786,0.0033144658010275762,"(0.0, 0.0, 0.0, 0.0, 0.0, 0.0)",-0.2747432772315562,-0.5700699614468253,-1.0426759802671084,"(0.0, 0.0, 0.0, 0.0, 0.0, 0.0)",-0.14098559608164363,0.7604763772142813,-0.0006891756269906679,"(0.0, 0.0, 0.0, 0.0, 0.0, 0.0)",-0.011297614099881143,True,"(-0.0285641993504459, 0.18701579472167057, 0.03784347789489387)","(0.9994830767024455, -0.029963744629685377, -0.011651325812130983)",-0.00018723272705280767,0.0,True,"(0.03366981782353289, 0.18665392107969708, 0.04215652258597939)","(-0.9994830767024397, 0.02996374462987303, 0.011651325812133786)",-0.0015483657411874611,0.0
87,Move,"(0.013924050632911392, 0.0, 0.013924050632911392)","(0.0, -0.0, 0.0)","(0.0027595751505357317, 0.17483557501983765, 0.0021840923019528654)","(1.525933483697559, -0.0027459668883905437, -0.052855324488050394)","[0.002759496589070726, 0.00483651264331883, 0.0012692026188651307]","[-0.026750000193715096, 0.05299999937415123, 0.03999999910593033]","[0.0, -0.0, 0.5239864363262196]","[-0.0627741664648056, 0.11533986777067184, 0.03999999910593033]","[0.0, 0.0, -0.23002822908266035]","[0.026750000193715096, 0.05299999937415123, 0.03999999910593033]","[0.0, 0.0, -0.5700700133639851]","[0.06560774892568588, 0.11361414939165115, 0.03999999910593033]","[0.0, -0.0, 0.19040643776139748]",0.5238443528388862,-0.03410256612288037,"(0.0, 0.0, 0.0, 0.0, 0.0, 0.0)",-0.5147673356369452,-0.7540036249500465,0.0026508223757179773,"(0.0, 0.0, 0.0, 0.0, 0.0, 0.0)",-0.29840161463146003,-0.5747153964189897,-1.1149043933194636,"(0.0, 0.0, 0.0, 0.0, 0.0, 0.0)",-0.10628045406854154,0.7604766643707925,6.891756269933325e-05,"(0.0, 0.0, 0.0, 0.0, 0.0, 0.0)",-0.007866704583636553,True,"(-0.02852636421187653, 0.18710266586803698, 0.03999898589196048)","(0.9988578645556583, -0.047769634708611355, -0.0010141080395320958)",-0.00020485659692899116,3.8031285013693754,True,"(0.03425061756306977, 0.18662268686017336, 0.04215652258597939)","(-0.9994830767024397, 0.02996374462987303, 0.011651325812133786)",-0.0010084933477343691,0.0
88,Move,"(0.014556962025316457, 0.0, 0.014556962025316457)","(0.0, -0.0, 0.0)","(0.0028557826306231135, 0.17503298640371603, 0.002193721304754425)","(1.5268659566930896, -0.003267241313519623, -0.05197450741879928)","[0.0028557040691581078, 0.005033924027197212, 0.0012788316216666902]","[-0.026750000193715096, 0.05299999937415123, 0.03999999910593033]","[0.0, -0.0, 0.5238443679649099]","[-0.06276531517505646, 0.11534498631954193, 0.03999999910593033]","[0.0, 0.0, -0.23015928189047266]","[0.026750000193715096, 0.05299999937415123, 0.03999999910593033]","[0.0, 0.0, -0.5747153472229535]","[0.0658889040350914, 0.11343298852443695, 0.03999999910593033]","[0.0, -0.0, 0.18576126228455586]",0.5236638953056525,-0.04330980797608852,"(0.0, 0.0, 0.0, 0.0, 0.0, 0.0)",-0.01385290617156024,-0.7540049725175716,-0.0003234162060242341,"(0.0, 0.0, 0.0, 0.0, 0.0, 0.0)",-0.001334768887684452,-0.5796511023783711,-1.1845694302515408,"(0.0, 0.0, 0.0, 0.0, 0.0, 0.0)",-0.1026338151616953,0.7604766357054851,-6.879673796268617e-06,"(0.0, 0.0, 0.0, 0.0, 0.0, 0.0)",-0.0076814029413682485,True,"(-0.02850835345972215, 0.18709836531841956, 0.040002745963437475)","(0.9985997176016473, -0.052830518554244074, 0.0027459634374728524)",-0.0001918535784018696,0.0,True,"(0.03487124889485776, 0.18658639265682148, 0.04215652258597939)","(-0.9994830767024397, 0.02996374462987303, 0.011651325812133786)",-0.0004339559106726245,0.0
89,Move,"(0.01518987341772152, 0.0, 0.01518987341772152)","(0.0, -0.0, 0.0)","(0.00294419353932839, 0.17517797445900044, 0.002135685078575141)","(1.5291484867241063, -0.003010967084788042, -0.04973638010740149)","[0.0029441149778633843, 0.005178912082481613, 0.0012207953954874065]","[-0.026750000193715096, 0.05299999937415123, 0.03999999910593033]","[0.0, -0.0, 0.5236638703684421]","[-0.0627540573477745, 0.11535148322582245, 0.03999999910593033]","[0.0, 0.0, -0.23034110187415185]","[0.026750000193715096, 0.05299999937415123, 0.03999999910593033]","[0.0, 0.0, -0.5796511170475724]","[0.06618671119213104, 0.11323907226324081, 0.03999999910593033]","[0.0, -0.0, 0.18082552532903343]",0.5234401587396644,-0.053696775837148714,"(0.0, 0.0, 0.0, 0.0, 0.0, 0.0)",-0.015251278320367918,-0.7540059248394677,-0.0002285572550698829,"(0.0, 0.0, 0.0, 0.0, 0.0, 0.0)",-0.0011280745209364784,-0.5848625135750133,-1.2507386871941153,"(0.0, 0.0, 0.0, 0.0, 0.0, 0.0)",-0.09751430545629827,0.7604767537399347,2.8328267921538217e-05,"(0.0, 0.0, 0.0, 0.0, 0.0, 0.0)",-0.0072905701299235265,True,"(-0.0284840034839927, 0.1870996954971429, 0.04000326723550064)","(0.9986442990949591, -0.051950833076294584, 0.0032672355006376184)",-0.00015935755139910977,0.0,True,"(0.03553049255199669, 0.18654468244310785, 0.04215652258597939)","(-0.9994830767024397, 0.02996374462987303, 0.011651325812133786)",0.00017082363653444051,0.0
90,Move,"(0.015822784810126587, 0.0, 0.015822784810126587)","(0.0, -0.0, 0.0)","(0.0030252639388738387, 0.1752616289152786, 0.0020276690432806453)","(1.5330136889578267, -0.0027770083867767817, -0.04737925141946114)","[0.003025185377408833, 0.005262566538759783, 0.0011127793601929106]","[-0.026750000193715096, 0.05299999937415123, 0.03999999910593033]","[0.0, -0.0, 0.5234401442382132]","[-0.06274010986089706, 0.11535953730344772, 0.03999999910593033]","[0.0, 0.0, -0.23056575705821108]","[0.026750000193715096, 0.05299999937415123, 0.03999999910593033]","[0.0, 0.0, -0.5848625469556521]","[0.06650010496377945, 0.1130327358841896, 0.03999999910593033]","[0.0, -0.0, 0.17561425481896403]",0.5232012827250307,-0.05733024351209438,"(0.0, 0.0, 0.0, 0.0, 0.0, 0.0)",-0.005351622678506859,-0.7540070058769179,-0.00025944898804671586,"(0.0, 0.0, 0.0, 0.0, 0.0, 0.0)",-0.00040237642641814946,-0.5902866241774443,-1.301786544583434,"(0.0, 0.0, 0.0, 0.0, 0.0, 0.0)",-0.07534141593009738,0.7604768310854686,1.8562928126692515e-05,"(0.0, 0.0, 0.0, 0.0, 0.0, 0.0)",-0.005643471621312199,True,"(-0.028453805842669558, 0.18710250701359457, 0.04000301096253525)","(0.9987588738412334, -0.049715651740697274, 0.0030109625352493924)",-0.0001221498770408655,0.0,True,"(0.03620717729208275, 0.18659504873624866, 0.03999698903746475)","(-0.9987588738412332, 0.049715651740703935, -0.0030109625352495828)",0.0008080926838101532,0.0
91,Move,"(0.016455696202531643, 0.0, 0.016455696202531643)","(0.0, -0.0, 0.0)","(0.003089757916085631, 0.17530811091915371, 0.001869084407522187)","(1.5384802465724654, -0.002559882844422407, -0.04539809346841283)","[0.003089679354620625, 0.005309048542634892, 0.0009541947244344523]","[-0.026750000193715096, 0.05299999937415123, 0.03999999910593033]","[0.0, -0.0, 0.5232012635460802]","[-0.06272520869970322, 0.11536813527345657, 0.03999999910593033]","[0.0, 0.0, -0.23080572885577394]","[0.026750000193715096, 0.05299999937415123, 0.03999999910593033]","[0.0, 0.0, -0.5902865979637965]","[0.06682513654232025, 0.11281624436378479, 0.03999999910593033]","[0.0, -0.0, 0.17019020629315545]",0.5229449422897966,-0.06152170445620619,"(0.0, 0.0, 0.0, 0.0, 0.0, 0.0)",-0.006140952464931561,-0.7540070412096235,-8.479849321660566e-06,"(0.0, 0.0, 0.0, 0.0, 0.0, 0.0)",-0.0004326941776698301,-0.5959085353269827,-1.3492586758892307,"(0.0, 0.0, 0.0, 0.0, 0.0, 0.0)",-0.07011171302941684,0.7604768238127438,-1.74545393796723e-06,"(0.0, 0.0, 0.0, 0.0, 0.0, 0.0)",-0.00525630589192162,True,"(-0.02842156732778603, 0.1871054670673925, 0.040002777004817504)","(0.9988739616558707, -0.047361344682659234, 0.002777004817498471)",-9.309521659504904e-05,0.0,True,"(0.03693126379982042, 0.18653401380598097, 0.0399972229951825)","(-0.9988739616558712, 0.04736134468265124, -0.0027770048175020916)",0.0014793875442650868,0.0
92,Move,"(0.017088607594936706, 0.0, 0.017088607594936706)","(0.0, -0.0, 0.0)","(0.0031389997186297117, 0.1753272634454939, 0.0016611519204004996)","(1.545511674444338, -0.0023569104683667376, -0.044188359294527677)","[0.003138921157164706, 0.00532820106897508, 0.0007462622373127648]","[-0.026750000193715096, 0.05299999937415123, 0.03999999910593033]","[0.0, -0.0, 0.5229449479114396]","[-0.06270921975374222, 0.11537735164165497, 0.03999999910593033]","[0.0, 0.0, -0.2310620852109368]","[0.026750000193715096, 0.05299999937415123, 0.03999999910593033]","[0.0, 0.0, -0.5959085394203527]","[0.06716078519821167, 0.1125900000333786, 0.03999999910593033]","[0.0, -0.0, 0.16456830462623623]",0.522655191321338,-0.06954023243006653,"(0.0, 0.0, 0.0, 0.0, 0.0, 0.0)",-0.13115578329794242,-0.7539944418919391,0.0030238362442496875,"(0.0, 0.0, 0.0, 0.0, 0.0, 0.0)",-0.061845939985929806,-0.6017153353984657,-1.393632017155901,"(0.0, 0.0, 0.0, 0.0, 0.0, 0.0)",-0.06557758897819202,0.7604768245400163,1.7454539413819248e-07,"(0.0, 0.0, 0.0, 0.0, 0.0, 0.0)",-0.004917641537985098,True,"(-0.02838708346120563, 0.18710812501689933, 0.04000255988004862)","(0.9989664104062119, -0.04538235223370959, 0.0025598800486064687)",-7.77966740819673e-05,0.8876642540522912,False,,,,
