OSUrobotics/InHand-Manipulation/AnalyseData/Data/Trial Data/Better/new_hand_human_sub1_2v2_d_n_1_kpNone_kdNone_dp5_step5_save_data.csv
,Phase,human_cube_pos,human_cube_orn,Cube_Pos,Cube_Orn,Cube_pos_in_start_pos,b'l_prox_pin'_link_pos,b'l_prox_pin'_link_orn,b'l_distal_pin'_link_pos,b'l_distal_pin'_link_orn,b'r_prox_pin'_link_pos,b'r_prox_pin'_link_orn,b'r_distal_pin'_link_pos,b'r_distal_pin'_link_orn,b'l_prox_pin'_joint_angle,b'l_prox_pin'_joint_vel,b'l_prox_pin'_joint_react_forces,b'l_prox_pin'_joint_motor_torque,b'l_distal_pin'_joint_angle,b'l_distal_pin'_joint_vel,b'l_distal_pin'_joint_react_forces,b'l_distal_pin'_joint_motor_torque,b'r_prox_pin'_joint_angle,b'r_prox_pin'_joint_vel,b'r_prox_pin'_joint_react_forces,b'r_prox_pin'_joint_motor_torque,b'r_distal_pin'_joint_angle,b'r_distal_pin'_joint_vel,b'r_distal_pin'_joint_react_forces,b'r_distal_pin'_joint_motor_torque,in_contact_l,contact_point_l_dist,contact_normal_l_dist,contact_distance_l_dist,contact_norm_force_l_dist,in_contact_r,contact_point_r_dist,contact_normal_r_dist,contact_distance_r_dist,contact_norm_force_r_dist
0,Open,,,,,,"[-0.026750000193715096, 0.05299999937415123, 0.03999999910593033]","[0.0, -0.0, 0.42755761853039154]","[-0.056604765355587006, 0.1185186430811882, 0.03999999910593033]","[0.0, -0.0, 0.4463066270391506]","[0.026750000193715096, 0.05299999937415123, 0.03999999910593033]","[0.0, 0.0, -0.42757404208311445]","[0.05660583823919296, 0.1185181587934494, 0.03999999910593033]","[0.0, 0.0, -0.4465272228574986]",0.5418018724257314,27.418616735313837,"(0.0, 0.0, 0.0, 0.0, 0.0, 0.0)",-4.412236817968903,0.016874447698417276,-0.44988750389777044,"(0.0, 0.0, 0.0, 0.0, 0.0, 0.0)",-0.3112578673856835,-0.5418166170859073,-27.418223544375806,"(0.0, 0.0, 0.0, 0.0, 0.0, 0.0)",4.412120589674461,-0.017058187988154127,0.4547872631353701,"(0.0, 0.0, 0.0, 0.0, 0.0, 0.0)",0.31119999541872967,False,,,,,False,,,,
1,Open,,,,,,"[-0.026750000193715096, 0.05299999937415123, 0.03999999910593033]","[0.0, -0.0, 0.8953992050914552]","[-0.08294302970170975, 0.09801492840051651, 0.03999999910593033]","[0.0, -0.0, 0.9064715399310761]","[0.026750000193715096, 0.05299999937415123, 0.03999999910593033]","[0.0, 0.0, -0.8954089117450801]","[0.08294346183538437, 0.09801438450813293, 0.03999999910593033]","[0.0, 0.0, -0.9066016844299951]",0.9628592876486701,16.190418996035465,"(0.0, 0.0, 0.0, 0.0, 0.0, 0.0)",-2.616982039675733,0.009965290062605858,-0.26568209241480656,"(0.0, 0.0, 0.0, 0.0, 0.0, 0.0)",-0.18775783729375353,-0.9628679942230576,-16.190186820718473,"(0.0, 0.0, 0.0, 0.0, 0.0, 0.0)",2.6169116334278195,-0.010073786659150813,0.26857534621184953,"(0.0, 0.0, 0.0, 0.0, 0.0, 0.0)",0.187722108909745,False,,,,,False,,,,
2,Open,,,,,,"[-0.026750000193715096, 0.05299999937415123, 0.03999999910593033]","[0.0, -0.0, 1.17165497759142]","[-0.09309044480323792, 0.08098116517066956, 0.03999999910593033]","[0.0, -0.0, 1.1781937273122836]","[0.026750000193715096, 0.05299999937415123, 0.03999999910593033]","[0.0, 0.0, -1.1716605985979762]","[0.09309060126543045, 0.08098078519105911, 0.03999999910593033]","[0.0, 0.0, -1.178270796658152]",1.2114894807636634,9.56028051296898,"(0.0, 0.0, 0.0, 0.0, 0.0, 0.0)",-1.549346412635057,0.005885062316220725,-0.15689973638119079,"(0.0, 0.0, 0.0, 0.0, 0.0, 0.0)",-0.11225090666269867,-1.2114946219087734,-9.560143415766044,"(0.0, 0.0, 0.0, 0.0, 0.0, 0.0)",1.5493042197033076,-0.00594912834521185,0.1586081706180975,"(0.0, 0.0, 0.0, 0.0, 0.0, 0.0)",0.11222926703597672,False,,,,,False,,,,
3,Open,,,,,,"[-0.026750000193715096, 0.05299999937415123, 0.03999999910593033]","[0.0, -0.0, 1.3347813147466918]","[-0.09675397723913193, 0.06983575969934464, 0.03999999910593033]","[0.0, -0.0, 1.3386449621367835]","[0.026750000193715096, 0.05299999937415123, 0.03999999910593033]","[0.0, 0.0, -1.3347844615433213]","[0.0967540368437767, 0.06983552873134613, 0.03999999910593033]","[0.0, 0.0, -1.3386905382854437]",1.3583031234961356,5.645250040103052,"(0.0, 0.0, 0.0, 0.0, 0.0, 0.0)",-0.9162890978823036,0.0034783869891320215,-0.09247571818598516,"(0.0, 0.0, 0.0, 0.0, 0.0, 0.0)",-0.06677007440367574,-1.3583061592909116,-5.645169085575695,"(0.0, 0.0, 0.0, 0.0, 0.0, 0.0)",0.9162639666346021,-0.003516216695348753,0.09348456497972772,"(0.0, 0.0, 0.0, 0.0, 0.0, 0.0)",0.06675710630673855,False,,,,,False,,,,
4,Open,,,,,,"[-0.026750000193715096, 0.05299999937415123, 0.03999999910593033]","[0.0, -0.0, 1.4311058207082674]","[-0.09804865717887878, 0.06302504986524582, 0.03999999910593033]","[0.0, -0.0, 1.433390691262394]","[0.026750000193715096, 0.05299999937415123, 0.03999999910593033]","[0.0, 0.0, -1.4311075924426346]","[0.09804867953062057, 0.06302490830421448, 0.03999999910593033]","[0.0, 0.0, -1.433417470845748]",1.4449951113932331,3.333463696180452,"(0.0, 0.0, 0.0, 0.0, 0.0, 0.0)",-0.5415503506795546,0.0020570753203455715,-0.05468855210882702,"(0.0, 0.0, 0.0, 0.0, 0.0, 0.0)",-0.039594115216637325,-1.4449969039996904,-3.3334158933415914,"(0.0, 0.0, 0.0, 0.0, 0.0, 0.0)",0.541535435877482,-0.002079412775410495,0.055284250111531166,"(0.0, 0.0, 0.0, 0.0, 0.0, 0.0)",0.03958639191865308,False,,,,,False,,,,
5,Open,,,,,,"[-0.026750000193715096, 0.05299999937415123, 0.03999999910593033]","[0.0, -0.0, 1.4879842849605203]","[-0.09850326180458069, 0.05895565450191498, 0.03999999910593033]","[0.0, -0.0, 1.4893357278409396]","[0.026750000193715096, 0.05299999937415123, 0.03999999910593033]","[0.0, 0.0, -1.4879853833286059]","[0.09850326925516129, 0.05895556882023811, 0.03999999910593033]","[0.0, 0.0, -1.4893513332680077]",1.4961858633265903,1.9683769779575933,"(0.0, 0.0, 0.0, 0.0, 0.0, 0.0)",-0.31995094896823073,0.0012165319928285922,-0.03234212113369103,"(0.0, 0.0, 0.0, 0.0, 0.0, 0.0)",-0.02343792779000599,-1.4961869218427772,-1.9683487508592754,"(0.0, 0.0, 0.0, 0.0, 0.0, 0.0)",0.31994211580738524,-0.0012297216752996233,0.03269386530715718,"(0.0, 0.0, 0.0, 0.0, 0.0, 0.0)",0.02343334437795369,False,,,,,False,,,,
6,Open,,,,,,"[-0.026750000193715096, 0.05299999937415123, 0.03999999910593033]","[0.0, -0.0, 1.5215704989376362]","[-0.09866278618574142, 0.05654282495379448, 0.03999999910593033]","[0.0, -0.0, 1.522369838325666]","[0.026750000193715096, 0.05299999937415123, 0.03999999910593033]","[0.0, 0.0, -1.5215710825913402]","[0.09866278618574142, 0.0565427765250206, 0.03999999910593033]","[0.0, 0.0, -1.522379029767931]",1.5264134904357183,1.1623069217141797,"(0.0, 0.0, 0.0, 0.0, 0.0, 0.0)",-0.18898727227709852,0.000719444125508032,-0.019126791845346432,"(0.0, 0.0, 0.0, 0.0, 0.0, 0.0)",-0.013859938289241243,-1.5264141154789415,-1.162290253894895,"(0.0, 0.0, 0.0, 0.0, 0.0, 0.0)",0.18898204730565804,-0.0007272322869396521,0.019334487584604668,"(0.0, 0.0, 0.0, 0.0, 0.0, 0.0)",0.013857223880827028,False,,,,,False,,,,
7,Close,,,"(1.2478112216283415e-07, 0.16999960627914334, 0.0003375139776509844)","(1.5703757789650807, 0.0001088681168706304, -5.122612185789874e-06)",,"[-0.026750000193715096, 0.05299999937415123, 0.03999999910593033]","[0.0, -0.0, 1.2785329680082034]","[-0.09569678455591202, 0.07374466955661774, 0.03999999910593033]","[0.0, -0.0, 1.0351044933740032]","[0.026750000193715096, 0.05299999937415123, 0.03999999910593033]","[0.0, 0.0, -1.2785333261376617]","[0.09569679200649261, 0.07374463975429535, 0.03999999910593033]","[0.0, 0.0, -1.0351099865887758]",1.2106796019673873,-16.28478938579699,"(0.0, 0.0, 0.0, 0.0, 0.0, 0.0)",2.809472854136235,-0.3090860149933808,-15.757821278062295,"(0.0, 0.0, 0.0, 0.0, 0.0, 0.0)",0.3661538009495806,-1.2106799710491603,16.284799227977608,"(0.0, 0.0, 0.0, 0.0, 0.0, 0.0)",-2.8094757422584213,0.30908141619234186,15.75794391320213,"(0.0, 0.0, 0.0, 0.0, 0.0, 0.0)",-0.3661552191151056,False,,,,,False,,,,
8,Close,,,"(3.0991841452431125e-07, 0.1699991530873768, 0.0005600347089338349)","(1.5707725584893357, 0.0003276471180493337, -1.5390016504502985e-05)",,"[-0.026750000193715096, 0.05299999937415123, 0.03999999910593033]","[0.0, -0.0, 1.0006670909649218]","[-0.08736184239387512, 0.09186135232448578, 0.03999999910593033]","[0.0, -0.0, 0.48836557737534114]","[0.026750000193715096, 0.05299999937415123, 0.03999999910593033]","[0.0, 0.0, -1.0006671906734346]","[0.08736184984445572, 0.09186133742332458, 0.03999999910593033]","[0.0, 0.0, -0.4883688154364048]",0.9606001981650306,-9.616005284561718,"(0.0, 0.0, 0.0, 0.0, 0.0, 0.0)",1.667253264949997,-0.5510712009946406,-9.304767973476249,"(0.0, 0.0, 0.0, 0.0, 0.0, 0.0)",0.2218037572572205,-0.9606004161041268,9.616011096270952,"(0.0, 0.0, 0.0, 0.0, 0.0, 0.0)",-1.6672550198735234,0.5510684854486152,9.30484038803693,"(0.0, 0.0, 0.0, 0.0, 0.0, 0.0)",-0.22180464092959223,False,,,,,False,,,,
9,Close,,,"(2.933853975158492e-07, 0.16999904048792538, 0.0007066062154399696)","(1.5708337628024795, 0.00026866528465535426, -1.404448202163588e-05)",,"[-0.026750000193715096, 0.05299999937415123, 0.03999999910593033]","[0.0, -0.0, 0.8365897781630613]","[-0.08020010590553284, 0.1012398824095726, 0.03999999910593033]","[0.0, -0.0, 0.16552144688028117]","[0.026750000193715096, 0.05299999937415123, 0.03999999910593033]","[0.0, 0.0, -0.8365899294750984]","[0.08020011335611343, 0.101239874958992, 0.03999999910593033]","[0.0, 0.0, -0.1655233971102189]",0.8129308110141114,-5.678154960376304,"(0.0, 0.0, 0.0, 0.0, 0.0, 0.0)",0.9873874064507416,-0.6939616573792659,-5.494397555666588,"(0.0, 0.0, 0.0, 0.0, 0.0, 0.0)",0.13292457281458034,-0.8129309397049683,5.678158392132489,"(0.0, 0.0, 0.0, 0.0, 0.0, 0.0)",-0.987388459985631,0.6939600538790082,5.494440315842426,"(0.0, 0.0, 0.0, 0.0, 0.0, 0.0)",-0.13292511074891808,False,,,,,False,,,,
10,Close,,,"(1.9902477861274505e-07, 0.16999905216518962, 0.0008031506137060285)","(1.5708213694470277, 0.0001751880104672085, -1.4031272711042213e-05)",,"[-0.026750000193715096, 0.05299999937415123, 0.03999999910593033]","[0.0, -0.0, 0.7397039398326887]","[-0.075282983481884, 0.10618411004543304, 0.03999999910593033]","[0.0, 0.0, -0.025114755601520013]","[0.026750000193715096, 0.05299999937415123, 0.03999999910593033]","[0.0, 0.0, -0.7397039829241547]","[0.0752829909324646, 0.10618410259485245, 0.03999999910593033]","[0.0, -0.0, 0.025113617980755978]",0.7257335145957226,-3.3528937225526034,"(0.0, 0.0, 0.0, 0.0, 0.0, 0.0)",0.5840196078844049,-0.7783380408184963,-3.244652289205478,"(0.0, 0.0, 0.0, 0.0, 0.0, 0.0)",0.07914031685893824,-0.7257335905863868,3.3528957489703144,"(0.0, 0.0, 0.0, 0.0, 0.0, 0.0)",-0.5840202358821991,0.778337093974245,3.2446775397467595,"(0.0, 0.0, 0.0, 0.0, 0.0, 0.0)",-0.07914064000385382,False,,,,,False,,,,
11,Close,,,"(1.3069317882946781e-07, 0.16999905849316785, 0.0008666025578373041)","(1.570813038524343, 0.0001076496945073061, -1.4014808324094979e-05)",,"[-0.026750000193715096, 0.05299999937415123, 0.03999999910593033]","[0.0, -0.0, 0.6824937890365349]","[-0.07216256856918335, 0.10887216031551361, 0.03999999910593033]","[0.0, 0.0, -0.137687120736303]","[0.026750000193715096, 0.05299999937415123, 0.03999999910593033]","[0.0, 0.0, -0.6824937890365349]","[0.07216257601976395, 0.10887216031551361, 0.03999999910593033]","[0.0, -0.0, 0.1376864353718678]",0.6742443830336282,-1.9798502142300851,"(0.0, 0.0, 0.0, 0.0, 0.0, 0.0)",0.34523008433021124,-0.8281635344937409,-1.9158370237869804,"(0.0, 0.0, 0.0, 0.0, 0.0, 0.0)",0.046989708289177236,-0.6742444279053555,1.9798514108094807,"(0.0, 0.0, 0.0, 0.0, 0.0, 0.0)",-0.3452304573414294,0.8281629754068567,1.9158519335829844,"(0.0, 0.0, 0.0, 0.0, 0.0, 0.0)",-0.04698990114977892,False,,,,,False,,,,
12,Close,,,"(8.555941999099156e-08, 0.16999906193922792, 0.000908421947806545)","(1.5708075491537519, 6.311807488844542e-05, -1.4000595358663434e-05)",,"[-0.026750000193715096, 0.05299999937415123, 0.03999999910593033]","[0.0, -0.0, 0.6487117277688945]","[-0.070249542593956, 0.11037412285804749, 0.03999999910593033]","[0.0, 0.0, -0.20415830575541527]","[0.026750000193715096, 0.05299999937415123, 0.03999999910593033]","[0.0, 0.0, -0.6487117277688945]","[0.070249542593956, 0.11037411540746689, 0.03999999910593033]","[0.0, -0.0, 0.20415788801885543]",0.6438405657375271,-1.1690817530007243,"(0.0, 0.0, 0.0, 0.0, 0.0, 0.0)",0.20397674457790932,-0.8575834812137779,-1.1312243968345508,"(0.0, 0.0, 0.0, 0.0, 0.0, 0.0)",0.027828964636992654,-0.6438405922338334,1.1690824595688907,"(0.0, 0.0, 0.0, 0.0, 0.0, 0.0)",-0.20397696556653716,0.8575831510875931,1.1312332006820753,"(0.0, 0.0, 0.0, 0.0, 0.0, 0.0)",-0.027829079200348807,False,,,,,False,,,,
13,Close,,,"(5.567361934631568e-08, 0.16999906349286917, 0.0009359839309479349)","(1.5708039321322358, 3.37560108188707e-05, -1.3987283228090085e-05)",,"[-0.026750000193715096, 0.05299999937415123, 0.03999999910593033]","[0.0, -0.0, 0.62876384308693]","[-0.06909646838903427, 0.11123037338256836, 0.03999999910593033]","[0.0, 0.0, -0.24340789693353326]","[0.026750000193715096, 0.05299999937415123, 0.03999999910593033]","[0.0, 0.0, -0.62876384308693]","[0.06909646838903427, 0.11123037338256836, 0.03999999910593033]","[0.0, -0.0, 0.24340764580603796]",0.6258874156623524,-0.6903310843293964,"(0.0, 0.0, 0.0, 0.0, 0.0, 0.0)",0.12048853373387189,-0.8749547691894786,-0.6679421640099914,"(0.0, 0.0, 0.0, 0.0, 0.0, 0.0)",0.016461146679105913,-0.6258874313081562,0.6903315015508323,"(0.0, 0.0, 0.0, 0.0, 0.0, 0.0)",-0.12048866447898966,0.8749545742586229,0.6679473624521103,"(0.0, 0.0, 0.0, 0.0, 0.0, 0.0)",-0.016461214564379854,False,,,,,False,,,,
14,Move,,,"(0.0002849434880139787, 0.17128526654835666, 0.0018667775255450016)","(1.529867145493542, 0.001236551690390913, -0.0026252758006009144)","[0.0, 0.0, 0.0]","[-0.026750000193715096, 0.05299999937415123, 0.03999999910593033]","[0.0, -0.0, 0.5674368798319164]","[-0.06544800847768784, 0.113716259598732, 0.03999999910593033]","[0.0, 0.0, -0.23086444862254737]","[0.026750000193715096, 0.05299999937415123, 0.03999999910593033]","[0.0, 0.0, -0.5672775113046467]","[0.06543833017349243, 0.11372242867946625, 0.03999999910593033]","[0.0, -0.0, 0.2338230653212545]",0.5526433844132694,-3.5504372063580854,"(0.0, 0.0, 0.0, 0.0, 0.0, 0.0)",-74.66311326449657,-0.7739535469156117,5.843468067207706,"(0.0, 0.0, 0.0, 0.0, 0.0, 0.0)",-38.567738900473906,-0.5523653530093062,3.5789086898164406,"(0.0, 0.0, 0.0, 0.0, 0.0, 0.0)",70.97380681712595,0.7784689212282292,-5.431581853362886,"(0.0, 0.0, 0.0, 0.0, 0.0, 0.0)",36.631671368390464,True,"(-0.031139027298926508, 0.18549673152317092, 0.03999924353386678)","(0.9999971505660776, -0.0022642037706561637, -0.0007564661332230728)",-0.000503181178828863,565.4925793008347,True,"(0.030917119596597424, 0.1854085662421605, 0.04000075646613322)","(-0.9999971505660776, 0.002264203770598743, 0.0007564661332168607)",-0.0013606486484191646,538.0249494895718
15,Move,"(0.0078, 0.0, -0.0036000000000000003)","(0.0, 0.08563981573685775, 0.0)","(0.0011450583064572186, 0.1711343889061817, 0.002875129448452316)","(1.4999824327773226, 0.0024610803388137783, 0.005104533808801593)","[0.0008601148184432399, -0.00015087764217494581, 0.0010083519229073142]","[-0.026750000193715096, 0.05299999937415123, 0.03999999910593033]","[0.0, -0.0, 0.5378053673941038]","[-0.06363217532634735, 0.11483611911535263, 0.03999999910593033]","[0.0, 0.0, -0.21686685258300767]","[0.026750000193715096, 0.05299999937415123, 0.03999999910593033]","[0.0, 0.0, -0.5482772440530186]","[0.06427767872810364, 0.11444650590419769, 0.03999999910593033]","[0.0, -0.0, 0.21261483899358088]",0.5374069131858756,-0.09562747157607167,"(0.0, 0.0, 0.0, 0.0, 0.0, 0.0)",-2.5909112006987516,-0.7555451730763724,-0.20951208109148664,"(0.0, 0.0, 0.0, 0.0, 0.0, 0.0)",-1.3398390977336916,-0.550800444694023,-0.6055689241968804,"(0.0, 0.0, 0.0, 0.0, 0.0, 0.0)",2.0830883235995072,0.7616210961340197,0.17495938616325563,"(0.0, 0.0, 0.0, 0.0, 0.0, 0.0)",1.1518452555527108,True,"(-0.030331211064470384, 0.18708114581137417, 0.03999735605481722)","(0.9999917253882437, 0.003091716176159115, -0.0026439451827808412)",-0.0006337883763996644,19.440344293619304,True,"(0.031284180241251264, 0.18682204316063786, 0.04000264394518281)","(-0.9999917253882435, -0.003091716176151693, 0.0026439451828138344)",-0.0016721435916303522,14.91958414802767
16,Move,"(0.0123, 0.0, -0.0040999999999999995)","(0.0, 0.107426760789503, 0.0)","(0.0024636684877369637, 0.17166958886941547, 0.0027055639592410284)","(1.5113504685798254, 0.002183150420446426, 0.004219835072731046)","[0.002178724999722985, 0.0003843223210588109, 0.0008387864336960268]","[-0.026750000193715096, 0.05299999937415123, 0.03999999910593033]","[0.0, -0.0, 0.5288486198209742]","[-0.06307685375213623, 0.11516397446393967, 0.03999999910593033]","[0.0, 0.0, -0.2235935389838534]","[0.026750000193715096, 0.05299999937415123, 0.03999999910593033]","[0.0, 0.0, -0.5598179219749632]","[0.06498429924249649, 0.114009328186512, 0.03999999910593033]","[0.0, -0.0, 0.1985738192808061]",0.5266404427054082,-0.5299620186433673,"(0.0, 0.0, 0.0, 0.0, 0.0, 0.0)",-2.999859462041999,-0.7514655981867032,0.23437374326766391,"(0.0, 0.0, 0.0, 0.0, 0.0, 0.0)",-1.619718892800723,-0.5616373537775844,-0.4366678561974568,"(0.0, 0.0, 0.0, 0.0, 0.0, 0.0)",3.3642551488374512,0.7572120749029957,-0.2831161821514223,"(0.0, 0.0, 0.0, 0.0, 0.0, 0.0)",1.7841373026893845,True,"(-0.02929067788557, 0.1871913984918978, 0.03999776524073359)","(0.9999878384174208, 0.004396460880690843, -0.002234759266411634)",-0.0004466361518666394,22.956369843082047,True,"(0.033010194064435956, 0.18682563443221822, 0.04000223475926642)","(-0.9999878384174209, -0.004396460880686964, 0.002234759266418862)",-0.0011748660085658543,24.574105447645742
17,Move,"(0.0158, 0.0, -0.0035)","(0.0, 0.08188561251581795, 0.0)","(0.003916947903940013, 0.1727124419991425, 0.0019610359399409865)","(1.5412904019975397, 0.0043965324782257115, 0.000173647943455769)","[0.003632004415926034, 0.0014271754507858558, 9.425841439598482e-05]","[-0.026750000193715096, 0.05299999937415123, 0.03999999910593033]","[0.0, -0.0, 0.5161830437897441]","[-0.0622866153717041, 0.11561907827854156, 0.03999999910593033]","[0.0, 0.0, -0.2324045046571422]","[0.026750000193715096, 0.05299999937415123, 0.03999999910593033]","[0.0, 0.0, -0.5714911569812937]","[0.06569384783506393, 0.11355886608362198, 0.03999999910593033]","[0.0, -0.0, 0.18230789487087054]",0.5139051885894269,-0.5466892880510896,"(0.0, 0.0, 0.0, 0.0, 0.0, 0.0)",-1.8945534448494734,-0.7480532292395221,0.12823391072777346,"(0.0, 0.0, 0.0, 0.0, 0.0, 0.0)",-1.0383401587848387,-0.5737028211028771,-0.5308095480447371,"(0.0, 0.0, 0.0, 0.0, 0.0, 0.0)",2.1523143461511967,0.7531266320090773,-0.16136946739104588,"(0.0, 0.0, 0.0, 0.0, 0.0, 0.0)",1.116421471048054,True,"(-0.02786713205864596, 0.187351189866681, 0.03999559457118313)","(0.9999900107996429, 0.0007553130938200142, -0.00440542881687427)",-0.0003031974451663158,14.738213363890377,True,"(0.03490828726214944, 0.18687297944358527, 0.04000440542881687)","(-0.9999900107996429, -0.0007553130938223273, 0.004405428816871977)",-0.0008424087020412453,15.397611986072627
18,Move,"(0.0147, 0.0, -0.0054)","(0.0, 0.05541594908007196, 0.0)","(0.0052731276546055155, 0.1740622301540149, 0.0008803964746955462)","(1.58103522896911, -0.0004480237885009396, -0.01016071538832925)","[0.004988184166591537, 0.002776963605658239, -0.0009863810508494554]","[-0.026750000193715096, 0.05299999937415123, 0.03999999910593033]","[0.0, -0.0, 0.504759706854268]","[-0.06156899034976959, 0.11602093279361725, 0.03999999910593033]","[0.0, 0.0, -0.24047298825398822]","[0.026750000193715096, 0.05299999937415123, 0.03999999910593033]","[0.0, 0.0, -0.5813477111305424]","[0.06628885120153427, 0.11317207664251328, 0.03999999910593033]","[0.0, -0.0, 0.1683384330740805]",0.5028505821162899,-0.4581830374520042,"(0.0, 0.0, 0.0, 0.0, 0.0, 0.0)",-2.8064027869818124,-0.7442386445377248,0.23857181846428765,"(0.0, 0.0, 0.0, 0.0, 0.0, 0.0)",-1.7014280910418798,-0.5828543411908197,-0.3615976164915416,"(0.0, 0.0, 0.0, 0.0, 0.0, 0.0)",1.539379050507995,0.749168192856521,-0.12429927654463793,"(0.0, 0.0, 0.0, 0.0, 0.0, 0.0)",0.7982653497723705,True,"(-0.026571831716110356, 0.18747804234941562, 0.039996844208535)","(0.9999924494036198, -0.002267623420731549, -0.003155791465001592)",-0.00020205937109050792,21.477267758722494,True,"(0.03653032875057763, 0.18689813577886302, 0.040003155791464996)","(-0.9999924494036198, 0.002267623420724397, 0.003155791465001138)",-0.000614959907045807,10.895856979430294
19,Move,"(0.0172, 0.0, -0.006900000000000001)","(0.0, -0.0, 0.0)","(0.006487119048129544, 0.17413573326460047, 0.0009455933591612097)","(1.578242765856285, -0.00014561377672271043, -0.015958099940281818)","[0.006202175560115566, 0.00285046671624381, -0.000921184166383792]","[-0.026750000193715096, 0.05299999937415123, 0.03999999910593033]","[0.0, -0.0, 0.49326801140674564]","[-0.06084249168634415, 0.11641689389944077, 0.03999999910593033]","[0.0, 0.0, -0.24709494845473584]","[0.026750000193715096, 0.05299999937415123, 0.03999999910593033]","[0.0, 0.0, -0.58974552157942]","[0.06679277122020721, 0.11283791810274124, 0.03999999910593033]","[0.0, -0.0, 0.15611881777278938]",0.491153619549428,-0.507451566419663,"(0.0, 0.0, 0.0, 0.0, 0.0, 0.0)",-2.4796270088701946,-0.739658978411597,0.16895457525151977,"(0.0, 0.0, 0.0, 0.0, 0.0, 0.0)",-1.382177221923195,-0.5912345082876697,-0.3573427356826266,"(0.0, 0.0, 0.0, 0.0, 0.0, 0.0)",2.625476858664612,0.7450179559989268,-0.20314501913213012,"(0.0, 0.0, 0.0, 0.0, 0.0, 0.0)",1.395161047657627,True,"(-0.025372997927570445, 0.1876338378727462, 0.04000014798469577)","(0.9998761320460327, -0.015738445450385056, 0.00014798469577126508)",-0.00013469481474878245,19.019863566384174,True,"(0.03793736425421657, 0.1869233506929329, 0.039999852015304226)","(-0.9998761320460325, 0.015738445450385156, -0.0001479846957723339)",-0.00047160158613040895,19.09187695500624
20,Move,"(0.0174, 0.0, -0.008199999999999999)","(0.0, 0.038988910160301336, 0.0)","(0.0077926449695438745, 0.17412777934774695, 0.0009702094433679379)","(1.5756574348912527, 0.00010457273187562965, -0.01763754739953198)","[0.007507701481529896, 0.0028425127993902954, -0.0008965680821770637]","[-0.026750000193715096, 0.05299999937415123, 0.03999999910593033]","[0.0, -0.0, 0.4810202112719156]","[-0.06006323918700218, 0.11682967841625214, 0.03999999910593033]","[0.0, 0.0, -0.25472348690320357]","[0.026750000193715096, 0.05299999937415123, 0.03999999910593033]","[0.0, 0.0, -0.5974981813111524]","[0.06725545972585678, 0.11252569407224655, 0.03999999910593033]","[0.0, -0.0, 0.1431730568362154]",0.4788055851476169,-0.5315217615334802,"(0.0, 0.0, 0.0, 0.0, 0.0, 0.0)",-2.9757535961317974,-0.734819993379987,0.22170391924948096,"(0.0, 0.0, 0.0, 0.0, 0.0, 0.0)",-1.642300901210952,-0.5988210567461706,-0.3175096395162071,"(0.0, 0.0, 0.0, 0.0, 0.0, 0.0)",3.1095508939833705,0.7397116203732015,-0.23029162098113798,"(0.0, 0.0, 0.0, 0.0, 0.0, 0.0)",1.6705924801574572,True,"(-0.02405138003204562, 0.18777997338512623, 0.03999989665468038)","(0.9998491435847758, -0.01736892030424148, -0.00010334531962340029)",-0.00011267703430482984,22.69644219624068,True,"(0.039361272625812675, 0.18696714758005553, 0.04000010334531962)","(-0.9998491435847758, 0.017368920304246666, 0.00010334531962070449)",-0.0003901170055892466,22.726922706792948
21,Move,"(0.0155, 0.0, -0.0091)","(0.0, 0.1663263870565556, 0.0)","(0.009093933406374636, 0.17424266116864345, 0.0009875944177940455)","(1.5740773503927354, 0.00016289481693431784, -0.018956560034973376)","[0.008808989918360656, 0.0029573946202867962, -0.0008791831077509561]","[-0.026750000193715096, 0.05299999937415123, 0.03999999910593033]","[0.0, -0.0, 0.46765529331415123]","[-0.05920720845460892, 0.11726919561624527, 0.03999999910593033]","[0.0, 0.0, -0.26123399486527443]","[0.026750000193715096, 0.05299999937415123, 0.03999999910593033]","[0.0, 0.0, -0.6035048454399101]","[0.06761228293180466, 0.11228131502866745, 0.03999999910593033]","[0.0, -0.0, 0.12992213581087553]",0.46519045109105595,-0.5915545697314771,"(0.0, 0.0, 0.0, 0.0, 0.0, 0.0)",-4.533411428931737,-0.7274844456404074,0.33715378118720696,"(0.0, 0.0, 0.0, 0.0, 0.0, 0.0)",-2.4643035918281817,-0.6044429781268518,-0.22515356649097773,"(0.0, 0.0, 0.0, 0.0, 0.0, 0.0)",4.644094815777585,0.7319631729633214,-0.3513122199548828,"(0.0, 0.0, 0.0, 0.0, 0.0, 0.0)",2.532496606064363,True,"(-0.022734081980685723, 0.1879886971815946, 0.039999840615941806)","(0.9998248500152107, -0.018714804000666906, -0.00015938405818837758)",-0.0001050534470128183,34.246407901656816,True,"(0.040706640160416, 0.18707394613072026, 0.04000015938405819)","(-0.9998248500152107, 0.018714804000671503, 0.0001593840581842213)",-0.0003682150951450957,34.22363478648074
22,Move,"(0.0137, 0.0, -0.009300000000000001)","(0.0, 0.23787092375430716, 0.0)","(0.01028590928765201, 0.1744516419312722, 0.0009980885427347743)","(1.5731091571927245, 0.00018377096611747493, -0.020034310407775976)","[0.01000096579963803, 0.0031663753829155317, -0.0008686889828102274]","[-0.026750000193715096, 0.05299999937415123, 0.03999999910593033]","[0.0, -0.0, 0.45380192377845807]","[-0.058313772082328796, 0.11771266162395477, 0.03999999910593033]","[0.0, 0.0, -0.26599593025254037]","[0.026750000193715096, 0.05299999937415123, 0.03999999910593033]","[0.0, 0.0, -0.607200848234358]","[0.06783109903335571, 0.11212988197803497, 0.03999999910593033]","[0.0, -0.0, 0.11665326334810822]",0.4513354835778238,-0.5919269976822434,"(0.0, 0.0, 0.0, 0.0, 0.0, 0.0)",-5.730047611904239,-0.7180657066422989,0.4156803524978218,"(0.0, 0.0, 0.0, 0.0, 0.0, 0.0)",-3.089249452624226,-0.6077147209766556,-0.12334430146593901,"(0.0, 0.0, 0.0, 0.0, 0.0, 0.0)",5.794286015248731,0.7220296002567114,-0.437867146133485,"(0.0, 0.0, 0.0, 0.0, 0.0, 0.0)",3.181363486650157,True,"(-0.02150422697882358, 0.188261312880569, 0.03999981911075337)","(0.999803147752345, -0.019840187085384, -0.00018088924662920097)",-0.00010262785786552877,42.99744766056808,True,"(0.04191990011100655, 0.18726079067578102, 0.04000018088924661)","(-0.999803147752345, 0.019840187085378363, 0.00018088924661488042)",-0.0003858781295548912,42.815229163247054
23,Move,"(0.0132, 0.0, -0.0055)","(0.0, 0.15274074415903177, 0.0)","(0.011101111089278547, 0.17453060656110908, 0.001004257420789475)","(1.572648631357541, 0.00016122368229958854, -0.020884738060994928)","[0.010816167601264567, 0.0032453400127524235, -0.0008625201047555266]","[-0.026750000193715096, 0.05299999937415123, 0.03999999910593033]","[0.0, -0.0, 0.4442851118012778]","[-0.057696495205163956, 0.11801011115312576, 0.03999999910593033]","[0.0, 0.0, -0.2698006718156818]","[0.026750000193715096, 0.05299999937415123, 0.03999999910593033]","[0.0, 0.0, -0.6107079756330398]","[0.06803823262453079, 0.11198543757200241, 0.03999999910593033]","[0.0, -0.0, 0.10696802646664869]",0.44298480673096785,-0.3120598536975324,"(0.0, 0.0, 0.0, 0.0, 0.0, 0.0)",-2.4740563881747857,-0.7134413910616758,0.15464034592425718,"(0.0, 0.0, 0.0, 0.0, 0.0, 0.0)",-1.3511591588222436,-0.611390074386797,-0.163697592210919,"(0.0, 0.0, 0.0, 0.0, 0.0, 0.0)",2.461452144892066,0.7169278656649687,-0.17956028988086603,"(0.0, 0.0, 0.0, 0.0, 0.0, 0.0)",1.3273722213831076,True,"(-0.020618728835116007, 0.18842109821973618, 0.03999982883473056)","(0.999784763992449, -0.020745996987689922, -0.00017116526943818664)",-8.63950532116855e-05,18.597319592308555,True,"(0.04285567141187918, 0.18735499884890566, 0.04000017116526943)","(-0.9997847639924491, 0.020745996987697232, 0.00017116526943623814)",-0.00035074781810482314,17.98298669899313
24,Move,"(0.0195, 0.0, -0.006900000000000001)","(0.0, 0.013110913340981403, 0.0)","(0.012046212117454205, 0.17446220679577742, 0.000977387125550609)","(1.5707573861441007, 0.0004928598180229512, -0.02334901799080409)","[0.011761268629440226, 0.0031769402474207675, -0.0008893903999943925]","[-0.026750000193715096, 0.05299999937415123, 0.03999999910593033]","[0.0, -0.0, 0.4357050669607847]","[-0.05713757872581482, 0.11827323585748672, 0.03999999910593033]","[0.0, 0.0, -0.2750804055639973]","[0.026750000193715096, 0.05299999937415123, 0.03999999910593033]","[0.0, 0.0, -0.6161446344608653]","[0.06835829466581345, 0.11176010221242905, 0.03999999910593033]","[0.0, -0.0, 0.09791535936929174]",0.4340648149921431,-0.39365943500040146,"(0.0, 0.0, 0.0, 0.0, 0.0, 0.0)",-2.1384466802089643,-0.7102033098967517,0.13970319057242586,"(0.0, 0.0, 0.0, 0.0, 0.0, 0.0)",-1.1368646608013029,-0.6172508888572821,-0.2655107648306861,"(0.0, 0.0, 0.0, 0.0, 0.0, 0.0)",1.7550525019479724,0.7134544366051906,-0.14532373401930765,"(0.0, 0.0, 0.0, 0.0, 0.0, 0.0)",0.9339414095268055,True,"(-0.019688510417519678, 0.188490388677136, 0.039999497768152856)","(0.9997325851237093, -0.023119385913921514, -0.0005022318471483293)",-6.869024284426227e-05,16.26585623597424,True,"(0.043858881507439364, 0.1873478626952718, 0.04000050223184715)","(-0.9997325851237098, 0.023119385913908205, 0.0005022318471571482)",-0.00029449573309072764,12.59363420517264
25,Move,"(0.0189, 0.0, -0.0074)","(0.0, 0.05592383989240231, 0.0)","(0.01296893472017237, 0.17449523673677814, 0.0009797251616969383)","(1.5705559603840558, 0.0004798214009681432, -0.02475209432294251)","[0.01268399123215839, 0.0032099701884214793, -0.0008870523638480634]","[-0.026750000193715096, 0.05299999937415123, 0.03999999910593033]","[0.0, -0.0, 0.42658876828186454]","[-0.05654127523303032, 0.11854753643274307, 0.03999999910593033]","[0.0, 0.0, -0.28025720675172455]","[0.026750000193715096, 0.05299999937415123, 0.03999999910593033]","[0.0, 0.0, -0.6215747205126358]","[0.06867676228284836, 0.11153329908847809, 0.03999999910593033]","[0.0, -0.0, 0.08885762393211322]",0.42497366075963033,-0.3876291087684872,"(0.0, 0.0, 0.0, 0.0, 0.0, 0.0)",-2.6105430853358986,-0.706103937119797,0.17808365721532296,"(0.0, 0.0, 0.0, 0.0, 0.0, 0.0)",-1.420142767007852,-0.6224712982074214,-0.21516293692714702,"(0.0, 0.0, 0.0, 0.0, 0.0, 0.0)",2.040142051770356,0.7097404097489556,-0.16607877420757977,"(0.0, 0.0, 0.0, 0.0, 0.0, 0.0)",1.0953437687948757,True,"(-0.01872910831980503, 0.18857367029119168, 0.039999517596108765)","(0.9996994418190932, -0.0245110855140921, -0.0004824038912422032)",-7.072454864180939e-05,19.655198070070224,True,"(0.04486277772420493, 0.18733219949429283, 0.04000048240389124)","(-0.9996994418190935, 0.02451108551408324, 0.00048240389123995164)",-0.00024607151506060565,14.777003430248685
26,Move,"(0.019, 0.0, -0.0106)","(0.0, 0.09422683565666987, 0.0)","(0.013893033999428598, 0.1746098946618211, 0.000980180234806822)","(1.5703170614905735, 0.000526823523113022, -0.02608307830890749)","[0.013608090511414619, 0.003324628113464456, -0.0008865972907381797]","[-0.026750000193715096, 0.05299999937415123, 0.03999999910593033]","[0.0, -0.0, 0.416372897038021]","[-0.05587010458111763, 0.11884845793247223, 0.03999999910593033]","[0.0, 0.0, -0.2842833877494012]","[0.026750000193715096, 0.05299999937415123, 0.03999999910593033]","[0.0, 0.0, -0.6253193255782362]","[0.06889564543962479, 0.11137589067220688, 0.03999999910593033]","[0.0, -0.0, 0.07934480350755405]",0.41445023618795246,-0.46143383797254833,"(0.0, 0.0, 0.0, 0.0, 0.0, 0.0)",-4.355661909981181,-0.6993760541799038,0.30725140084018476,"(0.0, 0.0, 0.0, 0.0, 0.0, 0.0)",-2.32441573547917,-0.6258681396081625,-0.1317128832135142,"(0.0, 0.0, 0.0, 0.0, 0.0, 0.0)",3.6059055280715606,0.703461275626722,-0.28868553623044885,"(0.0, 0.0, 0.0, 0.0, 0.0, 0.0)",1.9670922755087863,True,"(-0.01777623142229559, 0.1887244707889175, 0.03999948537582783)","(0.999665772107482, -0.02584722884011672, -0.0005146241721704549)",-8.083848750722988e-05,32.552065970739676,True,"(0.045803547539444975, 0.187389725217269, 0.04000051462417218)","(-0.9996657721074819, 0.025847228840122093, 0.0005146241721729537)",-0.0002461321192852628,26.414847648859848
27,Move,"(0.0192, 0.0, -0.0114)","(0.0, 0.03438473159354028, 0.0)","(0.014583539496005904, 0.17473915212593788, 0.000979793334020765)","(1.5701087461078307, 0.0005851271650016053, -0.027182379120705813)","[0.014298596007991925, 0.0034538855775812227, -0.0008869841915242367]","[-0.026750000193715096, 0.05299999937415123, 0.03999999910593033]","[0.0, -0.0, 0.40720895947788704]","[-0.055265460163354874, 0.1191125437617302, 0.03999999910593033]","[0.0, 0.0, -0.28667014781547834]","[0.026750000193715096, 0.05299999937415123, 0.03999999910593033]","[0.0, 0.0, -0.6273572580744278]","[0.0690145194530487, 0.11128988116979599, 0.03999999910593033]","[0.0, -0.0, 0.07107855868804284]",0.4057262157277808,-0.3558547488319084,"(0.0, 0.0, 0.0, 0.0, 0.0, 0.0)",-4.146897819790158,-0.6927109506983403,0.280349766284329,"(0.0, 0.0, 0.0, 0.0, 0.0, 0.0)",-2.2002298630525345,-0.6276246376741048,-0.06418251479148336,"(0.0, 0.0, 0.0, 0.0, 0.0, 0.0)",3.2769362744854327,0.6973691135003593,-0.2559988695117016,"(0.0, 0.0, 0.0, 0.0, 0.0, 0.0)",1.7788381989774678,True,"(-0.017004884666835307, 0.18889868494387602, 0.03999942006668189)","(0.999635645510998, -0.026985920424485176, -0.0005799333181088808)",-9.270081523550164e-05,30.844795955960755,True,"(0.04655133473138513, 0.18748487815863574, 0.040000579933318126)","(-0.9996356455109985, 0.02698592042447149, 0.0005799333181182091)",-0.0002560829531905715,23.990522423616024
28,Move,"(0.0247, 0.0, -0.0125)","(0.0, 0.12435470920459603, 0.0)","(0.01602019323373083, 0.17493748133083847, 0.0009540212982757406)","(1.5717768311910911, 0.0006478054955491686, -0.028808763194239043)","[0.01573524974571685, 0.0036522147824818163, -0.0009127562272692611]","[-0.026750000193715096, 0.05299999937415123, 0.03999999910593033]","[0.0, -0.0, 0.39330732734628077]","[-0.054343659430742264, 0.11950255930423737, 0.03999999910593033]","[0.0, 0.0, -0.2919734193046868]","[0.026750000193715096, 0.05299999937415123, 0.03999999910593033]","[0.0, 0.0, -0.6319920445133971]","[0.06928423047065735, 0.11109336465597153, 0.03999999910593033]","[0.0, -0.0, 0.058316587246033114]",0.39031424166851364,-0.7183343253361159,"(0.0, 0.0, 0.0, 0.0, 0.0, 0.0)",-5.210991466278831,-0.6837304561582718,0.37206112595560425,"(0.0, 0.0, 0.0, 0.0, 0.0, 0.0)",-2.7175372634993638,-0.6331143595797412,-0.269348420155448,"(0.0, 0.0, 0.0, 0.0, 0.0, 0.0)",5.583521957834966,0.6885012023659652,-0.4337891734653423,"(0.0, 0.0, 0.0, 0.0, 0.0, 0.0)",3.1136537936439828,True,"(-0.015713418941078063, 0.18908846735486048, 0.039999360303677366)","(0.9995899215286326, -0.02862830010666235, -0.0006396963226371999)",-0.00010561082923836137,39.09720537907849,True,"(0.04779486745796324, 0.18755771228275409, 0.040000639696322636)","(-0.9995899215286326, 0.02862830010666355, 0.000639696322629002)",-0.0002883224331163133,40.9642245694185
29,Move,"(0.0282, 0.0, -0.0125)","(0.0, 0.11590207963718746, 0.0)","(0.01769924623823091, 0.1750142355885518, 0.0009563787046993347)","(1.5712599973041188, 0.0007373390973501035, -0.0310864526055154)","[0.01741430275021693, 0.0037289690401951514, -0.0009103988208456669]","[-0.026750000193715096, 0.05299999937415123, 0.03999999910593033]","[0.0, -0.0, 0.375809358699179]","[-0.05317583307623863, 0.11997518688440323, 0.03999999910593033]","[0.0, 0.0, -0.29989932335014435]","[0.026750000193715096, 0.05299999937415123, 0.03999999910593033]","[0.0, 0.0, -0.6391313299125702]","[0.06969788670539856, 0.11078822612762451, 0.03999999910593033]","[0.0, -0.0, 0.041947611437707276]",0.3726282514195325,-0.7634526629037158,"(0.0, 0.0, 0.0, 0.0, 0.0, 0.0)",-5.924329783469603,-0.6739891465797241,0.41268352675123754,"(0.0, 0.0, 0.0, 0.0, 0.0, 0.0)",-3.1306238847729393,-0.6404824895237443,-0.3243028615508547,"(0.0, 0.0, 0.0, 0.0, 0.0, 0.0)",5.045085282156534,0.6794586188018708,-0.3888518273009033,"(0.0, 0.0, 0.0, 0.0, 0.0, 0.0)",2.796544257656674,True,"(-0.013995080176619448, 0.18925859881383172, 0.03999928051544625)","(0.9995288969031176, -0.03068332768155352, -0.0007194845537376293)",-0.00011976205872598384,44.217130731378944,True,"(0.04946244199847743, 0.18757977272588366, 0.040000719484553714)","(-0.9995288969031181, 0.030683327681541674, 0.0007194845537186583)",-0.00032109824329505437,36.79236826877977
30,Move,"(0.0325, 0.0, -0.0158)","(0.0, 0.021750293138353336, 0.0)","(0.019391948163862045, 0.1750985071015551, 0.0009578819158758687)","(1.5708086093006137, 0.0008233493803603037, -0.0331563835221635)","[0.019107004675848065, 0.003813240553198455, -0.0009088956096691329]","[-0.026750000193715096, 0.05299999937415123, 0.03999999910593033]","[0.0, -0.0, 0.35781026445237374]","[-0.05196613073348999, 0.12043994665145874, 0.03999999910593033]","[0.0, 0.0, -0.30742479974796244]","[0.026750000193715096, 0.05299999937415123, 0.03999999910593033]","[0.0, 0.0, -0.6460450921105696]","[0.07009639590978622, 0.11048991233110428, 0.03999999910593033]","[0.0, -0.0, 0.025275301964174164]",0.35457730339041693,-0.7759180984506456,"(0.0, 0.0, 0.0, 0.0, 0.0, 0.0)",-6.1509984837032965,-0.663514627238298,0.41290252263593935,"(0.0, 0.0, 0.0, 0.0, 0.0, 0.0)",-3.262438236847606,-0.6472329375500633,-0.285064450131595,"(0.0, 0.0, 0.0, 0.0, 0.0, 0.0)",6.046195572901464,0.6692988753659762,-0.485182022097708,"(0.0, 0.0, 0.0, 0.0, 0.0, 0.0)",3.3638116455345237,True,"(-0.01226491942242381, 0.18943181875413292, 0.03999918025281745)","(0.9994570275822959, -0.032939004704430785, -0.0008197471825487267)",-0.00013713965307107117,45.6406230949881,True,"(0.051143423514315764, 0.18759373442620822, 0.040000819747182566)","(-0.9994570275822962, 0.03293900470442727, 0.0008197471825596371)",-0.000348401444664141,44.24823615319957
31,Move,"(0.032299999999999995, 0.0, -0.0169)","(0.0, 0.025921630050619787, 0.0)","(0.020877570011543833, 0.1752049023441285, 0.0009616988186189026)","(1.5702009068354985, 0.0008972639167114252, -0.03504884893013981)","[0.020592626523529854, 0.003919635795771842, -0.0009050787069260991]","[-0.026750000193715096, 0.05299999937415123, 0.03999999910593033]","[0.0, -0.0, 0.3406764026620024]","[-0.05080697685480118, 0.12086208164691925, 0.03999999910593033]","[0.0, 0.0, -0.3136588318395723]","[0.026750000193715096, 0.05299999937415123, 0.03999999910593033]","[0.0, 0.0, -0.6512884453330479]","[0.07039723545312881, 0.11026184260845184, 0.03999999910593033]","[0.0, -0.0, 0.009176315400551594]",0.33771937934150426,-0.7096860345002325,"(0.0, 0.0, 0.0, 0.0, 0.0, 0.0)",-7.057994267609125,-0.6522921426907655,0.490338149836171,"(0.0, 0.0, 0.0, 0.0, 0.0, 0.0)",-3.6786523583806736,-0.6520917306169379,-0.19279770353812273,"(0.0, 0.0, 0.0, 0.0, 0.0, 0.0)",5.873953978176902,0.6585652525873382,-0.45587239161623405,"(0.0, 0.0, 0.0, 0.0, 0.0, 0.0)",3.2827202395892603,True,"(-0.010676275492474192, 0.18960959387260953, 0.0399991168575004)","(0.9993978801524844, -0.03468569166162954, -0.0008831424996027015)",-0.00014481195910800954,52.24504269126439,True,"(0.05268735460447254, 0.18764645004878042, 0.040000883142499596)","(-0.9993978801524849, 0.03468569166161858, 0.0008831424995996302)",-0.0003816173793194035,42.92913126701329
32,Move,"(0.0292, 0.0, -0.0155)","(0.0, -0.0, 0.0)","(0.021803469623292986, 0.1753381829373913, 0.000964846337218891)","(1.5698704684874143, 0.0008813643720443058, -0.036452244204249744)","[0.021518526135279006, 0.004052916389034655, -0.0009019311883261106]","[-0.026750000193715096, 0.05299999937415123, 0.03999999910593033]","[0.0, -0.0, 0.32786342407753916]","[-0.049935515969991684, 0.12116473913192749, 0.03999999910593033]","[0.0, 0.0, -0.3164560911548335]","[0.026750000193715096, 0.05299999937415123, 0.03999999910593033]","[0.0, 0.0, -0.6536672823806848]","[0.07053332775831223, 0.11015785485506058, 0.03999999910593033]","[0.0, 0.0, -0.0026119418869322173]",0.32592830516409466,-0.4644377453847184,"(0.0, 0.0, 0.0, 0.0, 0.0, 0.0)",-5.948036459601252,-0.6426669010173527,0.39664131259509045,"(0.0, 0.0, 0.0, 0.0, 0.0, 0.0)",-3.082766554251807,-0.653896406075319,-0.05499510009508531,"(0.0, 0.0, 0.0, 0.0, 0.0, 0.0)",4.814407730509832,0.6494940053923909,-0.3747149767040368,"(0.0, 0.0, 0.0, 0.0, 0.0, 0.0)",2.6779468358145033,True,"(-0.00961261488593964, 0.18980100020610757, 0.03999911183719478)","(0.9993437966384396, -0.036210320173956485, -0.0008881628052240645)",-0.0001528520561218603,43.790480979547084,True,"(0.05373646315864054, 0.1877355909493236, 0.0400008881628052)","(-0.9993437966384399, 0.03621032017394677, 0.0008881628052005471)",-0.0003848506020120635,35.13700561638354
33,Move,"(0.0253, 0.0, -0.016300000000000002)","(0.0, 0.10008416062636283, 0.0)","(0.02248827942252804, 0.17553647971483882, 0.0009669427213704657)","(1.5695748767328663, 0.0008766954910898019, -0.03753270238203642)","[0.02220333593451406, 0.004251213166482165, -0.000899834804174536]","[-0.026750000193715096, 0.05299999937415123, 0.03999999910593033]","[0.0, -0.0, 0.3172668037441567]","[-0.049211904406547546, 0.12140659987926483, 0.03999999910593033]","[0.0, 0.0, -0.31668516469735375]","[0.026750000193715096, 0.05299999937415123, 0.03999999910593033]","[0.0, 0.0, -0.6533568970573504]","[0.07051558792591095, 0.11017143726348877, 0.03999999910593033]","[0.0, 0.0, -0.0121436315945032]",0.31540475931151596,-0.4468829273880393,"(0.0, 0.0, 0.0, 0.0, 0.0, 0.0)",-6.834722512567796,-0.6320146197416545,0.4649535343128025,"(0.0, 0.0, 0.0, 0.0, 0.0, 0.0)",-3.515107409954976,-0.6531567048752841,0.04805466061071588,"(0.0, 0.0, 0.0, 0.0, 0.0, 0.0)",5.621556061716694,0.6393561226849636,-0.445722916132281,"(0.0, 0.0, 0.0, 0.0, 0.0, 0.0)",3.1153378092017157,True,"(-0.008873319624295571, 0.1900327181948095, 0.039999122843818444)","(0.9993021677671909, -0.037341774098536624, -0.0008771561815593833)",-0.0001612086367525988,50.15884233326069,True,"(0.05445822209460506, 0.1878684480528516, 0.04058077717843266)","(-0.9993021729335659, 0.03734176769993187, 0.0008715246973433583)",-0.00039113532802955515,40.98293852302543
34,Move,"(0.018000000000000002, 0.0, -0.0125)","(0.0, 0.2953673053027564, 0.0)","(0.02313198135874762, 0.1759026638791178, 0.0009422291263432788)","(1.571146031483733, 0.0009201102186813766, -0.03776986785751584)","[0.022847037870733642, 0.004617397330761136, -0.0009245483992017229]","[-0.026750000193715096, 0.05299999937415123, 0.03999999910593033]","[0.0, -0.0, 0.30628059670729346]","[-0.04845903813838959, 0.12164923548698425, 0.03999999910593033]","[0.0, 0.0, -0.3151536874875898]","[0.026750000193715096, 0.05299999937415123, 0.03999999910593033]","[0.0, 0.0, -0.6504875614798475]","[0.07035136222839355, 0.11029678583145142, 0.03999999910593033]","[0.0, 0.0, -0.02188931598543792]",0.3042640072457027,-0.4839812024120566,"(0.0, 0.0, 0.0, 0.0, 0.0, 0.0)",-7.797641428157554,-0.6191737515821817,0.542520353537132,"(0.0, 0.0, 0.0, 0.0, 0.0, 0.0)",-3.9783276036712216,-0.6498293272266803,0.15796986174287508,"(0.0, 0.0, 0.0, 0.0, 0.0, 0.0)",7.8730373202459445,0.626002106922631,-0.6230672258356863,"(0.0, 0.0, 0.0, 0.0, 0.0, 0.0)",4.471952675089246,True,"(-0.008225676818629547, 0.19033497834755692, 0.039999081411659594)","(0.9992816305877252, -0.03788639551868063, -0.0009185883403992828)",-0.00016697113256762972,57.12952692844005,True,"(0.05504985694298064, 0.18805939069958105, 0.042145789367634384)","(-0.9992816305877255, 0.03788639551867249, 0.0009185883403840757)",-0.0004387068186134219,57.96525983017977
35,Move,"(0.0136, 0.0, -0.012)","(0.0, 0.35240641058718314, 0.0)","(0.023486637235397154, 0.17626767015435327, 0.0009449195055570744)","(1.5705872473675813, 0.0009702862306088234, -0.038159602328314654)","[0.023201693747383175, 0.00498240360599661, -0.0009218580199879272]","[-0.026750000193715096, 0.05299999937415123, 0.03999999910593033]","[0.0, -0.0, 0.2961696831095601]","[-0.04776383563876152, 0.12186522036790848, 0.03999999910593033]","[0.0, 0.0, -0.3112867953260487]","[0.026750000193715096, 0.05299999937415123, 0.03999999910593033]","[0.0, 0.0, -0.6445830964600822]","[0.07001230120658875, 0.11055321991443634, 0.03999999910593033]","[0.0, 0.0, -0.030875511940053335]",0.2944758232638804,-0.4065321410279227,"(0.0, 0.0, 0.0, 0.0, 0.0, 0.0)",-9.06328223699185,-0.604889077806194,0.6161869973002327,"(0.0, 0.0, 0.0, 0.0, 0.0, 0.0)",-4.6196267548916286,-0.6433360088922416,0.29931077346406215,"(0.0, 0.0, 0.0, 0.0, 0.0, 0.0)",8.442860523883516,0.610983697702589,-0.6537424863395372,"(0.0, 0.0, 0.0, 0.0, 0.0, 0.0)",4.643638720625279,True,"(-0.0077965174466132214, 0.19070197238642164, 0.039999037670118635)","(0.9992744178378007, -0.038075080776325404, -0.0009623298813651393)",-0.00016519993513626426,66.00691676342812,True,"(0.05540704662364022, 0.18835157718427667, 0.04273404306234595)","(-0.9992744197513663, 0.038075080628554865, 0.0009603466555976006)",-0.000510234241084372,61.29867571589374
36,Move,"(0.0136, 0.0, -0.0119)","(0.0, 0.3815952969975363, 0.0)","(0.023863055377336642, 0.17666918361065714, 0.0009476533849975863)","(1.5702366377163481, 0.0009562312634326708, -0.03949324610249983)","[0.023578111889322663, 0.005383917062300486, -0.0009191241405474153]","[-0.026750000193715096, 0.05299999937415123, 0.03999999910593033]","[0.0, -0.0, 0.2854360325034151]","[-0.047023460268974304, 0.12208680808544159, 0.03999999910593033]","[0.0, 0.0, -0.3066136169720634]","[0.026750000193715096, 0.05299999937415123, 0.03999999910593033]","[0.0, 0.0, -0.6379516465046998]","[0.06962968409061432, 0.11083885282278061, 0.03999999910593033]","[0.0, 0.0, -0.0403782734841138]",0.28342578367419213,-0.48245331408378805,"(0.0, 0.0, 0.0, 0.0, 0.0, 0.0)",-10.898356648897963,-0.588285131138761,0.9034802968979917,"(0.0, 0.0, 0.0, 0.0, 0.0, 0.0)",-5.914327581743045,-0.6368953403748113,0.25350672894968374,"(0.0, 0.0, 0.0, 0.0, 0.0, 0.0)",10.271479595634936,0.5947535567694731,-0.6767489596489739,"(0.0, 0.0, 0.0, 0.0, 0.0, 0.0)",4.9805989282872245,True,"(-0.00737845414123816, 0.1911043306514634, 0.03999900257678951)","(0.9992521556734153, -0.03865403638653676, -0.0009974232104917793)",-0.0001701881268240222,78.06235888588172,True,"(0.05576438043281762, 0.1887724798108656, 0.04273404306234595)","(-0.9992744197513663, 0.038075080628554865, 0.0009603466555976006)",-0.0005667692924281019,59.34384603071861
37,Move,"(0.0151, 0.0, -0.0114)","(0.0, 0.37720230327026655, 0.0)","(0.024182038365504747, 0.17705754091816897, 0.0009608171447329825)","(1.5702453298476353, 0.0006651186268965852, -0.04486127470785587)","[0.023897094877490768, 0.0057722743698123136, -0.0009059603808120191]","[-0.026750000193715096, 0.05299999937415123, 0.03999999910593033]","[0.0, -0.0, 0.27348915851725814]","[-0.04619666188955307, 0.12232407182455063, 0.03999999910593033]","[0.0, 0.0, -0.29804215422441316]","[0.026750000193715096, 0.05299999937415123, 0.03999999910593033]","[0.0, 0.0, -0.6331869153622187]","[0.0693536177277565, 0.11104249954223633, 0.03999999910593033]","[0.0, 0.0, -0.05129032284469416]",0.2713044132644577,-0.5243313801561122,"(0.0, 0.0, 0.0, 0.0, 0.0, 0.0)",-11.159272275520893,-0.5679328653049956,0.8636254829857797,"(0.0, 0.0, 0.0, 0.0, 0.0, 0.0)",-6.215032443373339,-0.6324473530242042,0.1775007979334988,"(0.0, 0.0, 0.0, 0.0, 0.0, 0.0)",9.928492808567588,0.5791008856394545,-0.6709758515018361,"(0.0, 0.0, 0.0, 0.0, 0.0, 0.0)",4.616269850663259,True,"(-0.007145195082393134, 0.19166507693080853, 0.03999927940555096)","(0.9990363020540048, -0.043885623180025896, -0.0007205944490413445)",-5.2771441453332704e-05,78.96017608829,True,"(0.05633953524823268, 0.18912278645312858, 0.04273404306234595)","(-0.9992744197513663, 0.038075080628554865, 0.0009603466555976006)",-0.00033316029720474263,53.19580025327283
38,Move,"(0.013800000000000002, 0.0, -0.0111)","(0.0, 0.35800717215683286, 0.0)","(0.02436798596830288, 0.17745470541444083, 0.0009642775008672104)","(1.570326863871417, 0.00021786473395856595, -0.04997691495875729)","[0.0240830424802889, 0.006169438866084176, -0.0009025000246777913]","[-0.026750000193715096, 0.05299999937415123, 0.03999999910593033]","[0.0, -0.0, 0.2627666077541092]","[-0.04545222967863083, 0.12252860516309738, 0.03999999910593033]","[0.0, 0.0, -0.290438554979292]","[0.026750000193715096, 0.05299999937415123, 0.03999999910593033]","[0.0, 0.0, -0.6284860446071923]","[0.06908030062913895, 0.1112421303987503, 0.03999999910593033]","[0.0, 0.0, -0.0605094804658318]",0.260996751251369,-0.4247646144435169,"(0.0, 0.0, 0.0, 0.0, 0.0, 0.0)",-9.306858412733927,-0.5501720729995648,0.7279356070621931,"(0.0, 0.0, 0.0, 0.0, 0.0, 0.0)",-5.161737973963518,-0.6276015872112806,0.21227806774175187,"(0.0, 0.0, 0.0, 0.0, 0.0, 0.0)",8.380353677956116,0.5657282517880259,-0.539603185373495,"(0.0, 0.0, 0.0, 0.0, 0.0, 0.0)",3.913807420551842,True,"(-0.0069296759991703885, 0.19215175453897565, 0.039999692753607076)","(0.9987955532923907, -0.0490647360433261, -0.00030724639292420853)",1.0259781058942977e-05,65.69916294118633,True,"(0.05678659328329763, 0.18943907714119954, 0.04273404306234595)","(-0.9992744197513663, 0.038075080628554865, 0.0009603466555976006)",-0.00015557715790556366,45.18324141958466
39,Move,"(0.0158, 0.0, -0.0103)","(0.0, 0.34128342726422317, 0.0)","(0.02471198983017787, 0.17770930814866356, 0.0009658874660547002)","(1.5705283673966097, -0.0002709942840953071, -0.05719184485979426)","[0.024427046342163892, 0.006424041600306907, -0.0009008900594903015]","[-0.026750000193715096, 0.05299999937415123, 0.03999999910593033]","[0.0, -0.0, 0.2518782803783968]","[-0.04469408467411995, 0.12272811681032181, 0.03999999910593033]","[0.0, 0.0, -0.28513615352573013]","[0.026750000193715096, 0.05299999937415123, 0.03999999910593033]","[0.0, 0.0, -0.6251847581591069]","[0.06888779252767563, 0.11138156056404114, 0.03999999910593033]","[0.0, 0.0, -0.06923633782684155]",0.24986410233330253,-0.4834018872125974,"(0.0, 0.0, 0.0, 0.0, 0.0, 0.0)",-9.061238764311163,-0.5341589791594492,0.6852954888203391,"(0.0, 0.0, 0.0, 0.0, 0.0, 0.0)",-5.090638619560945,-0.6247438649582477,0.10582776690606367,"(0.0, 0.0, 0.0, 0.0, 0.0, 0.0)",7.481709696968765,0.5539398124933608,-0.48207915376161137,"(0.0, 0.0, 0.0, 0.0, 0.0, 0.0)",3.3295318285221933,True,"(-0.006541846661058427, 0.1925424671737312, 0.04000021015030004)","(0.9984391779614797, -0.055849474021302525, 0.00021015030003336278)",7.786970924836565e-06,63.691236564216446,True,"(0.05727696331643088, 0.18968280944845883, 0.04273404306234595)","(-0.9992744197513663, 0.038075080628554865, 0.0009603466555976006)",-4.050838115606875e-05,35.68768619996313
40,Move,"(0.0137, 0.0, -0.0116)","(0.0, 0.34683182895631326, 0.0)","(0.02489092225856628, 0.17786343233398277, 0.0009749960743558011)","(1.5709136528170666, -0.0006033613832627019, -0.0657133231048893)","[0.0246059787705523, 0.006578165785626117, -0.0008917814511892005]","[-0.026750000193715096, 0.05299999937415123, 0.03999999910593033]","[0.0, -0.0, 0.24136824927318953]","[-0.04396026208996773, 0.12291285395622253, 0.03999999910593033]","[0.0, 0.0, -0.2792834526214195]","[0.026750000193715096, 0.05299999937415123, 0.03999999910593033]","[0.0, 0.0, -0.6210145224902514]","[0.0686439573764801, 0.111556775867939, 0.03999999910593033]","[0.0, 0.0, -0.07690916807674741]",0.2395639811686355,-0.43302481878066157,"(0.0, 0.0, 0.0, 0.0, 0.0, 0.0)",-9.209446782198487,-0.5177363845493382,0.6996762681917976,"(0.0, 0.0, 0.0, 0.0, 0.0, 0.0)",-5.136801918764561,-0.6201151625692426,0.21584613570817063,"(0.0, 0.0, 0.0, 0.0, 0.0, 0.0)",8.0107739965331,0.541963574614034,-0.5140273442960068,"(0.0, 0.0, 0.0, 0.0, 0.0, 0.0)",3.5691312480628667,True,"(-0.006218076493195113, 0.1929352666129192, 0.040000502383103674)","(0.9979472989493653, -0.06403855191119599, 0.0005023831036742539)",3.975330516049612e-06,64.63085696514825,True,"(0.057634257340494086, 0.18994481035722466, 0.04273404306234595)","(-0.9992744197513663, 0.038075080628554865, 0.0009603466555976006)",1.1786284506917339e-05,37.42476321553034
41,Move,"(0.0151, 0.0, -0.0107)","(0.0, 0.36363585899451467, 0.0)","(0.025296056976651382, 0.17787958764555226, 0.0009773690062963307)","(1.5706413102131693, -0.00046881481683255457, -0.07645309945614001)","[0.025011113488637403, 0.006594321097195599, -0.0008894085192486709]","[-0.026750000193715096, 0.05299999937415123, 0.03999999910593033]","[0.0, -0.0, 0.22915079577159536]","[-0.04310484230518341, 0.12311789393424988, 0.03999999910593033]","[0.0, 0.0, -0.2744210959672079]","[0.026750000193715096, 0.05299999937415123, 0.03999999910593033]","[0.0, 0.0, -0.6173288895076897]","[0.06842786073684692, 0.11171077936887741, 0.03999999910593033]","[0.0, 0.0, -0.08582389188722461]",0.2267828771188118,-0.5683008696199019,"(0.0, 0.0, 0.0, 0.0, 0.0, 0.0)",-9.908716478887108,-0.5004604500288884,0.7467463699762847,"(0.0, 0.0, 0.0, 0.0, 0.0, 0.0)",-5.476994453861419,-0.6167963007025256,0.12783372977539822,"(0.0, 0.0, 0.0, 0.0, 0.0, 0.0)",8.315592145865287,0.5291919742119243,-0.5551396737956926,"(0.0, 0.0, 0.0, 0.0, 0.0, 0.0)",3.7630264609774784,True,"(-0.00570459179585886, 0.19330780433378747, 0.04000047471613505)","(0.9972300232136394, -0.0743777886597564, 0.00047471613505235984)",1.5252790784018974e-06,69.67725684294076,True,"(0.058117393099419254, 0.19019384814707194, 0.04273404306234595)","(-0.9992744197513663, 0.038075080628554865, 0.0009603466555976006)",6.361431345320183e-06,40.667941007848384
42,Move,"(0.012400000000000001, 0.0, -0.014400000000000001)","(0.0, 0.35800717215683286, 0.0)","(0.025548466673654704, 0.1780404583577182, 0.0009826843322710626)","(1.5707928619814644, -0.00016035282999361054, -0.09935305047531402)","[0.025263523185640725, 0.006755191809361544, -0.000884093193273939]","[-0.026750000193715096, 0.05299999937415123, 0.03999999910593033]","[0.0, -0.0, 0.21707036411304328]","[-0.042256616055965424, 0.12331034988164902, 0.03999999910593033]","[0.0, 0.0, -0.272154600936198]","[0.026750000193715096, 0.05299999937415123, 0.03999999910593033]","[0.0, 0.0, -0.6110695577644184]","[0.06805954873561859, 0.11197050660848618, 0.03999999910593033]","[0.0, 0.0, -0.09018291503939387]",0.21510694460936938,-0.47122439928417953,"(0.0, 0.0, 0.0, 0.0, 0.0, 0.0)",-9.43515732745204,-0.4851653058722937,0.9743153204097349,"(0.0, 0.0, 0.0, 0.0, 0.0, 0.0)",-5.342641496660279,-0.609758005610181,0.3147604450036304,"(0.0, 0.0, 0.0, 0.0, 0.0, 0.0)",10.195840486317616,0.5182447404901044,-0.6340447546592867,"(0.0, 0.0, 0.0, 0.0, 0.0, 0.0)",4.52541502162975,True,"(-0.00501756708894311, 0.19356092200306035, 0.04000018477821879)","(0.9953774532505538, -0.09604005111124869, 0.00018477821878525608)",-1.2064369247891469e-05,67.55342242616268,True,"(0.053939245667749124, 0.1445826983931639, 0.029044106467756417)","(-0.9956987376218945, 0.09264884781117123, -0.00046357030546717175)",-0.0005202289611336229,28.598250143784018
43,Move,"(0.0127, 0.0, -0.014)","(0.0, 0.35240641058718314, 0.0)","(0.025536402742905064, 0.17846300283641484, 0.000987511380856386)","(1.5709193448636618, 4.431210220342333e-05, -0.1148590066805896)","[0.025251459254891084, 0.0071777362880581785, -0.0008792661446886155]","[-0.026750000193715096, 0.05299999937415123, 0.03999999910593033]","[0.0, -0.0, 0.2049495537167012]","[-0.04140327870845795, 0.12349312752485275, 0.03999999910593033]","[0.0, 0.0, -0.26212100263506743]","[0.026750000193715096, 0.05299999937415123, 0.03999999910593033]","[0.0, 0.0, -0.6043854540726272]","[0.06766446679830551, 0.11224530637264252, 0.03999999910593033]","[0.0, 0.0, -0.09813924827377654]",0.20269298001991007,-0.5415814771787298,"(0.0, 0.0, 0.0, 0.0, 0.0, 0.0)",-11.810833035216977,-0.4631604401274829,0.9384281955252769,"(0.0, 0.0, 0.0, 0.0, 0.0, 0.0)",-6.712693015892074,-0.6032606822735231,0.2699456366683388,"(0.0, 0.0, 0.0, 0.0, 0.0, 0.0)",10.339773651225096,0.5036249157173917,-0.6291115534386186,"(0.0, 0.0, 0.0, 0.0, 0.0, 0.0)",4.356346788159798,True,"(-0.004873526579222756, 0.1940879811049555, 0.03999999142996382)","(0.9937227043807216, -0.1118712953568507, -8.570036180860699e-06)",1.0922153404648291e-05,82.47625145761796,True,"(0.05380408134208484, 0.14496880657955472, 0.029044106467756417)","(-0.9956987376218945, 0.09264884781117123, -0.00046357030546717175)",-0.00010835917175010547,38.39015286777535
44,Move,"(0.0112, 0.0, -0.0137)","(0.0, 0.3737849485948616, 0.0)","(0.0256398394595932, 0.1787666707574363, 0.0009889036394267383)","(1.5706914504083926, 0.00031177989889114824, -0.12528717314671448)","[0.025354895971579222, 0.0074814042090796395, -0.0008778738861182633]","[-0.026750000193715096, 0.05299999937415123, 0.03999999910593033]","[0.0, -0.0, 0.19144679557023764]","[-0.04045012220740318, 0.12368455529212952, 0.03999999910593033]","[0.0, 0.0, -0.2524144249917711]","[0.026750000193715096, 0.05299999937415123, 0.03999999910593033]","[0.0, 0.0, -0.5976676198639521]","[0.06726554781198502, 0.11251882463693619, 0.03999999910593033]","[0.0, 0.0, -0.10679075250109585]",0.18897700947812227,-0.5927484715970571,"(0.0, 0.0, 0.0, 0.0, 0.0, 0.0)",-12.768975739950013,-0.4397466544156117,0.9874874757828758,"(0.0, 0.0, 0.0, 0.0, 0.0, 0.0)",-7.2370966937004075,-0.5964326141755381,0.29639917797124726,"(0.0, 0.0, 0.0, 0.0, 0.0, 0.0)",11.15131988759133,0.4881388221742478,-0.6571321897002181,"(0.0, 0.0, 0.0, 0.0, 0.0, 0.0)",4.708709178351643,True,"(-0.004609727934162207, 0.1946093941106151, 0.03999971853597433)","(0.9923465701212969, -0.12348362460869113, -0.000281464025664199)",9.53219098490258e-06,89.04896316799321,True,"(0.05368878274226596, 0.1453610116629389, 0.029044106467756417)","(-0.9956987376218945, 0.09264884781117123, -0.00046357030546717175)",4.8602941947993014e-05,40.55695195622348
45,Move,"(0.012199999999999999, 0.0, -0.0154)","(0.0, 0.35240641058718314, 0.0)","(0.0258300244812529, 0.17901227874712197, 0.0009913768279283953)","(1.5705129268153917, 0.00044960749831255656, -0.13426473736102273)","[0.02554508099323892, 0.007727012198765315, -0.0008754006976166063]","[-0.026750000193715096, 0.05299999937415123, 0.03999999910593033]","[0.0, -0.0, 0.17717363615413106]","[-0.03943986818194389, 0.12387289851903915, 0.03999999910593033]","[0.0, 0.0, -0.24291411332827328]","[0.026750000193715096, 0.05299999937415123, 0.03999999910593033]","[0.0, 0.0, -0.5910971463315282]","[0.06687361001968384, 0.11278374493122101, 0.03999999910593033]","[0.0, 0.0, -0.11583552722397226]",0.17459529093767903,-0.618801378762004,"(0.0, 0.0, 0.0, 0.0, 0.0, 0.0)",-13.038721284332986,-0.4158143662880364,1.0256059251971088,"(0.0, 0.0, 0.0, 0.0, 0.0, 0.0)",-7.405091020078038,-0.589958989063501,0.27315820717617534,"(0.0, 0.0, 0.0, 0.0, 0.0, 0.0)",11.42136026111123,0.4724743278852914,-0.6689518850196177,"(0.0, 0.0, 0.0, 0.0, 0.0, 0.0)",4.7801245748556065,True,"(-0.004277151757097371, 0.1951167865481802, 0.039999576682942954)","(0.9912117297353207, -0.13228426829288112, -0.0004233170570483335)",5.598896073552429e-07,90.72237145268606,True,"(0.053594446562665626, 0.14574738474036328, 0.029044106467756417)","(-0.9956987376218945, 0.09264884781117123, -0.00046357030546717175)",4.618917983776024e-05,43.15869939511024
46,Move,"(0.012199999999999999, 0.0, -0.0154)","(0.0, 0.35240641058718314, 0.0)","(0.02656463527188694, 0.17934388694638484, 0.0009896390602174257)","(1.5703077506091552, 0.00041346779680196137, -0.13399892337333313)","[0.02627969178387296, 0.008058620398028182, -0.0008771384653275759]","[-0.026750000193715096, 0.05299999937415123, 0.03999999910593033]","[0.0, -0.0, 0.16220967165201136]","[-0.038377948105335236, 0.12405484169721603, 0.03999999910593033]","[0.0, 0.0, -0.23820841531218304]","[0.026750000193715096, 0.05299999937415123, 0.03999999910593033]","[0.0, 0.0, -0.5846485471682744]","[0.06648726016283035, 0.1130412369966507, 0.03999999910593033]","[0.0, 0.0, -0.1292156397972971]",0.1595013040629573,-0.6500109549556685,"(0.0, 0.0, 0.0, 0.0, 0.0, 0.0)",-11.8920286041652,-0.39696327070954285,0.8291532109388815,"(0.0, 0.0, 0.0, 0.0, 0.0, 0.0)",-6.094320214741765,-0.5835194642602003,0.2709924797997486,"(0.0, 0.0, 0.0, 0.0, 0.0, 0.0)",11.139206045608944,0.45179194477290846,-0.8738461943047487,"(0.0, 0.0, 0.0, 0.0, 0.0, 0.0)",6.200112722530241,True,"(-0.003551659040127629, 0.19545744351087563, 0.03999957321077417)","(0.9910371338759809, -0.13358599151796485, -0.0004267892258312069)",-6.529744323837475e-05,83.29821216633505,True,"(0.05960219658495872, 0.19198438072257673, 0.04214529756851985)","(-0.9910371338759808, 0.13358599151796538, 0.00042678922584078326)",-0.0008038480982785552,79.05947246225581
47,Move,"(0.0097, 0.0, -0.0157)","(0.0, 0.35240641058718314, 0.0)","(0.02671432713894755, 0.17978808362435555, 0.0009897662797289776)","(1.5702802384283023, 0.000400708546418869, -0.1354773641483654)","[0.02642938365093357, 0.008502817075998897, -0.000877011245816024]","[-0.026750000193715096, 0.05299999937415123, 0.03999999910593033]","[0.0, -0.0, 0.1491405343308243]","[-0.03744835406541824, 0.124200738966465, 0.03999999910593033]","[0.0, 0.0, -0.22958907804743553]","[0.026750000193715096, 0.05299999937415123, 0.03999999910593033]","[0.0, 0.0, -0.5771384257259892]","[0.06603521853685379, 0.11333797872066498, 0.03999999910593033]","[0.0, 0.0, -0.14077386850592014]",0.14702062541891664,-0.5087808015217207,"(0.0, 0.0, 0.0, 0.0, 0.0, 0.0)",-13.593914658376256,-0.3742216365642466,1.0819155804865122,"(0.0, 0.0, 0.0, 0.0, 0.0, 0.0)",-7.496841970091546,-0.5757299132114827,0.33802291754911595,"(0.0, 0.0, 0.0, 0.0, 0.0, 0.0)",12.082910627564084,0.43329827897289935,-0.7358862362398834,"(0.0, 0.0, 0.0, 0.0, 0.0, 0.0)",5.561752823204858,True,"(-0.003240045929109328, 0.19589130524783638, 0.03999961007179548)","(0.9909006099008226, -0.13459505657405443, -0.00038992820452598247)",-6.649886562631214e-05,93.94413158739145,True,"(0.0600630384835867, 0.19235542607846787, 0.04214529756851985)","(-0.9910371338759808, 0.13358599151796538, 0.00042678922584078326)",-0.0006513511801294182,62.79672206102059
48,Move,"(0.010400000000000001, 0.0, -0.016399999999999998)","(0.0, 0.35240641058718314, 0.0)","(0.026754390759336576, 0.1802573437396696, 0.0009943730923735472)","(1.5702684081940463, 0.00024029260423851875, -0.13879011050741075)","[0.026469447271322596, 0.008972077191312933, -0.0008724044331714545]","[-0.026750000193715096, 0.05299999937415123, 0.03999999910593033]","[0.0, -0.0, 0.13630832162642517]","[-0.03653383627533913, 0.12433215975761414, 0.03999999910593033]","[0.0, 0.0, -0.2166755264628857]","[0.026750000193715096, 0.05299999937415123, 0.03999999910593033]","[0.0, 0.0, -0.5699078600687673]","[0.06559791415929794, 0.11362045258283615, 0.03999999910593033]","[0.0, 0.0, -0.1507269268588809]",0.13393105990255846,-0.5705375115469762,"(0.0, 0.0, 0.0, 0.0, 0.0, 0.0)",-13.696220487131257,-0.3484884947962563,1.0788840535180517,"(0.0, 0.0, 0.0, 0.0, 0.0, 0.0)",-7.62380508417368,-0.5686730272990113,0.29633870925151246,"(0.0, 0.0, 0.0, 0.0, 0.0, 0.0)",12.061292778449003,0.41615924340555027,-0.7251883898351403,"(0.0, 0.0, 0.0, 0.0, 0.0, 0.0)",5.352826765147793,True,"(-0.0032562187870625106, 0.1964425192008653, 0.03999970549999862)","(0.9904666406901773, -0.13775248436839266, -0.00029450000137429266)",7.440012309651129e-06,94.29182584768384,True,"(0.06041248399195992, 0.19269342740076412, 0.04214529756851985)","(-0.9910371338759808, 0.13358599151796538, 0.00042678922584078326)",-0.000349823673591998,58.59452198192196
49,Move,"(0.0119, 0.0, -0.015300000000000001)","(0.0, 0.3603214787449774, 0.0)","(0.027060406445536336, 0.18067478810198515, 0.0009826426308765144)","(1.570565085105164, -3.631428481248521e-06, -0.14612796439194495)","[0.026775462957522356, 0.009389521553628488, -0.0008841348946684873]","[-0.026750000193715096, 0.05299999937415123, 0.03999999910593033]","[0.0, -0.0, 0.12123402355717725]","[-0.03545748442411423, 0.12447153031826019, 0.03999999910593033]","[0.0, 0.0, -0.20641550644554316]","[0.026750000193715096, 0.05299999937415123, 0.03999999910593033]","[0.0, 0.0, -0.5645936419839919]","[0.06527522206306458, 0.11382603645324707, 0.03999999910593033]","[0.0, 0.0, -0.1621964747207451]",0.1183946668639668,-0.6814448341719853,"(0.0, 0.0, 0.0, 0.0, 0.0, 0.0)",-13.751613723674074,-0.3229975298772167,1.116478696550735,"(0.0, 0.0, 0.0, 0.0, 0.0, 0.0)",-7.735871705516421,-0.5637843530332193,0.1942294626889068,"(0.0, 0.0, 0.0, 0.0, 0.0, 0.0)",11.826428623997641,0.39949977815032733,-0.6953723627944463,"(0.0, 0.0, 0.0, 0.0, 0.0, 0.0)",4.974949791068603,True,"(-0.0029237357270945827, 0.19690293560551858, 0.0400000791196979)","(0.9895530274164624, -0.14416934372808643, 7.91196978937521e-05)",1.0074040407360962e-05,94.51887443452578,True,"(0.06099704617783526, 0.1929532856982546, 0.04214529756851985)","(-0.9910371338759808, 0.13358599151796538, 0.00042678922584078326)",-0.00010648433883632878,52.852679152766605
50,Move,"(0.0091, 0.0, -0.0166)","(0.0, 0.36363585899451467, 0.0)","(0.027124329688494903, 0.18095582959745093, 0.0009853704326383942)","(1.5706704189843685, 8.972467144814497e-05, -0.154834849607727)","[0.026839386200480923, 0.009670563049094277, -0.0008814070929066074]","[-0.026750000193715096, 0.05299999937415123, 0.03999999910593033]","[0.0, -0.0, 0.10671557857355782]","[-0.034418947994709015, 0.12459041178226471, 0.03999999910593033]","[0.0, 0.0, -0.19541816848547386]","[0.026750000193715096, 0.05299999937415123, 0.03999999910593033]","[0.0, 0.0, -0.558174330790911]","[0.06488397717475891, 0.11407209187746048, 0.03999999910593033]","[0.0, 0.0, -0.17216011266528541]",0.10424719321820804,-0.5924130682626748,"(0.0, 0.0, 0.0, 0.0, 0.0, 0.0)",-13.48232425721617,-0.2977207746028639,1.059115134163295,"(0.0, 0.0, 0.0, 0.0, 0.0, 0.0)",-7.567678344790502,-0.5568493321726974,0.3180070730169592,"(0.0, 0.0, 0.0, 0.0, 0.0, 0.0)",11.651778209252717,0.3831679557116616,-0.6831092532727797,"(0.0, 0.0, 0.0, 0.0, 0.0, 0.0)",4.80715692129694,True,"(-0.0026864678580083012, 0.1973560588446444, 0.03999992832000398)","(0.9883135591516844, -0.15243458813178895, -7.167999602163716e-05)",4.828534926139916e-06,92.42272306124698,True,"(0.061394390219646676, 0.19323803291415598, 0.04214529756851985)","(-0.9910371338759808, 0.13358599151796538, 0.00042678922584078326)",4.264432888494481e-05,47.86908493021387
51,Move,"(0.0103, 0.0, -0.019600000000000003)","(0.0, 0.35240641058718314, 0.0)","(0.027266334715217992, 0.18123406488263843, 0.0009892547267244189)","(1.5708247572997829, 0.0001713189914105853, -0.16539012685809654)","[0.026981391227204013, 0.009948798334281778, -0.0008775227988205828]","[-0.026750000193715096, 0.05299999937415123, 0.03999999910593033]","[0.0, -0.0, 0.09178337316080425]","[-0.03334913030266762, 0.12469694018363953, 0.03999999910593033]","[0.0, 0.0, -0.1845237673656572]","[0.026750000193715096, 0.05299999937415123, 0.03999999910593033]","[0.0, 0.0, -0.55093313968082]","[0.06444074213504791, 0.11434662342071533, 0.03999999910593033]","[0.0, 0.0, -0.18158543000827249]",0.08902754588562652,-0.66139924960021,"(0.0, 0.0, 0.0, 0.0, 0.0, 0.0)",-14.103408398367147,-0.2716296668043219,1.122595147408964,"(0.0, 0.0, 0.0, 0.0, 0.0, 0.0)",-7.910311890694323,-0.5496626447450321,0.30490984454161724,"(0.0, 0.0, 0.0, 0.0, 0.0, 0.0)",12.28218632765882,0.3663134048310349,-0.728218382571034,"(0.0, 0.0, 0.0, 0.0, 0.0, 0.0)",5.077782404349018,True,"(-0.002414505810095842, 0.1977828657936475, 0.03999983945543705)","(0.9866653438232249, -0.16276201499011067, -0.0001605445629505231)",3.842856721299357e-06,96.63223583672928,True,"(0.061697465125843336, 0.1935419409311749, 0.04214529756851985)","(-0.9910371338759808, 0.13358599151796538, 0.00042678922584078326)",4.687788182687178e-05,50.401752157409845
52,Move,"(0.0105, 0.0, -0.0195)","(0.0, 0.35240641058718314, 0.0)","(0.02758408232045485, 0.18151737092407624, 0.0009889757233381453)","(1.5708164499580024, 0.0002697980816888795, -0.17529866184961157)","[0.02729913883244087, 0.010232104375719586, -0.0008778018022068564]","[-0.026750000193715096, 0.05299999937415123, 0.03999999910593033]","[0.0, -0.0, 0.07563640356516307]","[-0.032190628349781036, 0.12479414790868759, 0.03999999910593033]","[0.0, 0.0, -0.17417152037847708]","[0.026750000193715096, 0.05299999937415123, 0.03999999910593033]","[0.0, 0.0, -0.544275846179088]","[0.06403150409460068, 0.1145961806178093, 0.03999999910593033]","[0.0, 0.0, -0.1921335313539734]",0.07299108102555359,-0.6348765652978432,"(0.0, 0.0, 0.0, 0.0, 0.0, 0.0)",-19.864566648688125,-0.24393679742046148,1.4090678557612586,"(0.0, 0.0, 0.0, 0.0, 0.0, 0.0)",-9.503957441629469,-0.543354773003394,0.22103955378188184,"(0.0, 0.0, 0.0, 0.0, 0.0, 0.0)",16.633739384679124,0.34790592364837053,-1.0167095203823837,"(0.0, 0.0, 0.0, 0.0, 0.0, 0.0)",6.525384509413506,True,"(-0.002016247010224355, 0.19818400449100937, 0.039999781963601794)","(0.9856025338788661, -0.16907867302438634, -0.00021803639821000258)",3.519814312239222e-06,90.73323079834138,True,"(0.06212372565457856, 0.19381602949238994, 0.04214529756851985)","(-0.9910371338759808, 0.13358599151796538, 0.00042678922584078326)",4.834102908360758e-05,52.53687529950414
53,Move,"(0.0107, 0.0, -0.0159)","(0.0, 0.28728119487826664, 0.0)","(0.028118894874111743, 0.18172663921042123, 0.0009834093167612648)","(1.5704403234543598, 0.00019225376775393443, -0.17665299654713318)","[0.027833951386097764, 0.010441372662064574, -0.0008833682087837369]","[-0.026750000193715096, 0.05299999937415123, 0.03999999910593033]","[0.0, -0.0, 0.06366176518868967]","[-0.03133055195212364, 0.12485414743423462, 0.03999999910593033]","[0.0, 0.0, -0.16358237384067162]","[0.026750000193715096, 0.05299999937415123, 0.03999999910593033]","[0.0, 0.0, -0.5403001416942148]","[0.0637863278388977, 0.1147439107298851, 0.03999999910593033]","[0.0, 0.0, -0.2065374138394068]",0.06177902512092328,-0.45185732303055015,"(0.0, 0.0, 0.0, 0.0, 0.0, 0.0)",-17.27578695005684,-0.22406170377402207,0.7637828960321718,"(0.0, 0.0, 0.0, 0.0, 0.0, 0.0)",-5.788863176078406,-0.539703349223242,0.14324627965597653,"(0.0, 0.0, 0.0, 0.0, 0.0, 0.0)",15.612245821756083,0.3310130895180738,-0.6599281538865813,"(0.0, 0.0, 0.0, 0.0, 0.0, 0.0)",4.816366440666088,True,"(-0.0019349817283633962, 0.198559405584763, 0.039999781963601794)","(0.9856025338788661, -0.16907867302438634, -0.00021803639821000258)",0.000503098770174203,0.0,True,"(0.06301978232066907, 0.19398301790265587, 0.04214529756851985)","(-0.9910371338759808, 0.13358599151796538, 0.00042678922584078326)",0.00037880771478229877,0.0
54,Move,"(0.0178, 0.0, -0.0152)","(0.0, 0.2032401007362357, 0.0)","(0.02885718579879872, 0.18182117181966706, 0.0009866357434468501)","(1.5702060628763017, 5.987022966106145e-05, -0.17801946438665137)","[0.02857224231078474, 0.010535905271310403, -0.0008801417820981515]","[-0.026750000193715096, 0.05299999937415123, 0.03999999910593033]","[0.0, -0.0, 0.05217441146315611]","[-0.030504854395985603, 0.12490202486515045, 0.03999999910593033]","[0.0, 0.0, -0.1586387904291098]","[0.026750000193715096, 0.05299999937415123, 0.03999999910593033]","[0.0, 0.0, -0.5404249692879579]","[0.06379402428865433, 0.11473929136991501, 0.03999999910593033]","[0.0, 0.0, -0.22066770516840356]",0.05004717534740124,-0.5105380952204296,"(0.0, 0.0, 0.0, 0.0, 0.0, 0.0)",-14.533461823924004,-0.20802396137958504,0.6694219645229221,"(0.0, 0.0, 0.0, 0.0, 0.0, 0.0)",-4.883280232557154,-0.5407624150567476,-0.08100304895138101,"(0.0, 0.0, 0.0, 0.0, 0.0, 0.0)",13.29735781466672,0.31741561251562733,-0.5619854252169819,"(0.0, 0.0, 0.0, 0.0, 0.0, 0.0)",4.1309989919308405,True,"(-0.0014740087128914635, 0.19875169968172934, 0.039999781963601794)","(0.9856025338788661, -0.16907867302438634, -0.00021803639821000258)",0.0007574077891386996,0.0,True,"(0.06414719000121635, 0.19398131989476963, 0.04214529756851985)","(-0.9910371338759808, 0.13358599151796538, 0.00042678922584078326)",0.000806991629936556,0.0
55,Move,"(0.0253, 0.0, -0.0145)","(0.0, 0.038988910160301336, 0.0)","(0.029445448416526354, 0.1818474669709434, 0.000990093989862962)","(1.5701686072111127, 5.0893143576287336e-05, -0.17931904047464212)","[0.029160504928512375, 0.010562200422586737, -0.0008766835356820396]","[-0.026750000193715096, 0.05299999937415123, 0.03999999910593033]","[0.0, -0.0, 0.042923564888736845]","[-0.029839547351002693, 0.12493368238210678, 0.03999999910593033]","[0.0, 0.0, -0.15633095808012598]","[0.026750000193715096, 0.05299999937415123, 0.03999999910593033]","[0.0, 0.0, -0.5437294619083383]","[0.06399784237146378, 0.11461654305458069, 0.03999999910593033]","[0.0, 0.0, -0.233737363777955]",0.04152351794447786,-0.3360122876640725,"(0.0, 0.0, 0.0, 0.0, 0.0, 0.0)",-9.094877455759493,-0.1975601868314593,0.4066410121031565,"(0.0, 0.0, 0.0, 0.0, 0.0, 0.0)",-3.0402461843579642,-0.54444699676638,-0.17221628632714944,"(0.0, 0.0, 0.0, 0.0, 0.0, 0.0)",8.236724336616962,0.30854865807420057,-0.34641438429986754,"(0.0, 0.0, 0.0, 0.0, 0.0, 0.0)",2.5814839253508106,True,"(-0.0009792137251462447, 0.19885016018952006, 0.039999781963601794)","(0.9856025338788661, -0.16907867302438634, -0.00021803639821000258)",0.0009139803168895794,0.0,True,"(0.06538661589848127, 0.19384718661947864, 0.04214529756851985)","(-0.9910371338759808, 0.13358599151796538, 0.00042678922584078326)",0.0014158295528389395,0.0
56,Move,"(0.028100000000000003, 0.0, -0.0162)","(0.0, 0.06450213316595443, 0.0)","(0.030318237655515362, 0.18182406657206293, 0.0009923406542556694)","(1.5700960800128858, 4.65072824231148e-05, -0.1809653083022049)","[0.030033294167501383, 0.010538800023706274, -0.0008744368712893323]","[-0.026750000193715096, 0.05299999937415123, 0.03999999910593033]","[0.0, -0.0, 0.032123592669520355]","[-0.029062500223517418, 0.12496285140514374, 0.03999999910593033]","[0.0, 0.0, -0.1558137074367156]","[0.026750000193715096, 0.05299999937415123, 0.03999999910593033]","[0.0, 0.0, -0.5490079444699107]","[0.0643225684762001, 0.11441906541585922, 0.03999999910593033]","[0.0, 0.0, -0.24869403489878517]",0.0299334957179927,-0.5256231179070103,"(0.0, 0.0, 0.0, 0.0, 0.0, 0.0)",-11.050923159472635,-0.1857584557028412,0.5229206153460477,"(0.0, 0.0, 0.0, 0.0, 0.0, 0.0)",-3.7085064138862243,-0.5500605910565071,-0.2526214845064076,"(0.0, 0.0, 0.0, 0.0, 0.0, 0.0)",10.113178448936285,0.29844143190745764,-0.44941281386549853,"(0.0, 0.0, 0.0, 0.0, 0.0, 0.0)",3.1750285137775,True,"(-0.0002404040999028599, 0.19889424975829956, 0.039999781963601794)","(0.9856025338788661, -0.16907867302438634, -0.00021803639821000258)",0.0010073334585238528,0.0,True,"(0.055054916276819146, 0.14699207953200763, 0.02903693420864382)","(-0.9865356080166358, 0.16354661125792558, -7.829171824830645e-06)",-0.001184971139857468,101.09235835022338
57,Move,"(0.0316, 0.0, -0.0157)","(0.0, 0.0730751904517506, 0.0)","(0.03152311398130197, 0.1817251598772925, 0.0009941838153143933)","(1.5699971018493486, 3.5491048214915245e-05, -0.1830698486345753)","[0.03123817049328799, 0.010439893328935856, -0.0008725937102306083]","[-0.026750000193715096, 0.05299999937415123, 0.03999999910593033]","[0.0, -0.0, 0.017709911605937316]","[-0.02802504599094391, 0.12498871237039566, 0.03999999910593033]","[0.0, 0.0, -0.1575377805223308]","[0.026750000193715096, 0.05299999937415123, 0.03999999910593033]","[0.0, 0.0, -0.5567573006825124]","[0.06479739397764206, 0.1141260638833046, 0.03999999910593033]","[0.0, 0.0, -0.267367232726551]",0.014952269552381527,-0.6618334998787636,"(0.0, 0.0, 0.0, 0.0, 0.0, 0.0)",-11.752249599079224,-0.17294731108303654,0.5520879505712085,"(0.0, 0.0, 0.0, 0.0, 0.0, 0.0)",-3.9490313130242134,-0.5583038878025459,-0.3711758143751616,"(0.0, 0.0, 0.0, 0.0, 0.0, 0.0)",10.824930552192507,0.28739563219536907,-0.4786718801812567,"(0.0, 0.0, 0.0, 0.0, 0.0, 0.0)",3.4127357767643596,True,"(0.0009244698718140418, 0.19887030396120525, 0.039999781963601794)","(0.9856025338788661, -0.16907867302438634, -0.00021803639821000258)",0.0010233352263993656,0.0,True,"(0.05613956236906455, 0.14686644442736502, 0.02903693420864382)","(-0.9865356080166358, 0.16354661125792558, -7.829171824830645e-06)",-0.0011756561385170882,106.94266057509039
58,Move,"(0.0339, 0.0, -0.0157)","(0.0, 0.05170537909033201, 0.0)","(0.03272631023980961, 0.18161248841233105, 0.0009997697738581652)","(1.5700742041176459, 7.370982039200324e-05, -0.1852147409901782)","[0.03244136675179563, 0.01032722186397439, -0.0008670077516868364]","[-0.026750000193715096, 0.05299999937415123, 0.03999999910593033]","[0.0, -0.0, 0.0024774857256946877]","[-0.026928378269076347, 0.12499977648258209, 0.03999999910593033]","[0.0, 0.0, -0.1599081150483984]","[0.026750000193715096, 0.05299999937415123, 0.03999999910593033]","[0.0, 0.0, -0.5655688603623984]","[0.06533452123403549, 0.11378844082355499, 0.03999999910593033]","[0.0, 0.0, -0.28709912748259336]",-0.00020441930518329742,-0.6436571718965248,"(0.0, 0.0, 0.0, 0.0, 0.0, 0.0)",-11.894790959572457,-0.16005731782791308,0.5587899731600057,"(0.0, 0.0, 0.0, 0.0, 0.0, 0.0)",-3.9925009826081315,-0.5671530823765326,-0.38023101320809904,"(0.0, 0.0, 0.0, 0.0, 0.0, 0.0)",10.829551964433655,0.27654032577651866,-0.4630406099765075,"(0.0, 0.0, 0.0, 0.0, 0.0, 0.0)",3.3513666479272,True,"(0.0021961820420373576, 0.19881254563857192, 0.039999781963601794)","(0.9856025338788661, -0.16907867302438634, -0.00021803639821000258)",0.0010061578157754968,0.0,True,"(0.057003776041800194, 0.14560748495180392, 0.029032389257150785)","(-0.9613624525049581, 0.2752857285445516, -5.072817418624505e-05)",-0.001272643313527535,110.9838609592685
59,Move,"(0.032299999999999995, 0.0, -0.0169)","(0.0, 0.06893701479527203, 0.0)","(0.033745832588055205, 0.18154643201748097, 0.0010057176943357902)","(1.5701752156207063, 0.00012239206906742477, -0.18706672726418896)","[0.033460889100041226, 0.010261165469124311, -0.0008610598312092114]","[-0.026750000193715096, 0.05299999937415123, 0.03999999910593033]","[0.0, 0.0, -0.011561726124867312]","[-0.025917574763298035, 0.12499518692493439, 0.03999999910593033]","[0.0, 0.0, -0.16035185050513687]","[0.026750000193715096, 0.05299999937415123, 0.03999999910593033]","[0.0, 0.0, -0.5727033516263956]","[0.06576723605394363, 0.11351161450147629, 0.03999999910593033]","[0.0, 0.0, -0.30559033008050585]",-0.013968035556229953,-0.5775142942726406,"(0.0, 0.0, 0.0, 0.0, 0.0, 0.0)",-12.652960789467452,-0.14632358645917282,0.5919672502575868,"(0.0, 0.0, 0.0, 0.0, 0.0, 0.0)",-4.238548922288686,-0.5738121380286598,-0.2661091580718208,"(0.0, 0.0, 0.0, 0.0, 0.0, 0.0)",11.456907213386515,0.2650360005407863,-0.49848607508618875,"(0.0, 0.0, 0.0, 0.0, 0.0, 0.0)",3.57384577337805,True,"(0.0032397357955705197, 0.19879502402855156, 0.039999781963601794)","(0.9856025338788661, -0.16907867302438634, -0.00021803639821000258)",0.0010498455836179309,0.0,True,"(0.058026252270077655, 0.14547925343915177, 0.029032389257150785)","(-0.9613624525049581, 0.2752857285445516, -5.072817418624505e-05)",-0.0012353584227395625,117.56920643891887
60,Move,"(0.0356, 0.0, -0.0182)","(0.0, 0.07341029366813348, 0.0)","(0.03495683239585599, 0.1814339979094701, 0.0010105435196629655)","(1.5702386829215385, 0.0001743201149002155, -0.18915955727240355)","[0.03467188890784201, 0.010148731361113439, -0.0008562340058820362]","[-0.026750000193715096, 0.05299999937415123, 0.03999999910593033]","[0.0, 0.0, -0.02697184196030878]","[-0.024808263406157494, 0.12497381120920181, 0.03999999910593033]","[0.0, 0.0, -0.16092789690491624]","[0.026750000193715096, 0.05299999937415123, 0.03999999910593033]","[0.0, 0.0, -0.5800829983340892]","[0.0662127211689949, 0.11322204023599625, 0.03999999910593033]","[0.0, 0.0, -0.325469332438108]",-0.029888275863285994,-0.6999447260644229,"(0.0, 0.0, 0.0, 0.0, 0.0, 0.0)",-13.922627636453665,-0.13123114980001105,0.6539776062848358,"(0.0, 0.0, 0.0, 0.0, 0.0, 0.0)",-4.667387901533449,-0.5815000002680545,-0.34009246292705614,"(0.0, 0.0, 0.0, 0.0, 0.0, 0.0)",12.65913254250727,0.2523051971202576,-0.5540165953978078,"(0.0, 0.0, 0.0, 0.0, 0.0, 0.0)",3.9689744430704734,True,"(0.0043915548662896604, 0.19875684011486372, 0.039999781963601794)","(0.9856025338788661, -0.16907867302438634, -0.00021803639821000258)",0.0010987236354854163,0.0,True,"(0.05910871033770437, 0.14533723367830143, 0.029032389257150785)","(-0.9613624525049581, 0.2752857285445516, -5.072817418624505e-05)",-0.001246993596289465,129.73197473634144
61,Move,"(0.0365, 0.0, -0.0183)","(0.0, 0.07754497866610804, 0.0)","(0.03619502578269671, 0.18130403990596516, 0.0010141336723596055)","(1.5702643771218245, 0.00022660797122090904, -0.19123930312649534)","[0.03591008229468273, 0.010018773357608507, -0.0008526438531853962]","[-0.026750000193715096, 0.05299999937415123, 0.03999999910593033]","[0.0, 0.0, -0.04330052736175492]","[-0.023633336648344994, 0.12493251264095306, 0.03999999910593033]","[0.0, 0.0, -0.16168555023084036]","[0.026750000193715096, 0.05299999937415123, 0.03999999910593033]","[0.0, 0.0, -0.5878120611261943]","[0.06667700409889221, 0.11291522532701492, 0.03999999910593033]","[0.0, 0.0, -0.3464145958101811]",-0.046203296434253124,-0.6966648146753508,"(0.0, 0.0, 0.0, 0.0, 0.0, 0.0)",-14.327572841772392,-0.11559292057548957,0.6701022411876879,"(0.0, 0.0, 0.0, 0.0, 0.0, 0.0)",-4.798482274936489,-0.5891657498984567,-0.324869606868199,"(0.0, 0.0, 0.0, 0.0, 0.0, 0.0)",13.011273770781184,0.23901445746840366,-0.5719390513653584,"(0.0, 0.0, 0.0, 0.0, 0.0, 0.0)",4.1079551417592155,True,"(0.0056223744873707855, 0.19869339644594175, 0.039999781963601794)","(0.9856025338788661, -0.16907867302438634, -0.00021803639821000258)",0.0011475123748472499,0.0,True,"(0.06024716336978134, 0.14517216353054294, 0.029032389257150785)","(-0.9613624525049581, 0.2752857285445516, -5.072817418624505e-05)",-0.0012786708998230381,133.30625185876607
62,Move,"(0.037899999999999996, 0.0, -0.0187)","(0.0, 0.1033252370473163, 0.0)","(0.037568234800618924, 0.1811386911413743, 0.0010164345313318488)","(1.5702474183612347, 0.00028212957987475026, -0.19343619060254438)","[0.037283291312604945, 0.009853424593017635, -0.0008503429942131528]","[-0.026750000193715096, 0.05299999937415123, 0.03999999910593033]","[0.0, 0.0, -0.06101205262659973]","[-0.022359857335686684, 0.12486603111028671, 0.03999999910593033]","[0.0, 0.0, -0.16244203462396514]","[0.026750000193715096, 0.05299999937415123, 0.03999999910593033]","[0.0, 0.0, -0.595867193173097]","[0.06715832650661469, 0.11259166896343231, 0.03999999910593033]","[0.0, 0.0, -0.3689631901967299]",-0.06429435227970012,-0.7877511989100341,"(0.0, 0.0, 0.0, 0.0, 0.0, 0.0)",-15.949540335325189,-0.09830320066297558,0.7504268323152149,"(0.0, 0.0, 0.0, 0.0, 0.0, 0.0)",-5.341332604164354,-0.5973402486753173,-0.35353380586991323,"(0.0, 0.0, 0.0, 0.0, 0.0, 0.0)",14.503623679377663,0.22421601809550273,-0.6451175823370032,"(0.0, 0.0, 0.0, 0.0, 0.0, 0.0)",4.607752570008512,True,"(0.006951645222458391, 0.19860476328654175, 0.039999781963601794)","(0.9856025338788661, -0.16907867302438634, -0.00021803639821000258)",0.0012021701688655147,0.0,True,"(0.06145740529795198, 0.1449853802075153, 0.029032389257150785)","(-0.9613624525049581, 0.2752857285445516, -5.072817418624505e-05)",-0.0013395790123006505,148.51014161896404
63,Move,"(0.0385, 0.0, -0.0193)","(0.0, 0.07341029366813348, 0.0)","(0.038735103179627695, 0.18100548063064767, 0.0010184670885349132)","(1.570233056076437, 0.00033389701081328456, -0.19529660810039579)","[0.038450159691613715, 0.009720214082291012, -0.0008483104370100884]","[-0.026750000193715096, 0.05299999937415123, 0.03999999910593033]","[0.0, 0.0, -0.07746011514024599]","[-0.02117844857275486, 0.12478410452604294, 0.03999999910593033]","[0.0, 0.0, -0.1621437085004044]","[0.026750000193715096, 0.05299999937415123, 0.03999999910593033]","[0.0, 0.0, -0.6028817559158972]","[0.06757532805204391, 0.11230676621198654, 0.03999999910593033]","[0.0, 0.0, -0.390404597984068]",-0.0802077852384071,-0.6594429176583155,"(0.0, 0.0, 0.0, 0.0, 0.0, 0.0)",-14.997514861012345,-0.08177757596529892,0.6974466295679073,"(0.0, 0.0, 0.0, 0.0, 0.0, 0.0)",-5.013340342803913,-0.6040147770578949,-0.27194249978852664,"(0.0, 0.0, 0.0, 0.0, 0.0, 0.0)",13.566985298013844,0.20996123752231996,-0.6038170069308678,"(0.0, 0.0, 0.0, 0.0, 0.0, 0.0)",4.343876241372683,True,"(0.008111054849835524, 0.1985315772695768, 0.039999781963601794)","(0.9856025338788661, -0.16907867302438634, -0.00021803639821000258)",0.0012956051419510124,0.0,True,"(0.06257023536259679, 0.14481525275385942, 0.029032389257150785)","(-0.9613624525049581, 0.2752857285445516, -5.072817418624505e-05)",-0.0013781622488868767,138.96451414083882
64,Move,"(0.0345, 0.0, -0.0176)","(0.0, 0.03446676206838401, 0.0)","(0.03929620859266922, 0.18100549296613486, 0.0010199387544021859)","(1.5702247574940467, 0.00037413285340462957, -0.19633717879608562)","[0.03901126510465524, 0.0097202264177782, -0.0008468387711428158]","[-0.026750000193715096, 0.05299999937415123, 0.03999999910593033]","[0.0, 0.0, -0.08800382241461151]","[-0.02042189985513687, 0.12472137063741684, 0.03999999910593033]","[0.0, 0.0, -0.1587474410957825]","[0.026750000193715096, 0.05299999937415123, 0.03999999910593033]","[0.0, 0.0, -0.6061315947356534]","[0.06776785105466843, 0.11217378079891205, 0.03999999910593033]","[0.0, 0.0, -0.4057618467822786]",-0.08943513492475291,-0.3435142453447538,"(0.0, 0.0, 0.0, 0.0, 0.0, 0.0)",-11.916896143041704,-0.06846959616502074,0.5457638255623989,"(0.0, 0.0, 0.0, 0.0, 0.0, 0.0)",-3.9686598275261025,-0.6064273106057473,-0.07099422369775592,"(0.0, 0.0, 0.0, 0.0, 0.0, 0.0)",10.62009145443278,0.19838753570166287,-0.4757107229189155,"(0.0, 0.0, 0.0, 0.0, 0.0, 0.0)",3.4280771090117037,True,"(0.008616967644631789, 0.1985678930044636, 0.039999781963601794)","(0.9856025338788661, -0.16907867302438634, -0.00021803639821000258)",0.001494594590373424,0.0,True,"(0.06326256868494778, 0.14475529319027078, 0.029032389257150785)","(-0.9613624525049581, 0.2752857285445516, -5.072817418624505e-05)",-0.0013249281127960277,108.98441832466487
65,Move,"(0.0354, 0.0, -0.0174)","(0.0, 0.0647621872245016, 0.0)","(0.039994840112463875, 0.18096745489410906, 0.0010212523696649838)","(1.570226096494623, 0.0004146330822124821, -0.197504073309095)","[0.039709896624449896, 0.009682188345752407, -0.0008455251558800178]","[-0.026750000193715096, 0.05299999937415123, 0.03999999910593033]","[0.0, 0.0, -0.09820736136250793]","[-0.019690431654453278, 0.12465307116508484, 0.03999999910593033]","[0.0, 0.0, -0.15508216607898986]","[0.026750000193715096, 0.05299999937415123, 0.03999999910593033]","[0.0, 0.0, -0.6089670582249761]","[0.06793547421693802, 0.11205723136663437, 0.03999999910593033]","[0.0, 0.0, -0.4206671535450011]",-0.10022045480523645,-0.4831439593162056,"(0.0, 0.0, 0.0, 0.0, 0.0, 0.0)",-13.093469612281453,-0.0543019227947347,0.617492183332851,"(0.0, 0.0, 0.0, 0.0, 0.0, 0.0)",-4.374044023168144,-0.6095797318275439,-0.14705958855650725,"(0.0, 0.0, 0.0, 0.0, 0.0, 0.0)",11.744910198073997,0.1860531632949777,-0.5391925481234042,"(0.0, 0.0, 0.0, 0.0, 0.0, 0.0)",3.798815646633697,True,"(0.009077574338682334, 0.19860553086145777, 0.039999781963601794)","(0.9856025338788661, -0.16907867302438634, -0.00021803639821000258)",0.00170366107617109,0.0,True,"(0.06391631103993273, 0.14470228115104866, 0.029032389257150785)","(-0.9613624525049581, 0.2752857285445516, -5.072817418624505e-05)",-0.0012798335039135049,120.28876273904709
66,Move,"(0.0352, 0.0, -0.0188)","(0.0, 0.09068730793362537, 0.0)","(0.040747981745633134, 0.18092635863640896, 0.0010224583151320682)","(1.5702311958340727, 0.00045336901429002176, -0.19863610082896402)","[0.040463038257619155, 0.009641092088052305, -0.0008443192104129334]","[-0.026750000193715096, 0.05299999937415123, 0.03999999910593033]","[0.0, 0.0, -0.10992018692304399]","[-0.01885167509317398, 0.12456546723842621, 0.03999999910593033]","[0.0, 0.0, -0.15133124210574458]","[0.026750000193715096, 0.05299999937415123, 0.03999999910593033]","[0.0, 0.0, -0.6118367984217967]","[0.06810478866100311, 0.11193879693746567, 0.03999999910593033]","[0.0, 0.0, -0.43705573837208994]",-0.11204230722836536,-0.5093105504188338,"(0.0, 0.0, 0.0, 0.0, 0.0, 0.0)",-14.463446583602703,-0.03856312294114023,0.6835048967841996,"(0.0, 0.0, 0.0, 0.0, 0.0, 0.0)",-4.8375872408197615,-0.6122966745160631,-0.11036455403863528,"(0.0, 0.0, 0.0, 0.0, 0.0, 0.0)",12.977295490225162,0.17228066514157617,-0.60011125173421,"(0.0, 0.0, 0.0, 0.0, 0.0, 0.0)",4.211813962803779,True,"(0.00326603931556068, 0.15683609887199396, 0.029060116393545433)","(0.9885714367047335, -0.15075241799030076, -0.0004722304700234487)",-8.241930654236376e-05,135.0582010120262,True,"(0.06462114536337452, 0.1446453237055491, 0.029032389257150785)","(-0.9613624525049581, 0.2752857285445516, -5.072817418624505e-05)",-0.0012892675505231565,132.83966763868185
67,Move,"(0.04, 0.0, -0.020100000000000003)","(0.0, 0.1033252370473163, 0.0)","(0.04187643141412133, 0.18077455145604857, 0.0010235273248086875)","(1.5702550329926814, 0.0005027659996248552, -0.2002932902568424)","[0.041591487926107354, 0.009489284907691908, -0.0008432502007363141]","[-0.026750000193715096, 0.05299999937415123, 0.03999999910593033]","[0.0, 0.0, -0.1250736557646069]","[-0.01776815764605999, 0.12443757057189941, 0.03999999910593033]","[0.0, 0.0, -0.14897532727690127]","[0.026750000193715096, 0.05299999937415123, 0.03999999910593033]","[0.0, 0.0, -0.6166332177670152]","[0.0683870017528534, 0.11173976212739944, 0.03999999910593033]","[0.0, 0.0, -0.4572945813862911]",-0.12806579211891655,-0.7181124142891582,"(0.0, 0.0, 0.0, 0.0, 0.0, 0.0)",-16.427062052300613,-0.020643843216562534,0.7818799557579649,"(0.0, 0.0, 0.0, 0.0, 0.0, 0.0)",-5.509539690676783,-0.617687930518411,-0.25313285327309615,"(0.0, 0.0, 0.0, 0.0, 0.0, 0.0)",14.850558937085555,0.156448605286425,-0.6936187650601527,"(0.0, 0.0, 0.0, 0.0, 0.0, 0.0)",4.831044608715269,True,"(0.004273854534050048, 0.1567627876645034, 0.029060077407007227)","(0.9889238564249414, -0.1484228222940898, -0.0005215514153863112)",-7.726712513587014e-05,153.32434322299676,True,"(0.06556597215580752, 0.14451009469608198, 0.029032389257150785)","(-0.9613624525049581, 0.2752857285445516, -5.072817418624505e-05)",-0.0013451855322042928,150.99505579169406
68,Move,"(0.0354, 0.0, -0.0195)","(0.0, 0.06032381493668001, 0.0)","(0.04236520228164174, 0.18079391008904327, 0.0010238475125884648)","(1.5702412407164799, 0.0005226450467541514, -0.20105311879338303)","[0.04208025879362776, 0.009508643540686618, -0.0008429300129565369]","[-0.026750000193715096, 0.05299999937415123, 0.03999999910593033]","[0.0, 0.0, -0.13585022214511522]","[-0.016998842358589172, 0.12433663010597229, 0.03999999910593033]","[0.0, 0.0, -0.14403035469197775]","[0.026750000193715096, 0.05299999937415123, 0.03999999910593033]","[0.0, 0.0, -0.6184529435259201]","[0.06849382072687149, 0.11166390031576157, 0.03999999910593033]","[0.0, 0.0, -0.4730006361463378]",-0.13721909836324664,-0.3285341814271641,"(0.0, 0.0, 0.0, 0.0, 0.0, 0.0)",-13.352313818453279,-0.005603931043595981,0.6182935830781127,"(0.0, 0.0, 0.0, 0.0, 0.0, 0.0)",-4.462392025509692,-0.6184042105044565,0.01168217139108059,"(0.0, 0.0, 0.0, 0.0, 0.0, 0.0)",11.865986994968841,0.14318110453789684,-0.5450705129177172,"(0.0, 0.0, 0.0, 0.0, 0.0, 0.0)",3.88712415685081,True,"(0.0048832603705807436, 0.15677188376418605, 0.029060053864159247)","(0.9896457105505477, -0.1435307080247172, -0.0005508564464198486)",-7.039547619939935e-05,124.20169678346203,True,"(0.06618781226947915, 0.14447449544219626, 0.029032389257150785)","(-0.9613624525049581, 0.2752857285445516, -5.072817418624505e-05)",-0.0013318320142666573,120.12972257671433
69,Move,"(0.038, 0.0, -0.0198)","(0.0, 0.03875852669903807, 0.0)","(0.0428442581596699, 0.18080154101052845, 0.001024169483386051)","(1.570239433677868, 0.0005340786058037615, -0.20176800995388408)","[0.04255931467165592, 0.009516274462171792, -0.0008426080421589507]","[-0.026750000193715096, 0.05299999937415123, 0.03999999910593033]","[0.0, 0.0, -0.14443007764618182]","[-0.016387151554226875, 0.12425034493207932, 0.03999999910593033]","[0.0, 0.0, -0.13828781845462906]","[0.026750000193715096, 0.05299999937415123, 0.03999999910593033]","[0.0, 0.0, -0.6192159743834004]","[0.06853857636451721, 0.11163202673196793, 0.03999999910593033]","[0.0, 0.0, -0.4863671724424648]",-0.14603789225502106,-0.3858768099577302,"(0.0, 0.0, 0.0, 0.0, 0.0, 0.0)",-12.932555115531288,0.00868795657064135,0.6109698762564265,"(0.0, 0.0, 0.0, 0.0, 0.0, 0.0)",-4.331570147688332,-0.6194467458458222,-0.05538382366345831,"(0.0, 0.0, 0.0, 0.0, 0.0, 0.0)",11.51268515001423,0.13060647610825404,-0.538170210840314,"(0.0, 0.0, 0.0, 0.0, 0.0, 0.0)",3.781302055123161,True,"(0.005308442409687735, 0.15681150999825721, 0.029060041118278136)","(0.9904536187123083, -0.13784523184186337, -0.0005667787542776658)",-6.005444874641197e-05,120.23386934754987,True,"(0.06667132103191885, 0.14447051524563959, 0.029032389257150785)","(-0.9613624525049581, 0.2752857285445516, -5.072817418624505e-05)",-0.0012765448061517021,115.83452636346574
70,Move,"(0.0378, 0.0, -0.02)","(0.0, 0.04723384554672254, 0.0)","(0.04332726402490792, 0.18080443321414008, 0.001024301145194779)","(1.5702419257385711, 0.000537680392553186, -0.2024239826155999)","[0.04304232053689394, 0.009519166665783424, -0.0008424763803502227]","[-0.026750000193715096, 0.05299999937415123, 0.03999999910593033]","[0.0, 0.0, -0.15339193439485918]","[-0.015749039128422737, 0.12415461242198944, 0.03999999910593033]","[0.0, 0.0, -0.13282966983782282]","[0.026750000193715096, 0.05299999937415123, 0.03999999910593033]","[0.0, 0.0, -0.6201858461140475]","[0.06859541684389114, 0.11159147322177887, 0.03999999910593033]","[0.0, 0.0, -0.5000527174129852]",-0.15498055973472843,-0.38126955804630597,"(0.0, 0.0, 0.0, 0.0, 0.0, 0.0)",-13.085031884048737,0.023148927294608705,0.6208007911781621,"(0.0, 0.0, 0.0, 0.0, 0.0, 0.0)",-4.388615734732262,-0.620329177314483,-0.03440506840106488,"(0.0, 0.0, 0.0, 0.0, 0.0, 0.0)",11.637352396351035,0.11784688554929554,-0.5486991220038168,"(0.0, 0.0, 0.0, 0.0, 0.0, 0.0)",3.8316873315522315,True,"(0.005768570164054913, 0.15683417846248765, 0.029060034969588634)","(0.9911912403849605, -0.13243713447856065, -0.0005748001659895409)",-4.96863066806219e-05,121.47912820128083,True,"(0.06717773922321413, 0.14445243776793884, 0.029032389257150785)","(-0.9613624525049581, 0.2752857285445516, -5.072817418624505e-05)",-0.0012335422843661192,116.52525296768735
71,Move,"(0.038, 0.0, -0.0198)","(0.0, 0.03875852669903807, 0.0)","(0.043755575051560185, 0.18081512552849202, 0.001024093044302387)","(1.5702437300224352, 0.0005361801514829535, -0.2029760541317453)","[0.043470631563546205, 0.009529858980135364, -0.0008426844812426146]","[-0.026750000193715096, 0.05299999937415123, 0.03999999910593033]","[0.0, 0.0, -0.16181979202916955]","[-0.015149756334722042, 0.12405937165021896, 0.03999999910593033]","[0.0, 0.0, -0.12719630525115294]","[0.026750000193715096, 0.05299999937415123, 0.03999999910593033]","[0.0, 0.0, -0.6207790335179991]","[0.0686301738023758, 0.11156664043664932, 0.03999999910593033]","[0.0, 0.0, -0.513054820152884]",-0.1632745087408128,-0.3491301663280438,"(0.0, 0.0, 0.0, 0.0, 0.0, 0.0)",-12.514371197276184,0.037093035509855744,0.5926889074824278,"(0.0, 0.0, 0.0, 0.0, 0.0, 0.0)",-4.201047181323396,-0.6208659130559565,-0.02083680636113088,"(0.0, 0.0, 0.0, 0.0, 0.0, 0.0)",11.101630697613814,0.10554289241491002,-0.5235180030892478,"(0.0, 0.0, 0.0, 0.0, 0.0, 0.0)",3.6646604465526282,True,"(0.00618347486057691, 0.15686008878163255, 0.029060034206599587)","(0.9919215770369093, -0.1268512973568375, -0.0005773798556397919)",-3.9848912860463085e-05,116.04036646990214,True,"(0.06763986454193953, 0.14444325660006105, 0.029032389257150785)","(-0.9613624525049581, 0.2752857285445516, -5.072817418624505e-05)",-0.001190102985104296,110.57495895881011
72,Move,"(0.038200000000000005, 0.0, -0.0202)","(0.0, 0.03875852669903807, 0.0)","(0.0441550667473355, 0.18083060720392885, 0.0010237127222702152)","(1.5702504188473374, 0.0005289671321465943, -0.20344026396163098)","[0.04387012325932152, 0.009545340655572193, -0.0008430648032747865]","[-0.026750000193715096, 0.05299999937415123, 0.03999999910593033]","[0.0, 0.0, -0.16988088702791798]","[-0.014577324502170086, 0.12396355718374252, 0.03999999910593033]","[0.0, 0.0, -0.12139563962385504]","[0.026750000193715096, 0.05299999937415123, 0.03999999910593033]","[0.0, 0.0, -0.6210442489500619]","[0.06864570081233978, 0.11155553162097931, 0.03999999910593033]","[0.0, 0.0, -0.5255651798464085]",-0.1713054566061306,-0.34189865778906803,"(0.0, 0.0, 0.0, 0.0, 0.0, 0.0)",-12.472452159680682,0.05096027873571318,0.5940100815128428,"(0.0, 0.0, 0.0, 0.0, 0.0, 0.0)",-4.192839021020043,-0.6210715750386177,-0.006561881555710608,"(0.0, 0.0, 0.0, 0.0, 0.0, 0.0)",11.052639545800686,0.09328929636687748,-0.5255315119611335,"(0.0, 0.0, 0.0, 0.0, 0.0, 0.0)",3.655616386174847,True,"(0.006565331103416278, 0.1568878561398718, 0.029060039217242904)","(0.9926407064960842, -0.12109541033193899, -0.0005739368383354241)",-3.05551103627467e-05,115.50450924090383,True,"(0.06806675615772619, 0.14444196647224983, 0.029032389257150785)","(-0.9613624525049581, 0.2752857285445516, -5.072817418624505e-05)",-0.0011493665005683103,109.55731202973826
73,Move,"(0.035, 0.0, -0.0205)","(0.0, 0.05170537909033201, 0.0)","(0.0443178921004756, 0.18092858129629802, 0.001023133027226237)","(1.5702503364966844, 0.0005112184184125971, -0.20355818147887667)","[0.04403294861246162, 0.009643314747941362, -0.0008436444983187647]","[-0.026750000193715096, 0.05299999937415123, 0.03999999910593033]","[0.0, 0.0, -0.1761347724016384]","[-0.014133766293525696, 0.12388604134321213, 0.03999999910593033]","[0.0, 0.0, -0.1139699572515169]","[0.026750000193715096, 0.05299999937415123, 0.03999999910593033]","[0.0, 0.0, -0.6193525649224182]","[0.06854657828807831, 0.11162632703781128, 0.03999999910593033]","[0.0, 0.0, -0.5359997770997359]",-0.17708856496302647,-0.22891072417357874,"(0.0, 0.0, 0.0, 0.0, 0.0, 0.0)",-12.24185255909505,0.06458934570172434,0.5818851958748025,"(0.0, 0.0, 0.0, 0.0, 0.0, 0.0)",-4.1213612669346995,-0.6188838596052484,0.11247946646607503,"(0.0, 0.0, 0.0, 0.0, 0.0, 0.0)",10.865696685927032,0.08120075869838157,-0.5164780317100341,"(0.0, 0.0, 0.0, 0.0, 0.0, 0.0)",3.5732066441675134,True,"(0.006764102148328385, 0.15696887939193654, 0.029060060818335832)","(0.9935125497940502, -0.11372113879918576, -0.0005621316049088379)",-2.2846136382168858e-05,112.98710062510732,True,"(0.06831081774526246, 0.14451700860711741, 0.029032389257150785)","(-0.9613624525049581, 0.2752857285445516, -5.072817418624505e-05)",-0.0011114861040963262,107.01435653670981
74,Move,"(0.039299999999999995, 0.0, -0.0219)","(0.0, 0.05592383989240231, 0.0)","(0.04478770958656179, 0.18092224577468305, 0.0010222444907124308)","(1.5702715556256868, 0.0004918286456283163, -0.20403270181361774)","[0.04450276609854781, 0.009636979226326392, -0.0008445330348325708]","[-0.026750000193715096, 0.05299999937415123, 0.03999999910593033]","[0.0, 0.0, -0.18442502198531793]","[-0.013546544127166271, 0.12377901375293732, 0.03999999910593033]","[0.0, 0.0, -0.10755452642818975]","[0.026750000193715096, 0.05299999937415123, 0.03999999910593033]","[0.0, 0.0, -0.6189336376132123]","[0.06852202117443085, 0.11164382845163345, 0.03999999910593033]","[0.0, 0.0, -0.5486194850980893]",-0.18616756852349053,-0.4182113408890012,"(0.0, 0.0, 0.0, 0.0, 0.0, 0.0)",-13.5256305168222,0.07959298151067448,0.6533964626668164,"(0.0, 0.0, 0.0, 0.0, 0.0, 0.0)",-4.568759709353809,-0.6190604839914975,-0.030442386547109658,"(0.0, 0.0, 0.0, 0.0, 0.0, 0.0)",12.029847420869132,0.06790022542397924,-0.5793259484276744,"(0.0, 0.0, 0.0, 0.0, 0.0, 0.0)",3.9855498092657835,True,"(0.007138856723299962, 0.1569970988783628, 0.029060085909431807)","(0.9942216707302441, -0.10734511165259158, -0.0005444764958451766)",-1.2953006340617948e-05,124.90431961101099,True,"(0.06870133757526316, 0.14453486752614067, 0.029032389257150785)","(-0.9613624525049581, 0.2752857285445516, -5.072817418624505e-05)",-0.0011039902701689259,118.00781360689875
