OSUrobotics/InHand-Manipulation/AnalyseData/Data/Trial Data/Better/new_hand_human_sub1_2v2_h_n_1_kpNone_kdNone_dp1_step1_save_data.csv
,Phase,human_cube_pos,human_cube_orn,Cube_Pos,Cube_Orn,Cube_pos_in_start_pos,b'l_prox_pin'_link_pos,b'l_prox_pin'_link_orn,b'l_distal_pin'_link_pos,b'l_distal_pin'_link_orn,b'r_prox_pin'_link_pos,b'r_prox_pin'_link_orn,b'r_distal_pin'_link_pos,b'r_distal_pin'_link_orn,b'l_prox_pin'_joint_angle,b'l_prox_pin'_joint_vel,b'l_prox_pin'_joint_react_forces,b'l_prox_pin'_joint_motor_torque,b'l_distal_pin'_joint_angle,b'l_distal_pin'_joint_vel,b'l_distal_pin'_joint_react_forces,b'l_distal_pin'_joint_motor_torque,b'r_prox_pin'_joint_angle,b'r_prox_pin'_joint_vel,b'r_prox_pin'_joint_react_forces,b'r_prox_pin'_joint_motor_torque,b'r_distal_pin'_joint_angle,b'r_distal_pin'_joint_vel,b'r_distal_pin'_joint_react_forces,b'r_distal_pin'_joint_motor_torque,in_contact_l,contact_point_l_dist,contact_normal_l_dist,contact_distance_l_dist,contact_norm_force_l_dist,in_contact_r,contact_point_r_dist,contact_normal_r_dist,contact_distance_r_dist,contact_norm_force_r_dist
0,Open,,,,,,"[-0.026750000193715096, 0.05299999937415123, 0.03999999910593033]","[0.0, -0.0, 0.0]","[-0.026750000193715096, 0.125, 0.03999999910593033]","[0.0, -0.0, 0.0]","[0.026750000193715096, 0.05299999937415123, 0.03999999910593033]","[0.0, -0.0, 0.0]","[0.026750000193715096, 0.125, 0.03999999910593033]","[0.0, -0.0, 0.0]",0.0028636982559538428,0.6872875814289223,"(0.0, 0.0, 0.0, 0.0, 0.0, 0.0)",-74.42376671286476,0.025717978913313098,6.172314939195144,"(0.0, 0.0, 0.0, 0.0, 0.0, 0.0)",-28.347758017338414,-0.0028861714462846827,-0.6926811471083238,"(0.0, 0.0, 0.0, 0.0, 0.0, 0.0)",77.31812537484876,-0.025998027583603027,-6.239526620064726,"(0.0, 0.0, 0.0, 0.0, 0.0, 0.0)",29.325432325549183,False,,,,,False,,,,
1,Open,,,,,,"[-0.026750000193715096, 0.05299999937415123, 0.03999999910593033]","[0.0, -0.0, 0.0028636982488144678]","[-0.026956185698509216, 0.12499970197677612, 0.03999999910593033]","[0.0, -0.0, 0.028581675581217755]","[0.026750000193715096, 0.05299999937415123, 0.03999999910593033]","[0.0, 0.0, -0.0028861714423951343]","[0.026957804337143898, 0.12499970197677612, 0.03999999910593033]","[0.0, 0.0, -0.028884201286240394]",0.1595773284303585,37.61127124185712,"(0.0, 0.0, 0.0, 0.0, 0.0, 0.0)",53.472225824972774,0.02314589095046895,-0.6173011110825959,"(0.0, 0.0, 0.0, 0.0, 0.0, 0.0)",3.3014509125464437,-0.15959755430165623,-37.61073188528917,"(0.0, 0.0, 0.0, 0.0, 0.0, 0.0)",-53.45543824447724,-0.023397935520559333,0.6240220951304867,"(0.0, 0.0, 0.0, 0.0, 0.0, 0.0)",-3.2927232380167535,False,,,,,False,,,,
2,Open,,,,,,"[-0.026750000193715096, 0.05299999937415123, 0.03999999910593033]","[0.0, -0.0, 0.15957730699277592]","[-0.03819086775183678, 0.1240852028131485, 0.03999999910593033]","[0.0, -0.0, 0.1827232399786182]","[0.026750000193715096, 0.05299999937415123, 0.03999999910593033]","[0.0, 0.0, -0.15959754249378824]","[0.03819230571389198, 0.12408497184515, 0.03999999910593033]","[0.0, 0.0, -0.1829954723320542]",0.30061959558732265,33.8501441176714,"(0.0, 0.0, 0.0, 0.0, 0.0, 0.0)",-5.433290843096747,0.020831748867960086,-0.555394099802127,"(0.0, 0.0, 0.0, 0.0, 0.0, 0.0)",-0.37949999689540415,-0.30063779887149056,-33.849658696760244,"(0.0, 0.0, 0.0, 0.0, 0.0, 0.0)",5.433149501288634,-0.02105858889910766,0.5614431891484022,"(0.0, 0.0, 0.0, 0.0, 0.0, 0.0)",0.37943043762158307,False,,,,,False,,,,
3,Open,,,,,,"[-0.026750000193715096, 0.05299999937415123, 0.03999999910593033]","[0.0, -0.0, 0.30061964608852465]","[-0.048070069402456284, 0.12177103012800217, 0.03999999910593033]","[0.0, -0.0, 0.3214513597309629]","[0.026750000193715096, 0.05299999937415123, 0.03999999910593033]","[0.0, 0.0, -0.30063782483534385]","[0.04807132109999657, 0.12177064269781113, 0.03999999910593033]","[0.0, 0.0, -0.32169639446592324]",0.4275576360285904,30.465129705904268,"(0.0, 0.0, 0.0, 0.0, 0.0, 0.0)",-4.896562760502833,0.018748978964657985,-0.49986477679250463,"(0.0, 0.0, 0.0, 0.0, 0.0, 0.0)",-0.3438186216350169,-0.4275740189843415,-30.464692827084228,"(0.0, 0.0, 0.0, 0.0, 0.0, 0.0)",4.8964345239877005,-0.018953134917884834,0.505308955493478,"(0.0, 0.0, 0.0, 0.0, 0.0, 0.0)",0.34375511365495653,False,,,,,False,,,,
4,Open,,,,,,"[-0.026750000193715096, 0.05299999937415123, 0.03999999910593033]","[0.0, -0.0, 0.42755761853039154]","[-0.056604765355587006, 0.1185186430811882, 0.03999999910593033]","[0.0, -0.0, 0.4463066270391506]","[0.026750000193715096, 0.05299999937415123, 0.03999999910593033]","[0.0, 0.0, -0.42757404208311445]","[0.05660583823919296, 0.1185181587934494, 0.03999999910593033]","[0.0, 0.0, -0.4465272228574986]",0.5418018724257314,27.418616735313837,"(0.0, 0.0, 0.0, 0.0, 0.0, 0.0)",-4.412236817968903,0.016874447698417276,-0.44988750389777044,"(0.0, 0.0, 0.0, 0.0, 0.0, 0.0)",-0.3112578673856835,-0.5418166170859073,-27.418223544375806,"(0.0, 0.0, 0.0, 0.0, 0.0, 0.0)",4.412120589674461,-0.017058187988154127,0.4547872631353701,"(0.0, 0.0, 0.0, 0.0, 0.0, 0.0)",0.31119999541872967,False,,,,,False,,,,
5,Open,,,,,,"[-0.026750000193715096, 0.05299999937415123, 0.03999999910593033]","[0.0, -0.0, 0.5418019400761332]","[-0.06387900561094284, 0.11468822509050369, 0.03999999910593033]","[0.0, -0.0, 0.5586763123738882]","[0.026750000193715096, 0.05299999937415123, 0.03999999910593033]","[0.0, 0.0, -0.5418166677071254]","[0.06387991458177567, 0.11468767374753952, 0.03999999910593033]","[0.0, 0.0, -0.5588748551425957]",0.6446216851831583,24.67675506178245,"(0.0, 0.0, 0.0, 0.0, 0.0, 0.0)",-3.975330693632137,0.015187334633278446,-0.4049071356333192,"(0.0, 0.0, 0.0, 0.0, 0.0, 0.0)",-0.2816071653694913,-0.6446349553773166,-24.67640118993823,"(0.0, 0.0, 0.0, 0.0, 0.0, 0.0)",3.975225427671302,-0.01535270083200906,0.409316917474816,"(0.0, 0.0, 0.0, 0.0, 0.0, 0.0)",0.28155450162657786,False,,,,,False,,,,
6,Open,,,,,,"[-0.026750000193715096, 0.05299999937415123, 0.03999999910593033]","[0.0, -0.0, 0.6446216983098856]","[-0.07001452147960663, 0.11055155843496323, 0.03999999910593033]","[0.0, -0.0, 0.6598089287160823]","[0.026750000193715096, 0.05299999937415123, 0.03999999910593033]","[0.0, 0.0, -0.644634967879878]","[0.07001528143882751, 0.11055097728967667, 0.03999999910593033]","[0.0, 0.0, -0.6599877329949964]",0.7371595166648425,22.209079555604205,"(0.0, 0.0, 0.0, 0.0, 0.0, 0.0)",-3.5812948349547464,0.013668901111545678,-0.3644240452158641,"(0.0, 0.0, 0.0, 0.0, 0.0, 0.0)",-0.25464125660078457,-0.737171459839585,-22.20876107094441,"(0.0, 0.0, 0.0, 0.0, 0.0, 0.0)",3.5811995605906057,-0.01381773063402154,0.3683928475170044,"(0.0, 0.0, 0.0, 0.0, 0.0, 0.0)",0.2545933902665499,False,,,,,False,,,,
7,Open,,,,,,"[-0.026750000193715096, 0.05299999937415123, 0.03999999910593033]","[0.0, -0.0, 0.7371595400859692]","[-0.07514750957489014, 0.10630742460489273, 0.03999999910593033]","[0.0, -0.0, 0.7508283868993905]","[0.026750000193715096, 0.05299999937415123, 0.03999999910593033]","[0.0, 0.0, -0.7371714711336782]","[0.07514814287424088, 0.10630684345960617, 0.03999999910593033]","[0.0, 0.0, -0.750989167509555]",0.8204435649983582,19.988171600043785,"(0.0, 0.0, 0.0, 0.0, 0.0, 0.0)",-3.2259980823944012,0.01230228208777883,-0.32798856570404317,"(0.0, 0.0, 0.0, 0.0, 0.0, 0.0)",-0.23014491551259536,-0.8204543138556265,-19.987884963849964,"(0.0, 0.0, 0.0, 0.0, 0.0, 0.0)",3.225911902119173,-0.012436228606816148,0.33156048652929415,"(0.0, 0.0, 0.0, 0.0, 0.0, 0.0)",0.23010145595163894,False,,,,,False,,,,
8,Open,,,,,,"[-0.026750000193715096, 0.05299999937415123, 0.03999999910593033]","[0.0, -0.0, 0.8204435774406766]","[-0.07941428571939468, 0.1020965725183487, 0.03999999910593033]","[0.0, -0.0, 0.8327459142786269]","[0.026750000193715096, 0.05299999937415123, 0.03999999910593033]","[0.0, 0.0, -0.8204543695347751]","[0.07941480726003647, 0.10209600627422333, 0.03999999910593033]","[0.0, 0.0, -0.8328905496331522]",0.8953992084985224,17.9893544400394,"(0.0, 0.0, 0.0, 0.0, 0.0, 0.0)",-2.905692777507757,0.011072298781000885,-0.2951959936267068,"(0.0, 0.0, 0.0, 0.0, 0.0, 0.0)",-0.20791432075989408,-0.8954088824700639,-17.989096467464968,"(0.0, 0.0, 0.0, 0.0, 0.0, 0.0)",2.9056148642503405,-0.011192850601700187,0.29841072122783063,"(0.0, 0.0, 0.0, 0.0, 0.0, 0.0)",0.20787489947010138,False,,,,,False,,,,
9,Open,,,,,,"[-0.026750000193715096, 0.05299999937415123, 0.03999999910593033]","[0.0, -0.0, 0.8953992050914552]","[-0.08294302970170975, 0.09801492840051651, 0.03999999910593033]","[0.0, -0.0, 0.9064715399310761]","[0.026750000193715096, 0.05299999937415123, 0.03999999910593033]","[0.0, 0.0, -0.8954089117450801]","[0.08294346183538437, 0.09801438450813293, 0.03999999910593033]","[0.0, 0.0, -0.9066016844299951]",0.9628592876486701,16.190418996035465,"(0.0, 0.0, 0.0, 0.0, 0.0, 0.0)",-2.616982039675733,0.009965290062605858,-0.26568209241480656,"(0.0, 0.0, 0.0, 0.0, 0.0, 0.0)",-0.18775783729375353,-0.9628679942230576,-16.190186820718473,"(0.0, 0.0, 0.0, 0.0, 0.0, 0.0)",2.6169116334278195,-0.010073786659150813,0.26857534621184953,"(0.0, 0.0, 0.0, 0.0, 0.0, 0.0)",0.187722108909745,False,,,,,False,,,,
10,Open,,,,,,"[-0.026750000193715096, 0.05299999937415123, 0.03999999910593033]","[0.0, -0.0, 0.9628592963772022]","[-0.08584962040185928, 0.09412462264299393, 0.03999999910593033]","[0.0, -0.0, 0.9728246761305416]","[0.026750000193715096, 0.05299999937415123, 0.03999999910593033]","[0.0, 0.0, -0.9628681466677605]","[0.08584997802972794, 0.09412410855293274, 0.03999999910593033]","[0.0, 0.0, -0.9729417790417357]",1.0235733588838032,14.57137709643192,"(0.0, 0.0, 0.0, 0.0, 0.0, 0.0)",-2.356789246056587,0.008968960705874744,-0.23911904561546746,"(0.0, 0.0, 0.0, 0.0, 0.0, 0.0)",-0.16949635495257384,-1.0235811948007518,-14.571168138646623,"(0.0, 0.0, 0.0, 0.0, 0.0, 0.0)",2.3567256501387286,-0.009066607604651448,0.24172297307984775,"(0.0, 0.0, 0.0, 0.0, 0.0, 0.0)",0.16946399753760524,False,,,,,False,,,,
11,Open,,,,,,"[-0.026750000193715096, 0.05299999937415123, 0.03999999910593033]","[0.0, -0.0, 1.0235732790301837]","[-0.08823604136705399, 0.09046287834644318, 0.03999999910593033]","[0.0, -0.0, 1.0325423083164225]","[0.026750000193715096, 0.05299999937415123, 0.03999999910593033]","[0.0, 0.0, -1.0235812274279317]","[0.08823633193969727, 0.09046239405870438, 0.03999999910593033]","[0.0, 0.0, -1.0326479037372749]",1.078216022995423,13.114239386788727,"(0.0, 0.0, 0.0, 0.0, 0.0, 0.0)",-2.1223296975724493,0.008072244810550301,-0.215211814877866,"(0.0, 0.0, 0.0, 0.0, 0.0, 0.0)",-0.1529632973210469,-1.0782230753206767,-13.114051324781958,"(0.0, 0.0, 0.0, 0.0, 0.0, 0.0)",2.122272274708909,-0.008160126984954354,0.21755534872730237,"(0.0, 0.0, 0.0, 0.0, 0.0, 0.0)",0.15293401213466845,False,,,,,False,,,,
12,Open,,,,,,"[-0.026750000193715096, 0.05299999937415123, 0.03999999910593033]","[0.0, -0.0, 1.078215882979514]","[-0.09019032120704651, 0.08704887330532074, 0.03999999910593033]","[0.0, -0.0, 1.0862882926740116]","[0.026750000193715096, 0.05299999937415123, 0.03999999910593033]","[0.0, 0.0, -1.078222977413882]","[0.09019055962562561, 0.08704842627048492, 0.03999999910593033]","[0.0, 0.0, -1.0863833790205233]",1.1273944206958806,11.802815448109852,"(0.0, 0.0, 0.0, 0.0, 0.0, 0.0)",-1.9110844168611731,0.007265182884681461,-0.19369486220852175,"(0.0, 0.0, 0.0, 0.0, 0.0, 0.0)",-0.13800439004610457,-1.127400767788609,-11.802646192303762,"(0.0, 0.0, 0.0, 0.0, 0.0, 0.0)",1.9110325851897776,-0.007344276810443619,0.19580404188257655,"(0.0, 0.0, 0.0, 0.0, 0.0, 0.0)",0.13797790093405082,False,,,,,False,,,,
13,Open,,,,,,"[-0.026750000193715096, 0.05299999937415123, 0.03999999910593033]","[0.0, -0.0, 1.1273943743462997]","[-0.0917874127626419, 0.08388907462358475, 0.03999999910593033]","[0.0, -0.0, 1.1346596248576977]","[0.026750000193715096, 0.05299999937415123, 0.03999999910593033]","[0.0, 0.0, -1.127400718904607]","[0.09178761392831802, 0.08388865739107132, 0.03999999910593033]","[0.0, 0.0, -1.134745111288055]",1.1716549786262926,10.622533903298867,"(0.0, 0.0, 0.0, 0.0, 0.0, 0.0)",-1.7207759982695574,0.00653881121780902,-0.17432920004938585,"(0.0, 0.0, 0.0, 0.0, 0.0, 0.0)",-0.12447725819906867,-1.1716606910097482,-10.622381573073383,"(0.0, 0.0, 0.0, 0.0, 0.0, 0.0)",1.7207292273800263,-0.006609995722787257,0.17622746103752684,"(0.0, 0.0, 0.0, 0.0, 0.0, 0.0)",0.12445331071934837,False,,,,,False,,,,
14,Open,,,,,,"[-0.026750000193715096, 0.05299999937415123, 0.03999999910593033]","[0.0, -0.0, 1.17165497759142]","[-0.09309044480323792, 0.08098116517066956, 0.03999999910593033]","[0.0, -0.0, 1.1781937273122836]","[0.026750000193715096, 0.05299999937415123, 0.03999999910593033]","[0.0, 0.0, -1.1716605985979762]","[0.09309060126543045, 0.08098078519105911, 0.03999999910593033]","[0.0, 0.0, -1.178270796658152]",1.2114894807636634,9.56028051296898,"(0.0, 0.0, 0.0, 0.0, 0.0, 0.0)",-1.549346412635057,0.005885062316220725,-0.15689973638119079,"(0.0, 0.0, 0.0, 0.0, 0.0, 0.0)",-0.11225090666269867,-1.2114946219087734,-9.560143415766044,"(0.0, 0.0, 0.0, 0.0, 0.0, 0.0)",1.5493042197033076,-0.00594912834521185,0.1586081706180975,"(0.0, 0.0, 0.0, 0.0, 0.0, 0.0)",0.11222926703597672,False,,,,,False,,,,
15,Open,,,,,,"[-0.026750000193715096, 0.05299999937415123, 0.03999999910593033]","[0.0, -0.0, 1.2114893406881728]","[-0.09415213763713837, 0.07831703126430511, 0.03999999910593033]","[0.0, -0.0, 1.2173745989650702]","[0.026750000193715096, 0.05299999937415123, 0.03999999910593033]","[0.0, 0.0, -1.2114945655338818]","[0.09415226429700851, 0.07831668108701706, 0.03999999910593033]","[0.0, 0.0, -1.2174436451143456]",1.247340532687297,8.604252461672083,"(0.0, 0.0, 0.0, 0.0, 0.0, 0.0)",-1.3949366588174594,0.00529667529397997,-0.14121288533778104,"(0.0, 0.0, 0.0, 0.0, 0.0, 0.0)",-0.1012051251161189,-1.2473451597178962,-8.604129074189437,"(0.0, 0.0, 0.0, 0.0, 0.0, 0.0)",1.394898604883462,-0.005354334697048719,0.1427504755591516,"(0.0, 0.0, 0.0, 0.0, 0.0, 0.0)",0.1011855790679586,False,,,,,False,,,,
16,Open,,,,,,"[-0.026750000193715096, 0.05299999937415123, 0.03999999910593033]","[0.0, -0.0, 1.2473405247091465]","[-0.09501627087593079, 0.07588484138250351, 0.03999999910593033]","[0.0, -0.0, 1.2526371614229614]","[0.026750000193715096, 0.05299999937415123, 0.03999999910593033]","[0.0, 0.0, -1.2473450561350814]","[0.09501637518405914, 0.07588452845811844, 0.03999999910593033]","[0.0, 0.0, -1.252699591080442]",1.2796064794185673,7.743827215504874,"(0.0, 0.0, 0.0, 0.0, 0.0, 0.0)",-1.2558681481324276,0.004767115224099335,-0.12709441677135241,"(0.0, 0.0, 0.0, 0.0, 0.0, 0.0)",-0.09122984935698081,-1.2796106437461066,-7.743716166770495,"(0.0, 0.0, 0.0, 0.0, 0.0, 0.0)",1.2558338345532607,-0.004819008666073119,0.128478247434144,"(0.0, 0.0, 0.0, 0.0, 0.0, 0.0)",0.09121220090323832,False,,,,,False,,,,
17,Open,,,,,,"[-0.026750000193715096, 0.05299999937415123, 0.03999999910593033]","[0.0, -0.0, 1.279606409124563]","[-0.09571900963783264, 0.0736706405878067, 0.03999999910593033]","[0.0, -0.0, 1.2843736758198352]","[0.026750000193715096, 0.05299999937415123, 0.03999999910593033]","[0.0, 0.0, -1.2796106525936015]","[0.0957190990447998, 0.07367035001516342, 0.03999999910593033]","[0.0, 0.0, -1.2844295613342638]",1.3086458314767107,6.969444493954387,"(0.0, 0.0, 0.0, 0.0, 0.0, 0.0)",-1.1305941221975622,0.00429170208951155,-0.1140991523010686,"(0.0, 0.0, 0.0, 0.0, 0.0, 0.0)",-0.082192919359827,-1.3086495793714958,-6.969344550093446,"(0.0, 0.0, 0.0, 0.0, 0.0, 0.0)",1.1305631934145834,-0.004338405935744441,0.11534465527888274,"(0.0, 0.0, 0.0, 0.0, 0.0, 0.0)",0.08217699569254354,False,,,,,False,,,,
18,Open,,,,,,"[-0.026750000193715096, 0.05299999937415123, 0.03999999910593033]","[0.0, -0.0, 1.308645825919811]","[-0.09629011154174805, 0.0716593861579895, 0.03999999910593033]","[0.0, -0.0, 1.3129373548657892]","[0.026750000193715096, 0.05299999937415123, 0.03999999910593033]","[0.0, 0.0, -1.308649569130343]","[0.09629017859697342, 0.07165912538766861, 0.03999999910593033]","[0.0, 0.0, -1.3129881167123505]",1.3347812483290395,6.272500044558946,"(0.0, 0.0, 0.0, 0.0, 0.0, 0.0)",-1.0178482622338179,0.003863702481573626,-0.10271990590510163,"(0.0, 0.0, 0.0, 0.0, 0.0, 0.0)",-0.07410352518858664,-1.3347846214343462,-6.272410095084102,"(0.0, 0.0, 0.0, 0.0, 0.0, 0.0)",1.0178203769740246,-0.0039057357160976183,0.10384085271523745,"(0.0, 0.0, 0.0, 0.0, 0.0, 0.0)",0.0740891498002037,False,,,,,False,,,,
19,Open,,,,,,"[-0.026750000193715096, 0.05299999937415123, 0.03999999910593033]","[0.0, -0.0, 1.3347813147466918]","[-0.09675397723913193, 0.06983575969934464, 0.03999999910593033]","[0.0, -0.0, 1.3386449621367835]","[0.026750000193715096, 0.05299999937415123, 0.03999999910593033]","[0.0, 0.0, -1.3347844615433213]","[0.0967540368437767, 0.06983552873134613, 0.03999999910593033]","[0.0, 0.0, -1.3386905382854437]",1.3583031234961356,5.645250040103052,"(0.0, 0.0, 0.0, 0.0, 0.0, 0.0)",-0.9162890978823036,0.0034783869891320215,-0.09247571818598516,"(0.0, 0.0, 0.0, 0.0, 0.0, 0.0)",-0.06677007440367574,-1.3583061592909116,-5.645169085575695,"(0.0, 0.0, 0.0, 0.0, 0.0, 0.0)",0.9162639666346021,-0.003516216695348753,0.09348456497972772,"(0.0, 0.0, 0.0, 0.0, 0.0, 0.0)",0.06675710630673855,False,,,,,False,,,,
20,Open,,,,,,"[-0.026750000193715096, 0.05299999937415123, 0.03999999910593033]","[0.0, -0.0, 1.3583030429358363]","[-0.09713058918714523, 0.06818463653326035, 0.03999999910593033]","[0.0, -0.0, 1.3617816714487538]","[0.026750000193715096, 0.05299999937415123, 0.03999999910593033]","[0.0, 0.0, -1.358306171033049]","[0.09713063389062881, 0.06818442046642303, 0.03999999910593033]","[0.0, 0.0, -1.361822351334537]",1.379472811146522,5.0807250360927485,"(0.0, 0.0, 0.0, 0.0, 0.0, 0.0)",-0.8248429295126702,0.003131498553648039,-0.08325322451615583,"(0.0, 0.0, 0.0, 0.0, 0.0, 0.0)",-0.06015531267018523,-1.3794755433618204,-5.080652177018124,"(0.0, 0.0, 0.0, 0.0, 0.0, 0.0)",0.8248202834423316,-0.003165545104486833,0.08416118180686077,"(0.0, 0.0, 0.0, 0.0, 0.0, 0.0)",0.06014361689139186,False,,,,,False,,,,
21,Open,,,,,,"[-0.026750000193715096, 0.05299999937415123, 0.03999999910593033]","[0.0, -0.0, 1.3794728975130914]","[-0.09743624925613403, 0.06669140607118607, 0.03999999910593033]","[0.0, -0.0, 1.382604304378769]","[0.026750000193715096, 0.05299999937415123, 0.03999999910593033]","[0.0, 0.0, -1.379475506721758]","[0.09743628650903702, 0.06669121235609055, 0.03999999910593033]","[0.0, 0.0, -1.3826409668082853]",1.3985255300318697,4.572652532483473,"(0.0, 0.0, 0.0, 0.0, 0.0, 0.0)",-0.7425066286387145,0.0028192047313806493,-0.07495051734417352,"(0.0, 0.0, 0.0, 0.0, 0.0, 0.0)",-0.054190171953983096,-1.3985279890256384,-4.57258695931631,"(0.0, 0.0, 0.0, 0.0, 0.0, 0.0)",0.7424862245436853,-0.0028498464605416357,0.07576767454684734,"(0.0, 0.0, 0.0, 0.0, 0.0, 0.0)",0.0541796259205944,False,,,,,False,,,,
22,Open,,,,,,"[-0.026750000193715096, 0.05299999937415123, 0.03999999910593033]","[0.0, -0.0, 1.398525454133583]","[-0.09768425673246384, 0.0653422400355339, 0.03999999910593033]","[0.0, -0.0, 1.4013447262228373]","[0.026750000193715096, 0.05299999937415123, 0.03999999910593033]","[0.0, 0.0, -1.3985280648022782]","[0.09768428653478622, 0.06534206122159958, 0.03999999910593033]","[0.0, 0.0, -1.4013779844801912]",1.4156729770286829,4.1153872792351285,"(0.0, 0.0, 0.0, 0.0, 0.0, 0.0)",-0.6683758137814145,0.002538055332395241,-0.06747585575649792,"(0.0, 0.0, 0.0, 0.0, 0.0, 0.0)",-0.04881194552870251,-1.4156751901230746,-4.115328263384682,"(0.0, 0.0, 0.0, 0.0, 0.0, 0.0)",0.6683574317692884,-0.002565632738451909,0.06821129330153437,"(0.0, 0.0, 0.0, 0.0, 0.0, 0.0)",0.0488024380394442,False,,,,,False,,,,
23,Open,,,,,,"[-0.026750000193715096, 0.05299999937415123, 0.03999999910593033]","[0.0, -0.0, 1.4156730334745993]","[-0.09788545966148376, 0.06412414461374283, 0.03999999910593033]","[0.0, -0.0, 1.418211036917125]","[0.026750000193715096, 0.05299999937415123, 0.03999999910593033]","[0.0, 0.0, -1.4156752315845986]","[0.09788548201322556, 0.0641239807009697, 0.03999999910593033]","[0.0, 0.0, -1.418240879504808]",1.4311056793258146,3.703848551311612,"(0.0, 0.0, 0.0, 0.0, 0.0, 0.0)",-0.6016352863054336,0.002284944287465684,-0.060746650783093666,"(0.0, 0.0, 0.0, 0.0, 0.0, 0.0)",-0.04396376851645251,-1.431107671110767,-3.7037954370462103,"(0.0, 0.0, 0.0, 0.0, 0.0, 0.0)",0.6016187276545472,-0.0023097638175418747,0.061408541018408244,"(0.0, 0.0, 0.0, 0.0, 0.0, 0.0)",0.043955198772734246,False,,,,,False,,,,
24,Open,,,,,,"[-0.026750000193715096, 0.05299999937415123, 0.03999999910593033]","[0.0, -0.0, 1.4311058207082674]","[-0.09804865717887878, 0.06302504986524582, 0.03999999910593033]","[0.0, -0.0, 1.433390691262394]","[0.026750000193715096, 0.05299999937415123, 0.03999999910593033]","[0.0, 0.0, -1.4311075924426346]","[0.09804867953062057, 0.06302490830421448, 0.03999999910593033]","[0.0, 0.0, -1.433417470845748]",1.4449951113932331,3.333463696180452,"(0.0, 0.0, 0.0, 0.0, 0.0, 0.0)",-0.5415503506795546,0.0020570753203455715,-0.05468855210882702,"(0.0, 0.0, 0.0, 0.0, 0.0, 0.0)",-0.039594115216637325,-1.4449969039996904,-3.3334158933415914,"(0.0, 0.0, 0.0, 0.0, 0.0, 0.0)",0.541535435877482,-0.002079412775410495,0.055284250111531166,"(0.0, 0.0, 0.0, 0.0, 0.0, 0.0)",0.03958639191865308,False,,,,,False,,,,
25,Open,,,,,,"[-0.026750000193715096, 0.05299999937415123, 0.03999999910593033]","[0.0, -0.0, 1.444995076522675]","[-0.09818101674318314, 0.062033817172050476, 0.03999999910593033]","[0.0, -0.0, 1.4470522962768402]","[0.026750000193715096, 0.05299999937415123, 0.03999999910593033]","[0.0, 0.0, -1.4449971061677662]","[0.09818103164434433, 0.06203368678689003, 0.03999999910593033]","[0.0, 0.0, -1.4470761943538692]",1.45749560025391,3.0001173265624064,"(0.0, 0.0, 0.0, 0.0, 0.0, 0.0)",-0.4874589573784058,0.001851931045420989,-0.04923462598189979,"(0.0, 0.0, 0.0, 0.0, 0.0, 0.0)",-0.03565633120497695,-1.4574972135997213,-3.000074304007432,"(0.0, 0.0, 0.0, 0.0, 0.0, 0.0)",0.4874455243270462,-0.0018720346450414762,0.04977075128856451,"(0.0, 0.0, 0.0, 0.0, 0.0, 0.0)",0.03564937171228022,False,,,,,False,,,,
26,Open,,,,,,"[-0.026750000193715096, 0.05299999937415123, 0.03999999910593033]","[0.0, -0.0, 1.4574954921785264]","[-0.09828835725784302, 0.061140209436416626, 0.03999999910593033]","[0.0, -0.0, 1.4593474823067423]","[0.026750000193715096, 0.05299999937415123, 0.03999999910593033]","[0.0, 0.0, -1.4574971848934346]","[0.09828837215900421, 0.061140093952417374, 0.03999999910593033]","[0.0, 0.0, -1.4593694397653831]",1.4687460402285188,2.700105593906164,"(0.0, 0.0, 0.0, 0.0, 0.0, 0.0)",-0.4387645947805427,0.0016672451487475934,-0.044324615201614966,"(0.0, 0.0, 0.0, 0.0, 0.0, 0.0)",-0.032108199676446195,-1.4687474922397492,-2.70006687360669,"(0.0, 0.0, 0.0, 0.0, 0.0, 0.0)",0.4387524971567325,-0.0016853382893528596,0.04480712536526797,"(0.0, 0.0, 0.0, 0.0, 0.0, 0.0)",0.03210192923147444,False,,,,,False,,,,
27,Open,,,,,,"[-0.026750000193715096, 0.05299999937415123, 0.03999999910593033]","[0.0, -0.0, 1.4687462228928074]","[-0.09837540984153748, 0.06033487245440483, 0.03999999910593033]","[0.0, -0.0, 1.4704133245237396]","[0.026750000193715096, 0.05299999937415123, 0.03999999910593033]","[0.0, 0.0, -1.4687474899518769]","[0.09837542474269867, 0.060334768146276474, 0.03999999910593033]","[0.0, 0.0, -1.4704329951986796]",1.478871436205667,2.430095034515549,"(0.0, 0.0, 0.0, 0.0, 0.0, 0.0)",-0.394929862139441,0.0015009773446580906,-0.03990427298148066,"(0.0, 0.0, 0.0, 0.0, 0.0, 0.0)",-0.028911540991871522,-1.4788727430157742,-2.430060186246021,"(0.0, 0.0, 0.0, 0.0, 0.0, 0.0)",0.39491896790015035,-0.001517261081966714,0.04033852977267494,"(0.0, 0.0, 0.0, 0.0, 0.0, 0.0)",0.02890589200411927,False,,,,,False,,,,
28,Open,,,,,,"[-0.026750000193715096, 0.05299999937415123, 0.03999999910593033]","[0.0, -0.0, 1.4788714352834713]","[-0.09844600409269333, 0.05960927531123161, 0.03999999910593033]","[0.0, -0.0, 1.480372508787761]","[0.026750000193715096, 0.05299999937415123, 0.03999999910593033]","[0.0, 0.0, -1.4788727099725336]","[0.09844601899385452, 0.05960918217897415, 0.03999999910593033]","[0.0, 0.0, -1.4803900544382056]",1.4879842925851003,2.1870855310639947,"(0.0, 0.0, 0.0, 0.0, 0.0, 0.0)",-0.3554706611703565,0.001351290830885638,-0.035924763305388616,"(0.0, 0.0, 0.0, 0.0, 0.0, 0.0)",-0.026031844038894282,-1.487985468714197,-2.1870541676214206,"(0.0, 0.0, 0.0, 0.0, 0.0, 0.0)",0.3554608511915877,-0.001365946114079445,0.03631559229294455,"(0.0, 0.0, 0.0, 0.0, 0.0, 0.0)",0.026026755426892093,False,,,,,False,,,,
29,Close,,,"(3.819349109750643e-09, 0.16999994350316286, 7.914305593764796e-05)","(1.5700606283751846, 1.2357610516186277e-06, -4.058049624060407e-09)",,"[-0.026750000193715096, 0.05299999937415123, 0.03999999910593033]","[0.0, -0.0, 1.4879842849605203]","[-0.09850326180458069, 0.05895565450191498, 0.03999999910593033]","[0.0, -0.0, 1.4893357278409396]","[0.026750000193715096, 0.05299999937415123, 0.03999999910593033]","[0.0, 0.0, -1.4879853833286059]","[0.09850326925516129, 0.05895556882023811, 0.03999999910593033]","[0.0, 0.0, -1.4893513332680077]",1.4961858633265903,1.9683769779575933,"(0.0, 0.0, 0.0, 0.0, 0.0, 0.0)",-0.31995094896823073,0.0012165319928285922,-0.03234212113369103,"(0.0, 0.0, 0.0, 0.0, 0.0, 0.0)",-0.02343792779000599,-1.4961869218427772,-1.9683487508592754,"(0.0, 0.0, 0.0, 0.0, 0.0, 0.0)",0.31994211580738524,-0.0012297216752996233,0.03269386530715718,"(0.0, 0.0, 0.0, 0.0, 0.0, 0.0)",0.02343334437795369,False,,,,,False,,,,
30,Close,,,"(1.09441459674075e-09, 0.16999988769159868, 0.0001519632082907279)","(1.5701173533571526, -2.5467641220651055e-06, -4.573996600559749e-08)",,"[-0.026750000193715096, 0.05299999937415123, 0.03999999910593033]","[0.0, -0.0, 1.4961860174198076]","[-0.09854969382286072, 0.05836696922779083, 0.03999999910593033]","[0.0, -0.0, 1.4974025341106605]","[0.026750000193715096, 0.05299999937415123, 0.03999999910593033]","[0.0, 0.0, -1.4961870219527165]","[0.09854969382286072, 0.05836689472198486, 0.03999999910593033]","[0.0, 0.0, -1.4974167044724178]",1.4065672769939312,-21.50846071983817,"(0.0, 0.0, 0.0, 0.0, 0.0, 0.0)",-36.83524610171859,-0.08890468746940376,-21.629092670935766,"(0.0, 0.0, 0.0, 0.0, 0.0, 0.0)",-4.936581214831643,-1.4065682296584996,21.508486124226657,"(0.0, 0.0, 0.0, 0.0, 0.0, 0.0)",36.83523814678565,0.0888928167555427,21.629409223402156,"(0.0, 0.0, 0.0, 0.0, 0.0, 0.0)",4.936577085092772,False,,,,,False,,,,
31,Close,,,"(3.541182821644653e-08, 0.1699998011443987, 0.00021906657187154062)","(1.570205104748116, 3.3042409171564205e-05, -8.114212850492596e-08)",,"[-0.026750000193715096, 0.05299999937415123, 0.03999999910593033]","[0.0, -0.0, 1.4065674382065954]","[-0.0977812185883522, 0.06477140635251999, 0.03999999910593033]","[0.0, -0.0, 1.3176625934179576]","[0.026750000193715096, 0.05299999937415123, 0.03999999910593033]","[0.0, 0.0, -1.4065680331882469]","[0.0977812260389328, 0.06477133929729462, 0.03999999910593033]","[0.0, 0.0, -1.3176753491400532]",1.3259105492945382,-19.357614647854348,"(0.0, 0.0, 0.0, 0.0, 0.0, 0.0)",3.3395407019063446,-0.17001473426920377,-19.466411231952,"(0.0, 0.0, 0.0, 0.0, 0.0, 0.0)",0.4376834422569755,-1.3259114066926496,19.35763751180399,"(0.0, 0.0, 0.0, 0.0, 0.0, 0.0)",-3.3395473112045253,0.1700040506304986,19.466696129989415,"(0.0, 0.0, 0.0, 0.0, 0.0, 0.0)",-0.43768664266468643,False,,,,,False,,,,
32,Close,,,"(3.361538948490201e-08, 0.16999974452330968, 0.00028077538773600935)","(1.5702911774727688, 7.027968338074274e-05, -7.017997684986258e-06)",,"[-0.026750000193715096, 0.05299999937415123, 0.03999999910593033]","[0.0, -0.0, 1.325910602539969]","[-0.09660188108682632, 0.07045608013868332, 0.03999999910593033]","[0.0, -0.0, 1.1558959321658662]","[0.026750000193715096, 0.05299999937415123, 0.03999999910593033]","[0.0, 0.0, -1.3259115331240872]","[0.09660189598798752, 0.07045602053403854, 0.03999999910593033]","[0.0, 0.0, -1.1559073716167563]",1.2533194943650845,-17.42185318306892,"(0.0, 0.0, 0.0, 0.0, 0.0, 0.0)",3.0100864599566086,-0.2430137284658432,-17.519758607193467,"(0.0, 0.0, 0.0, 0.0, 0.0, 0.0)",0.39699812510351973,-1.2533202660233846,17.42187376062359,"(0.0, 0.0, 0.0, 0.0, 0.0, 0.0)",-3.0100924602349655,0.24300411319445853,17.52001501535039,"(0.0, 0.0, 0.0, 0.0, 0.0, 0.0)",-0.39700105403357716,False,,,,,False,,,,
33,Close,,,"(1.2478111664315067e-07, 0.16999960627903704, 0.000337513976604643)","(1.5703757790333803, 0.0001088681261817636, -5.122611399447184e-06)",,"[-0.026750000193715096, 0.05299999937415123, 0.03999999910593033]","[0.0, -0.0, 1.2533194489161892]","[-0.0951518788933754, 0.07547627389431, 0.03999999910593033]","[0.0, -0.0, 1.0103057011386807]","[0.026750000193715096, 0.05299999937415123, 0.03999999910593033]","[0.0, 0.0, -1.2533201846969224]","[0.09515189379453659, 0.07547622174024582, 0.03999999910593033]","[0.0, 0.0, -1.010316110149499]",1.1879875449285762,-15.679667864762028,"(0.0, 0.0, 0.0, 0.0, 0.0, 0.0)",2.712712783767229,-0.30871235561933186,-15.767670516837281,"(0.0, 0.0, 0.0, 0.0, 0.0, 0.0)",0.3597856734528228,-1.1879882394210461,15.679686384561233,"(0.0, 0.0, 0.0, 0.0, 0.0, 0.0)",-2.712718226071338,0.30870370187508567,15.767901283350515,"(0.0, 0.0, 0.0, 0.0, 0.0, 0.0)",-0.35978834883250516,False,,,,,False,,,,
34,Close,,,"(1.2869376016944667e-07, 0.16999954011037416, 0.00038973303114976833)","(1.5704582297133343, 0.0001496263682483943, -9.931543136061158e-06)",,"[-0.026750000193715096, 0.05299999937415123, 0.03999999910593033]","[0.0, -0.0, 1.1879876003522736]","[-0.09353857487440109, 0.07989397644996643, 0.03999999910593033]","[0.0, -0.0, 0.8792752425767008]","[0.026750000193715096, 0.05299999937415123, 0.03999999910593033]","[0.0, 0.0, -1.1879882623869136]","[0.09353859722614288, 0.07989392429590225, 0.03999999910593033]","[0.0, 0.0, -0.8792844680170303]",1.1291887904356523,-14.1117010783017,"(0.0, 0.0, 0.0, 0.0, 0.0, 0.0)",2.44436472036771,-0.36784112005739866,-14.190903465136039,"(0.0, 0.0, 0.0, 0.0, 0.0, 0.0)",0.3258007578595482,-1.1291894154788755,14.111717746120975,"(0.0, 0.0, 0.0, 0.0, 0.0, 0.0)",-2.444369652349295,0.3678333316875771,14.191111154997946,"(0.0, 0.0, 0.0, 0.0, 0.0, 0.0)",-0.32580319741325486,False,,,,,False,,,,
35,Close,,,"(2.2147778895778094e-07, 0.169999403724105, 0.00043775502472391954)","(1.5705392813318275, 0.0001916771605813282, -8.19762937926826e-06)",,"[-0.026750000193715096, 0.05299999937415123, 0.03999999910593033]","[0.0, -0.0, 1.1291888000608494]","[-0.09184273332357407, 0.08377231657505035, 0.03999999910593033]","[0.0, -0.0, 0.7613476921786614]","[0.026750000193715096, 0.05299999937415123, 0.03999999910593033]","[0.0, 0.0, -1.1291894580384154]","[0.09184275567531586, 0.08377227932214737, 0.03999999910593033]","[0.0, 0.0, -0.7613561373098183]",1.0762699113920273,-12.700530970470014,"(0.0, 0.0, 0.0, 0.0, 0.0, 0.0)",2.202305891359772,-0.4210570080516588,-12.77181311862243,"(0.0, 0.0, 0.0, 0.0, 0.0, 0.0)",0.2948453788489373,-1.0762704739309281,12.700545971507374,"(0.0, 0.0, 0.0, 0.0, 0.0, 0.0)",-2.2023103576802145,0.4210499985188194,12.77200003949815,"(0.0, 0.0, 0.0, 0.0, 0.0, 0.0)",-0.2948476002056522,False,,,,,False,,,,
36,Close,,,"(2.1912693722736075e-07, 0.16999934361709654, 0.000481956449276018)","(1.5706184388641253, 0.00023565575873296478, -1.2845786801691941e-05)",,"[-0.026750000193715096, 0.05299999937415123, 0.03999999910593033]","[0.0, -0.0, 1.0762698553554748]","[-0.09012393653392792, 0.08717226982116699, 0.03999999910593033]","[0.0, -0.0, 0.6552128934948661]","[0.026750000193715096, 0.05299999937415123, 0.03999999910593033]","[0.0, 0.0, -1.0762704893583]","[0.09012395888566971, 0.08717223256826401, 0.03999999910593033]","[0.0, 0.0, -0.6552204147476549]",1.0286429202528247,-11.430477873408655,"(0.0, 0.0, 0.0, 0.0, 0.0, 0.0)",1.9840011930578276,-0.46895130724721834,-11.494631806934295,"(0.0, 0.0, 0.0, 0.0, 0.0, 0.0)",0.26667684533441977,-1.0286434265378352,11.430491374342276,"(0.0, 0.0, 0.0, 0.0, 0.0, 0.0)",-1.984005235051249,0.4689449986676629,11.494800035722442,"(0.0, 0.0, 0.0, 0.0, 0.0, 0.0)",-0.26667886541975433,False,,,,,False,,,,
37,Close,,,"(3.1131510586280866e-07, 0.1699992121070205, 0.0005226007520893923)","(1.5706964879884222, 0.0002806415891397876, -1.1307759452448239e-05)",,"[-0.026750000193715096, 0.05299999937415123, 0.03999999910593033]","[0.0, -0.0, 1.0286429345076582]","[-0.0884251669049263, 0.09015069156885147, 0.03999999910593033]","[0.0, -0.0, 0.5596916647508587]","[0.026750000193715096, 0.05299999937415123, 0.03999999910593033]","[0.0, 0.0, -1.0286435120859125]","[0.08842518925666809, 0.09015065431594849, 0.03999999910593033]","[0.0, 0.0, -0.5596984028120249]",0.9857786282275423,-10.287430086067793,"(0.0, 0.0, 0.0, 0.0, 0.0, 0.0)",1.787161045327472,-0.5120561765231523,-10.345168626224153,"(0.0, 0.0, 0.0, 0.0, 0.0, 0.0)",0.24107512437447856,-0.9857790838840517,10.28744223690805,"(0.0, 0.0, 0.0, 0.0, 0.0, 0.0)",-1.787164701188607,0.5120504988015524,10.345320032133483,"(0.0, 0.0, 0.0, 0.0, 0.0, 0.0)",-0.24107695935135354,False,,,,,False,,,,
38,Close,,,"(3.0991842655903425e-07, 0.169999153087261, 0.0005600347082356065)","(1.570772558536085, 0.00032764712563817383, -1.5390013302753274e-05)",,"[-0.026750000193715096, 0.05299999937415123, 0.03999999910593033]","[0.0, -0.0, 0.9857786218799983]","[-0.08677656948566437, 0.09275941550731659, 0.03999999910593033]","[0.0, -0.0, 0.4737224893055005]","[0.026750000193715096, 0.05299999937415123, 0.03999999910593033]","[0.0, 0.0, -0.9857791586690391]","[0.08677658438682556, 0.0927593931555748, 0.03999999910593033]","[0.0, 0.0, -0.47372859204714834]",0.9472007654041954,-9.258687077603232,"(0.0, 0.0, 0.0, 0.0, 0.0, 0.0)",1.6097085175776904,-0.550850558870837,-9.310651763444346,"(0.0, 0.0, 0.0, 0.0, 0.0, 0.0)",0.21783104241587867,-0.9472011754950539,9.258698013359455,"(0.0, 0.0, 0.0, 0.0, 0.0, 0.0)",-1.609711822487034,0.5508454489213972,9.310788028762744,"(0.0, 0.0, 0.0, 0.0, 0.0, 0.0)",-0.21783270758412676,False,,,,,False,,,,
39,Close,,,"(4.0106165104263135e-07, 0.169999026405202, 0.0005944331352702725)","(1.570848092729261, 0.0003750986118602944, -1.4060502423520339e-05)",,"[-0.026750000193715096, 0.05299999937415123, 0.03999999910593033]","[0.0, -0.0, 0.9472008140782049]","[-0.08519845455884933, 0.09504495561122894, 0.03999999910593033]","[0.0, -0.0, 0.39635019782230363]","[0.026750000193715096, 0.05299999937415123, 0.03999999910593033]","[0.0, 0.0, -0.9472011867132297]","[0.08519846946001053, 0.09504493325948715, 0.03999999910593033]","[0.0, 0.0, -0.3963557154153113]",0.9124806888632406,-8.332818369829143,"(0.0, 0.0, 0.0, 0.0, 0.0, 0.0)",1.4497611633824499,-0.5857655029837533,-8.379586587099913,"(0.0, 0.0, 0.0, 0.0, 0.0, 0.0)",0.19674731686213875,-0.9124810579450133,8.332828212009746,"(0.0, 0.0, 0.0, 0.0, 0.0, 0.0)",-1.4497641496546352,0.5857609040292575,8.379709225886469,"(0.0, 0.0, 0.0, 0.0, 0.0, 0.0)",-0.1967488266016999,False,,,,,False,,,,
40,Close,,,"(3.70657372146465e-07, 0.16999903038777142, 0.0006260749884053443)","(1.5708440552876382, 0.00034508120830118214, -1.4055585689260766e-05)",,"[-0.026750000193715096, 0.05299999937415123, 0.03999999910593033]","[0.0, -0.0, 0.9124807402838544]","[-0.08370371162891388, 0.09704854339361191, 0.03999999910593033]","[0.0, -0.0, 0.32671521193417863]","[0.026750000193715096, 0.05299999937415123, 0.03999999910593033]","[0.0, 0.0, -0.9124811663733811]","[0.08370373398065567, 0.09704852104187012, 0.03999999910593033]","[0.0, 0.0, -0.32672018954414506]",0.8812326199769166,-7.499536532717775,"(0.0, 0.0, 0.0, 0.0, 0.0, 0.0)",1.3056085801322186,-0.6171891619197363,-7.541678144635914,"(0.0, 0.0, 0.0, 0.0, 0.0, 0.0)",0.17763358199117588,-0.881232952150512,7.499545390680321,"(0.0, 0.0, 0.0, 0.0, 0.0, 0.0)",-1.305611277336412,0.617185022862301,7.541788519930457,"(0.0, 0.0, 0.0, 0.0, 0.0, 0.0)",-0.17763494969582577,False,,,,,False,,,,
41,Close,,,"(3.427044292909036e-07, 0.1699990340506735, 0.0006551854712062516)","(1.5708403346470328, 0.0003174583455114455, -1.4051356821419932e-05)",,"[-0.026750000193715096, 0.05299999937415123, 0.03999999910593033]","[0.0, -0.0, 0.8812326035131218]","[-0.08229970186948776, 0.09880644828081131, 0.03999999910593033]","[0.0, -0.0, 0.26404346611112495]","[0.026750000193715096, 0.05299999937415123, 0.03999999910593033]","[0.0, 0.0, -0.8812328730718287]","[0.08229971677064896, 0.09880642592906952, 0.03999999910593033]","[0.0, 0.0, -0.2640479150919315]",0.8531093579792249,-6.749582879446001,"(0.0, 0.0, 0.0, 0.0, 0.0, 0.0)",1.1757252455852583,-0.6454704345862542,-6.78750543996429,"(0.0, 0.0, 0.0, 0.0, 0.0, 0.0)",0.16033509317806058,-0.8531096569354608,6.7495908516122896,"(0.0, 0.0, 0.0, 0.0, 0.0, 0.0)",-1.1757276808922346,0.645466709436021,6.787604777692787,"(0.0, 0.0, 0.0, 0.0, 0.0, 0.0)",-0.16033633143309114,False,,,,,False,,,,
42,Close,,,"(3.170084497545684e-07, 0.16999903740907119, 0.0006819671107693073)","(1.570836911771951, 0.00029204530032808255, -1.4047683015968837e-05)",,"[-0.026750000193715096, 0.05299999937415123, 0.03999999910593033]","[0.0, -0.0, 0.8531093567174074]","[-0.08098968118429184, 0.10035036504268646, 0.03999999910593033]","[0.0, -0.0, 0.2076389231904772]","[0.026750000193715096, 0.05299999937415123, 0.03999999910593033]","[0.0, 0.0, -0.8531096230941355]","[0.08098969608545303, 0.10035035014152527, 0.03999999910593033]","[0.0, 0.0, -0.2076429742570099]",0.8277984221813024,-6.0746245915014,"(0.0, 0.0, 0.0, 0.0, 0.0, 0.0)",1.0586966037970245,-0.6709235615380169,-6.1087504684230565,"(0.0, 0.0, 0.0, 0.0, 0.0, 0.0)",0.14467321668423558,-0.8277986912419147,6.074631766451059,"(0.0, 0.0, 0.0, 0.0, 0.0, 0.0)",-1.0586988018726124,0.6709202089041267,6.108839872345364,"(0.0, 0.0, 0.0, 0.0, 0.0, 0.0)",-0.14467433700617466,False,,,,,False,,,,
43,Close,,,"(2.93385406087929e-07, 0.16999904048782613, 0.0007066062149797113)","(1.5708337628331848, 0.0002686652895538331, -1.4044478861914954e-05)",,"[-0.026750000193715096, 0.05299999937415123, 0.03999999910593033]","[0.0, -0.0, 0.8277984323872327]","[-0.07977395504713058, 0.10170790553092957, 0.03999999910593033]","[0.0, -0.0, 0.15687485461046338]","[0.026750000193715096, 0.05299999937415123, 0.03999999910593033]","[0.0, 0.0, -0.8277987052452376]","[0.07977396249771118, 0.10170789808034897, 0.03999999910593033]","[0.0, 0.0, -0.15687847762667875]",0.8050185799631722,-5.467162132351259,"(0.0, 0.0, 0.0, 0.0, 0.0, 0.0)",0.9532674830029981,-0.6938313591081322,-5.497871416827678,"(0.0, 0.0, 0.0, 0.0, 0.0, 0.0)",0.1305069121449798,-0.8050188221177232,5.467168589805953,"(0.0, 0.0, 0.0, 0.0, 0.0, 0.0)",-0.9532694663734236,0.6938283417388244,5.49795188032743,"(0.0, 0.0, 0.0, 0.0, 0.0, 0.0)",-0.13050792520753388,False,,,,,False,,,,
44,Close,,,"(2.716665250887489e-07, 0.16999904330973556, 0.0007292741870466809)","(1.5708308659078907, 0.0002471556717650467, -1.4041672069322908e-05)",,"[-0.026750000193715096, 0.05299999937415123, 0.03999999910593033]","[0.0, -0.0, 0.8050185839979388]","[-0.07865073531866074, 0.10290304571390152, 0.03999999910593033]","[0.0, -0.0, 0.11118723016400785]","[0.026750000193715096, 0.05299999937415123, 0.03999999910593033]","[0.0, 0.0, -0.8050187952188965]","[0.07865074276924133, 0.10290303081274033, 0.03999999910593033]","[0.0, 0.0, -0.11119048022217565]",0.784516721966855,-4.920445919116134,"(0.0, 0.0, 0.0, 0.0, 0.0, 0.0)",0.8582975670224743,-0.7144483618360385,-4.948080654697517,"(0.0, 0.0, 0.0, 0.0, 0.0, 0.0)",0.11770004006048959,-0.784516939905951,4.92045173082536,"(0.0, 0.0, 0.0, 0.0, 0.0, 0.0)",-0.8582993561887614,0.7144456462047399,4.948153071819748,"(0.0, 0.0, 0.0, 0.0, 0.0, 0.0)",-0.11770095568272418,False,,,,,False,,,,
45,Close,,,"(2.51696986958339e-07, 0.1699990458957082, 0.0007501287178850499)","(1.5708282008276007, 0.000227366816649173, -1.4039201474218165e-05)",,"[-0.026750000193715096, 0.05299999937415123, 0.03999999910593033]","[0.0, -0.0, 0.7845167193080385]","[-0.07761679589748383, 0.10395654290914536, 0.03999999910593033]","[0.0, -0.0, 0.07006835685702544]","[0.026750000193715096, 0.05299999937415123, 0.03999999910593033]","[0.0, 0.0, -0.7845169946958266]","[0.07761680334806442, 0.10395653545856476, 0.03999999910593033]","[0.0, 0.0, -0.0700712989357174]",0.7660650497701694,-4.42840132720452,"(0.0, 0.0, 0.0, 0.0, 0.0, 0.0)",0.7727568402429666,-0.7330036506599046,-4.453269317727849,"(0.0, 0.0, 0.0, 0.0, 0.0, 0.0)",0.106127525293464,-0.7660652459153559,4.428406557742824,"(0.0, 0.0, 0.0, 0.0, 0.0, 0.0)",-0.7727584538402424,0.7330012065927102,4.453334493112861,"(0.0, 0.0, 0.0, 0.0, 0.0, 0.0)",-0.10612835248484857,False,,,,,False,,,,
46,Close,,,"(2.3333473952068603e-07, 0.16999904826492518, 0.0007693148831029557)","(1.5708257490378412, 0.00020916106414766092, -1.403701531280991e-05)",,"[-0.026750000193715096, 0.05299999937415123, 0.03999999910593033]","[0.0, -0.0, 0.7660649977175382]","[-0.07666795700788498, 0.10488639771938324, 0.03999999910593033]","[0.0, -0.0, 0.03306140223906952]","[0.026750000193715096, 0.05299999937415123, 0.03999999910593033]","[0.0, 0.0, -0.7660653079646047]","[0.07666796445846558, 0.10488638281822205, 0.03999999910593033]","[0.0, 0.0, -0.033064041138401834]",0.7494585447931524,-3.985561194484066,"(0.0, 0.0, 0.0, 0.0, 0.0, 0.0)",0.6957152666369016,-0.7497033982890566,-4.007939430996486,"(0.0, 0.0, 0.0, 0.0, 0.0, 0.0)",0.09567473522853766,-0.7494587213238203,3.985565901968542,"(0.0, 0.0, 0.0, 0.0, 0.0, 0.0)",-0.6957167215859875,0.7497011986294615,4.007998088820328,"(0.0, 0.0, 0.0, 0.0, 0.0, 0.0)",-0.09567548223716564,False,,,,,False,,,,
47,Close,,,"(2.1644941757498085e-07, 0.1699990504349868, 0.0007869661522299996)","(1.5708234934689855, 0.0001924117668631307, -1.4035069780186692e-05)",,"[-0.026750000193715096, 0.05299999937415123, 0.03999999910593033]","[0.0, -0.0, 0.7494586090384826]","[-0.07579945772886276, 0.10570816695690155, 0.03999999910593033]","[0.0, 0.0, -0.000244853492999894]","[0.026750000193715096, 0.05299999937415123, 0.03999999910593033]","[0.0, 0.0, -0.7494587081400255]","[0.07579946517944336, 0.10570815205574036, 0.03999999910593033]","[0.0, -0.0, 0.00024247731079752444]",0.7345126903138371,-3.587005075035659,"(0.0, 0.0, 0.0, 0.0, 0.0, 0.0)",0.626333365984163,-0.764733160038395,-3.6071428198412123,"(0.0, 0.0, 0.0, 0.0, 0.0, 0.0)",0.08623682787405348,-0.7345128491914382,3.587009311771688,"(0.0, 0.0, 0.0, 0.0, 0.0, 0.0)",-0.6263346776346612,0.7647311803455538,3.607195611862134,"(0.0, 0.0, 0.0, 0.0, 0.0, 0.0)",-0.08623750223625977,False,,,,,False,,,,
48,Close,,,"(1.9902478529523268e-07, 0.16999905216510106, 0.0008031506134026157)","(1.5708213694672628, 0.00017518801369688713, -1.4031269556480368e-05)",,"[-0.026750000193715096, 0.05299999937415123, 0.03999999910593033]","[0.0, -0.0, 0.7345126628086843]","[-0.07500623911619186, 0.10643533617258072, 0.03999999910593033]","[0.0, 0.0, -0.03022046980229406]","[0.026750000193715096, 0.05299999937415123, 0.03999999910593033]","[0.0, 0.0, -0.7345128981556924]","[0.07500624656677246, 0.10643532872200012, 0.03999999910593033]","[0.0, -0.0, 0.03021832986745902]",0.7210614212824534,-3.228304567532092,"(0.0, 0.0, 0.0, 0.0, 0.0, 0.0)",0.5638237707840803,-0.7782610712626786,-3.246698693828069,"(0.0, 0.0, 0.0, 0.0, 0.0, 0.0)",0.07768823801248652,-0.7210615642722944,3.2283083805945183,"(0.0, 0.0, 0.0, 0.0, 0.0, 0.0)",-0.5638249528147553,0.7782592895487316,3.2467462087626835,"(0.0, 0.0, 0.0, 0.0, 0.0, 0.0)",-0.07768884636877696,False,,,,,False,,,,
49,Close,,,"(1.829952775457341e-07, 0.16999905372445717, 0.0008180403399689366)","(1.5708194143492393, 0.00015934185659229473, -1.4027683329641553e-05)",,"[-0.026750000193715096, 0.05299999937415123, 0.03999999910593033]","[0.0, -0.0, 0.7210614193238458]","[-0.07428312301635742, 0.10707958787679672, 0.03999999910593033]","[0.0, 0.0, -0.05719964992344959]","[0.026750000193715096, 0.05299999937415123, 0.03999999910593033]","[0.0, 0.0, -0.7210615729227128]","[0.07428313046693802, 0.10707958042621613, 0.03999999910593033]","[0.0, -0.0, 0.05719773186848648]",0.7089552791542081,-2.905474110778883,"(0.0, 0.0, 0.0, 0.0, 0.0, 0.0)",0.5075985242705942,-0.7904360705014085,-2.921999817295172,"(0.0, 0.0, 0.0, 0.0, 0.0, 0.0)",0.07003713951344083,-0.7089554078450649,2.905477542535066,"(0.0, 0.0, 0.0, 0.0, 0.0, 0.0)",-0.5075995897946305,0.7904344669675306,2.9220425805117625,"(0.0, 0.0, 0.0, 0.0, 0.0, 0.0)",-0.07003768863744474,False,,,,,False,,,,
50,Close,,,"(1.682467379846132e-07, 0.1699990551245469, 0.0008317388481303276)","(1.570817615731277, 0.00014476218910829968, -1.4024269510216624e-05)",,"[-0.026750000193715096, 0.05299999937415123, 0.03999999910593033]","[0.0, -0.0, 0.7089552779168017]","[-0.07362496107816696, 0.10765105485916138, 0.03999999910593033]","[0.0, 0.0, -0.08148078223376223]","[0.026750000193715096, 0.05299999937415123, 0.03999999910593033]","[0.0, 0.0, -0.7089554724698194]","[0.07362496852874756, 0.10765104740858078, 0.03999999910593033]","[0.0, -0.0, 0.0814790502780401]",0.6980597512387873,-2.6149266997009946,"(0.0, 0.0, 0.0, 0.0, 0.0, 0.0)",0.45693917814201784,-0.8013934602632394,-2.6297735428394082,"(0.0, 0.0, 0.0, 0.0, 0.0, 0.0)",0.06310201359777694,-0.6980598670605584,2.614929788281559,"(0.0, 0.0, 0.0, 0.0, 0.0, 0.0)",-0.45694013827892466,0.8013920170905735,2.6298120295302843,"(0.0, 0.0, 0.0, 0.0, 0.0, 0.0)",-0.06310250889925509,False,,,,,False,,,,
51,Close,,,"(1.546756367802499e-07, 0.16999905637827734, 0.0008443414385910609)","(1.5708159610857961, 0.00013134778772512943, -1.402100024143693e-05)",,"[-0.026750000193715096, 0.05299999937415123, 0.03999999910593033]","[0.0, -0.0, 0.6980597686270504]","[-0.07302673906087875, 0.10815852880477905, 0.03999999910593033]","[0.0, 0.0, -0.10333370902653251]","[0.026750000193715096, 0.05299999937415123, 0.03999999910593033]","[0.0, 0.0, -0.6980598246378259]","[0.07302674651145935, 0.10815852135419846, 0.03999999910593033]","[0.0, -0.0, 0.10333215264877679]",0.6882537761149086,-2.3534340297308955,"(0.0, 0.0, 0.0, 0.0, 0.0, 0.0)",0.41132662822933225,-0.8112550122446371,-2.3667724755354502,"(0.0, 0.0, 0.0, 0.0, 0.0, 0.0)",0.056847326346645,-0.6882538803545026,2.353436809453404,"(0.0, 0.0, 0.0, 0.0, 0.0, 0.0)",-0.4113274932960819,0.8112537133962935,2.3668071133728046,"(0.0, 0.0, 0.0, 0.0, 0.0, 0.0)",-0.0568477730004364,False,,,,,False,,,,
52,Close,,,"(1.4218689550358636e-07, 0.1699990574974972, 0.0008559357877458743)","(1.5708144388885392, 0.00011900551991941484, -1.4017852050493115e-05)",,"[-0.026750000193715096, 0.05299999937415123, 0.03999999910593033]","[0.0, -0.0, 0.6882538042795985]","[-0.07248363643884659, 0.10860966145992279, 0.03999999910593033]","[0.0, 0.0, -0.12300123728040792]","[0.026750000193715096, 0.05299999937415123, 0.03999999910593033]","[0.0, 0.0, -0.688253900607872]","[0.07248364388942719, 0.1086096540093422, 0.03999999910593033]","[0.0, -0.0, 0.12299984676553348]",0.6794283985034177,-2.118090626757806,"(0.0, 0.0, 0.0, 0.0, 0.0, 0.0)",0.3702598465395096,-0.8201303199370257,-2.1300738461732434,"(0.0, 0.0, 0.0, 0.0, 0.0, 0.0)",0.051207533272865695,-0.6794284923190523,2.1180931285080637,"(0.0, 0.0, 0.0, 0.0, 0.0, 0.0)",-0.37026062586363284,0.8201291509798778,2.130105020060234,"(0.0, 0.0, 0.0, 0.0, 0.0, 0.0)",-0.051207935975855504,False,,,,,False,,,,
53,Close,,,"(1.3069318416839e-07, 0.16999905849308636, 0.0008666025576372722)","(1.5708130385376784, 0.00010764969663878531, -1.401480516953977e-05)",,"[-0.026750000193715096, 0.05299999937415123, 0.03999999910593033]","[0.0, -0.0, 0.6794284238724229]","[-0.07199108600616455, 0.10901110619306564, 0.03999999910593033]","[0.0, 0.0, -0.14070193198542613]","[0.026750000193715096, 0.05299999937415123, 0.03999999910593033]","[0.0, 0.0, -0.6794284800706577]","[0.07199109345674515, 0.10901109874248505, 0.03999999910593033]","[0.0, -0.0, 0.1407006814892172]",0.6714855586530759,-1.9062815640820263,"(0.0, 0.0, 0.0, 0.0, 0.0, 0.0)",0.33328720146674756,-0.82811801654313,-1.9170471854650495,"(0.0, 0.0, 0.0, 0.0, 0.0, 0.0)",0.0461231568532664,-0.6714856430871471,1.9062838156572566,"(0.0, 0.0, 0.0, 0.0, 0.0, 0.0)",-0.33328790347714454,0.8281169644874314,1.917075241812861,"(0.0, 0.0, 0.0, 0.0, 0.0, 0.0)",-0.04612351986457081,False,,,,,False,,,,
54,Close,,,"(1.201142787701026e-07, 0.1699990593750365, 0.0008764159571233717)","(1.5708117502799854, 9.720147739875066e-05, -1.4011842957469135e-05)",,"[-0.026750000193715096, 0.05299999937415123, 0.03999999910593033]","[0.0, -0.0, 0.6714856028191667]","[-0.07154478132724762, 0.10936867445707321, 0.03999999910593033]","[0.0, 0.0, -0.1566324602805662]","[0.026750000193715096, 0.05299999937415123, 0.03999999910593033]","[0.0, 0.0, -0.6714856028191667]","[0.07154478132724762, 0.10936867445707321, 0.03999999910593033]","[0.0, -0.0, 0.15663130155257995]",0.6643370027877683,-1.7156534076738226,"(0.0, 0.0, 0.0, 0.0, 0.0, 0.0)",0.30000166468946887,-0.8353068710937589,-1.7253250921509458,"(0.0, 0.0, 0.0, 0.0, 0.0, 0.0)",0.041540284771796165,-0.6643370787784324,1.7156554340915304,"(0.0, 0.0, 0.0, 0.0, 0.0, 0.0)",-0.3000022969997827,0.8353059242487986,1.725350342728124,"(0.0, 0.0, 0.0, 0.0, 0.0, 0.0)",-0.041540611950472935,False,,,,,False,,,,
55,Close,,,"(1.1037647424359984e-07, 0.16999906015252483, 0.0008854442581506275)","(1.5708105651429114, 8.758832292823178e-05, -1.4008951415989527e-05)",,"[-0.026750000193715096, 0.05299999937415123, 0.03999999910593033]","[0.0, -0.0, 0.6643370606126838]","[-0.07114068418741226, 0.1096874549984932, 0.03999999910593033]","[0.0, 0.0, -0.17096987637179278]","[0.026750000193715096, 0.05299999937415123, 0.03999999910593033]","[0.0, 0.0, -0.6643370606126838]","[0.07114069163799286, 0.1096874475479126, 0.03999999910593033]","[0.0, -0.0, 0.17096884643662202]",0.6579033025089914,-1.5440880669064398,"(0.0, 0.0, 0.0, 0.0, 0.0, 0.0)",0.2700364572532802,-0.8417767749452665,-1.5527769243618206,"(0.0, 0.0, 0.0, 0.0, 0.0, 0.0)",0.03741008611729049,-0.6579033709005891,1.5440898906823783,"(0.0, 0.0, 0.0, 0.0, 0.0, 0.0)",-0.27003702673818186,0.8417759227894597,1.5527996497586782,"(0.0, 0.0, 0.0, 0.0, 0.0, 0.0)",-0.03741038095743008,False,,,,,False,,,,
56,Close,,,"(1.0141204673652616e-07, 0.16999906083398159, 0.0008937502707232629)","(1.570809474872104, 7.87434915574051e-05, -1.4006118772737545e-05)",,"[-0.026750000193715096, 0.05299999937415123, 0.03999999910593033]","[0.0, -0.0, 0.6579033304946226]","[-0.07077505439519882, 0.10997187346220016, 0.03999999910593033]","[0.0, 0.0, -0.18387348897538708]","[0.026750000193715096, 0.05299999937415123, 0.03999999910593033]","[0.0, 0.0, -0.6579033304946226]","[0.07077506184577942, 0.10997187346220016, 0.03999999910593033]","[0.0, -0.0, 0.1838725619548152]",0.6521129722580923,-1.3896792602157946,"(0.0, 0.0, 0.0, 0.0, 0.0, 0.0)",0.24306111081870946,-0.8475996296201711,-1.3974851219770965,"(0.0, 0.0, 0.0, 0.0, 0.0, 0.0)",0.033688362136148925,-0.6521130338105302,1.38968090161414,"(0.0, 0.0, 0.0, 0.0, 0.0, 0.0)",-0.24306162368353448,0.8475988626841415,1.3975055747236533,"(0.0, 0.0, 0.0, 0.0, 0.0, 0.0)",-0.03368862779939208,False,,,,,False,,,,
57,Close,,,"(9.31587620256511e-08, 0.16999906142715163, 0.0009013917798737923)","(1.570808471873919, 7.060557585400826e-05, -1.4003335136779464e-05)",,"[-0.026750000193715096, 0.05299999937415123, 0.03999999910593033]","[0.0, -0.0, 0.6521129301518677]","[-0.07044443488121033, 0.11022583395242691, 0.03999999910593033]","[0.0, 0.0, -0.19548665573955404]","[0.026750000193715096, 0.05299999937415123, 0.03999999910593033]","[0.0, 0.0, -0.6521129866161153]","[0.07044444233179092, 0.11022583395242691, 0.03999999910593033]","[0.0, -0.0, 0.19548582525750646]",0.646901675032283,-1.2507113341942153,"(0.0, 0.0, 0.0, 0.0, 0.0, 0.0)",0.2187779064062842,-0.8528401458571484,-1.2577238968745574,"(0.0, 0.0, 0.0, 0.0, 0.0, 0.0)",0.03033513071724496,-0.6469017304294772,1.2507128114527255,"(0.0, 0.0, 0.0, 0.0, 0.0, 0.0)",-0.2187783682505172,0.8528394556185027,1.2577423042466835,"(0.0, 0.0, 0.0, 0.0, 0.0, 0.0)",-0.03033537006280305,False,,,,,False,,,,
58,Close,,,"(8.555942447331213e-08, 0.16999906193915107, 0.000908421947674647)","(1.5708075491625393, 6.311807629477444e-05, -1.4000592203169427e-05)",,"[-0.026750000193715096, 0.05299999937415123, 0.03999999910593033]","[0.0, -0.0, 0.6469017074975589]","[-0.0701456218957901, 0.11045276373624802, 0.03999999910593033]","[0.0, 0.0, -0.20593848593871938]","[0.026750000193715096, 0.05299999937415123, 0.03999999910593033]","[0.0, 0.0, -0.6469017640113621]","[0.0701456293463707, 0.11045276373624802, 0.03999999910593033]","[0.0, -0.0, 0.2059377054983325]",0.6422115075290548,-1.1256402007747932,"(0.0, 0.0, 0.0, 0.0, 0.0, 0.0)",0.19691865600140895,-0.8575565627499749,-1.1319400542783593,"(0.0, 0.0, 0.0, 0.0, 0.0, 0.0)",0.027314243362735774,-0.6422115573865295,1.1256415303074527,"(0.0, 0.0, 0.0, 0.0, 0.0, 0.0)",-0.19691907187647334,0.8575559415385998,1.1319566208232932,"(0.0, 0.0, 0.0, 0.0, 0.0, 0.0)",-0.027314458975022625,False,,,,,False,,,,
59,Move,,,"(7.856146500561274e-08, 0.16999906237651882, 0.0009148896830877347)","(1.5708067003113224, 5.6229009009845055e-05, -1.399788300299107e-05)","[0.0, 0.0, 0.0]","[-0.026750000193715096, 0.05299999937415123, 0.03999999910593033]","[0.0, -0.0, 0.6422115222668433]","[-0.06987567991018295, 0.11065566539764404, 0.03999999910593033]","[0.0, 0.0, -0.21534502689171695]","[0.026750000193715096, 0.05299999937415123, 0.03999999910593033]","[0.0, 0.0, -0.6422115222668433]","[0.06987568736076355, 0.11065565794706345, 0.03999999910593033]","[0.0, -0.0, 0.2153443918565048]",0.6379903567761492,-1.0130761806973148,"(0.0, 0.0, 0.0, 0.0, 0.0, 0.0)",0.17724179525373857,-0.861801294967015,-1.0187357320896053,"(0.0, 0.0, 0.0, 0.0, 0.0, 0.0)",0.024593033118920006,-0.6379904016478766,1.0130773772767077,"(0.0, 0.0, 0.0, 0.0, 0.0, 0.0)",-0.1772421697155535,0.8618007358798453,1.0187506418989196,"(0.0, 0.0, 0.0, 0.0, 0.0, 0.0)",-0.024593227332916724,False,,,,,False,,,,
60,Move,,,"(7.401516452493873e-08, 0.16999906300717518, 0.0009208949427311885)","(1.5708059692049072, 5.171406878091127e-05, -1.3997173418156156e-05)","[-4.546300480674002e-09, 6.306563604674409e-10, 6.005259643453772e-06]","[-0.026750000193715096, 0.05299999937415123, 0.03999999910593033]","[0.0, -0.0, 0.6379903239810443]","[-0.06963192671537399, 0.1108371913433075, 0.03999999910593033]","[0.0, 0.0, -0.2238109552587812]","[0.026750000193715096, 0.05299999937415123, 0.03999999910593033]","[0.0, 0.0, -0.6379904179642307]","[0.06963192671537399, 0.1108371838927269, 0.03999999910593033]","[0.0, -0.0, 0.22381033482023305]",0.615110639462399,-5.491132155300077,"(0.0, 0.0, 0.0, 0.0, 0.0, 0.0)",-6.452665348763696,-0.8613763884842398,0.10197755586604229,"(0.0, 0.0, 0.0, 0.0, 0.0, 0.0)",-0.36782542138199165,-0.6151107211023208,5.491123330933392,"(0.0, 0.0, 0.0, 0.0, 0.0, 0.0)",6.4526488408560905,0.8613758231880564,-0.10197904602934349,"(0.0, 0.0, 0.0, 0.0, 0.0, 0.0)",0.36782252911949487,False,,,,,False,,,,
61,Move,,,"(6.525734425186348e-05, 0.17034549853437667, 0.001059997142676121)","(1.5643418998519334, 0.00019756355969089426, -0.0007979474479338168)","[6.517878278685787e-05, 0.00034643615785784343, 0.00014510745958838623]","[-0.026750000193715096, 0.05299999937415123, 0.03999999910593033]","[0.0, -0.0, 0.6151107619663475]","[-0.06829752027988434, 0.1118030920624733, 0.03999999910593033]","[0.0, 0.0, -0.24626574387408112]","[0.026750000193715096, 0.05299999937415123, 0.03999999910593033]","[0.0, 0.0, -0.6151107619663475]","[0.06829752773046494, 0.1118030920624733, 0.03999999910593033]","[0.0, -0.0, 0.24626510812228053]",0.59557520589455,-4.68850405628373,"(0.0, 0.0, 0.0, 0.0, 0.0, 0.0)",-45.004877301260535,-0.841587039207075,4.749443826519566,"(0.0, 0.0, 0.0, 0.0, 0.0, 0.0)",-23.059879711313982,-0.5955448471476087,4.6958097491309045,"(0.0, 0.0, 0.0, 0.0, 0.0, 0.0)",43.2331221848827,0.8422035798107438,-4.601338410555013,"(0.0, 0.0, 0.0, 0.0, 0.0, 0.0)",22.069611273367745,True,"(-0.03288698015965098, 0.18306432161630465, 0.039999948285931244)","(0.9999999985648672, -1.399717339714095e-05, -5.171406875791205e-05)",0.0009292587523792685,356.63318049990795,True,"(0.032887031061809374, 0.18306436848012048, 0.04000005171406876)","(-0.9999999985648671, 1.3997173395198976e-05, 5.171406875668148e-05)",0.0009247539911204204,342.7710504396539
62,Move,"(-0.0011, 0.0, 0.0014)","(0.0, 0.01321039710834508, 0.0)","(0.00016176697229314485, 0.17076934431250207, 0.001298992481510786)","(1.553459115144406, 0.0004787126916021603, -0.0016283617000435679)","[0.00016168841082813925, 0.0007702819359832469, 0.0003841027984230513]","[-0.026750000193715096, 0.05299999937415123, 0.03999999910593033]","[0.0, -0.0, 0.5955751094143519]","[-0.06714092195034027, 0.11260347068309784, 0.03999999910593033]","[0.0, 0.0, -0.24601185159459507]","[0.026750000193715096, 0.05299999937415123, 0.03999999910593033]","[0.0, 0.0, -0.5955448282145998]","[0.06713911145925522, 0.11260469257831573, 0.03999999910593033]","[0.0, -0.0, 0.24665872904210193]",0.5770970782178444,-4.434750642409365,"(0.0, 0.0, 0.0, 0.0, 0.0, 0.0)",-74.21698749878065,-0.811850997818181,7.136649933334551,"(0.0, 0.0, 0.0, 0.0, 0.0, 0.0)",-37.92588619525253,-0.5770027641966642,4.450099908226674,"(0.0, 0.0, 0.0, 0.0, 0.0, 0.0)",71.59541053355323,0.8135423707664626,-6.878690170627483,"(0.0, 0.0, 0.0, 0.0, 0.0, 0.0)",36.485404729774935,True,"(-0.03174847742362094, 0.1838726496858637, 0.03999980243644159)","(0.9999996621242782, -0.0007979473476813144, -0.0001975635584110712)",-0.00012778812911608492,569.3446982775357,True,"(0.031700570614753176, 0.18385320841010633, 0.0400001975635584)","(-0.9999996621242783, 0.0007979473476767542, 0.0001975635584049517)",-0.0003431682129125587,549.2893233704585
63,Move,"(-0.0012, 0.0, 0.0023)","(0.0, 0.03511427922087392, 0.0)","(0.00020577207903609007, 0.17108010134634594, 0.0015666056226890735)","(1.5453977037680617, 0.00011303702768835708, -0.001707641176071735)","[0.00020569351757108447, 0.001081038969827114, 0.0006517159396013388]","[-0.026750000193715096, 0.05299999937415123, 0.03999999910593033]","[0.0, -0.0, 0.5770971029289548]","[-0.06603273004293442, 0.11333960294723511, 0.03999999910593033]","[0.0, 0.0, -0.23475391897699402]","[0.026750000193715096, 0.05299999937415123, 0.03999999910593033]","[0.0, 0.0, -0.5770027543990871]","[0.06602703779935837, 0.11334330588579178, 0.03999999910593033]","[0.0, -0.0, 0.23653961426052006]",0.5798086576467507,0.6507790629375112,"(0.0, 0.0, 0.0, 0.0, 0.0, 0.0)",6.605678754448107,-0.8148246019570704,-0.7136649933334551,"(0.0, 0.0, 0.0, 0.0, 0.0, 0.0)",-0.302630533994846,-0.5792921208016301,-0.5494455851918039,"(0.0, 0.0, 0.0, 0.0, 0.0, 0.0)",-6.169759963453868,0.8163981486079218,0.6853866819502086,"(0.0, 0.0, 0.0, 0.0, 0.0, 0.0)",0.4838169269004353,True,"(-0.03144479909141533, 0.18499061278782541, 0.039999521287326686)","(0.9999985596366134, -0.0016283607938474471, -0.0004787126733201028)",-0.00031179486038545077,0.0,True,"(0.0313112124765586, 0.1849374824167095, 0.040000478712673315)","(-0.9999985596366132, 0.0016283607938671909, 0.0004787126733090728)",-0.0008521962835819142,2.600206103018749
64,Move,"(-0.0017, 0.0, 0.003)","(0.0, 0.07426375967235874, 0.0)","(0.00024147940120507907, 0.17132850244054887, 0.0017830687684196615)","(1.5389396873565848, -0.00030946198443217615, -0.0015887755219481563)","[0.00024140083974007347, 0.0013294400640300463, 0.0008681790853319268]","[-0.026750000193715096, 0.05299999937415123, 0.03999999910593033]","[0.0, -0.0, 0.579808653608042]","[-0.06619619578123093, 0.11323285847902298, 0.03999999910593033]","[0.0, 0.0, -0.23501595003737002]","[0.026750000193715096, 0.05299999937415123, 0.03999999910593033]","[0.0, 0.0, -0.5792922200734686]","[0.06616508215665817, 0.11325322836637497, 0.03999999910593033]","[0.0, -0.0, 0.23710599024879164]",0.580577026540865,0.18440853458742706,"(0.0, 0.0, 0.0, 0.0, 0.0, 0.0)",-0.5986208186743661,-0.8145272415431815,0.0713664993333446,"(0.0, 0.0, 0.0, 0.0, 0.0, 0.0)",0.03490012357830739,-0.5797386156566462,-0.10715876520387868,"(0.0, 0.0, 0.0, 0.0, 0.0, 0.0)",0.6005783460273034,0.8161112785381622,-0.06884881674228882,"(0.0, 0.0, 0.0, 0.0, 0.0, 0.0)",-0.014149997826992737,True,"(-0.03158949650623672, 0.18487499024587184, 0.03999988696297256)","(0.9999985355924857, -0.0017076403352303527, -0.00011303702744331382)",-0.00013687607215548937,0.0,True,"(0.0314087106636559, 0.1848283756530023, 0.040000113037027434)","(-0.9999985355924856, 0.0017076403352419825, 0.0001130370274375446)",-0.0007849278151571748,0.2587210414997065
65,Move,"(-0.0028, 0.0, 0.0039)","(0.0, 0.1183525219069875, 0.0)","(0.0002555565727209337, 0.1715092374176505, 0.001946412461687911)","(1.5341636156184268, -0.0002851925820756686, -0.00023772242824223445)","[0.0002554780112559281, 0.0015101750411316839, 0.0010315227786001763]","[-0.026750000193715096, 0.05299999937415123, 0.03999999910593033]","[0.0, -0.0, 0.5805770293930257]","[-0.06624247133731842, 0.1132025346159935, 0.03999999910593033]","[0.0, 0.0, -0.23395020002534822]","[0.026750000193715096, 0.05299999937415123, 0.03999999910593033]","[0.0, 0.0, -0.5797386715388454]","[0.06619197875261307, 0.11323562264442444, 0.03999999910593033]","[0.0, -0.0, 0.23637269080681433]",0.5812666723208565,0.16551498719797844,"(0.0, 0.0, 0.0, 0.0, 0.0, 0.0)",-0.03629027170676541,-0.8145569775845704,-0.007136649933334738,"(0.0, 0.0, 0.0, 0.0, 0.0, 0.0)",-0.010661510520660713,-0.5801397629007163,-0.09627533857684625,"(0.0, 0.0, 0.0, 0.0, 0.0, 0.0)",0.2535846617016353,0.8161051336029272,-0.001474784456386713,"(0.0, 0.0, 0.0, 0.0, 0.0, 0.0)",0.1455076397808255,True,"(-0.03171213776727766, 0.18488055705846612, 0.0400003094619795)","(0.9999986900131368, -0.0015887747774864928, 0.00030946197949695964)",3.280500487336367e-06,0.0,True,"(0.03148810785931903, 0.18483538864116106, 0.039999690538020494)","(-0.9999986900131368, 0.0015887747774788697, -0.00030946197950691126)",-0.0007230444720350081,1.7575733793316461
66,Move,"(-0.0073, 0.0, 0.0081)","(0.0, 0.14557267692109105, 0.0)","(0.0002740221078179573, 0.17162845033738738, 0.0020594155698318134)","(1.5309704172332155, -0.00025890185365918964, 0.0009354079065951956)","[0.0002739435463529517, 0.0016293879608685613, 0.0011445258867440787]","[-0.026750000193715096, 0.05299999937415123, 0.03999999910593033]","[0.0, -0.0, 0.5812666420440017]","[-0.06628397852182388, 0.11317528039216995, 0.03999999910593033]","[0.0, 0.0, -0.23329030829297198]","[0.026750000193715096, 0.05299999937415123, 0.03999999910593033]","[0.0, 0.0, -0.5801398040578839]","[0.06621614098548889, 0.11321979761123657, 0.03999999910593033]","[0.0, -0.0, 0.235965385451795]",0.5821945187174848,0.22268313519080965,"(0.0, 0.0, 0.0, 0.0, 0.0, 0.0)",0.08483739234235824,-0.8145541164781986,0.0006866655292068419,"(0.0, 0.0, 0.0, 0.0, 0.0, 0.0)",0.00712153930392835,-0.5805921821043755,-0.10858060887820109,"(0.0, 0.0, 0.0, 0.0, 0.0, 0.0)",-0.01791347938091284,0.8161057666028947,0.0001519199921901826,"(0.0, 0.0, 0.0, 0.0, 0.0, 0.0)",-0.0011715287452129213,True,"(-0.031800954926251526, 0.18487676936574066, 0.0400002851925782)","(0.9999999310766208, -0.00023772241634622906, 0.0002851925782005602)",8.88351806687357e-05,0.0,True,"(0.03154143097048828, 0.18483193208620494, 0.03999971480742179)","(-0.9999999310766207, 0.00023772241633690224, -0.00028519257821144745)",-0.0006664415311049618,0.0
67,Move,"(-0.009800000000000001, 0.0, 0.0092)","(0.0, 0.13193991013376333, 0.0)","(0.00026718022806996667, 0.17168839821225676, 0.0021169229108053815)","(1.5295600159421967, -0.0002649121367906089, 0.0019579428718061198)","[0.00026710166660496107, 0.0016893358357379373, 0.0012020332277176467]","[-0.026750000193715096, 0.05299999937415123, 0.03999999910593033]","[0.0, -0.0, 0.5821945519640085]","[-0.06633979082107544, 0.1131385788321495, 0.03999999910593033]","[0.0, 0.0, -0.2323596119404824]","[0.026750000193715096, 0.05299999937415123, 0.03999999910593033]","[0.0, 0.0, -0.5805921698151038]","[0.06624338030815125, 0.11320193111896515, 0.03999999910593033]","[0.0, -0.0, 0.23551355755106657]",0.5845882372006603,0.574492435962112,"(0.0, 0.0, 0.0, 0.0, 0.0, 0.0)",0.516528516994511,-0.8145544025888358,-6.86665529210373e-05,"(0.0, 0.0, 0.0, 0.0, 0.0, 0.0)",0.038454175866120786,-0.5807377116767348,-0.03492709736625797,"(0.0, 0.0, 0.0, 0.0, 0.0, 0.0)",0.5714956608270068,0.8159925861411494,-0.027163310818865926,"(0.0, 0.0, 0.0, 0.0, 0.0, 0.0)",0.2814126241391936,True,"(-0.03192351954717091, 0.1848723669814678, 0.04000025890185076)","(0.999999528990986, 0.0009354077388359792, 0.00025890185075651777)",0.0002153158841960774,0.0,True,"(0.031601028628054174, 0.18482810401412675, 0.03999974109814924)","(-0.9999995289909859, -0.0009354077388247795, -0.0002589018507629478)",-0.0006108375451499024,3.5611106991929775
68,Move,"(-0.008199999999999999, 0.0, 0.0114)","(0.0, 0.10481400289926746, 0.0)","(0.0002135382686857572, 0.17171347511547286, 0.00211508017287458)","(1.5300517606954223, -0.0002864423209181198, 0.0022819611175764485)","[0.0002134597072207516, 0.0017144127389540353, 0.0012001904897868455]","[-0.026750000193715096, 0.05299999937415123, 0.03999999910593033]","[0.0, -0.0, 0.5845883163159998]","[-0.06648363173007965, 0.1130436360836029, 0.03999999910593033]","[0.0, 0.0, -0.22996615463124415]","[0.026750000193715096, 0.05299999937415123, 0.03999999910593033]","[0.0, 0.0, -0.5807376945301326]","[0.06625214219093323, 0.11319618672132492, 0.03999999910593033]","[0.0, -0.0, 0.23525486928449788]",0.587671834829679,0.7400634309644766,"(0.0, 0.0, 0.0, 0.0, 0.0, 0.0)",0.24327049456821107,-0.8145543739777721,6.866655292370183e-06,"(0.0, 0.0, 0.0, 0.0, 0.0, 0.0)",0.018158945644938432,-0.5805568092527787,0.04341658174944737,"(0.0, 0.0, 0.0, 0.0, 0.0, 0.0)",0.9581496502062793,0.8158519915646042,-0.03374269837086072,"(0.0, 0.0, 0.0, 0.0, 0.0, 0.0)",0.49526684941952887,True,"(-0.03223914557659183, 0.18485822454697703, 0.040000264912133696)","(0.9999980481413151, 0.00195794155211971, 0.00026491213369472365)",0.0005104416609506451,0.0,True,"(0.03162832262889798, 0.1848300346050897, 0.03999973508786629)","(-0.999998048141315, -0.0019579415521235543, -0.00026491213370530173)",-0.0005631518279103708,6.431585655498058
69,Move,"(-0.0096, 0.0, 0.0127)","(0.0, 0.09629156016177917, 0.0)","(0.00018983590012416825, 0.17170841562830363, 0.00206215278042376)","(1.532141059013111, -0.0002893380413821474, 0.0015254639894374286)","[0.00018975733865916265, 0.001709353251784812, 0.0011472630973360255]","[-0.026750000193715096, 0.05299999937415123, 0.03999999910593033]","[0.0, -0.0, 0.5876718456879245]","[-0.06666859984397888, 0.11292082816362381, 0.03999999910593033]","[0.0, 0.0, -0.22688256201475276]","[0.026750000193715096, 0.05299999937415123, 0.03999999910593033]","[0.0, 0.0, -0.5805568305477322]","[0.06624124944210052, 0.11320333182811737, 0.03999999910593033]","[0.0, -0.0, 0.23529517602048103]",0.5908244788375533,0.7566345618898228,"(0.0, 0.0, 0.0, 0.0, 0.0, 0.0)",0.02453918899639079,-0.814554405855614,-7.650682051261358e-06,"(0.0, 0.0, 0.0, 0.0, 0.0, 0.0)",0.0018368704333678182,-0.5810674481502294,-0.12255333538814384,"(0.0, 0.0, 0.0, 0.0, 0.0, 0.0)",-0.23960894378360423,0.8158662738616108,0.003427751281601367,"(0.0, 0.0, 0.0, 0.0, 0.0, 0.0)",-0.01410658401813393,True,"(-0.03264570850248581, 0.1848379127510441, 0.040000286442317005)","(0.9999973553033643, 0.0022819590434692964, 0.0002864423170054053)",0.0008583593242345998,0.0,True,"(0.031614545581625735, 0.18483550027371187, 0.03999971355768302)","(-0.9999973553033643, -0.002281959043476696, -0.0002864423169881368)",-0.0005182792358352845,0.0
70,Move,"(-0.0137, 0.0, 0.0136)","(0.0, 0.09629156016177917, 0.0)","(0.00016664798166873644, 0.17170019036709538, 0.001957666869050995)","(1.5358473690474483, -0.0002722587549680216, 0.0007745634826583566)","[0.00016656942020373084, 0.001701127990576562, 0.0010427771859632604]","[-0.026750000193715096, 0.05299999937415123, 0.03999999910593033]","[0.0, -0.0, 0.5908244785311269]","[-0.06685730814933777, 0.11279468238353729, 0.03999999910593033]","[0.0, 0.0, -0.2237299672485042]","[0.026750000193715096, 0.05299999937415123, 0.03999999910593033]","[0.0, 0.0, -0.5810674290219304]","[0.06627199053764343, 0.1131831556558609, 0.03999999910593033]","[0.0, -0.0, 0.2347988394919145]",0.594505620566057,0.8834740148409068,"(0.0, 0.0, 0.0, 0.0, 0.0, 0.0)",0.18644591577474842,-0.8145546224254521,-5.1976761128323615e-05,"(0.0, 0.0, 0.0, 0.0, 0.0, 0.0)",0.013911498717332344,-0.5813966481926707,-0.07900801018591785,"(0.0, 0.0, 0.0, 0.0, 0.0, 0.0)",0.0634912061097739,0.8158647768826031,-0.00035927496185515165,"(0.0, 0.0, 0.0, 0.0, 0.0, 0.0)",0.004352094309185047,True,"(-0.03306130062156033, 0.18481476037267747, 0.04000028933803734)","(0.9999987946218319, 0.001525463333947832, 0.0002893380373389)",0.001260127058387971,0.0,True,"(0.03168084152835596, 0.1848327651658792, 0.039999710661962645)","(-0.9999987946218322, -0.0015254633339562825, -0.0002893380373573002)",-0.0004380340265790614,0.0
71,Move,"(-0.012199999999999999, 0.0, 0.0148)","(0.0, 0.08774468281476293, 0.0)","(9.568747725450418e-05, 0.1716988144560819, 0.0018217229596723583)","(1.5409776658678842, -0.0006920185747101595, 0.0006549164959258062)","[9.560891578949857e-05, 0.0016997520795630772, 0.0009068332765846236]","[-0.026750000193715096, 0.05299999937415123, 0.03999999910593033]","[0.0, -0.0, 0.5945055839695632]","[-0.0670771449804306, 0.11264663934707642, 0.03999999910593033]","[0.0, 0.0, -0.2200490065369887]","[0.026750000193715096, 0.05299999937415123, 0.03999999910593033]","[0.0, 0.0, -0.5813967407948719]","[0.06629180163145065, 0.11317014694213867, 0.03999999910593033]","[0.0, -0.0, 0.23446815623435024]",0.5991481933233664,1.1142174617542437,"(0.0, 0.0, 0.0, 0.0, 0.0, 0.0)",0.33905897842098165,-0.8145546007684683,5.197676113510852e-06,"(0.0, 0.0, 0.0, 0.0, 0.0, 0.0)",0.025308811513328512,-0.5809562660256525,0.10569172008435876,"(0.0, 0.0, 0.0, 0.0, 0.0, 0.0)",1.0956513411133,0.8158359463106845,-0.006919337260469489,"(0.0, 0.0, 0.0, 0.0, 0.0, 0.0)",0.42824169776238347,True,"(-0.03354645669672868, 0.18478619547229402, 0.0400002722587516)","(0.9999996629633172, 0.0007745633765001113, 0.0002722587516040849)",0.0017326007545132769,0.0,True,"(0.03172434746875847, 0.18483160673921942, 0.039999727741248395)","(-0.9999996629633172, -0.0007745633765089904, -0.0002722587516015675)",-0.0003817819395884425,6.218031191513853
72,Move,"(-0.0137, 0.0, 0.0158)","(0.0, 0.08280714636087097, 0.0)","(6.401308183083776e-05, 0.17168549537494235, 0.0016252656749463548)","(1.547599195827577, -0.0006702442751093579, -0.0002868143190156562)","[6.393452036583214e-05, 0.001686432998423526, 0.00071037599185862]","[-0.026750000193715096, 0.05299999937415123, 0.03999999910593033]","[0.0, -0.0, 0.5991481797926951]","[-0.06735362857580185, 0.11245877295732498, 0.03999999910593033]","[0.0, 0.0, -0.21540644281168647]","[0.026750000193715096, 0.05299999937415123, 0.03999999910593033]","[0.0, 0.0, -0.5809562957109043]","[0.0662652999162674, 0.11318755149841309, 0.03999999910593033]","[0.0, -0.0, 0.23487972176961666]",0.6035739789863692,1.0621885591206646,"(0.0, 0.0, 0.0, 0.0, 0.0, 0.0)",-0.07605598896491336,-0.8145546029341667,-5.19767610285244e-07,"(0.0, 0.0, 0.0, 0.0, 0.0, 0.0)",-0.005656090410583957,-0.5810693099285296,-0.027130536690492882,"(0.0, 0.0, 0.0, 0.0, 0.0, 0.0)",-0.19416018420704784,0.8158388293678763,0.0006919337260464786,"(0.0, 0.0, 0.0, 0.0, 0.0, 0.0)",-0.01371175274454236,False,,,,,True,"(0.0316683560292933, 0.1848353132474107, 0.03999930798148053)","(-0.9999995460974064, -0.0006549162922870452, -0.0006920185194767028)",-0.0003523220647120387,0.0
73,Move,"(-0.0137, 0.0, 0.0158)","(0.0, 0.08280714636087097, 0.0)","(2.219247403521863e-05, 0.17166542154545297, 0.0013834594629682647)","(1.5556799041284404, -0.0006670956569179627, -0.0009442013033049838)","[2.2113912570213017e-05, 0.0016663591689341506, 0.00046856977988053]","[-0.026750000193715096, 0.05299999937415123, 0.03999999910593033]","[0.0, -0.0, 0.6035739401710731]","[-0.06761638075113297, 0.11227849125862122, 0.03999999910593033]","[0.0, 0.0, -0.21098065308837405]","[0.026750000193715096, 0.05299999937415123, 0.03999999910593033]","[0.0, 0.0, -0.5810693017762035]","[0.06627210229635239, 0.11318308115005493, 0.03999999910593033]","[0.0, -0.0, 0.23476950415758577]",0.6084742515247862,1.176065409220081,"(0.0, 0.0, 0.0, 0.0, 0.0, 0.0)",0.167521947788352,-0.8145546027175968,5.197676156143416e-08,"(0.0, 0.0, 0.0, 0.0, 0.0, 0.0)",0.012512409694286708,-0.5809407783855588,0.030847570312988664,"(0.0, 0.0, 0.0, 0.0, 0.0, 0.0)",0.5374381270309935,0.8157384912841695,-0.024081140089628427,"(0.0, 0.0, 0.0, 0.0, 0.0, 0.0)",0.23299322915040804,False,,,,,True,"(0.031683052478376966, 0.18483548826273216, 0.03999932975577507)","(-0.9999997342550969, 0.0002868142506584967, -0.0006702442249331668)",-0.00031901980535235905,3.4331384661994773
74,Move,"(-0.0137, 0.0, 0.0158)","(0.0, 0.08280714636087097, 0.0)","(-0.0019064385461899183, 0.17176624302518032, 0.001493369115989789)","(1.5691861853101032, -0.01782184900556478, 0.019984867883334395)","[-0.001906517107654924, 0.0017671806486614927, 0.0005784794329020543]","[-0.026750000193715096, 0.05299999937415123, 0.03999999910593033]","[0.0, -0.0, 0.6084742784168582]","[-0.06790636479854584, 0.11207751929759979, 0.03999999910593033]","[0.0, 0.0, -0.20608034996114943]","[0.026750000193715096, 0.05299999937415123, 0.03999999910593033]","[0.0, 0.0, -0.5809407555196854]","[0.06626436114311218, 0.11318816244602203, 0.03999999910593033]","[0.0, -0.0, 0.2347977164702773]",0.5853400662361075,-5.552204469282897,"(0.0, 0.0, 0.0, 0.0, 0.0, 0.0)",-9.878615965726812,-0.8145546027392538,-5.197676955476889e-09,"(0.0, 0.0, 0.0, 0.0, 0.0, 0.0)",-0.7368670820942996,-0.5589108119483247,5.287191944936192,"(0.0, 0.0, 0.0, 0.0, 0.0, 0.0)",26.18725059813501,0.8148672651040385,-0.20909428323144208,"(0.0, 0.0, 0.0, 0.0, 0.0, 0.0)",10.642284413618366,False,,,,,True,"(0.03167329702212457, 0.1848402779689046, 0.03999933290439256)","(-0.9999993317337822, 0.0009442009529130336, -0.0006670956074347013)",-0.00029559502449470163,140.30397170395887
75,Move,"(-0.0137, 0.0, 0.0158)","(0.0, 0.08280714636087097, 0.0)","(-0.001983462456468291, 0.17280780989634173, 0.0015238360521606432)","(1.5665481542232902, -0.01786995662990208, 0.020527707578200233)","[-0.001983541017933297, 0.0028087475198229073, 0.0006089463690729085]","[-0.026750000193715096, 0.05299999937415123, 0.03999999910593033]","[0.0, -0.0, 0.5853401125605687]","[-0.06652876734733582, 0.11301374435424805, 0.03999999910593033]","[0.0, 0.0, -0.22921454182496834]","[0.026750000193715096, 0.05299999937415123, 0.03999999910593033]","[0.0, 0.0, -0.5589108138792551]","[0.06492894142866135, 0.11404398828744888, 0.03999999910593033]","[0.0, -0.0, 0.2559564767929077]",0.5670588164891116,-4.387499939279005,"(0.0, 0.0, 0.0, 0.0, 0.0, 0.0)",-76.3653391827903,-0.783926335347397,7.350784174045658,"(0.0, 0.0, 0.0, 0.0, 0.0, 0.0)",-40.665974056980275,-0.5410915552877139,4.276621598546603,"(0.0, 0.0, 0.0, 0.0, 0.0, 0.0)",62.671835980409945,0.7838379241249639,-7.447041834977906,"(0.0, 0.0, 0.0, 0.0, 0.0, 0.0)",32.775600709807314,True,"(-0.032362917402638414, 0.18476718185032914, 0.042162692156481545)","(0.999641535938513, 0.01998036411624535, 0.01782090559631085)",-0.0024989655435875284,596.3674433306081,True,"(0.028829660321307626, 0.18494821577788328, 0.03999933290439256)","(-0.9999993317337822, 0.0009442009529130336, -0.0006670956074347013)",-0.00026867184535545843,491.40225861570775
76,Move,"(-0.0152, 0.0, 0.017)","(0.0, 0.06938556441303458, 0.0)","(-0.002089130337752375, 0.17380050706174952, 0.0015548660077346565)","(1.5639136663915538, -0.017953213286257794, 0.02152135016564056)","[-0.0020892088992173806, 0.0038014446852306927, 0.0006399763246469218]","[-0.026750000193715096, 0.05299999937415123, 0.03999999910593033]","[0.0, -0.0, 0.5670589148259217]","[-0.06542505323886871, 0.11373088508844376, 0.03999999910593033]","[0.0, 0.0, -0.2168674895696976]","[0.026750000193715096, 0.05299999937415123, 0.03999999910593033]","[0.0, 0.0, -0.541091561053689]","[0.06383518129587173, 0.11471457779407501, 0.03999999910593033]","[0.0, -0.0, 0.24274640895194033]",0.5494214079217922,-4.232978056156671,"(0.0, 0.0, 0.0, 0.0, 0.0, 0.0)",-76.56758989345452,-0.754102481321451,7.157724966227032,"(0.0, 0.0, 0.0, 0.0, 0.0, 0.0)",-40.47777865138826,-0.5231264106916268,4.311634703060903,"(0.0, 0.0, 0.0, 0.0, 0.0, 0.0)",77.56480989247315,0.7530381780967257,-7.39193904677718,"(0.0, 0.0, 0.0, 0.0, 0.0, 0.0)",41.69130948780976,True,"(-0.03214741692248725, 0.185888886992019, 0.042162740237275675)","(0.9996296842220874, 0.02052298863071726, 0.017869005560277755)",-0.002801854512380352,575.6065651510143,True,"(0.028675671463863295, 0.1860894829857196, 0.03999933290439256)","(-0.9999993317337822, 0.0009442009529130336, -0.0006670956074347013)",-0.0003350004907612638,581.5098107616564
77,Move,"(-0.0165, 0.0, 0.0184)","(0.0, 0.05603030497677396, 0.0)","(-0.002179533565071467, 0.17472750238442783, 0.00154677254018331)","(1.5629975364261146, -0.016244280172051984, 0.024536575081828046)","[-0.0021796121265364727, 0.004728440007909007, 0.0006318828570955753]","[-0.026750000193715096, 0.05299999937415123, 0.03999999910593033]","[0.0, -0.0, 0.5494213743167049]","[-0.06434796005487442, 0.11440353095531464, 0.03999999910593033]","[0.0, 0.0, -0.20468106431233588]","[0.026750000193715096, 0.05299999937415123, 0.03999999910593033]","[0.0, 0.0, -0.523126455139959]","[0.06272054463624954, 0.11537082493305206, 0.03999999910593033]","[0.0, -0.0, 0.22991178228354317]",0.5569021693376371,1.7953827398027977,"(0.0, 0.0, 0.0, 0.0, 0.0, 0.0)",7.987617009888489,-0.7570846289383277,-0.7157154280504141,"(0.0, 0.0, 0.0, 0.0, 0.0, 0.0)",-0.2018728145552889,-0.5253104105271162,-0.5241599605174647,"(0.0, 0.0, 0.0, 0.0, 0.0, 0.0)",-6.208364028663523,0.7561177278534753,0.7390919416199093,"(0.0, 0.0, 0.0, 0.0, 0.0, 0.0)",0.3606813458745374,True,"(-0.03195181859158684, 0.18695051561382206, 0.04216282301036813)","(0.9996073073963506, 0.0215162208723819, 0.017952248861594206)",-0.0031209804300886936,0.0,True,"(0.028479974416889153, 0.18719109619055396, 0.03999933290439256)","(-0.9999993317337822, 0.0009442009529130336, -0.0006670956074347013)",-0.0004067939279596786,0.0
78,Move,"(-0.0198, 0.0, 0.019)","(0.0, 0.025689501260104535, 0.0)","(-0.002256211905906446, 0.17560876026518873, 0.0014602016054814364)","(1.5633112954787507, -0.013270655510718347, 0.028849546233323548)","[-0.0022562904673714516, 0.005609697888669912, 0.0005453119223937017]","[-0.026750000193715096, 0.05299999937415123, 0.03999999910593033]","[0.0, -0.0, 0.55690224097754]","[-0.0648062452673912, 0.11412055045366287, 0.03999999910593033]","[0.0, 0.0, -0.20018247670647094]","[0.026750000193715096, 0.05299999937415123, 0.03999999910593033]","[0.0, 0.0, -0.5253104228539427]","[0.06285667419433594, 0.11529211699962616, 0.03999999910593033]","[0.0, -0.0, 0.23080735600528005]",0.5624793669127591,1.3385274180292868,"(0.0, 0.0, 0.0, 0.0, 0.0, 0.0)",-0.5840211597732506,-0.7567869862822734,0.07143423745303479,"(0.0, 0.0, 0.0, 0.0, 0.0, 0.0)",0.03621647660763183,-0.5254051822546056,-0.022745214597452268,"(0.0, 0.0, 0.0, 0.0, 0.0, 0.0)",0.6470635710755315,0.7558103116694127,-0.073779884175038,"(0.0, 0.0, 0.0, 0.0, 0.0, 0.0)",-0.034107571548683914,True,"(-0.032736728312350465, 0.18681105919321883, 0.04216111481226105)","(0.999567097639215, 0.02453087622332999, 0.01624356576713535)",-0.0023721746994422583,0.0,True,"(0.028551801500987496, 0.18708169491087856, 0.03999933290439256)","(-0.9999993317337822, 0.0009442009529130336, -0.0006670956074347013)",-0.00026876281990483855,0.0
79,Move,"(-0.0179, 0.0, 0.0211)","(0.0, 0.008576547944300137, 0.0)","(-0.0024270012868575996, 0.17641160236209047, 0.0013315579033926117)","(1.565598608680143, -0.010955907233686462, 0.03462166014078922)","[-0.0024270798483226053, 0.006412539985571647, 0.000416668220304877]","[-0.026750000193715096, 0.05299999937415123, 0.03999999910593033]","[0.0, -0.0, 0.5624794321994693]","[-0.0651465356349945, 0.1139073595404625, 0.03999999910593033]","[0.0, 0.0, -0.194307658341812]","[0.026750000193715096, 0.05299999937415123, 0.03999999910593033]","[0.0, 0.0, -0.5254051542777538]","[0.0628625750541687, 0.11528869718313217, 0.03999999910593033]","[0.0, -0.0, 0.23040514284799032]",0.5688903398146516,1.5386334964541915,"(0.0, 0.0, 0.0, 0.0, 0.0, 0.0)",0.2856314118171307,-0.7568167505478788,-0.0071434237453047444,"(0.0, 0.0, 0.0, 0.0, 0.0, 0.0)",0.013372427310885237,-0.524638216178131,0.18407185835392575,"(0.0, 0.0, 0.0, 0.0, 0.0, 0.0)",1.2630307859458223,0.7558140765950335,0.0009035821489939977,"(0.0, 0.0, 0.0, 0.0, 0.0, 0.0)",0.5982849041696714,True,"(-0.033504521987340705, 0.18678344988288703, 0.04215814104529165)","(0.9994958634878234, 0.028843004543254024, 0.013270265997645296)",-0.0015898266267367382,0.0,True,"(0.02861149233722883, 0.18695377008292138, 0.03784185895470837)","(-0.9994958634878242, -0.028843004543236794, -0.013270265997633451)",-0.0002978380422266256,7.155790835907286
80,Move,"(-0.018600000000000002, 0.0, 0.0223)","(0.0, -0.0, 0.0)","(-0.0025715814983242676, 0.17717443481166772, 0.00112468262365039)","(1.569149552168335, -0.00741455656726303, 0.04101420089178938)","[-0.0025716600597892733, 0.007175372435148902, 0.0002097929405626552]","[-0.026750000193715096, 0.05299999937415123, 0.03999999910593033]","[0.0, -0.0, 0.5688903177011838]","[-0.06553621590137482, 0.11365994811058044, 0.03999999910593033]","[0.0, 0.0, -0.18792640296648447]","[0.026750000193715096, 0.05299999937415123, 0.03999999910593033]","[0.0, 0.0, -0.5246382756874706]","[0.06281479448080063, 0.11531637609004974, 0.03999999910593033]","[0.0, -0.0, 0.23117585490470258]",0.5753900271194448,1.5599249531503523,"(0.0, 0.0, 0.0, 0.0, 0.0, 0.0)",0.03262082964552465,-0.7568138256503476,0.0007019754074902686,"(0.0, 0.0, 0.0, 0.0, 0.0, 0.0)",0.003261984809414409,-0.5247163386445327,-0.018749391936412757,"(0.0, 0.0, 0.0, 0.0, 0.0, 0.0)",-0.2978509021966647,0.7558140525234163,-5.777188132623733e-06,"(0.0, 0.0, 0.0, 0.0, 0.0, 0.0)",-0.022309594874290108,True,"(-0.03435983500546207, 0.186735862235783, 0.04215582646735261)","(0.9993407508022141, 0.034612666543177795, 0.01095568805860267)",-0.0008528252811088919,0.0,True,"(0.028508616673513204, 0.18695002989758766, 0.03784417353264739)","(-0.9993407508022143, -0.03461266654317527, -0.010955688058600074)",-0.0002799916045199934,0.0
81,Move,"(-0.019600000000000003, 0.0, 0.0235)","(0.0, -0.0, 0.0)","(-0.002715627733342444, 0.17789259968049517, 0.0008513001278091146)","(1.5741397813249094, -0.0031999899906265043, 0.048030569129086445)","[-0.0027157062948074497, 0.00789353730397635, -6.358955527862014e-05]","[-0.026750000193715096, 0.05299999937415123, 0.03999999910593033]","[0.0, -0.0, 0.5753899617074908]","[-0.06592966616153717, 0.11340656876564026, 0.03999999910593033]","[0.0, 0.0, -0.18142378232392525]","[0.026750000193715096, 0.05299999937415123, 0.03999999910593033]","[0.0, 0.0, -0.5247163515098324]","[0.06281965970993042, 0.1153135597705841, 0.03999999910593033]","[0.0, -0.0, 0.23109770782411285]",0.582360327133791,1.6728720034431117,"(0.0, 0.0, 0.0, 0.0, 0.0, 0.0)",0.16626219875952625,-0.7568141181401007,-7.019754074821805e-05,"(0.0, 0.0, 0.0, 0.0, 0.0, 0.0)",0.012358900995880657,-0.524745272973476,-0.006944238946386707,"(0.0, 0.0, 0.0, 0.0, 0.0, 0.0)",0.25344463159248903,0.7558091685595318,-0.001172151332267192,"(0.0, 0.0, 0.0, 0.0, 0.0, 0.0)",0.137833535420259,True,"(-0.03522912375726209, 0.18668366594399313, 0.04215582646735261)","(0.9993407508022141, 0.034612666543177795, 0.01095568805860267)",-2.7944835378948442e-05,0.0,True,"(0.028519082899248663, 0.1869498929270297, 0.03784417353264739)","(-0.9993407508022143, -0.03461266654317527, -0.010955688058600074)",-0.00021688560714613206,0.0
82,Move,"(-0.023899999999999998, 0.0, 0.024399999999999998)","(0.0, 0.01321039710834508, 0.0)","(-0.0029540253816961646, 0.17846532687837227, 0.0007010755233470867)","(1.5754605660794962, 0.0038109849296870985, 0.05861092758144314)","[-0.0029541039431611703, 0.008466264501853449, -0.000213814159740648]","[-0.026750000193715096, 0.05299999937415123, 0.03999999910593033]","[0.0, -0.0, 0.5823604009976433]","[-0.06634976714849472, 0.11313200742006302, 0.03999999910593033]","[0.0, 0.0, -0.1744537652174125]","[0.026750000193715096, 0.05299999937415123, 0.03999999910593033]","[0.0, 0.0, -0.5247452973429789]","[0.06282146275043488, 0.11531251668930054, 0.03999999910593033]","[0.0, -0.0, 0.23106388891358393]",0.5898178462803287,1.7898045951690442,"(0.0, 0.0, 0.0, 0.0, 0.0, 0.0)",0.17225378587538576,-0.7568140888911253,7.019754074022444e-06,"(0.0, 0.0, 0.0, 0.0, 0.0, 0.0)",0.012897115529953457,-0.5247324106690643,0.0030869530588084736,"(0.0, 0.0, 0.0, 0.0, 0.0, 0.0)",0.3970693978896064,0.7558037847306868,-0.0012921189228203348,"(0.0, 0.0, 0.0, 0.0, 0.0, 0.0)",0.2244784270196307,True,"(-0.036160703997044116, 0.18662130805332988, 0.04215582646735261)","(0.9993407508022141, 0.034612666543177795, 0.01095568805860267)",0.0008838231698441818,0.0,True,"(0.028523308523300726, 0.1869500091955431, 0.03784417353264739)","(-0.9993407508022143, -0.03461266654317527, -0.010955688058600074)",-0.00017746971308322073,0.0
83,Move,"(-0.0253, 0.0, 0.025500000000000002)","(0.0, 0.021800907686661174, 0.0)","(-0.003166737226970157, 0.17886692872326218, 0.0007241819038029479)","(1.5723492560457812, 0.006256562509594248, 0.06312271859923092)","[-0.0031668157884351626, 0.008867866346743358, -0.0001907077792847868]","[-0.026750000193715096, 0.05299999937415123, 0.03999999910593033]","[0.0, -0.0, 0.5898178332092843]","[-0.06679709255695343, 0.11283502727746964, 0.03999999910593033]","[0.0, 0.0, -0.16699622890589552]","[0.026750000193715096, 0.05299999937415123, 0.03999999910593033]","[0.0, 0.0, -0.5247324581126417]","[0.062820665538311, 0.11531297862529755, 0.03999999910593033]","[0.0, -0.0, 0.23107137227649233]",0.5983641857652955,2.0511214763920247,"(0.0, 0.0, 0.0, 0.0, 0.0, 0.0)",0.3842906657941298,-0.7568140918160229,-7.019754084680585e-07,"(0.0, 0.0, 0.0, 0.0, 0.0, 0.0)",0.02871103437626747,-0.5239324858368044,0.19198195974238155,"(0.0, 0.0, 0.0, 0.0, 0.0, 0.0)",0.32580052071019655,0.7558056574665076,0.00044945659702016593,"(0.0, 0.0, 0.0, 0.0, 0.0, 0.0)",0.050452155561155274,False,,,,,True,"(0.028498548559538518, 0.187030245748524, 0.04000381097570482)","(-0.9982756219061941, -0.0585769508593491, 0.003810975704822219)",-0.000209736315214881,0.36718939371817766
84,Move,"(-0.0253, 0.0, 0.025500000000000002)","(0.0, 0.021800907686661174, 0.0)","(-0.0033742805627153464, 0.17919452540867087, 0.00074543775880315)","(1.5697800898653302, 0.008207596074719001, 0.06615908737018286)","[-0.003374359124180352, 0.009195463032152046, -0.00016945192428458467]","[-0.026750000193715096, 0.05299999937415123, 0.03999999910593033]","[0.0, -0.0, 0.598364252930454]","[-0.0673069953918457, 0.11249058693647385, 0.03999999910593033]","[0.0, 0.0, -0.15844991064894665]","[0.026750000193715096, 0.05299999937415123, 0.03999999910593033]","[0.0, 0.0, -0.5239324494977001]","[0.06277080625295639, 0.11534181237220764, 0.03999999910593033]","[0.0, -0.0, 0.23187317861191162]",0.6073808855250931,2.164007942351416,"(0.0, 0.0, 0.0, 0.0, 0.0, 0.0)",0.1664707864579052,-0.7568140915235331,7.019754111325938e-08,"(0.0, 0.0, 0.0, 0.0, 0.0, 0.0)",0.012478213858859777,-0.5230742761056313,0.2059703354815445,"(0.0, 0.0, 0.0, 0.0, 0.0, 0.0)",0.3768779041090565,0.7557888996170764,-0.004021883863492466,"(0.0, 0.0, 0.0, 0.0, 0.0, 0.0)",0.22021170829672826,False,,,,,True,"(0.028391439078517267, 0.18702783496347863, 0.040006256521691264)","(-0.9979888893692683, -0.06307957380817755, 0.006256521691260113)",-0.00019627253155104387,2.7187996879887373
85,Move,"(-0.0253, 0.0, 0.025500000000000002)","(0.0, 0.021800907686661174, 0.0)","(-0.005502262607355268, 0.17935212134297734, 0.0012461534774864031)","(1.5703932244433714, -0.008595925210691475, 0.07880285282174347)","[-0.005502341168820273, 0.009353058966458522, 0.0003312637943986684]","[-0.026750000193715096, 0.05299999937415123, 0.03999999910593033]","[0.0, -0.0, 0.607380995056718]","[-0.06784175336360931, 0.11212248355150223, 0.03999999910593033]","[0.0, 0.0, -0.1494332115685674]","[0.026750000193715096, 0.05299999937415123, 0.03999999910593033]","[0.0, 0.0, -0.5230742921753443]","[0.06271728873252869, 0.11537270247936249, 0.03999999910593033]","[0.0, -0.0, 0.23271463810035067]",0.5838422966924849,-5.6492613198259605,"(0.0, 0.0, 0.0, 0.0, 0.0, 0.0)",-11.471283282739625,-0.756814091552782,-7.019755443593567e-09,"(0.0, 0.0, 0.0, 0.0, 0.0, 0.0)",-0.8556233779858071,-0.5010558508451495,5.28442206251563,"(0.0, 0.0, 0.0, 0.0, 0.0, 0.0)",27.086607204957936,0.7546088500010261,-0.28321190785208517,"(0.0, 0.0, 0.0, 0.0, 0.0, 0.0)",11.519310978242798,False,,,,,True,"(0.028285592510864772, 0.186994584405406, 0.040688329720417186)","(-0.9977785395918113, -0.06611058203469214, 0.008208341675797573)",-0.00018263331148530405,147.17672631349745
86,Move,"(-0.0253, 0.0, 0.025500000000000002)","(0.0, 0.021800907686661174, 0.0)","(-0.005585145662134154, 0.18009396472353437, 0.001331409594167428)","(1.5629809177900473, -0.007110695901372749, 0.08080834169970942)","[-0.005585224223599159, 0.010094902347015544, 0.0004165199110796932]","[-0.026750000193715096, 0.05299999937415123, 0.03999999910593033]","[0.0, -0.0, 0.583842298012247]","[-0.06643883883953094, 0.11307325959205627, 0.03999999910593033]","[0.0, 0.0, -0.172971805702161]","[0.026750000193715096, 0.05299999937415123, 0.03999999910593033]","[0.0, 0.0, -0.5010558505563423]","[0.061335332691669464, 0.11614946275949478, 0.03999999910593033]","[0.0, -0.0, 0.25355297157887574]",0.5655437134079762,-4.391659988282085,"(0.0, 0.0, 0.0, 0.0, 0.0, 0.0)",-77.31912681200883,-0.7268592022432666,7.189173434283699,"(0.0, 0.0, 0.0, 0.0, 0.0, 0.0)",-40.53912097367797,-0.4831768396979203,4.290962675335007,"(0.0, 0.0, 0.0, 0.0, 0.0, 0.0)",62.98470541434974,0.7235407147976856,-7.4563524488017325,"(0.0, 0.0, 0.0, 0.0, 0.0, 0.0)",32.90403292885794,True,"(-0.03634216451488899, 0.18674172800674937, 0.040008595992130525)","(0.9968598315557033, 0.07871841030149784, 0.00859581935242961)",-0.002131832810859784,595.2267231309653,True,"(0.025418736308531018, 0.18703834600198996, 0.040688329720417186)","(-0.9977785395918113, -0.06611058203469214, 0.008208341675797573)",-0.00016900377115175127,484.4874905564074
87,Move,"(-0.0269, 0.0, 0.027)","(0.0, 0.03511427922087392, 0.0)","(-0.005687098447325542, 0.18086315921635904, 0.0013920523783459058)","(1.556985311970825, -0.006104541676159594, 0.08277004045787631)","[-0.005687177008790547, 0.010864096839840215, 0.00047716269525817107]","[-0.026750000193715096, 0.05299999937415123, 0.03999999910593033]","[0.0, -0.0, 0.5655437739819891]","[-0.06533299386501312, 0.11378940939903259, 0.03999999910593033]","[0.0, 0.0, -0.1613154805324183]","[0.026750000193715096, 0.05299999937415123, 0.03999999910593033]","[0.0, 0.0, -0.48317686918796765]","[0.06020081788301468, 0.11675769090652466, 0.03999999910593033]","[0.0, -0.0, 0.24036385177130926]",0.5479099621445527,-4.232100303221628,"(0.0, 0.0, 0.0, 0.0, 0.0, 0.0)",-76.56163130104643,-0.697436948640926,7.061340864561748,"(0.0, 0.0, 0.0, 0.0, 0.0, 0.0)",-39.62106537954662,-0.4651622501784055,4.323501484683557,"(0.0, 0.0, 0.0, 0.0, 0.0, 0.0)",78.72917774089647,0.6927593279253127,-7.3875328493694985,"(0.0, 0.0, 0.0, 0.0, 0.0, 0.0)",41.55174011356285,True,"(-0.03609621617847915, 0.1877940691233702, 0.040007110787118084)","(0.9967115838722634, 0.08071838347493876, 0.007110635979752824)",-0.0024458105809614613,567.6334374123036,True,"(0.025214737554481025, 0.18814005835595382, 0.03999288936402031)","(-0.9967115838723478, -0.08071838347390271, -0.0071106359796922645)",-0.0003370234244966524,580.245948643998
88,Move,"(-0.028100000000000003, 0.0, 0.028399999999999998)","(0.0, 0.03511427922087392, 0.0)","(-0.005850073240129189, 0.18151811877650084, 0.0014588006117708466)","(1.553781803971254, -0.004494323985984946, 0.08610961881598547)","[-0.005850151801594194, 0.01151905639998202, 0.0005439109286831118]","[-0.026750000193715096, 0.05299999937415123, 0.03999999910593033]","[0.0, -0.0, 0.5479099895707891]","[-0.06425511091947556, 0.114460289478302, 0.03999999910593033]","[0.0, 0.0, -0.14952699241914336]","[0.026750000193715096, 0.05299999937415123, 0.03999999910593033]","[0.0, 0.0, -0.4651622572225496]","[0.05904688313603401, 0.11734991520643234, 0.03999999910593033]","[0.0, -0.0, 0.22759705307778133]",0.5602601039494809,2.964034033182771,"(0.0, 0.0, 0.0, 0.0, 0.0, 0.0)",9.713828693533577,-0.70037917400116,-0.7061340864561751,"(0.0, 0.0, 0.0, 0.0, 0.0, 0.0)",-0.06237832087412569,-0.4666230042760219,-0.35058098342793365,"(0.0, 0.0, 0.0, 0.0, 0.0, 0.0)",-5.136581808648279,0.6957977681264471,0.7292256482722577,"(0.0, 0.0, 0.0, 0.0, 0.0, 0.0)",0.8865355375622239,True,"(-0.03589187606598114, 0.18879466536401057, 0.040006104635619495)","(0.9965579464929264, 0.08267402443105532, 0.006104503761551837)",-0.002750637191115526,0.0,True,"(0.024976056980973514, 0.18915842738382077, 0.039993895496238496)","(-0.9965579464930095, -0.08267402443005785, -0.006104503761498727)",-0.00048093968251436013,6.263013862970033
89,Move,"(-0.028800000000000003, 0.0, 0.0298)","(0.0, 0.021800907686661174, 0.0)","(-0.0060572036738894405, 0.18210340918971213, 0.001466801579547403)","(1.5523625034954749, -0.002818265465043254, 0.08970845897346832)","[-0.006057282235354446, 0.012104346813193306, 0.0005519118964596682]","[-0.026750000193715096, 0.05299999937415123, 0.03999999910593033]","[0.0, -0.0, 0.5602600299579331]","[-0.06501127034425735, 0.11399241536855698, 0.03999999910593033]","[0.0, 0.0, -0.14011907406159102]","[0.026750000193715096, 0.05299999937415123, 0.03999999910593033]","[0.0, 0.0, -0.4666229916244802]","[0.05914084613323212, 0.11730266362428665, 0.03999999910593033]","[0.0, -0.0, 0.22917477996355223]",0.5701541374558619,2.3745680415314414,"(0.0, 0.0, 0.0, 0.0, 0.0, 0.0)",-0.779322679260502,-0.7000849514651366,0.07061340864561672,"(0.0, 0.0, 0.0, 0.0, 0.0, 0.0)",0.02064628546852201,-0.4658969037531561,0.1742641254877808,"(0.0, 0.0, 0.0, 0.0, 0.0, 0.0)",1.3047218421945814,0.6954716783948227,-0.07826153558985283,"(0.0, 0.0, 0.0, 0.0, 0.0, 0.0)",0.3484065304156478,True,"(-0.03734806735071541, 0.18858429617578096, 0.040004494308855894)","(0.9962847950139557, 0.08600237445505808, 0.004494308855888746)",-0.0013599708701628962,0.0,True,"(0.024956914522341347, 0.18905558232826175, 0.0399955056911441)","(-0.9962847950139557, -0.08600237445505875, -0.004494308855897219)",-0.00044603008311513515,4.6699026524612215
90,Move,"(-0.0294, 0.0, 0.0316)","(0.0, 0.004012511950334963, 0.0)","(-0.006308177108655208, 0.18262367377828806, 0.0014213560632218634)","(1.552731380034253, -0.001248485276813721, 0.09315449645135676)","[-0.006308255670120213, 0.012624611401769237, 0.0005064663801341287]","[-0.026750000193715096, 0.05299999937415123, 0.03999999910593033]","[0.0, -0.0, 0.5701540751636203]","[-0.06561285257339478, 0.1136108785867691, 0.03999999910593033]","[0.0, 0.0, -0.12993081381746815]","[0.026750000193715096, 0.05299999937415123, 0.03999999910593033]","[0.0, 0.0, -0.4658968911573712]","[0.0590941496193409, 0.11732617020606995, 0.03999999910593033]","[0.0, -0.0, 0.22957479319687707]",0.5803185127215329,2.439450063761038,"(0.0, 0.0, 0.0, 0.0, 0.0, 0.0)",0.08764096229051849,-0.700114373718739,-0.0070613408645616715,"(0.0, 0.0, 0.0, 0.0, 0.0, 0.0)",-0.0012473487035527097,-0.4649811424187999,0.2197827202454988,"(0.0, 0.0, 0.0, 0.0, 0.0, 0.0)",0.7373610103246757,0.6954828010164812,0.002669429198034895,"(0.0, 0.0, 0.0, 0.0, 0.0, 0.0)",0.41404965836632335,True,"(-0.03871041148556742, 0.1884741620561621, 0.04000281826173431)","(0.9959749386315977, 0.08958782851806318, 0.0028182617343059054)",-0.00011756903895866931,0.0,True,"(0.024881791957737577, 0.18906221776817617, 0.03999718173826569)","(-0.9959749386315969, -0.08958782851807459, -0.0028182617343115936)",-0.0004135216676205904,4.958889441447374
91,Move,"(-0.0259, 0.0, 0.03270000000000001)","(0.0, 0.02991494337918281, 0.0)","(-0.006568219956640071, 0.1830973868956609, 0.0013152490234259804)","(1.5546232773586937, 0.0007180227537798406, 0.09648617738687003)","[-0.006568298518105076, 0.013098324519142085, 0.00040035934033824574]","[-0.026750000193715096, 0.05299999937415123, 0.03999999910593033]","[0.0, -0.0, 0.580318544543497]","[-0.06622690707445145, 0.11321274191141129, 0.03999999910593033]","[0.0, 0.0, -0.1197958621271088]","[0.026750000193715096, 0.05299999937415123, 0.03999999910593033]","[0.0, 0.0, -0.46498113357389326]","[0.059035226702690125, 0.11735576391220093, 0.03999999910593033]","[0.0, -0.0, 0.23050168538724136]",0.5911068265912011,2.58919532872037,"(0.0, 0.0, 0.0, 0.0, 0.0, 0.0)",0.22162587244083573,-0.7001114314933787,0.0007061340864567001,"(0.0, 0.0, 0.0, 0.0, 0.0, 0.0)",0.017403985901595368,-0.464083565069234,0.215418563895814,"(0.0, 0.0, 0.0, 0.0, 0.0, 0.0)",0.379156038580729,0.6954711644862662,-0.0027927672515825333,"(0.0, 0.0, 0.0, 0.0, 0.0, 0.0)",0.22774069062621785,True,"(-0.040083921946961976, 0.18833816928068942, 0.04000124848495248)","(0.9956634806562094, 0.093019753670312, 0.0012484849524755028)",0.0010895490995435977,0.0,True,"(0.024756622691050674, 0.1890575598069254, 0.03999875151504751)","(-0.9956634806562094, -0.0930197536703128, -0.0012484849524905417)",-0.0003832707030633108,2.8846595183876316
92,Move,"(-0.0259, 0.0, 0.0337)","(0.0, 0.05146626898280879, 0.0)","(-0.006794357840863893, 0.18349435802141315, 0.0012032443268176068)","(1.5586990387872226, 0.0006659208611367047, 0.09587662426213657)","[-0.0067944364023288985, 0.013495295644894323, 0.00028835464372987214]","[-0.026750000193715096, 0.05299999937415123, 0.03999999910593033]","[0.0, -0.0, 0.5911068748191208]","[-0.0668741911649704, 0.11278335750102997, 0.03999999910593033]","[0.0, 0.0, -0.10900460923772323]","[0.026750000193715096, 0.05299999937415123, 0.03999999910593033]","[0.0, 0.0, -0.46408355895893816]","[0.05897745117545128, 0.11738471686840057, 0.03999999910593033]","[0.0, -0.0, 0.23138759868580916]",0.6012622983726426,2.4373132275459506,"(0.0, 0.0, 0.0, 0.0, 0.0, 0.0)",-0.22209928244106136,-0.7001114643830012,-7.893509403759382e-06,"(0.0, 0.0, 0.0, 0.0, 0.0, 0.0)",-0.016543373805298443,-0.46451360297609,-0.10320909764544964,"(0.0, 0.0, 0.0, 0.0, 0.0, 0.0)",-0.46742836493195744,0.6954728737963508,0.00041023442029880335,"(0.0, 0.0, 0.0, 0.0, 0.0, 0.0)",-0.03454218086383369,False,,,,,True,"(0.024635567448266997, 0.18905368071912793, 0.040000718022692075)","(-0.9953485622670558, -0.09633651455350811, 0.0007180226920773912)",-0.0003553227160055944,0.0
93,Move,"(-0.0259, 0.0, 0.0337)","(0.0, 0.05146626898280879, 0.0)","(-0.006995148725871915, 0.18383533949990855, 0.0010405132520446337)","(1.5643735349571315, 0.0006177987256080734, 0.09445922059509472)","[-0.0069952272873369204, 0.013836277123389723, 0.000125623568956899]","[-0.026750000193715096, 0.05299999937415123, 0.03999999910593033]","[0.0, -0.0, 0.6012623020317802]","[-0.06747923791408539, 0.11237280070781708, 0.03999999910593033]","[0.0, 0.0, -0.09884917547222923]","[0.026750000193715096, 0.05299999937415123, 0.03999999910593033]","[0.0, 0.0, -0.46451358407890586]","[0.05900513753294945, 0.1173708513379097, 0.03999999910593033]","[0.0, -0.0, 0.23095926039049988]",0.6116445014191043,2.491728731150814,"(0.0, 0.0, 0.0, 0.0, 0.0, 0.0)",0.0808025730910619,-0.7001115576316572,-2.2379677451757232e-05,"(0.0, 0.0, 0.0, 0.0, 0.0, 0.0)",0.006111200783344093,-0.46518853263056564,-0.16198311707414614,"(0.0, 0.0, 0.0, 0.0, 0.0, 0.0)",-0.08636918245331619,0.6954728053239958,-1.6433365213557364e-05,"(0.0, 0.0, 0.0, 0.0, 0.0, 0.0)",-0.00648602497123025,False,,,,,True,"(0.024693935951567263, 0.1890546991636804, 0.04000066592081192)","(-0.9954071354609833, -0.09572978231894262, 0.0006659208119206423)",-0.0001098726276229573,0.0
