OSUrobotics/InHand-Manipulation/AnalyseData/Data/Trial Data/Better/new_hand_expected_exp_2v2_h_n_1_kpNone_kdNone_dp5_step5_save_data.csv
,Phase,human_cube_pos,human_cube_orn,Cube_Pos,Cube_Orn,Cube_pos_in_start_pos,b'l_prox_pin'_link_pos,b'l_prox_pin'_link_orn,b'l_distal_pin'_link_pos,b'l_distal_pin'_link_orn,b'r_prox_pin'_link_pos,b'r_prox_pin'_link_orn,b'r_distal_pin'_link_pos,b'r_distal_pin'_link_orn,b'l_prox_pin'_joint_angle,b'l_prox_pin'_joint_vel,b'l_prox_pin'_joint_react_forces,b'l_prox_pin'_joint_motor_torque,b'l_distal_pin'_joint_angle,b'l_distal_pin'_joint_vel,b'l_distal_pin'_joint_react_forces,b'l_distal_pin'_joint_motor_torque,b'r_prox_pin'_joint_angle,b'r_prox_pin'_joint_vel,b'r_prox_pin'_joint_react_forces,b'r_prox_pin'_joint_motor_torque,b'r_distal_pin'_joint_angle,b'r_distal_pin'_joint_vel,b'r_distal_pin'_joint_react_forces,b'r_distal_pin'_joint_motor_torque,in_contact_l,contact_point_l_dist,contact_normal_l_dist,contact_distance_l_dist,contact_norm_force_l_dist,in_contact_r,contact_point_r_dist,contact_normal_r_dist,contact_distance_r_dist,contact_norm_force_r_dist
0,Open,,,,,,"[-0.026750000193715096, 0.05299999937415123, 0.03999999910593033]","[0.0, -0.0, 0.42755761853039154]","[-0.056604765355587006, 0.1185186430811882, 0.03999999910593033]","[0.0, -0.0, 0.4463066270391506]","[0.026750000193715096, 0.05299999937415123, 0.03999999910593033]","[0.0, 0.0, -0.42757404208311445]","[0.05660583823919296, 0.1185181587934494, 0.03999999910593033]","[0.0, 0.0, -0.4465272228574986]",0.5418018724257314,27.418616735313837,"(0.0, 0.0, 0.0, 0.0, 0.0, 0.0)",-4.412236817968903,0.016874447698417276,-0.44988750389777044,"(0.0, 0.0, 0.0, 0.0, 0.0, 0.0)",-0.3112578673856835,-0.5418166170859073,-27.418223544375806,"(0.0, 0.0, 0.0, 0.0, 0.0, 0.0)",4.412120589674461,-0.017058187988154127,0.4547872631353701,"(0.0, 0.0, 0.0, 0.0, 0.0, 0.0)",0.31119999541872967,False,,,,,False,,,,
1,Open,,,,,,"[-0.026750000193715096, 0.05299999937415123, 0.03999999910593033]","[0.0, -0.0, 0.8953992050914552]","[-0.08294302970170975, 0.09801492840051651, 0.03999999910593033]","[0.0, -0.0, 0.9064715399310761]","[0.026750000193715096, 0.05299999937415123, 0.03999999910593033]","[0.0, 0.0, -0.8954089117450801]","[0.08294346183538437, 0.09801438450813293, 0.03999999910593033]","[0.0, 0.0, -0.9066016844299951]",0.9628592876486701,16.190418996035465,"(0.0, 0.0, 0.0, 0.0, 0.0, 0.0)",-2.616982039675733,0.009965290062605858,-0.26568209241480656,"(0.0, 0.0, 0.0, 0.0, 0.0, 0.0)",-0.18775783729375353,-0.9628679942230576,-16.190186820718473,"(0.0, 0.0, 0.0, 0.0, 0.0, 0.0)",2.6169116334278195,-0.010073786659150813,0.26857534621184953,"(0.0, 0.0, 0.0, 0.0, 0.0, 0.0)",0.187722108909745,False,,,,,False,,,,
2,Open,,,,,,"[-0.026750000193715096, 0.05299999937415123, 0.03999999910593033]","[0.0, -0.0, 1.17165497759142]","[-0.09309044480323792, 0.08098116517066956, 0.03999999910593033]","[0.0, -0.0, 1.1781937273122836]","[0.026750000193715096, 0.05299999937415123, 0.03999999910593033]","[0.0, 0.0, -1.1716605985979762]","[0.09309060126543045, 0.08098078519105911, 0.03999999910593033]","[0.0, 0.0, -1.178270796658152]",1.2114894807636634,9.56028051296898,"(0.0, 0.0, 0.0, 0.0, 0.0, 0.0)",-1.549346412635057,0.005885062316220725,-0.15689973638119079,"(0.0, 0.0, 0.0, 0.0, 0.0, 0.0)",-0.11225090666269867,-1.2114946219087734,-9.560143415766044,"(0.0, 0.0, 0.0, 0.0, 0.0, 0.0)",1.5493042197033076,-0.00594912834521185,0.1586081706180975,"(0.0, 0.0, 0.0, 0.0, 0.0, 0.0)",0.11222926703597672,False,,,,,False,,,,
3,Open,,,,,,"[-0.026750000193715096, 0.05299999937415123, 0.03999999910593033]","[0.0, -0.0, 1.3347813147466918]","[-0.09675397723913193, 0.06983575969934464, 0.03999999910593033]","[0.0, -0.0, 1.3386449621367835]","[0.026750000193715096, 0.05299999937415123, 0.03999999910593033]","[0.0, 0.0, -1.3347844615433213]","[0.0967540368437767, 0.06983552873134613, 0.03999999910593033]","[0.0, 0.0, -1.3386905382854437]",1.3583031234961356,5.645250040103052,"(0.0, 0.0, 0.0, 0.0, 0.0, 0.0)",-0.9162890978823036,0.0034783869891320215,-0.09247571818598516,"(0.0, 0.0, 0.0, 0.0, 0.0, 0.0)",-0.06677007440367574,-1.3583061592909116,-5.645169085575695,"(0.0, 0.0, 0.0, 0.0, 0.0, 0.0)",0.9162639666346021,-0.003516216695348753,0.09348456497972772,"(0.0, 0.0, 0.0, 0.0, 0.0, 0.0)",0.06675710630673855,False,,,,,False,,,,
4,Open,,,,,,"[-0.026750000193715096, 0.05299999937415123, 0.03999999910593033]","[0.0, -0.0, 1.4311058207082674]","[-0.09804865717887878, 0.06302504986524582, 0.03999999910593033]","[0.0, -0.0, 1.433390691262394]","[0.026750000193715096, 0.05299999937415123, 0.03999999910593033]","[0.0, 0.0, -1.4311075924426346]","[0.09804867953062057, 0.06302490830421448, 0.03999999910593033]","[0.0, 0.0, -1.433417470845748]",1.4449951113932331,3.333463696180452,"(0.0, 0.0, 0.0, 0.0, 0.0, 0.0)",-0.5415503506795546,0.0020570753203455715,-0.05468855210882702,"(0.0, 0.0, 0.0, 0.0, 0.0, 0.0)",-0.039594115216637325,-1.4449969039996904,-3.3334158933415914,"(0.0, 0.0, 0.0, 0.0, 0.0, 0.0)",0.541535435877482,-0.002079412775410495,0.055284250111531166,"(0.0, 0.0, 0.0, 0.0, 0.0, 0.0)",0.03958639191865308,False,,,,,False,,,,
5,Open,,,,,,"[-0.026750000193715096, 0.05299999937415123, 0.03999999910593033]","[0.0, -0.0, 1.4879842849605203]","[-0.09850326180458069, 0.05895565450191498, 0.03999999910593033]","[0.0, -0.0, 1.4893357278409396]","[0.026750000193715096, 0.05299999937415123, 0.03999999910593033]","[0.0, 0.0, -1.4879853833286059]","[0.09850326925516129, 0.05895556882023811, 0.03999999910593033]","[0.0, 0.0, -1.4893513332680077]",1.4961858633265903,1.9683769779575933,"(0.0, 0.0, 0.0, 0.0, 0.0, 0.0)",-0.31995094896823073,0.0012165319928285922,-0.03234212113369103,"(0.0, 0.0, 0.0, 0.0, 0.0, 0.0)",-0.02343792779000599,-1.4961869218427772,-1.9683487508592754,"(0.0, 0.0, 0.0, 0.0, 0.0, 0.0)",0.31994211580738524,-0.0012297216752996233,0.03269386530715718,"(0.0, 0.0, 0.0, 0.0, 0.0, 0.0)",0.02343334437795369,False,,,,,False,,,,
6,Open,,,,,,"[-0.026750000193715096, 0.05299999937415123, 0.03999999910593033]","[0.0, -0.0, 1.5215704989376362]","[-0.09866278618574142, 0.05654282495379448, 0.03999999910593033]","[0.0, -0.0, 1.522369838325666]","[0.026750000193715096, 0.05299999937415123, 0.03999999910593033]","[0.0, 0.0, -1.5215710825913402]","[0.09866278618574142, 0.0565427765250206, 0.03999999910593033]","[0.0, 0.0, -1.522379029767931]",1.5264134904357183,1.1623069217141797,"(0.0, 0.0, 0.0, 0.0, 0.0, 0.0)",-0.18898727227709852,0.000719444125508032,-0.019126791845346432,"(0.0, 0.0, 0.0, 0.0, 0.0, 0.0)",-0.013859938289241243,-1.5264141154789415,-1.162290253894895,"(0.0, 0.0, 0.0, 0.0, 0.0, 0.0)",0.18898204730565804,-0.0007272322869396521,0.019334487584604668,"(0.0, 0.0, 0.0, 0.0, 0.0, 0.0)",0.013857223880827028,False,,,,,False,,,,
7,Close,,,"(1.2478112216283415e-07, 0.16999960627914334, 0.0003375139776509844)","(1.5703757789650807, 0.0001088681168706304, -5.122612185789874e-06)",,"[-0.026750000193715096, 0.05299999937415123, 0.03999999910593033]","[0.0, -0.0, 1.2785329680082034]","[-0.09569678455591202, 0.07374466955661774, 0.03999999910593033]","[0.0, -0.0, 1.0351044933740032]","[0.026750000193715096, 0.05299999937415123, 0.03999999910593033]","[0.0, 0.0, -1.2785333261376617]","[0.09569679200649261, 0.07374463975429535, 0.03999999910593033]","[0.0, 0.0, -1.0351099865887758]",1.2106796019673873,-16.28478938579699,"(0.0, 0.0, 0.0, 0.0, 0.0, 0.0)",2.809472854136235,-0.3090860149933808,-15.757821278062295,"(0.0, 0.0, 0.0, 0.0, 0.0, 0.0)",0.3661538009495806,-1.2106799710491603,16.284799227977608,"(0.0, 0.0, 0.0, 0.0, 0.0, 0.0)",-2.8094757422584213,0.30908141619234186,15.75794391320213,"(0.0, 0.0, 0.0, 0.0, 0.0, 0.0)",-0.3661552191151056,False,,,,,False,,,,
8,Close,,,"(3.0991841452431125e-07, 0.1699991530873768, 0.0005600347089338349)","(1.5707725584893357, 0.0003276471180493337, -1.5390016504502985e-05)",,"[-0.026750000193715096, 0.05299999937415123, 0.03999999910593033]","[0.0, -0.0, 1.0006670909649218]","[-0.08736184239387512, 0.09186135232448578, 0.03999999910593033]","[0.0, -0.0, 0.48836557737534114]","[0.026750000193715096, 0.05299999937415123, 0.03999999910593033]","[0.0, 0.0, -1.0006671906734346]","[0.08736184984445572, 0.09186133742332458, 0.03999999910593033]","[0.0, 0.0, -0.4883688154364048]",0.9606001981650306,-9.616005284561718,"(0.0, 0.0, 0.0, 0.0, 0.0, 0.0)",1.667253264949997,-0.5510712009946406,-9.304767973476249,"(0.0, 0.0, 0.0, 0.0, 0.0, 0.0)",0.2218037572572205,-0.9606004161041268,9.616011096270952,"(0.0, 0.0, 0.0, 0.0, 0.0, 0.0)",-1.6672550198735234,0.5510684854486152,9.30484038803693,"(0.0, 0.0, 0.0, 0.0, 0.0, 0.0)",-0.22180464092959223,False,,,,,False,,,,
9,Close,,,"(2.933853975158492e-07, 0.16999904048792538, 0.0007066062154399696)","(1.5708337628024795, 0.00026866528465535426, -1.404448202163588e-05)",,"[-0.026750000193715096, 0.05299999937415123, 0.03999999910593033]","[0.0, -0.0, 0.8365897781630613]","[-0.08020010590553284, 0.1012398824095726, 0.03999999910593033]","[0.0, -0.0, 0.16552144688028117]","[0.026750000193715096, 0.05299999937415123, 0.03999999910593033]","[0.0, 0.0, -0.8365899294750984]","[0.08020011335611343, 0.101239874958992, 0.03999999910593033]","[0.0, 0.0, -0.1655233971102189]",0.8129308110141114,-5.678154960376304,"(0.0, 0.0, 0.0, 0.0, 0.0, 0.0)",0.9873874064507416,-0.6939616573792659,-5.494397555666588,"(0.0, 0.0, 0.0, 0.0, 0.0, 0.0)",0.13292457281458034,-0.8129309397049683,5.678158392132489,"(0.0, 0.0, 0.0, 0.0, 0.0, 0.0)",-0.987388459985631,0.6939600538790082,5.494440315842426,"(0.0, 0.0, 0.0, 0.0, 0.0, 0.0)",-0.13292511074891808,False,,,,,False,,,,
10,Close,,,"(1.9902477861274505e-07, 0.16999905216518962, 0.0008031506137060285)","(1.5708213694470277, 0.0001751880104672085, -1.4031272711042213e-05)",,"[-0.026750000193715096, 0.05299999937415123, 0.03999999910593033]","[0.0, -0.0, 0.7397039398326887]","[-0.075282983481884, 0.10618411004543304, 0.03999999910593033]","[0.0, 0.0, -0.025114755601520013]","[0.026750000193715096, 0.05299999937415123, 0.03999999910593033]","[0.0, 0.0, -0.7397039829241547]","[0.0752829909324646, 0.10618410259485245, 0.03999999910593033]","[0.0, -0.0, 0.025113617980755978]",0.7257335145957226,-3.3528937225526034,"(0.0, 0.0, 0.0, 0.0, 0.0, 0.0)",0.5840196078844049,-0.7783380408184963,-3.244652289205478,"(0.0, 0.0, 0.0, 0.0, 0.0, 0.0)",0.07914031685893824,-0.7257335905863868,3.3528957489703144,"(0.0, 0.0, 0.0, 0.0, 0.0, 0.0)",-0.5840202358821991,0.778337093974245,3.2446775397467595,"(0.0, 0.0, 0.0, 0.0, 0.0, 0.0)",-0.07914064000385382,False,,,,,False,,,,
11,Close,,,"(1.3069317882946781e-07, 0.16999905849316785, 0.0008666025578373041)","(1.570813038524343, 0.0001076496945073061, -1.4014808324094979e-05)",,"[-0.026750000193715096, 0.05299999937415123, 0.03999999910593033]","[0.0, -0.0, 0.6824937890365349]","[-0.07216256856918335, 0.10887216031551361, 0.03999999910593033]","[0.0, 0.0, -0.137687120736303]","[0.026750000193715096, 0.05299999937415123, 0.03999999910593033]","[0.0, 0.0, -0.6824937890365349]","[0.07216257601976395, 0.10887216031551361, 0.03999999910593033]","[0.0, -0.0, 0.1376864353718678]",0.6742443830336282,-1.9798502142300851,"(0.0, 0.0, 0.0, 0.0, 0.0, 0.0)",0.34523008433021124,-0.8281635344937409,-1.9158370237869804,"(0.0, 0.0, 0.0, 0.0, 0.0, 0.0)",0.046989708289177236,-0.6742444279053555,1.9798514108094807,"(0.0, 0.0, 0.0, 0.0, 0.0, 0.0)",-0.3452304573414294,0.8281629754068567,1.9158519335829844,"(0.0, 0.0, 0.0, 0.0, 0.0, 0.0)",-0.04698990114977892,False,,,,,False,,,,
12,Close,,,"(8.555941999099156e-08, 0.16999906193922792, 0.000908421947806545)","(1.5708075491537519, 6.311807488844542e-05, -1.4000595358663434e-05)",,"[-0.026750000193715096, 0.05299999937415123, 0.03999999910593033]","[0.0, -0.0, 0.6487117277688945]","[-0.070249542593956, 0.11037412285804749, 0.03999999910593033]","[0.0, 0.0, -0.20415830575541527]","[0.026750000193715096, 0.05299999937415123, 0.03999999910593033]","[0.0, 0.0, -0.6487117277688945]","[0.070249542593956, 0.11037411540746689, 0.03999999910593033]","[0.0, -0.0, 0.20415788801885543]",0.6438405657375271,-1.1690817530007243,"(0.0, 0.0, 0.0, 0.0, 0.0, 0.0)",0.20397674457790932,-0.8575834812137779,-1.1312243968345508,"(0.0, 0.0, 0.0, 0.0, 0.0, 0.0)",0.027828964636992654,-0.6438405922338334,1.1690824595688907,"(0.0, 0.0, 0.0, 0.0, 0.0, 0.0)",-0.20397696556653716,0.8575831510875931,1.1312332006820753,"(0.0, 0.0, 0.0, 0.0, 0.0, 0.0)",-0.027829079200348807,False,,,,,False,,,,
13,Close,,,"(5.567361934631568e-08, 0.16999906349286917, 0.0009359839309479349)","(1.5708039321322358, 3.37560108188707e-05, -1.3987283228090085e-05)",,"[-0.026750000193715096, 0.05299999937415123, 0.03999999910593033]","[0.0, -0.0, 0.62876384308693]","[-0.06909646838903427, 0.11123037338256836, 0.03999999910593033]","[0.0, 0.0, -0.24340789693353326]","[0.026750000193715096, 0.05299999937415123, 0.03999999910593033]","[0.0, 0.0, -0.62876384308693]","[0.06909646838903427, 0.11123037338256836, 0.03999999910593033]","[0.0, -0.0, 0.24340764580603796]",0.6258874156623524,-0.6903310843293964,"(0.0, 0.0, 0.0, 0.0, 0.0, 0.0)",0.12048853373387189,-0.8749547691894786,-0.6679421640099914,"(0.0, 0.0, 0.0, 0.0, 0.0, 0.0)",0.016461146679105913,-0.6258874313081562,0.6903315015508323,"(0.0, 0.0, 0.0, 0.0, 0.0, 0.0)",-0.12048866447898966,0.8749545742586229,0.6679473624521103,"(0.0, 0.0, 0.0, 0.0, 0.0, 0.0)",-0.016461214564379854,False,,,,,False,,,,
14,Move,,,"(0.0002849434880139787, 0.17128526654835666, 0.0018667775255450016)","(1.529867145493542, 0.001236551690390913, -0.0026252758006009144)","[0.0, 0.0, 0.0]","[-0.026750000193715096, 0.05299999937415123, 0.03999999910593033]","[0.0, -0.0, 0.5674368798319164]","[-0.06544800847768784, 0.113716259598732, 0.03999999910593033]","[0.0, 0.0, -0.23086444862254737]","[0.026750000193715096, 0.05299999937415123, 0.03999999910593033]","[0.0, 0.0, -0.5672775113046467]","[0.06543833017349243, 0.11372242867946625, 0.03999999910593033]","[0.0, -0.0, 0.2338230653212545]",0.5526433844132694,-3.5504372063580854,"(0.0, 0.0, 0.0, 0.0, 0.0, 0.0)",-74.66311326449657,-0.7739535469156117,5.843468067207706,"(0.0, 0.0, 0.0, 0.0, 0.0, 0.0)",-38.567738900473906,-0.5523653530093062,3.5789086898164406,"(0.0, 0.0, 0.0, 0.0, 0.0, 0.0)",70.97380681712595,0.7784689212282292,-5.431581853362886,"(0.0, 0.0, 0.0, 0.0, 0.0, 0.0)",36.631671368390464,True,"(-0.031139027298926508, 0.18549673152317092, 0.03999924353386678)","(0.9999971505660776, -0.0022642037706561637, -0.0007564661332230728)",-0.000503181178828863,565.4925793008347,True,"(0.030917119596597424, 0.1854085662421605, 0.04000075646613322)","(-0.9999971505660776, 0.002264203770598743, 0.0007564661332168607)",-0.0013606486484191646,538.0249494895718
15,Move,"(0.0, 0.0, 0.0)","(0.0, -0.0, 0.0)","(0.00016274991557831364, 0.17136475104845758, 0.0031640906121350575)","(1.4899865793592248, -0.0009251634143453488, -0.006053919932276661)","[-0.00012219357243566505, 7.948450010092367e-05, 0.001297313086590056]","[-0.026750000193715096, 0.05299999937415123, 0.03999999910593033]","[0.0, -0.0, 0.5448782568355026]","[-0.06406860798597336, 0.11457370966672897, 0.03999999910593033]","[0.0, 0.0, -0.2125956411648876]","[0.026750000193715096, 0.05299999937415123, 0.03999999910593033]","[0.0, 0.0, -0.5441825092896027]","[0.06402575969696045, 0.11459966003894806, 0.03999999910593033]","[0.0, -0.0, 0.21903630347083206]",0.5463765798653516,0.35960109272080254,"(0.0, 0.0, 0.0, 0.0, 0.0, 0.0)",-0.08406283938624641,-0.7590286933635231,-0.37315947580442554,"(0.0, 0.0, 0.0, 0.0, 0.0, 0.0)",-0.017297597694563044,-0.5456033040750284,-0.3409927387516254,"(0.0, 0.0, 0.0, 0.0, 0.0, 0.0)",0.7656171975284948,0.7645763731677416,0.32581485659360865,"(0.0, 0.0, 0.0, 0.0, 0.0, 0.0)",0.4026025408250114,True,"(-0.031076504252458274, 0.1869479334441972, 0.04000075744199429)","(0.9999871217005202, -0.0050182382101970815, 0.0007574419942935584)",-0.000622934270282677,0.221954412255134,True,"(0.03056815038234164, 0.1867763680017247, 0.03999924255800572)","(-0.9999871217005204, 0.005018238210180842, -0.0007574419942756659)",-0.0016523435419804678,5.374466445399798
16,Move,"(-0.0031645569620253164, 0.0, 0.0031645569620253164)","(0.0, -0.0, 0.0)","(-0.000257130412898376, 0.17131005064062219, 0.0031728360350760654)","(1.4933341927461736, -0.000660872137725503, -0.011269619714621548)","[-0.0005420739009123547, 2.4784092265528468e-05, 0.0013060585095310637]","[-0.026750000193715096, 0.05299999937415123, 0.03999999910593033]","[0.0, -0.0, 0.5518831920060767]","[-0.06449900567531586, 0.11431078612804413, 0.03999999910593033]","[0.0, 0.0, -0.20814130960827312]","[0.026750000193715096, 0.05299999937415123, 0.03999999910593033]","[0.0, 0.0, -0.5472247112722711]","[0.06421298533678055, 0.1144859716296196, 0.03999999910593033]","[0.0, -0.0, 0.21807143134500273]",0.5530012433636204,0.2683407941616797,"(0.0, 0.0, 0.0, 0.0, 0.0, 0.0)",-0.043990105771557104,-0.7599248674269531,0.023897975024801177,"(0.0, 0.0, 0.0, 0.0, 0.0, 0.0)",-0.0035485316672785503,-0.547314604308894,-0.021578033799673265,"(0.0, 0.0, 0.0, 0.0, 0.0, 0.0)",0.38894104183442985,0.7651951354450114,-0.02423004560483687,"(0.0, 0.0, 0.0, 0.0, 0.0, 0.0)",0.18694494366205658,True,"(-0.03182966075760103, 0.18682161795543412, 0.040000703961079936)","(0.9999477653677504, -0.010196615852336001, 0.0007039610799416274)",-0.00017121027380109362,0.0,True,"(0.03082506955983741, 0.186699146535597, 0.03999929603892006)","(-0.9999477653677504, 0.01019661585233217, -0.0007039610799404971)",-0.00109608273022028,2.867955530018606
17,Move,"(-0.006329113924050633, 0.0, 0.006329113924050633)","(0.0, -0.0, 0.0)","(-0.0006193075582426947, 0.17116831606266658, 0.0020073568359577428)","(1.533529535723228, -0.0005439119487097833, -0.01651714471593669)","[-0.0009042510462566734, -0.00011695048569007604, 0.00014057931041274114]","[-0.026750000193715096, 0.05299999937415123, 0.03999999910593033]","[0.0, -0.0, 0.5610235653469632]","[-0.06505782902240753, 0.11396318674087524, 0.03999999910593033]","[0.0, 0.0, -0.19883598813160272]","[0.026750000193715096, 0.05299999937415123, 0.03999999910593033]","[0.0, 0.0, -0.5476290717752695]","[0.06423784792423248, 0.11447081714868546, 0.03999999910593033]","[0.0, -0.0, 0.2173920616216289]",0.5629109008914472,0.45296169991832524,"(0.0, 0.0, 0.0, 0.0, 0.0, 0.0)",-0.07374169575902367,-0.7598660694466514,-0.0015679461413791174,"(0.0, 0.0, 0.0, 0.0, 0.0, 0.0)",-0.005479464251454572,-0.5476922964349799,-0.015169174387559953,"(0.0, 0.0, 0.0, 0.0, 0.0, 0.0)",0.3486164858270396,0.7649935111556376,-0.0066336989285848596,"(0.0, 0.0, 0.0, 0.0, 0.0, 0.0)",0.1708922342022981,True,"(-0.033064741673536915, 0.18676025168222993, 0.04000055840480615)","(0.9998794798665382, -0.01551495813378928, 0.0005584048061516496)",0.000765076020238404,0.0,True,"(0.0308990571482452, 0.18671129569790076, 0.039999441595193856)","(-0.9998794798665385, 0.015514958133784748, -0.000558404806138615)",-0.0007282255751731519,2.581993151098002
18,Move,"(-0.00949367088607595, 0.0, 0.00949367088607595)","(0.0, -0.0, 0.0)","(-0.0010861536024397368, 0.17122016623504224, 0.0009843060557951798)","(1.5840481797902874, 0.005799124329092807, -0.012086070453599905)","[-0.0013710970904537156, -6.510031331441457e-05, -0.0008824714697498218]","[-0.026750000193715096, 0.05299999937415123, 0.03999999910593033]","[0.0, -0.0, 0.5737175834536985]","[-0.0658285841345787, 0.11347200721502304, 0.03999999910593033]","[0.0, 0.0, -0.18615278346284803]","[0.026750000193715096, 0.05299999937415123, 0.03999999910593033]","[0.0, 0.0, -0.5469910267692567]","[0.06419861316680908, 0.11449472606182098, 0.03999999910593033]","[0.0, -0.0, 0.21707628000275714]",0.576167692610571,0.5880256201981622,"(0.0, 0.0, 0.0, 0.0, 0.0, 0.0)",-0.09575077068311659,-0.759869927182139,0.00010287294633481991,"(0.0, 0.0, 0.0, 0.0, 0.0, 0.0)",-0.007137473590091722,-0.5467765933208603,0.05145095423701697,"(0.0, 0.0, 0.0, 0.0, 0.0, 0.0)",0.08201811347388699,0.7641586822345698,0.021947481790895784,"(0.0, 0.0, 0.0, 0.0, 0.0, 0.0)",0.054683327577109114,False,,,,,True,"(0.03088262256094851, 0.18674396506094038, 0.0400045243318393)","(-0.9998908307560235, 0.014066164773563537, 0.004524331839301217)",-0.0004811667751758962,0.4190081076453647
19,Move,"(-0.00949367088607595, 0.0, 0.00949367088607595)","(0.0, -0.0, 0.0)","(-0.0023208376133189057, 0.17235840810063657, 0.0021238697325531835)","(1.5335940105615105, -0.004402678166273398, 0.02655891386415971)","[-0.0026057811013328845, 0.001073141552279916, 0.00025709220700818186]","[-0.026750000193715096, 0.05299999937415123, 0.03999999910593033]","[0.0, -0.0, 0.5229650168948852]","[-0.0627104789018631, 0.11537662893533707, 0.03999999910593033]","[0.0, 0.0, -0.17850569092175012]","[0.026750000193715096, 0.05299999937415123, 0.03999999910593033]","[0.0, 0.0, -0.49230935859484615]","[0.06078168377280235, 0.11644954234361649, 0.03999999910593033]","[0.0, -0.0, 0.21447366161439887]",0.5087629399209666,-3.4085107095354927,"(0.0, 0.0, 0.0, 0.0, 0.0, 0.0)",-71.2300687281597,-0.6766965581352552,5.945804869355218,"(0.0, 0.0, 0.0, 0.0, 0.0, 0.0)",-37.2763387873314,-0.47828376664758726,3.3661417938891454,"(0.0, 0.0, 0.0, 0.0, 0.0, 0.0)",68.04067402940225,0.6825421319019621,-5.817818392052765,"(0.0, 0.0, 0.0, 0.0, 0.0, 0.0)",36.76283475853828,True,"(-0.03220418298031166, 0.18882780223920426, 0.04000727979956518)","(0.9996953437955814, 0.02358440297937995, 0.007279802850353528)",-0.0028910865436730087,526.2298701958965,True,"(0.0276762871939729, 0.18865652133473276, 0.0378689534921285)","(-0.9997450269604773, -0.020185960310358058, -0.010119687452842401)",-0.00118607164797358,504.77274504102104
20,Move,"(-0.012658227848101266, 0.0, 0.012658227848101266)","(0.0, -0.0, 0.0)","(-0.002878103682667334, 0.17270317768431143, 0.003307166476519087)","(1.490370397869293, 0.0004193381350921329, 0.029736939763921888)","[-0.003163047170681313, 0.0014179111359547691, 0.0014403889509740854]","[-0.026750000193715096, 0.05299999937415123, 0.03999999910593033]","[0.0, -0.0, 0.5124684658865697]","[-0.06205376610159874, 0.11575064808130264, 0.03999999910593033]","[0.0, 0.0, -0.14773394658853253]","[0.026750000193715096, 0.05299999937415123, 0.03999999910593033]","[0.0, 0.0, -0.46830976854151]","[0.059249263256788254, 0.11724793910980225, 0.03999999910593033]","[0.0, -0.0, 0.19822717099221815]",0.5169025796025551,1.0641888255093221,"(0.0, 0.0, 0.0, 0.0, 0.0, 0.0)",-0.16845762776493295,-0.6618518280165075,-0.39585946983327164,"(0.0, 0.0, 0.0, 0.0, 0.0, 0.0)",-0.008109575977519852,-0.4690240761016801,-0.1714430768673097,"(0.0, 0.0, 0.0, 0.0, 0.0, 0.0)",0.44858127692045185,0.668091068151861,0.37300000278770956,"(0.0, 0.0, 0.0, 0.0, 0.0, 0.0)",0.24060637752620445,True,"(-0.033820756378636845, 0.1900824232328298, 0.03999953823141467)","(0.9995155060635649, 0.03112137381718951, -0.00046176858532581753)",-0.0014050806152356601,0.0,True,"(0.02732129656532018, 0.1899832128948119, 0.0378689534921285)","(-0.9997450269604773, -0.020185960310358058, -0.010119687452842401)",-0.0013910022236076065,2.7455452104415894
21,Move,"(-0.015822784810126587, 0.0, 0.015822784810126587)","(0.0, -0.0, 0.0)","(-0.0037543650353360682, 0.17269737547001163, 0.003301056164565224)","(1.4924368883852241, 0.00027302932190344833, 0.02359611786211828)","[-0.004039308523350047, 0.0014121089216549698, 0.0014342786390202224]","[-0.026750000193715096, 0.05299999937415123, 0.03999999910593033]","[0.0, -0.0, 0.5354560513799012]","[-0.06348679959774017, 0.11492259800434113, 0.03999999910593033]","[0.0, 0.0, -0.12747799867858287]","[0.026750000193715096, 0.05299999937415123, 0.03999999910593033]","[0.0, 0.0, -0.4675571889087236]","[0.05920090153813362, 0.11727238446474075, 0.03999999910593033]","[0.0, -0.0, 0.2014383090965675]",0.5393734670919824,0.9401838286518052,"(0.0, 0.0, 0.0, 0.0, 0.0, 0.0)",-0.1533852856093637,-0.6628257907595986,0.02597233981576075,"(0.0, 0.0, 0.0, 0.0, 0.0, 0.0)",-0.01171695196393756,-0.4669881618439173,0.1365524989264148,"(0.0, 0.0, 0.0, 0.0, 0.0, 0.0)",0.32763804956778997,0.6688870748024703,-0.02600796062576944,"(0.0, 0.0, 0.0, 0.0, 0.0, 0.0)",0.16850586960704012,True,"(-0.03676412829453865, 0.18978446836222856, 0.039999705010211245)","(0.9996908755144703, 0.024860941135367385, -0.0002949897887578704)",0.0007903312153483437,0.0,True,"(0.02703953633731089, 0.18990475365309795, 0.0378689534921285)","(-0.9997450269604773, -0.020185960310358058, -0.010119687452842401)",-0.0009187407807670459,2.5389201933213266
22,Move,"(-0.0189873417721519, 0.0, 0.0189873417721519)","(0.0, -0.0, 0.0)","(-0.0045563781931661435, 0.17263506761875008, 0.0021284681868822164)","(1.531624140112187, 0.0001899184382185341, 0.018641619590697708)","[-0.004841321681180122, 0.001349801070393425, 0.0002616906613372148]","[-0.026750000193715096, 0.05299999937415123, 0.03999999910593033]","[0.0, -0.0, 0.5602507456331519]","[-0.06501070410013199, 0.11399277299642563, 0.03999999910593033]","[0.0, 0.0, -0.10250403639677931]","[0.026750000193715096, 0.05299999937415123, 0.03999999910593033]","[0.0, 0.0, -0.46433529480081065]","[0.05899365618824959, 0.11737660318613052, 0.03999999910593033]","[0.0, -0.0, 0.20442654846063826]",0.5649184067828568,1.1202349631686381,"(0.0, 0.0, 0.0, 0.0, 0.0, 0.0)",-0.18235125860914198,-0.6627618890640243,-0.001704045215312533,"(0.0, 0.0, 0.0, 0.0, 0.0, 0.0)",-0.013561018923749122,-0.4637594593707856,0.13818947458952716,"(0.0, 0.0, 0.0, 0.0, 0.0, 0.0)",0.3288283118266368,0.6687531818281378,-0.002068178800577682,"(0.0, 0.0, 0.0, 0.0, 0.0, 0.0)",0.17209391679968344,False,,,,,True,"(0.026615391234961393, 0.18991254283656483, 0.0378689534921285)","(-0.9997450269604773, -0.020185960310358058, -0.010119687452842401)",-0.0006044404265668685,1.924137324530649
23,Move,"(-0.0189873417721519, 0.0, 0.0189873417721519)","(0.0, -0.0, 0.0)","(-0.0071560909607859425, 0.17555312029132913, 0.0013311879739662089)","(1.5764587188967951, -0.014050306467750372, 0.035910759651003904)","[-0.007441034448799921, 0.004267853742972477, -0.0005355895515787928]","[-0.026750000193715096, 0.05299999937415123, 0.03999999910593033]","[0.0, -0.0, 0.5152287083932228]","[-0.06222683936357498, 0.11565296351909637, 0.03999999910593033]","[0.0, 0.0, -0.09111761419373023]","[0.026750000193715096, 0.05299999937415123, 0.03999999910593033]","[0.0, 0.0, -0.4118641011574771]","[0.055572908371686935, 0.1189790889620781, 0.03999999910593033]","[0.0, -0.0, 0.20282110803309136]",0.5012946325350304,-3.3441739002832973,"(0.0, 0.0, 0.0, 0.0, 0.0, 0.0)",-65.02617547166064,-0.5824767133464891,5.728701775300078,"(0.0, 0.0, 0.0, 0.0, 0.0, 0.0)",-35.622742521395395,-0.39862301935617533,3.177845974452623,"(0.0, 0.0, 0.0, 0.0, 0.0, 0.0)",65.34176478761884,0.5916753865522932,-5.522343647952543,"(0.0, 0.0, 0.0, 0.0, 0.0, 0.0)",34.94097018872457,True,"(-0.038251853903774745, 0.19130544029746757, 0.04215899933447863)","(0.9992398459017565, 0.03633337708814045, 0.014128555184626836)",-0.0019203921066060935,472.1444305527019,True,"(0.023312085522455173, 0.191526492516078, 0.03784100066552124)","(-0.9992398459017588, -0.036333377088027134, -0.014128555184756093)",-0.000535440434451393,474.2359030890577
24,Move,"(-0.02215189873417721, 0.0, 0.02215189873417721)","(0.0, -0.0, 0.0)","(-0.007958887444850042, 0.17793200117172273, 0.0008711303740970893)","(1.5698229492158093, -0.002895667472418045, 0.05499230192714774)","[-0.008243830932864021, 0.0066467346233660685, -0.0009956471514479125]","[-0.026750000193715096, 0.05299999937415123, 0.03999999910593033]","[0.0, -0.0, 0.5119807676832515]","[-0.06202315911650658, 0.11576785892248154, 0.03999999910593033]","[0.0, 0.0, -0.054808948358625716]","[0.026750000193715096, 0.05299999937415123, 0.03999999910593033]","[0.0, 0.0, -0.38791030895751577]","[0.053984347730875015, 0.11965051293373108, 0.03999999910593033]","[0.0, -0.0, 0.18863450821069389]",0.5182276927404101,1.499259704676568,"(0.0, 0.0, 0.0, 0.0, 0.0, 0.0)",-0.23948785620217478,-0.5683584241801523,-0.3764877111023157,"(0.0, 0.0, 0.0, 0.0, 0.0, 0.0)",-0.013612330224191373,-0.38823370647685773,-0.07761613051281303,"(0.0, 0.0, 0.0, 0.0, 0.0, 0.0)",0.06428624885033876,0.5780566621334527,0.3628475690452456,"(0.0, 0.0, 0.0, 0.0, 0.0, 0.0)",0.027908462578737286,True,"(-0.04080864408128871, 0.1922159292637291, 0.04215231423272689)","(0.9988325582167284, 0.04772960975346294, 0.007443453432888373)",3.450650969925912e-05,0.0,True,"(0.02275615168201351, 0.19262588543930376, 0.03791250897791225)","(-0.9988333249155954, -0.047714559472348865, -0.007437059393069853)",-0.0004759090671101219,0.40169388361016484
25,Move,"(-0.02531645569620253, 0.0, 0.02531645569620253)","(0.0, -0.0, 0.0)","(-0.008856160638272072, 0.17865066688274941, 0.0008077023283278079)","(1.571452138703701, 0.00272555914742823, 0.0750960702601819)","[-0.009141104126286052, 0.007365400334392758, -0.0010590751972171938]","[-0.026750000193715096, 0.05299999937415123, 0.03999999910593033]","[0.0, -0.0, 0.5455048842799308]","[-0.06410718709230423, 0.11455030739307404, 0.03999999910593033]","[0.0, 0.0, -0.023882718003435655]","[0.026750000193715096, 0.05299999937415123, 0.03999999910593033]","[0.0, 0.0, -0.38460063097596087]","[0.053763601928949356, 0.11974028497934341, 0.03999999910593033]","[0.0, -0.0, 0.19435549401193483]",0.5513302063573717,1.3980667316619115,"(0.0, 0.0, 0.0, 0.0, 0.0, 0.0)",-0.22787575653170467,-0.5692847250194365,0.024701355714246805,"(0.0, 0.0, 0.0, 0.0, 0.0, 0.0)",-0.01723982187347552,-0.38354579963971985,0.2531427956598726,"(0.0, 0.0, 0.0, 0.0, 0.0, 0.0)",0.5002191214819898,0.5788153307668317,-0.03376933019034924,"(0.0, 0.0, 0.0, 0.0, 0.0, 0.0)",0.31353654672866366,False,,,,,True,"(0.022099578416847947, 0.19261850830765975, 0.0400029626226088)","(-0.9973650811817286, -0.07248529303687452, 0.0029626226088040578)",-0.00031100234501101607,3.91649084106845
26,Move,"(-0.02531645569620253, 0.0, 0.02531645569620253)","(0.0, -0.0, 0.0)","(-0.011118923520513855, 0.1796987567854028, 0.0017243561802369163)","(1.5448725444545588, -0.008712924382843224, 0.10061069098676338)","[-0.011403867008527835, 0.008413490237046156, -0.0001424213453080853]","[-0.026750000193715096, 0.05299999937415123, 0.03999999910593033]","[0.0, -0.0, 0.5040189506827338]","[-0.06152229756116867, 0.11604670435190201, 0.03999999910593033]","[0.0, 0.0, -0.01220937460829914]","[0.026750000193715096, 0.05299999937415123, 0.03999999910593033]","[0.0, 0.0, -0.3330186985310251]","[0.050286609679460526, 0.12104430794715881, 0.03999999910593033]","[0.0, -0.0, 0.19232982112720004]",0.49040763330099374,-3.2667070658199866,"(0.0, 0.0, 0.0, 0.0, 0.0, 0.0)",-61.48620765978931,-0.49461473402374445,5.187252560835591,"(0.0, 0.0, 0.0, 0.0, 0.0, 0.0)",-32.721119878292974,-0.3203015840117737,3.0521006406535105,"(0.0, 0.0, 0.0, 0.0, 0.0, 0.0)",65.1799943056455,0.5024329949198425,-5.499715915812595,"(0.0, 0.0, 0.0, 0.0, 0.0, 0.0)",34.16857800025037,True,"(-0.0435835693989418, 0.19333773250084252, 0.04215546953227966)","(0.99502318875316, 0.09907835423866572, 0.010598752985651548)",-0.001404486564668445,436.9935128035734,True,"(0.01877048983832983, 0.19398356186034393, 0.040002507428822824)","(-0.9970141590025156, -0.07717823235346324, 0.0025074288228206566)",-0.0004027457861278061,464.2393787350598
27,Move,"(-0.02848101265822785, 0.0, 0.02848101265822785)","(0.0, -0.0, 0.0)","(-0.012357189050927636, 0.17985726518838313, 0.002312150830292187)","(1.523475346887894, -0.004652591894127801, 0.09798007700289216)","[-0.012642132538941616, 0.008571998640026474, 0.00044537330474718516]","[-0.026750000193715096, 0.05299999937415123, 0.03999999910593033]","[0.0, -0.0, 0.508251705580436]","[-0.06178884208202362, 0.11589895933866501, 0.03999999910593033]","[0.0, -0.0, 0.027708002972036974]","[0.026750000193715096, 0.05299999937415123, 0.03999999910593033]","[0.0, 0.0, -0.3067600326266676]","[0.0484919473528862, 0.12163881957530975, 0.03999999910593033]","[0.0, -0.0, 0.1802166927733173]",0.5163554633852079,1.9449235875330544,"(0.0, 0.0, 0.0, 0.0, 0.0, 0.0)",-0.31245008058572377,-0.4819507239846641,-0.33770693437547594,"(0.0, 0.0, 0.0, 0.0, 0.0, 0.0)",-0.01946812264613215,-0.3061852571328012,0.13794437973495993,"(0.0, 0.0, 0.0, 0.0, 0.0, 0.0)",0.36686413941811885,0.48851279077969106,0.36865725032694807,"(0.0, 0.0, 0.0, 0.0, 0.0, 0.0)",0.2027523631140173,True,"(-0.04694415878120506, 0.193805704117324, 0.042150712866840315)","(0.9949585253483898, 0.1001169458666143, 0.00584208754630866)",0.0011278450189527128,0.0,True,"(0.01788396511234791, 0.19481048948625468, 0.03784928713315969)","(-0.9949585253483896, -0.10011694586661864, -0.005842087546306004)",-0.0004710821096033942,2.759895398718008
28,Move,"(-0.031645569620253174, 0.0, 0.031645569620253174)","(0.0, -0.0, 0.0)","(-0.014229178962629969, 0.17968765744185053, 0.0016744024017876025)","(1.5410004449096137, 0.0016028056654265345, 0.08619984474282277)","[-0.014514122450643948, 0.008402390893493872, -0.00019237512375739913]","[-0.026750000193715096, 0.05299999937415123, 0.03999999910593033]","[0.0, -0.0, 0.5505092632530754]","[-0.06441473215818405, 0.11436259746551514, 0.03999999910593033]","[0.0, -0.0, 0.06763527111315552]","[0.026750000193715096, 0.05299999937415123, 0.03999999910593033]","[0.0, 0.0, -0.29889826252660345]","[0.04795166105031967, 0.12180762737989426, 0.03999999910593033]","[0.0, -0.0, 0.19058493856334466]",0.5577347108805867,1.7341229357403407,"(0.0, 0.0, 0.0, 0.0, 0.0, 0.0)",-0.28251026649076877,-0.4827816096833281,0.022156951964373395,"(0.0, 0.0, 0.0, 0.0, 0.0, 0.0)",-0.0212678171569885,-0.2970765797113157,0.4372103139643582,"(0.0, 0.0, 0.0, 0.0, 0.0, 0.0)",0.304954855487594,0.48938156907632574,-0.024397287473832217,"(0.0, 0.0, 0.0, 0.0, 0.0, 0.0)",0.1864185183574457,False,,,,,True,"(0.01658438687582215, 0.19467176878747905, 0.0380413613231086)","(-0.9951945847590944, -0.09780667537219487, -0.004646796618283664)",-0.0003004234337726193,0.21771956068076254
29,Move,"(-0.031645569620253174, 0.0, 0.031645569620253174)","(0.0, -0.0, 0.0)","(-0.018053999782951722, 0.18130898189335423, 0.0011544461514522149)","(1.5727251516540615, -0.009142787844512524, 0.08227974021277729)","[-0.0183389432709657, 0.010023715344997575, -0.0007123313740927868]","[-0.026750000193715096, 0.05299999937415123, 0.03999999910593033]","[0.0, -0.0, 0.5131530423811006]","[-0.062096718698740005, 0.11572646349668503, 0.03999999910593033]","[0.0, -0.0, 0.07451593087844635]","[0.026750000193715096, 0.05299999937415123, 0.03999999910593033]","[0.0, 0.0, -0.2480730189932141]","[0.04442862048745155, 0.12279588729143143, 0.03999999910593033]","[0.0, -0.0, 0.19999014110245827]",0.5000521431272034,-3.1442263996986513,"(0.0, 0.0, 0.0, 0.0, 0.0, 0.0)",-58.27362439167845,-0.4164945808953073,5.314218378938436,"(0.0, 0.0, 0.0, 0.0, 0.0, 0.0)",-31.984518049373566,-0.23602433938414874,2.891674314758692,"(0.0, 0.0, 0.0, 0.0, 0.0, 0.0)",57.828491426497735,0.4268332832856288,-5.095161619416826,"(0.0, 0.0, 0.0, 0.0, 0.0, 0.0)",30.09079094317037,True,"(-0.05079514276900951, 0.19268724836474038, 0.04778747800064877)","(0.9963005511111078, 0.08519840932837466, 0.011244683348920212)",-0.0005910837713430647,413.86522839139167,True,"(0.012376114407269982, 0.195385115297473, 0.03784577826100901)","(-0.9965285961764674, -0.082724340766817, -0.00935095969698482)",-0.0002466683476301696,406.3491829323867
30,Move,"(-0.034810126582278486, 0.0, 0.034810126582278486)","(0.0, -0.0, 0.0)","(-0.018828353042264424, 0.18272014543985463, 0.0012053504063483582)","(1.5708563025870792, -0.010769282731122286, 0.11256701745255772)","[-0.019113296530278403, 0.011434878891497968, -0.0006614271191966435]","[-0.026750000193715096, 0.05299999937415123, 0.03999999910593033]","[0.0, -0.0, 0.5209027129795256]","[-0.06258175522089005, 0.1154506653547287, 0.03999999910593033]","[0.0, -0.0, 0.11759465523974065]","[0.026750000193715096, 0.05299999937415123, 0.03999999910593033]","[0.0, 0.0, -0.2221484933799284]","[0.04261345788836479, 0.1232306957244873, 0.03999999910593033]","[0.0, -0.0, 0.18720443345237459]",0.52956661238904,2.0793469721312174,"(0.0, 0.0, 0.0, 0.0, 0.0, 0.0)",-0.3345670112888258,-0.40462666478425013,-0.3164777629615245,"(0.0, 0.0, 0.0, 0.0, 0.0, 0.0)",-0.021347349311703838,-0.22129700925556986,0.2043562391628665,"(0.0, 0.0, 0.0, 0.0, 0.0, 0.0)",0.17941612705905186,0.4110751777263391,0.41333971692221394,"(0.0, 0.0, 0.0, 0.0, 0.0, 0.0)",0.11487676091961946,True,"(-0.04931289700111573, 0.14803321715594076, 0.0510118204580235)","(0.9930243299484574, 0.11731562339867574, 0.01182051762814763)",0.0016352871084315962,0.0,True,"(0.01149475353538645, 0.19618878560853256, 0.03784332560898275)","(-0.9944041900084564, -0.10498086322712508, -0.011803611723246416)",-0.0001877226789663187,1.4973461876059335
31,Move,"(-0.0379746835443038, 0.0, 0.0379746835443038)","(0.0, -0.0, 0.0)","(-0.020847628826772213, 0.18334388062195908, 0.000944371206350159)","(1.5689821634882846, -0.0029159023049280825, 0.1447519937919732)","[-0.021132572314786192, 0.012058614073602425, -0.0009224063191948426]","[-0.026750000193715096, 0.05299999937415123, 0.03999999910593033]","[0.0, -0.0, 0.5676464783825037]","[-0.06546074151992798, 0.11370814591646194, 0.03999999910593033]","[0.0, -0.0, 0.16215471250891042]","[0.026750000193715096, 0.05299999937415123, 0.03999999910593033]","[0.0, 0.0, -0.21118680809876306]","[0.04184267297387123, 0.12340036034584045, 0.03999999910593033]","[0.0, -0.0, 0.2007900633154965]",0.575792606372719,1.9550568069116592,"(0.0, 0.0, 0.0, 0.0, 0.0, 0.0)",-0.3184241787961836,-0.40540531876029656,0.02076410602790446,"(0.0, 0.0, 0.0, 0.0, 0.0, 0.0)",-0.023916591905675536,-0.20866986505030763,0.6040616424195073,"(0.0, 0.0, 0.0, 0.0, 0.0, 0.0)",0.37923657550583895,0.41186944937240544,-0.02577494663860537,"(0.0, 0.0, 0.0, 0.0, 0.0, 0.0)",0.25827964797725306,False,,,,,True,"(0.009738155089264781, 0.19590947112601023, 0.03784959291968174)","(-0.9904201276592035, -0.13797579533561743, -0.005536301024247916)",-0.00013623849989575487,3.323680175563062
32,Move,"(-0.0379746835443038, 0.0, 0.0379746835443038)","(0.0, -0.0, 0.0)","(-0.025963674972952742, 0.1833078413292919, 0.0010684950951973784)","(1.5657490300629526, -0.004482859661860078, 0.1639861376801001)","[-0.02624861846096672, 0.012022574780935241, -0.0007982824303476232]","[-0.026750000193715096, 0.05299999937415123, 0.03999999910593033]","[0.0, -0.0, 0.5320079607289452]","[-0.06327306479215622, 0.11504890024662018, 0.03999999910593033]","[0.0, -0.0, 0.15178987837085733]","[0.026750000193715096, 0.05299999937415123, 0.03999999910593033]","[0.0, 0.0, -0.16031205856464015]","[0.038243092596530914, 0.12407678365707397, 0.03999999910593033]","[0.0, -0.0, 0.22777863636936727]",0.5192183792115033,-3.0694897251079265,"(0.0, 0.0, 0.0, 0.0, 0.0, 0.0)",-53.09672439604712,-0.3578581906231872,5.366366813070675,"(0.0, 0.0, 0.0, 0.0, 0.0, 0.0)",-29.569272684266984,-0.14890899520456308,2.7367368887850496,"(0.0, 0.0, 0.0, 0.0, 0.0, 0.0)",52.95701427921431,0.3676780385578815,-4.8990409590567685,"(0.0, 0.0, 0.0, 0.0, 0.0, 0.0)",27.014421127693065,True,"(-0.058054284789122425, 0.1933528676294453, 0.0461258000874538)","(0.9829687110855554, 0.18304298526814414, 0.0163639411795562)",-0.0021834181710632164,372.8487726237262,True,"(0.004266140859476124, 0.1953781835735643, 0.035782520885246374)","(-0.9849541122852956, -0.17255089759852804, -0.009569975455948171)",-0.00010314601447220497,357.60863378286854
33,Move,"(-0.041139240506329125, 0.0, 0.041139240506329125)","(0.0, -0.0, 0.0)","(-0.028485284446546147, 0.18357405594365883, 0.0007427091017966788)","(1.575891736479311, -0.002356686805280611, 0.13774189762042996)","[-0.028770227934560126, 0.012288789395302174, -0.0011240684237483229]","[-0.026750000193715096, 0.05299999937415123, 0.03999999910593033]","[0.0, -0.0, 0.5448539640119751]","[-0.06406710296869278, 0.1145746186375618, 0.03999999910593033]","[0.0, -0.0, 0.20179927778663923]","[0.026750000193715096, 0.05299999937415123, 0.03999999910593033]","[0.0, 0.0, -0.13002139279413624]","[0.036085184663534164, 0.12439225614070892, 0.03999999910593033]","[0.0, -0.0, 0.22388441799039027]",0.5548452332077302,2.3979238652587203,"(0.0, 0.0, 0.0, 0.0, 0.0, 0.0)",-0.3858880247977767,-0.34453457613877114,-0.3551922870173919,"(0.0, 0.0, 0.0, 0.0, 0.0, 0.0)",-0.02471204994156829,-0.1276935224867421,0.5586902714484044,"(0.0, 0.0, 0.0, 0.0, 0.0, 0.0)",-0.09508314738875094,0.35528319603806946,0.33057480617210927,"(0.0, 0.0, 0.0, 0.0, 0.0, 0.0)",-0.010842120318969566,True,"(-0.06276915498623242, 0.19304156988758633, 0.0461258000874538)","(0.9829687110855554, 0.18304298526814414, 0.0163639411795562)",0.0011068696029661468,0.0,True,"(0.002386156565987521, 0.19582543237587705, 0.035782520885246374)","(-0.9849541122852956, -0.17255089759852804, -0.009569975455948171)",-2.696276805014037e-05,0.0
34,Move,"(-0.044303797468354424, 0.0, 0.044303797468354424)","(0.0, -0.0, 0.0)","(-0.030859573184199567, 0.18342443097880048, 0.0008324083110590013)","(1.5726633849849474, -0.003220281942489769, 0.15025535662686562)","[-0.031144516672213546, 0.012139164430443827, -0.0010343692144860004]","[-0.026750000193715096, 0.05299999937415123, 0.03999999910593033]","[0.0, -0.0, 0.5963077729483418]","[-0.06718457490205765, 0.11257386207580566, 0.03999999910593033]","[0.0, -0.0, 0.25080194058190286]","[0.026750000193715096, 0.05299999937415123, 0.03999999910593033]","[0.0, 0.0, -0.11411577990047929]","[0.03494851291179657, 0.12453170120716095, 0.03999999910593033]","[0.0, -0.0, 0.24180627430754298]",0.6050424607862636,2.0963155246129612,"(0.0, 0.0, 0.0, 0.0, 0.0, 0.0)",-0.3414246399605531,-0.3454087384850937,0.02331099590193375,"(0.0, 0.0, 0.0, 0.0, 0.0, 0.0)",-0.025650437068937732,-0.11102108082169934,0.7427254123623984,"(0.0, 0.0, 0.0, 0.0, 0.0, 0.0)",-0.0931481664168714,0.35585960626889773,-0.01497627336884159,"(0.0, 0.0, 0.0, 0.0, 0.0, 0.0)",0.0064805752271413055,True,"(-0.05839298635096371, 0.14675645721231362, 0.0289999206893627)","(0.9815591134572665, 0.19115883543029483, -8.016182659612496e-05)",0.001029580362906717,0.0,True,"(-2.5248365747666812e-05, 0.19534948988289164, 0.035782520885246374)","(-0.9849541122852956, -0.17255089759852804, -0.009569975455948171)",-3.351416613704788e-06,0.0
35,Move,"(-0.04746835443037975, 0.0, 0.04746835443037975)","(0.0, -0.0, 0.0)","(-0.03374219755517831, 0.18294609419011243, 0.0006920388033647061)","(1.569689599459317, 0.001813191442566156, 0.16016094185639446)","[-0.03402714104319229, 0.011660827641755772, -0.0011747387221802954]","[-0.026750000193715096, 0.05299999937415123, 0.03999999910593033]","[0.0, -0.0, 0.6488516232068994]","[-0.07025757431983948, 0.1103680357336998, 0.03999999910593033]","[0.0, -0.0, 0.30350665342172445]","[0.026750000193715096, 0.05299999937415123, 0.03999999910593033]","[0.0, 0.0, -0.09517819479033005]","[0.03359248861670494, 0.12467412650585175, 0.03999999910593033]","[0.0, -0.0, 0.2603163538449453]",0.658521807755073,2.3208356876895397,"(0.0, 0.0, 0.0, 0.0, 0.0, 0.0)",-0.37762885123768175,-0.3453513846935514,-0.0015294344411262983,"(0.0, 0.0, 0.0, 0.0, 0.0, 0.0)",-0.02805640348001346,-0.09165861683230042,0.8447028277956677,"(0.0, 0.0, 0.0, 0.0, 0.0, 0.0)",0.22208813990131795,0.3555225513409628,0.006715249972918446,"(0.0, 0.0, 0.0, 0.0, 0.0, 0.0)",0.1787335496070025,False,,,,,True,"(-0.0026860529995221052, 0.19483245082769757, 0.035782520885246374)","(-0.9849541122852956, -0.17255089759852804, -0.009569975455948171)",1.3765797660019333e-05,0.0
