OSUrobotics/InHand-Manipulation/AnalyseData/Data/Trial Data/Better/new_hand_human_sub1_2v2_b_n_1_kpNone_kdNone_dp1_step1_save_data.csv
,Phase,human_cube_pos,human_cube_orn,Cube_Pos,Cube_Orn,Cube_pos_in_start_pos,b'l_prox_pin'_link_pos,b'l_prox_pin'_link_orn,b'l_distal_pin'_link_pos,b'l_distal_pin'_link_orn,b'r_prox_pin'_link_pos,b'r_prox_pin'_link_orn,b'r_distal_pin'_link_pos,b'r_distal_pin'_link_orn,b'l_prox_pin'_joint_angle,b'l_prox_pin'_joint_vel,b'l_prox_pin'_joint_react_forces,b'l_prox_pin'_joint_motor_torque,b'l_distal_pin'_joint_angle,b'l_distal_pin'_joint_vel,b'l_distal_pin'_joint_react_forces,b'l_distal_pin'_joint_motor_torque,b'r_prox_pin'_joint_angle,b'r_prox_pin'_joint_vel,b'r_prox_pin'_joint_react_forces,b'r_prox_pin'_joint_motor_torque,b'r_distal_pin'_joint_angle,b'r_distal_pin'_joint_vel,b'r_distal_pin'_joint_react_forces,b'r_distal_pin'_joint_motor_torque,in_contact_l,contact_point_l_dist,contact_normal_l_dist,contact_distance_l_dist,contact_norm_force_l_dist,in_contact_r,contact_point_r_dist,contact_normal_r_dist,contact_distance_r_dist,contact_norm_force_r_dist
0,Open,,,,,,"[-0.026750000193715096, 0.05299999937415123, 0.03999999910593033]","[0.0, -0.0, 0.0]","[-0.026750000193715096, 0.125, 0.03999999910593033]","[0.0, -0.0, 0.0]","[0.026750000193715096, 0.05299999937415123, 0.03999999910593033]","[0.0, -0.0, 0.0]","[0.026750000193715096, 0.125, 0.03999999910593033]","[0.0, -0.0, 0.0]",0.0028636982559538428,0.6872875814289223,"(0.0, 0.0, 0.0, 0.0, 0.0, 0.0)",-74.42376671286476,0.025717978913313098,6.172314939195144,"(0.0, 0.0, 0.0, 0.0, 0.0, 0.0)",-28.347758017338414,-0.0028861714462846827,-0.6926811471083238,"(0.0, 0.0, 0.0, 0.0, 0.0, 0.0)",77.31812537484876,-0.025998027583603027,-6.239526620064726,"(0.0, 0.0, 0.0, 0.0, 0.0, 0.0)",29.325432325549183,False,,,,,False,,,,
1,Open,,,,,,"[-0.026750000193715096, 0.05299999937415123, 0.03999999910593033]","[0.0, -0.0, 0.0028636982488144678]","[-0.026956185698509216, 0.12499970197677612, 0.03999999910593033]","[0.0, -0.0, 0.028581675581217755]","[0.026750000193715096, 0.05299999937415123, 0.03999999910593033]","[0.0, 0.0, -0.0028861714423951343]","[0.026957804337143898, 0.12499970197677612, 0.03999999910593033]","[0.0, 0.0, -0.028884201286240394]",0.1595773284303585,37.61127124185712,"(0.0, 0.0, 0.0, 0.0, 0.0, 0.0)",53.472225824972774,0.02314589095046895,-0.6173011110825959,"(0.0, 0.0, 0.0, 0.0, 0.0, 0.0)",3.3014509125464437,-0.15959755430165623,-37.61073188528917,"(0.0, 0.0, 0.0, 0.0, 0.0, 0.0)",-53.45543824447724,-0.023397935520559333,0.6240220951304867,"(0.0, 0.0, 0.0, 0.0, 0.0, 0.0)",-3.2927232380167535,False,,,,,False,,,,
2,Open,,,,,,"[-0.026750000193715096, 0.05299999937415123, 0.03999999910593033]","[0.0, -0.0, 0.15957730699277592]","[-0.03819086775183678, 0.1240852028131485, 0.03999999910593033]","[0.0, -0.0, 0.1827232399786182]","[0.026750000193715096, 0.05299999937415123, 0.03999999910593033]","[0.0, 0.0, -0.15959754249378824]","[0.03819230571389198, 0.12408497184515, 0.03999999910593033]","[0.0, 0.0, -0.1829954723320542]",0.30061959558732265,33.8501441176714,"(0.0, 0.0, 0.0, 0.0, 0.0, 0.0)",-5.433290843096747,0.020831748867960086,-0.555394099802127,"(0.0, 0.0, 0.0, 0.0, 0.0, 0.0)",-0.37949999689540415,-0.30063779887149056,-33.849658696760244,"(0.0, 0.0, 0.0, 0.0, 0.0, 0.0)",5.433149501288634,-0.02105858889910766,0.5614431891484022,"(0.0, 0.0, 0.0, 0.0, 0.0, 0.0)",0.37943043762158307,False,,,,,False,,,,
3,Open,,,,,,"[-0.026750000193715096, 0.05299999937415123, 0.03999999910593033]","[0.0, -0.0, 0.30061964608852465]","[-0.048070069402456284, 0.12177103012800217, 0.03999999910593033]","[0.0, -0.0, 0.3214513597309629]","[0.026750000193715096, 0.05299999937415123, 0.03999999910593033]","[0.0, 0.0, -0.30063782483534385]","[0.04807132109999657, 0.12177064269781113, 0.03999999910593033]","[0.0, 0.0, -0.32169639446592324]",0.4275576360285904,30.465129705904268,"(0.0, 0.0, 0.0, 0.0, 0.0, 0.0)",-4.896562760502833,0.018748978964657985,-0.49986477679250463,"(0.0, 0.0, 0.0, 0.0, 0.0, 0.0)",-0.3438186216350169,-0.4275740189843415,-30.464692827084228,"(0.0, 0.0, 0.0, 0.0, 0.0, 0.0)",4.8964345239877005,-0.018953134917884834,0.505308955493478,"(0.0, 0.0, 0.0, 0.0, 0.0, 0.0)",0.34375511365495653,False,,,,,False,,,,
4,Open,,,,,,"[-0.026750000193715096, 0.05299999937415123, 0.03999999910593033]","[0.0, -0.0, 0.42755761853039154]","[-0.056604765355587006, 0.1185186430811882, 0.03999999910593033]","[0.0, -0.0, 0.4463066270391506]","[0.026750000193715096, 0.05299999937415123, 0.03999999910593033]","[0.0, 0.0, -0.42757404208311445]","[0.05660583823919296, 0.1185181587934494, 0.03999999910593033]","[0.0, 0.0, -0.4465272228574986]",0.5418018724257314,27.418616735313837,"(0.0, 0.0, 0.0, 0.0, 0.0, 0.0)",-4.412236817968903,0.016874447698417276,-0.44988750389777044,"(0.0, 0.0, 0.0, 0.0, 0.0, 0.0)",-0.3112578673856835,-0.5418166170859073,-27.418223544375806,"(0.0, 0.0, 0.0, 0.0, 0.0, 0.0)",4.412120589674461,-0.017058187988154127,0.4547872631353701,"(0.0, 0.0, 0.0, 0.0, 0.0, 0.0)",0.31119999541872967,False,,,,,False,,,,
5,Open,,,,,,"[-0.026750000193715096, 0.05299999937415123, 0.03999999910593033]","[0.0, -0.0, 0.5418019400761332]","[-0.06387900561094284, 0.11468822509050369, 0.03999999910593033]","[0.0, -0.0, 0.5586763123738882]","[0.026750000193715096, 0.05299999937415123, 0.03999999910593033]","[0.0, 0.0, -0.5418166677071254]","[0.06387991458177567, 0.11468767374753952, 0.03999999910593033]","[0.0, 0.0, -0.5588748551425957]",0.6446216851831583,24.67675506178245,"(0.0, 0.0, 0.0, 0.0, 0.0, 0.0)",-3.975330693632137,0.015187334633278446,-0.4049071356333192,"(0.0, 0.0, 0.0, 0.0, 0.0, 0.0)",-0.2816071653694913,-0.6446349553773166,-24.67640118993823,"(0.0, 0.0, 0.0, 0.0, 0.0, 0.0)",3.975225427671302,-0.01535270083200906,0.409316917474816,"(0.0, 0.0, 0.0, 0.0, 0.0, 0.0)",0.28155450162657786,False,,,,,False,,,,
6,Open,,,,,,"[-0.026750000193715096, 0.05299999937415123, 0.03999999910593033]","[0.0, -0.0, 0.6446216983098856]","[-0.07001452147960663, 0.11055155843496323, 0.03999999910593033]","[0.0, -0.0, 0.6598089287160823]","[0.026750000193715096, 0.05299999937415123, 0.03999999910593033]","[0.0, 0.0, -0.644634967879878]","[0.07001528143882751, 0.11055097728967667, 0.03999999910593033]","[0.0, 0.0, -0.6599877329949964]",0.7371595166648425,22.209079555604205,"(0.0, 0.0, 0.0, 0.0, 0.0, 0.0)",-3.5812948349547464,0.013668901111545678,-0.3644240452158641,"(0.0, 0.0, 0.0, 0.0, 0.0, 0.0)",-0.25464125660078457,-0.737171459839585,-22.20876107094441,"(0.0, 0.0, 0.0, 0.0, 0.0, 0.0)",3.5811995605906057,-0.01381773063402154,0.3683928475170044,"(0.0, 0.0, 0.0, 0.0, 0.0, 0.0)",0.2545933902665499,False,,,,,False,,,,
7,Open,,,,,,"[-0.026750000193715096, 0.05299999937415123, 0.03999999910593033]","[0.0, -0.0, 0.7371595400859692]","[-0.07514750957489014, 0.10630742460489273, 0.03999999910593033]","[0.0, -0.0, 0.7508283868993905]","[0.026750000193715096, 0.05299999937415123, 0.03999999910593033]","[0.0, 0.0, -0.7371714711336782]","[0.07514814287424088, 0.10630684345960617, 0.03999999910593033]","[0.0, 0.0, -0.750989167509555]",0.8204435649983582,19.988171600043785,"(0.0, 0.0, 0.0, 0.0, 0.0, 0.0)",-3.2259980823944012,0.01230228208777883,-0.32798856570404317,"(0.0, 0.0, 0.0, 0.0, 0.0, 0.0)",-0.23014491551259536,-0.8204543138556265,-19.987884963849964,"(0.0, 0.0, 0.0, 0.0, 0.0, 0.0)",3.225911902119173,-0.012436228606816148,0.33156048652929415,"(0.0, 0.0, 0.0, 0.0, 0.0, 0.0)",0.23010145595163894,False,,,,,False,,,,
8,Open,,,,,,"[-0.026750000193715096, 0.05299999937415123, 0.03999999910593033]","[0.0, -0.0, 0.8204435774406766]","[-0.07941428571939468, 0.1020965725183487, 0.03999999910593033]","[0.0, -0.0, 0.8327459142786269]","[0.026750000193715096, 0.05299999937415123, 0.03999999910593033]","[0.0, 0.0, -0.8204543695347751]","[0.07941480726003647, 0.10209600627422333, 0.03999999910593033]","[0.0, 0.0, -0.8328905496331522]",0.8953992084985224,17.9893544400394,"(0.0, 0.0, 0.0, 0.0, 0.0, 0.0)",-2.905692777507757,0.011072298781000885,-0.2951959936267068,"(0.0, 0.0, 0.0, 0.0, 0.0, 0.0)",-0.20791432075989408,-0.8954088824700639,-17.989096467464968,"(0.0, 0.0, 0.0, 0.0, 0.0, 0.0)",2.9056148642503405,-0.011192850601700187,0.29841072122783063,"(0.0, 0.0, 0.0, 0.0, 0.0, 0.0)",0.20787489947010138,False,,,,,False,,,,
9,Open,,,,,,"[-0.026750000193715096, 0.05299999937415123, 0.03999999910593033]","[0.0, -0.0, 0.8953992050914552]","[-0.08294302970170975, 0.09801492840051651, 0.03999999910593033]","[0.0, -0.0, 0.9064715399310761]","[0.026750000193715096, 0.05299999937415123, 0.03999999910593033]","[0.0, 0.0, -0.8954089117450801]","[0.08294346183538437, 0.09801438450813293, 0.03999999910593033]","[0.0, 0.0, -0.9066016844299951]",0.9628592876486701,16.190418996035465,"(0.0, 0.0, 0.0, 0.0, 0.0, 0.0)",-2.616982039675733,0.009965290062605858,-0.26568209241480656,"(0.0, 0.0, 0.0, 0.0, 0.0, 0.0)",-0.18775783729375353,-0.9628679942230576,-16.190186820718473,"(0.0, 0.0, 0.0, 0.0, 0.0, 0.0)",2.6169116334278195,-0.010073786659150813,0.26857534621184953,"(0.0, 0.0, 0.0, 0.0, 0.0, 0.0)",0.187722108909745,False,,,,,False,,,,
10,Open,,,,,,"[-0.026750000193715096, 0.05299999937415123, 0.03999999910593033]","[0.0, -0.0, 0.9628592963772022]","[-0.08584962040185928, 0.09412462264299393, 0.03999999910593033]","[0.0, -0.0, 0.9728246761305416]","[0.026750000193715096, 0.05299999937415123, 0.03999999910593033]","[0.0, 0.0, -0.9628681466677605]","[0.08584997802972794, 0.09412410855293274, 0.03999999910593033]","[0.0, 0.0, -0.9729417790417357]",1.0235733588838032,14.57137709643192,"(0.0, 0.0, 0.0, 0.0, 0.0, 0.0)",-2.356789246056587,0.008968960705874744,-0.23911904561546746,"(0.0, 0.0, 0.0, 0.0, 0.0, 0.0)",-0.16949635495257384,-1.0235811948007518,-14.571168138646623,"(0.0, 0.0, 0.0, 0.0, 0.0, 0.0)",2.3567256501387286,-0.009066607604651448,0.24172297307984775,"(0.0, 0.0, 0.0, 0.0, 0.0, 0.0)",0.16946399753760524,False,,,,,False,,,,
11,Open,,,,,,"[-0.026750000193715096, 0.05299999937415123, 0.03999999910593033]","[0.0, -0.0, 1.0235732790301837]","[-0.08823604136705399, 0.09046287834644318, 0.03999999910593033]","[0.0, -0.0, 1.0325423083164225]","[0.026750000193715096, 0.05299999937415123, 0.03999999910593033]","[0.0, 0.0, -1.0235812274279317]","[0.08823633193969727, 0.09046239405870438, 0.03999999910593033]","[0.0, 0.0, -1.0326479037372749]",1.078216022995423,13.114239386788727,"(0.0, 0.0, 0.0, 0.0, 0.0, 0.0)",-2.1223296975724493,0.008072244810550301,-0.215211814877866,"(0.0, 0.0, 0.0, 0.0, 0.0, 0.0)",-0.1529632973210469,-1.0782230753206767,-13.114051324781958,"(0.0, 0.0, 0.0, 0.0, 0.0, 0.0)",2.122272274708909,-0.008160126984954354,0.21755534872730237,"(0.0, 0.0, 0.0, 0.0, 0.0, 0.0)",0.15293401213466845,False,,,,,False,,,,
12,Open,,,,,,"[-0.026750000193715096, 0.05299999937415123, 0.03999999910593033]","[0.0, -0.0, 1.078215882979514]","[-0.09019032120704651, 0.08704887330532074, 0.03999999910593033]","[0.0, -0.0, 1.0862882926740116]","[0.026750000193715096, 0.05299999937415123, 0.03999999910593033]","[0.0, 0.0, -1.078222977413882]","[0.09019055962562561, 0.08704842627048492, 0.03999999910593033]","[0.0, 0.0, -1.0863833790205233]",1.1273944206958806,11.802815448109852,"(0.0, 0.0, 0.0, 0.0, 0.0, 0.0)",-1.9110844168611731,0.007265182884681461,-0.19369486220852175,"(0.0, 0.0, 0.0, 0.0, 0.0, 0.0)",-0.13800439004610457,-1.127400767788609,-11.802646192303762,"(0.0, 0.0, 0.0, 0.0, 0.0, 0.0)",1.9110325851897776,-0.007344276810443619,0.19580404188257655,"(0.0, 0.0, 0.0, 0.0, 0.0, 0.0)",0.13797790093405082,False,,,,,False,,,,
13,Open,,,,,,"[-0.026750000193715096, 0.05299999937415123, 0.03999999910593033]","[0.0, -0.0, 1.1273943743462997]","[-0.0917874127626419, 0.08388907462358475, 0.03999999910593033]","[0.0, -0.0, 1.1346596248576977]","[0.026750000193715096, 0.05299999937415123, 0.03999999910593033]","[0.0, 0.0, -1.127400718904607]","[0.09178761392831802, 0.08388865739107132, 0.03999999910593033]","[0.0, 0.0, -1.134745111288055]",1.1716549786262926,10.622533903298867,"(0.0, 0.0, 0.0, 0.0, 0.0, 0.0)",-1.7207759982695574,0.00653881121780902,-0.17432920004938585,"(0.0, 0.0, 0.0, 0.0, 0.0, 0.0)",-0.12447725819906867,-1.1716606910097482,-10.622381573073383,"(0.0, 0.0, 0.0, 0.0, 0.0, 0.0)",1.7207292273800263,-0.006609995722787257,0.17622746103752684,"(0.0, 0.0, 0.0, 0.0, 0.0, 0.0)",0.12445331071934837,False,,,,,False,,,,
14,Open,,,,,,"[-0.026750000193715096, 0.05299999937415123, 0.03999999910593033]","[0.0, -0.0, 1.17165497759142]","[-0.09309044480323792, 0.08098116517066956, 0.03999999910593033]","[0.0, -0.0, 1.1781937273122836]","[0.026750000193715096, 0.05299999937415123, 0.03999999910593033]","[0.0, 0.0, -1.1716605985979762]","[0.09309060126543045, 0.08098078519105911, 0.03999999910593033]","[0.0, 0.0, -1.178270796658152]",1.2114894807636634,9.56028051296898,"(0.0, 0.0, 0.0, 0.0, 0.0, 0.0)",-1.549346412635057,0.005885062316220725,-0.15689973638119079,"(0.0, 0.0, 0.0, 0.0, 0.0, 0.0)",-0.11225090666269867,-1.2114946219087734,-9.560143415766044,"(0.0, 0.0, 0.0, 0.0, 0.0, 0.0)",1.5493042197033076,-0.00594912834521185,0.1586081706180975,"(0.0, 0.0, 0.0, 0.0, 0.0, 0.0)",0.11222926703597672,False,,,,,False,,,,
15,Open,,,,,,"[-0.026750000193715096, 0.05299999937415123, 0.03999999910593033]","[0.0, -0.0, 1.2114893406881728]","[-0.09415213763713837, 0.07831703126430511, 0.03999999910593033]","[0.0, -0.0, 1.2173745989650702]","[0.026750000193715096, 0.05299999937415123, 0.03999999910593033]","[0.0, 0.0, -1.2114945655338818]","[0.09415226429700851, 0.07831668108701706, 0.03999999910593033]","[0.0, 0.0, -1.2174436451143456]",1.247340532687297,8.604252461672083,"(0.0, 0.0, 0.0, 0.0, 0.0, 0.0)",-1.3949366588174594,0.00529667529397997,-0.14121288533778104,"(0.0, 0.0, 0.0, 0.0, 0.0, 0.0)",-0.1012051251161189,-1.2473451597178962,-8.604129074189437,"(0.0, 0.0, 0.0, 0.0, 0.0, 0.0)",1.394898604883462,-0.005354334697048719,0.1427504755591516,"(0.0, 0.0, 0.0, 0.0, 0.0, 0.0)",0.1011855790679586,False,,,,,False,,,,
16,Open,,,,,,"[-0.026750000193715096, 0.05299999937415123, 0.03999999910593033]","[0.0, -0.0, 1.2473405247091465]","[-0.09501627087593079, 0.07588484138250351, 0.03999999910593033]","[0.0, -0.0, 1.2526371614229614]","[0.026750000193715096, 0.05299999937415123, 0.03999999910593033]","[0.0, 0.0, -1.2473450561350814]","[0.09501637518405914, 0.07588452845811844, 0.03999999910593033]","[0.0, 0.0, -1.252699591080442]",1.2796064794185673,7.743827215504874,"(0.0, 0.0, 0.0, 0.0, 0.0, 0.0)",-1.2558681481324276,0.004767115224099335,-0.12709441677135241,"(0.0, 0.0, 0.0, 0.0, 0.0, 0.0)",-0.09122984935698081,-1.2796106437461066,-7.743716166770495,"(0.0, 0.0, 0.0, 0.0, 0.0, 0.0)",1.2558338345532607,-0.004819008666073119,0.128478247434144,"(0.0, 0.0, 0.0, 0.0, 0.0, 0.0)",0.09121220090323832,False,,,,,False,,,,
17,Open,,,,,,"[-0.026750000193715096, 0.05299999937415123, 0.03999999910593033]","[0.0, -0.0, 1.279606409124563]","[-0.09571900963783264, 0.0736706405878067, 0.03999999910593033]","[0.0, -0.0, 1.2843736758198352]","[0.026750000193715096, 0.05299999937415123, 0.03999999910593033]","[0.0, 0.0, -1.2796106525936015]","[0.0957190990447998, 0.07367035001516342, 0.03999999910593033]","[0.0, 0.0, -1.2844295613342638]",1.3086458314767107,6.969444493954387,"(0.0, 0.0, 0.0, 0.0, 0.0, 0.0)",-1.1305941221975622,0.00429170208951155,-0.1140991523010686,"(0.0, 0.0, 0.0, 0.0, 0.0, 0.0)",-0.082192919359827,-1.3086495793714958,-6.969344550093446,"(0.0, 0.0, 0.0, 0.0, 0.0, 0.0)",1.1305631934145834,-0.004338405935744441,0.11534465527888274,"(0.0, 0.0, 0.0, 0.0, 0.0, 0.0)",0.08217699569254354,False,,,,,False,,,,
18,Open,,,,,,"[-0.026750000193715096, 0.05299999937415123, 0.03999999910593033]","[0.0, -0.0, 1.308645825919811]","[-0.09629011154174805, 0.0716593861579895, 0.03999999910593033]","[0.0, -0.0, 1.3129373548657892]","[0.026750000193715096, 0.05299999937415123, 0.03999999910593033]","[0.0, 0.0, -1.308649569130343]","[0.09629017859697342, 0.07165912538766861, 0.03999999910593033]","[0.0, 0.0, -1.3129881167123505]",1.3347812483290395,6.272500044558946,"(0.0, 0.0, 0.0, 0.0, 0.0, 0.0)",-1.0178482622338179,0.003863702481573626,-0.10271990590510163,"(0.0, 0.0, 0.0, 0.0, 0.0, 0.0)",-0.07410352518858664,-1.3347846214343462,-6.272410095084102,"(0.0, 0.0, 0.0, 0.0, 0.0, 0.0)",1.0178203769740246,-0.0039057357160976183,0.10384085271523745,"(0.0, 0.0, 0.0, 0.0, 0.0, 0.0)",0.0740891498002037,False,,,,,False,,,,
19,Open,,,,,,"[-0.026750000193715096, 0.05299999937415123, 0.03999999910593033]","[0.0, -0.0, 1.3347813147466918]","[-0.09675397723913193, 0.06983575969934464, 0.03999999910593033]","[0.0, -0.0, 1.3386449621367835]","[0.026750000193715096, 0.05299999937415123, 0.03999999910593033]","[0.0, 0.0, -1.3347844615433213]","[0.0967540368437767, 0.06983552873134613, 0.03999999910593033]","[0.0, 0.0, -1.3386905382854437]",1.3583031234961356,5.645250040103052,"(0.0, 0.0, 0.0, 0.0, 0.0, 0.0)",-0.9162890978823036,0.0034783869891320215,-0.09247571818598516,"(0.0, 0.0, 0.0, 0.0, 0.0, 0.0)",-0.06677007440367574,-1.3583061592909116,-5.645169085575695,"(0.0, 0.0, 0.0, 0.0, 0.0, 0.0)",0.9162639666346021,-0.003516216695348753,0.09348456497972772,"(0.0, 0.0, 0.0, 0.0, 0.0, 0.0)",0.06675710630673855,False,,,,,False,,,,
20,Open,,,,,,"[-0.026750000193715096, 0.05299999937415123, 0.03999999910593033]","[0.0, -0.0, 1.3583030429358363]","[-0.09713058918714523, 0.06818463653326035, 0.03999999910593033]","[0.0, -0.0, 1.3617816714487538]","[0.026750000193715096, 0.05299999937415123, 0.03999999910593033]","[0.0, 0.0, -1.358306171033049]","[0.09713063389062881, 0.06818442046642303, 0.03999999910593033]","[0.0, 0.0, -1.361822351334537]",1.379472811146522,5.0807250360927485,"(0.0, 0.0, 0.0, 0.0, 0.0, 0.0)",-0.8248429295126702,0.003131498553648039,-0.08325322451615583,"(0.0, 0.0, 0.0, 0.0, 0.0, 0.0)",-0.06015531267018523,-1.3794755433618204,-5.080652177018124,"(0.0, 0.0, 0.0, 0.0, 0.0, 0.0)",0.8248202834423316,-0.003165545104486833,0.08416118180686077,"(0.0, 0.0, 0.0, 0.0, 0.0, 0.0)",0.06014361689139186,False,,,,,False,,,,
21,Open,,,,,,"[-0.026750000193715096, 0.05299999937415123, 0.03999999910593033]","[0.0, -0.0, 1.3794728975130914]","[-0.09743624925613403, 0.06669140607118607, 0.03999999910593033]","[0.0, -0.0, 1.382604304378769]","[0.026750000193715096, 0.05299999937415123, 0.03999999910593033]","[0.0, 0.0, -1.379475506721758]","[0.09743628650903702, 0.06669121235609055, 0.03999999910593033]","[0.0, 0.0, -1.3826409668082853]",1.3985255300318697,4.572652532483473,"(0.0, 0.0, 0.0, 0.0, 0.0, 0.0)",-0.7425066286387145,0.0028192047313806493,-0.07495051734417352,"(0.0, 0.0, 0.0, 0.0, 0.0, 0.0)",-0.054190171953983096,-1.3985279890256384,-4.57258695931631,"(0.0, 0.0, 0.0, 0.0, 0.0, 0.0)",0.7424862245436853,-0.0028498464605416357,0.07576767454684734,"(0.0, 0.0, 0.0, 0.0, 0.0, 0.0)",0.0541796259205944,False,,,,,False,,,,
22,Open,,,,,,"[-0.026750000193715096, 0.05299999937415123, 0.03999999910593033]","[0.0, -0.0, 1.398525454133583]","[-0.09768425673246384, 0.0653422400355339, 0.03999999910593033]","[0.0, -0.0, 1.4013447262228373]","[0.026750000193715096, 0.05299999937415123, 0.03999999910593033]","[0.0, 0.0, -1.3985280648022782]","[0.09768428653478622, 0.06534206122159958, 0.03999999910593033]","[0.0, 0.0, -1.4013779844801912]",1.4156729770286829,4.1153872792351285,"(0.0, 0.0, 0.0, 0.0, 0.0, 0.0)",-0.6683758137814145,0.002538055332395241,-0.06747585575649792,"(0.0, 0.0, 0.0, 0.0, 0.0, 0.0)",-0.04881194552870251,-1.4156751901230746,-4.115328263384682,"(0.0, 0.0, 0.0, 0.0, 0.0, 0.0)",0.6683574317692884,-0.002565632738451909,0.06821129330153437,"(0.0, 0.0, 0.0, 0.0, 0.0, 0.0)",0.0488024380394442,False,,,,,False,,,,
23,Open,,,,,,"[-0.026750000193715096, 0.05299999937415123, 0.03999999910593033]","[0.0, -0.0, 1.4156730334745993]","[-0.09788545966148376, 0.06412414461374283, 0.03999999910593033]","[0.0, -0.0, 1.418211036917125]","[0.026750000193715096, 0.05299999937415123, 0.03999999910593033]","[0.0, 0.0, -1.4156752315845986]","[0.09788548201322556, 0.0641239807009697, 0.03999999910593033]","[0.0, 0.0, -1.418240879504808]",1.4311056793258146,3.703848551311612,"(0.0, 0.0, 0.0, 0.0, 0.0, 0.0)",-0.6016352863054336,0.002284944287465684,-0.060746650783093666,"(0.0, 0.0, 0.0, 0.0, 0.0, 0.0)",-0.04396376851645251,-1.431107671110767,-3.7037954370462103,"(0.0, 0.0, 0.0, 0.0, 0.0, 0.0)",0.6016187276545472,-0.0023097638175418747,0.061408541018408244,"(0.0, 0.0, 0.0, 0.0, 0.0, 0.0)",0.043955198772734246,False,,,,,False,,,,
24,Open,,,,,,"[-0.026750000193715096, 0.05299999937415123, 0.03999999910593033]","[0.0, -0.0, 1.4311058207082674]","[-0.09804865717887878, 0.06302504986524582, 0.03999999910593033]","[0.0, -0.0, 1.433390691262394]","[0.026750000193715096, 0.05299999937415123, 0.03999999910593033]","[0.0, 0.0, -1.4311075924426346]","[0.09804867953062057, 0.06302490830421448, 0.03999999910593033]","[0.0, 0.0, -1.433417470845748]",1.4449951113932331,3.333463696180452,"(0.0, 0.0, 0.0, 0.0, 0.0, 0.0)",-0.5415503506795546,0.0020570753203455715,-0.05468855210882702,"(0.0, 0.0, 0.0, 0.0, 0.0, 0.0)",-0.039594115216637325,-1.4449969039996904,-3.3334158933415914,"(0.0, 0.0, 0.0, 0.0, 0.0, 0.0)",0.541535435877482,-0.002079412775410495,0.055284250111531166,"(0.0, 0.0, 0.0, 0.0, 0.0, 0.0)",0.03958639191865308,False,,,,,False,,,,
25,Open,,,,,,"[-0.026750000193715096, 0.05299999937415123, 0.03999999910593033]","[0.0, -0.0, 1.444995076522675]","[-0.09818101674318314, 0.062033817172050476, 0.03999999910593033]","[0.0, -0.0, 1.4470522962768402]","[0.026750000193715096, 0.05299999937415123, 0.03999999910593033]","[0.0, 0.0, -1.4449971061677662]","[0.09818103164434433, 0.06203368678689003, 0.03999999910593033]","[0.0, 0.0, -1.4470761943538692]",1.45749560025391,3.0001173265624064,"(0.0, 0.0, 0.0, 0.0, 0.0, 0.0)",-0.4874589573784058,0.001851931045420989,-0.04923462598189979,"(0.0, 0.0, 0.0, 0.0, 0.0, 0.0)",-0.03565633120497695,-1.4574972135997213,-3.000074304007432,"(0.0, 0.0, 0.0, 0.0, 0.0, 0.0)",0.4874455243270462,-0.0018720346450414762,0.04977075128856451,"(0.0, 0.0, 0.0, 0.0, 0.0, 0.0)",0.03564937171228022,False,,,,,False,,,,
26,Open,,,,,,"[-0.026750000193715096, 0.05299999937415123, 0.03999999910593033]","[0.0, -0.0, 1.4574954921785264]","[-0.09828835725784302, 0.061140209436416626, 0.03999999910593033]","[0.0, -0.0, 1.4593474823067423]","[0.026750000193715096, 0.05299999937415123, 0.03999999910593033]","[0.0, 0.0, -1.4574971848934346]","[0.09828837215900421, 0.061140093952417374, 0.03999999910593033]","[0.0, 0.0, -1.4593694397653831]",1.4687460402285188,2.700105593906164,"(0.0, 0.0, 0.0, 0.0, 0.0, 0.0)",-0.4387645947805427,0.0016672451487475934,-0.044324615201614966,"(0.0, 0.0, 0.0, 0.0, 0.0, 0.0)",-0.032108199676446195,-1.4687474922397492,-2.70006687360669,"(0.0, 0.0, 0.0, 0.0, 0.0, 0.0)",0.4387524971567325,-0.0016853382893528596,0.04480712536526797,"(0.0, 0.0, 0.0, 0.0, 0.0, 0.0)",0.03210192923147444,False,,,,,False,,,,
27,Open,,,,,,"[-0.026750000193715096, 0.05299999937415123, 0.03999999910593033]","[0.0, -0.0, 1.4687462228928074]","[-0.09837540984153748, 0.06033487245440483, 0.03999999910593033]","[0.0, -0.0, 1.4704133245237396]","[0.026750000193715096, 0.05299999937415123, 0.03999999910593033]","[0.0, 0.0, -1.4687474899518769]","[0.09837542474269867, 0.060334768146276474, 0.03999999910593033]","[0.0, 0.0, -1.4704329951986796]",1.478871436205667,2.430095034515549,"(0.0, 0.0, 0.0, 0.0, 0.0, 0.0)",-0.394929862139441,0.0015009773446580906,-0.03990427298148066,"(0.0, 0.0, 0.0, 0.0, 0.0, 0.0)",-0.028911540991871522,-1.4788727430157742,-2.430060186246021,"(0.0, 0.0, 0.0, 0.0, 0.0, 0.0)",0.39491896790015035,-0.001517261081966714,0.04033852977267494,"(0.0, 0.0, 0.0, 0.0, 0.0, 0.0)",0.02890589200411927,False,,,,,False,,,,
28,Open,,,,,,"[-0.026750000193715096, 0.05299999937415123, 0.03999999910593033]","[0.0, -0.0, 1.4788714352834713]","[-0.09844600409269333, 0.05960927531123161, 0.03999999910593033]","[0.0, -0.0, 1.480372508787761]","[0.026750000193715096, 0.05299999937415123, 0.03999999910593033]","[0.0, 0.0, -1.4788727099725336]","[0.09844601899385452, 0.05960918217897415, 0.03999999910593033]","[0.0, 0.0, -1.4803900544382056]",1.4879842925851003,2.1870855310639947,"(0.0, 0.0, 0.0, 0.0, 0.0, 0.0)",-0.3554706611703565,0.001351290830885638,-0.035924763305388616,"(0.0, 0.0, 0.0, 0.0, 0.0, 0.0)",-0.026031844038894282,-1.487985468714197,-2.1870541676214206,"(0.0, 0.0, 0.0, 0.0, 0.0, 0.0)",0.3554608511915877,-0.001365946114079445,0.03631559229294455,"(0.0, 0.0, 0.0, 0.0, 0.0, 0.0)",0.026026755426892093,False,,,,,False,,,,
29,Close,,,"(3.819349109750643e-09, 0.16999994350316286, 7.914305593764796e-05)","(1.5700606283751846, 1.2357610516186277e-06, -4.058049624060407e-09)",,"[-0.026750000193715096, 0.05299999937415123, 0.03999999910593033]","[0.0, -0.0, 1.4879842849605203]","[-0.09850326180458069, 0.05895565450191498, 0.03999999910593033]","[0.0, -0.0, 1.4893357278409396]","[0.026750000193715096, 0.05299999937415123, 0.03999999910593033]","[0.0, 0.0, -1.4879853833286059]","[0.09850326925516129, 0.05895556882023811, 0.03999999910593033]","[0.0, 0.0, -1.4893513332680077]",1.4961858633265903,1.9683769779575933,"(0.0, 0.0, 0.0, 0.0, 0.0, 0.0)",-0.31995094896823073,0.0012165319928285922,-0.03234212113369103,"(0.0, 0.0, 0.0, 0.0, 0.0, 0.0)",-0.02343792779000599,-1.4961869218427772,-1.9683487508592754,"(0.0, 0.0, 0.0, 0.0, 0.0, 0.0)",0.31994211580738524,-0.0012297216752996233,0.03269386530715718,"(0.0, 0.0, 0.0, 0.0, 0.0, 0.0)",0.02343334437795369,False,,,,,False,,,,
30,Close,,,"(1.09441459674075e-09, 0.16999988769159868, 0.0001519632082907279)","(1.5701173533571526, -2.5467641220651055e-06, -4.573996600559749e-08)",,"[-0.026750000193715096, 0.05299999937415123, 0.03999999910593033]","[0.0, -0.0, 1.4961860174198076]","[-0.09854969382286072, 0.05836696922779083, 0.03999999910593033]","[0.0, -0.0, 1.4974025341106605]","[0.026750000193715096, 0.05299999937415123, 0.03999999910593033]","[0.0, 0.0, -1.4961870219527165]","[0.09854969382286072, 0.05836689472198486, 0.03999999910593033]","[0.0, 0.0, -1.4974167044724178]",1.4065672769939312,-21.50846071983817,"(0.0, 0.0, 0.0, 0.0, 0.0, 0.0)",-36.83524610171859,-0.08890468746940376,-21.629092670935766,"(0.0, 0.0, 0.0, 0.0, 0.0, 0.0)",-4.936581214831643,-1.4065682296584996,21.508486124226657,"(0.0, 0.0, 0.0, 0.0, 0.0, 0.0)",36.83523814678565,0.0888928167555427,21.629409223402156,"(0.0, 0.0, 0.0, 0.0, 0.0, 0.0)",4.936577085092772,False,,,,,False,,,,
31,Close,,,"(3.541182821644653e-08, 0.1699998011443987, 0.00021906657187154062)","(1.570205104748116, 3.3042409171564205e-05, -8.114212850492596e-08)",,"[-0.026750000193715096, 0.05299999937415123, 0.03999999910593033]","[0.0, -0.0, 1.4065674382065954]","[-0.0977812185883522, 0.06477140635251999, 0.03999999910593033]","[0.0, -0.0, 1.3176625934179576]","[0.026750000193715096, 0.05299999937415123, 0.03999999910593033]","[0.0, 0.0, -1.4065680331882469]","[0.0977812260389328, 0.06477133929729462, 0.03999999910593033]","[0.0, 0.0, -1.3176753491400532]",1.3259105492945382,-19.357614647854348,"(0.0, 0.0, 0.0, 0.0, 0.0, 0.0)",3.3395407019063446,-0.17001473426920377,-19.466411231952,"(0.0, 0.0, 0.0, 0.0, 0.0, 0.0)",0.4376834422569755,-1.3259114066926496,19.35763751180399,"(0.0, 0.0, 0.0, 0.0, 0.0, 0.0)",-3.3395473112045253,0.1700040506304986,19.466696129989415,"(0.0, 0.0, 0.0, 0.0, 0.0, 0.0)",-0.43768664266468643,False,,,,,False,,,,
32,Close,,,"(3.361538948490201e-08, 0.16999974452330968, 0.00028077538773600935)","(1.5702911774727688, 7.027968338074274e-05, -7.017997684986258e-06)",,"[-0.026750000193715096, 0.05299999937415123, 0.03999999910593033]","[0.0, -0.0, 1.325910602539969]","[-0.09660188108682632, 0.07045608013868332, 0.03999999910593033]","[0.0, -0.0, 1.1558959321658662]","[0.026750000193715096, 0.05299999937415123, 0.03999999910593033]","[0.0, 0.0, -1.3259115331240872]","[0.09660189598798752, 0.07045602053403854, 0.03999999910593033]","[0.0, 0.0, -1.1559073716167563]",1.2533194943650845,-17.42185318306892,"(0.0, 0.0, 0.0, 0.0, 0.0, 0.0)",3.0100864599566086,-0.2430137284658432,-17.519758607193467,"(0.0, 0.0, 0.0, 0.0, 0.0, 0.0)",0.39699812510351973,-1.2533202660233846,17.42187376062359,"(0.0, 0.0, 0.0, 0.0, 0.0, 0.0)",-3.0100924602349655,0.24300411319445853,17.52001501535039,"(0.0, 0.0, 0.0, 0.0, 0.0, 0.0)",-0.39700105403357716,False,,,,,False,,,,
33,Close,,,"(1.2478111664315067e-07, 0.16999960627903704, 0.000337513976604643)","(1.5703757790333803, 0.0001088681261817636, -5.122611399447184e-06)",,"[-0.026750000193715096, 0.05299999937415123, 0.03999999910593033]","[0.0, -0.0, 1.2533194489161892]","[-0.0951518788933754, 0.07547627389431, 0.03999999910593033]","[0.0, -0.0, 1.0103057011386807]","[0.026750000193715096, 0.05299999937415123, 0.03999999910593033]","[0.0, 0.0, -1.2533201846969224]","[0.09515189379453659, 0.07547622174024582, 0.03999999910593033]","[0.0, 0.0, -1.010316110149499]",1.1879875449285762,-15.679667864762028,"(0.0, 0.0, 0.0, 0.0, 0.0, 0.0)",2.712712783767229,-0.30871235561933186,-15.767670516837281,"(0.0, 0.0, 0.0, 0.0, 0.0, 0.0)",0.3597856734528228,-1.1879882394210461,15.679686384561233,"(0.0, 0.0, 0.0, 0.0, 0.0, 0.0)",-2.712718226071338,0.30870370187508567,15.767901283350515,"(0.0, 0.0, 0.0, 0.0, 0.0, 0.0)",-0.35978834883250516,False,,,,,False,,,,
34,Close,,,"(1.2869376016944667e-07, 0.16999954011037416, 0.00038973303114976833)","(1.5704582297133343, 0.0001496263682483943, -9.931543136061158e-06)",,"[-0.026750000193715096, 0.05299999937415123, 0.03999999910593033]","[0.0, -0.0, 1.1879876003522736]","[-0.09353857487440109, 0.07989397644996643, 0.03999999910593033]","[0.0, -0.0, 0.8792752425767008]","[0.026750000193715096, 0.05299999937415123, 0.03999999910593033]","[0.0, 0.0, -1.1879882623869136]","[0.09353859722614288, 0.07989392429590225, 0.03999999910593033]","[0.0, 0.0, -0.8792844680170303]",1.1291887904356523,-14.1117010783017,"(0.0, 0.0, 0.0, 0.0, 0.0, 0.0)",2.44436472036771,-0.36784112005739866,-14.190903465136039,"(0.0, 0.0, 0.0, 0.0, 0.0, 0.0)",0.3258007578595482,-1.1291894154788755,14.111717746120975,"(0.0, 0.0, 0.0, 0.0, 0.0, 0.0)",-2.444369652349295,0.3678333316875771,14.191111154997946,"(0.0, 0.0, 0.0, 0.0, 0.0, 0.0)",-0.32580319741325486,False,,,,,False,,,,
35,Close,,,"(2.2147778895778094e-07, 0.169999403724105, 0.00043775502472391954)","(1.5705392813318275, 0.0001916771605813282, -8.19762937926826e-06)",,"[-0.026750000193715096, 0.05299999937415123, 0.03999999910593033]","[0.0, -0.0, 1.1291888000608494]","[-0.09184273332357407, 0.08377231657505035, 0.03999999910593033]","[0.0, -0.0, 0.7613476921786614]","[0.026750000193715096, 0.05299999937415123, 0.03999999910593033]","[0.0, 0.0, -1.1291894580384154]","[0.09184275567531586, 0.08377227932214737, 0.03999999910593033]","[0.0, 0.0, -0.7613561373098183]",1.0762699113920273,-12.700530970470014,"(0.0, 0.0, 0.0, 0.0, 0.0, 0.0)",2.202305891359772,-0.4210570080516588,-12.77181311862243,"(0.0, 0.0, 0.0, 0.0, 0.0, 0.0)",0.2948453788489373,-1.0762704739309281,12.700545971507374,"(0.0, 0.0, 0.0, 0.0, 0.0, 0.0)",-2.2023103576802145,0.4210499985188194,12.77200003949815,"(0.0, 0.0, 0.0, 0.0, 0.0, 0.0)",-0.2948476002056522,False,,,,,False,,,,
36,Close,,,"(2.1912693722736075e-07, 0.16999934361709654, 0.000481956449276018)","(1.5706184388641253, 0.00023565575873296478, -1.2845786801691941e-05)",,"[-0.026750000193715096, 0.05299999937415123, 0.03999999910593033]","[0.0, -0.0, 1.0762698553554748]","[-0.09012393653392792, 0.08717226982116699, 0.03999999910593033]","[0.0, -0.0, 0.6552128934948661]","[0.026750000193715096, 0.05299999937415123, 0.03999999910593033]","[0.0, 0.0, -1.0762704893583]","[0.09012395888566971, 0.08717223256826401, 0.03999999910593033]","[0.0, 0.0, -0.6552204147476549]",1.0286429202528247,-11.430477873408655,"(0.0, 0.0, 0.0, 0.0, 0.0, 0.0)",1.9840011930578276,-0.46895130724721834,-11.494631806934295,"(0.0, 0.0, 0.0, 0.0, 0.0, 0.0)",0.26667684533441977,-1.0286434265378352,11.430491374342276,"(0.0, 0.0, 0.0, 0.0, 0.0, 0.0)",-1.984005235051249,0.4689449986676629,11.494800035722442,"(0.0, 0.0, 0.0, 0.0, 0.0, 0.0)",-0.26667886541975433,False,,,,,False,,,,
37,Close,,,"(3.1131510586280866e-07, 0.1699992121070205, 0.0005226007520893923)","(1.5706964879884222, 0.0002806415891397876, -1.1307759452448239e-05)",,"[-0.026750000193715096, 0.05299999937415123, 0.03999999910593033]","[0.0, -0.0, 1.0286429345076582]","[-0.0884251669049263, 0.09015069156885147, 0.03999999910593033]","[0.0, -0.0, 0.5596916647508587]","[0.026750000193715096, 0.05299999937415123, 0.03999999910593033]","[0.0, 0.0, -1.0286435120859125]","[0.08842518925666809, 0.09015065431594849, 0.03999999910593033]","[0.0, 0.0, -0.5596984028120249]",0.9857786282275423,-10.287430086067793,"(0.0, 0.0, 0.0, 0.0, 0.0, 0.0)",1.787161045327472,-0.5120561765231523,-10.345168626224153,"(0.0, 0.0, 0.0, 0.0, 0.0, 0.0)",0.24107512437447856,-0.9857790838840517,10.28744223690805,"(0.0, 0.0, 0.0, 0.0, 0.0, 0.0)",-1.787164701188607,0.5120504988015524,10.345320032133483,"(0.0, 0.0, 0.0, 0.0, 0.0, 0.0)",-0.24107695935135354,False,,,,,False,,,,
38,Close,,,"(3.0991842655903425e-07, 0.169999153087261, 0.0005600347082356065)","(1.570772558536085, 0.00032764712563817383, -1.5390013302753274e-05)",,"[-0.026750000193715096, 0.05299999937415123, 0.03999999910593033]","[0.0, -0.0, 0.9857786218799983]","[-0.08677656948566437, 0.09275941550731659, 0.03999999910593033]","[0.0, -0.0, 0.4737224893055005]","[0.026750000193715096, 0.05299999937415123, 0.03999999910593033]","[0.0, 0.0, -0.9857791586690391]","[0.08677658438682556, 0.0927593931555748, 0.03999999910593033]","[0.0, 0.0, -0.47372859204714834]",0.9472007654041954,-9.258687077603232,"(0.0, 0.0, 0.0, 0.0, 0.0, 0.0)",1.6097085175776904,-0.550850558870837,-9.310651763444346,"(0.0, 0.0, 0.0, 0.0, 0.0, 0.0)",0.21783104241587867,-0.9472011754950539,9.258698013359455,"(0.0, 0.0, 0.0, 0.0, 0.0, 0.0)",-1.609711822487034,0.5508454489213972,9.310788028762744,"(0.0, 0.0, 0.0, 0.0, 0.0, 0.0)",-0.21783270758412676,False,,,,,False,,,,
39,Close,,,"(4.0106165104263135e-07, 0.169999026405202, 0.0005944331352702725)","(1.570848092729261, 0.0003750986118602944, -1.4060502423520339e-05)",,"[-0.026750000193715096, 0.05299999937415123, 0.03999999910593033]","[0.0, -0.0, 0.9472008140782049]","[-0.08519845455884933, 0.09504495561122894, 0.03999999910593033]","[0.0, -0.0, 0.39635019782230363]","[0.026750000193715096, 0.05299999937415123, 0.03999999910593033]","[0.0, 0.0, -0.9472011867132297]","[0.08519846946001053, 0.09504493325948715, 0.03999999910593033]","[0.0, 0.0, -0.3963557154153113]",0.9124806888632406,-8.332818369829143,"(0.0, 0.0, 0.0, 0.0, 0.0, 0.0)",1.4497611633824499,-0.5857655029837533,-8.379586587099913,"(0.0, 0.0, 0.0, 0.0, 0.0, 0.0)",0.19674731686213875,-0.9124810579450133,8.332828212009746,"(0.0, 0.0, 0.0, 0.0, 0.0, 0.0)",-1.4497641496546352,0.5857609040292575,8.379709225886469,"(0.0, 0.0, 0.0, 0.0, 0.0, 0.0)",-0.1967488266016999,False,,,,,False,,,,
40,Close,,,"(3.70657372146465e-07, 0.16999903038777142, 0.0006260749884053443)","(1.5708440552876382, 0.00034508120830118214, -1.4055585689260766e-05)",,"[-0.026750000193715096, 0.05299999937415123, 0.03999999910593033]","[0.0, -0.0, 0.9124807402838544]","[-0.08370371162891388, 0.09704854339361191, 0.03999999910593033]","[0.0, -0.0, 0.32671521193417863]","[0.026750000193715096, 0.05299999937415123, 0.03999999910593033]","[0.0, 0.0, -0.9124811663733811]","[0.08370373398065567, 0.09704852104187012, 0.03999999910593033]","[0.0, 0.0, -0.32672018954414506]",0.8812326199769166,-7.499536532717775,"(0.0, 0.0, 0.0, 0.0, 0.0, 0.0)",1.3056085801322186,-0.6171891619197363,-7.541678144635914,"(0.0, 0.0, 0.0, 0.0, 0.0, 0.0)",0.17763358199117588,-0.881232952150512,7.499545390680321,"(0.0, 0.0, 0.0, 0.0, 0.0, 0.0)",-1.305611277336412,0.617185022862301,7.541788519930457,"(0.0, 0.0, 0.0, 0.0, 0.0, 0.0)",-0.17763494969582577,False,,,,,False,,,,
41,Close,,,"(3.427044292909036e-07, 0.1699990340506735, 0.0006551854712062516)","(1.5708403346470328, 0.0003174583455114455, -1.4051356821419932e-05)",,"[-0.026750000193715096, 0.05299999937415123, 0.03999999910593033]","[0.0, -0.0, 0.8812326035131218]","[-0.08229970186948776, 0.09880644828081131, 0.03999999910593033]","[0.0, -0.0, 0.26404346611112495]","[0.026750000193715096, 0.05299999937415123, 0.03999999910593033]","[0.0, 0.0, -0.8812328730718287]","[0.08229971677064896, 0.09880642592906952, 0.03999999910593033]","[0.0, 0.0, -0.2640479150919315]",0.8531093579792249,-6.749582879446001,"(0.0, 0.0, 0.0, 0.0, 0.0, 0.0)",1.1757252455852583,-0.6454704345862542,-6.78750543996429,"(0.0, 0.0, 0.0, 0.0, 0.0, 0.0)",0.16033509317806058,-0.8531096569354608,6.7495908516122896,"(0.0, 0.0, 0.0, 0.0, 0.0, 0.0)",-1.1757276808922346,0.645466709436021,6.787604777692787,"(0.0, 0.0, 0.0, 0.0, 0.0, 0.0)",-0.16033633143309114,False,,,,,False,,,,
42,Close,,,"(3.170084497545684e-07, 0.16999903740907119, 0.0006819671107693073)","(1.570836911771951, 0.00029204530032808255, -1.4047683015968837e-05)",,"[-0.026750000193715096, 0.05299999937415123, 0.03999999910593033]","[0.0, -0.0, 0.8531093567174074]","[-0.08098968118429184, 0.10035036504268646, 0.03999999910593033]","[0.0, -0.0, 0.2076389231904772]","[0.026750000193715096, 0.05299999937415123, 0.03999999910593033]","[0.0, 0.0, -0.8531096230941355]","[0.08098969608545303, 0.10035035014152527, 0.03999999910593033]","[0.0, 0.0, -0.2076429742570099]",0.8277984221813024,-6.0746245915014,"(0.0, 0.0, 0.0, 0.0, 0.0, 0.0)",1.0586966037970245,-0.6709235615380169,-6.1087504684230565,"(0.0, 0.0, 0.0, 0.0, 0.0, 0.0)",0.14467321668423558,-0.8277986912419147,6.074631766451059,"(0.0, 0.0, 0.0, 0.0, 0.0, 0.0)",-1.0586988018726124,0.6709202089041267,6.108839872345364,"(0.0, 0.0, 0.0, 0.0, 0.0, 0.0)",-0.14467433700617466,False,,,,,False,,,,
43,Close,,,"(2.93385406087929e-07, 0.16999904048782613, 0.0007066062149797113)","(1.5708337628331848, 0.0002686652895538331, -1.4044478861914954e-05)",,"[-0.026750000193715096, 0.05299999937415123, 0.03999999910593033]","[0.0, -0.0, 0.8277984323872327]","[-0.07977395504713058, 0.10170790553092957, 0.03999999910593033]","[0.0, -0.0, 0.15687485461046338]","[0.026750000193715096, 0.05299999937415123, 0.03999999910593033]","[0.0, 0.0, -0.8277987052452376]","[0.07977396249771118, 0.10170789808034897, 0.03999999910593033]","[0.0, 0.0, -0.15687847762667875]",0.8050185799631722,-5.467162132351259,"(0.0, 0.0, 0.0, 0.0, 0.0, 0.0)",0.9532674830029981,-0.6938313591081322,-5.497871416827678,"(0.0, 0.0, 0.0, 0.0, 0.0, 0.0)",0.1305069121449798,-0.8050188221177232,5.467168589805953,"(0.0, 0.0, 0.0, 0.0, 0.0, 0.0)",-0.9532694663734236,0.6938283417388244,5.49795188032743,"(0.0, 0.0, 0.0, 0.0, 0.0, 0.0)",-0.13050792520753388,False,,,,,False,,,,
44,Close,,,"(2.716665250887489e-07, 0.16999904330973556, 0.0007292741870466809)","(1.5708308659078907, 0.0002471556717650467, -1.4041672069322908e-05)",,"[-0.026750000193715096, 0.05299999937415123, 0.03999999910593033]","[0.0, -0.0, 0.8050185839979388]","[-0.07865073531866074, 0.10290304571390152, 0.03999999910593033]","[0.0, -0.0, 0.11118723016400785]","[0.026750000193715096, 0.05299999937415123, 0.03999999910593033]","[0.0, 0.0, -0.8050187952188965]","[0.07865074276924133, 0.10290303081274033, 0.03999999910593033]","[0.0, 0.0, -0.11119048022217565]",0.784516721966855,-4.920445919116134,"(0.0, 0.0, 0.0, 0.0, 0.0, 0.0)",0.8582975670224743,-0.7144483618360385,-4.948080654697517,"(0.0, 0.0, 0.0, 0.0, 0.0, 0.0)",0.11770004006048959,-0.784516939905951,4.92045173082536,"(0.0, 0.0, 0.0, 0.0, 0.0, 0.0)",-0.8582993561887614,0.7144456462047399,4.948153071819748,"(0.0, 0.0, 0.0, 0.0, 0.0, 0.0)",-0.11770095568272418,False,,,,,False,,,,
45,Close,,,"(2.51696986958339e-07, 0.1699990458957082, 0.0007501287178850499)","(1.5708282008276007, 0.000227366816649173, -1.4039201474218165e-05)",,"[-0.026750000193715096, 0.05299999937415123, 0.03999999910593033]","[0.0, -0.0, 0.7845167193080385]","[-0.07761679589748383, 0.10395654290914536, 0.03999999910593033]","[0.0, -0.0, 0.07006835685702544]","[0.026750000193715096, 0.05299999937415123, 0.03999999910593033]","[0.0, 0.0, -0.7845169946958266]","[0.07761680334806442, 0.10395653545856476, 0.03999999910593033]","[0.0, 0.0, -0.0700712989357174]",0.7660650497701694,-4.42840132720452,"(0.0, 0.0, 0.0, 0.0, 0.0, 0.0)",0.7727568402429666,-0.7330036506599046,-4.453269317727849,"(0.0, 0.0, 0.0, 0.0, 0.0, 0.0)",0.106127525293464,-0.7660652459153559,4.428406557742824,"(0.0, 0.0, 0.0, 0.0, 0.0, 0.0)",-0.7727584538402424,0.7330012065927102,4.453334493112861,"(0.0, 0.0, 0.0, 0.0, 0.0, 0.0)",-0.10612835248484857,False,,,,,False,,,,
46,Close,,,"(2.3333473952068603e-07, 0.16999904826492518, 0.0007693148831029557)","(1.5708257490378412, 0.00020916106414766092, -1.403701531280991e-05)",,"[-0.026750000193715096, 0.05299999937415123, 0.03999999910593033]","[0.0, -0.0, 0.7660649977175382]","[-0.07666795700788498, 0.10488639771938324, 0.03999999910593033]","[0.0, -0.0, 0.03306140223906952]","[0.026750000193715096, 0.05299999937415123, 0.03999999910593033]","[0.0, 0.0, -0.7660653079646047]","[0.07666796445846558, 0.10488638281822205, 0.03999999910593033]","[0.0, 0.0, -0.033064041138401834]",0.7494585447931524,-3.985561194484066,"(0.0, 0.0, 0.0, 0.0, 0.0, 0.0)",0.6957152666369016,-0.7497033982890566,-4.007939430996486,"(0.0, 0.0, 0.0, 0.0, 0.0, 0.0)",0.09567473522853766,-0.7494587213238203,3.985565901968542,"(0.0, 0.0, 0.0, 0.0, 0.0, 0.0)",-0.6957167215859875,0.7497011986294615,4.007998088820328,"(0.0, 0.0, 0.0, 0.0, 0.0, 0.0)",-0.09567548223716564,False,,,,,False,,,,
47,Close,,,"(2.1644941757498085e-07, 0.1699990504349868, 0.0007869661522299996)","(1.5708234934689855, 0.0001924117668631307, -1.4035069780186692e-05)",,"[-0.026750000193715096, 0.05299999937415123, 0.03999999910593033]","[0.0, -0.0, 0.7494586090384826]","[-0.07579945772886276, 0.10570816695690155, 0.03999999910593033]","[0.0, 0.0, -0.000244853492999894]","[0.026750000193715096, 0.05299999937415123, 0.03999999910593033]","[0.0, 0.0, -0.7494587081400255]","[0.07579946517944336, 0.10570815205574036, 0.03999999910593033]","[0.0, -0.0, 0.00024247731079752444]",0.7345126903138371,-3.587005075035659,"(0.0, 0.0, 0.0, 0.0, 0.0, 0.0)",0.626333365984163,-0.764733160038395,-3.6071428198412123,"(0.0, 0.0, 0.0, 0.0, 0.0, 0.0)",0.08623682787405348,-0.7345128491914382,3.587009311771688,"(0.0, 0.0, 0.0, 0.0, 0.0, 0.0)",-0.6263346776346612,0.7647311803455538,3.607195611862134,"(0.0, 0.0, 0.0, 0.0, 0.0, 0.0)",-0.08623750223625977,False,,,,,False,,,,
48,Close,,,"(1.9902478529523268e-07, 0.16999905216510106, 0.0008031506134026157)","(1.5708213694672628, 0.00017518801369688713, -1.4031269556480368e-05)",,"[-0.026750000193715096, 0.05299999937415123, 0.03999999910593033]","[0.0, -0.0, 0.7345126628086843]","[-0.07500623911619186, 0.10643533617258072, 0.03999999910593033]","[0.0, 0.0, -0.03022046980229406]","[0.026750000193715096, 0.05299999937415123, 0.03999999910593033]","[0.0, 0.0, -0.7345128981556924]","[0.07500624656677246, 0.10643532872200012, 0.03999999910593033]","[0.0, -0.0, 0.03021832986745902]",0.7210614212824534,-3.228304567532092,"(0.0, 0.0, 0.0, 0.0, 0.0, 0.0)",0.5638237707840803,-0.7782610712626786,-3.246698693828069,"(0.0, 0.0, 0.0, 0.0, 0.0, 0.0)",0.07768823801248652,-0.7210615642722944,3.2283083805945183,"(0.0, 0.0, 0.0, 0.0, 0.0, 0.0)",-0.5638249528147553,0.7782592895487316,3.2467462087626835,"(0.0, 0.0, 0.0, 0.0, 0.0, 0.0)",-0.07768884636877696,False,,,,,False,,,,
49,Close,,,"(1.829952775457341e-07, 0.16999905372445717, 0.0008180403399689366)","(1.5708194143492393, 0.00015934185659229473, -1.4027683329641553e-05)",,"[-0.026750000193715096, 0.05299999937415123, 0.03999999910593033]","[0.0, -0.0, 0.7210614193238458]","[-0.07428312301635742, 0.10707958787679672, 0.03999999910593033]","[0.0, 0.0, -0.05719964992344959]","[0.026750000193715096, 0.05299999937415123, 0.03999999910593033]","[0.0, 0.0, -0.7210615729227128]","[0.07428313046693802, 0.10707958042621613, 0.03999999910593033]","[0.0, -0.0, 0.05719773186848648]",0.7089552791542081,-2.905474110778883,"(0.0, 0.0, 0.0, 0.0, 0.0, 0.0)",0.5075985242705942,-0.7904360705014085,-2.921999817295172,"(0.0, 0.0, 0.0, 0.0, 0.0, 0.0)",0.07003713951344083,-0.7089554078450649,2.905477542535066,"(0.0, 0.0, 0.0, 0.0, 0.0, 0.0)",-0.5075995897946305,0.7904344669675306,2.9220425805117625,"(0.0, 0.0, 0.0, 0.0, 0.0, 0.0)",-0.07003768863744474,False,,,,,False,,,,
50,Close,,,"(1.682467379846132e-07, 0.1699990551245469, 0.0008317388481303276)","(1.570817615731277, 0.00014476218910829968, -1.4024269510216624e-05)",,"[-0.026750000193715096, 0.05299999937415123, 0.03999999910593033]","[0.0, -0.0, 0.7089552779168017]","[-0.07362496107816696, 0.10765105485916138, 0.03999999910593033]","[0.0, 0.0, -0.08148078223376223]","[0.026750000193715096, 0.05299999937415123, 0.03999999910593033]","[0.0, 0.0, -0.7089554724698194]","[0.07362496852874756, 0.10765104740858078, 0.03999999910593033]","[0.0, -0.0, 0.0814790502780401]",0.6980597512387873,-2.6149266997009946,"(0.0, 0.0, 0.0, 0.0, 0.0, 0.0)",0.45693917814201784,-0.8013934602632394,-2.6297735428394082,"(0.0, 0.0, 0.0, 0.0, 0.0, 0.0)",0.06310201359777694,-0.6980598670605584,2.614929788281559,"(0.0, 0.0, 0.0, 0.0, 0.0, 0.0)",-0.45694013827892466,0.8013920170905735,2.6298120295302843,"(0.0, 0.0, 0.0, 0.0, 0.0, 0.0)",-0.06310250889925509,False,,,,,False,,,,
51,Close,,,"(1.546756367802499e-07, 0.16999905637827734, 0.0008443414385910609)","(1.5708159610857961, 0.00013134778772512943, -1.402100024143693e-05)",,"[-0.026750000193715096, 0.05299999937415123, 0.03999999910593033]","[0.0, -0.0, 0.6980597686270504]","[-0.07302673906087875, 0.10815852880477905, 0.03999999910593033]","[0.0, 0.0, -0.10333370902653251]","[0.026750000193715096, 0.05299999937415123, 0.03999999910593033]","[0.0, 0.0, -0.6980598246378259]","[0.07302674651145935, 0.10815852135419846, 0.03999999910593033]","[0.0, -0.0, 0.10333215264877679]",0.6882537761149086,-2.3534340297308955,"(0.0, 0.0, 0.0, 0.0, 0.0, 0.0)",0.41132662822933225,-0.8112550122446371,-2.3667724755354502,"(0.0, 0.0, 0.0, 0.0, 0.0, 0.0)",0.056847326346645,-0.6882538803545026,2.353436809453404,"(0.0, 0.0, 0.0, 0.0, 0.0, 0.0)",-0.4113274932960819,0.8112537133962935,2.3668071133728046,"(0.0, 0.0, 0.0, 0.0, 0.0, 0.0)",-0.0568477730004364,False,,,,,False,,,,
52,Close,,,"(1.4218689550358636e-07, 0.1699990574974972, 0.0008559357877458743)","(1.5708144388885392, 0.00011900551991941484, -1.4017852050493115e-05)",,"[-0.026750000193715096, 0.05299999937415123, 0.03999999910593033]","[0.0, -0.0, 0.6882538042795985]","[-0.07248363643884659, 0.10860966145992279, 0.03999999910593033]","[0.0, 0.0, -0.12300123728040792]","[0.026750000193715096, 0.05299999937415123, 0.03999999910593033]","[0.0, 0.0, -0.688253900607872]","[0.07248364388942719, 0.1086096540093422, 0.03999999910593033]","[0.0, -0.0, 0.12299984676553348]",0.6794283985034177,-2.118090626757806,"(0.0, 0.0, 0.0, 0.0, 0.0, 0.0)",0.3702598465395096,-0.8201303199370257,-2.1300738461732434,"(0.0, 0.0, 0.0, 0.0, 0.0, 0.0)",0.051207533272865695,-0.6794284923190523,2.1180931285080637,"(0.0, 0.0, 0.0, 0.0, 0.0, 0.0)",-0.37026062586363284,0.8201291509798778,2.130105020060234,"(0.0, 0.0, 0.0, 0.0, 0.0, 0.0)",-0.051207935975855504,False,,,,,False,,,,
53,Close,,,"(1.3069318416839e-07, 0.16999905849308636, 0.0008666025576372722)","(1.5708130385376784, 0.00010764969663878531, -1.401480516953977e-05)",,"[-0.026750000193715096, 0.05299999937415123, 0.03999999910593033]","[0.0, -0.0, 0.6794284238724229]","[-0.07199108600616455, 0.10901110619306564, 0.03999999910593033]","[0.0, 0.0, -0.14070193198542613]","[0.026750000193715096, 0.05299999937415123, 0.03999999910593033]","[0.0, 0.0, -0.6794284800706577]","[0.07199109345674515, 0.10901109874248505, 0.03999999910593033]","[0.0, -0.0, 0.1407006814892172]",0.6714855586530759,-1.9062815640820263,"(0.0, 0.0, 0.0, 0.0, 0.0, 0.0)",0.33328720146674756,-0.82811801654313,-1.9170471854650495,"(0.0, 0.0, 0.0, 0.0, 0.0, 0.0)",0.0461231568532664,-0.6714856430871471,1.9062838156572566,"(0.0, 0.0, 0.0, 0.0, 0.0, 0.0)",-0.33328790347714454,0.8281169644874314,1.917075241812861,"(0.0, 0.0, 0.0, 0.0, 0.0, 0.0)",-0.04612351986457081,False,,,,,False,,,,
54,Close,,,"(1.201142787701026e-07, 0.1699990593750365, 0.0008764159571233717)","(1.5708117502799854, 9.720147739875066e-05, -1.4011842957469135e-05)",,"[-0.026750000193715096, 0.05299999937415123, 0.03999999910593033]","[0.0, -0.0, 0.6714856028191667]","[-0.07154478132724762, 0.10936867445707321, 0.03999999910593033]","[0.0, 0.0, -0.1566324602805662]","[0.026750000193715096, 0.05299999937415123, 0.03999999910593033]","[0.0, 0.0, -0.6714856028191667]","[0.07154478132724762, 0.10936867445707321, 0.03999999910593033]","[0.0, -0.0, 0.15663130155257995]",0.6643370027877683,-1.7156534076738226,"(0.0, 0.0, 0.0, 0.0, 0.0, 0.0)",0.30000166468946887,-0.8353068710937589,-1.7253250921509458,"(0.0, 0.0, 0.0, 0.0, 0.0, 0.0)",0.041540284771796165,-0.6643370787784324,1.7156554340915304,"(0.0, 0.0, 0.0, 0.0, 0.0, 0.0)",-0.3000022969997827,0.8353059242487986,1.725350342728124,"(0.0, 0.0, 0.0, 0.0, 0.0, 0.0)",-0.041540611950472935,False,,,,,False,,,,
55,Close,,,"(1.1037647424359984e-07, 0.16999906015252483, 0.0008854442581506275)","(1.5708105651429114, 8.758832292823178e-05, -1.4008951415989527e-05)",,"[-0.026750000193715096, 0.05299999937415123, 0.03999999910593033]","[0.0, -0.0, 0.6643370606126838]","[-0.07114068418741226, 0.1096874549984932, 0.03999999910593033]","[0.0, 0.0, -0.17096987637179278]","[0.026750000193715096, 0.05299999937415123, 0.03999999910593033]","[0.0, 0.0, -0.6643370606126838]","[0.07114069163799286, 0.1096874475479126, 0.03999999910593033]","[0.0, -0.0, 0.17096884643662202]",0.6579033025089914,-1.5440880669064398,"(0.0, 0.0, 0.0, 0.0, 0.0, 0.0)",0.2700364572532802,-0.8417767749452665,-1.5527769243618206,"(0.0, 0.0, 0.0, 0.0, 0.0, 0.0)",0.03741008611729049,-0.6579033709005891,1.5440898906823783,"(0.0, 0.0, 0.0, 0.0, 0.0, 0.0)",-0.27003702673818186,0.8417759227894597,1.5527996497586782,"(0.0, 0.0, 0.0, 0.0, 0.0, 0.0)",-0.03741038095743008,False,,,,,False,,,,
56,Close,,,"(1.0141204673652616e-07, 0.16999906083398159, 0.0008937502707232629)","(1.570809474872104, 7.87434915574051e-05, -1.4006118772737545e-05)",,"[-0.026750000193715096, 0.05299999937415123, 0.03999999910593033]","[0.0, -0.0, 0.6579033304946226]","[-0.07077505439519882, 0.10997187346220016, 0.03999999910593033]","[0.0, 0.0, -0.18387348897538708]","[0.026750000193715096, 0.05299999937415123, 0.03999999910593033]","[0.0, 0.0, -0.6579033304946226]","[0.07077506184577942, 0.10997187346220016, 0.03999999910593033]","[0.0, -0.0, 0.1838725619548152]",0.6521129722580923,-1.3896792602157946,"(0.0, 0.0, 0.0, 0.0, 0.0, 0.0)",0.24306111081870946,-0.8475996296201711,-1.3974851219770965,"(0.0, 0.0, 0.0, 0.0, 0.0, 0.0)",0.033688362136148925,-0.6521130338105302,1.38968090161414,"(0.0, 0.0, 0.0, 0.0, 0.0, 0.0)",-0.24306162368353448,0.8475988626841415,1.3975055747236533,"(0.0, 0.0, 0.0, 0.0, 0.0, 0.0)",-0.03368862779939208,False,,,,,False,,,,
57,Close,,,"(9.31587620256511e-08, 0.16999906142715163, 0.0009013917798737923)","(1.570808471873919, 7.060557585400826e-05, -1.4003335136779464e-05)",,"[-0.026750000193715096, 0.05299999937415123, 0.03999999910593033]","[0.0, -0.0, 0.6521129301518677]","[-0.07044443488121033, 0.11022583395242691, 0.03999999910593033]","[0.0, 0.0, -0.19548665573955404]","[0.026750000193715096, 0.05299999937415123, 0.03999999910593033]","[0.0, 0.0, -0.6521129866161153]","[0.07044444233179092, 0.11022583395242691, 0.03999999910593033]","[0.0, -0.0, 0.19548582525750646]",0.646901675032283,-1.2507113341942153,"(0.0, 0.0, 0.0, 0.0, 0.0, 0.0)",0.2187779064062842,-0.8528401458571484,-1.2577238968745574,"(0.0, 0.0, 0.0, 0.0, 0.0, 0.0)",0.03033513071724496,-0.6469017304294772,1.2507128114527255,"(0.0, 0.0, 0.0, 0.0, 0.0, 0.0)",-0.2187783682505172,0.8528394556185027,1.2577423042466835,"(0.0, 0.0, 0.0, 0.0, 0.0, 0.0)",-0.03033537006280305,False,,,,,False,,,,
58,Close,,,"(8.555942447331213e-08, 0.16999906193915107, 0.000908421947674647)","(1.5708075491625393, 6.311807629477444e-05, -1.4000592203169427e-05)",,"[-0.026750000193715096, 0.05299999937415123, 0.03999999910593033]","[0.0, -0.0, 0.6469017074975589]","[-0.0701456218957901, 0.11045276373624802, 0.03999999910593033]","[0.0, 0.0, -0.20593848593871938]","[0.026750000193715096, 0.05299999937415123, 0.03999999910593033]","[0.0, 0.0, -0.6469017640113621]","[0.0701456293463707, 0.11045276373624802, 0.03999999910593033]","[0.0, -0.0, 0.2059377054983325]",0.6422115075290548,-1.1256402007747932,"(0.0, 0.0, 0.0, 0.0, 0.0, 0.0)",0.19691865600140895,-0.8575565627499749,-1.1319400542783593,"(0.0, 0.0, 0.0, 0.0, 0.0, 0.0)",0.027314243362735774,-0.6422115573865295,1.1256415303074527,"(0.0, 0.0, 0.0, 0.0, 0.0, 0.0)",-0.19691907187647334,0.8575559415385998,1.1319566208232932,"(0.0, 0.0, 0.0, 0.0, 0.0, 0.0)",-0.027314458975022625,False,,,,,False,,,,
59,Move,,,"(7.856146500561274e-08, 0.16999906237651882, 0.0009148896830877347)","(1.5708067003113224, 5.6229009009845055e-05, -1.399788300299107e-05)","[0.0, 0.0, 0.0]","[-0.026750000193715096, 0.05299999937415123, 0.03999999910593033]","[0.0, -0.0, 0.6422115222668433]","[-0.06987567991018295, 0.11065566539764404, 0.03999999910593033]","[0.0, 0.0, -0.21534502689171695]","[0.026750000193715096, 0.05299999937415123, 0.03999999910593033]","[0.0, 0.0, -0.6422115222668433]","[0.06987568736076355, 0.11065565794706345, 0.03999999910593033]","[0.0, -0.0, 0.2153443918565048]",0.6379903567761492,-1.0130761806973148,"(0.0, 0.0, 0.0, 0.0, 0.0, 0.0)",0.17724179525373857,-0.861801294967015,-1.0187357320896053,"(0.0, 0.0, 0.0, 0.0, 0.0, 0.0)",0.024593033118920006,-0.6379904016478766,1.0130773772767077,"(0.0, 0.0, 0.0, 0.0, 0.0, 0.0)",-0.1772421697155535,0.8618007358798453,1.0187506418989196,"(0.0, 0.0, 0.0, 0.0, 0.0, 0.0)",-0.024593227332916724,False,,,,,False,,,,
60,Move,,,"(7.401516452493873e-08, 0.16999906300717518, 0.0009208949427311885)","(1.5708059692049072, 5.171406878091127e-05, -1.3997173418156156e-05)","[-4.546300480674002e-09, 6.306563604674409e-10, 6.005259643453772e-06]","[-0.026750000193715096, 0.05299999937415123, 0.03999999910593033]","[0.0, -0.0, 0.6379903239810443]","[-0.06963192671537399, 0.1108371913433075, 0.03999999910593033]","[0.0, 0.0, -0.2238109552587812]","[0.026750000193715096, 0.05299999937415123, 0.03999999910593033]","[0.0, 0.0, -0.6379904179642307]","[0.06963192671537399, 0.1108371838927269, 0.03999999910593033]","[0.0, -0.0, 0.22381033482023305]",0.615110639462399,-5.491132155300077,"(0.0, 0.0, 0.0, 0.0, 0.0, 0.0)",-6.452665348763696,-0.8613763884842398,0.10197755586604229,"(0.0, 0.0, 0.0, 0.0, 0.0, 0.0)",-0.36782542138199165,-0.6151107211023208,5.491123330933392,"(0.0, 0.0, 0.0, 0.0, 0.0, 0.0)",6.4526488408560905,0.8613758231880564,-0.10197904602934349,"(0.0, 0.0, 0.0, 0.0, 0.0, 0.0)",0.36782252911949487,False,,,,,False,,,,
61,Move,,,"(6.525734425186348e-05, 0.17034549853437667, 0.001059997142676121)","(1.5643418998519334, 0.00019756355969089426, -0.0007979474479338168)","[6.517878278685787e-05, 0.00034643615785784343, 0.00014510745958838623]","[-0.026750000193715096, 0.05299999937415123, 0.03999999910593033]","[0.0, -0.0, 0.6151107619663475]","[-0.06829752027988434, 0.1118030920624733, 0.03999999910593033]","[0.0, 0.0, -0.24626574387408112]","[0.026750000193715096, 0.05299999937415123, 0.03999999910593033]","[0.0, 0.0, -0.6151107619663475]","[0.06829752773046494, 0.1118030920624733, 0.03999999910593033]","[0.0, -0.0, 0.24626510812228053]",0.59557520589455,-4.68850405628373,"(0.0, 0.0, 0.0, 0.0, 0.0, 0.0)",-45.004877301260535,-0.841587039207075,4.749443826519566,"(0.0, 0.0, 0.0, 0.0, 0.0, 0.0)",-23.059879711313982,-0.5955448471476087,4.6958097491309045,"(0.0, 0.0, 0.0, 0.0, 0.0, 0.0)",43.2331221848827,0.8422035798107438,-4.601338410555013,"(0.0, 0.0, 0.0, 0.0, 0.0, 0.0)",22.069611273367745,True,"(-0.03288698015965098, 0.18306432161630465, 0.039999948285931244)","(0.9999999985648672, -1.399717339714095e-05, -5.171406875791205e-05)",0.0009292587523792685,356.63318049990795,True,"(0.032887031061809374, 0.18306436848012048, 0.04000005171406876)","(-0.9999999985648671, 1.3997173395198976e-05, 5.171406875668148e-05)",0.0009247539911204204,342.7710504396539
62,Move,"(0.0005, 0.0, 0.0007)","(0.0, 0.025778513051956248, 0.0)","(0.00016176697229314485, 0.17076934431250207, 0.001298992481510786)","(1.553459115144406, 0.0004787126916021603, -0.0016283617000435679)","[0.00016168841082813925, 0.0007702819359832469, 0.0003841027984230513]","[-0.026750000193715096, 0.05299999937415123, 0.03999999910593033]","[0.0, -0.0, 0.5955751094143519]","[-0.06714092195034027, 0.11260347068309784, 0.03999999910593033]","[0.0, 0.0, -0.24601185159459507]","[0.026750000193715096, 0.05299999937415123, 0.03999999910593033]","[0.0, 0.0, -0.5955448282145998]","[0.06713911145925522, 0.11260469257831573, 0.03999999910593033]","[0.0, -0.0, 0.24665872904210193]",0.5770970782178444,-4.434750642409365,"(0.0, 0.0, 0.0, 0.0, 0.0, 0.0)",-74.21698749878065,-0.811850997818181,7.136649933334551,"(0.0, 0.0, 0.0, 0.0, 0.0, 0.0)",-37.92588619525253,-0.5770027641966642,4.450099908226674,"(0.0, 0.0, 0.0, 0.0, 0.0, 0.0)",71.59541053355323,0.8135423707664626,-6.878690170627483,"(0.0, 0.0, 0.0, 0.0, 0.0, 0.0)",36.485404729774935,True,"(-0.03174847742362094, 0.1838726496858637, 0.03999980243644159)","(0.9999996621242782, -0.0007979473476813144, -0.0001975635584110712)",-0.00012778812911608492,569.3446982775357,True,"(0.031700570614753176, 0.18385320841010633, 0.0400001975635584)","(-0.9999996621242783, 0.0007979473476767542, 0.0001975635584049517)",-0.0003431682129125587,549.2893233704585
63,Move,"(0.001, 0.0, 0.0011)","(0.0, 0.0516163672984803, 0.0)","(0.00022679102314813315, 0.1710859827370026, 0.0015688164784587347)","(1.5453217310383798, 0.0004303960310025779, -0.0018689059026098843)","[0.00022671246168312755, 0.001086920360483773, 0.000653926795371]","[-0.026750000193715096, 0.05299999937415123, 0.03999999910593033]","[0.0, -0.0, 0.5770971029289548]","[-0.06603273004293442, 0.11333960294723511, 0.03999999910593033]","[0.0, 0.0, -0.23475391897699402]","[0.026750000193715096, 0.05299999937415123, 0.03999999910593033]","[0.0, 0.0, -0.5770027543990871]","[0.06602703779935837, 0.11334330588579178, 0.03999999910593033]","[0.0, -0.0, 0.23653961426052006]",0.5793239117665008,0.5344400516775369,"(0.0, 0.0, 0.0, 0.0, 0.0, 0.0)",6.4348606497534595,-0.8148246019570704,-0.7136649933334551,"(0.0, 0.0, 0.0, 0.0, 0.0, 0.0)",-0.3153725647801015,-0.5795594473760591,-0.6136039630547909,"(0.0, 0.0, 0.0, 0.0, 0.0, 0.0)",-6.451655998260579,0.8163939780435661,0.6843857465048258,"(0.0, 0.0, 0.0, 0.0, 0.0, 0.0)",0.36517450829250414,True,"(-0.03144479909141533, 0.18499061278782541, 0.039999521287326686)","(0.9999985596366134, -0.0016283607938474471, -0.0004787126733201028)",-0.00031179486038545077,0.0,True,"(0.0313112124765586, 0.1849374824167095, 0.040000478712673315)","(-0.9999985596366132, 0.0016283607938671909, 0.0004787126733090728)",-0.0008521962835819142,1.1699532757977538
64,Move,"(0.0016, 0.0, 0.0018000000000000002)","(0.0, 0.06885498432042829, 0.0)","(0.0002853234693340184, 0.17134139728671546, 0.001787995903646507)","(1.5387762616951735, 0.0003892098191864875, -0.0018506630193870974)","[0.0002852449078690128, 0.0013423349101966409, 0.0008731062205587722]","[-0.026750000193715096, 0.05299999937415123, 0.03999999910593033]","[0.0, -0.0, 0.5793239628988782]","[-0.06616699695587158, 0.11325197666883469, 0.03999999910593033]","[0.0, 0.0, -0.235500737226854]","[0.026750000193715096, 0.05299999937415123, 0.03999999910593033]","[0.0, 0.0, -0.579559463055729]","[0.06618119031190872, 0.11324268579483032, 0.03999999910593033]","[0.0, -0.0, 0.2368345282695543]",0.5794186494241311,0.022737037831278784,"(0.0, 0.0, 0.0, 0.0, 0.0, 0.0)",-0.6652152275631106,-0.8145272417393576,0.07136645225107197,"(0.0, 0.0, 0.0, 0.0, 0.0, 0.0)",0.029932439887047687,-0.5803199553491456,-0.1825219135407492,"(0.0, 0.0, 0.0, 0.0, 0.0, 0.0)",0.550354511102361,0.8161091728630335,-0.06835324332781678,"(0.0, 0.0, 0.0, 0.0, 0.0, 0.0)",-0.03522809446672765,True,"(-0.031525569511277746, 0.1848776441585204, 0.03999956960398228)","(0.9999981609756633, -0.001868904641551537, -0.0004303960177193026)",-0.00016538130457021167,0.0,True,"(0.031444250146795284, 0.1848271601862807, 0.04000043039601772)","(-0.9999981609756633, 0.0018689046415642616, 0.0004303960177202341)",-0.0007848192387005517,0.0
65,Move,"(0.0055, 0.0, 0.0027)","(0.0, 0.09471203718872429, 0.0)","(0.00033734794882232826, 0.1715355012237314, 0.0019567437084209716)","(1.5338181200629768, 0.0003544773612238244, -0.0015814965154213924)","[0.00033726938735732266, 0.001536438847212579, 0.0010418540253332369]","[-0.026750000193715096, 0.05299999937415123, 0.03999999910593033]","[0.0, -0.0, 0.5794187453734133]","[-0.06617270410060883, 0.11324823647737503, 0.03999999910593033]","[0.0, 0.0, -0.2351086019589351]","[0.026750000193715096, 0.05299999937415123, 0.03999999910593033]","[0.0, 0.0, -0.5803199715628882]","[0.06622698903083801, 0.11321268230676651, 0.03999999910593033]","[0.0, -0.0, 0.23578920639050513]",0.5793221777319629,-0.023153206120362323,"(0.0, 0.0, 0.0, 0.0, 0.0, 0.0)",-0.07596502465168664,-0.8145567626612176,-0.0070850212463778595,"(0.0, 0.0, 0.0, 0.0, 0.0, 0.0)",-0.013616647790306934,-0.5812092867569572,-0.2134395378747733,"(0.0, 0.0, 0.0, 0.0, 0.0, 0.0)",-0.03721087028021017,0.8161375769080382,0.006816970801123964,"(0.0, 0.0, 0.0, 0.0, 0.0, 0.0)",0.0048410367126833645,True,"(-0.03155936500567235, 0.18488711308352357, 0.03999961079019064)","(0.999998211781672, -0.0018506618228135785, -0.00038920980936531826)",-7.542678459689068e-05,0.0,True,"(0.03156489838810385, 0.18483236334389025, 0.040000389209809355)","(-0.999998211781672, 0.0018506618228139903, 0.00038920980935166203)",-0.0007203200588688163,0.0
66,Move,"(0.0063, 0.0, 0.0035)","(0.0, 0.12912818470880047, 0.0)","(0.0004371680286570495, 0.1716632527528467, 0.002067649825108894)","(1.5307177072935958, 0.000350877237343512, -0.0019040344586505817)","[0.0004370894671920439, 0.0016641903763278676, 0.0011527601420211592]","[-0.026750000193715096, 0.05299999937415123, 0.03999999910593033]","[0.0, -0.0, 0.5793222613469818]","[-0.06616689264774323, 0.11325204372406006, 0.03999999910593033]","[0.0, 0.0, -0.23523456753209146]","[0.026750000193715096, 0.05299999937415123, 0.03999999910593033]","[0.0, 0.0, -0.5812093342096368]","[0.06628052145242691, 0.11317755281925201, 0.03999999910593033]","[0.0, -0.0, 0.2349283106589759]",0.5784937136488982,-0.19883137993551506,"(0.0, 0.0, 0.0, 0.0, 0.0, 0.0)",-0.913997948293563,-0.8144448854019531,0.026850542223475427,"(0.0, 0.0, 0.0, 0.0, 0.0, 0.0)",-0.4060314411633655,-0.5831818258417815,-0.47340938035783425,"(0.0, 0.0, 0.0, 0.0, 0.0, 0.0)",-0.38258393846743943,0.8161347365035377,-0.0006816970801128974,"(0.0, 0.0, 0.0, 0.0, 0.0, 0.0)",-0.02929904097013718,True,"(-0.03154452616248472, 0.18488694954288948, 0.0399996455226462)","(0.999998686607626, -0.0015814957568112524, -0.00035447735380154764)",-4.3566344854123206e-05,5.035585282666501,True,"(0.031680101541704475, 0.1848259163162172, 0.04000035447735381)","(-0.9999986866076258, 0.0015814957568091915, 0.0003544773538036238)",-0.0006517910947815279,0.0
67,Move,"(0.0073, 0.0, 0.0034)","(0.0, 0.14231763786612162, 0.0)","(0.0005635868715135283, 0.17173866903807003, 0.0021209890171757424)","(1.529435965363556, 0.00034458061815930015, -0.001862393274439133)","[0.0005635083100485227, 0.0017396066615512074, 0.0012060993340880077]","[-0.026750000193715096, 0.05299999937415123, 0.03999999910593033]","[0.0, -0.0, 0.5784936998100447]","[-0.06611695885658264, 0.11328467726707458, 0.03999999910593033]","[0.0, 0.0, -0.2359511757049075]","[0.026750000193715096, 0.05299999937415123, 0.03999999910593033]","[0.0, 0.0, -0.5831818248326528]","[0.06639914959669113, 0.11309945583343506, 0.03999999910593033]","[0.0, -0.0, 0.23295295325229887]",0.5775188638930469,-0.23396394140434293,"(0.0, 0.0, 0.0, 0.0, 0.0, 0.0)",-0.6353512150355954,-0.8143677644514171,0.018509028128653578,"(0.0, 0.0, 0.0, 0.0, 0.0, 0.0)",-0.34785891756827075,-0.5853993477229947,-0.5322052514911872,"(0.0, 0.0, 0.0, 0.0, 0.0, 0.0)",-0.08637419359485268,0.8161350205439878,6.816970801182265e-05,"(0.0, 0.0, 0.0, 0.0, 0.0, 0.0)",-0.006370245901029252,True,"(-0.03144327142205942, 0.18489515006819704, 0.03999964912276986)","(0.9999981257696322, -0.0019040331909795916, -0.00035087723013977105)",-4.1116042836639845e-05,4.445838016579614,True,"(0.031940322743784125, 0.18481438008540013, 0.04000035087723016)","(-0.9999981257696322, 0.0019040331909724237, 0.0003508772301583582)",-0.0004952534218399751,0.0
68,Move,"(0.0075, 0.0, 0.0038)","(0.0, 0.15092211107845369, 0.0)","(0.0007273420877234772, 0.17178136477527528, 0.0021177840112239724)","(1.5299490676368868, 0.0003408498752044018, -0.00148518134713838)","[0.0007272635262584716, 0.001782302398756458, 0.0012028943281362377]","[-0.026750000193715096, 0.05299999937415123, 0.03999999910593033]","[0.0, -0.0, 0.5775189036384305]","[-0.06605817377567291, 0.11332302540540695, 0.03999999910593033]","[0.0, 0.0, -0.2368489148626279]","[0.026750000193715096, 0.05299999937415123, 0.03999999910593033]","[0.0, 0.0, -0.5853993044073326]","[0.06653232127428055, 0.11301138997077942, 0.03999999910593033]","[0.0, -0.0, 0.2307356846984529]",0.5762866378445254,-0.29573425164514994,"(0.0, 0.0, 0.0, 0.0, 0.0, 0.0)",-0.8670474803156883,-0.8142780695382276,0.02152677916548973,"(0.0, 0.0, 0.0, 0.0, 0.0, 0.0)",-0.4379318021474757,-0.5877866329476309,-0.5729484539126862,"(0.0, 0.0, 0.0, 0.0, 0.0, 0.0)",-0.05997563739582644,0.8161349921399428,-6.816970801182265e-06,"(0.0, 0.0, 0.0, 0.0, 0.0, 0.0)",-0.004485495113050912,True,"(-0.03132020922625052, 0.18490328123485117, 0.039999655419388665)","(0.9999982063783491, -0.0018623920872515444, -0.00034458061132926784)",-3.8690354871071965e-05,5.898156837054553,True,"(0.03223258386291428, 0.18480027773767682, 0.04000034458061134)","(-0.9999982063783494, 0.0018623920872498738, 0.00034458061133439807)",-0.00032843732776484326,0.0
69,Move,"(0.008400000000000001, 0.0, 0.0039)","(0.0, 0.13830861657429064, 0.0)","(0.0008970397151255306, 0.17181223768199239, 0.002068671377136415)","(1.5319036106901178, 0.00032568916313024504, -0.0009222289206018042)","[0.000896961153660525, 0.0018131753054735633, 0.0011537816940486805]","[-0.026750000193715096, 0.05299999937415123, 0.03999999910593033]","[0.0, -0.0, 0.5762867515944063]","[-0.06598381698131561, 0.11337141692638397, 0.03999999910593033]","[0.0, 0.0, -0.2379914391144671]","[0.026750000193715096, 0.05299999937415123, 0.03999999910593033]","[0.0, 0.0, -0.5877867011617531]","[0.06667547672986984, 0.1129162460565567, 0.03999999910593033]","[0.0, -0.0, 0.22834835861405567]",0.5750686842602404,-0.2923088602283887,"(0.0, 0.0, 0.0, 0.0, 0.0, 0.0)",-0.45437154496692717,-0.8142645918281083,0.003234650428618039,"(0.0, 0.0, 0.0, 0.0, 0.0, 0.0)",-0.2310652157620816,-0.5902406630779026,-0.5889672312652133,"(0.0, 0.0, 0.0, 0.0, 0.0, 0.0)",-0.02367658124416029,0.8161349949803473,6.816970801182197e-07,"(0.0, 0.0, 0.0, 0.0, 0.0, 0.0)",-0.0017700866353548574,True,"(-0.031164084406179536, 0.18491345580361734, 0.03999965915013141)","(0.9999988390291317, -0.0014851807148733914, -0.0003408498685998889)",-3.6194159390047906e-05,3.449124740049581,True,"(0.0325472069097473, 0.1847840501415674, 0.04000034084986861)","(-0.9999988390291318, 0.001485180714869044, 0.0003408498686061687)",-0.00017239491076147901,0.0
70,Move,"(0.0096, 0.0, 0.0057)","(0.0, 0.09068730793362537, 0.0)","(0.0010752219539974688, 0.1718334586594716, 0.001974125601214352)","(1.5352977382318427, 0.00031203660736345154, -0.00020241715376897448)","[0.001075143392532463, 0.0018343962829527882, 0.0010592359181266172]","[-0.026750000193715096, 0.05299999937415123, 0.03999999910593033]","[0.0, -0.0, 0.5750686857879934]","[-0.06591025739908218, 0.11341915279626846, 0.03999999910593033]","[0.0, 0.0, -0.23919590160618553]","[0.026750000193715096, 0.05299999937415123, 0.03999999910593033]","[0.0, 0.0, -0.5902406851670254]","[0.06682238727807999, 0.11281808465719223, 0.03999999910593033]","[0.0, -0.0, 0.22589436019518055]",0.5737960088782633,-0.3054420916744819,"(0.0, 0.0, 0.0, 0.0, 0.0, 0.0)",-0.5003792125088434,-0.8142448408472773,0.004740235399442593,"(0.0, 0.0, 0.0, 0.0, 0.0, 0.0)",-0.24291086527613678,-0.5928568106857964,-0.6278754258945263,"(0.0, 0.0, 0.0, 0.0, 0.0, 0.0)",-0.057290423791481464,0.8161349946963068,-6.816970721246207e-08,"(0.0, 0.0, 0.0, 0.0, 0.0, 0.0)",-0.004278585467337131,True,"(-0.03100437716246951, 0.18492097199412594, 0.03999967431084262)","(0.9999995217102468, -0.0009222287409654629, -0.00032568915737539705)",-3.415460138248904e-05,3.630188128139871,True,"(0.03287058361589357, 0.18476640975053904, 0.04000032568915736)","(-0.9999995217102466, 0.000922228740952236, 0.0003256891573650346)",-1.0771218958784047e-05,0.0
71,Move,"(0.010400000000000001, 0.0, 0.0077)","(0.0, 0.047026151365735215, 0.0)","(0.0012243474334063475, 0.1718352767367047, 0.0018309812725920875)","(1.5402279339360883, 0.00028974409028575693, 0.0016068348945651846)","[0.0012242688719413418, 0.0018362143601858838, 0.0009160915895043528]","[-0.026750000193715096, 0.05299999937415123, 0.03999999910593033]","[0.0, -0.0, 0.5737960044107712]","[-0.06583333015441895, 0.1134689450263977, 0.03999999910593033]","[0.0, 0.0, -0.2404488274191635]","[0.026750000193715096, 0.05299999937415123, 0.03999999910593033]","[0.0, 0.0, -0.5928567974593653]","[0.06697874516248703, 0.1127130463719368, 0.03999999910593033]","[0.0, -0.0, 0.2232781872406802]",0.5728611343452493,-0.22436988792336066,"(0.0, 0.0, 0.0, 0.0, 0.0, 0.0)",-0.07525133151571343,-0.8142409827987638,0.0009259316432546345,"(0.0, 0.0, 0.0, 0.0, 0.0, 0.0)",-0.08801984209327184,-0.5959025398750308,-0.7309750054162648,"(0.0, 0.0, 0.0, 0.0, 0.0, 0.0)",-0.15155318022287062,0.8161349947247108,6.816970987699733e-09,"(0.0, 0.0, 0.0, 0.0, 0.0, 0.0)",-0.011310631386860781,True,"(-0.03083789019870504, 0.18492894353987155, 0.039999687963397694)","(0.9999999308302273, -0.0002024171425308357, -0.00031203660230692153)",-3.237312559139536e-05,1.4616941707117388,True,"(0.033215276431561344, 0.18474661055667152, 0.04000031203660231)","(-0.9999999308302272, 0.0002024171425245553, 0.00031203660230668973)",0.00016557366034099884,0.0
72,Move,"(0.0112, 0.0, 0.010199999999999999)","(0.0, 0.007517133088339578, 0.0)","(0.001342234438763653, 0.17182348016261415, 0.0016387268322626324)","(1.5467188619558174, 0.0002635970565409211, 0.0044032576642264705)","[0.0013421558772986474, 0.0018244177860953226, 0.0007238371491748977]","[-0.026750000193715096, 0.05299999937415123, 0.03999999910593033]","[0.0, -0.0, 0.5728611757239838]","[-0.0657767802476883, 0.11350546032190323, 0.03999999910593033]","[0.0, 0.0, -0.24137985631109626]","[0.026750000193715096, 0.05299999937415123, 0.03999999910593033]","[0.0, 0.0, -0.5959025095621483]","[0.06716042757034302, 0.1125902459025383, 0.03999999910593033]","[0.0, -0.0, 0.22023246331292876]",0.5722629806648051,-0.14355688330662558,"(0.0, 0.0, 0.0, 0.0, 0.0, 0.0)",-0.02636174939815291,-0.8142397322745025,0.0003001258227029183,"(0.0, 0.0, 0.0, 0.0, 0.0, 0.0)",-0.06308630904357616,-0.5992479897194863,-0.8029079626693321,"(0.0, 0.0, 0.0, 0.0, 0.0, 0.0)",-0.10582445279674939,0.8161349947218705,-6.816973652234992e-10,"(0.0, 0.0, 0.0, 0.0, 0.0, 0.0)",-0.007901555308721624,True,"(-0.030714827632773445, 0.1849355830901732, 0.03999971025591377)","(0.9999986670653241, 0.0016068341356637425, -0.0002897440862353419)",-3.085755136947479e-05,1.0931075564211594,True,"(0.03361650632807441, 0.18472145305941495, 0.040000289744086225)","(-0.9999986670653241, -0.0016068341356647521, 0.0002897440862336028)",0.00044176314584380954,0.0
73,Move,"(0.0121, 0.0, 0.012400000000000001)","(0.0, 0.005235987755982988, 0.0)","(0.0014461059480170655, 0.17180977696293903, 0.0013954481638015616)","(1.5548341071950842, 0.0002222511338342207, 0.007763349366027483)","[0.0014460273865520598, 0.001810714586420209, 0.0004805584807138269]","[-0.026750000193715096, 0.05299999937415123, 0.03999999910593033]","[0.0, -0.0, 0.5722630385456278]","[-0.06574058532714844, 0.1135287880897522, 0.03999999910593033]","[0.0, 0.0, -0.2419767152074903]","[0.026750000193715096, 0.05299999937415123, 0.03999999910593033]","[0.0, 0.0, -0.5992479675311276]","[0.067359559237957, 0.11245471984148026, 0.03999999910593033]","[0.0, -0.0, 0.2168870091516555]",0.5719878346247521,-0.06603504961271689,"(0.0, 0.0, 0.0, 0.0, 0.0, 0.0)",0.11374779854303788,-0.814239990777362,-6.204068627028823e-05,"(0.0, 0.0, 0.0, 0.0, 0.0, 0.0)",0.008447923277214046,-0.6029460564631324,-0.8875360184750455,"(0.0, 0.0, 0.0, 0.0, 0.0, 0.0)",-0.12448390959336675,0.8161351414977046,3.522620019286926e-05,"(0.0, 0.0, 0.0, 0.0, 0.0, 0.0)",-0.009291454176768727,True,"(-0.03063600764958728, 0.18494136827474889, 0.039999736402946504)","(0.9999902709352675, 0.0044032432823700165, -0.0002635970534956828)",-2.97176224341725e-05,0.0,True,"(0.034057142771580576, 0.18469160257769912, 0.04000026359705349)","(-0.9999902709352676, -0.004403243282377239, 0.00026359705349009654)",0.0008011403440977441,0.0
74,Move,"(0.013800000000000002, 0.0, 0.013800000000000002)","(0.0, 0.008066911802717793, 0.0)","(0.0015499716994706206, 0.17179603145310463, 0.0011011628934754136)","(1.5645742737541228, 0.00013271201064748677, 0.011121997366679445)","[0.0015498931380056149, 0.0017969690765858026, 0.0001862732103876789]","[-0.026750000193715096, 0.05299999937415123, 0.03999999910593033]","[0.0, -0.0, 0.5719877983217474]","[-0.06572392582893372, 0.11353951692581177, 0.03999999910593033]","[0.0, 0.0, -0.24225216644724226]","[0.026750000193715096, 0.05299999937415123, 0.03999999910593033]","[0.0, 0.0, -0.6029460571985663]","[0.06757915019989014, 0.11230413615703583, 0.03999999910593033]","[0.0, -0.0, 0.2131890893955233]",0.5717952689775967,-0.04621575531728972,"(0.0, 0.0, 0.0, 0.0, 0.0, 0.0)",0.029090431834254613,-0.8142399993008735,-2.0456427825590705e-06,"(0.0, 0.0, 0.0, 0.0, 0.0, 0.0)",0.0021759929668420165,-0.6070560396042914,-0.9863959538781658,"(0.0, 0.0, 0.0, 0.0, 0.0, 0.0)",-0.14541205774931343,0.8161352983413268,3.764246932212945e-05,"(0.0, 0.0, 0.0, 0.0, 0.0, 0.0)",-0.010857948895668648,True,"(-0.030599707505120095, 0.18494605885024096, 0.039999777748867996)","(0.9999698406576225, 0.0077632711922071135, -0.0002222511320050932)",-8.552879101195004e-06,0.0,True,"(0.034544115287608174, 0.1846566170690459, 0.040000222251132)","(-0.9999698406576224, -0.007763271192206562, 0.0002222511319985274)",0.001228165485579593,0.0
75,Move,"(0.0152, 0.0, 0.0151)","(0.0, 0.01672374489260967, 0.0)","(0.0015690270509303257, 0.17179370204654665, 0.0009645713027458438)","(1.5699679912798006, 5.5035815913311305e-06, 0.010879766266536485)","[0.00156894848946532, 0.0017946396700278255, 4.96816196581091e-05]","[-0.026750000193715096, 0.05299999937415123, 0.03999999910593033]","[0.0, -0.0, 0.5717952509175737]","[-0.06571226567029953, 0.11354701966047287, 0.03999999910593033]","[0.0, 0.0, -0.24244474197767416]","[0.026750000193715096, 0.05299999937415123, 0.03999999910593033]","[0.0, 0.0, -0.607055995332847]","[0.06782253831624985, 0.11213582754135132, 0.03999999910593033]","[0.0, -0.0, 0.20907928945652374]",0.5713916045342221,-0.09687946640990197,"(0.0, 0.0, 0.0, 0.0, 0.0, 0.0)",-0.4773258592277888,-0.8141794314178031,0.014536291936884214,"(0.0, 0.0, 0.0, 0.0, 0.0, 0.0)",-0.2043041143366763,-0.611626609194356,-1.096936701615493,"(0.0, 0.0, 0.0, 0.0, 0.0, 0.0)",-0.1626014245210212,0.8161352826569646,-3.764246932824733e-06,"(0.0, 0.0, 0.0, 0.0, 0.0, 0.0)",-0.012147275693186526,True,"(-0.0305743317218138, 0.18495034849106096, 0.03999986728798974)","(0.9999381424191491, 0.011121767973828911, -0.0001327120102581875)",2.1180164113880726e-05,3.0565099095807162,True,"(0.035085198201490225, 0.184615998121341, 0.04000013271201025)","(-0.9999381424191492, -0.011121767973823998, 0.0001327120102546929)",0.001710571239488799,0.0
76,Move,"(0.0167, 0.0, 0.016399999999999998)","(0.0, 0.008066911802717793, 0.0)","(0.001617342859256768, 0.17181225918610082, 0.0009814306166512055)","(1.5705182479561548, 7.160819558008725e-06, 0.009810169807752601)","[0.0016172642977917624, 0.0018131968095820017, 6.65409335634708e-05]","[-0.026750000193715096, 0.05299999937415123, 0.03999999910593033]","[0.0, -0.0, 0.5713915885240881]","[-0.06568782776594162, 0.11356274038553238, 0.03999999910593033]","[0.0, 0.0, -0.24278782500486795]","[0.026750000193715096, 0.05299999937415123, 0.03999999910593033]","[0.0, 0.0, -0.6116266266152139]","[0.06809239834547043, 0.11194748431444168, 0.03999999910593033]","[0.0, -0.0, 0.20450864424615475]",0.5708314629759583,-0.13443397398331564,"(0.0, 0.0, 0.0, 0.0, 0.0, 0.0)",-1.0894500986720863,-0.814021089284414,0.038002112013397676,"(0.0, 0.0, 0.0, 0.0, 0.0, 0.0)",-0.5762531182402079,-0.6165759690508963,-1.1878463655696887,"(0.0, 0.0, 0.0, 0.0, 0.0, 0.0)",-0.1338116251235721,0.8161352842254008,3.764246940818339e-07,"(0.0, 0.0, 0.0, 0.0, 0.0, 0.0)",-0.009998416467635836,True,"(-0.03052539278470439, 0.1849541121921413, 0.0399999944964184)","(0.9999408159116505, 0.010879551629231151, -5.503581597849853e-06)",-1.0443359129497807e-05,7.863791568535479,False,,,,
77,Move,"(0.0167, 0.0, 0.016399999999999998)","(0.0, 0.008066911802717793, 0.0)","(0.0016900328156818803, 0.17183230972932326, 0.000982088198686273)","(1.5705418748657058, 5.771237578067308e-06, 0.008468549113908794)","[0.0016899542542168746, 0.0018332473528044346, 6.719851559853834e-05]","[-0.026750000193715096, 0.05299999937415123, 0.03999999910593033]","[0.0, -0.0, 0.5708315754190221]","[-0.06565389782190323, 0.11358454078435898, 0.03999999910593033]","[0.0, 0.0, -0.24318959418350997]","[0.026750000193715096, 0.05299999937415123, 0.03999999910593033]","[0.0, 0.0, -0.6165760420703098]","[0.06838364154100418, 0.11174214631319046, 0.03999999910593033]","[0.0, -0.0, 0.19955934242515247]",0.570135040886485,-0.16714130147359718,"(0.0, 0.0, 0.0, 0.0, 0.0, 0.0)",-0.7456171546723492,-0.8140048461591555,0.003898350062050533,"(0.0, 0.0, 0.0, 0.0, 0.0, 0.0)",-0.4296880188147997,-0.6219464397737205,-1.2889129734778146,"(0.0, 0.0, 0.0, 0.0, 0.0, 0.0)",-0.14875845573492982,0.8161352840685572,-3.764247047399749e-08,"(0.0, 0.0, 0.0, 0.0, 0.0, 0.0)",-0.0111168054521437,True,"(-0.0304627740227304, 0.18496111161372997, 0.03999999283918043)","(0.9999518806444506, 0.00981001245406475, -7.1608195630278115e-06)",-1.0136982532127223e-05,5.280743616586725,False,,,,
78,Move,"(0.0167, 0.0, 0.016399999999999998)","(0.0, 0.008066911802717793, 0.0)","(0.003592454720272546, 0.17197322262364503, 0.0014729463024886254)","(1.57034266358535, 0.015843700571109374, -0.017166362434551795)","[0.0035923761588075405, 0.001974160247126211, 0.0005580566194008907]","[-0.026750000193715096, 0.05299999937415123, 0.03999999910593033]","[0.0, -0.0, 0.5701351208255799]","[-0.06561169028282166, 0.1136116236448288, 0.03999999910593033]","[0.0, 0.0, -0.24386981592629986]","[0.026750000193715096, 0.05299999937415123, 0.03999999910593033]","[0.0, 0.0, -0.621946495624292]","[0.06869851052761078, 0.11151771247386932, 0.03999999910593033]","[0.0, -0.0, 0.1941888502983856]",0.5480068037115768,-5.31077692197797,"(0.0, 0.0, 0.0, 0.0, 0.0, 0.0)",-25.795066755843422,-0.8132487389924128,0.18146572001824426,"(0.0, 0.0, 0.0, 0.0, 0.0, 0.0)",-10.646674506397266,-0.5988205761845171,5.550207261408834,"(0.0, 0.0, 0.0, 0.0, 0.0, 0.0)",10.04133303436925,0.8161352840842415,3.764247580306801e-09,"(0.0, 0.0, 0.0, 0.0, 0.0, 0.0)",0.7490008285591135,True,"(-0.030372025661398593, 0.18496357626608595, 0.03999999422876244)","(0.9999641420356006, 0.008468447891927472, -5.771237566859208e-06)",-1.0066656667872144e-05,138.49985717999496,False,,,,
79,Move,"(0.0167, 0.0, 0.016399999999999998)","(0.0, 0.008066911802717793, 0.0)","(0.003657321994810968, 0.1726032157833747, 0.0016622053728026337)","(1.559898975687622, 0.01416018794902495, -0.02145177965029095)","[0.003657243433345962, 0.0026041534068558803, 0.000747315689714899]","[-0.026750000193715096, 0.05299999937415123, 0.03999999910593033]","[0.0, -0.0, 0.5480068300792442]","[-0.0642610564827919, 0.1144566535949707, 0.03999999910593033]","[0.0, 0.0, -0.2652419166447918]","[0.026750000193715096, 0.05299999937415123, 0.03999999910593033]","[0.0, 0.0, -0.5988206393896611]","[0.0673341453075409, 0.11247207224369049, 0.03999999910593033]","[0.0, -0.0, 0.21731469053207125]",0.5300926553269235,-4.299395612316793,"(0.0, 0.0, 0.0, 0.0, 0.0, 0.0)",-63.35064740915178,-0.7820638656381973,7.484369605011705,"(0.0, 0.0, 0.0, 0.0, 0.0, 0.0)",-33.599605443881416,-0.5805670171731573,4.38085416272636,"(0.0, 0.0, 0.0, 0.0, 0.0, 0.0)",75.04462422681152,0.7865186878228105,-7.107983102743446,"(0.0, 0.0, 0.0, 0.0, 0.0, 0.0)",39.40078901983465,True,"(-0.027504613384098785, 0.1850392235039495, 0.03999999422876244)","(0.9999641420356006, 0.008468447891927472, -5.771237566859208e-06)",1.4524914984165248e-06,494.2194091994279,True,"(0.03402415274634338, 0.18461227416681295, 0.042160714284902756)","(-0.999727171312489, 0.017163364914723825, 0.015843037724289296)",-0.0023981502998110466,584.695569080582
80,Move,"(0.0177, 0.0, 0.0181)","(0.0, 0.022591541837814602, 0.0)","(0.003719839629625148, 0.1731795688452007, 0.0018532404401991765)","(1.5494159207205334, 0.012544043466956789, -0.026353612369463257)","[0.0037197610681601423, 0.0031805064686818707, 0.0009383507571114418]","[-0.026750000193715096, 0.05299999937415123, 0.03999999910593033]","[0.0, -0.0, 0.5300926505338989]","[-0.06315415352582932, 0.11511873453855515, 0.03999999910593033]","[0.0, 0.0, -0.25197118134009194]","[0.026750000193715096, 0.05299999937415123, 0.03999999910593033]","[0.0, 0.0, -0.580567015636962]","[0.06624186784029007, 0.11320292949676514, 0.03999999910593033]","[0.0, -0.0, 0.20595163721505114]",0.5120489887733228,-4.330479972864152,"(0.0, 0.0, 0.0, 0.0, 0.0, 0.0)",-78.91920692944892,-0.7508462765107644,7.4922213905838895,"(0.0, 0.0, 0.0, 0.0, 0.0, 0.0)",-42.27331535365914,-0.5629161153452279,4.236216438703066,"(0.0, 0.0, 0.0, 0.0, 0.0, 0.0)",74.89415477920059,0.7577170837712026,-6.912384972385897,"(0.0, 0.0, 0.0, 0.0, 0.0, 0.0)",38.68299337132735,True,"(-0.027337600786047966, 0.18618286052885968, 0.03999999422876244)","(0.9999641420356006, 0.008468447891927472, -5.771237566859208e-06)",-0.00010016052012818805,590.6496077443026,True,"(0.033753537614401335, 0.18570989382706404, 0.042159030951785255)","(-0.9996696886785599, 0.02144798395525426, 0.014159714741707656)",-0.002728260008468871,561.8323917274103
81,Move,"(0.018000000000000002, 0.0, 0.0202)","(0.0, 0.053339007270198704, 0.0)","(0.0037839969604925145, 0.17367980202202785, 0.0020308347352121663)","(1.5412286571335307, 0.00957898632960206, -0.03208971039691923)","[0.0037839183990275088, 0.0036807396455090235, 0.0011159450521244316]","[-0.026750000193715096, 0.05299999937415123, 0.03999999910593033]","[0.0, -0.0, 0.5120490067553263]","[-0.06202744320034981, 0.11576545238494873, 0.03999999910593033]","[0.0, 0.0, -0.23879727768032546]","[0.026750000193715096, 0.05299999937415123, 0.03999999910593033]","[0.0, 0.0, -0.5629162116469321]","[0.06517313420772552, 0.11389058083295822, 0.03999999910593033]","[0.0, -0.0, 0.19480097822432987]",0.5137224809788196,0.40163812931921505,"(0.0, 0.0, 0.0, 0.0, 0.0, 0.0)",5.636049192918517,-0.7539469830262968,-0.7441695637277874,"(0.0, 0.0, 0.0, 0.0, 0.0, 0.0)",-0.6306304669085038,-0.5711458507154026,-1.975136488841911,"(0.0, 0.0, 0.0, 0.0, 0.0, 0.0)",-8.285820559698362,0.7605972441763634,0.6912384972385901,"(0.0, 0.0, 0.0, 0.0, 0.0, 0.0)",0.1523088526809101,True,"(-0.02715016004700547, 0.18729524180165136, 0.03999999422876244)","(0.9999641420356006, 0.008468447891927472, -5.771237566859208e-06)",-0.00020809519490386138,0.0,True,"(0.0334951059260838, 0.18674905530499047, 0.042157415167556264)","(-0.9995741154922928, 0.026348488845691843, 0.012543714495663697)",-0.003060513240326404,0.0
82,Move,"(0.018600000000000002, 0.0, 0.0222)","(0.0, 0.07058286027990268, 0.0)","(0.003882792851315083, 0.17412487042376787, 0.0021472682679532845)","(1.5348051606059168, 0.006447695785475425, -0.038022821650582815)","[0.0038827142898500773, 0.004125808047249047, 0.0012323785848655498]","[-0.026750000193715096, 0.05299999937415123, 0.03999999910593033]","[0.0, -0.0, 0.5137225133687702]","[-0.06213242933154106, 0.11570633202791214, 0.03999999910593033]","[0.0, 0.0, -0.24022452114800624]","[0.026750000193715096, 0.05299999937415123, 0.03999999910593033]","[0.0, 0.0, -0.5711458545736974]","[0.06567294150590897, 0.11357230693101883, 0.03999999910593033]","[0.0, -0.0, 0.18945140682349518]",0.5133842712768656,-0.08117032846896188,"(0.0, 0.0, 0.0, 0.0, 0.0, 0.0)",-1.2117373051904274,-0.7536172346509611,0.07913961008058013,"(0.0, 0.0, 0.0, 0.0, 0.0, 0.0)",-0.3213609214915316,-0.5773653682256975,-1.4926842024707714,"(0.0, 0.0, 0.0, 0.0, 0.0, 0.0)",0.6244622116081852,0.7603092281358473,-0.06912384972385954,"(0.0, 0.0, 0.0, 0.0, 0.0, 0.0)",-0.030491627313536617,True,"(-0.027178929711404905, 0.18704250933623212, 0.03784258550621032)","(0.9995741154923106, -0.026348488845009604, -0.01254371449567665)",-0.00023640673961028733,0.5514072113982466,True,"(0.03438512576302975, 0.18659920529783416, 0.042157415167556264)","(-0.9995741154922928, 0.026348488845691843, 0.012543714495663697)",-0.0021789469894493707,0.0
83,Move,"(0.0195, 0.0, 0.023899999999999998)","(0.0, 0.06569593837431856, 0.0)","(0.004024179598623112, 0.17451779046989505, 0.002208738446636537)","(1.5302371446439709, 0.0034412150871952966, -0.043732857919205566)","[0.004024101037158107, 0.004518728093376223, 0.001293848763548802]","[-0.026750000193715096, 0.05299999937415123, 0.03999999910593033]","[0.0, -0.0, 0.5133842722779869]","[-0.06211122125387192, 0.1157182902097702, 0.03999999910593033]","[0.0, 0.0, -0.24023296382103745]","[0.026750000193715096, 0.05299999937415123, 0.03999999910593033]","[0.0, 0.0, -0.5773654314640798]","[0.06604891270399094, 0.11332906037569046, 0.03999999910593033]","[0.0, -0.0, 0.18294387930473072]",0.512917585400283,-0.11200461037981993,"(0.0, 0.0, 0.0, 0.0, 0.0, 0.0)",-0.7518482102121941,-0.753627467137707,-0.0024557968190212776,"(0.0, 0.0, 0.0, 0.0, 0.0, 0.0)",-0.4332715515230947,-0.583923503140544,-1.5739523795631607,"(0.0, 0.0, 0.0, 0.0, 0.0, 0.0)",-0.11148336071501429,0.760338029739899,0.006912384972386221,"(0.0, 0.0, 0.0, 0.0, 0.0, 0.0)",-0.0006460643967179483,True,"(-0.02713195087103748, 0.187147816381582, 0.03999355234888922)","(0.9992564483077181, -0.038012870328329555, -0.006447651110788724)",-0.00022925734002764023,5.250899538754619,True,"(0.035236985165839625, 0.18655801221236484, 0.042157415167556264)","(-0.9995741154922928, 0.026348488845691843, 0.012543714495663697)",-0.001373555469929016,0.0
84,Move,"(0.0206, 0.0, 0.0253)","(0.0, 0.052286573731246115, 0.0)","(0.00417033890075721, 0.1748746746577551, 0.0022073936566027606)","(1.5272416621015372, 1.7034988617459476e-05, -0.04902887814875924)","[0.004170260339292205, 0.004875612281236286, 0.001292503973515026]","[-0.026750000193715096, 0.05299999937415123, 0.03999999910593033]","[0.0, -0.0, 0.5129176226276219]","[-0.062081944197416306, 0.11573478579521179, 0.03999999910593033]","[0.0, 0.0, -0.24070987890977968]","[0.026750000193715096, 0.05299999937415123, 0.03999999910593033]","[0.0, 0.0, -0.5839235155249546]","[0.06644371151924133, 0.1130700334906578, 0.03999999910593033]","[0.0, -0.0, 0.17641451460342603]",0.5125760947669907,-0.0819577519901276,"(0.0, 0.0, 0.0, 0.0, 0.0, 0.0)",-0.3446523109098509,-0.7536159823471842,0.0027563497254683177,"(0.0, 0.0, 0.0, 0.0, 0.0, 0.0)",-0.22788532930154579,-0.5910576339107358,-1.7121913848460362,"(0.0, 0.0, 0.0, 0.0, 0.0, 0.0)",-0.20432035517106018,0.7603351495794938,-0.0006912384972386221,"(0.0, 0.0, 0.0, 0.0, 0.0, 0.0)",-0.016046844841888397,True,"(-0.02706881545769941, 0.18714239252418913, 0.039996558791704585)","(0.9990379556581764, -0.04371866008695855, -0.0034412082954101662)",-0.00021495052564077474,2.929987477224038,True,"(0.0360916875813384, 0.18660288377114007, 0.04000344120829541)","(-0.9990379556581761, 0.04371866008696634, 0.0034412082954151492)",-0.0005817451014990117,0.0
85,Move,"(0.0214, 0.0, 0.0265)","(0.0, 0.038950512916757454, 0.0)","(0.004327235974684712, 0.17519755679149765, 0.002148231782264613)","(1.5258373352002452, -0.00364848642666369, -0.05390599785978522)","[0.004327157413219707, 0.005198494414978827, 0.0012333420991768782]","[-0.026750000193715096, 0.05299999937415123, 0.03999999910593033]","[0.0, -0.0, 0.5125760866927639]","[-0.06206052005290985, 0.11574684828519821, 0.03999999910593033]","[0.0, 0.0, -0.2410399063750565]","[0.026750000193715096, 0.05299999937415123, 0.03999999910593033]","[0.0, 0.0, -0.5910576051565127]","[0.06687124818563461, 0.11278533190488815, 0.03999999910593033]","[0.0, -0.0, 0.16927750878833592]",0.5122764523969268,-0.07191416881536393,"(0.0, 0.0, 0.0, 0.0, 0.0, 0.0)",-0.43308320371996245,-0.7536065245960207,0.0022698602792404184,"(0.0, 0.0, 0.0, 0.0, 0.0, 0.0)",-0.2612477414831672,-0.5986591344359021,-1.8243601260399107,"(0.0, 0.0, 0.0, 0.0, 0.0, 0.0)",-0.16518403135765267,0.7603354375955342,6.912384972412866e-05,"(0.0, 0.0, 0.0, 0.0, 0.0, 0.0)",-0.012286827613039253,True,"(-0.027024052184441115, 0.1871379350773254, 0.039999982965011394)","(0.9987983251563148, -0.04900923764709825, -1.7034988610563662e-05)",-0.00020143677805398364,3.368812616685476,True,"(0.03704469678841514, 0.186531087127775, 0.040000017034988615)","(-0.9987983251563144, 0.0490092376471033, 1.7034988612268648e-05)",0.00030293872423640576,0.0
86,Move,"(0.0218, 0.0, 0.027600000000000003)","(0.0, 0.034222415973104825, 0.0)","(0.004443528620255276, 0.1754142893847615, 0.002142640974114615)","(1.5273419490652964, -0.004077627499697229, -0.05278699761038038)","[0.004443450058790271, 0.005415227008242679, 0.0012277512910268801]","[-0.026750000193715096, 0.05299999937415123, 0.03999999910593033]","[0.0, -0.0, 0.5122764475144838]","[-0.062041718512773514, 0.11575742810964584, 0.03999999910593033]","[0.0, 0.0, -0.24133008542996987]","[0.026750000193715096, 0.05299999937415123, 0.03999999910593033]","[0.0, 0.0, -0.5986591237741133]","[0.06732454150915146, 0.11247862130403519, 0.03999999910593033]","[0.0, -0.0, 0.16167630400256489]",0.5120584170470112,-0.05232848397974177,"(0.0, 0.0, 0.0, 0.0, 0.0, 0.0)",0.02846055745144526,-0.7536076758030639,-0.0002762896903451863,"(0.0, 0.0, 0.0, 0.0, 0.0, 0.0)",0.0018648953031401559,-0.6066312126903001,-1.913298781055498,"(0.0, 0.0, 0.0, 0.0, 0.0, 0.0)",-0.1312154996103319,0.7603354096587861,-6.704819557641867e-06,"(0.0, 0.0, 0.0, 0.0, 0.0, 0.0)",-0.009843363235360763,True,"(-0.02698477714925665, 0.18713376227408793, 0.04000364847833224)","(0.9985407774454572, -0.05387953585992612, 0.003648478332235733)",-0.00018867471686024654,0.0,True,"(0.038059261077929514, 0.18644624613621055, 0.03999635152166778)","(-0.9985407774454569, 0.053879535859933846, -0.003648478332223765)",0.0012548172664819178,0.0
87,Move,"(0.0225, 0.0, 0.0285)","(0.0, 0.034222415973104825, 0.0)","(0.004549575315255655, 0.17557887467144623, 0.0020696965392187345)","(1.5302000938256182, -0.003757056310072397, -0.05027351625427907)","[0.00454949675379065, 0.005579812294927405, 0.0011548068561309998]","[-0.026750000193715096, 0.05299999937415123, 0.03999999910593033]","[0.0, -0.0, 0.5120584327728772]","[-0.062028031796216965, 0.11576511710882187, 0.03999999910593033]","[0.0, 0.0, -0.24154929046919932]","[0.026750000193715096, 0.05299999937415123, 0.03999999910593033]","[0.0, 0.0, -0.6066312225585567]","[0.06779741495847702, 0.11215326935052872, 0.03999999910593033]","[0.0, -0.0, 0.15370422391029803]",0.5119301394238758,-0.03078662955248746,"(0.0, 0.0, 0.0, 0.0, 0.0, 0.0)",0.03164878812822258,-0.7536075984471367,1.8565422544161183e-05,"(0.0, 0.0, 0.0, 0.0, 0.0, 0.0)",0.00239065495029296,-0.6148890192136538,-1.981873565604884,"(0.0, 0.0, 0.0, 0.0, 0.0, 0.0)",-0.10134253893044835,0.7603355326416549,2.951588851599925e-05,"(0.0, 0.0, 0.0, 0.0, 0.0, 0.0)",-0.007608436063633483,True,"(-0.02695537923779255, 0.18713510625349358, 0.04000407761619988)","(0.9985987879966979, -0.052762047511943425, 0.004077616199883595)",-0.00014105796821029692,0.0,False,,,,
88,Move,"(0.0225, 0.0, 0.0285)","(0.0, 0.034222415973104825, 0.0)","(0.004646170995076584, 0.17568256660466816, 0.0019465767020540098)","(1.5346395058780293, -0.003464245059812398, -0.047576291421002614)","[0.004646092433611579, 0.005683504228149339, 0.001031687018966275]","[-0.026750000193715096, 0.05299999937415123, 0.03999999910593033]","[0.0, -0.0, 0.5119302273994238]","[-0.06201998144388199, 0.1157696470618248, 0.03999999910593033]","[0.0, 0.0, -0.24167747216775043]","[0.026750000193715096, 0.05299999937415123, 0.03999999910593033]","[0.0, 0.0, -0.6148890246480405]","[0.06828448921442032, 0.1118123009800911, 0.03999999910593033]","[0.0, -0.0, 0.14544650687650795]",0.5117931656610777,-0.03287370307153292,"(0.0, 0.0, 0.0, 0.0, 0.0, 0.0)",-0.0030741295738974336,-0.7536076025288219,-9.796044496629755e-07,"(0.0, 0.0, 0.0, 0.0, 0.0, 0.0)",-0.00023130633282785086,-0.6234264325732514,-2.0489792063034273,"(0.0, 0.0, 0.0, 0.0, 0.0, 0.0)",-0.09922059560664656,0.7603356381573916,2.5323776803597956e-05,"(0.0, 0.0, 0.0, 0.0, 0.0, 0.0)",-0.007458078682426171,True,"(-0.026938040735655727, 0.1871377722897819, 0.04000375704747131)","(0.9987295041104514, -0.05025198716061286, 0.003757047471308637)",-7.405051603534461e-05,0.0,False,,,,
89,Move,"(0.0225, 0.0, 0.0285)","(0.0, 0.034222415973104825, 0.0)","(0.006694538267498901, 0.1757585379738372, 0.0020745730997650297)","(1.549277202668849, 0.015334783119100272, -0.05634583506484513)","[0.006694459706033896, 0.005759475597318375, 0.001159683416677295]","[-0.026750000193715096, 0.05299999937415123, 0.03999999910593033]","[0.0, -0.0, 0.5117932028139476]","[-0.06201138347387314, 0.1157744750380516, 0.03999999910593033]","[0.0, 0.0, -0.24181445117904496]","[0.026750000193715096, 0.05299999937415123, 0.03999999910593033]","[0.0, 0.0, -0.6234264747013075]","[0.06878507137298584, 0.11145555973052979, 0.03999999910593033]","[0.0, -0.0, 0.1369092030672279]",0.49000146374018955,-5.230008461013152,"(0.0, 0.0, 0.0, 0.0, 0.0, 0.0)",-26.65355215592022,-0.7526454226243565,0.23092317707167587,"(0.0, 0.0, 0.0, 0.0, 0.0, 0.0)",-10.80863252208384,-0.6002169370995196,5.570278913695628,"(0.0, 0.0, 0.0, 0.0, 0.0, 0.0)",11.186471263433113,0.760335627605818,-2.5323776808861e-06,"(0.0, 0.0, 0.0, 0.0, 0.0, 0.0)",0.8343821956266316,True,"(-0.026919527230587686, 0.18714062737547027, 0.04000346423813075)","(0.9988624680070797, -0.047558059895030806, 0.003464238130746852)",-1.7122935248619333e-05,141.89928124100314,False,,,,
90,Move,"(0.0225, 0.0, 0.0285)","(0.0, 0.034222415973104825, 0.0)","(0.0068557710137653995, 0.17681817683803702, 0.002077750590086294)","(1.548664406937964, 0.015356029716047225, -0.05520427890588003)","[0.006855692452300394, 0.0068191144615182, 0.001162860906998559]","[-0.026750000193715096, 0.05299999937415123, 0.03999999910593033]","[0.0, -0.0, 0.4900015334664437]","[-0.06063515692949295, 0.11652791500091553, 0.03999999910593033]","[0.0, 0.0, -0.2626439834530815]","[0.026750000193715096, 0.05299999937415123, 0.03999999910593033]","[0.0, 0.0, -0.6002169826198637]","[0.06741714477539062, 0.11241534352302551, 0.03999999910593033]","[0.0, -0.0, 0.16011869427118128]",0.4723531707611065,-4.235590314979933,"(0.0, 0.0, 0.0, 0.0, 0.0, 0.0)",-60.662953862558744,-0.7228068845833026,7.161249129852958,"(0.0, 0.0, 0.0, 0.0, 0.0, 0.0)",-31.02110935103727,-0.581989014645744,4.374701388906131,"(0.0, 0.0, 0.0, 0.0, 0.0, 0.0)",74.75295771251822,0.7290184509480897,-7.516122397854775,"(0.0, 0.0, 0.0, 0.0, 0.0, 0.0)",41.12448009440798,True,"(-0.024064497754841402, 0.18714769263312558, 0.04000346423813075)","(0.9988624680070797, -0.047558059895030806, 0.003464238130746852)",-1.6420607755681974e-05,467.1671403587348,True,"(0.038284326198973505, 0.18632376352365082, 0.04216020496141022)","(-0.9982956044886468, 0.05630940345514289, 0.015334182116216458)",-0.0016336546773500845,577.7660486472392
91,Move,"(0.0229, 0.0, 0.0293)","(0.0, 0.034222415973104825, 0.0)","(0.007054047929181568, 0.17786570268622492, 0.0020707652692797548)","(1.5489985083724, 0.015443102032346933, -0.05446430668950383)","[0.007053969367716563, 0.007866640309706102, 0.00115587558619202]","[-0.026750000193715096, 0.05299999937415123, 0.03999999910593033]","[0.0, -0.0, 0.47235314679935236]","[-0.059508778154850006, 0.11711600422859192, 0.03999999910593033]","[0.0, 0.0, -0.2504537281692698]","[0.026750000193715096, 0.05299999937415123, 0.03999999910593033]","[0.0, 0.0, -0.5819890018456353]","[0.06632743775844574, 0.11314670741558075, 0.03999999910593033]","[0.0, -0.0, 0.14702943090990306]",0.4545531361216032,-4.2720083134807965,"(0.0, 0.0, 0.0, 0.0, 0.0, 0.0)",-75.73736092113519,-0.6932140872250471,7.102271365981312,"(0.0, 0.0, 0.0, 0.0, 0.0, 0.0)",-39.994169150400595,-0.5644328555422243,4.213478184844729,"(0.0, 0.0, 0.0, 0.0, 0.0, 0.0)",74.78804334400144,0.6983721847818248,-7.355103879903571,"(0.0, 0.0, 0.0, 0.0, 0.0, 0.0)",41.26252145285588,True,"(-0.023801688103223508, 0.1881763309494077, 0.04000346423813075)","(0.9988624680070797, -0.047558059895030806, 0.003464238130746852)",-0.0001294537323810284,558.7931030712261,True,"(0.03816360034239713, 0.18741591318242665, 0.04216022620550538)","(-0.9983589088281866, 0.055169738528106325, 0.015355426211374134)",-0.0019037067022720695,556.861007836183
92,Move,"(0.024100000000000003, 0.0, 0.030100000000000002)","(0.0, 0.025689501260104535, 0.0)","(0.007240387334529105, 0.17886505970906144, 0.0019889766918539434)","(1.5505860285999193, 0.014201696214773473, -0.05530330232116535)","[0.0072403087730641, 0.008865997332542619, 0.0010740870087662087]","[-0.026750000193715096, 0.05299999937415123, 0.03999999910593033]","[0.0, -0.0, 0.45455319480405965]","[-0.058362383395433426, 0.11768892407417297, 0.03999999910593033]","[0.0, 0.0, -0.23866096288782773]","[0.026750000193715096, 0.05299999937415123, 0.03999999910593033]","[0.0, 0.0, -0.5644329237406973]","[0.06526544690132141, 0.11383223533630371, 0.03999999910593033]","[0.0, -0.0, 0.1339393211080976]",0.45684673519010593,0.5504637764406519,"(0.0, 0.0, 0.0, 0.0, 0.0, 0.0)",6.2236891877744185,-0.6961729814645156,-0.7101346174724306,"(0.0, 0.0, 0.0, 0.0, 0.0, 0.0)",-0.327274637445407,-0.5756893174995457,-2.7015508697571153,"(0.0, 0.0, 0.0, 0.0, 0.0, 0.0)",-9.265749228664305,0.7014366600214125,0.7354740575010261,"(0.0, 0.0, 0.0, 0.0, 0.0, 0.0)",0.12851448426149584,True,"(-0.02349575265085864, 0.18916538492476992, 0.04000346423813075)","(0.9988624680070797, -0.047558059895030806, 0.003464238130746852)",-0.0002435662099550691,0.0,True,"(0.038075340426503373, 0.18844992932154764, 0.042160313300622185)","(-0.9983981207333129, 0.054430892646261, 0.015442488203656944)",-0.0021835903330236343,0.0
93,Move,"(0.0252, 0.0, 0.0308)","(0.0, 0.017139133254584316, 0.0)","(0.007412444041245466, 0.17981850169499217, 0.0018293454694403221)","(1.5533962051734083, 0.011683048754840513, -0.057542804695803765)","[0.007412365479780461, 0.009819439318473344, 0.0009144557863525874]","[-0.026750000193715096, 0.05299999937415123, 0.03999999910593033]","[0.0, -0.0, 0.45684683584467567]","[-0.0585106685757637, 0.11761625111103058, 0.03999999910593033]","[0.0, 0.0, -0.23932625696673196]","[0.026750000193715096, 0.05299999937415123, 0.03999999910593033]","[0.0, 0.0, -0.5756894173340876]","[0.0659477487206459, 0.1133948415517807, 0.03999999910593033]","[0.0, -0.0, 0.12574734147669936]",0.45694059983673313,0.022527515190522873,"(0.0, 0.0, 0.0, 0.0, 0.0, 0.0)",-0.6894822977845779,-0.6958775298993349,0.07090837564336117,"(0.0, 0.0, 0.0, 0.0, 0.0, 0.0)",0.027718136018782126,-0.5844780785739472,-2.109302657856365,"(0.0, 0.0, 0.0, 0.0, 0.0, 0.0)",0.7800207212077178,0.70113058907251,-0.07345702773659779,"(0.0, 0.0, 0.0, 0.0, 0.0, 0.0)",-0.02383864258830868,True,"(-0.02359649461078723, 0.18906949628874165, 0.04000346423813075)","(0.9988624680070797, -0.047558059895030806, 0.003464238130746852)",-4.958578435147607e-05,0.0,True,"(0.039369362455516074, 0.18822543208676962, 0.0421590719981279)","(-0.998370473871537, 0.055269542110955465, 0.014201218833891239)",-0.0009711868815608627,0.0
