OSUrobotics/InHand-Manipulation/AnalyseData/Data/Trial Data/Better/new_hand_human_sub1_2v2_e_n_1_kpNone_kdNone_dp1_step1_save_data.csv
,Phase,human_cube_pos,human_cube_orn,Cube_Pos,Cube_Orn,Cube_pos_in_start_pos,b'l_prox_pin'_link_pos,b'l_prox_pin'_link_orn,b'l_distal_pin'_link_pos,b'l_distal_pin'_link_orn,b'r_prox_pin'_link_pos,b'r_prox_pin'_link_orn,b'r_distal_pin'_link_pos,b'r_distal_pin'_link_orn,b'l_prox_pin'_joint_angle,b'l_prox_pin'_joint_vel,b'l_prox_pin'_joint_react_forces,b'l_prox_pin'_joint_motor_torque,b'l_distal_pin'_joint_angle,b'l_distal_pin'_joint_vel,b'l_distal_pin'_joint_react_forces,b'l_distal_pin'_joint_motor_torque,b'r_prox_pin'_joint_angle,b'r_prox_pin'_joint_vel,b'r_prox_pin'_joint_react_forces,b'r_prox_pin'_joint_motor_torque,b'r_distal_pin'_joint_angle,b'r_distal_pin'_joint_vel,b'r_distal_pin'_joint_react_forces,b'r_distal_pin'_joint_motor_torque,in_contact_l,contact_point_l_dist,contact_normal_l_dist,contact_distance_l_dist,contact_norm_force_l_dist,in_contact_r,contact_point_r_dist,contact_normal_r_dist,contact_distance_r_dist,contact_norm_force_r_dist
0,Open,,,,,,"[-0.026750000193715096, 0.05299999937415123, 0.03999999910593033]","[0.0, -0.0, 0.0]","[-0.026750000193715096, 0.125, 0.03999999910593033]","[0.0, -0.0, 0.0]","[0.026750000193715096, 0.05299999937415123, 0.03999999910593033]","[0.0, -0.0, 0.0]","[0.026750000193715096, 0.125, 0.03999999910593033]","[0.0, -0.0, 0.0]",0.0028636982559538428,0.6872875814289223,"(0.0, 0.0, 0.0, 0.0, 0.0, 0.0)",-74.42376671286476,0.025717978913313098,6.172314939195144,"(0.0, 0.0, 0.0, 0.0, 0.0, 0.0)",-28.347758017338414,-0.0028861714462846827,-0.6926811471083238,"(0.0, 0.0, 0.0, 0.0, 0.0, 0.0)",77.31812537484876,-0.025998027583603027,-6.239526620064726,"(0.0, 0.0, 0.0, 0.0, 0.0, 0.0)",29.325432325549183,False,,,,,False,,,,
1,Open,,,,,,"[-0.026750000193715096, 0.05299999937415123, 0.03999999910593033]","[0.0, -0.0, 0.0028636982488144678]","[-0.026956185698509216, 0.12499970197677612, 0.03999999910593033]","[0.0, -0.0, 0.028581675581217755]","[0.026750000193715096, 0.05299999937415123, 0.03999999910593033]","[0.0, 0.0, -0.0028861714423951343]","[0.026957804337143898, 0.12499970197677612, 0.03999999910593033]","[0.0, 0.0, -0.028884201286240394]",0.1595773284303585,37.61127124185712,"(0.0, 0.0, 0.0, 0.0, 0.0, 0.0)",53.472225824972774,0.02314589095046895,-0.6173011110825959,"(0.0, 0.0, 0.0, 0.0, 0.0, 0.0)",3.3014509125464437,-0.15959755430165623,-37.61073188528917,"(0.0, 0.0, 0.0, 0.0, 0.0, 0.0)",-53.45543824447724,-0.023397935520559333,0.6240220951304867,"(0.0, 0.0, 0.0, 0.0, 0.0, 0.0)",-3.2927232380167535,False,,,,,False,,,,
2,Open,,,,,,"[-0.026750000193715096, 0.05299999937415123, 0.03999999910593033]","[0.0, -0.0, 0.15957730699277592]","[-0.03819086775183678, 0.1240852028131485, 0.03999999910593033]","[0.0, -0.0, 0.1827232399786182]","[0.026750000193715096, 0.05299999937415123, 0.03999999910593033]","[0.0, 0.0, -0.15959754249378824]","[0.03819230571389198, 0.12408497184515, 0.03999999910593033]","[0.0, 0.0, -0.1829954723320542]",0.30061959558732265,33.8501441176714,"(0.0, 0.0, 0.0, 0.0, 0.0, 0.0)",-5.433290843096747,0.020831748867960086,-0.555394099802127,"(0.0, 0.0, 0.0, 0.0, 0.0, 0.0)",-0.37949999689540415,-0.30063779887149056,-33.849658696760244,"(0.0, 0.0, 0.0, 0.0, 0.0, 0.0)",5.433149501288634,-0.02105858889910766,0.5614431891484022,"(0.0, 0.0, 0.0, 0.0, 0.0, 0.0)",0.37943043762158307,False,,,,,False,,,,
3,Open,,,,,,"[-0.026750000193715096, 0.05299999937415123, 0.03999999910593033]","[0.0, -0.0, 0.30061964608852465]","[-0.048070069402456284, 0.12177103012800217, 0.03999999910593033]","[0.0, -0.0, 0.3214513597309629]","[0.026750000193715096, 0.05299999937415123, 0.03999999910593033]","[0.0, 0.0, -0.30063782483534385]","[0.04807132109999657, 0.12177064269781113, 0.03999999910593033]","[0.0, 0.0, -0.32169639446592324]",0.4275576360285904,30.465129705904268,"(0.0, 0.0, 0.0, 0.0, 0.0, 0.0)",-4.896562760502833,0.018748978964657985,-0.49986477679250463,"(0.0, 0.0, 0.0, 0.0, 0.0, 0.0)",-0.3438186216350169,-0.4275740189843415,-30.464692827084228,"(0.0, 0.0, 0.0, 0.0, 0.0, 0.0)",4.8964345239877005,-0.018953134917884834,0.505308955493478,"(0.0, 0.0, 0.0, 0.0, 0.0, 0.0)",0.34375511365495653,False,,,,,False,,,,
4,Open,,,,,,"[-0.026750000193715096, 0.05299999937415123, 0.03999999910593033]","[0.0, -0.0, 0.42755761853039154]","[-0.056604765355587006, 0.1185186430811882, 0.03999999910593033]","[0.0, -0.0, 0.4463066270391506]","[0.026750000193715096, 0.05299999937415123, 0.03999999910593033]","[0.0, 0.0, -0.42757404208311445]","[0.05660583823919296, 0.1185181587934494, 0.03999999910593033]","[0.0, 0.0, -0.4465272228574986]",0.5418018724257314,27.418616735313837,"(0.0, 0.0, 0.0, 0.0, 0.0, 0.0)",-4.412236817968903,0.016874447698417276,-0.44988750389777044,"(0.0, 0.0, 0.0, 0.0, 0.0, 0.0)",-0.3112578673856835,-0.5418166170859073,-27.418223544375806,"(0.0, 0.0, 0.0, 0.0, 0.0, 0.0)",4.412120589674461,-0.017058187988154127,0.4547872631353701,"(0.0, 0.0, 0.0, 0.0, 0.0, 0.0)",0.31119999541872967,False,,,,,False,,,,
5,Open,,,,,,"[-0.026750000193715096, 0.05299999937415123, 0.03999999910593033]","[0.0, -0.0, 0.5418019400761332]","[-0.06387900561094284, 0.11468822509050369, 0.03999999910593033]","[0.0, -0.0, 0.5586763123738882]","[0.026750000193715096, 0.05299999937415123, 0.03999999910593033]","[0.0, 0.0, -0.5418166677071254]","[0.06387991458177567, 0.11468767374753952, 0.03999999910593033]","[0.0, 0.0, -0.5588748551425957]",0.6446216851831583,24.67675506178245,"(0.0, 0.0, 0.0, 0.0, 0.0, 0.0)",-3.975330693632137,0.015187334633278446,-0.4049071356333192,"(0.0, 0.0, 0.0, 0.0, 0.0, 0.0)",-0.2816071653694913,-0.6446349553773166,-24.67640118993823,"(0.0, 0.0, 0.0, 0.0, 0.0, 0.0)",3.975225427671302,-0.01535270083200906,0.409316917474816,"(0.0, 0.0, 0.0, 0.0, 0.0, 0.0)",0.28155450162657786,False,,,,,False,,,,
6,Open,,,,,,"[-0.026750000193715096, 0.05299999937415123, 0.03999999910593033]","[0.0, -0.0, 0.6446216983098856]","[-0.07001452147960663, 0.11055155843496323, 0.03999999910593033]","[0.0, -0.0, 0.6598089287160823]","[0.026750000193715096, 0.05299999937415123, 0.03999999910593033]","[0.0, 0.0, -0.644634967879878]","[0.07001528143882751, 0.11055097728967667, 0.03999999910593033]","[0.0, 0.0, -0.6599877329949964]",0.7371595166648425,22.209079555604205,"(0.0, 0.0, 0.0, 0.0, 0.0, 0.0)",-3.5812948349547464,0.013668901111545678,-0.3644240452158641,"(0.0, 0.0, 0.0, 0.0, 0.0, 0.0)",-0.25464125660078457,-0.737171459839585,-22.20876107094441,"(0.0, 0.0, 0.0, 0.0, 0.0, 0.0)",3.5811995605906057,-0.01381773063402154,0.3683928475170044,"(0.0, 0.0, 0.0, 0.0, 0.0, 0.0)",0.2545933902665499,False,,,,,False,,,,
7,Open,,,,,,"[-0.026750000193715096, 0.05299999937415123, 0.03999999910593033]","[0.0, -0.0, 0.7371595400859692]","[-0.07514750957489014, 0.10630742460489273, 0.03999999910593033]","[0.0, -0.0, 0.7508283868993905]","[0.026750000193715096, 0.05299999937415123, 0.03999999910593033]","[0.0, 0.0, -0.7371714711336782]","[0.07514814287424088, 0.10630684345960617, 0.03999999910593033]","[0.0, 0.0, -0.750989167509555]",0.8204435649983582,19.988171600043785,"(0.0, 0.0, 0.0, 0.0, 0.0, 0.0)",-3.2259980823944012,0.01230228208777883,-0.32798856570404317,"(0.0, 0.0, 0.0, 0.0, 0.0, 0.0)",-0.23014491551259536,-0.8204543138556265,-19.987884963849964,"(0.0, 0.0, 0.0, 0.0, 0.0, 0.0)",3.225911902119173,-0.012436228606816148,0.33156048652929415,"(0.0, 0.0, 0.0, 0.0, 0.0, 0.0)",0.23010145595163894,False,,,,,False,,,,
8,Open,,,,,,"[-0.026750000193715096, 0.05299999937415123, 0.03999999910593033]","[0.0, -0.0, 0.8204435774406766]","[-0.07941428571939468, 0.1020965725183487, 0.03999999910593033]","[0.0, -0.0, 0.8327459142786269]","[0.026750000193715096, 0.05299999937415123, 0.03999999910593033]","[0.0, 0.0, -0.8204543695347751]","[0.07941480726003647, 0.10209600627422333, 0.03999999910593033]","[0.0, 0.0, -0.8328905496331522]",0.8953992084985224,17.9893544400394,"(0.0, 0.0, 0.0, 0.0, 0.0, 0.0)",-2.905692777507757,0.011072298781000885,-0.2951959936267068,"(0.0, 0.0, 0.0, 0.0, 0.0, 0.0)",-0.20791432075989408,-0.8954088824700639,-17.989096467464968,"(0.0, 0.0, 0.0, 0.0, 0.0, 0.0)",2.9056148642503405,-0.011192850601700187,0.29841072122783063,"(0.0, 0.0, 0.0, 0.0, 0.0, 0.0)",0.20787489947010138,False,,,,,False,,,,
9,Open,,,,,,"[-0.026750000193715096, 0.05299999937415123, 0.03999999910593033]","[0.0, -0.0, 0.8953992050914552]","[-0.08294302970170975, 0.09801492840051651, 0.03999999910593033]","[0.0, -0.0, 0.9064715399310761]","[0.026750000193715096, 0.05299999937415123, 0.03999999910593033]","[0.0, 0.0, -0.8954089117450801]","[0.08294346183538437, 0.09801438450813293, 0.03999999910593033]","[0.0, 0.0, -0.9066016844299951]",0.9628592876486701,16.190418996035465,"(0.0, 0.0, 0.0, 0.0, 0.0, 0.0)",-2.616982039675733,0.009965290062605858,-0.26568209241480656,"(0.0, 0.0, 0.0, 0.0, 0.0, 0.0)",-0.18775783729375353,-0.9628679942230576,-16.190186820718473,"(0.0, 0.0, 0.0, 0.0, 0.0, 0.0)",2.6169116334278195,-0.010073786659150813,0.26857534621184953,"(0.0, 0.0, 0.0, 0.0, 0.0, 0.0)",0.187722108909745,False,,,,,False,,,,
10,Open,,,,,,"[-0.026750000193715096, 0.05299999937415123, 0.03999999910593033]","[0.0, -0.0, 0.9628592963772022]","[-0.08584962040185928, 0.09412462264299393, 0.03999999910593033]","[0.0, -0.0, 0.9728246761305416]","[0.026750000193715096, 0.05299999937415123, 0.03999999910593033]","[0.0, 0.0, -0.9628681466677605]","[0.08584997802972794, 0.09412410855293274, 0.03999999910593033]","[0.0, 0.0, -0.9729417790417357]",1.0235733588838032,14.57137709643192,"(0.0, 0.0, 0.0, 0.0, 0.0, 0.0)",-2.356789246056587,0.008968960705874744,-0.23911904561546746,"(0.0, 0.0, 0.0, 0.0, 0.0, 0.0)",-0.16949635495257384,-1.0235811948007518,-14.571168138646623,"(0.0, 0.0, 0.0, 0.0, 0.0, 0.0)",2.3567256501387286,-0.009066607604651448,0.24172297307984775,"(0.0, 0.0, 0.0, 0.0, 0.0, 0.0)",0.16946399753760524,False,,,,,False,,,,
11,Open,,,,,,"[-0.026750000193715096, 0.05299999937415123, 0.03999999910593033]","[0.0, -0.0, 1.0235732790301837]","[-0.08823604136705399, 0.09046287834644318, 0.03999999910593033]","[0.0, -0.0, 1.0325423083164225]","[0.026750000193715096, 0.05299999937415123, 0.03999999910593033]","[0.0, 0.0, -1.0235812274279317]","[0.08823633193969727, 0.09046239405870438, 0.03999999910593033]","[0.0, 0.0, -1.0326479037372749]",1.078216022995423,13.114239386788727,"(0.0, 0.0, 0.0, 0.0, 0.0, 0.0)",-2.1223296975724493,0.008072244810550301,-0.215211814877866,"(0.0, 0.0, 0.0, 0.0, 0.0, 0.0)",-0.1529632973210469,-1.0782230753206767,-13.114051324781958,"(0.0, 0.0, 0.0, 0.0, 0.0, 0.0)",2.122272274708909,-0.008160126984954354,0.21755534872730237,"(0.0, 0.0, 0.0, 0.0, 0.0, 0.0)",0.15293401213466845,False,,,,,False,,,,
12,Open,,,,,,"[-0.026750000193715096, 0.05299999937415123, 0.03999999910593033]","[0.0, -0.0, 1.078215882979514]","[-0.09019032120704651, 0.08704887330532074, 0.03999999910593033]","[0.0, -0.0, 1.0862882926740116]","[0.026750000193715096, 0.05299999937415123, 0.03999999910593033]","[0.0, 0.0, -1.078222977413882]","[0.09019055962562561, 0.08704842627048492, 0.03999999910593033]","[0.0, 0.0, -1.0863833790205233]",1.1273944206958806,11.802815448109852,"(0.0, 0.0, 0.0, 0.0, 0.0, 0.0)",-1.9110844168611731,0.007265182884681461,-0.19369486220852175,"(0.0, 0.0, 0.0, 0.0, 0.0, 0.0)",-0.13800439004610457,-1.127400767788609,-11.802646192303762,"(0.0, 0.0, 0.0, 0.0, 0.0, 0.0)",1.9110325851897776,-0.007344276810443619,0.19580404188257655,"(0.0, 0.0, 0.0, 0.0, 0.0, 0.0)",0.13797790093405082,False,,,,,False,,,,
13,Open,,,,,,"[-0.026750000193715096, 0.05299999937415123, 0.03999999910593033]","[0.0, -0.0, 1.1273943743462997]","[-0.0917874127626419, 0.08388907462358475, 0.03999999910593033]","[0.0, -0.0, 1.1346596248576977]","[0.026750000193715096, 0.05299999937415123, 0.03999999910593033]","[0.0, 0.0, -1.127400718904607]","[0.09178761392831802, 0.08388865739107132, 0.03999999910593033]","[0.0, 0.0, -1.134745111288055]",1.1716549786262926,10.622533903298867,"(0.0, 0.0, 0.0, 0.0, 0.0, 0.0)",-1.7207759982695574,0.00653881121780902,-0.17432920004938585,"(0.0, 0.0, 0.0, 0.0, 0.0, 0.0)",-0.12447725819906867,-1.1716606910097482,-10.622381573073383,"(0.0, 0.0, 0.0, 0.0, 0.0, 0.0)",1.7207292273800263,-0.006609995722787257,0.17622746103752684,"(0.0, 0.0, 0.0, 0.0, 0.0, 0.0)",0.12445331071934837,False,,,,,False,,,,
14,Open,,,,,,"[-0.026750000193715096, 0.05299999937415123, 0.03999999910593033]","[0.0, -0.0, 1.17165497759142]","[-0.09309044480323792, 0.08098116517066956, 0.03999999910593033]","[0.0, -0.0, 1.1781937273122836]","[0.026750000193715096, 0.05299999937415123, 0.03999999910593033]","[0.0, 0.0, -1.1716605985979762]","[0.09309060126543045, 0.08098078519105911, 0.03999999910593033]","[0.0, 0.0, -1.178270796658152]",1.2114894807636634,9.56028051296898,"(0.0, 0.0, 0.0, 0.0, 0.0, 0.0)",-1.549346412635057,0.005885062316220725,-0.15689973638119079,"(0.0, 0.0, 0.0, 0.0, 0.0, 0.0)",-0.11225090666269867,-1.2114946219087734,-9.560143415766044,"(0.0, 0.0, 0.0, 0.0, 0.0, 0.0)",1.5493042197033076,-0.00594912834521185,0.1586081706180975,"(0.0, 0.0, 0.0, 0.0, 0.0, 0.0)",0.11222926703597672,False,,,,,False,,,,
15,Open,,,,,,"[-0.026750000193715096, 0.05299999937415123, 0.03999999910593033]","[0.0, -0.0, 1.2114893406881728]","[-0.09415213763713837, 0.07831703126430511, 0.03999999910593033]","[0.0, -0.0, 1.2173745989650702]","[0.026750000193715096, 0.05299999937415123, 0.03999999910593033]","[0.0, 0.0, -1.2114945655338818]","[0.09415226429700851, 0.07831668108701706, 0.03999999910593033]","[0.0, 0.0, -1.2174436451143456]",1.247340532687297,8.604252461672083,"(0.0, 0.0, 0.0, 0.0, 0.0, 0.0)",-1.3949366588174594,0.00529667529397997,-0.14121288533778104,"(0.0, 0.0, 0.0, 0.0, 0.0, 0.0)",-0.1012051251161189,-1.2473451597178962,-8.604129074189437,"(0.0, 0.0, 0.0, 0.0, 0.0, 0.0)",1.394898604883462,-0.005354334697048719,0.1427504755591516,"(0.0, 0.0, 0.0, 0.0, 0.0, 0.0)",0.1011855790679586,False,,,,,False,,,,
16,Open,,,,,,"[-0.026750000193715096, 0.05299999937415123, 0.03999999910593033]","[0.0, -0.0, 1.2473405247091465]","[-0.09501627087593079, 0.07588484138250351, 0.03999999910593033]","[0.0, -0.0, 1.2526371614229614]","[0.026750000193715096, 0.05299999937415123, 0.03999999910593033]","[0.0, 0.0, -1.2473450561350814]","[0.09501637518405914, 0.07588452845811844, 0.03999999910593033]","[0.0, 0.0, -1.252699591080442]",1.2796064794185673,7.743827215504874,"(0.0, 0.0, 0.0, 0.0, 0.0, 0.0)",-1.2558681481324276,0.004767115224099335,-0.12709441677135241,"(0.0, 0.0, 0.0, 0.0, 0.0, 0.0)",-0.09122984935698081,-1.2796106437461066,-7.743716166770495,"(0.0, 0.0, 0.0, 0.0, 0.0, 0.0)",1.2558338345532607,-0.004819008666073119,0.128478247434144,"(0.0, 0.0, 0.0, 0.0, 0.0, 0.0)",0.09121220090323832,False,,,,,False,,,,
17,Open,,,,,,"[-0.026750000193715096, 0.05299999937415123, 0.03999999910593033]","[0.0, -0.0, 1.279606409124563]","[-0.09571900963783264, 0.0736706405878067, 0.03999999910593033]","[0.0, -0.0, 1.2843736758198352]","[0.026750000193715096, 0.05299999937415123, 0.03999999910593033]","[0.0, 0.0, -1.2796106525936015]","[0.0957190990447998, 0.07367035001516342, 0.03999999910593033]","[0.0, 0.0, -1.2844295613342638]",1.3086458314767107,6.969444493954387,"(0.0, 0.0, 0.0, 0.0, 0.0, 0.0)",-1.1305941221975622,0.00429170208951155,-0.1140991523010686,"(0.0, 0.0, 0.0, 0.0, 0.0, 0.0)",-0.082192919359827,-1.3086495793714958,-6.969344550093446,"(0.0, 0.0, 0.0, 0.0, 0.0, 0.0)",1.1305631934145834,-0.004338405935744441,0.11534465527888274,"(0.0, 0.0, 0.0, 0.0, 0.0, 0.0)",0.08217699569254354,False,,,,,False,,,,
18,Open,,,,,,"[-0.026750000193715096, 0.05299999937415123, 0.03999999910593033]","[0.0, -0.0, 1.308645825919811]","[-0.09629011154174805, 0.0716593861579895, 0.03999999910593033]","[0.0, -0.0, 1.3129373548657892]","[0.026750000193715096, 0.05299999937415123, 0.03999999910593033]","[0.0, 0.0, -1.308649569130343]","[0.09629017859697342, 0.07165912538766861, 0.03999999910593033]","[0.0, 0.0, -1.3129881167123505]",1.3347812483290395,6.272500044558946,"(0.0, 0.0, 0.0, 0.0, 0.0, 0.0)",-1.0178482622338179,0.003863702481573626,-0.10271990590510163,"(0.0, 0.0, 0.0, 0.0, 0.0, 0.0)",-0.07410352518858664,-1.3347846214343462,-6.272410095084102,"(0.0, 0.0, 0.0, 0.0, 0.0, 0.0)",1.0178203769740246,-0.0039057357160976183,0.10384085271523745,"(0.0, 0.0, 0.0, 0.0, 0.0, 0.0)",0.0740891498002037,False,,,,,False,,,,
19,Open,,,,,,"[-0.026750000193715096, 0.05299999937415123, 0.03999999910593033]","[0.0, -0.0, 1.3347813147466918]","[-0.09675397723913193, 0.06983575969934464, 0.03999999910593033]","[0.0, -0.0, 1.3386449621367835]","[0.026750000193715096, 0.05299999937415123, 0.03999999910593033]","[0.0, 0.0, -1.3347844615433213]","[0.0967540368437767, 0.06983552873134613, 0.03999999910593033]","[0.0, 0.0, -1.3386905382854437]",1.3583031234961356,5.645250040103052,"(0.0, 0.0, 0.0, 0.0, 0.0, 0.0)",-0.9162890978823036,0.0034783869891320215,-0.09247571818598516,"(0.0, 0.0, 0.0, 0.0, 0.0, 0.0)",-0.06677007440367574,-1.3583061592909116,-5.645169085575695,"(0.0, 0.0, 0.0, 0.0, 0.0, 0.0)",0.9162639666346021,-0.003516216695348753,0.09348456497972772,"(0.0, 0.0, 0.0, 0.0, 0.0, 0.0)",0.06675710630673855,False,,,,,False,,,,
20,Open,,,,,,"[-0.026750000193715096, 0.05299999937415123, 0.03999999910593033]","[0.0, -0.0, 1.3583030429358363]","[-0.09713058918714523, 0.06818463653326035, 0.03999999910593033]","[0.0, -0.0, 1.3617816714487538]","[0.026750000193715096, 0.05299999937415123, 0.03999999910593033]","[0.0, 0.0, -1.358306171033049]","[0.09713063389062881, 0.06818442046642303, 0.03999999910593033]","[0.0, 0.0, -1.361822351334537]",1.379472811146522,5.0807250360927485,"(0.0, 0.0, 0.0, 0.0, 0.0, 0.0)",-0.8248429295126702,0.003131498553648039,-0.08325322451615583,"(0.0, 0.0, 0.0, 0.0, 0.0, 0.0)",-0.06015531267018523,-1.3794755433618204,-5.080652177018124,"(0.0, 0.0, 0.0, 0.0, 0.0, 0.0)",0.8248202834423316,-0.003165545104486833,0.08416118180686077,"(0.0, 0.0, 0.0, 0.0, 0.0, 0.0)",0.06014361689139186,False,,,,,False,,,,
21,Open,,,,,,"[-0.026750000193715096, 0.05299999937415123, 0.03999999910593033]","[0.0, -0.0, 1.3794728975130914]","[-0.09743624925613403, 0.06669140607118607, 0.03999999910593033]","[0.0, -0.0, 1.382604304378769]","[0.026750000193715096, 0.05299999937415123, 0.03999999910593033]","[0.0, 0.0, -1.379475506721758]","[0.09743628650903702, 0.06669121235609055, 0.03999999910593033]","[0.0, 0.0, -1.3826409668082853]",1.3985255300318697,4.572652532483473,"(0.0, 0.0, 0.0, 0.0, 0.0, 0.0)",-0.7425066286387145,0.0028192047313806493,-0.07495051734417352,"(0.0, 0.0, 0.0, 0.0, 0.0, 0.0)",-0.054190171953983096,-1.3985279890256384,-4.57258695931631,"(0.0, 0.0, 0.0, 0.0, 0.0, 0.0)",0.7424862245436853,-0.0028498464605416357,0.07576767454684734,"(0.0, 0.0, 0.0, 0.0, 0.0, 0.0)",0.0541796259205944,False,,,,,False,,,,
22,Open,,,,,,"[-0.026750000193715096, 0.05299999937415123, 0.03999999910593033]","[0.0, -0.0, 1.398525454133583]","[-0.09768425673246384, 0.0653422400355339, 0.03999999910593033]","[0.0, -0.0, 1.4013447262228373]","[0.026750000193715096, 0.05299999937415123, 0.03999999910593033]","[0.0, 0.0, -1.3985280648022782]","[0.09768428653478622, 0.06534206122159958, 0.03999999910593033]","[0.0, 0.0, -1.4013779844801912]",1.4156729770286829,4.1153872792351285,"(0.0, 0.0, 0.0, 0.0, 0.0, 0.0)",-0.6683758137814145,0.002538055332395241,-0.06747585575649792,"(0.0, 0.0, 0.0, 0.0, 0.0, 0.0)",-0.04881194552870251,-1.4156751901230746,-4.115328263384682,"(0.0, 0.0, 0.0, 0.0, 0.0, 0.0)",0.6683574317692884,-0.002565632738451909,0.06821129330153437,"(0.0, 0.0, 0.0, 0.0, 0.0, 0.0)",0.0488024380394442,False,,,,,False,,,,
23,Open,,,,,,"[-0.026750000193715096, 0.05299999937415123, 0.03999999910593033]","[0.0, -0.0, 1.4156730334745993]","[-0.09788545966148376, 0.06412414461374283, 0.03999999910593033]","[0.0, -0.0, 1.418211036917125]","[0.026750000193715096, 0.05299999937415123, 0.03999999910593033]","[0.0, 0.0, -1.4156752315845986]","[0.09788548201322556, 0.0641239807009697, 0.03999999910593033]","[0.0, 0.0, -1.418240879504808]",1.4311056793258146,3.703848551311612,"(0.0, 0.0, 0.0, 0.0, 0.0, 0.0)",-0.6016352863054336,0.002284944287465684,-0.060746650783093666,"(0.0, 0.0, 0.0, 0.0, 0.0, 0.0)",-0.04396376851645251,-1.431107671110767,-3.7037954370462103,"(0.0, 0.0, 0.0, 0.0, 0.0, 0.0)",0.6016187276545472,-0.0023097638175418747,0.061408541018408244,"(0.0, 0.0, 0.0, 0.0, 0.0, 0.0)",0.043955198772734246,False,,,,,False,,,,
24,Open,,,,,,"[-0.026750000193715096, 0.05299999937415123, 0.03999999910593033]","[0.0, -0.0, 1.4311058207082674]","[-0.09804865717887878, 0.06302504986524582, 0.03999999910593033]","[0.0, -0.0, 1.433390691262394]","[0.026750000193715096, 0.05299999937415123, 0.03999999910593033]","[0.0, 0.0, -1.4311075924426346]","[0.09804867953062057, 0.06302490830421448, 0.03999999910593033]","[0.0, 0.0, -1.433417470845748]",1.4449951113932331,3.333463696180452,"(0.0, 0.0, 0.0, 0.0, 0.0, 0.0)",-0.5415503506795546,0.0020570753203455715,-0.05468855210882702,"(0.0, 0.0, 0.0, 0.0, 0.0, 0.0)",-0.039594115216637325,-1.4449969039996904,-3.3334158933415914,"(0.0, 0.0, 0.0, 0.0, 0.0, 0.0)",0.541535435877482,-0.002079412775410495,0.055284250111531166,"(0.0, 0.0, 0.0, 0.0, 0.0, 0.0)",0.03958639191865308,False,,,,,False,,,,
25,Open,,,,,,"[-0.026750000193715096, 0.05299999937415123, 0.03999999910593033]","[0.0, -0.0, 1.444995076522675]","[-0.09818101674318314, 0.062033817172050476, 0.03999999910593033]","[0.0, -0.0, 1.4470522962768402]","[0.026750000193715096, 0.05299999937415123, 0.03999999910593033]","[0.0, 0.0, -1.4449971061677662]","[0.09818103164434433, 0.06203368678689003, 0.03999999910593033]","[0.0, 0.0, -1.4470761943538692]",1.45749560025391,3.0001173265624064,"(0.0, 0.0, 0.0, 0.0, 0.0, 0.0)",-0.4874589573784058,0.001851931045420989,-0.04923462598189979,"(0.0, 0.0, 0.0, 0.0, 0.0, 0.0)",-0.03565633120497695,-1.4574972135997213,-3.000074304007432,"(0.0, 0.0, 0.0, 0.0, 0.0, 0.0)",0.4874455243270462,-0.0018720346450414762,0.04977075128856451,"(0.0, 0.0, 0.0, 0.0, 0.0, 0.0)",0.03564937171228022,False,,,,,False,,,,
26,Open,,,,,,"[-0.026750000193715096, 0.05299999937415123, 0.03999999910593033]","[0.0, -0.0, 1.4574954921785264]","[-0.09828835725784302, 0.061140209436416626, 0.03999999910593033]","[0.0, -0.0, 1.4593474823067423]","[0.026750000193715096, 0.05299999937415123, 0.03999999910593033]","[0.0, 0.0, -1.4574971848934346]","[0.09828837215900421, 0.061140093952417374, 0.03999999910593033]","[0.0, 0.0, -1.4593694397653831]",1.4687460402285188,2.700105593906164,"(0.0, 0.0, 0.0, 0.0, 0.0, 0.0)",-0.4387645947805427,0.0016672451487475934,-0.044324615201614966,"(0.0, 0.0, 0.0, 0.0, 0.0, 0.0)",-0.032108199676446195,-1.4687474922397492,-2.70006687360669,"(0.0, 0.0, 0.0, 0.0, 0.0, 0.0)",0.4387524971567325,-0.0016853382893528596,0.04480712536526797,"(0.0, 0.0, 0.0, 0.0, 0.0, 0.0)",0.03210192923147444,False,,,,,False,,,,
27,Open,,,,,,"[-0.026750000193715096, 0.05299999937415123, 0.03999999910593033]","[0.0, -0.0, 1.4687462228928074]","[-0.09837540984153748, 0.06033487245440483, 0.03999999910593033]","[0.0, -0.0, 1.4704133245237396]","[0.026750000193715096, 0.05299999937415123, 0.03999999910593033]","[0.0, 0.0, -1.4687474899518769]","[0.09837542474269867, 0.060334768146276474, 0.03999999910593033]","[0.0, 0.0, -1.4704329951986796]",1.478871436205667,2.430095034515549,"(0.0, 0.0, 0.0, 0.0, 0.0, 0.0)",-0.394929862139441,0.0015009773446580906,-0.03990427298148066,"(0.0, 0.0, 0.0, 0.0, 0.0, 0.0)",-0.028911540991871522,-1.4788727430157742,-2.430060186246021,"(0.0, 0.0, 0.0, 0.0, 0.0, 0.0)",0.39491896790015035,-0.001517261081966714,0.04033852977267494,"(0.0, 0.0, 0.0, 0.0, 0.0, 0.0)",0.02890589200411927,False,,,,,False,,,,
28,Open,,,,,,"[-0.026750000193715096, 0.05299999937415123, 0.03999999910593033]","[0.0, -0.0, 1.4788714352834713]","[-0.09844600409269333, 0.05960927531123161, 0.03999999910593033]","[0.0, -0.0, 1.480372508787761]","[0.026750000193715096, 0.05299999937415123, 0.03999999910593033]","[0.0, 0.0, -1.4788727099725336]","[0.09844601899385452, 0.05960918217897415, 0.03999999910593033]","[0.0, 0.0, -1.4803900544382056]",1.4879842925851003,2.1870855310639947,"(0.0, 0.0, 0.0, 0.0, 0.0, 0.0)",-0.3554706611703565,0.001351290830885638,-0.035924763305388616,"(0.0, 0.0, 0.0, 0.0, 0.0, 0.0)",-0.026031844038894282,-1.487985468714197,-2.1870541676214206,"(0.0, 0.0, 0.0, 0.0, 0.0, 0.0)",0.3554608511915877,-0.001365946114079445,0.03631559229294455,"(0.0, 0.0, 0.0, 0.0, 0.0, 0.0)",0.026026755426892093,False,,,,,False,,,,
29,Close,,,"(3.819349109750643e-09, 0.16999994350316286, 7.914305593764796e-05)","(1.5700606283751846, 1.2357610516186277e-06, -4.058049624060407e-09)",,"[-0.026750000193715096, 0.05299999937415123, 0.03999999910593033]","[0.0, -0.0, 1.4879842849605203]","[-0.09850326180458069, 0.05895565450191498, 0.03999999910593033]","[0.0, -0.0, 1.4893357278409396]","[0.026750000193715096, 0.05299999937415123, 0.03999999910593033]","[0.0, 0.0, -1.4879853833286059]","[0.09850326925516129, 0.05895556882023811, 0.03999999910593033]","[0.0, 0.0, -1.4893513332680077]",1.4961858633265903,1.9683769779575933,"(0.0, 0.0, 0.0, 0.0, 0.0, 0.0)",-0.31995094896823073,0.0012165319928285922,-0.03234212113369103,"(0.0, 0.0, 0.0, 0.0, 0.0, 0.0)",-0.02343792779000599,-1.4961869218427772,-1.9683487508592754,"(0.0, 0.0, 0.0, 0.0, 0.0, 0.0)",0.31994211580738524,-0.0012297216752996233,0.03269386530715718,"(0.0, 0.0, 0.0, 0.0, 0.0, 0.0)",0.02343334437795369,False,,,,,False,,,,
30,Close,,,"(1.09441459674075e-09, 0.16999988769159868, 0.0001519632082907279)","(1.5701173533571526, -2.5467641220651055e-06, -4.573996600559749e-08)",,"[-0.026750000193715096, 0.05299999937415123, 0.03999999910593033]","[0.0, -0.0, 1.4961860174198076]","[-0.09854969382286072, 0.05836696922779083, 0.03999999910593033]","[0.0, -0.0, 1.4974025341106605]","[0.026750000193715096, 0.05299999937415123, 0.03999999910593033]","[0.0, 0.0, -1.4961870219527165]","[0.09854969382286072, 0.05836689472198486, 0.03999999910593033]","[0.0, 0.0, -1.4974167044724178]",1.4065672769939312,-21.50846071983817,"(0.0, 0.0, 0.0, 0.0, 0.0, 0.0)",-36.83524610171859,-0.08890468746940376,-21.629092670935766,"(0.0, 0.0, 0.0, 0.0, 0.0, 0.0)",-4.936581214831643,-1.4065682296584996,21.508486124226657,"(0.0, 0.0, 0.0, 0.0, 0.0, 0.0)",36.83523814678565,0.0888928167555427,21.629409223402156,"(0.0, 0.0, 0.0, 0.0, 0.0, 0.0)",4.936577085092772,False,,,,,False,,,,
31,Close,,,"(3.541182821644653e-08, 0.1699998011443987, 0.00021906657187154062)","(1.570205104748116, 3.3042409171564205e-05, -8.114212850492596e-08)",,"[-0.026750000193715096, 0.05299999937415123, 0.03999999910593033]","[0.0, -0.0, 1.4065674382065954]","[-0.0977812185883522, 0.06477140635251999, 0.03999999910593033]","[0.0, -0.0, 1.3176625934179576]","[0.026750000193715096, 0.05299999937415123, 0.03999999910593033]","[0.0, 0.0, -1.4065680331882469]","[0.0977812260389328, 0.06477133929729462, 0.03999999910593033]","[0.0, 0.0, -1.3176753491400532]",1.3259105492945382,-19.357614647854348,"(0.0, 0.0, 0.0, 0.0, 0.0, 0.0)",3.3395407019063446,-0.17001473426920377,-19.466411231952,"(0.0, 0.0, 0.0, 0.0, 0.0, 0.0)",0.4376834422569755,-1.3259114066926496,19.35763751180399,"(0.0, 0.0, 0.0, 0.0, 0.0, 0.0)",-3.3395473112045253,0.1700040506304986,19.466696129989415,"(0.0, 0.0, 0.0, 0.0, 0.0, 0.0)",-0.43768664266468643,False,,,,,False,,,,
32,Close,,,"(3.361538948490201e-08, 0.16999974452330968, 0.00028077538773600935)","(1.5702911774727688, 7.027968338074274e-05, -7.017997684986258e-06)",,"[-0.026750000193715096, 0.05299999937415123, 0.03999999910593033]","[0.0, -0.0, 1.325910602539969]","[-0.09660188108682632, 0.07045608013868332, 0.03999999910593033]","[0.0, -0.0, 1.1558959321658662]","[0.026750000193715096, 0.05299999937415123, 0.03999999910593033]","[0.0, 0.0, -1.3259115331240872]","[0.09660189598798752, 0.07045602053403854, 0.03999999910593033]","[0.0, 0.0, -1.1559073716167563]",1.2533194943650845,-17.42185318306892,"(0.0, 0.0, 0.0, 0.0, 0.0, 0.0)",3.0100864599566086,-0.2430137284658432,-17.519758607193467,"(0.0, 0.0, 0.0, 0.0, 0.0, 0.0)",0.39699812510351973,-1.2533202660233846,17.42187376062359,"(0.0, 0.0, 0.0, 0.0, 0.0, 0.0)",-3.0100924602349655,0.24300411319445853,17.52001501535039,"(0.0, 0.0, 0.0, 0.0, 0.0, 0.0)",-0.39700105403357716,False,,,,,False,,,,
33,Close,,,"(1.2478111664315067e-07, 0.16999960627903704, 0.000337513976604643)","(1.5703757790333803, 0.0001088681261817636, -5.122611399447184e-06)",,"[-0.026750000193715096, 0.05299999937415123, 0.03999999910593033]","[0.0, -0.0, 1.2533194489161892]","[-0.0951518788933754, 0.07547627389431, 0.03999999910593033]","[0.0, -0.0, 1.0103057011386807]","[0.026750000193715096, 0.05299999937415123, 0.03999999910593033]","[0.0, 0.0, -1.2533201846969224]","[0.09515189379453659, 0.07547622174024582, 0.03999999910593033]","[0.0, 0.0, -1.010316110149499]",1.1879875449285762,-15.679667864762028,"(0.0, 0.0, 0.0, 0.0, 0.0, 0.0)",2.712712783767229,-0.30871235561933186,-15.767670516837281,"(0.0, 0.0, 0.0, 0.0, 0.0, 0.0)",0.3597856734528228,-1.1879882394210461,15.679686384561233,"(0.0, 0.0, 0.0, 0.0, 0.0, 0.0)",-2.712718226071338,0.30870370187508567,15.767901283350515,"(0.0, 0.0, 0.0, 0.0, 0.0, 0.0)",-0.35978834883250516,False,,,,,False,,,,
34,Close,,,"(1.2869376016944667e-07, 0.16999954011037416, 0.00038973303114976833)","(1.5704582297133343, 0.0001496263682483943, -9.931543136061158e-06)",,"[-0.026750000193715096, 0.05299999937415123, 0.03999999910593033]","[0.0, -0.0, 1.1879876003522736]","[-0.09353857487440109, 0.07989397644996643, 0.03999999910593033]","[0.0, -0.0, 0.8792752425767008]","[0.026750000193715096, 0.05299999937415123, 0.03999999910593033]","[0.0, 0.0, -1.1879882623869136]","[0.09353859722614288, 0.07989392429590225, 0.03999999910593033]","[0.0, 0.0, -0.8792844680170303]",1.1291887904356523,-14.1117010783017,"(0.0, 0.0, 0.0, 0.0, 0.0, 0.0)",2.44436472036771,-0.36784112005739866,-14.190903465136039,"(0.0, 0.0, 0.0, 0.0, 0.0, 0.0)",0.3258007578595482,-1.1291894154788755,14.111717746120975,"(0.0, 0.0, 0.0, 0.0, 0.0, 0.0)",-2.444369652349295,0.3678333316875771,14.191111154997946,"(0.0, 0.0, 0.0, 0.0, 0.0, 0.0)",-0.32580319741325486,False,,,,,False,,,,
35,Close,,,"(2.2147778895778094e-07, 0.169999403724105, 0.00043775502472391954)","(1.5705392813318275, 0.0001916771605813282, -8.19762937926826e-06)",,"[-0.026750000193715096, 0.05299999937415123, 0.03999999910593033]","[0.0, -0.0, 1.1291888000608494]","[-0.09184273332357407, 0.08377231657505035, 0.03999999910593033]","[0.0, -0.0, 0.7613476921786614]","[0.026750000193715096, 0.05299999937415123, 0.03999999910593033]","[0.0, 0.0, -1.1291894580384154]","[0.09184275567531586, 0.08377227932214737, 0.03999999910593033]","[0.0, 0.0, -0.7613561373098183]",1.0762699113920273,-12.700530970470014,"(0.0, 0.0, 0.0, 0.0, 0.0, 0.0)",2.202305891359772,-0.4210570080516588,-12.77181311862243,"(0.0, 0.0, 0.0, 0.0, 0.0, 0.0)",0.2948453788489373,-1.0762704739309281,12.700545971507374,"(0.0, 0.0, 0.0, 0.0, 0.0, 0.0)",-2.2023103576802145,0.4210499985188194,12.77200003949815,"(0.0, 0.0, 0.0, 0.0, 0.0, 0.0)",-0.2948476002056522,False,,,,,False,,,,
36,Close,,,"(2.1912693722736075e-07, 0.16999934361709654, 0.000481956449276018)","(1.5706184388641253, 0.00023565575873296478, -1.2845786801691941e-05)",,"[-0.026750000193715096, 0.05299999937415123, 0.03999999910593033]","[0.0, -0.0, 1.0762698553554748]","[-0.09012393653392792, 0.08717226982116699, 0.03999999910593033]","[0.0, -0.0, 0.6552128934948661]","[0.026750000193715096, 0.05299999937415123, 0.03999999910593033]","[0.0, 0.0, -1.0762704893583]","[0.09012395888566971, 0.08717223256826401, 0.03999999910593033]","[0.0, 0.0, -0.6552204147476549]",1.0286429202528247,-11.430477873408655,"(0.0, 0.0, 0.0, 0.0, 0.0, 0.0)",1.9840011930578276,-0.46895130724721834,-11.494631806934295,"(0.0, 0.0, 0.0, 0.0, 0.0, 0.0)",0.26667684533441977,-1.0286434265378352,11.430491374342276,"(0.0, 0.0, 0.0, 0.0, 0.0, 0.0)",-1.984005235051249,0.4689449986676629,11.494800035722442,"(0.0, 0.0, 0.0, 0.0, 0.0, 0.0)",-0.26667886541975433,False,,,,,False,,,,
37,Close,,,"(3.1131510586280866e-07, 0.1699992121070205, 0.0005226007520893923)","(1.5706964879884222, 0.0002806415891397876, -1.1307759452448239e-05)",,"[-0.026750000193715096, 0.05299999937415123, 0.03999999910593033]","[0.0, -0.0, 1.0286429345076582]","[-0.0884251669049263, 0.09015069156885147, 0.03999999910593033]","[0.0, -0.0, 0.5596916647508587]","[0.026750000193715096, 0.05299999937415123, 0.03999999910593033]","[0.0, 0.0, -1.0286435120859125]","[0.08842518925666809, 0.09015065431594849, 0.03999999910593033]","[0.0, 0.0, -0.5596984028120249]",0.9857786282275423,-10.287430086067793,"(0.0, 0.0, 0.0, 0.0, 0.0, 0.0)",1.787161045327472,-0.5120561765231523,-10.345168626224153,"(0.0, 0.0, 0.0, 0.0, 0.0, 0.0)",0.24107512437447856,-0.9857790838840517,10.28744223690805,"(0.0, 0.0, 0.0, 0.0, 0.0, 0.0)",-1.787164701188607,0.5120504988015524,10.345320032133483,"(0.0, 0.0, 0.0, 0.0, 0.0, 0.0)",-0.24107695935135354,False,,,,,False,,,,
38,Close,,,"(3.0991842655903425e-07, 0.169999153087261, 0.0005600347082356065)","(1.570772558536085, 0.00032764712563817383, -1.5390013302753274e-05)",,"[-0.026750000193715096, 0.05299999937415123, 0.03999999910593033]","[0.0, -0.0, 0.9857786218799983]","[-0.08677656948566437, 0.09275941550731659, 0.03999999910593033]","[0.0, -0.0, 0.4737224893055005]","[0.026750000193715096, 0.05299999937415123, 0.03999999910593033]","[0.0, 0.0, -0.9857791586690391]","[0.08677658438682556, 0.0927593931555748, 0.03999999910593033]","[0.0, 0.0, -0.47372859204714834]",0.9472007654041954,-9.258687077603232,"(0.0, 0.0, 0.0, 0.0, 0.0, 0.0)",1.6097085175776904,-0.550850558870837,-9.310651763444346,"(0.0, 0.0, 0.0, 0.0, 0.0, 0.0)",0.21783104241587867,-0.9472011754950539,9.258698013359455,"(0.0, 0.0, 0.0, 0.0, 0.0, 0.0)",-1.609711822487034,0.5508454489213972,9.310788028762744,"(0.0, 0.0, 0.0, 0.0, 0.0, 0.0)",-0.21783270758412676,False,,,,,False,,,,
39,Close,,,"(4.0106165104263135e-07, 0.169999026405202, 0.0005944331352702725)","(1.570848092729261, 0.0003750986118602944, -1.4060502423520339e-05)",,"[-0.026750000193715096, 0.05299999937415123, 0.03999999910593033]","[0.0, -0.0, 0.9472008140782049]","[-0.08519845455884933, 0.09504495561122894, 0.03999999910593033]","[0.0, -0.0, 0.39635019782230363]","[0.026750000193715096, 0.05299999937415123, 0.03999999910593033]","[0.0, 0.0, -0.9472011867132297]","[0.08519846946001053, 0.09504493325948715, 0.03999999910593033]","[0.0, 0.0, -0.3963557154153113]",0.9124806888632406,-8.332818369829143,"(0.0, 0.0, 0.0, 0.0, 0.0, 0.0)",1.4497611633824499,-0.5857655029837533,-8.379586587099913,"(0.0, 0.0, 0.0, 0.0, 0.0, 0.0)",0.19674731686213875,-0.9124810579450133,8.332828212009746,"(0.0, 0.0, 0.0, 0.0, 0.0, 0.0)",-1.4497641496546352,0.5857609040292575,8.379709225886469,"(0.0, 0.0, 0.0, 0.0, 0.0, 0.0)",-0.1967488266016999,False,,,,,False,,,,
40,Close,,,"(3.70657372146465e-07, 0.16999903038777142, 0.0006260749884053443)","(1.5708440552876382, 0.00034508120830118214, -1.4055585689260766e-05)",,"[-0.026750000193715096, 0.05299999937415123, 0.03999999910593033]","[0.0, -0.0, 0.9124807402838544]","[-0.08370371162891388, 0.09704854339361191, 0.03999999910593033]","[0.0, -0.0, 0.32671521193417863]","[0.026750000193715096, 0.05299999937415123, 0.03999999910593033]","[0.0, 0.0, -0.9124811663733811]","[0.08370373398065567, 0.09704852104187012, 0.03999999910593033]","[0.0, 0.0, -0.32672018954414506]",0.8812326199769166,-7.499536532717775,"(0.0, 0.0, 0.0, 0.0, 0.0, 0.0)",1.3056085801322186,-0.6171891619197363,-7.541678144635914,"(0.0, 0.0, 0.0, 0.0, 0.0, 0.0)",0.17763358199117588,-0.881232952150512,7.499545390680321,"(0.0, 0.0, 0.0, 0.0, 0.0, 0.0)",-1.305611277336412,0.617185022862301,7.541788519930457,"(0.0, 0.0, 0.0, 0.0, 0.0, 0.0)",-0.17763494969582577,False,,,,,False,,,,
41,Close,,,"(3.427044292909036e-07, 0.1699990340506735, 0.0006551854712062516)","(1.5708403346470328, 0.0003174583455114455, -1.4051356821419932e-05)",,"[-0.026750000193715096, 0.05299999937415123, 0.03999999910593033]","[0.0, -0.0, 0.8812326035131218]","[-0.08229970186948776, 0.09880644828081131, 0.03999999910593033]","[0.0, -0.0, 0.26404346611112495]","[0.026750000193715096, 0.05299999937415123, 0.03999999910593033]","[0.0, 0.0, -0.8812328730718287]","[0.08229971677064896, 0.09880642592906952, 0.03999999910593033]","[0.0, 0.0, -0.2640479150919315]",0.8531093579792249,-6.749582879446001,"(0.0, 0.0, 0.0, 0.0, 0.0, 0.0)",1.1757252455852583,-0.6454704345862542,-6.78750543996429,"(0.0, 0.0, 0.0, 0.0, 0.0, 0.0)",0.16033509317806058,-0.8531096569354608,6.7495908516122896,"(0.0, 0.0, 0.0, 0.0, 0.0, 0.0)",-1.1757276808922346,0.645466709436021,6.787604777692787,"(0.0, 0.0, 0.0, 0.0, 0.0, 0.0)",-0.16033633143309114,False,,,,,False,,,,
42,Close,,,"(3.170084497545684e-07, 0.16999903740907119, 0.0006819671107693073)","(1.570836911771951, 0.00029204530032808255, -1.4047683015968837e-05)",,"[-0.026750000193715096, 0.05299999937415123, 0.03999999910593033]","[0.0, -0.0, 0.8531093567174074]","[-0.08098968118429184, 0.10035036504268646, 0.03999999910593033]","[0.0, -0.0, 0.2076389231904772]","[0.026750000193715096, 0.05299999937415123, 0.03999999910593033]","[0.0, 0.0, -0.8531096230941355]","[0.08098969608545303, 0.10035035014152527, 0.03999999910593033]","[0.0, 0.0, -0.2076429742570099]",0.8277984221813024,-6.0746245915014,"(0.0, 0.0, 0.0, 0.0, 0.0, 0.0)",1.0586966037970245,-0.6709235615380169,-6.1087504684230565,"(0.0, 0.0, 0.0, 0.0, 0.0, 0.0)",0.14467321668423558,-0.8277986912419147,6.074631766451059,"(0.0, 0.0, 0.0, 0.0, 0.0, 0.0)",-1.0586988018726124,0.6709202089041267,6.108839872345364,"(0.0, 0.0, 0.0, 0.0, 0.0, 0.0)",-0.14467433700617466,False,,,,,False,,,,
43,Close,,,"(2.93385406087929e-07, 0.16999904048782613, 0.0007066062149797113)","(1.5708337628331848, 0.0002686652895538331, -1.4044478861914954e-05)",,"[-0.026750000193715096, 0.05299999937415123, 0.03999999910593033]","[0.0, -0.0, 0.8277984323872327]","[-0.07977395504713058, 0.10170790553092957, 0.03999999910593033]","[0.0, -0.0, 0.15687485461046338]","[0.026750000193715096, 0.05299999937415123, 0.03999999910593033]","[0.0, 0.0, -0.8277987052452376]","[0.07977396249771118, 0.10170789808034897, 0.03999999910593033]","[0.0, 0.0, -0.15687847762667875]",0.8050185799631722,-5.467162132351259,"(0.0, 0.0, 0.0, 0.0, 0.0, 0.0)",0.9532674830029981,-0.6938313591081322,-5.497871416827678,"(0.0, 0.0, 0.0, 0.0, 0.0, 0.0)",0.1305069121449798,-0.8050188221177232,5.467168589805953,"(0.0, 0.0, 0.0, 0.0, 0.0, 0.0)",-0.9532694663734236,0.6938283417388244,5.49795188032743,"(0.0, 0.0, 0.0, 0.0, 0.0, 0.0)",-0.13050792520753388,False,,,,,False,,,,
44,Close,,,"(2.716665250887489e-07, 0.16999904330973556, 0.0007292741870466809)","(1.5708308659078907, 0.0002471556717650467, -1.4041672069322908e-05)",,"[-0.026750000193715096, 0.05299999937415123, 0.03999999910593033]","[0.0, -0.0, 0.8050185839979388]","[-0.07865073531866074, 0.10290304571390152, 0.03999999910593033]","[0.0, -0.0, 0.11118723016400785]","[0.026750000193715096, 0.05299999937415123, 0.03999999910593033]","[0.0, 0.0, -0.8050187952188965]","[0.07865074276924133, 0.10290303081274033, 0.03999999910593033]","[0.0, 0.0, -0.11119048022217565]",0.784516721966855,-4.920445919116134,"(0.0, 0.0, 0.0, 0.0, 0.0, 0.0)",0.8582975670224743,-0.7144483618360385,-4.948080654697517,"(0.0, 0.0, 0.0, 0.0, 0.0, 0.0)",0.11770004006048959,-0.784516939905951,4.92045173082536,"(0.0, 0.0, 0.0, 0.0, 0.0, 0.0)",-0.8582993561887614,0.7144456462047399,4.948153071819748,"(0.0, 0.0, 0.0, 0.0, 0.0, 0.0)",-0.11770095568272418,False,,,,,False,,,,
45,Close,,,"(2.51696986958339e-07, 0.1699990458957082, 0.0007501287178850499)","(1.5708282008276007, 0.000227366816649173, -1.4039201474218165e-05)",,"[-0.026750000193715096, 0.05299999937415123, 0.03999999910593033]","[0.0, -0.0, 0.7845167193080385]","[-0.07761679589748383, 0.10395654290914536, 0.03999999910593033]","[0.0, -0.0, 0.07006835685702544]","[0.026750000193715096, 0.05299999937415123, 0.03999999910593033]","[0.0, 0.0, -0.7845169946958266]","[0.07761680334806442, 0.10395653545856476, 0.03999999910593033]","[0.0, 0.0, -0.0700712989357174]",0.7660650497701694,-4.42840132720452,"(0.0, 0.0, 0.0, 0.0, 0.0, 0.0)",0.7727568402429666,-0.7330036506599046,-4.453269317727849,"(0.0, 0.0, 0.0, 0.0, 0.0, 0.0)",0.106127525293464,-0.7660652459153559,4.428406557742824,"(0.0, 0.0, 0.0, 0.0, 0.0, 0.0)",-0.7727584538402424,0.7330012065927102,4.453334493112861,"(0.0, 0.0, 0.0, 0.0, 0.0, 0.0)",-0.10612835248484857,False,,,,,False,,,,
46,Close,,,"(2.3333473952068603e-07, 0.16999904826492518, 0.0007693148831029557)","(1.5708257490378412, 0.00020916106414766092, -1.403701531280991e-05)",,"[-0.026750000193715096, 0.05299999937415123, 0.03999999910593033]","[0.0, -0.0, 0.7660649977175382]","[-0.07666795700788498, 0.10488639771938324, 0.03999999910593033]","[0.0, -0.0, 0.03306140223906952]","[0.026750000193715096, 0.05299999937415123, 0.03999999910593033]","[0.0, 0.0, -0.7660653079646047]","[0.07666796445846558, 0.10488638281822205, 0.03999999910593033]","[0.0, 0.0, -0.033064041138401834]",0.7494585447931524,-3.985561194484066,"(0.0, 0.0, 0.0, 0.0, 0.0, 0.0)",0.6957152666369016,-0.7497033982890566,-4.007939430996486,"(0.0, 0.0, 0.0, 0.0, 0.0, 0.0)",0.09567473522853766,-0.7494587213238203,3.985565901968542,"(0.0, 0.0, 0.0, 0.0, 0.0, 0.0)",-0.6957167215859875,0.7497011986294615,4.007998088820328,"(0.0, 0.0, 0.0, 0.0, 0.0, 0.0)",-0.09567548223716564,False,,,,,False,,,,
47,Close,,,"(2.1644941757498085e-07, 0.1699990504349868, 0.0007869661522299996)","(1.5708234934689855, 0.0001924117668631307, -1.4035069780186692e-05)",,"[-0.026750000193715096, 0.05299999937415123, 0.03999999910593033]","[0.0, -0.0, 0.7494586090384826]","[-0.07579945772886276, 0.10570816695690155, 0.03999999910593033]","[0.0, 0.0, -0.000244853492999894]","[0.026750000193715096, 0.05299999937415123, 0.03999999910593033]","[0.0, 0.0, -0.7494587081400255]","[0.07579946517944336, 0.10570815205574036, 0.03999999910593033]","[0.0, -0.0, 0.00024247731079752444]",0.7345126903138371,-3.587005075035659,"(0.0, 0.0, 0.0, 0.0, 0.0, 0.0)",0.626333365984163,-0.764733160038395,-3.6071428198412123,"(0.0, 0.0, 0.0, 0.0, 0.0, 0.0)",0.08623682787405348,-0.7345128491914382,3.587009311771688,"(0.0, 0.0, 0.0, 0.0, 0.0, 0.0)",-0.6263346776346612,0.7647311803455538,3.607195611862134,"(0.0, 0.0, 0.0, 0.0, 0.0, 0.0)",-0.08623750223625977,False,,,,,False,,,,
48,Close,,,"(1.9902478529523268e-07, 0.16999905216510106, 0.0008031506134026157)","(1.5708213694672628, 0.00017518801369688713, -1.4031269556480368e-05)",,"[-0.026750000193715096, 0.05299999937415123, 0.03999999910593033]","[0.0, -0.0, 0.7345126628086843]","[-0.07500623911619186, 0.10643533617258072, 0.03999999910593033]","[0.0, 0.0, -0.03022046980229406]","[0.026750000193715096, 0.05299999937415123, 0.03999999910593033]","[0.0, 0.0, -0.7345128981556924]","[0.07500624656677246, 0.10643532872200012, 0.03999999910593033]","[0.0, -0.0, 0.03021832986745902]",0.7210614212824534,-3.228304567532092,"(0.0, 0.0, 0.0, 0.0, 0.0, 0.0)",0.5638237707840803,-0.7782610712626786,-3.246698693828069,"(0.0, 0.0, 0.0, 0.0, 0.0, 0.0)",0.07768823801248652,-0.7210615642722944,3.2283083805945183,"(0.0, 0.0, 0.0, 0.0, 0.0, 0.0)",-0.5638249528147553,0.7782592895487316,3.2467462087626835,"(0.0, 0.0, 0.0, 0.0, 0.0, 0.0)",-0.07768884636877696,False,,,,,False,,,,
49,Close,,,"(1.829952775457341e-07, 0.16999905372445717, 0.0008180403399689366)","(1.5708194143492393, 0.00015934185659229473, -1.4027683329641553e-05)",,"[-0.026750000193715096, 0.05299999937415123, 0.03999999910593033]","[0.0, -0.0, 0.7210614193238458]","[-0.07428312301635742, 0.10707958787679672, 0.03999999910593033]","[0.0, 0.0, -0.05719964992344959]","[0.026750000193715096, 0.05299999937415123, 0.03999999910593033]","[0.0, 0.0, -0.7210615729227128]","[0.07428313046693802, 0.10707958042621613, 0.03999999910593033]","[0.0, -0.0, 0.05719773186848648]",0.7089552791542081,-2.905474110778883,"(0.0, 0.0, 0.0, 0.0, 0.0, 0.0)",0.5075985242705942,-0.7904360705014085,-2.921999817295172,"(0.0, 0.0, 0.0, 0.0, 0.0, 0.0)",0.07003713951344083,-0.7089554078450649,2.905477542535066,"(0.0, 0.0, 0.0, 0.0, 0.0, 0.0)",-0.5075995897946305,0.7904344669675306,2.9220425805117625,"(0.0, 0.0, 0.0, 0.0, 0.0, 0.0)",-0.07003768863744474,False,,,,,False,,,,
50,Close,,,"(1.682467379846132e-07, 0.1699990551245469, 0.0008317388481303276)","(1.570817615731277, 0.00014476218910829968, -1.4024269510216624e-05)",,"[-0.026750000193715096, 0.05299999937415123, 0.03999999910593033]","[0.0, -0.0, 0.7089552779168017]","[-0.07362496107816696, 0.10765105485916138, 0.03999999910593033]","[0.0, 0.0, -0.08148078223376223]","[0.026750000193715096, 0.05299999937415123, 0.03999999910593033]","[0.0, 0.0, -0.7089554724698194]","[0.07362496852874756, 0.10765104740858078, 0.03999999910593033]","[0.0, -0.0, 0.0814790502780401]",0.6980597512387873,-2.6149266997009946,"(0.0, 0.0, 0.0, 0.0, 0.0, 0.0)",0.45693917814201784,-0.8013934602632394,-2.6297735428394082,"(0.0, 0.0, 0.0, 0.0, 0.0, 0.0)",0.06310201359777694,-0.6980598670605584,2.614929788281559,"(0.0, 0.0, 0.0, 0.0, 0.0, 0.0)",-0.45694013827892466,0.8013920170905735,2.6298120295302843,"(0.0, 0.0, 0.0, 0.0, 0.0, 0.0)",-0.06310250889925509,False,,,,,False,,,,
51,Close,,,"(1.546756367802499e-07, 0.16999905637827734, 0.0008443414385910609)","(1.5708159610857961, 0.00013134778772512943, -1.402100024143693e-05)",,"[-0.026750000193715096, 0.05299999937415123, 0.03999999910593033]","[0.0, -0.0, 0.6980597686270504]","[-0.07302673906087875, 0.10815852880477905, 0.03999999910593033]","[0.0, 0.0, -0.10333370902653251]","[0.026750000193715096, 0.05299999937415123, 0.03999999910593033]","[0.0, 0.0, -0.6980598246378259]","[0.07302674651145935, 0.10815852135419846, 0.03999999910593033]","[0.0, -0.0, 0.10333215264877679]",0.6882537761149086,-2.3534340297308955,"(0.0, 0.0, 0.0, 0.0, 0.0, 0.0)",0.41132662822933225,-0.8112550122446371,-2.3667724755354502,"(0.0, 0.0, 0.0, 0.0, 0.0, 0.0)",0.056847326346645,-0.6882538803545026,2.353436809453404,"(0.0, 0.0, 0.0, 0.0, 0.0, 0.0)",-0.4113274932960819,0.8112537133962935,2.3668071133728046,"(0.0, 0.0, 0.0, 0.0, 0.0, 0.0)",-0.0568477730004364,False,,,,,False,,,,
52,Close,,,"(1.4218689550358636e-07, 0.1699990574974972, 0.0008559357877458743)","(1.5708144388885392, 0.00011900551991941484, -1.4017852050493115e-05)",,"[-0.026750000193715096, 0.05299999937415123, 0.03999999910593033]","[0.0, -0.0, 0.6882538042795985]","[-0.07248363643884659, 0.10860966145992279, 0.03999999910593033]","[0.0, 0.0, -0.12300123728040792]","[0.026750000193715096, 0.05299999937415123, 0.03999999910593033]","[0.0, 0.0, -0.688253900607872]","[0.07248364388942719, 0.1086096540093422, 0.03999999910593033]","[0.0, -0.0, 0.12299984676553348]",0.6794283985034177,-2.118090626757806,"(0.0, 0.0, 0.0, 0.0, 0.0, 0.0)",0.3702598465395096,-0.8201303199370257,-2.1300738461732434,"(0.0, 0.0, 0.0, 0.0, 0.0, 0.0)",0.051207533272865695,-0.6794284923190523,2.1180931285080637,"(0.0, 0.0, 0.0, 0.0, 0.0, 0.0)",-0.37026062586363284,0.8201291509798778,2.130105020060234,"(0.0, 0.0, 0.0, 0.0, 0.0, 0.0)",-0.051207935975855504,False,,,,,False,,,,
53,Close,,,"(1.3069318416839e-07, 0.16999905849308636, 0.0008666025576372722)","(1.5708130385376784, 0.00010764969663878531, -1.401480516953977e-05)",,"[-0.026750000193715096, 0.05299999937415123, 0.03999999910593033]","[0.0, -0.0, 0.6794284238724229]","[-0.07199108600616455, 0.10901110619306564, 0.03999999910593033]","[0.0, 0.0, -0.14070193198542613]","[0.026750000193715096, 0.05299999937415123, 0.03999999910593033]","[0.0, 0.0, -0.6794284800706577]","[0.07199109345674515, 0.10901109874248505, 0.03999999910593033]","[0.0, -0.0, 0.1407006814892172]",0.6714855586530759,-1.9062815640820263,"(0.0, 0.0, 0.0, 0.0, 0.0, 0.0)",0.33328720146674756,-0.82811801654313,-1.9170471854650495,"(0.0, 0.0, 0.0, 0.0, 0.0, 0.0)",0.0461231568532664,-0.6714856430871471,1.9062838156572566,"(0.0, 0.0, 0.0, 0.0, 0.0, 0.0)",-0.33328790347714454,0.8281169644874314,1.917075241812861,"(0.0, 0.0, 0.0, 0.0, 0.0, 0.0)",-0.04612351986457081,False,,,,,False,,,,
54,Close,,,"(1.201142787701026e-07, 0.1699990593750365, 0.0008764159571233717)","(1.5708117502799854, 9.720147739875066e-05, -1.4011842957469135e-05)",,"[-0.026750000193715096, 0.05299999937415123, 0.03999999910593033]","[0.0, -0.0, 0.6714856028191667]","[-0.07154478132724762, 0.10936867445707321, 0.03999999910593033]","[0.0, 0.0, -0.1566324602805662]","[0.026750000193715096, 0.05299999937415123, 0.03999999910593033]","[0.0, 0.0, -0.6714856028191667]","[0.07154478132724762, 0.10936867445707321, 0.03999999910593033]","[0.0, -0.0, 0.15663130155257995]",0.6643370027877683,-1.7156534076738226,"(0.0, 0.0, 0.0, 0.0, 0.0, 0.0)",0.30000166468946887,-0.8353068710937589,-1.7253250921509458,"(0.0, 0.0, 0.0, 0.0, 0.0, 0.0)",0.041540284771796165,-0.6643370787784324,1.7156554340915304,"(0.0, 0.0, 0.0, 0.0, 0.0, 0.0)",-0.3000022969997827,0.8353059242487986,1.725350342728124,"(0.0, 0.0, 0.0, 0.0, 0.0, 0.0)",-0.041540611950472935,False,,,,,False,,,,
55,Close,,,"(1.1037647424359984e-07, 0.16999906015252483, 0.0008854442581506275)","(1.5708105651429114, 8.758832292823178e-05, -1.4008951415989527e-05)",,"[-0.026750000193715096, 0.05299999937415123, 0.03999999910593033]","[0.0, -0.0, 0.6643370606126838]","[-0.07114068418741226, 0.1096874549984932, 0.03999999910593033]","[0.0, 0.0, -0.17096987637179278]","[0.026750000193715096, 0.05299999937415123, 0.03999999910593033]","[0.0, 0.0, -0.6643370606126838]","[0.07114069163799286, 0.1096874475479126, 0.03999999910593033]","[0.0, -0.0, 0.17096884643662202]",0.6579033025089914,-1.5440880669064398,"(0.0, 0.0, 0.0, 0.0, 0.0, 0.0)",0.2700364572532802,-0.8417767749452665,-1.5527769243618206,"(0.0, 0.0, 0.0, 0.0, 0.0, 0.0)",0.03741008611729049,-0.6579033709005891,1.5440898906823783,"(0.0, 0.0, 0.0, 0.0, 0.0, 0.0)",-0.27003702673818186,0.8417759227894597,1.5527996497586782,"(0.0, 0.0, 0.0, 0.0, 0.0, 0.0)",-0.03741038095743008,False,,,,,False,,,,
56,Close,,,"(1.0141204673652616e-07, 0.16999906083398159, 0.0008937502707232629)","(1.570809474872104, 7.87434915574051e-05, -1.4006118772737545e-05)",,"[-0.026750000193715096, 0.05299999937415123, 0.03999999910593033]","[0.0, -0.0, 0.6579033304946226]","[-0.07077505439519882, 0.10997187346220016, 0.03999999910593033]","[0.0, 0.0, -0.18387348897538708]","[0.026750000193715096, 0.05299999937415123, 0.03999999910593033]","[0.0, 0.0, -0.6579033304946226]","[0.07077506184577942, 0.10997187346220016, 0.03999999910593033]","[0.0, -0.0, 0.1838725619548152]",0.6521129722580923,-1.3896792602157946,"(0.0, 0.0, 0.0, 0.0, 0.0, 0.0)",0.24306111081870946,-0.8475996296201711,-1.3974851219770965,"(0.0, 0.0, 0.0, 0.0, 0.0, 0.0)",0.033688362136148925,-0.6521130338105302,1.38968090161414,"(0.0, 0.0, 0.0, 0.0, 0.0, 0.0)",-0.24306162368353448,0.8475988626841415,1.3975055747236533,"(0.0, 0.0, 0.0, 0.0, 0.0, 0.0)",-0.03368862779939208,False,,,,,False,,,,
57,Close,,,"(9.31587620256511e-08, 0.16999906142715163, 0.0009013917798737923)","(1.570808471873919, 7.060557585400826e-05, -1.4003335136779464e-05)",,"[-0.026750000193715096, 0.05299999937415123, 0.03999999910593033]","[0.0, -0.0, 0.6521129301518677]","[-0.07044443488121033, 0.11022583395242691, 0.03999999910593033]","[0.0, 0.0, -0.19548665573955404]","[0.026750000193715096, 0.05299999937415123, 0.03999999910593033]","[0.0, 0.0, -0.6521129866161153]","[0.07044444233179092, 0.11022583395242691, 0.03999999910593033]","[0.0, -0.0, 0.19548582525750646]",0.646901675032283,-1.2507113341942153,"(0.0, 0.0, 0.0, 0.0, 0.0, 0.0)",0.2187779064062842,-0.8528401458571484,-1.2577238968745574,"(0.0, 0.0, 0.0, 0.0, 0.0, 0.0)",0.03033513071724496,-0.6469017304294772,1.2507128114527255,"(0.0, 0.0, 0.0, 0.0, 0.0, 0.0)",-0.2187783682505172,0.8528394556185027,1.2577423042466835,"(0.0, 0.0, 0.0, 0.0, 0.0, 0.0)",-0.03033537006280305,False,,,,,False,,,,
58,Close,,,"(8.555942447331213e-08, 0.16999906193915107, 0.000908421947674647)","(1.5708075491625393, 6.311807629477444e-05, -1.4000592203169427e-05)",,"[-0.026750000193715096, 0.05299999937415123, 0.03999999910593033]","[0.0, -0.0, 0.6469017074975589]","[-0.0701456218957901, 0.11045276373624802, 0.03999999910593033]","[0.0, 0.0, -0.20593848593871938]","[0.026750000193715096, 0.05299999937415123, 0.03999999910593033]","[0.0, 0.0, -0.6469017640113621]","[0.0701456293463707, 0.11045276373624802, 0.03999999910593033]","[0.0, -0.0, 0.2059377054983325]",0.6422115075290548,-1.1256402007747932,"(0.0, 0.0, 0.0, 0.0, 0.0, 0.0)",0.19691865600140895,-0.8575565627499749,-1.1319400542783593,"(0.0, 0.0, 0.0, 0.0, 0.0, 0.0)",0.027314243362735774,-0.6422115573865295,1.1256415303074527,"(0.0, 0.0, 0.0, 0.0, 0.0, 0.0)",-0.19691907187647334,0.8575559415385998,1.1319566208232932,"(0.0, 0.0, 0.0, 0.0, 0.0, 0.0)",-0.027314458975022625,False,,,,,False,,,,
59,Move,,,"(7.856146500561274e-08, 0.16999906237651882, 0.0009148896830877347)","(1.5708067003113224, 5.6229009009845055e-05, -1.399788300299107e-05)","[0.0, 0.0, 0.0]","[-0.026750000193715096, 0.05299999937415123, 0.03999999910593033]","[0.0, -0.0, 0.6422115222668433]","[-0.06987567991018295, 0.11065566539764404, 0.03999999910593033]","[0.0, 0.0, -0.21534502689171695]","[0.026750000193715096, 0.05299999937415123, 0.03999999910593033]","[0.0, 0.0, -0.6422115222668433]","[0.06987568736076355, 0.11065565794706345, 0.03999999910593033]","[0.0, -0.0, 0.2153443918565048]",0.6379903567761492,-1.0130761806973148,"(0.0, 0.0, 0.0, 0.0, 0.0, 0.0)",0.17724179525373857,-0.861801294967015,-1.0187357320896053,"(0.0, 0.0, 0.0, 0.0, 0.0, 0.0)",0.024593033118920006,-0.6379904016478766,1.0130773772767077,"(0.0, 0.0, 0.0, 0.0, 0.0, 0.0)",-0.1772421697155535,0.8618007358798453,1.0187506418989196,"(0.0, 0.0, 0.0, 0.0, 0.0, 0.0)",-0.024593227332916724,False,,,,,False,,,,
60,Move,,,"(7.401516452493873e-08, 0.16999906300717518, 0.0009208949427311885)","(1.5708059692049072, 5.171406878091127e-05, -1.3997173418156156e-05)","[-4.546300480674002e-09, 6.306563604674409e-10, 6.005259643453772e-06]","[-0.026750000193715096, 0.05299999937415123, 0.03999999910593033]","[0.0, -0.0, 0.6379903239810443]","[-0.06963192671537399, 0.1108371913433075, 0.03999999910593033]","[0.0, 0.0, -0.2238109552587812]","[0.026750000193715096, 0.05299999937415123, 0.03999999910593033]","[0.0, 0.0, -0.6379904179642307]","[0.06963192671537399, 0.1108371838927269, 0.03999999910593033]","[0.0, -0.0, 0.22381033482023305]",0.615110639462399,-5.491132155300077,"(0.0, 0.0, 0.0, 0.0, 0.0, 0.0)",-6.452665348763696,-0.8613763884842398,0.10197755586604229,"(0.0, 0.0, 0.0, 0.0, 0.0, 0.0)",-0.36782542138199165,-0.6151107211023208,5.491123330933392,"(0.0, 0.0, 0.0, 0.0, 0.0, 0.0)",6.4526488408560905,0.8613758231880564,-0.10197904602934349,"(0.0, 0.0, 0.0, 0.0, 0.0, 0.0)",0.36782252911949487,False,,,,,False,,,,
61,Move,,,"(6.525734425186348e-05, 0.17034549853437667, 0.001059997142676121)","(1.5643418998519334, 0.00019756355969089426, -0.0007979474479338168)","[6.517878278685787e-05, 0.00034643615785784343, 0.00014510745958838623]","[-0.026750000193715096, 0.05299999937415123, 0.03999999910593033]","[0.0, -0.0, 0.6151107619663475]","[-0.06829752027988434, 0.1118030920624733, 0.03999999910593033]","[0.0, 0.0, -0.24626574387408112]","[0.026750000193715096, 0.05299999937415123, 0.03999999910593033]","[0.0, 0.0, -0.6151107619663475]","[0.06829752773046494, 0.1118030920624733, 0.03999999910593033]","[0.0, -0.0, 0.24626510812228053]",0.59557520589455,-4.68850405628373,"(0.0, 0.0, 0.0, 0.0, 0.0, 0.0)",-45.004877301260535,-0.841587039207075,4.749443826519566,"(0.0, 0.0, 0.0, 0.0, 0.0, 0.0)",-23.059879711313982,-0.5955448471476087,4.6958097491309045,"(0.0, 0.0, 0.0, 0.0, 0.0, 0.0)",43.2331221848827,0.8422035798107438,-4.601338410555013,"(0.0, 0.0, 0.0, 0.0, 0.0, 0.0)",22.069611273367745,True,"(-0.03288698015965098, 0.18306432161630465, 0.039999948285931244)","(0.9999999985648672, -1.399717339714095e-05, -5.171406875791205e-05)",0.0009292587523792685,356.63318049990795,True,"(0.032887031061809374, 0.18306436848012048, 0.04000005171406876)","(-0.9999999985648671, 1.3997173395198976e-05, 5.171406875668148e-05)",0.0009247539911204204,342.7710504396539
62,Move,"(0.0028, 0.0, -0.0019)","(0.0, 0.03882310388136187, 0.0)","(0.00016176697229314485, 0.17076934431250207, 0.001298992481510786)","(1.553459115144406, 0.0004787126916021603, -0.0016283617000435679)","[0.00016168841082813925, 0.0007702819359832469, 0.0003841027984230513]","[-0.026750000193715096, 0.05299999937415123, 0.03999999910593033]","[0.0, -0.0, 0.5955751094143519]","[-0.06714092195034027, 0.11260347068309784, 0.03999999910593033]","[0.0, 0.0, -0.24601185159459507]","[0.026750000193715096, 0.05299999937415123, 0.03999999910593033]","[0.0, 0.0, -0.5955448282145998]","[0.06713911145925522, 0.11260469257831573, 0.03999999910593033]","[0.0, -0.0, 0.24665872904210193]",0.5770970782178444,-4.434750642409365,"(0.0, 0.0, 0.0, 0.0, 0.0, 0.0)",-74.21698749878065,-0.811850997818181,7.136649933334551,"(0.0, 0.0, 0.0, 0.0, 0.0, 0.0)",-37.92588619525253,-0.5770027641966642,4.450099908226674,"(0.0, 0.0, 0.0, 0.0, 0.0, 0.0)",71.59541053355323,0.8135423707664626,-6.878690170627483,"(0.0, 0.0, 0.0, 0.0, 0.0, 0.0)",36.485404729774935,True,"(-0.03174847742362094, 0.1838726496858637, 0.03999980243644159)","(0.9999996621242782, -0.0007979473476813144, -0.0001975635584110712)",-0.00012778812911608492,569.3446982775357,True,"(0.031700570614753176, 0.18385320841010633, 0.0400001975635584)","(-0.9999996621242783, 0.0007979473476767542, 0.0001975635584049517)",-0.0003431682129125587,549.2893233704585
63,Move,"(0.0032, 0.0, -0.0023)","(0.0, 0.03468318289563132, 0.0)","(0.00023884370787775227, 0.171090421627108, 0.0015704817755334652)","(1.5452720146810452, 0.00043281329164198985, -0.0021958730593786674)","[0.00023876514641274667, 0.0010913592505891745, 0.0006555920924457305]","[-0.026750000193715096, 0.05299999937415123, 0.03999999910593033]","[0.0, -0.0, 0.5770971029289548]","[-0.06603273004293442, 0.11333960294723511, 0.03999999910593033]","[0.0, 0.0, -0.23475391897699402]","[0.026750000193715096, 0.05299999937415123, 0.03999999910593033]","[0.0, 0.0, -0.5770027543990871]","[0.06602703779935837, 0.11334330588579178, 0.03999999910593033]","[0.0, -0.0, 0.23653961426052006]",0.5784038701702496,0.31363006857724685,"(0.0, 0.0, 0.0, 0.0, 0.0, 0.0)",6.110650031128181,-0.8148246019570704,-0.7136649933334551,"(0.0, 0.0, 0.0, 0.0, 0.0, 0.0)",-0.33955677927431277,-0.5796939320506574,-0.6458802849583893,"(0.0, 0.0, 0.0, 0.0, 0.0, 0.0)",-6.624760857186386,0.8164066232078154,0.6874205859246771,"(0.0, 0.0, 0.0, 0.0, 0.0, 0.0)",0.2867125514064282,True,"(-0.03144479909141533, 0.18499061278782541, 0.039999521287326686)","(0.9999985596366134, -0.0016283607938474471, -0.0004787126733201028)",-0.00031179486038545077,0.0,True,"(0.0313112124765586, 0.1849374824167095, 0.040000478712673315)","(-0.9999985596366132, 0.0016283607938671909, 0.0004787126733090728)",-0.0008521962835819142,0.20859832217460056
64,Move,"(0.0045000000000000005, 0.0, -0.0029)","(0.0, 0.021678734639021566, 0.0)","(0.00030976702149525194, 0.17132077321666211, 0.0017783252099148564)","(1.5390827665029116, 0.00039481475149278424, -0.0024562984880892023)","[0.00030968846003024634, 0.001321710840143292, 0.0008634355268271217]","[-0.026750000193715096, 0.05299999937415123, 0.03999999910593033]","[0.0, -0.0, 0.578403838523182]","[-0.06611154228448868, 0.11328821629285812, 0.03999999910593033]","[0.0, 0.0, -0.23642074617735595]","[0.026750000193715096, 0.05299999937415123, 0.03999999910593033]","[0.0, 0.0, -0.5796939808983426]","[0.06618928909301758, 0.11323738843202591, 0.03999999910593033]","[0.0, -0.0, 0.2367127184956024]",0.5777122407796395,-0.16599105374644607,"(0.0, 0.0, 0.0, 0.0, 0.0, 0.0)",-1.1569951081870218,-0.814259337891135,0.13566337582449361,"(0.0, 0.0, 0.0, 0.0, 0.0, 0.0)",-0.2831740828083622,-0.5804089039368514,-0.17159325268655845,"(0.0, 0.0, 0.0, 0.0, 0.0, 0.0)",1.1137707145005793,0.8158640504341894,-0.13021746567025239,"(0.0, 0.0, 0.0, 0.0, 0.0, 0.0)",0.261963321005722,True,"(-0.03140423311181034, 0.18488257513737077, 0.03999956718672188)","(0.9999974954082768, -0.002195871089014106, -0.00043281327812013943)",-0.0002700832125003444,4.166843824724587,True,"(0.03146107401377603, 0.18482629367837405, 0.04000043281327813)","(-0.9999974954082769, 0.0021958710890081887, 0.0004328132781282662)",-0.0007846422792287809,3.868144177656126
65,Move,"(0.0032, 0.0, -0.0043)","(0.0, 0.004553564018453207, 0.0)","(0.0004070012607088694, 0.17142079631835902, 0.0018988912456409845)","(1.5356521206071894, 0.0003945138157149587, -0.002600842964570361)","[0.0004069226992438638, 0.0014217339418401975, 0.0009840015625532498]","[-0.026750000193715096, 0.05299999937415123, 0.03999999910593033]","[0.0, -0.0, 0.5777122486521712]","[-0.0660698413848877, 0.11331542581319809, 0.03999999910593033]","[0.0, 0.0, -0.23654708093058988]","[0.026750000193715096, 0.05299999937415123, 0.03999999910593033]","[0.0, 0.0, -0.5804089309095641]","[0.0662323459982872, 0.11320917308330536, 0.03999999910593033]","[0.0, -0.0, 0.23545515156528105]",0.5766676140536219,-0.25071041424421986,"(0.0, 0.0, 0.0, 0.0, 0.0, 0.0)",-2.0213339703437865,-0.8134466724795117,0.19503969878958116,"(0.0, 0.0, 0.0, 0.0, 0.0, 0.0)",-1.1154409721382492,-0.5811886600057571,-0.18714145653736,"(0.0, 0.0, 0.0, 0.0, 0.0, 0.0)",1.2949452966301258,0.8151946447673204,-0.16065736004855494,"(0.0, 0.0, 0.0, 0.0, 0.0, 0.0)",0.7663756437199478,True,"(-0.03135348013729443, 0.18490526388548478, 0.03999960518525877)","(0.9999969053612776, -0.0024562958266671478, -0.0003948147412319859)",-0.00024839216380133676,14.511144744310894,True,"(0.031594182690586295, 0.1848406988505542, 0.04000039481474124)","(-0.9999969053612776, 0.0024562958266796508, 0.0003948147412411907)",-0.0007239799070858818,10.069327027693172
66,Move,"(0.004200000000000001, 0.0, -0.0050999999999999995)","(0.0, 0.0039671333897831115, 0.0)","(0.0004663703209844752, 0.17143467783429092, 0.0019423749001411341)","(1.5346521567870022, 0.00041055045115871616, -0.0018265517531071884)","[0.0004662917595194696, 0.0014356154577720992, 0.0010274852170533994]","[-0.026750000193715096, 0.05299999937415123, 0.03999999910593033]","[0.0, -0.0, 0.5766676865875058]","[-0.06600680947303772, 0.11335646361112595, 0.03999999910593033]","[0.0, 0.0, -0.2367790498860916]","[0.026750000193715096, 0.05299999937415123, 0.03999999910593033]","[0.0, 0.0, -0.581188667333287]","[0.06627928465604782, 0.11317836493253708, 0.03999999910593033]","[0.0, -0.0, 0.23400600393488066]",0.5759395105421533,-0.174744842752451,"(0.0, 0.0, 0.0, 0.0, 0.0, 0.0)",-1.905364360087273,-0.8126280346447046,0.19647308035372085,"(0.0, 0.0, 0.0, 0.0, 0.0, 0.0)",-1.0829631902485315,-0.5815265659965938,-0.08109743780081231,"(0.0, 0.0, 0.0, 0.0, 0.0, 0.0)",1.8165804793139873,0.8144987072465495,-0.16702500498501566,"(0.0, 0.0, 0.0, 0.0, 0.0, 0.0)",0.9609658919547701,True,"(-0.03127384622144484, 0.18493833816187394, 0.03999960548619452)","(0.9999965399895321, -0.002600839829992427, -0.0003945138054782671)",-0.00022907310369425088,15.286059136609268,True,"(0.03174495690902123, 0.18485871040848292, 0.04000039451380547)","(-0.9999965399895321, 0.0026008398299861963, 0.0003945138054738937)",-0.0006721334013694438,12.644696625239568
67,Move,"(0.0048, 0.0, -0.0057)","(0.0, 0.008576547944300137, 0.0)","(0.0005492806809274501, 0.17146339812266287, 0.0019426182497995492)","(1.5350158659682016, 0.0004265881704070269, -0.0017774810893993803)","[0.0005492021194624445, 0.0014643357461440465, 0.0010277285667118145]","[-0.026750000193715096, 0.05299999937415123, 0.03999999910593033]","[0.0, -0.0, 0.575939625443883]","[-0.06596285104751587, 0.11338502913713455, 0.03999999910593033]","[0.0, 0.0, -0.23668848292849132]","[0.026750000193715096, 0.05299999937415123, 0.03999999910593033]","[0.0, 0.0, -0.5815266111378816]","[0.06629961729049683, 0.1131650060415268, 0.03999999910593033]","[0.0, -0.0, 0.23297213112155116]",0.5749160688399269,-0.24562600853434244,"(0.0, 0.0, 0.0, 0.0, 0.0, 0.0)",-2.6380620770539878,-0.8117569455480947,0.20906138318635428,"(0.0, 0.0, 0.0, 0.0, 0.0, 0.0)",-1.2654239950577626,-0.5820286390386294,-0.1204975300885599,"(0.0, 0.0, 0.0, 0.0, 0.0, 0.0)",1.4850640930036159,0.8137543159117091,-0.17865392036169464,"(0.0, 0.0, 0.0, 0.0, 0.0, 0.0)",0.8007018357452392,True,"(-0.031236369348478676, 0.18497073316988527, 0.039999589449560384)","(0.9999982475791156, -0.0018265505835254564, -0.00041055043961853356)",-0.00021696637992471015,19.10069515877805,True,"(0.03183940905259425, 0.18487920643944009, 0.04000041055043961)","(-0.9999982475791157, 0.0018265505835150608, 0.000410550439613962)",-0.0006271972907757165,11.675121279716672
68,Move,"(0.005200000000000001, 0.0, -0.005900000000000001)","(0.0, 0.017139133254584316, 0.0)","(0.0006600134128483052, 0.17153049770113002, 0.0019308460072292493)","(1.535888164257467, 0.0004223722863596639, -0.001881315630254214)","[0.0006599348513832996, 0.0015314353246111967, 0.0010159563241415146]","[-0.026750000193715096, 0.05299999937415123, 0.03999999910593033]","[0.0, -0.0, 0.5749160920601262]","[-0.06590103358030319, 0.11342513561248779, 0.03999999910593033]","[0.0, 0.0, -0.23684090069995384]","[0.026750000193715096, 0.05299999937415123, 0.03999999910593033]","[0.0, 0.0, -0.5820286229520758]","[0.06632981449365616, 0.1131451427936554, 0.03999999910593033]","[0.0, -0.0, 0.2317256523942225]",0.5737002048173834,-0.29180736541043223,"(0.0, 0.0, 0.0, 0.0, 0.0, 0.0)",-2.5335585144424995,-0.8108646097828148,0.2141605836671835,"(0.0, 0.0, 0.0, 0.0, 0.0, 0.0)",-1.2938455452520665,-0.5825839635851107,-0.1332778911554963,"(0.0, 0.0, 0.0, 0.0, 0.0, 0.0)",2.02180006609609,0.8127603405495073,-0.23855408692844196,"(0.0, 0.0, 0.0, 0.0, 0.0, 0.0)",1.037110941125997,True,"(-0.0311636420266828, 0.18500574353052684, 0.03999957341184253)","(0.9999983292923158, -0.0017774799916960458, -0.00042658815747237833)",-0.00020682356980963892,18.63625485931508,True,"(0.03195902410195117, 0.1849009442286531, 0.04000042658815748)","(-0.999998329292316, 0.0017774799916946318, 0.0004265881574761403)",-0.0005904282239339941,15.452157572406483
69,Move,"(0.0053, 0.0, -0.006200000000000001)","(0.0, 0.008576547944300137, 0.0)","(0.0007813554060211705, 0.17161800012263992, 0.0019052455033100808)","(1.5373760603818862, 0.0005814321876533276, -0.002050286674268044)","[0.0007812768445561649, 0.0016189377461210963, 0.000990355820222346]","[-0.026750000193715096, 0.05299999937415123, 0.03999999910593033]","[0.0, -0.0, 0.5737002166664353]","[-0.06582753360271454, 0.11347269266843796, 0.03999999910593033]","[0.0, 0.0, -0.23716441175440625]","[0.026750000193715096, 0.05299999937415123, 0.03999999910593033]","[0.0, 0.0, -0.5825839575455909]","[0.06636320799589157, 0.11312315613031387, 0.03999999910593033]","[0.0, -0.0, 0.23017637698117055]",0.5723768979961931,-0.31759363708567706,"(0.0, 0.0, 0.0, 0.0, 0.0, 0.0)",-2.404861334074385,-0.8100126435393062,0.20447189844206828,"(0.0, 0.0, 0.0, 0.0, 0.0, 0.0)",-1.2658431574185867,-0.583203304811913,-0.14864189443255785,"(0.0, 0.0, 0.0, 0.0, 0.0, 0.0)",2.22898707238652,0.8116824473594175,-0.25869436562153647,"(0.0, 0.0, 0.0, 0.0, 0.0, 0.0)",1.1935384941817955,True,"(-0.031066987390425946, 0.185042278607432, 0.0399995776277262)","(0.9999981411272566, -0.0018813143526810762, -0.00042237227379730656)",-0.00019155827787911635,17.896597360430285,True,"(0.032103626769709875, 0.18493067437849964, 0.04000042237227378)","(-0.9999981411272566, 0.0018813143526823827, 0.00042237227378272383)",-0.0005577337598384542,17.05443277260898
70,Move,"(0.0054, 0.0, -0.0063)","(0.0, 0.008576547944300137, 0.0)","(0.0008989690575768444, 0.17172389067999888, 0.001860649644341196)","(1.539452922348997, 0.0006623277172814264, -0.0021328764366580857)","[0.0008988904961118388, 0.0017248283034800582, 0.0009457599612534614]","[-0.026750000193715096, 0.05299999937415123, 0.03999999910593033]","[0.0, -0.0, 0.572376821912234]","[-0.06574747711420059, 0.11352434754371643, 0.03999999910593033]","[0.0, 0.0, -0.23763576984121176]","[0.026750000193715096, 0.05299999937415123, 0.03999999910593033]","[0.0, 0.0, -0.5832033480671374]","[0.0664004385471344, 0.11309860646724701, 0.03999999910593033]","[0.0, -0.0, 0.22847913600727907]",0.5710716134675867,-0.3132682868655112,"(0.0, 0.0, 0.0, 0.0, 0.0, 0.0)",-2.3503202406711634,-0.8091475667889299,0.20761842009033216,"(0.0, 0.0, 0.0, 0.0, 0.0, 0.0)",-1.2582631507251185,-0.5837517997456124,-0.13163878408786614,"(0.0, 0.0, 0.0, 0.0, 0.0, 0.0)",2.409470759681224,0.810616243892075,-0.25588883216222025,"(0.0, 0.0, 0.0, 0.0, 0.0, 0.0)",1.2790283372794067,True,"(-0.03095319890120804, 0.18507784757652473, 0.039999418567845106)","(0.9999977291316784, -0.0020502848912499036, -0.0005814321548886739)",-0.0001757712475386526,17.82619606225982,True,"(0.03226277517866531, 0.18496264359067888, 0.0400005814321549)","(-0.9999977291316784, 0.0020502848912408705, 0.0005814321548993927)",-0.0005281610804376356,18.04709210657952
71,Move,"(0.0057, 0.0, -0.006500000000000001)","(0.0, 0.008576547944300137, 0.0)","(0.001016616705060547, 0.171847171411769, 0.0017959161935190856)","(1.5421230358063198, 0.0007362638000332646, -0.0022075227021972504)","[0.0010165381435955413, 0.0018481090352501783, 0.0008810265104313509]","[-0.026750000193715096, 0.05299999937415123, 0.03999999910593033]","[0.0, -0.0, 0.5710716348387593]","[-0.06566844135522842, 0.11357519775629044, 0.03999999910593033]","[0.0, 0.0, -0.2380759744607708]","[0.026750000193715096, 0.05299999937415123, 0.03999999910593033]","[0.0, 0.0, -0.583751820372994]","[0.06643339991569519, 0.11307685077190399, 0.03999999910593033]","[0.0, -0.0, 0.22686443290350297]",0.5697627935492372,-0.31411678040387836,"(0.0, 0.0, 0.0, 0.0, 0.0, 0.0)",-2.354101686287116,-0.8082836817146928,0.20733241781688616,"(0.0, 0.0, 0.0, 0.0, 0.0, 0.0)",-1.2569678106355051,-0.584289433188742,-0.12903202635110878,"(0.0, 0.0, 0.0, 0.0, 0.0, 0.0)",2.3554838615687483,0.8095624173474806,-0.2529183707026476,"(0.0, 0.0, 0.0, 0.0, 0.0, 0.0)",1.2617277287732205,True,"(-0.030842668395886022, 0.1851137327792038, 0.03999933767233113)","(0.9999975060814196, -0.002132874351704683, -0.0006623276688643608)",-0.00016462173725575988,17.79020907067852,True,"(0.032411811800334624, 0.18499438271001226, 0.04000066232766886)","(-0.9999975060814196, 0.0021328743517069846, 0.0006623276688600729)",-0.0005008005142630492,17.7950706965878
72,Move,"(0.0055, 0.0, -0.0063)","(0.0, 0.004593706591249077, 0.0)","(0.0011375736704765428, 0.17198866326041012, 0.0017135102691585775)","(1.5453801147305133, 0.0008667936580573252, -0.002319411080426597)","[0.001137495109011537, 0.0019896008838913015, 0.0007986205860708428]","[-0.026750000193715096, 0.05299999937415123, 0.03999999910593033]","[0.0, -0.0, 0.5697628012128293]","[-0.06558912992477417, 0.11362608522176743, 0.03999999910593033]","[0.0, 0.0, -0.2385208777353856]","[0.026750000193715096, 0.05299999937415123, 0.03999999910593033]","[0.0, 0.0, -0.5842894567420481]","[0.06646569073200226, 0.1130555048584938, 0.03999999910593033]","[0.0, -0.0, 0.22527299269211876]",0.568392414123004,-0.3288910622959751,"(0.0, 0.0, 0.0, 0.0, 0.0, 0.0)",-2.4258565038814957,-0.8074009238777552,0.21186188086502314,"(0.0, 0.0, 0.0, 0.0, 0.0, 0.0)",-1.2847894449373585,-0.5848444787372411,-0.13321093163976983,"(0.0, 0.0, 0.0, 0.0, 0.0, 0.0)",2.371740057666146,0.8084898353914338,-0.25741966945122857,"(0.0, 0.0, 0.0, 0.0, 0.0, 0.0)",1.274427406528129,True,"(-0.0307315256848546, 0.18514948612147722, 0.03999926373626648)","(0.9999972923812301, -0.002207520310929067, -0.0007362637335187561)",-0.00015444989153323298,18.17704491926801,True,"(0.03255859785182011, 0.18502557499634031, 0.04000073626373351)","(-0.9999972923812301, 0.0022075203109358133, 0.000736263733513422)",-0.00047532386272313955,17.99418091647632
73,Move,"(0.0060999999999999995, 0.0, -0.006500000000000001)","(0.0, 0.004593706591249077, 0.0)","(0.0012525160913126466, 0.1721451831899244, 0.0016047555321770622)","(1.549220443416745, 0.0008622894136449884, -0.0023449084893832762)","[0.001252437529847641, 0.0021461208134055665, 0.0006898658490893275]","[-0.026750000193715096, 0.05299999937415123, 0.03999999910593033]","[0.0, -0.0, 0.5683924376892064]","[-0.06550601124763489, 0.11367925256490707, 0.03999999910593033]","[0.0, 0.0, -0.23900851502538809]","[0.026750000193715096, 0.05299999937415123, 0.03999999910593033]","[0.0, 0.0, -0.5848444833485124]","[0.0664990171790123, 0.11303345113992691, 0.03999999910593033]","[0.0, -0.0, 0.2236453823886593]",0.5671415112771698,-0.3002166830002162,"(0.0, 0.0, 0.0, 0.0, 0.0, 0.0)",-2.1788285085271912,-0.8065495066441093,0.2043401360750219,"(0.0, 0.0, 0.0, 0.0, 0.0, 0.0)",-1.1833862110985627,-0.5853408165103527,-0.11912106554679766,"(0.0, 0.0, 0.0, 0.0, 0.0, 0.0)",2.2853541996857802,0.8074969197539648,-0.23829975299256784,"(0.0, 0.0, 0.0, 0.0, 0.0, 0.0)",1.2199804015955833,True,"(-0.030613535456226276, 0.18518602343061233, 0.03999913320645049)","(0.9999969345027372, -0.002319408129494148, -0.0008667935495151078)",-0.00014519159954821858,16.778061886231928,True,"(0.03270910603886448, 0.1850570987612536, 0.04000086679354951)","(-0.9999969345027371, 0.002319408129490355, 0.0008667935495073363)",-0.00045206187204270624,17.116823999381644
74,Move,"(0.006500000000000001, 0.0, -0.0067)","(0.0, 0.01321039710834508, 0.0)","(0.0013771046628584544, 0.17231746034884368, 0.0014797432738752163)","(1.5536849694686017, 0.0009825133203648971, -0.00254148551607507)","[0.0013770261013934487, 0.0023183979723248593, 0.0005648535907874816]","[-0.026750000193715096, 0.05299999937415123, 0.03999999910593033]","[0.0, -0.0, 0.5671415507113458]","[-0.06543007493019104, 0.11372768133878708, 0.03999999910593033]","[0.0, 0.0, -0.23940801065575898]","[0.026750000193715096, 0.05299999937415123, 0.03999999910593033]","[0.0, 0.0, -0.5853408661875794]","[0.0665288120508194, 0.11301371455192566, 0.03999999910593033]","[0.0, -0.0, 0.2221560926139878]",0.5657520621190247,-0.333467797954823,"(0.0, 0.0, 0.0, 0.0, 0.0, 0.0)",-2.386976728861876,-0.8056838389320422,0.20776025089609002,"(0.0, 0.0, 0.0, 0.0, 0.0, 0.0)",-1.2502601654390804,-0.5859211982251797,-0.13929161155846864,"(0.0, 0.0, 0.0, 0.0, 0.0, 0.0)",2.2149081864479125,0.8064596995497743,-0.2489328490057199,"(0.0, 0.0, 0.0, 0.0, 0.0, 0.0)",1.1988447460450173,True,"(-0.030509037212779394, 0.18522088518728205, 0.039999137710693224)","(0.9999968789328768, -0.002344905468662809, -0.000862289306777065)",-0.00013477666431510482,17.667637810637743,True,"(0.03284619239597838, 0.18508614053476294, 0.040000862289306785)","(-0.9999968789328767, 0.0023449054686579067, 0.0008622893067878609)",-0.00042987536402605575,16.97815982402706
75,Move,"(0.007, 0.0, -0.0067)","(0.0, 0.021800907686661174, 0.0)","(0.0015087406186524857, 0.17250799644296427, 0.0013393571015821273)","(1.5587236181608581, 0.0012027879819853122, -0.0028161497596498903)","[0.00150866205718748, 0.0025089340664454507, 0.00042446741849439256]","[-0.026750000193715096, 0.05299999937415123, 0.03999999910593033]","[0.0, -0.0, 0.565752151896283]","[-0.0653456598520279, 0.11378137022256851, 0.03999999910593033]","[0.0, 0.0, -0.2399318118691765]","[0.026750000193715096, 0.05299999937415123, 0.03999999910593033]","[0.0, 0.0, -0.5859211386070386]","[0.06656363606452942, 0.1129906177520752, 0.03999999910593033]","[0.0, -0.0, 0.22053850242837822]",0.5642528472777768,-0.3598115618995128,"(0.0, 0.0, 0.0, 0.0, 0.0, 0.0)",-2.4333502034714516,-0.8047915279331112,0.21415463974345172,"(0.0, 0.0, 0.0, 0.0, 0.0, 0.0)",-1.2786398780310277,-0.5865586502737795,-0.15298849166393944,"(0.0, 0.0, 0.0, 0.0, 0.0, 0.0)",2.3100270368216775,0.8053913155620785,-0.2564121570469672,"(0.0, 0.0, 0.0, 0.0, 0.0, 0.0)",1.245428619994199,True,"(-0.03038717907805008, 0.1852565969549128, 0.03999901748683771)","(0.9999962877628094, -0.0025414815534200107, -0.0009825131622942566)",-0.0001251030935101529,18.0917882526869,True,"(0.03299764055610774, 0.18511601326853072, 0.040000982513162295)","(-0.9999962877628095, 0.0025414815534175314, 0.0009825131622956248)",-0.00040995558919694225,17.6178100674785
76,Move,"(0.0077, 0.0, -0.0070999999999999995)","(0.0, 0.025689501260104535, 0.0)","(0.0016486268423069625, 0.17271624308138472, 0.001183984342159231)","(1.5643367101196983, 0.00153784805538421, -0.003187069186704943)","[0.0016485482808419568, 0.0027171807048659014, 0.00026909465907149627]","[-0.026750000193715096, 0.05299999937415123, 0.03999999910593033]","[0.0, -0.0, 0.5642528265391827]","[-0.06525449454784393, 0.11383916437625885, 0.03999999910593033]","[0.0, 0.0, -0.24053869826584434]","[0.026750000193715096, 0.05299999937415123, 0.03999999910593033]","[0.0, 0.0, -0.5865586734922389]","[0.06660186499357224, 0.11296522617340088, 0.03999999910593033]","[0.0, -0.0, 0.21883270493778245]",0.5626481068687268,-0.3851376981719999,"(0.0, 0.0, 0.0, 0.0, 0.0, 0.0)",-2.426956597289514,-0.8039059582206964,0.21253673097952056,"(0.0, 0.0, 0.0, 0.0, 0.0, 0.0)",-1.275948591170096,-0.5872946246079918,-0.17663384021094486,"(0.0, 0.0, 0.0, 0.0, 0.0, 0.0)",2.2789168471992087,0.8043322977801163,-0.25416426767093675,"(0.0, 0.0, 0.0, 0.0, 0.0, 0.0)",1.236273458146171,True,"(-0.03025263850628372, 0.18529349445320276, 0.03999879721230803)","(0.9999953113063771, -0.00281614400025258, -0.001202787691973605)",-0.0001162640809647842,18.042708119479396,True,"(0.03315895166665993, 0.18514634375376365, 0.04000120278769197)","(-0.9999953113063771, 0.002816144000255151, 0.0012027876919680396)",-0.00039202993700871856,17.480818358075076
77,Move,"(0.0105, 0.0, -0.0068)","(0.0, 0.034222415973104825, 0.0)","(0.0017972551507670544, 0.17293958086189323, 0.0010355434622500452)","(1.5702398606685002, 0.0019146252275265843, -0.0038784294262421783)","[0.0017971765893020487, 0.0029405184853744104, 0.00012065377916231049]","[-0.026750000193715096, 0.05299999937415123, 0.03999999910593033]","[0.0, -0.0, 0.5626480997960788]","[-0.06515680998563766, 0.11390087753534317, 0.03999999910593033]","[0.0, 0.0, -0.241257855350166]","[0.026750000193715096, 0.05299999937415123, 0.03999999910593033]","[0.0, 0.0, -0.5872946680059448]","[0.06664598733186722, 0.1129358783364296, 0.03999999910593033]","[0.0, -0.0, 0.2170376814334136]",0.5608699658837047,-0.4267538364053033,"(0.0, 0.0, 0.0, 0.0, 0.0, 0.0)",-2.6383279586302666,-0.8029696721465982,0.22470865778357596,"(0.0, 0.0, 0.0, 0.0, 0.0, 0.0)",-1.3818834031751346,-0.5880985937412873,-0.19295259199091436,"(0.0, 0.0, 0.0, 0.0, 0.0, 0.0)",2.4563243634951744,0.803240383860662,-0.2620593406690334,"(0.0, 0.0, 0.0, 0.0, 0.0, 0.0)",1.3194952111493812,True,"(-0.03010357838822058, 0.1853303632728851, 0.03999846215255078)","(0.9999937388172162, -0.0031870600226488787, -0.0015378474492216878)",-0.00010810006073718726,19.46731919558664,True,"(0.03333268698561899, 0.18517548695794367, 0.04000153784744922)","(-0.9999937388172163, 0.003187060022650201, 0.0015378474492204373)",-0.0003755412588752017,18.736190584823632
78,Move,"(0.0103, 0.0, -0.0068)","(0.0, 0.034222415973104825, 0.0)","(0.0019586765399983745, 0.1730822448542377, 0.0009755723138058285)","(1.5739607352105893, 0.0036027395852098664, -0.004805168321460806)","[0.0019585979785333688, 0.003083182477718882, 6.06826307180938e-05]","[-0.026750000193715096, 0.05299999937415123, 0.03999999910593033]","[0.0, -0.0, 0.5608699949021969]","[-0.0650484636425972, 0.11396907269954681, 0.03999999910593033]","[0.0, 0.0, -0.24209973601527535]","[0.026750000193715096, 0.05299999937415123, 0.03999999910593033]","[0.0, 0.0, -0.5880986698568255]","[0.06669416278600693, 0.11290378868579865, 0.03999999910593033]","[0.0, -0.0, 0.21514179290911528]",0.5585225112831881,-0.5633891041240098,"(0.0, 0.0, 0.0, 0.0, 0.0, 0.0)",-3.044282301811508,-0.8018898430469698,0.25915898391083336,"(0.0, 0.0, 0.0, 0.0, 0.0, 0.0)",-1.527452338011964,-0.589508665663676,-0.33841726137330824,"(0.0, 0.0, 0.0, 0.0, 0.0, 0.0)",1.7943449257963453,0.8023332760406523,-0.21770587680232806,"(0.0, 0.0, 0.0, 0.0, 0.0, 0.0)",1.0534192587043967,True,"(-0.02993510660364422, 0.18536917513712514, 0.039998085375942245)","(0.999990646021485, -0.0038784125941524064, -0.0019146240577542352)",-0.00010512854312293675,21.505755413952038,True,"(0.03351787357036966, 0.1852052161965346, 0.04000191462405775)","(-0.999990646021485, 0.0038784125941597517, 0.0019146240577556713)",-0.00036185462938845357,15.118894588834701
79,Move,"(0.010199999999999999, 0.0, -0.007)","(0.0, 0.034222415973104825, 0.0)","(0.002121240905943564, 0.17319520471443764, 0.0009925449938157538)","(1.5737556291907484, 0.0038096801590825715, -0.008758044710957771)","[0.0021211623444785583, 0.003196142337918817, 7.76553107280191e-05]","[-0.026750000193715096, 0.05299999937415123, 0.03999999910593033]","[0.0, -0.0, 0.5585226116511071]","[-0.06490523368120193, 0.11405880749225616, 0.03999999910593033]","[0.0, 0.0, -0.24336732396994318]","[0.026750000193715096, 0.05299999937415123, 0.03999999910593033]","[0.0, 0.0, -0.5895086612494926]","[0.06677859276533127, 0.11284740269184113, 0.03999999910593033]","[0.0, -0.0, 0.2128245793202158]",0.5562984703329319,-0.5337698280614803,"(0.0, 0.0, 0.0, 0.0, 0.0, 0.0)",-2.954082926712273,-0.8006519059318269,0.29710490763427994,"(0.0, 0.0, 0.0, 0.0, 0.0, 0.0)",-1.8076948775210562,-0.5907855263507888,-0.306446564907077,"(0.0, 0.0, 0.0, 0.0, 0.0, 0.0)",1.802689013127546,0.8015216340399051,-0.19479408017934752,"(0.0, 0.0, 0.0, 0.0, 0.0, 0.0)",0.8994079779606613,True,"(-0.029701401688061416, 0.18541468393466953, 0.03999639726820856)","(0.9999819654165996, -0.004805118645132699, -0.0036027317914400087)",-0.00010065153748513074,22.821390701841352,True,"(0.03376992381293925, 0.1852241233331456, 0.04000360273179145)","(-0.9999819654165996, 0.004805118645132865, 0.003602731791450632)",-0.0003482763110423741,13.163275379052418
80,Move,"(0.0101, 0.0, -0.0070999999999999995)","(0.0, 0.034222415973104825, 0.0)","(0.002307608877191221, 0.173244590392915, 0.000999094032714848)","(1.5735471593614163, 0.003774736836687822, -0.01039874382892941)","[0.0023075303157262155, 0.0032455280163961875, 8.420434962711333e-05]","[-0.026750000193715096, 0.05299999937415123, 0.03999999910593033]","[0.0, -0.0, 0.5562984664665435]","[-0.06476934254169464, 0.11414351314306259, 0.03999999910593033]","[0.0, 0.0, -0.24435344098707376]","[0.026750000193715096, 0.05299999937415123, 0.03999999910593033]","[0.0, 0.0, -0.590785507574056]","[0.06685497611761093, 0.11279624700546265, 0.03999999910593033]","[0.0, -0.0, 0.2107361318297613]",0.5541164123002792,-0.5236939278366439,"(0.0, 0.0, 0.0, 0.0, 0.0, 0.0)",-2.976963423660817,-0.7993222692571109,0.31911280193182784,"(0.0, 0.0, 0.0, 0.0, 0.0, 0.0)",-1.8216446372214588,-0.5919578069399517,-0.2813473413990818,"(0.0, 0.0, 0.0, 0.0, 0.0, 0.0)",1.9802530668270641,0.800649811037419,-0.2092375205966801,"(0.0, 0.0, 0.0, 0.0, 0.0, 0.0)",0.9885608479430494,True,"(-0.029495185318737766, 0.18546167566989913, 0.039996190329056304)","(0.9999543920271907, -0.008757869194734952, -0.003809670943698797)",-8.899572276658893e-05,22.77721035839327,True,"(0.033997554168459954, 0.18524360871762374, 0.040003809670943684)","(-0.9999543920271907, 0.008757869194741991, 0.0038096709436832494)",-0.00033927816807505153,14.59839609959796
81,Move,"(0.0101, 0.0, -0.0073)","(0.0, 0.034222415973104825, 0.0)","(0.0025098425272639144, 0.17326352339112325, 0.0010037285089537777)","(1.573306242157152, 0.0037136708678602833, -0.01085114059636803)","[0.0025097639657989087, 0.003264461014604425, 8.883882586604303e-05]","[-0.026750000193715096, 0.05299999937415123, 0.03999999910593033]","[0.0, -0.0, 0.5541164039177525]","[-0.06463583558797836, 0.114226333796978, 0.03999999910593033]","[0.0, 0.0, -0.24520586064541575]","[0.026750000193715096, 0.05299999937415123, 0.03999999910593033]","[0.0, 0.0, -0.5919577999482172]","[0.066925048828125, 0.11274918913841248, 0.03999999910593033]","[0.0, -0.0, 0.20869199757147616]",0.5519830361979579,-0.5120102645571174,"(0.0, 0.0, 0.0, 0.0, 0.0, 0.0)",-2.943267521193274,-0.7982631639466625,0.2541852745076115,"(0.0, 0.0, 0.0, 0.0, 0.0, 0.0)",-1.7198820289092642,-0.593097523850671,-0.2735320585726321,"(0.0, 0.0, 0.0, 0.0, 0.0, 0.0)",1.9881041915838134,0.7997198421494364,-0.22319253311582246,"(0.0, 0.0, 0.0, 0.0, 0.0, 0.0)",1.0167308627795066,True,"(-0.029300903665898437, 0.185513607866446, 0.03999622527212744)","(0.9999388096251464, -0.010398482337990218, -0.0037747278725558855)",-7.86380626802687e-05,22.38579178157756,True,"(0.03421577862340824, 0.18526316255179054, 0.04000377472787256)","(-0.9999388096251461, 0.01039848233799918, 0.0037747278725608056)",-0.00032598888113330297,14.85957073235608
82,Move,"(0.0103, 0.0, -0.0073)","(0.0, 0.034222415973104825, 0.0)","(0.002709635122705176, 0.17328610147560636, 0.0010080199023749447)","(1.5730862966347297, 0.0036557306628026897, -0.011251251126886618)","[0.0027095565612401703, 0.0032870390990875353, 9.313021928721e-05]","[-0.026750000193715096, 0.05299999937415123, 0.03999999910593033]","[0.0, -0.0, 0.5519830449896825]","[-0.06450513005256653, 0.11430701613426208, 0.03999999910593033]","[0.0, 0.0, -0.24628011608471279]","[0.026750000193715096, 0.05299999937415123, 0.03999999910593033]","[0.0, 0.0, -0.5930975876202448]","[0.0669931173324585, 0.1127033606171608, 0.03999999910593033]","[0.0, -0.0, 0.20662233556367696]",0.5498561738565695,-0.510446961933215,"(0.0, 0.0, 0.0, 0.0, 0.0, 0.0)",-2.9378853574056043,-0.797165073210528,0.26354177667227596,"(0.0, 0.0, 0.0, 0.0, 0.0, 0.0)",-1.6069025740927114,-0.5941875463073898,-0.26160538961249136,"(0.0, 0.0, 0.0, 0.0, 0.0, 0.0)",2.1295463515897803,0.7987631502012104,-0.22960606757422986,"(0.0, 0.0, 0.0, 0.0, 0.0, 0.0)",1.1127268850134868,True,"(-0.029093630153583544, 0.1855569146253715, 0.03999628633766821)","(0.9999342316897973, -0.010850852824563545, -0.003713662331779293)",-8.040604270234696e-05,22.203891511521096,True,"(0.03443398168297465, 0.18528326096103592, 0.040003713662331776)","(-0.9999342316897973, 0.01085085282456709, 0.003713662331772413)",-0.00031321680892193736,15.896400518202112
83,Move,"(0.010199999999999999, 0.0, -0.0076)","(0.0, 0.034222415973104825, 0.0)","(0.0029106232388941018, 0.17330877337509926, 0.0010119684692630156)","(1.5728840949596048, 0.0036020131100279107, -0.011647193330775176)","[0.002910544677429096, 0.003309710998580434, 9.707878617528092e-05]","[-0.026750000193715096, 0.05299999937415123, 0.03999999910593033]","[0.0, -0.0, 0.5498561562718137]","[-0.0643746554851532, 0.11438717693090439, 0.03999999910593033]","[0.0, 0.0, -0.24730891799204913]","[0.026750000193715096, 0.05299999937415123, 0.03999999910593033]","[0.0, 0.0, -0.5941875134598945]","[0.06705817580223083, 0.11265946179628372, 0.03999999910593033]","[0.0, -0.0, 0.20457562776235094]",0.547727303584313,-0.5109288653415471,"(0.0, 0.0, 0.0, 0.0, 0.0, 0.0)",-2.94207292622134,-0.796077782146222,0.26094985543343824,"(0.0, 0.0, 0.0, 0.0, 0.0, 0.0)",-1.6135891733314034,-0.5952860469642005,-0.2636401576345664,"(0.0, 0.0, 0.0, 0.0, 0.0, 0.0)",2.0755203574492436,0.7978163439889097,-0.22723349095216322,"(0.0, 0.0, 0.0, 0.0, 0.0, 0.0)",1.094701786320191,True,"(-0.02888986466991382, 0.1856012364338968, 0.03999634427747996)","(0.9999300235888021, -0.011250938563265783, -0.003655722520038611)",-8.162329350161387e-05,22.200144246215917,True,"(0.034647634090365156, 0.18530420031698347, 0.04000365572252005)","(-0.9999300235888018, 0.011250938563272795, 0.0036557225200480638)",-0.00030200724343253875,15.632798528226692
84,Move,"(0.0078, 0.0, -0.0073)","(0.0, 0.038950512916757454, 0.0)","(0.0031039206144447286, 0.1733340649616678, 0.0010155537585089772)","(1.5726972255144496, 0.0035537498126257325, -0.012023935196504873)","[0.003103842052979723, 0.0033350025851489884, 0.00010066407542124248]","[-0.026750000193715096, 0.05299999937415123, 0.03999999910593033]","[0.0, -0.0, 0.547727361055328]","[-0.06424388289451599, 0.11446713656187057, 0.03999999910593033]","[0.0, 0.0, -0.24835048003500976]","[0.026750000193715096, 0.05299999937415123, 0.03999999910593033]","[0.0, 0.0, -0.5952860755624367]","[0.06712368130683899, 0.11261514574289322, 0.03999999910593033]","[0.0, -0.0, 0.20253033986820354]",0.5456291396633871,-0.5035593410222176,"(0.0, 0.0, 0.0, 0.0, 0.0, 0.0)",-3.010983265628761,-0.7949396782154287,0.2731449433904147,"(0.0, 0.0, 0.0, 0.0, 0.0, 0.0)",-1.645365633329202,-0.5962858007096333,-0.23994089890387557,"(0.0, 0.0, 0.0, 0.0, 0.0, 0.0)",2.2646323772431862,0.7968171391338035,-0.23980916522547693,"(0.0, 0.0, 0.0, 0.0, 0.0, 0.0)",1.1795560482461687,True,"(-0.028684930427950422, 0.1856448420148502, 0.039996397994679016)","(0.9999256854083468, -0.011646854438662478, -0.003602005320984899)",-8.269501422652287e-05,22.803061973447832,True,"(0.03486177342207471, 0.18532437405794655, 0.04000360200532098)","(-0.9999256854083468, 0.011646854438673115, 0.0036020053209832796)",-0.00029161546589580355,16.78215804069864
85,Move,"(0.0075, 0.0, -0.0077)","(0.0, 0.038950512916757454, 0.0)","(0.0032348231072193874, 0.1733585939565906, 0.0010189230336127598)","(1.5725259738806192, 0.0035057716969937106, -0.012212556148148182)","[0.0032347445457543817, 0.0033595315800717673, 0.00010403335052502514]","[-0.026750000193715096, 0.05299999937415123, 0.03999999910593033]","[0.0, -0.0, 0.5456291444387706]","[-0.06411483138799667, 0.11454567313194275, 0.03999999910593033]","[0.0, 0.0, -0.24931052620522073]","[0.026750000193715096, 0.05299999937415123, 0.03999999910593033]","[0.0, 0.0, -0.5962858267820482]","[0.06718326359987259, 0.1125747486948967, 0.03999999910593033]","[0.0, -0.0, 0.20053136983744152]",0.544115972887809,-0.36316002613875853,"(0.0, 0.0, 0.0, 0.0, 0.0, 0.0)",-2.3531126331469516,-0.7939699428158943,0.23273649588824868,"(0.0, 0.0, 0.0, 0.0, 0.0, 0.0)",-1.3685986621071382,-0.596804352680702,-0.12445247305646893,"(0.0, 0.0, 0.0, 0.0, 0.0, 0.0)",2.5137576540256537,0.7958259052567324,-0.23789613049706518,"(0.0, 0.0, 0.0, 0.0, 0.0, 0.0)",1.2661613561671252,True,"(-0.028487554039518304, 0.18568978671249162, 0.039996446257667496)","(0.9999213992563437, -0.012023569547765043, -0.0035537423325026026)",-8.391972060204129e-05,19.245037327089193,True,"(0.03506673980457193, 0.18534670337401182, 0.0400035537423325)","(-0.9999213992563437, 0.012023569547766145, 0.0035537423324925343)",-0.0002826803994162168,17.64553399892969
86,Move,"(0.0074, 0.0, -0.008)","(0.0, 0.038950512916757454, 0.0)","(0.0033518813666171127, 0.17338567591390294, 0.001021946064612348)","(1.5723660034945697, 0.003464883627380849, -0.01250084706930592)","[0.003351802805152107, 0.00338661353738412, 0.00010705638152461324]","[-0.026750000193715096, 0.05299999937415123, 0.03999999910593033]","[0.0, -0.0, 0.5441160434067023]","[-0.06402166187763214, 0.11460214108228683, 0.03999999910593033]","[0.0, 0.0, -0.24985395965463578]","[0.026750000193715096, 0.05299999937415123, 0.03999999910593033]","[0.0, 0.0, -0.5968043837473174]","[0.06721415370702744, 0.11255377531051636, 0.03999999910593033]","[0.0, -0.0, 0.1990215536372462]",0.5426092942113656,-0.36160288234641413,"(0.0, 0.0, 0.0, 0.0, 0.0, 0.0)",-2.943417056272629,-0.7928468159483588,0.2695504482085208,"(0.0, 0.0, 0.0, 0.0, 0.0, 0.0)",-1.5904388518756296,-0.5972177033832003,-0.09920416859959867,"(0.0, 0.0, 0.0, 0.0, 0.0, 0.0)",2.27931875075272,0.7948399677491517,-0.23662500181937665,"(0.0, 0.0, 0.0, 0.0, 0.0, 0.0)",1.1819090256107538,True,"(-0.028355721188024118, 0.18572723874639524, 0.039996494235484244)","(0.9999192829099824, -0.012212177526822894, -0.003505764515757549)",-8.431051837581085e-05,22.2258972493086,True,"(0.035207516420371524, 0.18537281368773528, 0.04000350576451576)","(-0.9999192829099826, 0.012212177526808164, 0.0035057645157607837)",-0.00027327716939531564,16.846198260437838
87,Move,"(0.007, 0.0, -0.0085)","(0.0, 0.038950512916757454, 0.0)","(0.003464644043766898, 0.17341454165181017, 0.0010246644794270328)","(1.5722172154511773, 0.003429104223431593, -0.012788236240728694)","[0.003464565482301892, 0.0034154792752913443, 0.00010977479633929809]","[-0.026750000193715096, 0.05299999937415123, 0.03999999910593033]","[0.0, -0.0, 0.5426093696180961]","[-0.06392880529165268, 0.11465822160243988, 0.03999999910593033]","[0.0, 0.0, -0.2502375255937675]","[0.026750000193715096, 0.05299999937415123, 0.03999999910593033]","[0.0, 0.0, -0.5972177542306109]","[0.06723876297473907, 0.11253704875707626, 0.03999999910593033]","[0.0, -0.0, 0.19762228600013282]",0.5411090516491506,-0.3600582149316007,"(0.0, 0.0, 0.0, 0.0, 0.0, 0.0)",-3.1114072234486776,-0.7916814337596907,0.27969172528036074,"(0.0, 0.0, 0.0, 0.0, 0.0, 0.0)",-1.686746741288303,-0.5975665164441722,-0.08371513463325567,"(0.0, 0.0, 0.0, 0.0, 0.0, 0.0)",2.3269638522292078,0.7938097835059216,-0.24724421837522018,"(0.0, 0.0, 0.0, 0.0, 0.0, 0.0)",1.2043601446262404,True,"(-0.02823558541560959, 0.1857697355029599, 0.039996535123305525)","(0.9999158631945466, -0.012500446447902418, -0.003464876694474009)",-8.534165609398679e-05,23.467040426341846,True,"(0.03533404103141324, 0.18539968702423087, 0.0400034648766945)","(-0.9999158631945464, 0.012500446447912603, 0.003464876694495197)",-0.00026577705928740834,17.304599914921265
88,Move,"(0.0076, 0.0, -0.0088)","(0.0, 0.034222415973104825, 0.0)","(0.003563854941895867, 0.17344711925995843, 0.0010270829024159138)","(1.5720776156058645, 0.00339871731689226, -0.013054766110058203)","[0.003563776380430861, 0.003448056883439604, 0.00011219321932817911]","[-0.026750000193715096, 0.05299999937415123, 0.03999999910593033]","[0.0, -0.0, 0.541109083692872]","[-0.06383626163005829, 0.11471392959356308, 0.03999999910593033]","[0.0, 0.0, -0.25057238647083574]","[0.026750000193715096, 0.05299999937415123, 0.03999999910593033]","[0.0, 0.0, -0.5975666578910349]","[0.0672595277428627, 0.1125229224562645, 0.03999999910593033]","[0.0, -0.0, 0.19624328630456062]",0.5396656914019994,-0.3464064593162812,"(0.0, 0.0, 0.0, 0.0, 0.0, 0.0)",-3.253685796237537,-0.7904350856451949,0.29912354747897113,"(0.0, 0.0, 0.0, 0.0, 0.0, 0.0)",-1.7585912554246725,-0.5977542220814968,-0.04504935295788298,"(0.0, 0.0, 0.0, 0.0, 0.0, 0.0)",2.60144111779679,0.7926972849464323,-0.2669996542774158,"(0.0, 0.0, 0.0, 0.0, 0.0, 0.0)",1.3315543612353051,True,"(-0.028119230160749707, 0.1858135345504608, 0.039996570902496906)","(0.999912352729915, -0.01278781249628672, -0.003429097503095732)",-8.66987612795683e-05,24.66323469931547,True,"(0.0354552988776658, 0.18542839612529002, 0.04000342909750311)","(-0.999912352729915, 0.012787812496287581, 0.0034290975031029142)",-0.0002594411512368161,19.110196530336555
89,Move,"(0.0076, 0.0, -0.0092)","(0.0, 0.025689501260104535, 0.0)","(0.003674958823471514, 0.17348097109108462, 0.0010292398475764224)","(1.5719484950018108, 0.0033724970944737165, -0.013351445085053076)","[0.0036748802620065082, 0.003481908714565801, 0.00011435016448868769]","[-0.026750000193715096, 0.05299999937415123, 0.03999999910593033]","[0.0, -0.0, 0.5396656339589321]","[-0.06374714523553848, 0.1147673949599266, 0.03999999910593033]","[0.0, 0.0, -0.2507693962694448]","[0.026750000193715096, 0.05299999937415123, 0.03999999910593033]","[0.0, 0.0, -0.5977542301278828]","[0.06727070361375809, 0.11251531541347504, 0.03999999910593033]","[0.0, -0.0, 0.1949430828209676]",0.5380996614679827,-0.3758471841639908,"(0.0, 0.0, 0.0, 0.0, 0.0, 0.0)",-3.551728301551421,-0.7891371598355813,0.3115021943072835,"(0.0, 0.0, 0.0, 0.0, 0.0, 0.0)",-1.902108757085161,-0.5980149611419583,-0.06257737451077897,"(0.0, 0.0, 0.0, 0.0, 0.0, 0.0)",2.4852389000133286,0.7915581306888471,-0.27339702182044995,"(0.0, 0.0, 0.0, 0.0, 0.0, 0.0)",1.3001989266973912,True,"(-0.02801611013457199, 0.18585989149819712, 0.039996601289226365)","(0.9999090126091357, -0.013054319901871161, -0.0033987107736369137)",-8.842106928683026e-05,26.4283585423124,True,"(0.035561275682432336, 0.18546104799673205, 0.04000339871077366)","(-0.9999090126091355, 0.013054319901878254, 0.0033987107736541144)",-0.0002547927035347993,18.8281972097603
90,Move,"(0.0078, 0.0, -0.0091)","(0.0, 0.021800907686661174, 0.0)","(0.00377882347470861, 0.17351735109102598, 0.0010311842880922509)","(1.5718281256221724, 0.0033492941153724413, -0.01362511978481278)","[0.003778744913243604, 0.003518288714507156, 0.00011629460500451618]","[-0.026750000193715096, 0.05299999937415123, 0.03999999910593033]","[0.0, -0.0, 0.5380997230022003]","[-0.06365036964416504, 0.11482525616884232, 0.03999999910593033]","[0.0, 0.0, -0.25103752749194347]","[0.026750000193715096, 0.05299999937415123, 0.03999999910593033]","[0.0, 0.0, -0.5980149590757938]","[0.06728621572256088, 0.1125047504901886, 0.03999999910593033]","[0.0, -0.0, 0.19354317918060446]",0.5365659077836943,-0.36810088422923015,"(0.0, 0.0, 0.0, 0.0, 0.0, 0.0)",-3.5363627755706886,-0.787794516517016,0.32223439645565255,"(0.0, 0.0, 0.0, 0.0, 0.0, 0.0)",-1.9070773667230587,-0.5981802689833828,-0.039673881941878805,"(0.0, 0.0, 0.0, 0.0, 0.0, 0.0)",2.7630121182629663,0.7903640130367778,-0.28658823649662357,"(0.0, 0.0, 0.0, 0.0, 0.0, 0.0)",1.4246107593840651,True,"(-0.027900276600426932, 0.1859081436030913, 0.039996627509298506)","(0.9999051844250344, -0.01335097248915199, -0.003372490701498506)",-9.042559810720996e-05,26.702532556477223,True,"(0.03567892412754789, 0.18549369586774167, 0.04000337249070148)","(-0.9999051844250344, 0.01335097248915994, 0.003372490701481788)",-0.00025088981702662226,20.47390071938679
91,Move,"(0.0106, 0.0, -0.0094)","(0.0, 0.017139133254584316, 0.0)","(0.0038840191013860092, 0.1735524996212489, 0.001032988172270379)","(1.5717183159234396, 0.0033267393968163203, -0.013901334878686519)","[0.0038839405399210035, 0.00355343724473009, 0.00011809848918264434]","[-0.026750000193715096, 0.05299999937415123, 0.03999999910593033]","[0.0, -0.0, 0.5365660343071724]","[-0.06355550140142441, 0.11488178372383118, 0.03999999910593033]","[0.0, 0.0, -0.2512286379045802]","[0.026750000193715096, 0.05299999937415123, 0.03999999910593033]","[0.0, 0.0, -0.5981802301334579]","[0.06729605793952942, 0.11249804496765137, 0.03999999910593033]","[0.0, -0.0, 0.19218373338475558]",0.5350453979564238,-0.3649223585449038,"(0.0, 0.0, 0.0, 0.0, 0.0, 0.0)",-3.5015869555793167,-0.7864904031655621,0.31298720434894756,"(0.0, 0.0, 0.0, 0.0, 0.0, 0.0)",-1.8955813613214931,-0.5983802353643901,-0.04799193144175005,"(0.0, 0.0, 0.0, 0.0, 0.0, 0.0)",2.599177455995465,0.7892105454971782,-0.27683220950392995,"(0.0, 0.0, 0.0, 0.0, 0.0, 0.0)",1.3584861304898768,True,"(-0.02779182553587313, 0.18595775087058722, 0.039996650712146566)","(0.9999015711317281, -0.013624621799396828, -0.0033492878534390146)",-9.245533602434975e-05,26.37108066306103,True,"(0.03578799692713502, 0.1855288087711351, 0.04000334928785343)","(-0.9999015711317282, 0.013624621799396374, 0.0033492878534283513)",-0.00024815693007841015,19.55982992570055
92,Move,"(0.0111, 0.0, -0.009800000000000001)","(0.0, 0.017139133254584316, 0.0)","(0.004060566126680704, 0.17358849964121287, 0.001034471635960243)","(1.5716188802491289, 0.003310317243886513, -0.014292008556186545)","[0.004060487565215699, 0.0035894372646940453, 0.00011958195287250823]","[-0.026750000193715096, 0.05299999937415123, 0.03999999910593033]","[0.0, -0.0, 0.5350454487658243]","[-0.06346136331558228, 0.1149376779794693, 0.03999999910593033]","[0.0, 0.0, -0.2514450327926966]","[0.026750000193715096, 0.05299999937415123, 0.03999999910593033]","[0.0, 0.0, -0.5983802611375062]","[0.06730794906616211, 0.11248993873596191, 0.03999999910593033]","[0.0, -0.0, 0.1908303133540566]",0.5329140029245706,-0.511534807644772,"(0.0, 0.0, 0.0, 0.0, 0.0, 0.0)",-4.2488685738484016,-0.7850803082872103,0.33842277080441274,"(0.0, 0.0, 0.0, 0.0, 0.0, 0.0)",-2.2207381847240386,-0.5990984507008097,-0.17237168074069945,"(0.0, 0.0, 0.0, 0.0, 0.0, 0.0)",2.2185724740999597,0.7880005356665886,-0.29040235934149744,"(0.0, 0.0, 0.0, 0.0, 0.0, 0.0)",1.2161724728903442,True,"(-0.027682312169456436, 0.18600584183032493, 0.039996673266739446)","(0.9998978449425668, -0.013900810229031156, -0.0033267332605504156)",-9.415924439966609e-05,30.382806700283464,True,"(0.035898749235475494, 0.18556219980746672, 0.040003326733260534)","(-0.999897844942567, 0.013900810229039847, 0.0033267332605269834)",-0.0002451280059484398,17.969786938024864
