OSUrobotics/InHand-Manipulation/AnalyseData/Data/Trial Data/Better/new_hand_human_sub1_2v2_g_n_1_kpNone_kdNone_dp1_step1_save_data.csv
,Phase,human_cube_pos,human_cube_orn,Cube_Pos,Cube_Orn,Cube_pos_in_start_pos,b'l_prox_pin'_link_pos,b'l_prox_pin'_link_orn,b'l_distal_pin'_link_pos,b'l_distal_pin'_link_orn,b'r_prox_pin'_link_pos,b'r_prox_pin'_link_orn,b'r_distal_pin'_link_pos,b'r_distal_pin'_link_orn,b'l_prox_pin'_joint_angle,b'l_prox_pin'_joint_vel,b'l_prox_pin'_joint_react_forces,b'l_prox_pin'_joint_motor_torque,b'l_distal_pin'_joint_angle,b'l_distal_pin'_joint_vel,b'l_distal_pin'_joint_react_forces,b'l_distal_pin'_joint_motor_torque,b'r_prox_pin'_joint_angle,b'r_prox_pin'_joint_vel,b'r_prox_pin'_joint_react_forces,b'r_prox_pin'_joint_motor_torque,b'r_distal_pin'_joint_angle,b'r_distal_pin'_joint_vel,b'r_distal_pin'_joint_react_forces,b'r_distal_pin'_joint_motor_torque,in_contact_l,contact_point_l_dist,contact_normal_l_dist,contact_distance_l_dist,contact_norm_force_l_dist,in_contact_r,contact_point_r_dist,contact_normal_r_dist,contact_distance_r_dist,contact_norm_force_r_dist
0,Open,,,,,,"[-0.026750000193715096, 0.05299999937415123, 0.03999999910593033]","[0.0, -0.0, 0.0]","[-0.026750000193715096, 0.125, 0.03999999910593033]","[0.0, -0.0, 0.0]","[0.026750000193715096, 0.05299999937415123, 0.03999999910593033]","[0.0, -0.0, 0.0]","[0.026750000193715096, 0.125, 0.03999999910593033]","[0.0, -0.0, 0.0]",0.0028636982559538428,0.6872875814289223,"(0.0, 0.0, 0.0, 0.0, 0.0, 0.0)",-74.42376671286476,0.025717978913313098,6.172314939195144,"(0.0, 0.0, 0.0, 0.0, 0.0, 0.0)",-28.347758017338414,-0.0028861714462846827,-0.6926811471083238,"(0.0, 0.0, 0.0, 0.0, 0.0, 0.0)",77.31812537484876,-0.025998027583603027,-6.239526620064726,"(0.0, 0.0, 0.0, 0.0, 0.0, 0.0)",29.325432325549183,False,,,,,False,,,,
1,Open,,,,,,"[-0.026750000193715096, 0.05299999937415123, 0.03999999910593033]","[0.0, -0.0, 0.0028636982488144678]","[-0.026956185698509216, 0.12499970197677612, 0.03999999910593033]","[0.0, -0.0, 0.028581675581217755]","[0.026750000193715096, 0.05299999937415123, 0.03999999910593033]","[0.0, 0.0, -0.0028861714423951343]","[0.026957804337143898, 0.12499970197677612, 0.03999999910593033]","[0.0, 0.0, -0.028884201286240394]",0.1595773284303585,37.61127124185712,"(0.0, 0.0, 0.0, 0.0, 0.0, 0.0)",53.472225824972774,0.02314589095046895,-0.6173011110825959,"(0.0, 0.0, 0.0, 0.0, 0.0, 0.0)",3.3014509125464437,-0.15959755430165623,-37.61073188528917,"(0.0, 0.0, 0.0, 0.0, 0.0, 0.0)",-53.45543824447724,-0.023397935520559333,0.6240220951304867,"(0.0, 0.0, 0.0, 0.0, 0.0, 0.0)",-3.2927232380167535,False,,,,,False,,,,
2,Open,,,,,,"[-0.026750000193715096, 0.05299999937415123, 0.03999999910593033]","[0.0, -0.0, 0.15957730699277592]","[-0.03819086775183678, 0.1240852028131485, 0.03999999910593033]","[0.0, -0.0, 0.1827232399786182]","[0.026750000193715096, 0.05299999937415123, 0.03999999910593033]","[0.0, 0.0, -0.15959754249378824]","[0.03819230571389198, 0.12408497184515, 0.03999999910593033]","[0.0, 0.0, -0.1829954723320542]",0.30061959558732265,33.8501441176714,"(0.0, 0.0, 0.0, 0.0, 0.0, 0.0)",-5.433290843096747,0.020831748867960086,-0.555394099802127,"(0.0, 0.0, 0.0, 0.0, 0.0, 0.0)",-0.37949999689540415,-0.30063779887149056,-33.849658696760244,"(0.0, 0.0, 0.0, 0.0, 0.0, 0.0)",5.433149501288634,-0.02105858889910766,0.5614431891484022,"(0.0, 0.0, 0.0, 0.0, 0.0, 0.0)",0.37943043762158307,False,,,,,False,,,,
3,Open,,,,,,"[-0.026750000193715096, 0.05299999937415123, 0.03999999910593033]","[0.0, -0.0, 0.30061964608852465]","[-0.048070069402456284, 0.12177103012800217, 0.03999999910593033]","[0.0, -0.0, 0.3214513597309629]","[0.026750000193715096, 0.05299999937415123, 0.03999999910593033]","[0.0, 0.0, -0.30063782483534385]","[0.04807132109999657, 0.12177064269781113, 0.03999999910593033]","[0.0, 0.0, -0.32169639446592324]",0.4275576360285904,30.465129705904268,"(0.0, 0.0, 0.0, 0.0, 0.0, 0.0)",-4.896562760502833,0.018748978964657985,-0.49986477679250463,"(0.0, 0.0, 0.0, 0.0, 0.0, 0.0)",-0.3438186216350169,-0.4275740189843415,-30.464692827084228,"(0.0, 0.0, 0.0, 0.0, 0.0, 0.0)",4.8964345239877005,-0.018953134917884834,0.505308955493478,"(0.0, 0.0, 0.0, 0.0, 0.0, 0.0)",0.34375511365495653,False,,,,,False,,,,
4,Open,,,,,,"[-0.026750000193715096, 0.05299999937415123, 0.03999999910593033]","[0.0, -0.0, 0.42755761853039154]","[-0.056604765355587006, 0.1185186430811882, 0.03999999910593033]","[0.0, -0.0, 0.4463066270391506]","[0.026750000193715096, 0.05299999937415123, 0.03999999910593033]","[0.0, 0.0, -0.42757404208311445]","[0.05660583823919296, 0.1185181587934494, 0.03999999910593033]","[0.0, 0.0, -0.4465272228574986]",0.5418018724257314,27.418616735313837,"(0.0, 0.0, 0.0, 0.0, 0.0, 0.0)",-4.412236817968903,0.016874447698417276,-0.44988750389777044,"(0.0, 0.0, 0.0, 0.0, 0.0, 0.0)",-0.3112578673856835,-0.5418166170859073,-27.418223544375806,"(0.0, 0.0, 0.0, 0.0, 0.0, 0.0)",4.412120589674461,-0.017058187988154127,0.4547872631353701,"(0.0, 0.0, 0.0, 0.0, 0.0, 0.0)",0.31119999541872967,False,,,,,False,,,,
5,Open,,,,,,"[-0.026750000193715096, 0.05299999937415123, 0.03999999910593033]","[0.0, -0.0, 0.5418019400761332]","[-0.06387900561094284, 0.11468822509050369, 0.03999999910593033]","[0.0, -0.0, 0.5586763123738882]","[0.026750000193715096, 0.05299999937415123, 0.03999999910593033]","[0.0, 0.0, -0.5418166677071254]","[0.06387991458177567, 0.11468767374753952, 0.03999999910593033]","[0.0, 0.0, -0.5588748551425957]",0.6446216851831583,24.67675506178245,"(0.0, 0.0, 0.0, 0.0, 0.0, 0.0)",-3.975330693632137,0.015187334633278446,-0.4049071356333192,"(0.0, 0.0, 0.0, 0.0, 0.0, 0.0)",-0.2816071653694913,-0.6446349553773166,-24.67640118993823,"(0.0, 0.0, 0.0, 0.0, 0.0, 0.0)",3.975225427671302,-0.01535270083200906,0.409316917474816,"(0.0, 0.0, 0.0, 0.0, 0.0, 0.0)",0.28155450162657786,False,,,,,False,,,,
6,Open,,,,,,"[-0.026750000193715096, 0.05299999937415123, 0.03999999910593033]","[0.0, -0.0, 0.6446216983098856]","[-0.07001452147960663, 0.11055155843496323, 0.03999999910593033]","[0.0, -0.0, 0.6598089287160823]","[0.026750000193715096, 0.05299999937415123, 0.03999999910593033]","[0.0, 0.0, -0.644634967879878]","[0.07001528143882751, 0.11055097728967667, 0.03999999910593033]","[0.0, 0.0, -0.6599877329949964]",0.7371595166648425,22.209079555604205,"(0.0, 0.0, 0.0, 0.0, 0.0, 0.0)",-3.5812948349547464,0.013668901111545678,-0.3644240452158641,"(0.0, 0.0, 0.0, 0.0, 0.0, 0.0)",-0.25464125660078457,-0.737171459839585,-22.20876107094441,"(0.0, 0.0, 0.0, 0.0, 0.0, 0.0)",3.5811995605906057,-0.01381773063402154,0.3683928475170044,"(0.0, 0.0, 0.0, 0.0, 0.0, 0.0)",0.2545933902665499,False,,,,,False,,,,
7,Open,,,,,,"[-0.026750000193715096, 0.05299999937415123, 0.03999999910593033]","[0.0, -0.0, 0.7371595400859692]","[-0.07514750957489014, 0.10630742460489273, 0.03999999910593033]","[0.0, -0.0, 0.7508283868993905]","[0.026750000193715096, 0.05299999937415123, 0.03999999910593033]","[0.0, 0.0, -0.7371714711336782]","[0.07514814287424088, 0.10630684345960617, 0.03999999910593033]","[0.0, 0.0, -0.750989167509555]",0.8204435649983582,19.988171600043785,"(0.0, 0.0, 0.0, 0.0, 0.0, 0.0)",-3.2259980823944012,0.01230228208777883,-0.32798856570404317,"(0.0, 0.0, 0.0, 0.0, 0.0, 0.0)",-0.23014491551259536,-0.8204543138556265,-19.987884963849964,"(0.0, 0.0, 0.0, 0.0, 0.0, 0.0)",3.225911902119173,-0.012436228606816148,0.33156048652929415,"(0.0, 0.0, 0.0, 0.0, 0.0, 0.0)",0.23010145595163894,False,,,,,False,,,,
8,Open,,,,,,"[-0.026750000193715096, 0.05299999937415123, 0.03999999910593033]","[0.0, -0.0, 0.8204435774406766]","[-0.07941428571939468, 0.1020965725183487, 0.03999999910593033]","[0.0, -0.0, 0.8327459142786269]","[0.026750000193715096, 0.05299999937415123, 0.03999999910593033]","[0.0, 0.0, -0.8204543695347751]","[0.07941480726003647, 0.10209600627422333, 0.03999999910593033]","[0.0, 0.0, -0.8328905496331522]",0.8953992084985224,17.9893544400394,"(0.0, 0.0, 0.0, 0.0, 0.0, 0.0)",-2.905692777507757,0.011072298781000885,-0.2951959936267068,"(0.0, 0.0, 0.0, 0.0, 0.0, 0.0)",-0.20791432075989408,-0.8954088824700639,-17.989096467464968,"(0.0, 0.0, 0.0, 0.0, 0.0, 0.0)",2.9056148642503405,-0.011192850601700187,0.29841072122783063,"(0.0, 0.0, 0.0, 0.0, 0.0, 0.0)",0.20787489947010138,False,,,,,False,,,,
9,Open,,,,,,"[-0.026750000193715096, 0.05299999937415123, 0.03999999910593033]","[0.0, -0.0, 0.8953992050914552]","[-0.08294302970170975, 0.09801492840051651, 0.03999999910593033]","[0.0, -0.0, 0.9064715399310761]","[0.026750000193715096, 0.05299999937415123, 0.03999999910593033]","[0.0, 0.0, -0.8954089117450801]","[0.08294346183538437, 0.09801438450813293, 0.03999999910593033]","[0.0, 0.0, -0.9066016844299951]",0.9628592876486701,16.190418996035465,"(0.0, 0.0, 0.0, 0.0, 0.0, 0.0)",-2.616982039675733,0.009965290062605858,-0.26568209241480656,"(0.0, 0.0, 0.0, 0.0, 0.0, 0.0)",-0.18775783729375353,-0.9628679942230576,-16.190186820718473,"(0.0, 0.0, 0.0, 0.0, 0.0, 0.0)",2.6169116334278195,-0.010073786659150813,0.26857534621184953,"(0.0, 0.0, 0.0, 0.0, 0.0, 0.0)",0.187722108909745,False,,,,,False,,,,
10,Open,,,,,,"[-0.026750000193715096, 0.05299999937415123, 0.03999999910593033]","[0.0, -0.0, 0.9628592963772022]","[-0.08584962040185928, 0.09412462264299393, 0.03999999910593033]","[0.0, -0.0, 0.9728246761305416]","[0.026750000193715096, 0.05299999937415123, 0.03999999910593033]","[0.0, 0.0, -0.9628681466677605]","[0.08584997802972794, 0.09412410855293274, 0.03999999910593033]","[0.0, 0.0, -0.9729417790417357]",1.0235733588838032,14.57137709643192,"(0.0, 0.0, 0.0, 0.0, 0.0, 0.0)",-2.356789246056587,0.008968960705874744,-0.23911904561546746,"(0.0, 0.0, 0.0, 0.0, 0.0, 0.0)",-0.16949635495257384,-1.0235811948007518,-14.571168138646623,"(0.0, 0.0, 0.0, 0.0, 0.0, 0.0)",2.3567256501387286,-0.009066607604651448,0.24172297307984775,"(0.0, 0.0, 0.0, 0.0, 0.0, 0.0)",0.16946399753760524,False,,,,,False,,,,
11,Open,,,,,,"[-0.026750000193715096, 0.05299999937415123, 0.03999999910593033]","[0.0, -0.0, 1.0235732790301837]","[-0.08823604136705399, 0.09046287834644318, 0.03999999910593033]","[0.0, -0.0, 1.0325423083164225]","[0.026750000193715096, 0.05299999937415123, 0.03999999910593033]","[0.0, 0.0, -1.0235812274279317]","[0.08823633193969727, 0.09046239405870438, 0.03999999910593033]","[0.0, 0.0, -1.0326479037372749]",1.078216022995423,13.114239386788727,"(0.0, 0.0, 0.0, 0.0, 0.0, 0.0)",-2.1223296975724493,0.008072244810550301,-0.215211814877866,"(0.0, 0.0, 0.0, 0.0, 0.0, 0.0)",-0.1529632973210469,-1.0782230753206767,-13.114051324781958,"(0.0, 0.0, 0.0, 0.0, 0.0, 0.0)",2.122272274708909,-0.008160126984954354,0.21755534872730237,"(0.0, 0.0, 0.0, 0.0, 0.0, 0.0)",0.15293401213466845,False,,,,,False,,,,
12,Open,,,,,,"[-0.026750000193715096, 0.05299999937415123, 0.03999999910593033]","[0.0, -0.0, 1.078215882979514]","[-0.09019032120704651, 0.08704887330532074, 0.03999999910593033]","[0.0, -0.0, 1.0862882926740116]","[0.026750000193715096, 0.05299999937415123, 0.03999999910593033]","[0.0, 0.0, -1.078222977413882]","[0.09019055962562561, 0.08704842627048492, 0.03999999910593033]","[0.0, 0.0, -1.0863833790205233]",1.1273944206958806,11.802815448109852,"(0.0, 0.0, 0.0, 0.0, 0.0, 0.0)",-1.9110844168611731,0.007265182884681461,-0.19369486220852175,"(0.0, 0.0, 0.0, 0.0, 0.0, 0.0)",-0.13800439004610457,-1.127400767788609,-11.802646192303762,"(0.0, 0.0, 0.0, 0.0, 0.0, 0.0)",1.9110325851897776,-0.007344276810443619,0.19580404188257655,"(0.0, 0.0, 0.0, 0.0, 0.0, 0.0)",0.13797790093405082,False,,,,,False,,,,
13,Open,,,,,,"[-0.026750000193715096, 0.05299999937415123, 0.03999999910593033]","[0.0, -0.0, 1.1273943743462997]","[-0.0917874127626419, 0.08388907462358475, 0.03999999910593033]","[0.0, -0.0, 1.1346596248576977]","[0.026750000193715096, 0.05299999937415123, 0.03999999910593033]","[0.0, 0.0, -1.127400718904607]","[0.09178761392831802, 0.08388865739107132, 0.03999999910593033]","[0.0, 0.0, -1.134745111288055]",1.1716549786262926,10.622533903298867,"(0.0, 0.0, 0.0, 0.0, 0.0, 0.0)",-1.7207759982695574,0.00653881121780902,-0.17432920004938585,"(0.0, 0.0, 0.0, 0.0, 0.0, 0.0)",-0.12447725819906867,-1.1716606910097482,-10.622381573073383,"(0.0, 0.0, 0.0, 0.0, 0.0, 0.0)",1.7207292273800263,-0.006609995722787257,0.17622746103752684,"(0.0, 0.0, 0.0, 0.0, 0.0, 0.0)",0.12445331071934837,False,,,,,False,,,,
14,Open,,,,,,"[-0.026750000193715096, 0.05299999937415123, 0.03999999910593033]","[0.0, -0.0, 1.17165497759142]","[-0.09309044480323792, 0.08098116517066956, 0.03999999910593033]","[0.0, -0.0, 1.1781937273122836]","[0.026750000193715096, 0.05299999937415123, 0.03999999910593033]","[0.0, 0.0, -1.1716605985979762]","[0.09309060126543045, 0.08098078519105911, 0.03999999910593033]","[0.0, 0.0, -1.178270796658152]",1.2114894807636634,9.56028051296898,"(0.0, 0.0, 0.0, 0.0, 0.0, 0.0)",-1.549346412635057,0.005885062316220725,-0.15689973638119079,"(0.0, 0.0, 0.0, 0.0, 0.0, 0.0)",-0.11225090666269867,-1.2114946219087734,-9.560143415766044,"(0.0, 0.0, 0.0, 0.0, 0.0, 0.0)",1.5493042197033076,-0.00594912834521185,0.1586081706180975,"(0.0, 0.0, 0.0, 0.0, 0.0, 0.0)",0.11222926703597672,False,,,,,False,,,,
15,Open,,,,,,"[-0.026750000193715096, 0.05299999937415123, 0.03999999910593033]","[0.0, -0.0, 1.2114893406881728]","[-0.09415213763713837, 0.07831703126430511, 0.03999999910593033]","[0.0, -0.0, 1.2173745989650702]","[0.026750000193715096, 0.05299999937415123, 0.03999999910593033]","[0.0, 0.0, -1.2114945655338818]","[0.09415226429700851, 0.07831668108701706, 0.03999999910593033]","[0.0, 0.0, -1.2174436451143456]",1.247340532687297,8.604252461672083,"(0.0, 0.0, 0.0, 0.0, 0.0, 0.0)",-1.3949366588174594,0.00529667529397997,-0.14121288533778104,"(0.0, 0.0, 0.0, 0.0, 0.0, 0.0)",-0.1012051251161189,-1.2473451597178962,-8.604129074189437,"(0.0, 0.0, 0.0, 0.0, 0.0, 0.0)",1.394898604883462,-0.005354334697048719,0.1427504755591516,"(0.0, 0.0, 0.0, 0.0, 0.0, 0.0)",0.1011855790679586,False,,,,,False,,,,
16,Open,,,,,,"[-0.026750000193715096, 0.05299999937415123, 0.03999999910593033]","[0.0, -0.0, 1.2473405247091465]","[-0.09501627087593079, 0.07588484138250351, 0.03999999910593033]","[0.0, -0.0, 1.2526371614229614]","[0.026750000193715096, 0.05299999937415123, 0.03999999910593033]","[0.0, 0.0, -1.2473450561350814]","[0.09501637518405914, 0.07588452845811844, 0.03999999910593033]","[0.0, 0.0, -1.252699591080442]",1.2796064794185673,7.743827215504874,"(0.0, 0.0, 0.0, 0.0, 0.0, 0.0)",-1.2558681481324276,0.004767115224099335,-0.12709441677135241,"(0.0, 0.0, 0.0, 0.0, 0.0, 0.0)",-0.09122984935698081,-1.2796106437461066,-7.743716166770495,"(0.0, 0.0, 0.0, 0.0, 0.0, 0.0)",1.2558338345532607,-0.004819008666073119,0.128478247434144,"(0.0, 0.0, 0.0, 0.0, 0.0, 0.0)",0.09121220090323832,False,,,,,False,,,,
17,Open,,,,,,"[-0.026750000193715096, 0.05299999937415123, 0.03999999910593033]","[0.0, -0.0, 1.279606409124563]","[-0.09571900963783264, 0.0736706405878067, 0.03999999910593033]","[0.0, -0.0, 1.2843736758198352]","[0.026750000193715096, 0.05299999937415123, 0.03999999910593033]","[0.0, 0.0, -1.2796106525936015]","[0.0957190990447998, 0.07367035001516342, 0.03999999910593033]","[0.0, 0.0, -1.2844295613342638]",1.3086458314767107,6.969444493954387,"(0.0, 0.0, 0.0, 0.0, 0.0, 0.0)",-1.1305941221975622,0.00429170208951155,-0.1140991523010686,"(0.0, 0.0, 0.0, 0.0, 0.0, 0.0)",-0.082192919359827,-1.3086495793714958,-6.969344550093446,"(0.0, 0.0, 0.0, 0.0, 0.0, 0.0)",1.1305631934145834,-0.004338405935744441,0.11534465527888274,"(0.0, 0.0, 0.0, 0.0, 0.0, 0.0)",0.08217699569254354,False,,,,,False,,,,
18,Open,,,,,,"[-0.026750000193715096, 0.05299999937415123, 0.03999999910593033]","[0.0, -0.0, 1.308645825919811]","[-0.09629011154174805, 0.0716593861579895, 0.03999999910593033]","[0.0, -0.0, 1.3129373548657892]","[0.026750000193715096, 0.05299999937415123, 0.03999999910593033]","[0.0, 0.0, -1.308649569130343]","[0.09629017859697342, 0.07165912538766861, 0.03999999910593033]","[0.0, 0.0, -1.3129881167123505]",1.3347812483290395,6.272500044558946,"(0.0, 0.0, 0.0, 0.0, 0.0, 0.0)",-1.0178482622338179,0.003863702481573626,-0.10271990590510163,"(0.0, 0.0, 0.0, 0.0, 0.0, 0.0)",-0.07410352518858664,-1.3347846214343462,-6.272410095084102,"(0.0, 0.0, 0.0, 0.0, 0.0, 0.0)",1.0178203769740246,-0.0039057357160976183,0.10384085271523745,"(0.0, 0.0, 0.0, 0.0, 0.0, 0.0)",0.0740891498002037,False,,,,,False,,,,
19,Open,,,,,,"[-0.026750000193715096, 0.05299999937415123, 0.03999999910593033]","[0.0, -0.0, 1.3347813147466918]","[-0.09675397723913193, 0.06983575969934464, 0.03999999910593033]","[0.0, -0.0, 1.3386449621367835]","[0.026750000193715096, 0.05299999937415123, 0.03999999910593033]","[0.0, 0.0, -1.3347844615433213]","[0.0967540368437767, 0.06983552873134613, 0.03999999910593033]","[0.0, 0.0, -1.3386905382854437]",1.3583031234961356,5.645250040103052,"(0.0, 0.0, 0.0, 0.0, 0.0, 0.0)",-0.9162890978823036,0.0034783869891320215,-0.09247571818598516,"(0.0, 0.0, 0.0, 0.0, 0.0, 0.0)",-0.06677007440367574,-1.3583061592909116,-5.645169085575695,"(0.0, 0.0, 0.0, 0.0, 0.0, 0.0)",0.9162639666346021,-0.003516216695348753,0.09348456497972772,"(0.0, 0.0, 0.0, 0.0, 0.0, 0.0)",0.06675710630673855,False,,,,,False,,,,
20,Open,,,,,,"[-0.026750000193715096, 0.05299999937415123, 0.03999999910593033]","[0.0, -0.0, 1.3583030429358363]","[-0.09713058918714523, 0.06818463653326035, 0.03999999910593033]","[0.0, -0.0, 1.3617816714487538]","[0.026750000193715096, 0.05299999937415123, 0.03999999910593033]","[0.0, 0.0, -1.358306171033049]","[0.09713063389062881, 0.06818442046642303, 0.03999999910593033]","[0.0, 0.0, -1.361822351334537]",1.379472811146522,5.0807250360927485,"(0.0, 0.0, 0.0, 0.0, 0.0, 0.0)",-0.8248429295126702,0.003131498553648039,-0.08325322451615583,"(0.0, 0.0, 0.0, 0.0, 0.0, 0.0)",-0.06015531267018523,-1.3794755433618204,-5.080652177018124,"(0.0, 0.0, 0.0, 0.0, 0.0, 0.0)",0.8248202834423316,-0.003165545104486833,0.08416118180686077,"(0.0, 0.0, 0.0, 0.0, 0.0, 0.0)",0.06014361689139186,False,,,,,False,,,,
21,Open,,,,,,"[-0.026750000193715096, 0.05299999937415123, 0.03999999910593033]","[0.0, -0.0, 1.3794728975130914]","[-0.09743624925613403, 0.06669140607118607, 0.03999999910593033]","[0.0, -0.0, 1.382604304378769]","[0.026750000193715096, 0.05299999937415123, 0.03999999910593033]","[0.0, 0.0, -1.379475506721758]","[0.09743628650903702, 0.06669121235609055, 0.03999999910593033]","[0.0, 0.0, -1.3826409668082853]",1.3985255300318697,4.572652532483473,"(0.0, 0.0, 0.0, 0.0, 0.0, 0.0)",-0.7425066286387145,0.0028192047313806493,-0.07495051734417352,"(0.0, 0.0, 0.0, 0.0, 0.0, 0.0)",-0.054190171953983096,-1.3985279890256384,-4.57258695931631,"(0.0, 0.0, 0.0, 0.0, 0.0, 0.0)",0.7424862245436853,-0.0028498464605416357,0.07576767454684734,"(0.0, 0.0, 0.0, 0.0, 0.0, 0.0)",0.0541796259205944,False,,,,,False,,,,
22,Open,,,,,,"[-0.026750000193715096, 0.05299999937415123, 0.03999999910593033]","[0.0, -0.0, 1.398525454133583]","[-0.09768425673246384, 0.0653422400355339, 0.03999999910593033]","[0.0, -0.0, 1.4013447262228373]","[0.026750000193715096, 0.05299999937415123, 0.03999999910593033]","[0.0, 0.0, -1.3985280648022782]","[0.09768428653478622, 0.06534206122159958, 0.03999999910593033]","[0.0, 0.0, -1.4013779844801912]",1.4156729770286829,4.1153872792351285,"(0.0, 0.0, 0.0, 0.0, 0.0, 0.0)",-0.6683758137814145,0.002538055332395241,-0.06747585575649792,"(0.0, 0.0, 0.0, 0.0, 0.0, 0.0)",-0.04881194552870251,-1.4156751901230746,-4.115328263384682,"(0.0, 0.0, 0.0, 0.0, 0.0, 0.0)",0.6683574317692884,-0.002565632738451909,0.06821129330153437,"(0.0, 0.0, 0.0, 0.0, 0.0, 0.0)",0.0488024380394442,False,,,,,False,,,,
23,Open,,,,,,"[-0.026750000193715096, 0.05299999937415123, 0.03999999910593033]","[0.0, -0.0, 1.4156730334745993]","[-0.09788545966148376, 0.06412414461374283, 0.03999999910593033]","[0.0, -0.0, 1.418211036917125]","[0.026750000193715096, 0.05299999937415123, 0.03999999910593033]","[0.0, 0.0, -1.4156752315845986]","[0.09788548201322556, 0.0641239807009697, 0.03999999910593033]","[0.0, 0.0, -1.418240879504808]",1.4311056793258146,3.703848551311612,"(0.0, 0.0, 0.0, 0.0, 0.0, 0.0)",-0.6016352863054336,0.002284944287465684,-0.060746650783093666,"(0.0, 0.0, 0.0, 0.0, 0.0, 0.0)",-0.04396376851645251,-1.431107671110767,-3.7037954370462103,"(0.0, 0.0, 0.0, 0.0, 0.0, 0.0)",0.6016187276545472,-0.0023097638175418747,0.061408541018408244,"(0.0, 0.0, 0.0, 0.0, 0.0, 0.0)",0.043955198772734246,False,,,,,False,,,,
24,Open,,,,,,"[-0.026750000193715096, 0.05299999937415123, 0.03999999910593033]","[0.0, -0.0, 1.4311058207082674]","[-0.09804865717887878, 0.06302504986524582, 0.03999999910593033]","[0.0, -0.0, 1.433390691262394]","[0.026750000193715096, 0.05299999937415123, 0.03999999910593033]","[0.0, 0.0, -1.4311075924426346]","[0.09804867953062057, 0.06302490830421448, 0.03999999910593033]","[0.0, 0.0, -1.433417470845748]",1.4449951113932331,3.333463696180452,"(0.0, 0.0, 0.0, 0.0, 0.0, 0.0)",-0.5415503506795546,0.0020570753203455715,-0.05468855210882702,"(0.0, 0.0, 0.0, 0.0, 0.0, 0.0)",-0.039594115216637325,-1.4449969039996904,-3.3334158933415914,"(0.0, 0.0, 0.0, 0.0, 0.0, 0.0)",0.541535435877482,-0.002079412775410495,0.055284250111531166,"(0.0, 0.0, 0.0, 0.0, 0.0, 0.0)",0.03958639191865308,False,,,,,False,,,,
25,Open,,,,,,"[-0.026750000193715096, 0.05299999937415123, 0.03999999910593033]","[0.0, -0.0, 1.444995076522675]","[-0.09818101674318314, 0.062033817172050476, 0.03999999910593033]","[0.0, -0.0, 1.4470522962768402]","[0.026750000193715096, 0.05299999937415123, 0.03999999910593033]","[0.0, 0.0, -1.4449971061677662]","[0.09818103164434433, 0.06203368678689003, 0.03999999910593033]","[0.0, 0.0, -1.4470761943538692]",1.45749560025391,3.0001173265624064,"(0.0, 0.0, 0.0, 0.0, 0.0, 0.0)",-0.4874589573784058,0.001851931045420989,-0.04923462598189979,"(0.0, 0.0, 0.0, 0.0, 0.0, 0.0)",-0.03565633120497695,-1.4574972135997213,-3.000074304007432,"(0.0, 0.0, 0.0, 0.0, 0.0, 0.0)",0.4874455243270462,-0.0018720346450414762,0.04977075128856451,"(0.0, 0.0, 0.0, 0.0, 0.0, 0.0)",0.03564937171228022,False,,,,,False,,,,
26,Open,,,,,,"[-0.026750000193715096, 0.05299999937415123, 0.03999999910593033]","[0.0, -0.0, 1.4574954921785264]","[-0.09828835725784302, 0.061140209436416626, 0.03999999910593033]","[0.0, -0.0, 1.4593474823067423]","[0.026750000193715096, 0.05299999937415123, 0.03999999910593033]","[0.0, 0.0, -1.4574971848934346]","[0.09828837215900421, 0.061140093952417374, 0.03999999910593033]","[0.0, 0.0, -1.4593694397653831]",1.4687460402285188,2.700105593906164,"(0.0, 0.0, 0.0, 0.0, 0.0, 0.0)",-0.4387645947805427,0.0016672451487475934,-0.044324615201614966,"(0.0, 0.0, 0.0, 0.0, 0.0, 0.0)",-0.032108199676446195,-1.4687474922397492,-2.70006687360669,"(0.0, 0.0, 0.0, 0.0, 0.0, 0.0)",0.4387524971567325,-0.0016853382893528596,0.04480712536526797,"(0.0, 0.0, 0.0, 0.0, 0.0, 0.0)",0.03210192923147444,False,,,,,False,,,,
27,Open,,,,,,"[-0.026750000193715096, 0.05299999937415123, 0.03999999910593033]","[0.0, -0.0, 1.4687462228928074]","[-0.09837540984153748, 0.06033487245440483, 0.03999999910593033]","[0.0, -0.0, 1.4704133245237396]","[0.026750000193715096, 0.05299999937415123, 0.03999999910593033]","[0.0, 0.0, -1.4687474899518769]","[0.09837542474269867, 0.060334768146276474, 0.03999999910593033]","[0.0, 0.0, -1.4704329951986796]",1.478871436205667,2.430095034515549,"(0.0, 0.0, 0.0, 0.0, 0.0, 0.0)",-0.394929862139441,0.0015009773446580906,-0.03990427298148066,"(0.0, 0.0, 0.0, 0.0, 0.0, 0.0)",-0.028911540991871522,-1.4788727430157742,-2.430060186246021,"(0.0, 0.0, 0.0, 0.0, 0.0, 0.0)",0.39491896790015035,-0.001517261081966714,0.04033852977267494,"(0.0, 0.0, 0.0, 0.0, 0.0, 0.0)",0.02890589200411927,False,,,,,False,,,,
28,Open,,,,,,"[-0.026750000193715096, 0.05299999937415123, 0.03999999910593033]","[0.0, -0.0, 1.4788714352834713]","[-0.09844600409269333, 0.05960927531123161, 0.03999999910593033]","[0.0, -0.0, 1.480372508787761]","[0.026750000193715096, 0.05299999937415123, 0.03999999910593033]","[0.0, 0.0, -1.4788727099725336]","[0.09844601899385452, 0.05960918217897415, 0.03999999910593033]","[0.0, 0.0, -1.4803900544382056]",1.4879842925851003,2.1870855310639947,"(0.0, 0.0, 0.0, 0.0, 0.0, 0.0)",-0.3554706611703565,0.001351290830885638,-0.035924763305388616,"(0.0, 0.0, 0.0, 0.0, 0.0, 0.0)",-0.026031844038894282,-1.487985468714197,-2.1870541676214206,"(0.0, 0.0, 0.0, 0.0, 0.0, 0.0)",0.3554608511915877,-0.001365946114079445,0.03631559229294455,"(0.0, 0.0, 0.0, 0.0, 0.0, 0.0)",0.026026755426892093,False,,,,,False,,,,
29,Close,,,"(3.819349109750643e-09, 0.16999994350316286, 7.914305593764796e-05)","(1.5700606283751846, 1.2357610516186277e-06, -4.058049624060407e-09)",,"[-0.026750000193715096, 0.05299999937415123, 0.03999999910593033]","[0.0, -0.0, 1.4879842849605203]","[-0.09850326180458069, 0.05895565450191498, 0.03999999910593033]","[0.0, -0.0, 1.4893357278409396]","[0.026750000193715096, 0.05299999937415123, 0.03999999910593033]","[0.0, 0.0, -1.4879853833286059]","[0.09850326925516129, 0.05895556882023811, 0.03999999910593033]","[0.0, 0.0, -1.4893513332680077]",1.4961858633265903,1.9683769779575933,"(0.0, 0.0, 0.0, 0.0, 0.0, 0.0)",-0.31995094896823073,0.0012165319928285922,-0.03234212113369103,"(0.0, 0.0, 0.0, 0.0, 0.0, 0.0)",-0.02343792779000599,-1.4961869218427772,-1.9683487508592754,"(0.0, 0.0, 0.0, 0.0, 0.0, 0.0)",0.31994211580738524,-0.0012297216752996233,0.03269386530715718,"(0.0, 0.0, 0.0, 0.0, 0.0, 0.0)",0.02343334437795369,False,,,,,False,,,,
30,Close,,,"(1.09441459674075e-09, 0.16999988769159868, 0.0001519632082907279)","(1.5701173533571526, -2.5467641220651055e-06, -4.573996600559749e-08)",,"[-0.026750000193715096, 0.05299999937415123, 0.03999999910593033]","[0.0, -0.0, 1.4961860174198076]","[-0.09854969382286072, 0.05836696922779083, 0.03999999910593033]","[0.0, -0.0, 1.4974025341106605]","[0.026750000193715096, 0.05299999937415123, 0.03999999910593033]","[0.0, 0.0, -1.4961870219527165]","[0.09854969382286072, 0.05836689472198486, 0.03999999910593033]","[0.0, 0.0, -1.4974167044724178]",1.4065672769939312,-21.50846071983817,"(0.0, 0.0, 0.0, 0.0, 0.0, 0.0)",-36.83524610171859,-0.08890468746940376,-21.629092670935766,"(0.0, 0.0, 0.0, 0.0, 0.0, 0.0)",-4.936581214831643,-1.4065682296584996,21.508486124226657,"(0.0, 0.0, 0.0, 0.0, 0.0, 0.0)",36.83523814678565,0.0888928167555427,21.629409223402156,"(0.0, 0.0, 0.0, 0.0, 0.0, 0.0)",4.936577085092772,False,,,,,False,,,,
31,Close,,,"(3.541182821644653e-08, 0.1699998011443987, 0.00021906657187154062)","(1.570205104748116, 3.3042409171564205e-05, -8.114212850492596e-08)",,"[-0.026750000193715096, 0.05299999937415123, 0.03999999910593033]","[0.0, -0.0, 1.4065674382065954]","[-0.0977812185883522, 0.06477140635251999, 0.03999999910593033]","[0.0, -0.0, 1.3176625934179576]","[0.026750000193715096, 0.05299999937415123, 0.03999999910593033]","[0.0, 0.0, -1.4065680331882469]","[0.0977812260389328, 0.06477133929729462, 0.03999999910593033]","[0.0, 0.0, -1.3176753491400532]",1.3259105492945382,-19.357614647854348,"(0.0, 0.0, 0.0, 0.0, 0.0, 0.0)",3.3395407019063446,-0.17001473426920377,-19.466411231952,"(0.0, 0.0, 0.0, 0.0, 0.0, 0.0)",0.4376834422569755,-1.3259114066926496,19.35763751180399,"(0.0, 0.0, 0.0, 0.0, 0.0, 0.0)",-3.3395473112045253,0.1700040506304986,19.466696129989415,"(0.0, 0.0, 0.0, 0.0, 0.0, 0.0)",-0.43768664266468643,False,,,,,False,,,,
32,Close,,,"(3.361538948490201e-08, 0.16999974452330968, 0.00028077538773600935)","(1.5702911774727688, 7.027968338074274e-05, -7.017997684986258e-06)",,"[-0.026750000193715096, 0.05299999937415123, 0.03999999910593033]","[0.0, -0.0, 1.325910602539969]","[-0.09660188108682632, 0.07045608013868332, 0.03999999910593033]","[0.0, -0.0, 1.1558959321658662]","[0.026750000193715096, 0.05299999937415123, 0.03999999910593033]","[0.0, 0.0, -1.3259115331240872]","[0.09660189598798752, 0.07045602053403854, 0.03999999910593033]","[0.0, 0.0, -1.1559073716167563]",1.2533194943650845,-17.42185318306892,"(0.0, 0.0, 0.0, 0.0, 0.0, 0.0)",3.0100864599566086,-0.2430137284658432,-17.519758607193467,"(0.0, 0.0, 0.0, 0.0, 0.0, 0.0)",0.39699812510351973,-1.2533202660233846,17.42187376062359,"(0.0, 0.0, 0.0, 0.0, 0.0, 0.0)",-3.0100924602349655,0.24300411319445853,17.52001501535039,"(0.0, 0.0, 0.0, 0.0, 0.0, 0.0)",-0.39700105403357716,False,,,,,False,,,,
33,Close,,,"(1.2478111664315067e-07, 0.16999960627903704, 0.000337513976604643)","(1.5703757790333803, 0.0001088681261817636, -5.122611399447184e-06)",,"[-0.026750000193715096, 0.05299999937415123, 0.03999999910593033]","[0.0, -0.0, 1.2533194489161892]","[-0.0951518788933754, 0.07547627389431, 0.03999999910593033]","[0.0, -0.0, 1.0103057011386807]","[0.026750000193715096, 0.05299999937415123, 0.03999999910593033]","[0.0, 0.0, -1.2533201846969224]","[0.09515189379453659, 0.07547622174024582, 0.03999999910593033]","[0.0, 0.0, -1.010316110149499]",1.1879875449285762,-15.679667864762028,"(0.0, 0.0, 0.0, 0.0, 0.0, 0.0)",2.712712783767229,-0.30871235561933186,-15.767670516837281,"(0.0, 0.0, 0.0, 0.0, 0.0, 0.0)",0.3597856734528228,-1.1879882394210461,15.679686384561233,"(0.0, 0.0, 0.0, 0.0, 0.0, 0.0)",-2.712718226071338,0.30870370187508567,15.767901283350515,"(0.0, 0.0, 0.0, 0.0, 0.0, 0.0)",-0.35978834883250516,False,,,,,False,,,,
34,Close,,,"(1.2869376016944667e-07, 0.16999954011037416, 0.00038973303114976833)","(1.5704582297133343, 0.0001496263682483943, -9.931543136061158e-06)",,"[-0.026750000193715096, 0.05299999937415123, 0.03999999910593033]","[0.0, -0.0, 1.1879876003522736]","[-0.09353857487440109, 0.07989397644996643, 0.03999999910593033]","[0.0, -0.0, 0.8792752425767008]","[0.026750000193715096, 0.05299999937415123, 0.03999999910593033]","[0.0, 0.0, -1.1879882623869136]","[0.09353859722614288, 0.07989392429590225, 0.03999999910593033]","[0.0, 0.0, -0.8792844680170303]",1.1291887904356523,-14.1117010783017,"(0.0, 0.0, 0.0, 0.0, 0.0, 0.0)",2.44436472036771,-0.36784112005739866,-14.190903465136039,"(0.0, 0.0, 0.0, 0.0, 0.0, 0.0)",0.3258007578595482,-1.1291894154788755,14.111717746120975,"(0.0, 0.0, 0.0, 0.0, 0.0, 0.0)",-2.444369652349295,0.3678333316875771,14.191111154997946,"(0.0, 0.0, 0.0, 0.0, 0.0, 0.0)",-0.32580319741325486,False,,,,,False,,,,
35,Close,,,"(2.2147778895778094e-07, 0.169999403724105, 0.00043775502472391954)","(1.5705392813318275, 0.0001916771605813282, -8.19762937926826e-06)",,"[-0.026750000193715096, 0.05299999937415123, 0.03999999910593033]","[0.0, -0.0, 1.1291888000608494]","[-0.09184273332357407, 0.08377231657505035, 0.03999999910593033]","[0.0, -0.0, 0.7613476921786614]","[0.026750000193715096, 0.05299999937415123, 0.03999999910593033]","[0.0, 0.0, -1.1291894580384154]","[0.09184275567531586, 0.08377227932214737, 0.03999999910593033]","[0.0, 0.0, -0.7613561373098183]",1.0762699113920273,-12.700530970470014,"(0.0, 0.0, 0.0, 0.0, 0.0, 0.0)",2.202305891359772,-0.4210570080516588,-12.77181311862243,"(0.0, 0.0, 0.0, 0.0, 0.0, 0.0)",0.2948453788489373,-1.0762704739309281,12.700545971507374,"(0.0, 0.0, 0.0, 0.0, 0.0, 0.0)",-2.2023103576802145,0.4210499985188194,12.77200003949815,"(0.0, 0.0, 0.0, 0.0, 0.0, 0.0)",-0.2948476002056522,False,,,,,False,,,,
36,Close,,,"(2.1912693722736075e-07, 0.16999934361709654, 0.000481956449276018)","(1.5706184388641253, 0.00023565575873296478, -1.2845786801691941e-05)",,"[-0.026750000193715096, 0.05299999937415123, 0.03999999910593033]","[0.0, -0.0, 1.0762698553554748]","[-0.09012393653392792, 0.08717226982116699, 0.03999999910593033]","[0.0, -0.0, 0.6552128934948661]","[0.026750000193715096, 0.05299999937415123, 0.03999999910593033]","[0.0, 0.0, -1.0762704893583]","[0.09012395888566971, 0.08717223256826401, 0.03999999910593033]","[0.0, 0.0, -0.6552204147476549]",1.0286429202528247,-11.430477873408655,"(0.0, 0.0, 0.0, 0.0, 0.0, 0.0)",1.9840011930578276,-0.46895130724721834,-11.494631806934295,"(0.0, 0.0, 0.0, 0.0, 0.0, 0.0)",0.26667684533441977,-1.0286434265378352,11.430491374342276,"(0.0, 0.0, 0.0, 0.0, 0.0, 0.0)",-1.984005235051249,0.4689449986676629,11.494800035722442,"(0.0, 0.0, 0.0, 0.0, 0.0, 0.0)",-0.26667886541975433,False,,,,,False,,,,
37,Close,,,"(3.1131510586280866e-07, 0.1699992121070205, 0.0005226007520893923)","(1.5706964879884222, 0.0002806415891397876, -1.1307759452448239e-05)",,"[-0.026750000193715096, 0.05299999937415123, 0.03999999910593033]","[0.0, -0.0, 1.0286429345076582]","[-0.0884251669049263, 0.09015069156885147, 0.03999999910593033]","[0.0, -0.0, 0.5596916647508587]","[0.026750000193715096, 0.05299999937415123, 0.03999999910593033]","[0.0, 0.0, -1.0286435120859125]","[0.08842518925666809, 0.09015065431594849, 0.03999999910593033]","[0.0, 0.0, -0.5596984028120249]",0.9857786282275423,-10.287430086067793,"(0.0, 0.0, 0.0, 0.0, 0.0, 0.0)",1.787161045327472,-0.5120561765231523,-10.345168626224153,"(0.0, 0.0, 0.0, 0.0, 0.0, 0.0)",0.24107512437447856,-0.9857790838840517,10.28744223690805,"(0.0, 0.0, 0.0, 0.0, 0.0, 0.0)",-1.787164701188607,0.5120504988015524,10.345320032133483,"(0.0, 0.0, 0.0, 0.0, 0.0, 0.0)",-0.24107695935135354,False,,,,,False,,,,
38,Close,,,"(3.0991842655903425e-07, 0.169999153087261, 0.0005600347082356065)","(1.570772558536085, 0.00032764712563817383, -1.5390013302753274e-05)",,"[-0.026750000193715096, 0.05299999937415123, 0.03999999910593033]","[0.0, -0.0, 0.9857786218799983]","[-0.08677656948566437, 0.09275941550731659, 0.03999999910593033]","[0.0, -0.0, 0.4737224893055005]","[0.026750000193715096, 0.05299999937415123, 0.03999999910593033]","[0.0, 0.0, -0.9857791586690391]","[0.08677658438682556, 0.0927593931555748, 0.03999999910593033]","[0.0, 0.0, -0.47372859204714834]",0.9472007654041954,-9.258687077603232,"(0.0, 0.0, 0.0, 0.0, 0.0, 0.0)",1.6097085175776904,-0.550850558870837,-9.310651763444346,"(0.0, 0.0, 0.0, 0.0, 0.0, 0.0)",0.21783104241587867,-0.9472011754950539,9.258698013359455,"(0.0, 0.0, 0.0, 0.0, 0.0, 0.0)",-1.609711822487034,0.5508454489213972,9.310788028762744,"(0.0, 0.0, 0.0, 0.0, 0.0, 0.0)",-0.21783270758412676,False,,,,,False,,,,
39,Close,,,"(4.0106165104263135e-07, 0.169999026405202, 0.0005944331352702725)","(1.570848092729261, 0.0003750986118602944, -1.4060502423520339e-05)",,"[-0.026750000193715096, 0.05299999937415123, 0.03999999910593033]","[0.0, -0.0, 0.9472008140782049]","[-0.08519845455884933, 0.09504495561122894, 0.03999999910593033]","[0.0, -0.0, 0.39635019782230363]","[0.026750000193715096, 0.05299999937415123, 0.03999999910593033]","[0.0, 0.0, -0.9472011867132297]","[0.08519846946001053, 0.09504493325948715, 0.03999999910593033]","[0.0, 0.0, -0.3963557154153113]",0.9124806888632406,-8.332818369829143,"(0.0, 0.0, 0.0, 0.0, 0.0, 0.0)",1.4497611633824499,-0.5857655029837533,-8.379586587099913,"(0.0, 0.0, 0.0, 0.0, 0.0, 0.0)",0.19674731686213875,-0.9124810579450133,8.332828212009746,"(0.0, 0.0, 0.0, 0.0, 0.0, 0.0)",-1.4497641496546352,0.5857609040292575,8.379709225886469,"(0.0, 0.0, 0.0, 0.0, 0.0, 0.0)",-0.1967488266016999,False,,,,,False,,,,
40,Close,,,"(3.70657372146465e-07, 0.16999903038777142, 0.0006260749884053443)","(1.5708440552876382, 0.00034508120830118214, -1.4055585689260766e-05)",,"[-0.026750000193715096, 0.05299999937415123, 0.03999999910593033]","[0.0, -0.0, 0.9124807402838544]","[-0.08370371162891388, 0.09704854339361191, 0.03999999910593033]","[0.0, -0.0, 0.32671521193417863]","[0.026750000193715096, 0.05299999937415123, 0.03999999910593033]","[0.0, 0.0, -0.9124811663733811]","[0.08370373398065567, 0.09704852104187012, 0.03999999910593033]","[0.0, 0.0, -0.32672018954414506]",0.8812326199769166,-7.499536532717775,"(0.0, 0.0, 0.0, 0.0, 0.0, 0.0)",1.3056085801322186,-0.6171891619197363,-7.541678144635914,"(0.0, 0.0, 0.0, 0.0, 0.0, 0.0)",0.17763358199117588,-0.881232952150512,7.499545390680321,"(0.0, 0.0, 0.0, 0.0, 0.0, 0.0)",-1.305611277336412,0.617185022862301,7.541788519930457,"(0.0, 0.0, 0.0, 0.0, 0.0, 0.0)",-0.17763494969582577,False,,,,,False,,,,
41,Close,,,"(3.427044292909036e-07, 0.1699990340506735, 0.0006551854712062516)","(1.5708403346470328, 0.0003174583455114455, -1.4051356821419932e-05)",,"[-0.026750000193715096, 0.05299999937415123, 0.03999999910593033]","[0.0, -0.0, 0.8812326035131218]","[-0.08229970186948776, 0.09880644828081131, 0.03999999910593033]","[0.0, -0.0, 0.26404346611112495]","[0.026750000193715096, 0.05299999937415123, 0.03999999910593033]","[0.0, 0.0, -0.8812328730718287]","[0.08229971677064896, 0.09880642592906952, 0.03999999910593033]","[0.0, 0.0, -0.2640479150919315]",0.8531093579792249,-6.749582879446001,"(0.0, 0.0, 0.0, 0.0, 0.0, 0.0)",1.1757252455852583,-0.6454704345862542,-6.78750543996429,"(0.0, 0.0, 0.0, 0.0, 0.0, 0.0)",0.16033509317806058,-0.8531096569354608,6.7495908516122896,"(0.0, 0.0, 0.0, 0.0, 0.0, 0.0)",-1.1757276808922346,0.645466709436021,6.787604777692787,"(0.0, 0.0, 0.0, 0.0, 0.0, 0.0)",-0.16033633143309114,False,,,,,False,,,,
42,Close,,,"(3.170084497545684e-07, 0.16999903740907119, 0.0006819671107693073)","(1.570836911771951, 0.00029204530032808255, -1.4047683015968837e-05)",,"[-0.026750000193715096, 0.05299999937415123, 0.03999999910593033]","[0.0, -0.0, 0.8531093567174074]","[-0.08098968118429184, 0.10035036504268646, 0.03999999910593033]","[0.0, -0.0, 0.2076389231904772]","[0.026750000193715096, 0.05299999937415123, 0.03999999910593033]","[0.0, 0.0, -0.8531096230941355]","[0.08098969608545303, 0.10035035014152527, 0.03999999910593033]","[0.0, 0.0, -0.2076429742570099]",0.8277984221813024,-6.0746245915014,"(0.0, 0.0, 0.0, 0.0, 0.0, 0.0)",1.0586966037970245,-0.6709235615380169,-6.1087504684230565,"(0.0, 0.0, 0.0, 0.0, 0.0, 0.0)",0.14467321668423558,-0.8277986912419147,6.074631766451059,"(0.0, 0.0, 0.0, 0.0, 0.0, 0.0)",-1.0586988018726124,0.6709202089041267,6.108839872345364,"(0.0, 0.0, 0.0, 0.0, 0.0, 0.0)",-0.14467433700617466,False,,,,,False,,,,
43,Close,,,"(2.93385406087929e-07, 0.16999904048782613, 0.0007066062149797113)","(1.5708337628331848, 0.0002686652895538331, -1.4044478861914954e-05)",,"[-0.026750000193715096, 0.05299999937415123, 0.03999999910593033]","[0.0, -0.0, 0.8277984323872327]","[-0.07977395504713058, 0.10170790553092957, 0.03999999910593033]","[0.0, -0.0, 0.15687485461046338]","[0.026750000193715096, 0.05299999937415123, 0.03999999910593033]","[0.0, 0.0, -0.8277987052452376]","[0.07977396249771118, 0.10170789808034897, 0.03999999910593033]","[0.0, 0.0, -0.15687847762667875]",0.8050185799631722,-5.467162132351259,"(0.0, 0.0, 0.0, 0.0, 0.0, 0.0)",0.9532674830029981,-0.6938313591081322,-5.497871416827678,"(0.0, 0.0, 0.0, 0.0, 0.0, 0.0)",0.1305069121449798,-0.8050188221177232,5.467168589805953,"(0.0, 0.0, 0.0, 0.0, 0.0, 0.0)",-0.9532694663734236,0.6938283417388244,5.49795188032743,"(0.0, 0.0, 0.0, 0.0, 0.0, 0.0)",-0.13050792520753388,False,,,,,False,,,,
44,Close,,,"(2.716665250887489e-07, 0.16999904330973556, 0.0007292741870466809)","(1.5708308659078907, 0.0002471556717650467, -1.4041672069322908e-05)",,"[-0.026750000193715096, 0.05299999937415123, 0.03999999910593033]","[0.0, -0.0, 0.8050185839979388]","[-0.07865073531866074, 0.10290304571390152, 0.03999999910593033]","[0.0, -0.0, 0.11118723016400785]","[0.026750000193715096, 0.05299999937415123, 0.03999999910593033]","[0.0, 0.0, -0.8050187952188965]","[0.07865074276924133, 0.10290303081274033, 0.03999999910593033]","[0.0, 0.0, -0.11119048022217565]",0.784516721966855,-4.920445919116134,"(0.0, 0.0, 0.0, 0.0, 0.0, 0.0)",0.8582975670224743,-0.7144483618360385,-4.948080654697517,"(0.0, 0.0, 0.0, 0.0, 0.0, 0.0)",0.11770004006048959,-0.784516939905951,4.92045173082536,"(0.0, 0.0, 0.0, 0.0, 0.0, 0.0)",-0.8582993561887614,0.7144456462047399,4.948153071819748,"(0.0, 0.0, 0.0, 0.0, 0.0, 0.0)",-0.11770095568272418,False,,,,,False,,,,
45,Close,,,"(2.51696986958339e-07, 0.1699990458957082, 0.0007501287178850499)","(1.5708282008276007, 0.000227366816649173, -1.4039201474218165e-05)",,"[-0.026750000193715096, 0.05299999937415123, 0.03999999910593033]","[0.0, -0.0, 0.7845167193080385]","[-0.07761679589748383, 0.10395654290914536, 0.03999999910593033]","[0.0, -0.0, 0.07006835685702544]","[0.026750000193715096, 0.05299999937415123, 0.03999999910593033]","[0.0, 0.0, -0.7845169946958266]","[0.07761680334806442, 0.10395653545856476, 0.03999999910593033]","[0.0, 0.0, -0.0700712989357174]",0.7660650497701694,-4.42840132720452,"(0.0, 0.0, 0.0, 0.0, 0.0, 0.0)",0.7727568402429666,-0.7330036506599046,-4.453269317727849,"(0.0, 0.0, 0.0, 0.0, 0.0, 0.0)",0.106127525293464,-0.7660652459153559,4.428406557742824,"(0.0, 0.0, 0.0, 0.0, 0.0, 0.0)",-0.7727584538402424,0.7330012065927102,4.453334493112861,"(0.0, 0.0, 0.0, 0.0, 0.0, 0.0)",-0.10612835248484857,False,,,,,False,,,,
46,Close,,,"(2.3333473952068603e-07, 0.16999904826492518, 0.0007693148831029557)","(1.5708257490378412, 0.00020916106414766092, -1.403701531280991e-05)",,"[-0.026750000193715096, 0.05299999937415123, 0.03999999910593033]","[0.0, -0.0, 0.7660649977175382]","[-0.07666795700788498, 0.10488639771938324, 0.03999999910593033]","[0.0, -0.0, 0.03306140223906952]","[0.026750000193715096, 0.05299999937415123, 0.03999999910593033]","[0.0, 0.0, -0.7660653079646047]","[0.07666796445846558, 0.10488638281822205, 0.03999999910593033]","[0.0, 0.0, -0.033064041138401834]",0.7494585447931524,-3.985561194484066,"(0.0, 0.0, 0.0, 0.0, 0.0, 0.0)",0.6957152666369016,-0.7497033982890566,-4.007939430996486,"(0.0, 0.0, 0.0, 0.0, 0.0, 0.0)",0.09567473522853766,-0.7494587213238203,3.985565901968542,"(0.0, 0.0, 0.0, 0.0, 0.0, 0.0)",-0.6957167215859875,0.7497011986294615,4.007998088820328,"(0.0, 0.0, 0.0, 0.0, 0.0, 0.0)",-0.09567548223716564,False,,,,,False,,,,
47,Close,,,"(2.1644941757498085e-07, 0.1699990504349868, 0.0007869661522299996)","(1.5708234934689855, 0.0001924117668631307, -1.4035069780186692e-05)",,"[-0.026750000193715096, 0.05299999937415123, 0.03999999910593033]","[0.0, -0.0, 0.7494586090384826]","[-0.07579945772886276, 0.10570816695690155, 0.03999999910593033]","[0.0, 0.0, -0.000244853492999894]","[0.026750000193715096, 0.05299999937415123, 0.03999999910593033]","[0.0, 0.0, -0.7494587081400255]","[0.07579946517944336, 0.10570815205574036, 0.03999999910593033]","[0.0, -0.0, 0.00024247731079752444]",0.7345126903138371,-3.587005075035659,"(0.0, 0.0, 0.0, 0.0, 0.0, 0.0)",0.626333365984163,-0.764733160038395,-3.6071428198412123,"(0.0, 0.0, 0.0, 0.0, 0.0, 0.0)",0.08623682787405348,-0.7345128491914382,3.587009311771688,"(0.0, 0.0, 0.0, 0.0, 0.0, 0.0)",-0.6263346776346612,0.7647311803455538,3.607195611862134,"(0.0, 0.0, 0.0, 0.0, 0.0, 0.0)",-0.08623750223625977,False,,,,,False,,,,
48,Close,,,"(1.9902478529523268e-07, 0.16999905216510106, 0.0008031506134026157)","(1.5708213694672628, 0.00017518801369688713, -1.4031269556480368e-05)",,"[-0.026750000193715096, 0.05299999937415123, 0.03999999910593033]","[0.0, -0.0, 0.7345126628086843]","[-0.07500623911619186, 0.10643533617258072, 0.03999999910593033]","[0.0, 0.0, -0.03022046980229406]","[0.026750000193715096, 0.05299999937415123, 0.03999999910593033]","[0.0, 0.0, -0.7345128981556924]","[0.07500624656677246, 0.10643532872200012, 0.03999999910593033]","[0.0, -0.0, 0.03021832986745902]",0.7210614212824534,-3.228304567532092,"(0.0, 0.0, 0.0, 0.0, 0.0, 0.0)",0.5638237707840803,-0.7782610712626786,-3.246698693828069,"(0.0, 0.0, 0.0, 0.0, 0.0, 0.0)",0.07768823801248652,-0.7210615642722944,3.2283083805945183,"(0.0, 0.0, 0.0, 0.0, 0.0, 0.0)",-0.5638249528147553,0.7782592895487316,3.2467462087626835,"(0.0, 0.0, 0.0, 0.0, 0.0, 0.0)",-0.07768884636877696,False,,,,,False,,,,
49,Close,,,"(1.829952775457341e-07, 0.16999905372445717, 0.0008180403399689366)","(1.5708194143492393, 0.00015934185659229473, -1.4027683329641553e-05)",,"[-0.026750000193715096, 0.05299999937415123, 0.03999999910593033]","[0.0, -0.0, 0.7210614193238458]","[-0.07428312301635742, 0.10707958787679672, 0.03999999910593033]","[0.0, 0.0, -0.05719964992344959]","[0.026750000193715096, 0.05299999937415123, 0.03999999910593033]","[0.0, 0.0, -0.7210615729227128]","[0.07428313046693802, 0.10707958042621613, 0.03999999910593033]","[0.0, -0.0, 0.05719773186848648]",0.7089552791542081,-2.905474110778883,"(0.0, 0.0, 0.0, 0.0, 0.0, 0.0)",0.5075985242705942,-0.7904360705014085,-2.921999817295172,"(0.0, 0.0, 0.0, 0.0, 0.0, 0.0)",0.07003713951344083,-0.7089554078450649,2.905477542535066,"(0.0, 0.0, 0.0, 0.0, 0.0, 0.0)",-0.5075995897946305,0.7904344669675306,2.9220425805117625,"(0.0, 0.0, 0.0, 0.0, 0.0, 0.0)",-0.07003768863744474,False,,,,,False,,,,
50,Close,,,"(1.682467379846132e-07, 0.1699990551245469, 0.0008317388481303276)","(1.570817615731277, 0.00014476218910829968, -1.4024269510216624e-05)",,"[-0.026750000193715096, 0.05299999937415123, 0.03999999910593033]","[0.0, -0.0, 0.7089552779168017]","[-0.07362496107816696, 0.10765105485916138, 0.03999999910593033]","[0.0, 0.0, -0.08148078223376223]","[0.026750000193715096, 0.05299999937415123, 0.03999999910593033]","[0.0, 0.0, -0.7089554724698194]","[0.07362496852874756, 0.10765104740858078, 0.03999999910593033]","[0.0, -0.0, 0.0814790502780401]",0.6980597512387873,-2.6149266997009946,"(0.0, 0.0, 0.0, 0.0, 0.0, 0.0)",0.45693917814201784,-0.8013934602632394,-2.6297735428394082,"(0.0, 0.0, 0.0, 0.0, 0.0, 0.0)",0.06310201359777694,-0.6980598670605584,2.614929788281559,"(0.0, 0.0, 0.0, 0.0, 0.0, 0.0)",-0.45694013827892466,0.8013920170905735,2.6298120295302843,"(0.0, 0.0, 0.0, 0.0, 0.0, 0.0)",-0.06310250889925509,False,,,,,False,,,,
51,Close,,,"(1.546756367802499e-07, 0.16999905637827734, 0.0008443414385910609)","(1.5708159610857961, 0.00013134778772512943, -1.402100024143693e-05)",,"[-0.026750000193715096, 0.05299999937415123, 0.03999999910593033]","[0.0, -0.0, 0.6980597686270504]","[-0.07302673906087875, 0.10815852880477905, 0.03999999910593033]","[0.0, 0.0, -0.10333370902653251]","[0.026750000193715096, 0.05299999937415123, 0.03999999910593033]","[0.0, 0.0, -0.6980598246378259]","[0.07302674651145935, 0.10815852135419846, 0.03999999910593033]","[0.0, -0.0, 0.10333215264877679]",0.6882537761149086,-2.3534340297308955,"(0.0, 0.0, 0.0, 0.0, 0.0, 0.0)",0.41132662822933225,-0.8112550122446371,-2.3667724755354502,"(0.0, 0.0, 0.0, 0.0, 0.0, 0.0)",0.056847326346645,-0.6882538803545026,2.353436809453404,"(0.0, 0.0, 0.0, 0.0, 0.0, 0.0)",-0.4113274932960819,0.8112537133962935,2.3668071133728046,"(0.0, 0.0, 0.0, 0.0, 0.0, 0.0)",-0.0568477730004364,False,,,,,False,,,,
52,Close,,,"(1.4218689550358636e-07, 0.1699990574974972, 0.0008559357877458743)","(1.5708144388885392, 0.00011900551991941484, -1.4017852050493115e-05)",,"[-0.026750000193715096, 0.05299999937415123, 0.03999999910593033]","[0.0, -0.0, 0.6882538042795985]","[-0.07248363643884659, 0.10860966145992279, 0.03999999910593033]","[0.0, 0.0, -0.12300123728040792]","[0.026750000193715096, 0.05299999937415123, 0.03999999910593033]","[0.0, 0.0, -0.688253900607872]","[0.07248364388942719, 0.1086096540093422, 0.03999999910593033]","[0.0, -0.0, 0.12299984676553348]",0.6794283985034177,-2.118090626757806,"(0.0, 0.0, 0.0, 0.0, 0.0, 0.0)",0.3702598465395096,-0.8201303199370257,-2.1300738461732434,"(0.0, 0.0, 0.0, 0.0, 0.0, 0.0)",0.051207533272865695,-0.6794284923190523,2.1180931285080637,"(0.0, 0.0, 0.0, 0.0, 0.0, 0.0)",-0.37026062586363284,0.8201291509798778,2.130105020060234,"(0.0, 0.0, 0.0, 0.0, 0.0, 0.0)",-0.051207935975855504,False,,,,,False,,,,
53,Close,,,"(1.3069318416839e-07, 0.16999905849308636, 0.0008666025576372722)","(1.5708130385376784, 0.00010764969663878531, -1.401480516953977e-05)",,"[-0.026750000193715096, 0.05299999937415123, 0.03999999910593033]","[0.0, -0.0, 0.6794284238724229]","[-0.07199108600616455, 0.10901110619306564, 0.03999999910593033]","[0.0, 0.0, -0.14070193198542613]","[0.026750000193715096, 0.05299999937415123, 0.03999999910593033]","[0.0, 0.0, -0.6794284800706577]","[0.07199109345674515, 0.10901109874248505, 0.03999999910593033]","[0.0, -0.0, 0.1407006814892172]",0.6714855586530759,-1.9062815640820263,"(0.0, 0.0, 0.0, 0.0, 0.0, 0.0)",0.33328720146674756,-0.82811801654313,-1.9170471854650495,"(0.0, 0.0, 0.0, 0.0, 0.0, 0.0)",0.0461231568532664,-0.6714856430871471,1.9062838156572566,"(0.0, 0.0, 0.0, 0.0, 0.0, 0.0)",-0.33328790347714454,0.8281169644874314,1.917075241812861,"(0.0, 0.0, 0.0, 0.0, 0.0, 0.0)",-0.04612351986457081,False,,,,,False,,,,
54,Close,,,"(1.201142787701026e-07, 0.1699990593750365, 0.0008764159571233717)","(1.5708117502799854, 9.720147739875066e-05, -1.4011842957469135e-05)",,"[-0.026750000193715096, 0.05299999937415123, 0.03999999910593033]","[0.0, -0.0, 0.6714856028191667]","[-0.07154478132724762, 0.10936867445707321, 0.03999999910593033]","[0.0, 0.0, -0.1566324602805662]","[0.026750000193715096, 0.05299999937415123, 0.03999999910593033]","[0.0, 0.0, -0.6714856028191667]","[0.07154478132724762, 0.10936867445707321, 0.03999999910593033]","[0.0, -0.0, 0.15663130155257995]",0.6643370027877683,-1.7156534076738226,"(0.0, 0.0, 0.0, 0.0, 0.0, 0.0)",0.30000166468946887,-0.8353068710937589,-1.7253250921509458,"(0.0, 0.0, 0.0, 0.0, 0.0, 0.0)",0.041540284771796165,-0.6643370787784324,1.7156554340915304,"(0.0, 0.0, 0.0, 0.0, 0.0, 0.0)",-0.3000022969997827,0.8353059242487986,1.725350342728124,"(0.0, 0.0, 0.0, 0.0, 0.0, 0.0)",-0.041540611950472935,False,,,,,False,,,,
55,Close,,,"(1.1037647424359984e-07, 0.16999906015252483, 0.0008854442581506275)","(1.5708105651429114, 8.758832292823178e-05, -1.4008951415989527e-05)",,"[-0.026750000193715096, 0.05299999937415123, 0.03999999910593033]","[0.0, -0.0, 0.6643370606126838]","[-0.07114068418741226, 0.1096874549984932, 0.03999999910593033]","[0.0, 0.0, -0.17096987637179278]","[0.026750000193715096, 0.05299999937415123, 0.03999999910593033]","[0.0, 0.0, -0.6643370606126838]","[0.07114069163799286, 0.1096874475479126, 0.03999999910593033]","[0.0, -0.0, 0.17096884643662202]",0.6579033025089914,-1.5440880669064398,"(0.0, 0.0, 0.0, 0.0, 0.0, 0.0)",0.2700364572532802,-0.8417767749452665,-1.5527769243618206,"(0.0, 0.0, 0.0, 0.0, 0.0, 0.0)",0.03741008611729049,-0.6579033709005891,1.5440898906823783,"(0.0, 0.0, 0.0, 0.0, 0.0, 0.0)",-0.27003702673818186,0.8417759227894597,1.5527996497586782,"(0.0, 0.0, 0.0, 0.0, 0.0, 0.0)",-0.03741038095743008,False,,,,,False,,,,
56,Close,,,"(1.0141204673652616e-07, 0.16999906083398159, 0.0008937502707232629)","(1.570809474872104, 7.87434915574051e-05, -1.4006118772737545e-05)",,"[-0.026750000193715096, 0.05299999937415123, 0.03999999910593033]","[0.0, -0.0, 0.6579033304946226]","[-0.07077505439519882, 0.10997187346220016, 0.03999999910593033]","[0.0, 0.0, -0.18387348897538708]","[0.026750000193715096, 0.05299999937415123, 0.03999999910593033]","[0.0, 0.0, -0.6579033304946226]","[0.07077506184577942, 0.10997187346220016, 0.03999999910593033]","[0.0, -0.0, 0.1838725619548152]",0.6521129722580923,-1.3896792602157946,"(0.0, 0.0, 0.0, 0.0, 0.0, 0.0)",0.24306111081870946,-0.8475996296201711,-1.3974851219770965,"(0.0, 0.0, 0.0, 0.0, 0.0, 0.0)",0.033688362136148925,-0.6521130338105302,1.38968090161414,"(0.0, 0.0, 0.0, 0.0, 0.0, 0.0)",-0.24306162368353448,0.8475988626841415,1.3975055747236533,"(0.0, 0.0, 0.0, 0.0, 0.0, 0.0)",-0.03368862779939208,False,,,,,False,,,,
57,Close,,,"(9.31587620256511e-08, 0.16999906142715163, 0.0009013917798737923)","(1.570808471873919, 7.060557585400826e-05, -1.4003335136779464e-05)",,"[-0.026750000193715096, 0.05299999937415123, 0.03999999910593033]","[0.0, -0.0, 0.6521129301518677]","[-0.07044443488121033, 0.11022583395242691, 0.03999999910593033]","[0.0, 0.0, -0.19548665573955404]","[0.026750000193715096, 0.05299999937415123, 0.03999999910593033]","[0.0, 0.0, -0.6521129866161153]","[0.07044444233179092, 0.11022583395242691, 0.03999999910593033]","[0.0, -0.0, 0.19548582525750646]",0.646901675032283,-1.2507113341942153,"(0.0, 0.0, 0.0, 0.0, 0.0, 0.0)",0.2187779064062842,-0.8528401458571484,-1.2577238968745574,"(0.0, 0.0, 0.0, 0.0, 0.0, 0.0)",0.03033513071724496,-0.6469017304294772,1.2507128114527255,"(0.0, 0.0, 0.0, 0.0, 0.0, 0.0)",-0.2187783682505172,0.8528394556185027,1.2577423042466835,"(0.0, 0.0, 0.0, 0.0, 0.0, 0.0)",-0.03033537006280305,False,,,,,False,,,,
58,Close,,,"(8.555942447331213e-08, 0.16999906193915107, 0.000908421947674647)","(1.5708075491625393, 6.311807629477444e-05, -1.4000592203169427e-05)",,"[-0.026750000193715096, 0.05299999937415123, 0.03999999910593033]","[0.0, -0.0, 0.6469017074975589]","[-0.0701456218957901, 0.11045276373624802, 0.03999999910593033]","[0.0, 0.0, -0.20593848593871938]","[0.026750000193715096, 0.05299999937415123, 0.03999999910593033]","[0.0, 0.0, -0.6469017640113621]","[0.0701456293463707, 0.11045276373624802, 0.03999999910593033]","[0.0, -0.0, 0.2059377054983325]",0.6422115075290548,-1.1256402007747932,"(0.0, 0.0, 0.0, 0.0, 0.0, 0.0)",0.19691865600140895,-0.8575565627499749,-1.1319400542783593,"(0.0, 0.0, 0.0, 0.0, 0.0, 0.0)",0.027314243362735774,-0.6422115573865295,1.1256415303074527,"(0.0, 0.0, 0.0, 0.0, 0.0, 0.0)",-0.19691907187647334,0.8575559415385998,1.1319566208232932,"(0.0, 0.0, 0.0, 0.0, 0.0, 0.0)",-0.027314458975022625,False,,,,,False,,,,
59,Move,,,"(7.856146500561274e-08, 0.16999906237651882, 0.0009148896830877347)","(1.5708067003113224, 5.6229009009845055e-05, -1.399788300299107e-05)","[0.0, 0.0, 0.0]","[-0.026750000193715096, 0.05299999937415123, 0.03999999910593033]","[0.0, -0.0, 0.6422115222668433]","[-0.06987567991018295, 0.11065566539764404, 0.03999999910593033]","[0.0, 0.0, -0.21534502689171695]","[0.026750000193715096, 0.05299999937415123, 0.03999999910593033]","[0.0, 0.0, -0.6422115222668433]","[0.06987568736076355, 0.11065565794706345, 0.03999999910593033]","[0.0, -0.0, 0.2153443918565048]",0.6379903567761492,-1.0130761806973148,"(0.0, 0.0, 0.0, 0.0, 0.0, 0.0)",0.17724179525373857,-0.861801294967015,-1.0187357320896053,"(0.0, 0.0, 0.0, 0.0, 0.0, 0.0)",0.024593033118920006,-0.6379904016478766,1.0130773772767077,"(0.0, 0.0, 0.0, 0.0, 0.0, 0.0)",-0.1772421697155535,0.8618007358798453,1.0187506418989196,"(0.0, 0.0, 0.0, 0.0, 0.0, 0.0)",-0.024593227332916724,False,,,,,False,,,,
60,Move,,,"(7.401516452493873e-08, 0.16999906300717518, 0.0009208949427311885)","(1.5708059692049072, 5.171406878091127e-05, -1.3997173418156156e-05)","[-4.546300480674002e-09, 6.306563604674409e-10, 6.005259643453772e-06]","[-0.026750000193715096, 0.05299999937415123, 0.03999999910593033]","[0.0, -0.0, 0.6379903239810443]","[-0.06963192671537399, 0.1108371913433075, 0.03999999910593033]","[0.0, 0.0, -0.2238109552587812]","[0.026750000193715096, 0.05299999937415123, 0.03999999910593033]","[0.0, 0.0, -0.6379904179642307]","[0.06963192671537399, 0.1108371838927269, 0.03999999910593033]","[0.0, -0.0, 0.22381033482023305]",0.615110639462399,-5.491132155300077,"(0.0, 0.0, 0.0, 0.0, 0.0, 0.0)",-6.452665348763696,-0.8613763884842398,0.10197755586604229,"(0.0, 0.0, 0.0, 0.0, 0.0, 0.0)",-0.36782542138199165,-0.6151107211023208,5.491123330933392,"(0.0, 0.0, 0.0, 0.0, 0.0, 0.0)",6.4526488408560905,0.8613758231880564,-0.10197904602934349,"(0.0, 0.0, 0.0, 0.0, 0.0, 0.0)",0.36782252911949487,False,,,,,False,,,,
61,Move,,,"(6.525734425186348e-05, 0.17034549853437667, 0.001059997142676121)","(1.5643418998519334, 0.00019756355969089426, -0.0007979474479338168)","[6.517878278685787e-05, 0.00034643615785784343, 0.00014510745958838623]","[-0.026750000193715096, 0.05299999937415123, 0.03999999910593033]","[0.0, -0.0, 0.6151107619663475]","[-0.06829752027988434, 0.1118030920624733, 0.03999999910593033]","[0.0, 0.0, -0.24626574387408112]","[0.026750000193715096, 0.05299999937415123, 0.03999999910593033]","[0.0, 0.0, -0.6151107619663475]","[0.06829752773046494, 0.1118030920624733, 0.03999999910593033]","[0.0, -0.0, 0.24626510812228053]",0.59557520589455,-4.68850405628373,"(0.0, 0.0, 0.0, 0.0, 0.0, 0.0)",-45.004877301260535,-0.841587039207075,4.749443826519566,"(0.0, 0.0, 0.0, 0.0, 0.0, 0.0)",-23.059879711313982,-0.5955448471476087,4.6958097491309045,"(0.0, 0.0, 0.0, 0.0, 0.0, 0.0)",43.2331221848827,0.8422035798107438,-4.601338410555013,"(0.0, 0.0, 0.0, 0.0, 0.0, 0.0)",22.069611273367745,True,"(-0.03288698015965098, 0.18306432161630465, 0.039999948285931244)","(0.9999999985648672, -1.399717339714095e-05, -5.171406875791205e-05)",0.0009292587523792685,356.63318049990795,True,"(0.032887031061809374, 0.18306436848012048, 0.04000005171406876)","(-0.9999999985648671, 1.3997173395198976e-05, 5.171406875668148e-05)",0.0009247539911204204,342.7710504396539
62,Move,"(-0.0032, 0.0, 0.0006)","(0.0, 0.012639674442942934, 0.0)","(0.00016176697229314485, 0.17076934431250207, 0.001298992481510786)","(1.553459115144406, 0.0004787126916021603, -0.0016283617000435679)","[0.00016168841082813925, 0.0007702819359832469, 0.0003841027984230513]","[-0.026750000193715096, 0.05299999937415123, 0.03999999910593033]","[0.0, -0.0, 0.5955751094143519]","[-0.06714092195034027, 0.11260347068309784, 0.03999999910593033]","[0.0, 0.0, -0.24601185159459507]","[0.026750000193715096, 0.05299999937415123, 0.03999999910593033]","[0.0, 0.0, -0.5955448282145998]","[0.06713911145925522, 0.11260469257831573, 0.03999999910593033]","[0.0, -0.0, 0.24665872904210193]",0.5770970782178444,-4.434750642409365,"(0.0, 0.0, 0.0, 0.0, 0.0, 0.0)",-74.21698749878065,-0.811850997818181,7.136649933334551,"(0.0, 0.0, 0.0, 0.0, 0.0, 0.0)",-37.92588619525253,-0.5770027641966642,4.450099908226674,"(0.0, 0.0, 0.0, 0.0, 0.0, 0.0)",71.59541053355323,0.8135423707664626,-6.878690170627483,"(0.0, 0.0, 0.0, 0.0, 0.0, 0.0)",36.485404729774935,True,"(-0.03174847742362094, 0.1838726496858637, 0.03999980243644159)","(0.9999996621242782, -0.0007979473476813144, -0.0001975635584110712)",-0.00012778812911608492,569.3446982775357,True,"(0.031700570614753176, 0.18385320841010633, 0.0400001975635584)","(-0.9999996621242783, 0.0007979473476767542, 0.0001975635584049517)",-0.0003431682129125587,549.2893233704585
63,Move,"(-0.005200000000000001, 0.0, 0.0014)","(0.0, 0.03856130449356272, 0.0)","(0.00016273235370637123, 0.1710689795974571, 0.0015620495496341316)","(1.5455445629784659, -0.0006028391646200806, -0.0014563179214843857)","[0.00016265379224136563, 0.0010699172209382712, 0.0006471598665463969]","[-0.026750000193715096, 0.05299999937415123, 0.03999999910593033]","[0.0, -0.0, 0.5770971029289548]","[-0.06603273004293442, 0.11333960294723511, 0.03999999910593033]","[0.0, 0.0, -0.23475391897699402]","[0.026750000193715096, 0.05299999937415123, 0.03999999910593033]","[0.0, 0.0, -0.5770027543990871]","[0.06602703779935837, 0.11334330588579178, 0.03999999910593033]","[0.0, -0.0, 0.23653961426052006]",0.5801422325128791,0.7308370308083445,"(0.0, 0.0, 0.0, 0.0, 0.0, 0.0)",6.7232261720279425,-0.8148246019570704,-0.7136649933334551,"(0.0, 0.0, 0.0, 0.0, 0.0, 0.0)",-0.2938621846667296,-0.5787240666436118,-0.41311258726742484,"(0.0, 0.0, 0.0, 0.0, 0.0, 0.0)",-5.585855752529519,0.8163890531952421,0.6832037829070696,"(0.0, 0.0, 0.0, 0.0, 0.0, 0.0)",0.7248587864488665,True,"(-0.03144479909141533, 0.18499061278782541, 0.039999521287326686)","(0.9999985596366134, -0.0016283607938474471, -0.0004787126733201028)",-0.00031179486038545077,0.0,True,"(0.0313112124765586, 0.1849374824167095, 0.040000478712673315)","(-0.9999985596366132, 0.0016283607938671909, 0.0004787126733090728)",-0.0008521962835819142,5.52610854865568
64,Move,"(-0.0066, 0.0, 0.0022)","(0.0, 0.07318514619462622, 0.0)","(0.00010833578449817208, 0.17129413269321855, 0.0017779681556232203)","(1.539670533284223, -0.0011108533336150071, 0.00048051196819589475)","[0.00010825722303316647, 0.0012950703166997313, 0.0008630784725354855]","[-0.026750000193715096, 0.05299999937415123, 0.03999999910593033]","[0.0, -0.0, 0.5801422020076931]","[-0.06621628999710083, 0.11321970075368881, 0.03999999910593033]","[0.0, 0.0, -0.234682381887842]","[0.026750000193715096, 0.05299999937415123, 0.03999999910593033]","[0.0, 0.0, -0.5787240733353852]","[0.06613084673881531, 0.11327560991048813, 0.03999999910593033]","[0.0, -0.0, 0.23766498830779495]",0.5816029106419717,0.35056275098220435,"(0.0, 0.0, 0.0, 0.0, 0.0, 0.0)",-0.4721840888579079,-0.8145272415431815,0.07136649933334471,"(0.0, 0.0, 0.0, 0.0, 0.0, 0.0)",0.044331354587858085,-0.578242217433512,0.11564381042393412,"(0.0, 0.0, 0.0, 0.0, 0.0, 0.0)",1.4338303805527794,0.8160474743076389,-0.08197893302477299,"(0.0, 0.0, 0.0, 0.0, 0.0, 0.0)",0.41033052247532614,True,"(-0.03163348671010762, 0.18487328632321975, 0.0400006028391281)","(0.9999987578619123, -0.0014563171420903251, 0.0006028391280930717)",-0.00016688843569292162,0.0,True,"(0.03133447566238699, 0.1848316249085709, 0.0399993971608719)","(-0.9999987578619122, 0.0014563171420919052, -0.0006028391281042794)",-0.0007851658388761174,5.654463880379014
65,Move,"(-0.0021000000000000003, 0.0, 0.0050999999999999995)","(0.0, 0.17193762060171738, 0.0)","(5.736749319248984e-06, 0.17146884531472573, 0.0019282686548675017)","(1.5356374688784407, -0.0013893584429851152, 0.0026154154844144906)","[5.658187854243371e-06, 0.0014697829382069039, 0.001013378971779767]","[-0.026750000193715096, 0.05299999937415123, 0.03999999910593033]","[0.0, -0.0, 0.5816029303132139]","[-0.06630420684814453, 0.11316198855638504, 0.03999999910593033]","[0.0, 0.0, -0.23292434137792675]","[0.026750000193715096, 0.05299999937415123, 0.03999999910593033]","[0.0, 0.0, -0.578242270444693]","[0.0661017969250679, 0.1132945790886879, 0.03999999910593033]","[0.0, -0.0, 0.23780526577846048]",0.5831583639778342,0.37330880060698407,"(0.0, 0.0, 0.0, 0.0, 0.0, 0.0)",0.02489400648406571,-0.8145569775845704,-0.007136649933334738,"(0.0, 0.0, 0.0, 0.0, 0.0, 0.0)",-0.006095844962607907,-0.5775829219411621,0.1582309181639758,"(0.0, 0.0, 0.0, 0.0, 0.0, 0.0)",0.8445050600446795,0.8160199815676503,-0.006598257597249829,"(0.0, 0.0, 0.0, 0.0, 0.0, 0.0)",0.47118495852789405,True,"(-0.031847429825242746, 0.18487644048607227, 0.040001110853105155)","(0.9999992675566967, 0.00048051165322821667, 0.0011108531051551203)",-5.3243738752713e-05,0.0,True,"(0.03129539017952357, 0.1848439153799924, 0.039998889146894846)","(-0.9999992675566968, -0.000480511653225462, -0.0011108531051539042)",-0.0007239989792599284,5.9054308587979865
66,Move,"(-0.0114, 0.0, 0.0091)","(0.0, 0.16421802932014654, 0.0)","(-6.119707807348811e-05, 0.1715927397341969, 0.0020185796929548363)","(1.533106448244124, -0.0012749361759254948, 0.003871266150208769)","[-6.127563953849372e-05, 0.0015936773576780694, 0.0011036900098671015]","[-0.026750000193715096, 0.05299999937415123, 0.03999999910593033]","[0.0, -0.0, 0.5831583718694866]","[-0.06639774143695831, 0.11310038715600967, 0.03999999910593033]","[0.0, 0.0, -0.23139861439220893]","[0.026750000193715096, 0.05299999937415123, 0.03999999910593033]","[0.0, 0.0, -0.5775829144863791]","[0.06606204062700272, 0.11332050710916519, 0.03999999910593033]","[0.0, -0.0, 0.23843709888054404]",0.5836190711378022,0.1105697183923316,"(0.0, 0.0, 0.0, 0.0, 0.0, 0.0)",-0.45147705868261145,-0.814552810048724,0.0010002086031027056,"(0.0, 0.0, 0.0, 0.0, 0.0, 0.0)",-0.0670638101307911,-0.5785055988500446,-0.2214424581318033,"(0.0, 0.0, 0.0, 0.0, 0.0, 0.0)",-0.5566315580657807,0.8160227308416492,0.0006598257597261181,"(0.0, 0.0, 0.0, 0.0, 0.0, 0.0)",-0.04078559916999493,True,"(-0.032050418901288125, 0.18486794000345372, 0.040001389357996006)","(0.9999956146478861, 0.002615409978380548, 0.001389357995998314)",8.07456366485943e-06,0.5085300924041612,True,"(0.031210434717814414, 0.1848463385777404, 0.039998610642004016)","(-0.9999956146478863, -0.002615409978379229, -0.0013893579959873145)",-0.0006675571004576591,0.0
67,Move,"(-0.012400000000000001, 0.0, 0.0086)","(0.0, 0.13771171397010862, 0.0)","(-0.00016247708944456824, 0.17166654591885275, 0.002050417644313036)","(1.532467868347886, -0.0012048536155364596, 0.004499767751309297)","[-0.00016255565090957384, 0.0016674835423339252, 0.0011355279612253015]","[-0.026750000193715096, 0.05299999937415123, 0.03999999910593033]","[0.0, -0.0, 0.5836190840425698]","[-0.06642542779445648, 0.11308211833238602, 0.03999999910593033]","[0.0, 0.0, -0.2309337357423785]","[0.026750000193715096, 0.05299999937415123, 0.03999999910593033]","[0.0, 0.0, -0.5785055974350545]","[0.06611768156290054, 0.11328420788049698, 0.03999999910593033]","[0.0, -0.0, 0.23751716948793009]",0.5869115432220025,0.7901933002080597,"(0.0, 0.0, 0.0, 0.0, 0.0, 0.0)",0.9977841188509143,-0.8145532268023087,-0.00010002086031146717,"(0.0, 0.0, 0.0, 0.0, 0.0, 0.0)",0.07431753737285869,-0.5779153806147399,0.14165237647312712,"(0.0, 0.0, 0.0, 0.0, 0.0, 0.0)",1.1943838510637528,0.815911821925571,-0.026618139858769534,"(0.0, 0.0, 0.0, 0.0, 0.0, 0.0)",0.4362198809901692,True,"(-0.03211147259763758, 0.18486641804430085, 0.04000127493583054)","(0.9999916939336292, 0.003871253334353002, 0.0012749358305393723)",-9.801151454633369e-06,0.0,True,"(0.03133189354529221, 0.18483989551232854, 0.039998725064169474)","(-0.9999916939336294, -0.0038712533343301593, -0.0012749358305285763)",-0.0004674639743501816,5.079946449834005
68,Move,"(-0.014199999999999999, 0.0, 0.009000000000000001)","(0.0, 0.11193320091815233, 0.0)","(-0.0002866183950206874, 0.17171431359273892, 0.0020321838939685657)","(1.5334687348561449, -0.0011925674249595563, 0.0046788051313913885)","[-0.000286696956485693, 0.0017152512162200984, 0.001117294210880831]","[-0.026750000193715096, 0.05299999937415123, 0.03999999910593033]","[0.0, -0.0, 0.5869116097772386]","[-0.0666230246424675, 0.11295115947723389, 0.03999999910593033]","[0.0, 0.0, -0.22764171024554689]","[0.026750000193715096, 0.05299999937415123, 0.03999999910593033]","[0.0, 0.0, -0.5779154128304593]","[0.06608209013938904, 0.11330743134021759, 0.03999999910593033]","[0.0, -0.0, 0.23799645359764787]",0.5902770254865733,0.8077157434970124,"(0.0, 0.0, 0.0, 0.0, 0.0, 0.0)",0.025965894184490707,-0.8145531851269502,1.0002086031413198e-05,"(0.0, 0.0, 0.0, 0.0, 0.0, 0.0)",0.001957013562767588,-0.5771980817298731,0.17215173236804057,"(0.0, 0.0, 0.0, 0.0, 0.0, 0.0)",0.6039409589234795,0.8158724800419864,-0.009442052060283528,"(0.0, 0.0, 0.0, 0.0, 0.0, 0.0)",0.32648703289305764,True,"(-0.032545563670612676, 0.18484537313045135, 0.04000120485332402)","(0.9999891502334932, 0.004499749300089642, 0.0012048533240215193)",0.0003177094928194584,0.0,True,"(0.031262013113897105, 0.18484628997163144, 0.039998795146675974)","(-0.9999891502334932, -0.004499749300084849, -0.0012048533240239122)",-0.0004308221609683239,4.244929137699633
69,Move,"(-0.0155, 0.0, 0.0097)","(0.0, 0.09471203718872429, 0.0)","(-0.0004395613116631793, 0.17175789213036885, 0.0019729862827474747)","(1.5359199794404341, -0.0013426236868316146, 0.004981020231993515)","[-0.0004396398731281849, 0.0017588297538500275, 0.00105809659965974]","[-0.026750000193715096, 0.05299999937415123, 0.03999999910593033]","[0.0, -0.0, 0.590277040571224]","[-0.06682456284761429, 0.11281663179397583, 0.03999999910593033]","[0.0, 0.0, -0.22427616148194435]","[0.026750000193715096, 0.05299999937415123, 0.03999999910593033]","[0.0, 0.0, -0.5771981546792468]","[0.0660388246178627, 0.11333563178777695, 0.03999999910593033]","[0.0, -0.0, 0.23867440447386631]",0.5941849143457363,0.9378933261991147,"(0.0, 0.0, 0.0, 0.0, 0.0, 0.0)",0.19136754967543396,-0.8145531892944861,-1.0002086039406777e-06,"(0.0, 0.0, 0.0, 0.0, 0.0, 0.0)",0.01428314912518915,-0.5761938907009844,0.24100584693328347,"(0.0, 0.0, 0.0, 0.0, 0.0, 0.0)",0.7439874310777448,0.815861757239463,-0.002573472605626786,"(0.0, 0.0, 0.0, 0.0, 0.0, 0.0)",0.3368552855614259,True,"(-0.03298923627691076, 0.1848219366197849, 0.04000119256714228)","(0.9999883433105751, 0.004678784733494886, 0.0011925671422790137)",0.0006356291501694311,0.0,True,"(0.031170249807935993, 0.18485136327840287, 0.03999880743285775)","(-0.9999883433105752, -0.004678784733486928, -0.0011925671422619965)",-0.0003967544935188758,4.8482930018699
70,Move,"(-0.0171, 0.0, 0.0106)","(0.0, 0.06023654847408028, 0.0)","(-0.0006119214347680991, 0.1717976556424918, 0.0018685412922287005)","(1.5397951182533665, -0.0014853565595511218, 0.005204287270268332)","[-0.0006119999962331047, 0.0017985932659729809, 0.0009536516091409658]","[-0.026750000193715096, 0.05299999937415123, 0.03999999910593033]","[0.0, -0.0, 0.594184932445418]","[-0.0670580193400383, 0.11265956610441208, 0.03999999910593033]","[0.0, 0.0, -0.22036828428625801]","[0.026750000193715096, 0.05299999937415123, 0.03999999910593033]","[0.0, 0.0, -0.5761939673105979]","[0.06597821414470673, 0.11337505280971527, 0.03999999910593033]","[0.0, -0.0, 0.23966784852292913]",0.5984952007023067,1.034468725576894,"(0.0, 0.0, 0.0, 0.0, 0.0, 0.0)",0.1420752379416793,-0.8145531888777324,1.0002086092697482e-07,"(0.0, 0.0, 0.0, 0.0, 0.0, 0.0)",0.010610719174020575,-0.575033352059671,0.27852927391520904,"(0.0, 0.0, 0.0, 0.0, 0.0, 0.0)",0.6206032230959367,0.8158507645168931,-0.0026382534167788663,"(0.0, 0.0, 0.0, 0.0, 0.0, 0.0)",0.29229725776914184,True,"(-0.03350430823120735, 0.1847929421526625, 0.040001342623283455)","(0.9999866934365071, 0.004980995145564111, 0.001342623283450116)",0.0009883224750715995,0.0,True,"(0.031038606628750735, 0.18485680147177685, 0.039998657376716554)","(-0.999986693436507, -0.004980995145577219, -0.0013426232834485964)",-0.00036595035938576,4.268614782319326
71,Move,"(-0.0193, 0.0, 0.011)","(0.0, 0.03438473159354028, 0.0)","(-0.0008108654319280296, 0.17183647990625803, 0.001722599494655676)","(1.5451041397261007, -0.001750221054238952, 0.005449169877917954)","[-0.0008109439933930352, 0.0018374175297392048, 0.0008077098115679413]","[-0.026750000193715096, 0.05299999937415123, 0.03999999910593033]","[0.0, -0.0, 0.598495268135123]","[-0.06731478869915009, 0.11248527467250824, 0.03999999910593033]","[0.0, 0.0, -0.2160580074677431]","[0.026750000193715096, 0.05299999937415123, 0.03999999910593033]","[0.0, 0.0, -0.5750334143155926]","[0.06590811908245087, 0.11342053860425949, 0.03999999910593033]","[0.0, -0.0, 0.24081737383478335]",0.6033550639542894,1.166367180475853,"(0.0, 0.0, 0.0, 0.0, 0.0, 0.0)",0.19397279150813104,-0.8145531889194078,-1.000208715848448e-08,"(0.0, 0.0, 0.0, 0.0, 0.0, 0.0)",0.014484584497772054,-0.5736165966535366,0.34002129747224397,"(0.0, 0.0, 0.0, 0.0, 0.0, 0.0)",0.7215143887070278,0.8158406899657722,-0.002417892269008015,"(0.0, 0.0, 0.0, 0.0, 0.0, 0.0)",0.326670480504618,True,"(-0.03407227966045527, 0.18475851808692978, 0.04000148535601337)","(0.9999853546006574, 0.00520425803657964, 0.0014853560133618138)",0.001375776326288098,0.0,True,"(0.030886359148911656, 0.1848630010216672, 0.03999851464398664)","(-0.9999853546006573, -0.005204258036562113, -0.0014853560133660552)",-0.00033754789610103354,4.763058555125361
72,Move,"(-0.0162, 0.0, 0.0137)","(0.0, 0.021678734639021566, 0.0)","(-0.0010508772842742382, 0.17188030844782312, 0.00154261802675149)","(1.551860947072377, -0.0023912544520524634, 0.005956698182902891)","[-0.001050955845739244, 0.0018812460713042989, 0.0006277283436637554]","[-0.026750000193715096, 0.05299999937415123, 0.03999999910593033]","[0.0, -0.0, 0.6033550784255688]","[-0.06760340183973312, 0.11228743195533752, 0.03999999910593033]","[0.0, 0.0, -0.21119813627400447]","[0.026750000193715096, 0.05299999937415123, 0.03999999910593033]","[0.0, 0.0, -0.5736165887601141]","[0.06582248210906982, 0.11347595602273941, 0.03999999910593033]","[0.0, -0.0, 0.2422241320959903]",0.6087246695994591,1.2887053548407321,"(0.0, 0.0, 0.0, 0.0, 0.0, 0.0)",0.17998310182400776,-0.8145531889152402,1.0002079164905808e-09,"(0.0, 0.0, 0.0, 0.0, 0.0, 0.0)",0.013445214615136281,-0.5717374205321749,0.45100226912680186,"(0.0, 0.0, 0.0, 0.0, 0.0, 0.0)",0.9269920844050429,0.8158307818750552,-0.0023779417720661885,"(0.0, 0.0, 0.0, 0.0, 0.0, 0.0)",0.3953107579456141,False,,,,,True,"(0.030700250115332395, 0.1848702445138458, 0.03999824977983933)","(-0.9999836216968196, -0.0054491345644026735, -0.0017502201606658283)",-0.0003113861881048441,5.762122497304757
73,Move,"(-0.0162, 0.0, 0.0137)","(0.0, 0.021678734639021566, 0.0)","(-0.0012425171665814015, 0.17190332956400042, 0.0012943828811197871)","(1.5600026090611085, -0.0022315000544305646, 0.005020335223616704)","[-0.0012425957280464072, 0.0019042671874816008, 0.0003794931980320524]","[-0.026750000193715096, 0.05299999937415123, 0.03999999910593033]","[0.0, -0.0, 0.6087246438065078]","[-0.06792116165161133, 0.11206721514463425, 0.03999999910593033]","[0.0, 0.0, -0.20582852667417106]","[0.026750000193715096, 0.05299999937415123, 0.03999999910593033]","[0.0, 0.0, -0.5717373720178462]","[0.06570876389741898, 0.11354927718639374, 0.03999999910593033]","[0.0, -0.0, 0.24409339712954395]",0.6137725945199799,1.211501980924984,"(0.0, 0.0, 0.0, 0.0, 0.0, 0.0)",-0.11295388509102439,-0.814553188915657,-1.000213245561099e-10,"(0.0, 0.0, 0.0, 0.0, 0.0, 0.0)",-0.008401859970838067,-0.5709628342345326,0.18590071143414322,"(0.0, 0.0, 0.0, 0.0, 0.0, 0.0)",-0.38883559219705094,0.8158317726841269,0.00023779417720781694,"(0.0, 0.0, 0.0, 0.0, 0.0, 0.0)",-0.02873689776206793,False,,,,,True,"(0.03045313488825714, 0.18487914592320617, 0.03999760874782686)","(-0.9999793999289943, -0.005956645926401329, -0.0023912521731449593)",-0.00028725094871121366,0.0
74,Move,"(-0.0162, 0.0, 0.0137)","(0.0, 0.021678734639021566, 0.0)","(-0.0032245989651045748, 0.17202089098785525, 0.0014818489420848114)","(1.5691385234232054, -0.017467589149757743, 0.02770660390430723)","[-0.0032246775265695805, 0.002021828611336429, 0.0005669592589970767]","[-0.026750000193715096, 0.05299999937415123, 0.03999999910593033]","[0.0, -0.0, 0.6137725919256652]","[-0.06821880489587784, 0.11185862869024277, 0.03999999910593033]","[0.0, 0.0, -0.20078058279219624]","[0.026750000193715096, 0.05299999937415123, 0.03999999910593033]","[0.0, 0.0, -0.5709628061590188]","[0.06566185504198074, 0.11357942968606949, 0.03999999910593033]","[0.0, -0.0, 0.24486894452554098]",0.5907279288175358,-5.5307197685865965,"(0.0, 0.0, 0.0, 0.0, 0.0, 0.0)",-9.8990881006627,-0.8145531889156153,1.000266536266281e-11,"(0.0, 0.0, 0.0, 0.0, 0.0, 0.0)",-0.7383929632656981,-0.5489447366266748,5.284343425885901,"(0.0, 0.0, 0.0, 0.0, 0.0, 0.0)",25.380232067096273,0.8149850990703595,-0.20320166730416253,"(0.0, 0.0, 0.0, 0.0, 0.0, 0.0)",10.398638209866732,False,,,,,True,"(0.030350900931954056, 0.18488365167496437, 0.03999776850179755)","(-0.9999849083797517, -0.00502030163553201, -0.002231498202444009)",-0.00021552621834945308,136.07752447640948
75,Move,"(-0.0162, 0.0, 0.0137)","(0.0, 0.021678734639021566, 0.0)","(-0.0032678176794711995, 0.1729173739478434, 0.0015501961554714747)","(1.5634030582833627, -0.017485435676860613, 0.02959711845063826)","[-0.003267896240936205, 0.0029183115713245777, 0.00063530647238374]","[-0.026750000193715096, 0.05299999937415123, 0.03999999910593033]","[0.0, -0.0, 0.590727994465784]","[-0.06685153394937515, 0.11279855668544769, 0.03999999910593033]","[0.0, 0.0, -0.223825255109454]","[0.026750000193715096, 0.05299999937415123, 0.03999999910593033]","[0.0, 0.0, -0.5489446883268796]","[0.0643186867237091, 0.11442144215106964, 0.03999999910593033]","[0.0, -0.0, 0.26604039321460377]",0.5726835903121121,-4.330641241301679,"(0.0, 0.0, 0.0, 0.0, 0.0, 0.0)",-77.47709818493057,-0.7847934742036443,7.142331530873047,"(0.0, 0.0, 0.0, 0.0, 0.0, 0.0)",-40.48710994467321,-0.5310821349959596,4.287024391371646,"(0.0, 0.0, 0.0, 0.0, 0.0, 0.0)",63.28186668890136,0.7836391228628021,-7.52303428981378,"(0.0, 0.0, 0.0, 0.0, 0.0, 0.0)",33.13199979526499,True,"(-0.03307293331441141, 0.18473740705063824, 0.042162337968049926)","(0.999463700697928, 0.027698832959108112, 0.017466700887868013)",-0.0031904590683825614,603.537695389146,True,"(0.027506147379142427, 0.18496215665901933, 0.03999776850179755)","(-0.9999849083797517, -0.00502030163553201, -0.002231498202444009)",-0.00019386445466596997,495.9290806609425
76,Move,"(-0.0181, 0.0, 0.0143)","(0.0, 0.013116149328737385, 0.0)","(-0.003337886083466735, 0.17371834899053518, 0.001652832649161842)","(1.5569516101762082, -0.01675406920763925, 0.03244522799262815)","[-0.0033379646449317405, 0.003719286614016354, 0.0007379429660741073]","[-0.026750000193715096, 0.05299999937415123, 0.03999999910593033]","[0.0, -0.0, 0.5726836101155388]","[-0.06576603651046753, 0.11351238191127777, 0.03999999910593033]","[0.0, 0.0, -0.21210988246029222]","[0.026750000193715096, 0.05299999937415123, 0.03999999910593033]","[0.0, 0.0, -0.5310821815912182]","[0.06321560591459274, 0.11508268117904663, 0.03999999910593033]","[0.0, -0.0, 0.2525569926196713]",0.5551942447845426,-4.197442926616678,"(0.0, 0.0, 0.0, 0.0, 0.0, 0.0)",-76.97190836706888,-0.7552743669813428,7.084585733352364,"(0.0, 0.0, 0.0, 0.0, 0.0, 0.0)",-39.645494524687464,-0.5130833062116208,4.319718908241297,"(0.0, 0.0, 0.0, 0.0, 0.0, 0.0)",78.88759147048727,0.7524410328442375,-7.487541604455515,"(0.0, 0.0, 0.0, 0.0, 0.0, 0.0)",42.26295499121811,True,"(-0.032832189088610325, 0.18583220534563333, 0.0421623553046568)","(0.9994092378761811, 0.029588273770973065, 0.017484544689660434)",-0.003505305969159566,577.2832933583546,True,"(0.027357509776027765, 0.18611332684993545, 0.03999776850179755)","(-0.9999849083797517, -0.00502030163553201, -0.002231498202444009)",-0.00026813788044892237,591.292852530519
77,Move,"(-0.0198, 0.0, 0.015300000000000001)","(0.0, 0.021678734639021566, 0.0)","(-0.0034576072863449973, 0.17441955126454375, 0.0017485412858610852)","(1.5530004633717134, -0.015145750513748025, 0.03727341345281333)","[-0.003457685847810003, 0.0044204888880249316, 0.0008336516027733505]","[-0.026750000193715096, 0.05299999937415123, 0.03999999910593033]","[0.0, -0.0, 0.5551941923425898]","[-0.06470180302858353, 0.11418545991182327, 0.03999999910593033]","[0.0, 0.0, -0.2000801245056545]","[0.026750000193715096, 0.05299999937415123, 0.03999999910593033]","[0.0, 0.0, -0.5130833288119427]","[0.06209234148263931, 0.11572892963886261, 0.03999999910593033]","[0.0, -0.0, 0.23935776622551602]",0.562914372855923,1.8528307371313133,"(0.0, 0.0, 0.0, 0.0, 0.0, 0.0)",8.028610156754839,-0.7582262777035729,-0.7084585733352373,"(0.0, 0.0, 0.0, 0.0, 0.0, 0.0)",-0.19067210160630865,-0.5142521275037462,-0.28051711011008695,"(0.0, 0.0, 0.0, 0.0, 0.0, 0.0)",-5.166778876447478,0.7555219601472494,0.7394225527228633,"(0.0, 0.0, 0.0, 0.0, 0.0, 0.0)",0.8128166711243988,True,"(-0.03263995387334895, 0.18688705150951115, 0.04216162403374696)","(0.9993334274916938, 0.03243498305303415, 0.016753285410721984)",-0.0037832453384508222,0.0,True,"(0.02717489633502284, 0.18722667295629325, 0.03999776850179755)","(-0.9999849083797517, -0.00502030163553201, -0.002231498202444009)",-0.00036388121692672873,0.0
78,Move,"(-0.0218, 0.0, 0.0169)","(0.0, 0.03468318289563132, 0.0)","(-0.003617390780953212, 0.1750571555757064, 0.001781493641774676)","(1.5507537733221723, -0.013276379731212692, 0.04286439555941164)","[-0.003617469342418218, 0.005058093199187569, 0.0008666039586869413]","[-0.026750000193715096, 0.05299999937415123, 0.03999999910593033]","[0.0, -0.0, 0.5629144276457728]","[-0.06517302989959717, 0.1138906478881836, 0.03999999910593033]","[0.0, 0.0, -0.1953119044038843]","[0.026750000193715096, 0.05299999937415123, 0.03999999910593033]","[0.0, 0.0, -0.5142521444298985]","[0.06216563656926155, 0.11568757891654968, 0.03999999910593033]","[0.0, -0.0, 0.24126984655413117]",0.5687157693665608,1.3923351625530618,"(0.0, 0.0, 0.0, 0.0, 0.0, 0.0)",-0.5902013657089437,-0.7579310866313499,0.07084585733352267,"(0.0, 0.0, 0.0, 0.0, 0.0, 0.0)",0.034962336536958384,-0.5132994666238154,0.2286386111833753,"(0.0, 0.0, 0.0, 0.0, 0.0, 0.0)",1.2247215404065914,0.7551921199937387,-0.07916163684255029,"(0.0, 0.0, 0.0, 0.0, 0.0, 0.0)",0.3101890908236212,True,"(-0.033458174530692775, 0.18674434905747261, 0.0421600164353239)","(0.9991908117221061, 0.0372605092753244, 0.015145171463613832)",-0.003054975014488996,0.0,True,"(0.027111543741950024, 0.1871184247153741, 0.03999776850179755)","(-0.9999849083797517, -0.00502030163553201, -0.002231498202444009)",-0.0003033218020894707,0.0
79,Move,"(-0.028100000000000003, 0.0, 0.0178)","(0.0, 0.025778513051956248, 0.0)","(-0.003829858592377367, 0.17563129219078627, 0.0017591304348301999)","(1.5503438149655366, -0.01151661396835225, 0.04873711854946911)","[-0.0038299371538423727, 0.005632229814267448, 0.0008442407517424652]","[-0.026750000193715096, 0.05299999937415123, 0.03999999910593033]","[0.0, -0.0, 0.568715809560686]","[-0.06552562862634659, 0.11366672068834305, 0.03999999910593033]","[0.0, 0.0, -0.18921532728519286]","[0.026750000193715096, 0.05299999937415123, 0.03999999910593033]","[0.0, 0.0, -0.5132995534582516]","[0.062105901539325714, 0.11572129279375076, 0.03999999910593033]","[0.0, -0.0, 0.241892655343219]",0.5749948282342847,1.5069741282537485,"(0.0, 0.0, 0.0, 0.0, 0.0, 0.0)",0.16023369621795905,-0.7579606057385722,-0.007084585733351467,"(0.0, 0.0, 0.0, 0.0, 0.0, 0.0)",0.004086290596871561,-0.5121057156174178,0.2865002415354171,"(0.0, 0.0, 0.0, 0.0, 0.0, 0.0)",0.81956775699281,0.7551988997588815,0.0016271436342768786,"(0.0, 0.0, 0.0, 0.0, 0.0, 0.0)",0.45445662302285206,True,"(-0.03425547403679167, 0.18671191176384866, 0.04215814727438211)","(0.9989934135653339, 0.04284749409474252, 0.01327598971386617)",-0.002388172947181232,0.0,True,"(0.02703394436897545, 0.1869856589575048, 0.03784185323099212)","(-0.9989934135653429, -0.04284749409453182, -0.013275989713873646)",-0.0003496738158250166,5.4733647999130675
80,Move,"(-0.0296, 0.0, 0.0167)","(0.0, 0.008583529261308114, 0.0)","(-0.0041668772219738155, 0.1761215277438339, 0.0017019633798552201)","(1.552339584389514, -0.011098870838492333, 0.05422143466287469)","[-0.004166955783438821, 0.006122465367315089, 0.0007870736967674854]","[-0.026750000193715096, 0.05299999937415123, 0.03999999910593033]","[0.0, -0.0, 0.574994855943438]","[-0.06590579450130463, 0.11342205107212067, 0.03999999910593033]","[0.0, 0.0, -0.1829657885184481]","[0.026750000193715096, 0.05299999937415123, 0.03999999910593033]","[0.0, 0.0, -0.5121057358442976]","[0.06203100085258484, 0.11576345562934875, 0.03999999910593033]","[0.0, -0.0, 0.2430931736660932]",0.582901732906407,1.8976571213093454,"(0.0, 0.0, 0.0, 0.0, 0.0, 0.0)",0.5749720837634953,-0.75795765382785,0.0007084585733343474,"(0.0, 0.0, 0.0, 0.0, 0.0, 0.0)",0.043711535029981964,-0.509632689663315,0.5935262289846774,"(0.0, 0.0, 0.0, 0.0, 0.0, 0.0)",1.83819235229797,0.7551405991350928,-0.013992149709306834,"(0.0, 0.0, 0.0, 0.0, 0.0, 0.0)",0.8765005056377086,True,"(-0.035092703300200756, 0.18666086330955595, 0.04215638713868468)","(0.9987463449844051, 0.04871459582790923, 0.011516359390678752)",-0.0017388777288325364,0.0,True,"(0.02687371072769161, 0.18698099628032497, 0.03784361286131531)","(-0.9987463449844052, -0.04871459582790572, -0.011516359390683094)",-0.0003264634368480568,10.496554006610145
81,Move,"(-0.0313, 0.0, 0.016800000000000002)","(0.0, -0.0, 0.0)","(-0.004556819698642585, 0.17655884953134943, 0.0015961213202164942)","(1.5562245377670647, -0.011048253312441579, 0.059041177881681034)","[-0.00455689826010759, 0.006559787154830604, 0.0006812316371287595]","[-0.026750000193715096, 0.05299999937415123, 0.03999999910593033]","[0.0, -0.0, 0.5829017939760596]","[-0.06638231128454208, 0.11311056464910507, 0.03999999910593033]","[0.0, 0.0, -0.17505593601455302]","[0.026750000193715096, 0.05299999937415123, 0.03999999910593033]","[0.0, 0.0, -0.5096326863999926]","[0.06187567859888077, 0.11585050821304321, 0.03999999910593033]","[0.0, -0.0, 0.24550791139397055]",0.5909324829408054,1.9273800082555903,"(0.0, 0.0, 0.0, 0.0, 0.0, 0.0)",0.04420885194579131,-0.7579579490189222,-7.084585733263538e-05,"(0.0, 0.0, 0.0, 0.0, 0.0, 0.0)",0.003270483320079008,-0.5067408795847115,0.6940344188648286,"(0.0, 0.0, 0.0, 0.0, 0.0, 0.0)",0.9515310276062173,0.7551185288659334,-0.0052968645982519845,"(0.0, 0.0, 0.0, 0.0, 0.0, 0.0)",0.4960234835053466,True,"(-0.03614935301489532, 0.18658838872521954, 0.04215596942226494)","(0.9984688767994646, 0.0541915324291429, 0.011098642970942844)",-0.001042692312669711,0.0,True,"(0.02654667613577919, 0.18697988696577034, 0.03784403057773504)","(-0.9984688767994654, -0.05419153242912943, -0.011098642970948824)",-0.0003039130391805962,6.061935154491244
82,Move,"(-0.033, 0.0, 0.0158)","(0.0, 0.01321039710834508, 0.0)","(-0.00498707569645743, 0.17695359144883027, 0.0014428651511691217)","(1.5618613690757905, -0.011262273106690566, 0.06318262444685376)","[-0.004987154257922435, 0.0069545290723114495, 0.000527975468081387]","[-0.026750000193715096, 0.05299999937415123, 0.03999999910593033]","[0.0, -0.0, 0.5909325058633639]","[-0.0668637678027153, 0.11279034614562988, 0.03999999910593033]","[0.0, 0.0, -0.16702548281725021]","[0.026750000193715096, 0.05299999937415123, 0.03999999910593033]","[0.0, 0.0, -0.5067408831288153]","[0.06169378012418747, 0.11595182120800018, 0.03999999910593033]","[0.0, -0.0, 0.24837764207208257]",0.5993332961702903,2.01619517507638,"(0.0, 0.0, 0.0, 0.0, 0.0, 0.0)",0.13107983221310304,-0.757957919499815,7.084585734062898e-06,"(0.0, 0.0, 0.0, 0.0, 0.0, 0.0)",0.009839003821992886,-0.5035253616603387,0.7717243018494766,"(0.0, 0.0, 0.0, 0.0, 0.0, 0.0)",0.8183443377657015,0.7551007266775023,-0.004272525223472729,"(0.0, 0.0, 0.0, 0.0, 0.0, 0.0)",0.4243717102115867,True,"(-0.037221636438811885, 0.1865053846236831, 0.04215591880784234)","(0.9981966509120211, 0.05900328103774973, 0.011048028548333508)",-0.00038907252205135653,0.0,True,"(0.026160913329353552, 0.1869775763951047, 0.037844081192157666)","(-0.9981966509120216, -0.05900328103774287, -0.011048028548331033)",-0.00028245339194391016,5.3007024597553976
83,Move,"(-0.0344, 0.0, 0.0156)","(0.0, 0.021800907686661174, 0.0)","(-0.005456046801909509, 0.17731301142063752, 0.001245889463084102)","(1.5691712781935174, -0.011776982895949877, 0.0667149213896335)","[-0.0054561253633745145, 0.007313949044118695, 0.0003309997799963672]","[-0.026750000193715096, 0.05299999937415123, 0.03999999910593033]","[0.0, -0.0, 0.5993332629582976]","[-0.0673646330833435, 0.11245125532150269, 0.03999999910593033]","[0.0, 0.0, -0.15862460867718894]","[0.026750000193715096, 0.05299999937415123, 0.03999999910593033]","[0.0, 0.0, -0.5035253718538414]","[0.06149117648601532, 0.11606386303901672, 0.03999999910593033]","[0.0, -0.0, 0.25157535735540465]",0.6078382563312638,2.0411904386336364,"(0.0, 0.0, 0.0, 0.0, 0.0, 0.0)",0.0374050851709113,-0.7579579224517257,-7.084585744721039e-07,"(0.0, 0.0, 0.0, 0.0, 0.0, 0.0)",0.0028477614201079826,-0.49997454432841165,0.8521961596624806,"(0.0, 0.0, 0.0, 0.0, 0.0, 0.0)",0.8164984725024902,0.7550860571209703,-0.003520693567673908,"(0.0, 0.0, 0.0, 0.0, 0.0, 0.0)",0.4098683812199352,True,"(-0.038342534129255604, 0.1864084550959918, 0.042156132814320006)","(0.9979413497286049, 0.06313659057094681, 0.011262035026001775)",0.000271329919021634,0.0,True,"(0.02573143372007603, 0.18697468449244423, 0.03784386718567999)","(-0.9979413497286055, -0.06313659057093697, -0.011262035026003075)",-0.00026208143153208947,5.236536038358152
84,Move,"(-0.0358, 0.0, 0.0146)","(0.0, 0.026502824691533897, 0.0)","(-0.0059512586088880225, 0.17764501974629182, 0.0010027196814458568)","(1.5780352370046253, -0.012388720521245865, 0.06967284581426504)","[-0.005951337170353028, 0.007645957369772999, 8.782999835812207e-05]","[-0.026750000193715096, 0.05299999937415123, 0.03999999910593033]","[0.0, -0.0, 0.6078383026909538]","[-0.06786878407001495, 0.11210368573665619, 0.03999999910593033]","[0.0, 0.0, -0.15011966366539337]","[0.026750000193715096, 0.05299999937415123, 0.03999999910593033]","[0.0, 0.0, -0.49997456729354806]","[0.061267029494047165, 0.11618681997060776, 0.03999999910593033]","[0.0, -0.0, 0.2551115502156639]",0.6165087306157214,2.080913828269848,"(0.0, 0.0, 0.0, 0.0, 0.0, 0.0)",0.05904243771093222,-0.7579579221565346,7.084585718075687e-08,"(0.0, 0.0, 0.0, 0.0, 0.0, 0.0)",0.004464105193747748,-0.4962281668746671,0.8991305888986909,"(0.0, 0.0, 0.0, 0.0, 0.0, 0.0)",0.6695359868771202,0.7550750051652819,-0.002652469365227611,"(0.0, 0.0, 0.0, 0.0, 0.0, 0.0)",0.3403929401159647,True,"(-0.039476396658874244, 0.18630007634818616, 0.0421566474899525)","(0.9977061913511066, 0.06666081926990804, 0.011776710658495507)",0.0009014352244391605,0.0,True,"(0.025256765533398007, 0.1869707556609791, 0.0378433525100475)","(-0.9977061913511066, -0.06666081926990482, -0.011776710658498054)",-0.00024284529154027987,4.486397103177237
85,Move,"(-0.0439, 0.0, 0.0166)","(0.0, 0.039882518737322424, 0.0)","(-0.006499920420180082, 0.17794415781537717, 0.0010881124408963774)","(1.5808681753481457, -0.010807995391586224, 0.08141392602715951)","[-0.006499998981645087, 0.007945095438858352, 0.00017322275780864266]","[-0.026750000193715096, 0.05299999937415123, 0.03999999910593033]","[0.0, -0.0, 0.6165087096476426]","[-0.06837969273328781, 0.1117449477314949, 0.03999999910593033]","[0.0, 0.0, -0.14144919083263877]","[0.026750000193715096, 0.05299999937415123, 0.03999999910593033]","[0.0, 0.0, -0.49622816856971574]","[0.0610300675034523, 0.11631569266319275, 0.03999999910593033]","[0.0, -0.0, 0.25884680112844544]",0.6251971614170968,2.0852233923300836,"(0.0, 0.0, 0.0, 0.0, 0.0, 0.0)",0.007063256185098701,-0.7579579221860537,-7.0845862509827384e-09,"(0.0, 0.0, 0.0, 0.0, 0.0, 0.0)",0.0005890260825309364,-0.4921503920834558,0.9786659498907105,"(0.0, 0.0, 0.0, 0.0, 0.0, 0.0)",2.531864473042834,0.7549158310163568,-0.0382017957420286,"(0.0, 0.0, 0.0, 0.0, 0.0, 0.0)",1.4771791352551342,True,"(-0.04063127215935045, 0.18617902567406405, 0.042157259182913395)","(0.9974972759301607, 0.06961114830019927, 0.012388403619388772)",0.0015293188586793303,0.0,True,"(0.024755605930454706, 0.1869653981545664, 0.037842740817086606)","(-0.9974972759301604, -0.069611148300202, -0.01238840361938804)",-0.00022479416366245536,18.33726734776826
86,Move,"(-0.0451, 0.0, 0.0159)","(0.0, 0.04850444524217441, 0.0)","(-0.007208891929565666, 0.17820872854346506, 0.0011598812129349984)","(1.5821255886662646, -0.01046613418877249, 0.0948789698440953)","[-0.007208970491030671, 0.008209666166946239, 0.0002449915298472637]","[-0.026750000193715096, 0.05299999937415123, 0.03999999910593033]","[0.0, -0.0, 0.6251971977432947]","[-0.06888851523399353, 0.11138103902339935, 0.03999999910593033]","[0.0, 0.0, -0.1327607668263733]","[0.026750000193715096, 0.05299999937415123, 0.03999999910593033]","[0.0, 0.0, -0.49215033988200974]","[0.06077159568667412, 0.11645495146512985, 0.03999999910593033]","[0.0, -0.0, 0.26276542424642185]",0.6356900708126807,2.51829825494014,"(0.0, 0.0, 0.0, 0.0, 0.0, 0.0)",0.6366122600398945,-0.7579579221831019,7.084599573659034e-10,"(0.0, 0.0, 0.0, 0.0, 0.0, 0.0)",0.04754996332138226,-0.4865478485747727,1.3446104420839462,"(0.0, 0.0, 0.0, 0.0, 0.0, 0.0)",2.4177575056621063,0.7548248241019937,-0.021841659447142364,"(0.0, 0.0, 0.0, 0.0, 0.0, 0.0)",1.1883647664141477,False,,,,,True,"(0.024221153069712696, 0.18695417068575015, 0.03784432143573181)","(-0.996629504121238, -0.0813192676984198, -0.010807784974181367)",-0.00021253009862259026,14.270793818189619
87,Move,"(-0.0451, 0.0, 0.0159)","(0.0, 0.04850444524217441, 0.0)","(-0.007955471172744564, 0.17847483352963778, 0.00118322282970705)","(1.5820830493975455, -0.009962192203879824, 0.10924032905706559)","[-0.00795554973420957, 0.008475771153118955, 0.00026833314661931537]","[-0.026750000193715096, 0.05299999937415123, 0.03999999910593033]","[0.0, -0.0, 0.6356900603997594]","[-0.06949876993894577, 0.11093567311763763, 0.03999999910593033]","[0.0, 0.0, -0.12226783213242638]","[0.026750000193715096, 0.05299999937415123, 0.03999999910593033]","[0.0, 0.0, -0.48654790478544974]","[0.06041555479168892, 0.11664456129074097, 0.03999999910593033]","[0.0, -0.0, 0.2682769727767044]",0.6460571607078766,2.4881015748470117,"(0.0, 0.0, 0.0, 0.0, 0.0, 0.0)",-0.04338931483819488,-0.7579579221833971,-7.084466346896079e-11,"(0.0, 0.0, 0.0, 0.0, 0.0, 0.0)",-0.0031455574318551113,-0.480793181570707,1.3811200809757616,"(0.0, 0.0, 0.0, 0.0, 0.0, 0.0)",0.7672022152205825,0.7547956829731532,-0.006993870921701584,"(0.0, 0.0, 0.0, 0.0, 0.0, 0.0)",0.4446741288350136,False,,,,,True,"(0.02347782827939067, 0.18693334189544694, 0.03784466327759284)","(-0.9954478428926137, -0.09473149484302633, -0.010465943113156937)",-0.00020253324435809026,5.4206944550431215
88,Move,"(-0.0451, 0.0, 0.0159)","(0.0, 0.04850444524217441, 0.0)","(-0.010196507043281417, 0.17851724310765404, 0.0013843631503371256)","(1.5742168597736774, -0.022883133456384836, 0.13453523492340305)","[-0.010196585604746422, 0.008518180731135222, 0.00046947346724939085]","[-0.026750000193715096, 0.05299999937415123, 0.03999999910593033]","[0.0, -0.0, 0.6460571173910856]","[-0.07009708881378174, 0.1104893907904625, 0.03999999910593033]","[0.0, 0.0, -0.1119007597457629]","[0.026750000193715096, 0.05299999937415123, 0.03999999910593033]","[0.0, 0.0, -0.4807931593164635]","[0.06004874408245087, 0.11683724075555801, 0.03999999910593033]","[0.0, -0.0, 0.2740025133976788]",0.6224168342164687,-5.673678357937899,"(0.0, 0.0, 0.0, 0.0, 0.0, 0.0)",-11.982835967926173,-0.7579579221833675,7.084999253947899e-12,"(0.0, 0.0, 0.0, 0.0, 0.0, 0.0)",-0.8937605642385,-0.45933845029609927,5.1491355059058606,"(0.0, 0.0, 0.0, 0.0, 0.0, 0.0)",19.695700852224057,0.7540199523537126,-0.18617534866576155,"(0.0, 0.0, 0.0, 0.0, 0.0, 0.0)",8.681789818413398,False,,,,,True,"(0.02271008627475927, 0.18690479380602273, 0.03784516719328472)","(-0.9939898800894866, -0.10901777969370638, -0.009962027421278042)",-0.0001945025713540377,107.46859878072861
89,Move,"(-0.0451, 0.0, 0.0159)","(0.0, 0.04850444524217441, 0.0)","(-0.010360903773436687, 0.1790867742255582, 0.0014950885323174136)","(1.560057761807742, -0.021106099118229003, 0.13379822253128693)","[-0.010360982334901693, 0.009087711849039365, 0.0005801988492296789]","[-0.026750000193715096, 0.05299999937415123, 0.03999999910593033]","[0.0, -0.0, 0.6224168332883285]","[-0.06872603297233582, 0.11149796843528748, 0.03999999910593033]","[0.0, 0.0, -0.13554111484415574]","[0.026750000193715096, 0.05299999937415123, 0.03999999910593033]","[0.0, 0.0, -0.4593384859224664]","[0.05867157503962517, 0.11753690987825394, 0.03999999910593033]","[0.0, -0.0, 0.294681528069413]",0.6041092596384295,-4.393817898729381,"(0.0, 0.0, 0.0, 0.0, 0.0, 0.0)",-77.84026362103766,-0.7244060852129094,8.052440872909967,"(0.0, 0.0, 0.0, 0.0, 0.0, 0.0)",-43.205013998546434,-0.4415532367102715,4.268451260598657,"(0.0, 0.0, 0.0, 0.0, 0.0, 0.0)",62.51454238754576,0.7239876817774246,-7.207744938309115,"(0.0, 0.0, 0.0, 0.0, 0.0, 0.0)",32.45052793761212,True,"(-0.04142422518246117, 0.18615328225569613, 0.04216775134021355)","(0.990704335334796, 0.13409464398150256, 0.022881136429689208)",-0.0029796856658943203,598.5850081850015,True,"(0.019892895205232568, 0.18681286418543852, 0.03783224808427626)","(-0.9907043353348676, -0.13409464398096532, -0.022881136429735358)",-0.00020393055076778062,475.9341056479332
90,Move,"(-0.045700000000000005, 0.0, 0.0151)","(0.0, 0.057108918454506455, 0.0)","(-0.010589439811923462, 0.17965876346127643, 0.0016956560140846293)","(1.5469875611547448, -0.016463080370999725, 0.13353250069463174)","[-0.010589518373388467, 0.00965970108475761, 0.0007807663309968946]","[-0.026750000193715096, 0.05299999937415123, 0.03999999910593033]","[0.0, -0.0, 0.6041091964124191]","[-0.06764810532331467, 0.11225660145282745, 0.03999999910593033]","[0.0, 0.0, -0.1202968311238521]","[0.026750000193715096, 0.05299999937415123, 0.03999999910593033]","[0.0, 0.0, -0.44155322142797465]","[0.05751878395676613, 0.11809440702199936, 0.03999999910593033]","[0.0, -0.0, 0.28243440543356846]",0.5865059582366691,-4.224792336422508,"(0.0, 0.0, 0.0, 0.0, 0.0, 0.0)",-76.07927264813812,-0.694072282901038,7.280112554849138,"(0.0, 0.0, 0.0, 0.0, 0.0, 0.0)",-40.75734370127255,-0.4236893086311152,4.287342738997516,"(0.0, 0.0, 0.0, 0.0, 0.0, 0.0)",79.88098689151127,0.6933433382946138,-7.3546424358745774,"(0.0, 0.0, 0.0, 0.0, 0.0, 0.0)",41.35226493347987,True,"(-0.041485191666067116, 0.18730361057401565, 0.04216597534480421)","(0.9908416284021778, 0.13336965977491402, 0.021104532139912303)",-0.003074975796486461,561.1709716237503,True,"(0.0195928486142979, 0.18782865918374683, 0.037834024688566115)","(-0.9908416284022662, -0.13336965977426196, -0.021104532139879836)",-0.00034775592746171885,586.6153956439902
91,Move,"(-0.047, 0.0, 0.0151)","(0.0, 0.052286573731246115, 0.0)","(-0.01143089893349722, 0.1799317087642472, 0.0019473023143465804)","(1.5407284125512302, -0.016965188274153567, 0.1300964627538878)","[-0.011430977494962226, 0.009932646387728367, 0.0010324126312588457]","[-0.026750000193715096, 0.05299999937415123, 0.03999999910593033]","[0.0, -0.0, 0.5865060124720717]","[-0.06659870594739914, 0.11296732723712921, 0.03999999910593033]","[0.0, 0.0, -0.10756632080468746]","[0.026750000193715096, 0.05299999937415123, 0.03999999910593033]","[0.0, 0.0, -0.4236892610611776]","[0.05635109543800354, 0.11863364279270172, 0.03999999910593033]","[0.0, -0.0, 0.26965404403913684]",0.5998253771773472,3.196660545762752,"(0.0, 0.0, 0.0, 0.0, 0.0, 0.0)",10.018334241580469,-0.6971056631322251,-0.7280112554849145,"(0.0, 0.0, 0.0, 0.0, 0.0, 0.0)",-0.06402896167490187,-0.41954684960115673,0.9941901671900362,"(0.0, 0.0, 0.0, 0.0, 0.0, 0.0)",2.431199002820874,0.695946685575968,0.6248033475250026,"(0.0, 0.0, 0.0, 0.0, 0.0, 0.0)",4.247623192818129,True,"(-0.04139137714391918, 0.18832845461468672, 0.042161333143799884)","(0.9909634682661423, 0.1331179778694435, 0.016462336708032363)",-0.0032566558980706476,0.0,True,"(0.019320966829840018, 0.18883447385397678, 0.03783866688399797)","(-0.99096346826615, -0.13311797786938764, -0.01646233670802506)",-0.0005034284582342367,47.82777076220689
92,Move,"(-0.0479, 0.0, 0.014199999999999999)","(0.0, 0.05603030497677396, 0.0)","(-0.01231306982139446, 0.18015702259009092, 0.002129164754372343)","(1.5363007065173329, -0.017136714965514967, 0.12565769000236318)","[-0.012313148382859466, 0.010157960213572098, 0.0012142750712846083]","[-0.026750000193715096, 0.05299999937415123, 0.03999999910593033]","[0.0, -0.0, 0.5998254830752882]","[-0.06739388406276703, 0.11243126541376114, 0.03999999910593033]","[0.0, 0.0, -0.09728028831515553]","[0.026750000193715096, 0.05299999937415123, 0.03999999910593033]","[0.0, 0.0, -0.4195468896156589]","[0.0560789592564106, 0.11875569820404053, 0.03999999910593033]","[0.0, -0.0, 0.2763998446096326]",0.6105237749663524,2.567615469361245,"(0.0, 0.0, 0.0, 0.0, 0.0, 0.0)",-0.8346766249705632,-0.6968023251091064,0.07280112554849172,"(0.0, 0.0, 0.0, 0.0, 0.0, 0.0)",0.01896912310857701,-0.41354802363199344,1.439718232599196,"(0.0, 0.0, 0.0, 0.0, 0.0, 0.0)",1.381776004113357,0.695634973281484,-0.07481095067614896,"(0.0, 0.0, 0.0, 0.0, 0.0, 0.0)",0.435378796831388,True,"(-0.042961170973111654, 0.18803408691753998, 0.04216183656224086)","(0.9914066949690397, 0.12971112199545978, 0.016964374472542093)",-0.002433859373823858,0.0,True,"(0.01857475012395539, 0.1887152268646145, 0.037838164846233466)","(-0.9914066949690027, -0.1297111219957444, -0.016964374472529357)",-0.00046401180633027833,5.999293929913119
93,Move,"(-0.04870000000000001, 0.0, 0.0132)","(0.0, 0.05973912963726191, 0.0)","(-0.013236857411555628, 0.18033577125769137, 0.0022411503469970105)","(1.533701726289229, -0.0169796296005228, 0.12016418431600671)","[-0.013236935973020633, 0.010336708881172552, 0.0013262606639092758]","[-0.026750000193715096, 0.05299999937415123, 0.03999999910593033]","[0.0, -0.0, 0.6105238386288652]","[-0.06802736222743988, 0.11199304461479187, 0.03999999910593033]","[0.0, 0.0, -0.08627855705463071]","[0.026750000193715096, 0.05299999937415123, 0.03999999910593033]","[0.0, 0.0, -0.4135480174038472]","[0.05568397790193558, 0.11893045902252197, 0.03999999910593033]","[0.0, -0.0, 0.2820869592622023]",0.6208251179686732,2.472322320557005,"(0.0, 0.0, 0.0, 0.0, 0.0, 0.0)",-0.14770654582211504,-0.6968326589114183,-0.00728011255484784,"(0.0, 0.0, 0.0, 0.0, 0.0, 0.0)",-0.01903241759182215,-0.4074410109908592,1.4656830338722169,"(0.0, 0.0, 0.0, 0.0, 0.0, 0.0)",0.8610484739796331,0.6956137664376217,-0.005089642526962798,"(0.0, 0.0, 0.0, 0.0, 0.0, 0.0)",0.4771510329462487,True,"(-0.044425826533061555, 0.1878447920025466, 0.04216200665552392)","(0.9919697830993205, 0.1253088630692977, 0.01713587622992102)",-0.0017544583473494122,0.0,True,"(0.017781191842347485, 0.18868559946166635, 0.037837993344476115)","(-0.9919697830993222, -0.1253088630692883, -0.01713587622988357)",-0.00042679263525409255,6.0676984293527
