OSUrobotics/InHand-Manipulation/AnalyseData/Data/Trial Data/Better/new_hand_human_sub1_2v2_d_n_1_kpNone_kdNone_dp1_step1_save_data.csv
,Phase,human_cube_pos,human_cube_orn,Cube_Pos,Cube_Orn,Cube_pos_in_start_pos,b'l_prox_pin'_link_pos,b'l_prox_pin'_link_orn,b'l_distal_pin'_link_pos,b'l_distal_pin'_link_orn,b'r_prox_pin'_link_pos,b'r_prox_pin'_link_orn,b'r_distal_pin'_link_pos,b'r_distal_pin'_link_orn,b'l_prox_pin'_joint_angle,b'l_prox_pin'_joint_vel,b'l_prox_pin'_joint_react_forces,b'l_prox_pin'_joint_motor_torque,b'l_distal_pin'_joint_angle,b'l_distal_pin'_joint_vel,b'l_distal_pin'_joint_react_forces,b'l_distal_pin'_joint_motor_torque,b'r_prox_pin'_joint_angle,b'r_prox_pin'_joint_vel,b'r_prox_pin'_joint_react_forces,b'r_prox_pin'_joint_motor_torque,b'r_distal_pin'_joint_angle,b'r_distal_pin'_joint_vel,b'r_distal_pin'_joint_react_forces,b'r_distal_pin'_joint_motor_torque,in_contact_l,contact_point_l_dist,contact_normal_l_dist,contact_distance_l_dist,contact_norm_force_l_dist,in_contact_r,contact_point_r_dist,contact_normal_r_dist,contact_distance_r_dist,contact_norm_force_r_dist
0,Open,,,,,,"[-0.026750000193715096, 0.05299999937415123, 0.03999999910593033]","[0.0, -0.0, 0.0]","[-0.026750000193715096, 0.125, 0.03999999910593033]","[0.0, -0.0, 0.0]","[0.026750000193715096, 0.05299999937415123, 0.03999999910593033]","[0.0, -0.0, 0.0]","[0.026750000193715096, 0.125, 0.03999999910593033]","[0.0, -0.0, 0.0]",0.0,0.0,"(0.0, 0.0, 0.0, 0.0, 0.0, 0.0)",1.3400621000080305e-17,5.883223478113402e-32,1.4119736347472167e-29,"(0.0, 0.0, 0.0, 0.0, 0.0, 0.0)",1.0542555313129702e-18,-0.008068665190486622,-1.9364796457167894,"(0.0, 0.0, 0.0, 0.0, 0.0, 0.0)",193.26378306879909,-0.0700246186727924,-16.805908481470176,"(0.0, 0.0, 0.0, 0.0, 0.0, 0.0)",71.94009191575694,False,,,,,False,,,,
1,Open,,,,,,"[-0.026750000193715096, 0.05299999937415123, 0.03999999910593033]","[0.0, -0.0, 0.0]","[-0.026750000193715096, 0.125, 0.03999999910593033]","[0.0, -0.0, 5.883223447970011e-32]","[0.026750000193715096, 0.05299999937415123, 0.03999999910593033]","[0.0, 0.0, -0.008068665592501188]","[0.02733093686401844, 0.12499765306711197, 0.03999999910593033]","[0.0, 0.0, -0.0780932845685428]",0.157,37.68,"(0.0, 0.0, 0.0, 0.0, 0.0, 0.0)",54.702693795169004,5.294901130302062e-32,-1.4119736347472162e-30,"(0.0, 0.0, 0.0, 0.0, 0.0, 0.0)",3.9113724975844915,-0.1670280316324969,-38.150247946082466,"(0.0, 0.0, 0.0, 0.0, 0.0, 0.0)",-25.93345404555236,-0.0659493391739072,0.9780670797324476,"(0.0, 0.0, 0.0, 0.0, 0.0, 0.0)",-6.754749483880455,False,,,,,False,,,,
2,Open,,,,,,"[-0.026750000193715096, 0.05299999937415123, 0.03999999910593033]","[0.0, -0.0, 0.1569999988554567]","[-0.03800761699676514, 0.12411445379257202, 0.03999999910593033]","[0.0, -0.0, 0.1569999988554567]","[0.026750000193715096, 0.05299999937415123, 0.03999999910593033]","[0.0, 0.0, -0.16702801712980753]","[0.038720179349184036, 0.1239979937672615, 0.03999999910593033]","[0.0, 0.0, -0.23297739431320727]",0.29829999999999995,33.91199999999999,"(0.0, 0.0, 0.0, 0.0, 0.0, 0.0)",-5.390828189440958,5.294901130302062e-32,0.0,"(0.0, 0.0, 0.0, 0.0, 0.0, 0.0)",-0.3659219356209609,-0.3122944613104081,-34.863943122698686,"(0.0, 0.0, 0.0, 0.0, 0.0, 0.0)",95.8006544774165,-0.06705867534034729,-0.2662406799456205,"(0.0, 0.0, 0.0, 0.0, 0.0, 0.0)",9.049911776264722,False,,,,,False,,,,
3,Open,,,,,,"[-0.026750000193715096, 0.05299999937415123, 0.03999999910593033]","[0.0, -0.0, 0.29830000998707634]","[-0.04791048914194107, 0.12182030081748962, 0.03999999910593033]","[0.0, -0.0, 0.29830000998707634]","[0.026750000193715096, 0.05299999937415123, 0.03999999910593033]","[0.0, 0.0, -0.3122944642903269]","[0.048871491104364395, 0.12151744216680527, 0.03999999910593033]","[0.0, 0.0, -0.3793531994353912]",0.42546999999999996,30.5208,"(0.0, 0.0, 0.0, 0.0, 0.0, 0.0)",-4.858074537215091,5.294901130302062e-32,0.0,"(0.0, 0.0, 0.0, 0.0, 0.0, 0.0)",-0.33154044974508506,-0.44292449566296654,-31.35120824461403,"(0.0, 0.0, 0.0, 0.0, 0.0, 0.0)",100.88457241511576,-0.08373770380977785,-4.0029668326633345,"(0.0, 0.0, 0.0, 0.0, 0.0, 0.0)",24.077304806401806,False,,,,,False,,,,
4,Open,,,,,,"[-0.026750000193715096, 0.05299999937415123, 0.03999999910593033]","[0.0, -0.0, 0.4254700097131474]","[-0.056467924267053604, 0.11858082562685013, 0.03999999910593033]","[0.0, -0.0, 0.4254700097131474]","[0.026750000193715096, 0.05299999937415123, 0.03999999910593033]","[0.0, 0.0, -0.4429245237535421]","[0.057608019560575485, 0.1180521547794342, 0.03999999910593033]","[0.0, 0.0, -0.5266622746639338]",0.5399229999999999,27.46872,"(0.0, 0.0, 0.0, 0.0, 0.0, 0.0)",-4.377393708535371,5.294901130302062e-32,0.0,"(0.0, 0.0, 0.0, 0.0, 0.0, 0.0)",-0.30017707799641646,-0.5623038734984663,-28.651050680519948,"(0.0, 0.0, 0.0, 0.0, 0.0, 0.0)",144.45470973647488,-0.10456727132876567,-4.999096204557077,"(0.0, 0.0, 0.0, 0.0, 0.0, 0.0)",33.97911746732963,False,,,,,False,,,,
5,Open,,,,,,"[-0.026750000193715096, 0.05299999937415123, 0.03999999910593033]","[0.0, -0.0, 0.5399230359738098]","[-0.06376303732395172, 0.11475787311792374, 0.03999999910593033]","[0.0, -0.0, 0.5399230359738098]","[0.026750000193715096, 0.05299999937415123, 0.03999999910593033]","[0.0, 0.0, -0.5623038790270362]","[0.06513584405183792, 0.11391409486532211, 0.03999999910593033]","[0.0, 0.0, -0.6668711870723439]",0.6429307,24.721848,"(0.0, 0.0, 0.0, 0.0, 0.0, 0.0)",-3.943806903965684,5.294901130302062e-32,0.0,"(0.0, 0.0, 0.0, 0.0, 0.0, 0.0)",-0.2716098155097054,-0.6673401099248648,-25.208696742335626,"(0.0, 0.0, 0.0, 0.0, 0.0, 0.0)",94.97739775913854,-0.11755295807544866,-3.116564819203918,"(0.0, 0.0, 0.0, 0.0, 0.0, 0.0)",25.79194570087013,False,,,,,False,,,,
6,Open,,,,,,"[-0.026750000193715096, 0.05299999937415123, 0.03999999910593033]","[0.0, -0.0, 0.6429307111289271]","[-0.06991713494062424, 0.11062463372945786, 0.03999999910593033]","[0.0, -0.0, 0.6429307111289271]","[0.026750000193715096, 0.05299999937415123, 0.03999999910593033]","[0.0, 0.0, -0.6673401753977319]","[0.07131072133779526, 0.10955388844013214, 0.03999999910593033]","[0.0, 0.0, -0.7848931559948581]",0.73563763,22.249663200000004,"(0.0, 0.0, 0.0, 0.0, 0.0, 0.0)",-3.552789792259023,5.294901130302062e-32,0.0,"(0.0, 0.0, 0.0, 0.0, 0.0, 0.0)",-0.24562369466220793,-0.7579917869736262,-21.756402491702737,"(0.0, 0.0, 0.0, 0.0, 0.0, 0.0)",34.46450837185191,-0.10794166402774508,2.3067105714488583,"(0.0, 0.0, 0.0, 0.0, 0.0, 0.0)",8.765009015475858,False,,,,,False,,,,
7,Open,,,,,,"[-0.026750000193715096, 0.05299999937415123, 0.03999999910593033]","[0.0, -0.0, 0.7356376306875043]","[-0.07506632059812546, 0.10638101398944855, 0.03999999910593033]","[0.0, -0.0, 0.7356376306875043]","[0.026750000193715096, 0.05299999937415123, 0.03999999910593033]","[0.0, 0.0, -0.757991847340814]","[0.076247438788414, 0.10528770089149475, 0.03999999910593033]","[0.0, 0.0, -0.8659334873334429]",0.8190738670000001,20.024696880000004,"(0.0, 0.0, 0.0, 0.0, 0.0, 0.0)",-3.2002295086701533,2.3293280891773424e-07,5.5903874140256216e-05,"(0.0, 0.0, 0.0, 0.0, 0.0, 0.0)",-0.22200715926400075,-0.8391926082762636,-19.488197112632974,"(0.0, 0.0, 0.0, 0.0, 0.0, 0.0)",3.295349739497939,-0.09714776835574307,2.590534961280482,"(0.0, 0.0, 0.0, 0.0, 0.0, 0.0)",0.25803221970863044,False,,,,,False,,,,
8,Open,,,,,,"[-0.026750000193715096, 0.05299999937415123, 0.03999999910593033]","[0.0, -0.0, 0.8190738875671263]","[-0.07934698462486267, 0.10216865688562393, 0.03999999910593033]","[0.0, -0.0, 0.8190741465287105]","[0.026750000193715096, 0.05299999937415123, 0.03999999910593033]","[0.0, 0.0, -0.839192558822362]","[0.08032548427581787, 0.10110059380531311, 0.03999999910593033]","[0.0, 0.0, -0.9363403253067936]",0.8941664803,18.022227192,"(0.0, 0.0, 0.0, 0.0, 0.0, 0.0)",-2.8824197251771095,4.2009445145371055e-07,4.4918794208634316e-05,"(0.0, 0.0, 0.0, 0.0, 0.0, 0.0)",-0.2005835928406654,-0.9122733474486373,-17.539377401369673,"(0.0, 0.0, 0.0, 0.0, 0.0, 0.0)",2.7804978356880783,-0.0874331700712747,2.33150358827241,"(0.0, 0.0, 0.0, 0.0, 0.0, 0.0)",0.17017621517521792,False,,,,,False,,,,
9,Open,,,,,,"[-0.026750000193715096, 0.05299999937415123, 0.03999999910593033]","[0.0, -0.0, 0.894166469119967]","[-0.08288749307394028, 0.09808415919542313, 0.03999999910593033]","[0.0, -0.0, 0.894166894674561]","[0.026750000193715096, 0.05299999937415123, 0.03999999910593033]","[0.0, 0.0, -0.9122733503889549]","[0.08369457721710205, 0.09706035256385803, 0.03999999910593033]","[0.0, 0.0, -0.9997066729229968]",0.96174983227,16.220004472800003,"(0.0, 0.0, 0.0, 0.0, 0.0, 0.0)",-2.5959652512206968,5.681494863714967e-07,3.553320838026869e-05,"(0.0, 0.0, 0.0, 0.0, 0.0, 0.0)",-0.18114955764248034,-0.9780460127037736,-15.785439661232708,"(0.0, 0.0, 0.0, 0.0, 0.0, 0.0)",2.503992476159733,-0.0786900142246732,2.098357403184359,"(0.0, 0.0, 0.0, 0.0, 0.0, 0.0)",0.15360133560797545,False,,,,,False,,,,
10,Open,,,,,,"[-0.026750000193715096, 0.05299999937415123, 0.03999999910593033]","[0.0, -0.0, 0.9617498658906226]","[-0.08580395579338074, 0.09419016540050507, 0.03999999910593033]","[0.0, -0.0, 0.9617504517765805]","[0.026750000193715096, 0.05299999937415123, 0.03999999910593033]","[0.0, 0.0, -0.9780460255881384]","[0.08646733313798904, 0.09322238713502884, 0.03999999910593033]","[0.0, 0.0, -1.0567360258914282]",1.022574849043,14.598004025520002,"(0.0, 0.0, 0.0, 0.0, 0.0, 0.0)",-2.337816594086846,6.829231533297027e-07,2.7545680069969436e-05,"(0.0, 0.0, 0.0, 0.0, 0.0, 0.0)",-0.16354029854134106,-1.0372414114333963,-14.206895695109438,"(0.0, 0.0, 0.0, 0.0, 0.0, 0.0)",2.2548456713339484,-0.07082115822448021,1.8885254400463192,"(0.0, 0.0, 0.0, 0.0, 0.0, 0.0)",0.13860128234430863,False,,,,,False,,,,
11,Open,,,,,,"[-0.026750000193715096, 0.05299999937415123, 0.03999999910593033]","[0.0, -0.0, 1.0225748785172661]","[-0.08819860219955444, 0.09052424877882004, 0.03999999910593033]","[0.0, -0.0, 1.0225755149967983]","[0.026750000193715096, 0.05299999937415123, 0.03999999910593033]","[0.0, 0.0, -1.037241417801626]","[0.08874232321977615, 0.08961901068687439, 0.03999999910593033]","[0.0, 0.0, -1.1080626941470386]",1.0773173641387,13.138203622968001,"(0.0, 0.0, 0.0, 0.0, 0.0, 0.0)",-2.105207702642618,7.694903593429899e-07,2.0776129443188934e-05,"(0.0, 0.0, 0.0, 0.0, 0.0, 0.0)",-0.14759587787833617,-1.0905172702900567,-12.78620612559849,"(0.0, 0.0, 0.0, 0.0, 0.0, 0.0)",2.0303755786213302,-0.06373917358809339,1.6996763127328351,"(0.0, 0.0, 0.0, 0.0, 0.0, 0.0)",0.1250328149112744,False,,,,,False,,,,
12,Open,,,,,,"[-0.026750000193715096, 0.05299999937415123, 0.03999999910593033]","[0.0, -0.0, 1.0773173786594632]","[-0.09015969932079315, 0.08710587024688721, 0.03999999910593033]","[0.0, -0.0, 1.0773182784199262]","[0.026750000193715096, 0.05299999937415123, 0.03999999910593033]","[0.0, 0.0, -1.090517334189526]","[0.09060435742139816, 0.0862659215927124, 0.03999999910593033]","[0.0, 0.0, -1.1542564269670996]",1.1265856277248298,11.824383260671203,"(0.0, 0.0, 0.0, 0.0, 0.0, 0.0)",-1.895636869852492,8.322629993378343e-07,1.5065433598762668e-05,"(0.0, 0.0, 0.0, 0.0, 0.0, 0.0)",-0.13316806895824274,-1.138465543261051,-11.50758551303864,"(0.0, 0.0, 0.0, 0.0, 0.0, 0.0)",1.828159741200242,-0.05736537454460671,1.5297117704368035,"(0.0, 0.0, 0.0, 0.0, 0.0, 0.0)",0.11276577482950233,False,,,,,False,,,,
13,Open,,,,,,"[-0.026750000193715096, 0.05299999937415123, 0.03999999910593033]","[0.0, -0.0, 1.126585512342968]","[-0.09176240861415863, 0.08394166082143784, 0.03999999910593033]","[0.0, -0.0, 1.1265864725026016]","[0.026750000193715096, 0.05299999937415123, 0.03999999910593033]","[0.0, 0.0, -1.13846552283997]","[0.09212540090084076, 0.08316715806722641, 0.03999999910593033]","[0.0, 0.0, -1.1958309904194953]",1.1709270649523469,10.641944934604087,"(0.0, 0.0, 0.0, 0.0, 0.0, 0.0)",-1.7068426281171958,8.750681698751778e-07,1.0273240928962424e-05,"(0.0, 0.0, 0.0, 0.0, 0.0, 0.0)",-0.12011999884119333,-1.181618988934946,-10.356826961734775,"(0.0, 0.0, 0.0, 0.0, 0.0, 0.0)",1.6460093571929852,-0.051628943774705546,1.376743384776279,"(0.0, 0.0, 0.0, 0.0, 0.0, 0.0)",0.10168054944364863,False,,,,,False,,,,
14,Open,,,,,,"[-0.026750000193715096, 0.05299999937415123, 0.03999999910593033]","[0.0, -0.0, 1.170927100750299]","[-0.09307006001472473, 0.08102945238351822, 0.03999999910593033]","[0.0, -0.0, 1.1709279927689973]","[0.026750000193715096, 0.05299999937415123, 0.03999999910593033]","[0.0, 0.0, -1.181618964677462]","[0.09336595237255096, 0.08031877130270004, 0.03999999910593033]","[0.0, 0.0, -1.233247876832181]",1.2108343584571122,9.577750441143678,"(0.0, 0.0, 0.0, 0.0, 0.0, 0.0)",-1.5367816122769582,9.012180617793662e-07,6.275974057005224e-06,"(0.0, 0.0, 0.0, 0.0, 0.0, 0.0)",-0.1083256720668905,-1.2204570900414513,-9.3211442655613,"(0.0, 0.0, 0.0, 0.0, 0.0, 0.0)",1.4819475463743526,-0.046466145575958295,1.239071567699341,"(0.0, 0.0, 0.0, 0.0, 0.0, 0.0)",0.09166748660725833,False,,,,,False,,,,
15,Open,,,,,,"[-0.026750000193715096, 0.05299999937415123, 0.03999999910593033]","[0.0, -0.0, 1.2108343955497323]","[-0.09413553774356842, 0.07836118340492249, 0.03999999910593033]","[0.0, -0.0, 1.210835255049739]","[0.026750000193715096, 0.05299999937415123, 0.03999999910593033]","[0.0, 0.0, -1.2204571829136446]","[0.09437645971775055, 0.07771158218383789, 0.03999999910593033]","[0.0, 0.0, -1.2669233179031547]",1.2467509226114009,8.619975397029307,"(0.0, 0.0, 0.0, 0.0, 0.0, 0.0)",-1.3836082777937824,9.135722823677317e-07,2.9650129412077397e-06,"(0.0, 0.0, 0.0, 0.0, 0.0, 0.0)",-0.09766941677677543,-1.2554113810373062,-8.38902983900517,"(0.0, 0.0, 0.0, 0.0, 0.0, 0.0)",1.334189480132575,-0.04181961771093252,1.1151666876061868,"(0.0, 0.0, 0.0, 0.0, 0.0, 0.0)",0.08262627878010878,False,,,,,False,,,,
16,Open,,,,,,"[-0.026750000193715096, 0.05299999937415123, 0.03999999910593033]","[0.0, -0.0, 1.2467510110527222]","[-0.09500277042388916, 0.07592508941888809, 0.03999999910593033]","[0.0, -0.0, 1.246751870145374]","[0.026750000193715096, 0.05299999937415123, 0.03999999910593033]","[0.0, 0.0, -1.255411348379259]","[0.09519875049591064, 0.0753331333398819, 0.03999999910593033]","[0.0, 0.0, -1.2972309672073006]",1.2790758303502607,7.757977857326381,"(0.0, 0.0, 0.0, 0.0, 0.0, 0.0)",-1.2456264712746363,2.1141758111398655e-06,0.0002881448469053121,"(0.0, 0.0, 0.0, 0.0, 0.0, 0.0)",-0.088015399348708,-1.2868702429335757,-7.5501268551046525,"(0.0, 0.0, 0.0, 0.0, 0.0, 0.0)",1.2010989712673745,-0.037638748630864464,1.0034085792163332,"(0.0, 0.0, 0.0, 0.0, 0.0, 0.0)",0.07444006052486639,False,,,,,False,,,,
17,Open,,,,,,"[-0.026750000193715096, 0.05299999937415123, 0.03999999910593033]","[0.0, -0.0, 1.2790758758817962]","[-0.09570803493261337, 0.0737072303891182, 0.03999999910593033]","[0.0, -0.0, 1.2790780932516201]","[0.026750000193715096, 0.05299999937415123, 0.03999999910593033]","[0.0, 0.0, -1.2868702529032277]","[0.0958673357963562, 0.07316911965608597, 0.03999999910593033]","[0.0, 0.0, -1.3245087793274308]",1.3081682532711112,6.982181501004109,"(0.0, 0.0, 0.0, 0.0, 0.0, 0.0)",-1.12145472366965,1.9027582300258812e-06,-5.0740219467356254e-05,"(0.0, 0.0, 0.0, 0.0, 0.0, 0.0)",-0.07939114715284208,-1.315183223212741,-6.795115266999686,"(0.0, 0.0, 0.0, 0.0, 0.0, 0.0)",1.0813262344929835,-0.033874873767778015,0.9033299671407473,"(0.0, 0.0, 0.0, 0.0, 0.0, 0.0)",0.06713055017345074,False,,,,,False,,,,
18,Open,,,,,,"[-0.026750000193715096, 0.05299999937415123, 0.03999999910593033]","[0.0, -0.0, 1.3081682459906412]","[-0.09628119319677353, 0.07169260084629059, 0.03999999910593033]","[0.0, -0.0, 1.3081702011658356]","[0.026750000193715096, 0.05299999937415123, 0.03999999910593033]","[0.0, 0.0, -1.3151833180210462]","[0.0964106097817421, 0.07120437920093536, 0.03999999910593033]","[0.0, 0.0, -1.349058153261439]",1.334351427944,6.283961921493333,"(0.0, 0.0, 0.0, 0.0, 0.0, 0.0)",-1.0095234585863413,2.7618377923566443e-06,0.00020617909495938315,"(0.0, 0.0, 0.0, 0.0, 0.0, 0.0)",-0.07148780084672787,-1.3406649008914668,-6.11560264289422,"(0.0, 0.0, 0.0, 0.0, 0.0, 0.0)",0.9733796231570812,-0.030488273507324658,0.8127840625088054,"(0.0, 0.0, 0.0, 0.0, 0.0, 0.0)",0.060435192896783604,False,,,,,False,,,,
19,Open,,,,,,"[-0.026750000193715096, 0.05299999937415123, 0.03999999910593033]","[0.0, -0.0, 1.334351465706577]","[-0.09674673527479172, 0.06986585259437561, 0.03999999910593033]","[0.0, -0.0, 1.33435435145599]","[0.026750000193715096, 0.05299999937415123, 0.03999999910593033]","[0.0, 0.0, -1.3406650641721125]","[0.09685182571411133, 0.06942359358072281, 0.03999999910593033]","[0.0, 0.0, -1.3711530696282732]",1.3579162851496,5.655565729344001,"(0.0, 0.0, 0.0, 0.0, 0.0, 0.0)",-0.9088150211252332,3.4316066113876724e-06,0.0001607445165674468,"(0.0, 0.0, 0.0, 0.0, 0.0, 0.0)",-0.06444344013525093,-1.3635984108023202,-5.504042378604797,"(0.0, 0.0, 0.0, 0.0, 0.0, 0.0)",0.8762522980402716,-0.02744024570882781,0.7315266716392431,"(0.0, 0.0, 0.0, 0.0, 0.0, 0.0)",0.05446985052483407,False,,,,,False,,,,
20,Open,,,,,,"[-0.026750000193715096, 0.05299999937415123, 0.03999999910593033]","[0.0, -0.0, 1.3579163939939654]","[-0.09712471067905426, 0.0682118609547615, 0.03999999910593033]","[0.0, -0.0, 1.3579197824809437]","[0.026750000193715096, 0.05299999937415123, 0.03999999910593033]","[0.0, 0.0, -1.3635984874387626]","[0.09721000492572784, 0.06781173497438431, 0.03999999910593033]","[0.0, 0.0, -1.3910385869420074]",1.37912465663464,5.090009156409601,"(0.0, 0.0, 0.0, 0.0, 0.0, 0.0)",-0.8181093185961676,3.940702417530038e-06,0.0001221829934741677,"(0.0, 0.0, 0.0, 0.0, 0.0, 0.0)",-0.05806034967263589,-1.3842385697220883,-4.953638140744317,"(0.0, 0.0, 0.0, 0.0, 0.0, 0.0)",0.7887791417834831,-0.024696941374704916,0.6583930401894944,"(0.0, 0.0, 0.0, 0.0, 0.0, 0.0)",0.04906644857689494,False,,,,,False,,,,
21,Open,,,,,,"[-0.026750000193715096, 0.05299999937415123, 0.03999999910593033]","[0.0, -0.0, 1.3791247702213432]","[-0.0974314734339714, 0.0667160153388977, 0.03999999910593033]","[0.0, -0.0, 1.3791284782568445]","[0.026750000193715096, 0.05299999937415123, 0.03999999910593033]","[0.0, 0.0, -1.3842387704807777]","[0.09750068932771683, 0.06635437905788422, 0.03999999910593033]","[0.0, 0.0, -1.408935619520831]",1.398212190971176,4.581008240768642,"(0.0, 0.0, 0.0, 0.0, 0.0, 0.0)",-0.7364407507487188,4.314390796743166e-06,8.968521101115077e-05,"(0.0, 0.0, 0.0, 0.0, 0.0, 0.0)",-0.05230389643117988,-1.4028147127498793,-4.458274326669883,"(0.0, 0.0, 0.0, 0.0, 0.0, 0.0)",0.7100243788118592,-0.02222789596809768,0.5925708975857369,"(0.0, 0.0, 0.0, 0.0, 0.0, 0.0)",0.04419507766734469,False,,,,,False,,,,
22,Open,,,,,,"[-0.026750000193715096, 0.05299999937415123, 0.03999999910593033]","[0.0, -0.0, 1.3982120672717784]","[-0.09768038988113403, 0.06536446511745453, 0.03999999910593033]","[0.0, -0.0, 1.3982164487645397]","[0.026750000193715096, 0.05299999937415123, 0.03999999910593033]","[0.0, 0.0, -1.4028147367436141]","[0.09773654490709305, 0.06503787636756897, 0.03999999910593033]","[0.0, 0.0, -1.4250426427007885]",1.4153909718740585,4.122907416691778,"(0.0, 0.0, 0.0, 0.0, 0.0, 0.0)",-0.6629119687698639,4.574523674952359e-06,6.243189077020624e-05,"(0.0, 0.0, 0.0, 0.0, 0.0, 0.0)",-0.04711364623212332,-1.4195332414748913,-4.012446894002898,"(0.0, 0.0, 0.0, 0.0, 0.0, 0.0)",0.6391216750959775,-0.02000569064819732,0.5333292767760867,"(0.0, 0.0, 0.0, 0.0, 0.0, 0.0)",0.039804123486470444,False,,,,,False,,,,
23,Open,,,,,,"[-0.026750000193715096, 0.05299999937415123, 0.03999999910593033]","[0.0, -0.0, 1.415391158105469]","[-0.09788231551647186, 0.06414420157670975, 0.03999999910593033]","[0.0, -0.0, 1.415395709317307]","[0.026750000193715096, 0.05299999937415123, 0.03999999910593033]","[0.0, 0.0, -1.419533200978404]","[0.09792786836624146, 0.06384945660829544, 0.03999999910593033]","[0.0, 0.0, -1.4395389386881268]",1.4308518746866525,3.7106166750225977,"(0.0, 0.0, 0.0, 0.0, 0.0, 0.0)",-0.5967141397561109,4.7399630338636504e-06,3.9705446138709865e-05,"(0.0, 0.0, 0.0, 0.0, 0.0, 0.0)",-0.042434775014060074,-1.4345799173274023,-3.611202204602609,"(0.0, 0.0, 0.0, 0.0, 0.0, 0.0)",0.5752902758042565,-0.018005647771851804,0.4800102903229233,"(0.0, 0.0, 0.0, 0.0, 0.0, 0.0)",0.0358468230863414,False,,,,,False,,,,
24,Open,,,,,,"[-0.026750000193715096, 0.05299999937415123, 0.03999999910593033]","[0.0, -0.0, 1.4308518944899675]","[-0.09804610908031464, 0.06304314732551575, 0.03999999910593033]","[0.0, -0.0, 1.4308566269594332]","[0.026750000193715096, 0.05299999937415123, 0.03999999910593033]","[0.0, 0.0, -1.4345798203875788]","[0.09808305650949478, 0.06277728080749512, 0.03999999910593033]","[0.0, 0.0, -1.4525855975984745]",1.4447666872179874,3.339555007520341,"(0.0, 0.0, 0.0, 0.0, 0.0, 0.0)",-0.5371183361845069,4.8269553674989e-06,2.0878160072459843e-05,"(0.0, 0.0, 0.0, 0.0, 0.0, 0.0)",-0.03821759960562203,-1.448121925594662,-3.2500819841423465,"(0.0, 0.0, 0.0, 0.0, 0.0, 0.0)",0.5178266556878065,-0.016205556838873442,0.4320218239148067,"(0.0, 0.0, 0.0, 0.0, 0.0, 0.0)",0.0322808466635012,False,,,,,False,,,,
25,Open,,,,,,"[-0.026750000193715096, 0.05299999937415123, 0.03999999910593033]","[0.0, -0.0, 1.4447668540021588]","[-0.09817895293235779, 0.06205013021826744, 0.03999999910593033]","[0.0, -0.0, 1.4447715863131299]","[0.026750000193715096, 0.05299999937415123, 0.03999999910593033]","[0.0, 0.0, -1.448121993206969]","[0.09820891171693802, 0.06181041896343231, 0.03999999910593033]","[0.0, 0.0, -1.46432761016298]",1.4572900184961886,3.005599506768304,"(0.0, 0.0, 0.0, 0.0, 0.0, 0.0)",-0.483467731204937,4.849462099751187e-06,5.401615740548756e-06,"(0.0, 0.0, 0.0, 0.0, 0.0, 0.0)",-0.03441712855198442,-1.4603097330351957,-2.925073785728113,"(0.0, 0.0, 0.0, 0.0, 0.0, 0.0)",0.4660969568661882,-0.014585427836986846,0.38883096045278315,"(0.0, 0.0, 0.0, 0.0, 0.0, 0.0)",0.029067900465992856,False,,,,,False,,,,
26,Open,,,,,,"[-0.026750000193715096, 0.05299999937415123, 0.03999999910593033]","[0.0, -0.0, 1.4572900807517244]","[-0.0982866883277893, 0.061154916882514954, 0.03999999910593033]","[0.0, -0.0, 1.4572948921008348]","[0.026750000193715096, 0.05299999937415123, 0.03999999910593033]","[0.0, 0.0, -1.4603097470714805]","[0.09831098467111588, 0.06093886122107506, 0.03999999910593033]","[0.0, 0.0, -1.4748951413427742]",1.4685610166465697,2.705039556091476,"(0.0, 0.0, 0.0, 0.0, 0.0, 0.0)",-0.43517053908893033,4.819450845044722e-06,-7.202701129551542e-06,"(0.0, 0.0, 0.0, 0.0, 0.0, 0.0)",-0.030992645518402973,-1.471278759731676,-2.632566407155304,"(0.0, 0.0, 0.0, 0.0, 0.0, 0.0)",0.4195301522878829,-0.013127269246907155,0.3499580616191257,"(0.0, 0.0, 0.0, 0.0, 0.0, 0.0)",0.02617336062226555,False,,,,,False,,,,
27,Open,,,,,,"[-0.026750000193715096, 0.05299999937415123, 0.03999999910593033]","[0.0, -0.0, 1.4685611215819594]","[-0.09837405383586884, 0.06034812703728676, 0.03999999910593033]","[0.0, -0.0, 1.468565853091142]","[0.026750000193715096, 0.05299999937415123, 0.03999999910593033]","[0.0, 0.0, -1.4712788457263521]","[0.0983937606215477, 0.06015344336628914, 0.03999999910593033]","[0.0, 0.0, -1.4844061039497418]",1.4787049149819127,2.434535600482329,"(0.0, 0.0, 0.0, 0.0, 0.0, 0.0)",-0.39169363303347604,4.747151892642784e-06,-1.7351748576465223e-05,"(0.0, 0.0, 0.0, 0.0, 0.0, 0.0)",-0.02790732436186781,-1.4811508837585086,-2.3693097664397755,"(0.0, 0.0, 0.0, 0.0, 0.0, 0.0)",0.37761186810531283,-0.011814888241968555,0.3149714411852639,"(0.0, 0.0, 0.0, 0.0, 0.0, 0.0)",0.023565936472848985,False,,,,,False,,,,
28,Open,,,,,,"[-0.026750000193715096, 0.05299999937415123, 0.03999999910593033]","[0.0, -0.0, 1.4787049625213984]","[-0.09844490885734558, 0.059621214866638184, 0.03999999910593033]","[0.0, -0.0, 1.4787095898811649]","[0.026750000193715096, 0.05299999937415123, 0.03999999910593033]","[0.0, 0.0, -1.4811508165812142]","[0.09846089035272598, 0.059445831924676895, 0.03999999910593033]","[0.0, 0.0, -1.492965762433775]",1.4878344234837215,2.191082040434097,"(0.0, 0.0, 0.0, 0.0, 0.0, 0.0)",-0.35255677801820895,4.641283838470101e-06,-2.5408333001444004e-05,"(0.0, 0.0, 0.0, 0.0, 0.0, 0.0)",-0.02512787460267613,-1.4900357953826577,-2.132378789795796,"(0.0, 0.0, 0.0, 0.0, 0.0, 0.0)",0.33987880377374147,-0.010633710863257649,0.2834825708906175,"(0.0, 0.0, 0.0, 0.0, 0.0, 0.0)",0.021217361806457186,False,,,,,False,,,,
29,Close,,,"(0.010000165031897679, 0.16000264050809818, 0.003919197399597577)","(-5.388791991209616e-05, 3.3679978815229247e-06, -9.074720008653711e-11)",,"[-0.026750000193715096, 0.05299999937415123, 0.03999999910593033]","[0.0, -0.0, 1.487834617901085]","[-0.09850236773490906, 0.05896640568971634, 0.03999999910593033]","[0.0, -0.0, 1.4878390921106803]","[0.026750000193715096, 0.05299999937415123, 0.03999999910593033]","[0.0, 0.0, -1.4900358577435544]","[0.09851532429456711, 0.05880843847990036, 0.03999999910593033]","[0.0, 0.0, -1.5006695807985118]",1.4960509811353493,1.9719738363906854,"(0.0, 0.0, 0.0, 0.0, 0.0, 0.0)",-0.3173274216127963,4.509251873886308e-06,-3.168767150011037e-05,"(0.0, 0.0, 0.0, 0.0, 0.0, 0.0)",-0.022624215793833224,-1.498032215844392,-1.9191409108162163,"(0.0, 0.0, 0.0, 0.0, 0.0, 0.0)",0.30591369390909257,-0.00957062017308593,0.2551417656412126,"(0.0, 0.0, 0.0, 0.0, 0.0, 0.0)",0.019102112305110365,False,,,,,False,,,,
30,Close,,,"(0.010000330010418335, 0.1600052801621647, 0.0076635160840755065)","(-0.00010776674212266888, 6.7354271463595154e-06, -3.629275205618536e-10)",,"[-0.026750000193715096, 0.05299999937415123, 0.03999999910593033]","[0.0, -0.0, 1.4960509653323988]","[-0.09854896366596222, 0.058376654982566833, 0.03999999910593033]","[0.0, -0.0, 1.4960555203126162]","[0.026750000193715096, 0.05299999937415123, 0.03999999910593033]","[0.0, 0.0, -1.4980320325532246]","[0.09855947643518448, 0.05823439359664917, 0.03999999910593033]","[0.0, 0.0, -1.5076028800413472]",1.4064458830218143,-21.505223547248388,"(0.0, 0.0, 0.0, 0.0, 0.0, 0.0)",-36.32500847077206,-0.08999559064729075,-21.600023975799512,"(0.0, 0.0, 0.0, 0.0, 0.0, 0.0)",-4.679136399120495,-1.4082289942599528,21.552773180265405,"(0.0, 0.0, 0.0, 0.0, 0.0, 0.0)",36.31473208701179,0.08138609105625041,21.82961069504072,"(0.0, 0.0, 0.0, 0.0, 0.0, 0.0)",4.675963213372079,False,,,,,False,,,,
31,Close,,,"(0.010000494936733278, 0.16000791898094055, 0.011233038807318392)","(-0.00016163646818851668, 1.0102287881965475e-05, -8.164490687548302e-10)",,"[-0.026750000193715096, 0.05299999937415123, 0.03999999910593033]","[0.0, -0.0, 1.4064459844712927]","[-0.0977797880768776, 0.06478003412485123, 0.03999999910593033]","[0.0, -0.0, 1.316450240076391]","[0.026750000193715096, 0.05299999937415123, 0.03999999910593033]","[0.0, 0.0, -1.4082291009672807]","[0.09780067950487137, 0.06465335935354233, 0.03999999910593033]","[0.0, 0.0, -1.3268428349863826]",1.325801294719633,-19.354701192523546,"(0.0, 0.0, 0.0, 0.0, 0.0, 0.0)",3.2936342521930255,-0.17099646652613912,-19.44021021092361,"(0.0, 0.0, 0.0, 0.0, 0.0, 0.0)",0.4145426679866387,-1.3274060948339577,19.39749586223887,"(0.0, 0.0, 0.0, 0.0, 0.0, 0.0)",-3.3024243844052092,0.16324791947241268,19.646838819878944,"(0.0, 0.0, 0.0, 0.0, 0.0, 0.0)",-0.41699994760359754,False,,,,,False,,,,
32,Close,,,"(0.010000659812012168, 0.16001055698314023, 0.0146278458391823)","(-0.0002154970996661642, 1.346858017578936e-05, -1.4512199879406586e-09)",,"[-0.026750000193715096, 0.05299999937415123, 0.03999999910593033]","[0.0, -0.0, 1.3258013857525741]","[-0.09659997373819351, 0.07046370953321457, 0.03999999910593033]","[0.0, -0.0, 1.1548048042561467]","[0.026750000193715096, 0.05299999937415123, 0.03999999910593033]","[0.0, 0.0, -1.3274060658778382]","[0.09662791341543198, 0.07035159319639206, 0.03999999910593033]","[0.0, 0.0, -1.1641581075845935]",1.2532211652476697,-17.41923107327119,"(0.0, 0.0, 0.0, 0.0, 0.0, 0.0)",2.9685258329366073,-0.24389721437960032,-17.496179484830687,"(0.0, 0.0, 0.0, 0.0, 0.0, 0.0)",0.3760018756193849,-1.2546654853505619,17.457746276014984,"(0.0, 0.0, 0.0, 0.0, 0.0, 0.0)",-2.976480273609718,0.2369235243908578,17.682145180426822,"(0.0, 0.0, 0.0, 0.0, 0.0, 0.0)",-0.3782508099482112,False,,,,,False,,,,
33,Close,,,"(0.010000824637423049, 0.16001319418745247, 0.017848014970055004)","(-0.00026934863811186216, 1.6834304115272585e-05, -2.2671484573282825e-09)",,"[-0.026750000193715096, 0.05299999937415123, 0.03999999910593033]","[0.0, -0.0, 1.2532212515508983]","[-0.09514966607093811, 0.07548300176858902, 0.03999999910593033]","[0.0, -0.0, 1.0093239867956962]","[0.026750000193715096, 0.05299999937415123, 0.03999999910593033]","[0.0, 0.0, -1.254665405963893]","[0.09518206864595413, 0.07538418471813202, 0.03999999910593033]","[0.0, 0.0, -1.0177419933055243]",1.1878990487229026,-15.677307965944074,"(0.0, 0.0, 0.0, 0.0, 0.0, 0.0)",2.675103284419244,-0.30950785045582774,-15.746552658294572,"(0.0, 0.0, 0.0, 0.0, 0.0, 0.0)",0.34074508229325023,-1.1891989368155058,15.711971648413485,"(0.0, 0.0, 0.0, 0.0, 0.0, 0.0)",-2.6822973218910153,0.30323153162132754,15.913921735312746,"(0.0, 0.0, 0.0, 0.0, 0.0, 0.0)",-0.34279935345822066,False,,,,,False,,,,
34,Close,,,"(0.010000989414132393, 0.1600158306125408, 0.020893621515273818)","(-0.00032319108508158773, 2.0199459787849396e-05, -3.2641426920478403e-09)",,"[-0.026750000193715096, 0.05299999937415123, 0.03999999910593033]","[0.0, -0.0, 1.1878990574339587]","[-0.09353619813919067, 0.07989988476037979, 0.03999999910593033]","[0.0, -0.0, 0.8783912846834516]","[0.026750000193715096, 0.05299999937415123, 0.03999999910593033]","[0.0, 0.0, -1.1891990098250689]","[0.09357111155986786, 0.07981304824352264, 0.03999999910593033]","[0.0, 0.0, -0.8859674697633095]",1.1291091438506125,-14.109577169349663,"(0.0, 0.0, 0.0, 0.0, 0.0, 0.0)",2.4103712722760626,-0.36855738916456426,-14.17188929009676,"(0.0, 0.0, 0.0, 0.0, 0.0, 0.0)",0.3085687115248564,-1.1302790431339553,14.140774483572143,"(0.0, 0.0, 0.0, 0.0, 0.0, 0.0)",-2.4168742890236286,0.36290870417903687,14.322521413850238,"(0.0, 0.0, 0.0, 0.0, 0.0, 0.0)",-0.31044204201279674,False,,,,,False,,,,
35,Close,,,"(0.010001154143305145, 0.16001846627704427, 0.023764738319401603)","(-0.00037702444213104407, 2.3564047280946926e-05, -4.4421109431381166e-09)",,"[-0.026750000193715096, 0.05299999937415123, 0.03999999910593033]","[0.0, -0.0, 1.1291090274464952]","[-0.09184028208255768, 0.08377750217914581, 0.03999999910593033]","[0.0, -0.0, 0.7605517150898052]","[0.026750000193715096, 0.05299999937415123, 0.03999999910593033]","[0.0, 0.0, -1.130279133319625]","[0.09187624603509903, 0.08370133489370346, 0.03999999910593033]","[0.0, 0.0, -0.7673703325611945]",1.0761982294655512,-12.698619452414698,"(0.0, 0.0, 0.0, 0.0, 0.0, 0.0)",2.1715845710489208,-0.42170194324014043,-12.754692978138287,"(0.0, 0.0, 0.0, 0.0, 0.0, 0.0)",0.27924932151422227,-1.07725113882056,12.72669703521493,"(0.0, 0.0, 0.0, 0.0, 0.0, 0.0)",-2.177460276301377,0.41661812854294633,12.890261847338277,"(0.0, 0.0, 0.0, 0.0, 0.0, 0.0)",-0.2809551529003472,False,,,,,False,,,,
36,Close,,,"(0.010001318826104761, 0.16002110119957821, 0.02646143576036139)","(-0.0004308487108156613, 2.692806668198511e-05, -5.800961497533997e-09)",,"[-0.026750000193715096, 0.05299999937415123, 0.03999999910593033]","[0.0, -0.0, 1.076198055145404]","[-0.09012148529291153, 0.08717681467533112, 0.03999999910593033]","[0.0, -0.0, 0.6544962762796218]","[0.026750000193715096, 0.05299999937415123, 0.03999999910593033]","[0.0, 0.0, -1.0772510781061955]","[0.09015743434429169, 0.08711007237434387, 0.03999999910593033]","[0.0, 0.0, -0.6606329452337051]",1.028578406518996,-11.428757507173229,"(0.0, 0.0, 0.0, 0.0, 0.0, 0.0)",1.9562489498726314,-0.46953201391559385,-11.479216962108818,"(0.0, 0.0, 0.0, 0.0, 0.0, 0.0)",0.2525697399559188,-1.0295260249385039,11.454027331693439,"(0.0, 0.0, 0.0, 0.0, 0.0, 0.0)",-1.961555706583625,0.46495658231577774,11.601228905479532,"(0.0, 0.0, 0.0, 0.0, 0.0, 0.0)",-0.25412105363877113,False,,,,,False,,,,
37,Close,,,"(0.010001483463693249, 0.1600237353987347, 0.0289837817534302)","(-0.0004846638926905951, 3.0291518078376737e-05, -7.3406026780539124e-09)",,"[-0.026750000193715096, 0.05299999937415123, 0.03999999910593033]","[0.0, -0.0, 1.028578444789276]","[-0.08842276781797409, 0.09015467017889023, 0.03999999910593033]","[0.0, -0.0, 0.5590464126725148]","[0.026750000193715096, 0.05299999937415123, 0.03999999910593033]","[0.0, 0.0, -1.029526007298545]","[0.08845794945955276, 0.09009620547294617, 0.03999999910593033]","[0.0, 0.0, -0.564569399435659]",0.9857205658670964,-10.285881756455906,"(0.0, 0.0, 0.0, 0.0, 0.0, 0.0)",1.7621005438122825,-0.5125790520819234,-10.331289159919107,"(0.0, 0.0, 0.0, 0.0, 0.0, 0.0)",0.22832149176550065,-0.9865734224446535,10.308624598524094,"(0.0, 0.0, 0.0, 0.0, 0.0, 0.0)",-1.766891708603882,0.508461165120635,10.441099873165749,"(0.0, 0.0, 0.0, 0.0, 0.0, 0.0)",-0.22973068702752517,False,,,,,False,,,,
38,Close,,,"(0.010001648057231211, 0.16002636889308344, 0.03133184175509247)","(-0.0005384699893107284, 3.3654401557527444e-05, -9.06094284338731e-09)",,"[-0.026750000193715096, 0.05299999937415123, 0.03999999910593033]","[0.0, -0.0, 0.9857205423734198]","[-0.08677425980567932, 0.09276290237903595, 0.03999999910593033]","[0.0, -0.0, 0.47314147483112123]","[0.026750000193715096, 0.05299999937415123, 0.03999999910593033]","[0.0, 0.0, -0.9865734261287252]","[0.08680814504623413, 0.09271169453859329, 0.03999999910593033]","[0.0, 0.0, -0.4781122693565934]",0.9471485092803869,-9.257293580810316,"(0.0, 0.0, 0.0, 0.0, 0.0, 0.0)",1.587086438141582,-0.5513213633331018,-9.29815470028281,"(0.0, 0.0, 0.0, 0.0, 0.0, 0.0)",0.206306403170868,-0.9479160802001881,9.277762138671687,"(0.0, 0.0, 0.0, 0.0, 0.0, 0.0)",-1.5914107042435905,0.5476152664096928,9.396984309373877,"(0.0, 0.0, 0.0, 0.0, 0.0, 0.0)",-0.2075852193448244,False,,,,,False,,,,
39,Close,,,"(0.01000181260787789, 0.16002900170117218, 0.03350567876675359)","(-0.00059226700223067, 3.7016717206835695e-05, -1.0961890388082131e-08)",,"[-0.026750000193715096, 0.05299999937415123, 0.03999999910593033]","[0.0, -0.0, 0.9471486716739237]","[-0.08519625663757324, 0.09504801034927368, 0.03999999910593033]","[0.0, -0.0, 0.39582717163487297]","[0.026750000193715096, 0.05299999937415123, 0.03999999910593033]","[0.0, 0.0, -0.9479160840165974]","[0.08522851020097733, 0.09500313550233841, 0.03999999910593033]","[0.0, 0.0, -0.4003008647547732]",0.9124336583523481,-8.331564222729286,"(0.0, 0.0, 0.0, 0.0, 0.0, 0.0)",1.4293465062267445,-0.5861894225076075,-8.368334201881392,"(0.0, 0.0, 0.0, 0.0, 0.0, 0.0)",0.18633757536892917,-0.9131244721801693,8.349985924804516,"(0.0, 0.0, 0.0, 0.0, 0.0, 0.0)",-1.433248242084051,0.5828539364930729,8.45728082001123,"(0.0, 0.0, 0.0, 0.0, 0.0, 0.0)",-0.18749704763631705,False,,,,,False,,,,
40,Close,,,"(0.010001977116791199, 0.1600316338415276, 0.035505353338314005)","(-0.0006460549330047555, 4.037846511369274e-05, -1.3043353742532214e-08)",,"[-0.026750000193715096, 0.05299999937415123, 0.03999999910593033]","[0.0, -0.0, 0.9124336635104583]","[-0.08370164036750793, 0.0970512256026268, 0.03999999910593033]","[0.0, -0.0, 0.3262442150321584]","[0.026750000193715096, 0.05299999937415123, 0.03999999910593033]","[0.0, 0.0, -0.9131245532476111]","[0.08373206108808517, 0.09701187163591385, 0.03999999910593033]","[0.0, 0.0, -0.3302705841133475]",0.8811902925171133,-7.498407800456356,"(0.0, 0.0, 0.0, 0.0, 0.0, 0.0)",1.2871965063691413,-0.6175706567763247,-7.531496224492115,"(0.0, 0.0, 0.0, 0.0, 0.0, 0.0)",0.16823988009592084,-0.8818120249621524,7.514987332324067,"(0.0, 0.0, 0.0, 0.0, 0.0, 0.0)",-1.2907160846573733,0.6145687204653795,7.61154815335357,"(0.0, 0.0, 0.0, 0.0, 0.0, 0.0)",-0.16929032064296096,False,,,,,False,,,,
41,Close,,,"(0.010002141585127773, 0.16003426533265583, 0.03733092357160428)","(-0.0006998337831870475, 4.3739645365482716e-05, -1.5305241372964883e-08)",,"[-0.026750000193715096, 0.05299999937415123, 0.03999999910593033]","[0.0, -0.0, 0.8811903688816151]","[-0.08229776471853256, 0.09880879521369934, 0.03999999910593033]","[0.0, -0.0, 0.2636196251065186]","[0.026750000193715096, 0.05299999937415123, 0.03999999910593033]","[0.0, 0.0, -0.8818121535754343]","[0.08232623338699341, 0.098774254322052, 0.03999999910593033]","[0.0, 0.0, -0.26724331826119446]",0.853071263265402,-6.7485670204107215,"(0.0, 0.0, 0.0, 0.0, 0.0, 0.0)",1.1591124175888132,-0.6458137504217961,-6.77834247491313,"(0.0, 0.0, 0.0, 0.0, 0.0, 0.0)",0.1518500972569631,-0.8536308224659371,6.763488599091658,"(0.0, 0.0, 0.0, 0.0, 0.0, 0.0)",-1.1622865309865396,0.643112008739745,6.850389185847702,"(0.0, 0.0, 0.0, 0.0, 0.0, 0.0)",-0.15280109527428076,False,,,,,False,,,,
42,Close,,,"(0.010002306014043007, 0.16003689619304312, 0.038982445123681576)","(-0.0007536035543313348, 4.7100258049582536e-05, -1.7747461781428295e-08)",,"[-0.026750000193715096, 0.05299999937415123, 0.03999999910593033]","[0.0, -0.0, 0.8530713239495782]","[-0.08098787814378738, 0.10035242885351181, 0.03999999910593033]","[0.0, -0.0, 0.2072574956851119]","[0.026750000193715096, 0.05299999937415123, 0.03999999910593033]","[0.0, 0.0, -0.8536307856313979]","[0.08101436495780945, 0.10032207518815994, 0.03999999910593033]","[0.0, 0.0, -0.21051882644475053]",0.8277641369388617,-6.073710318369648,"(0.0, 0.0, 0.0, 0.0, 0.0, 0.0)",1.043715976216214,-0.6712325191394197,-6.100504492229669,"(0.0, 0.0, 0.0, 0.0, 0.0, 0.0)",0.1370167890019201,-0.8282677402193435,6.0871397391824935,"(0.0, 0.0, 0.0, 0.0, 0.0, 0.0)",-1.0465779375227178,0.6688009525283538,6.165346509266115,"(0.0, 0.0, 0.0, 0.0, 0.0, 0.0)",-0.1378772244212715,False,,,,,False,,,,
43,Close,,,"(0.010002470404691093, 0.16003952644115657, 0.04045997120998789)","(-0.0008073642479911328, 5.0460303253361964e-05, -2.0369923505779015e-08)",,"[-0.026750000193715096, 0.05299999937415123, 0.03999999910593033]","[0.0, -0.0, 0.8277641182932235]","[-0.07977228611707687, 0.10170972347259521, 0.03999999910593033]","[0.0, -0.0, 0.1565316389415725]","[0.026750000193715096, 0.05299999937415123, 0.03999999910593033]","[0.0, 0.0, -0.8282677342123946]","[0.07979680597782135, 0.10168302059173584, 0.03999999910593033]","[0.0, 0.0, -0.1594667900835625]",0.8049877232449756,-5.4663392865326825,"(0.0, 0.0, 0.0, 0.0, 0.0, 0.0)",0.9397613626777375,-0.6941093969081942,-5.49045066450586,"(0.0, 0.0, 0.0, 0.0, 0.0, 0.0)",0.12359998406321729,-0.8054409661974091,5.478425765264244,"(0.0, 0.0, 0.0, 0.0, 0.0, 0.0)",-0.9423413878167864,0.6919209877745929,5.54880845909737,"(0.0, 0.0, 0.0, 0.0, 0.0, 0.0)",-0.12437805104754245,False,,,,,False,,,,
44,Close,,,"(0.010002634758225062, 0.1600421560954447, 0.041763552607370504)","(-0.000861115865719684, 5.381978106418352e-05, -2.3172535119669436e-08)",,"[-0.026750000193715096, 0.05299999937415123, 0.03999999910593033]","[0.0, -0.0, 0.8049877164750058]","[-0.07864919304847717, 0.10290464758872986, 0.03999999910593033]","[0.0, -0.0, 0.11087832859978779]","[0.026750000193715096, 0.05299999937415123, 0.03999999910593033]","[0.0, 0.0, -0.805440964305088]","[0.07867180556058884, 0.10288111865520477, 0.03999999910593033]","[0.0, 0.0, -0.11351997099607207]",0.784488950920478,-4.919705357879415,"(0.0, 0.0, 0.0, 0.0, 0.0, 0.0)",0.8461229797239068,-0.7146985741739192,-4.941402543774016,"(0.0, 0.0, 0.0, 0.0, 0.0, 0.0)",0.11147072977230046,-0.7848968695776682,4.93058318873782,"(0.0, 0.0, 0.0, 0.0, 0.0, 0.0)",-0.8484484528940599,0.7127290066915236,4.993924540063379,"(0.0, 0.0, 0.0, 0.0, 0.0, 0.0)",-0.1121739668696123,False,,,,,False,,,,
45,Close,,,"(0.010002799075796832, 0.16004478517433812, 0.04289323765696492)","(-0.0009148584090699577, 5.7178691569402595e-05, -2.615520523253533e-08)",,"[-0.026750000193715096, 0.05299999937415123, 0.03999999910593033]","[0.0, -0.0, 0.7844889896573499]","[-0.07761538028717041, 0.10395795851945877, 0.03999999910593033]","[0.0, -0.0, 0.06979037514545033]","[0.026750000193715096, 0.05299999937415123, 0.03999999910593033]","[0.0, 0.0, -0.7848969068252226]","[0.07763615995645523, 0.10393720120191574, 0.03999999910593033]","[0.0, 0.0, -0.07216786709232846]",0.7660400558284302,-4.427734822091471,"(0.0, 0.0, 0.0, 0.0, 0.0, 0.0)",0.7617842585328375,-0.7332288222135146,-4.44725952950288,"(0.0, 0.0, 0.0, 0.0, 0.0, 0.0)",0.10051055612556806,-0.7664071826199014,4.437524869864038,"(0.0, 0.0, 0.0, 0.0, 0.0, 0.0)",-0.7638799793048979,0.7314562121459494,4.494529309062177,"(0.0, 0.0, 0.0, 0.0, 0.0, 0.0)",-0.10114588070786824,False,,,,,False,,,,
46,Close,,,"(0.010002963358557236, 0.16004741369625017, 0.04384907226694074)","(-0.0009685918795946493, 6.053703485636736e-05, -2.9317842489583264e-08)",,"[-0.026750000193715096, 0.05299999937415123, 0.03999999910593033]","[0.0, -0.0, 0.7660400058439011]","[-0.07666666060686111, 0.10488764196634293, 0.03999999910593033]","[0.0, -0.0, 0.0328112365488731]","[0.026750000193715096, 0.05299999937415123, 0.03999999910593033]","[0.0, 0.0, -0.7664072421942376]","[0.07668570429086685, 0.1048693135380745, 0.03999999910593033]","[0.0, 0.0, -0.03495097036229706]",0.7494360502455871,-3.984961339882325,"(0.0, 0.0, 0.0, 0.0, 0.0, 0.0)",0.6858274268188955,-0.7499060350622873,-4.002531083705426,"(0.0, 0.0, 0.0, 0.0, 0.0, 0.0)",0.09061088591719418,-0.7497664643579113,3.9937723828776335,"(0.0, 0.0, 0.0, 0.0, 0.0, 0.0)",-0.6877158393779155,0.7483106866034595,4.045073869802414,"(0.0, 0.0, 0.0, 0.0, 0.0, 0.0)",-0.09118463108881669,False,,,,,False,,,,
47,Close,,,"(0.010003127607656072, 0.16005004167957756, 0.04463109991511072)","(-0.0010223162788461832, 6.389481101241881e-05, -3.266035557177819e-08)",,"[-0.026750000193715096, 0.05299999937415123, 0.03999999910593033]","[0.0, -0.0, 0.7494360616149593]","[-0.07579827308654785, 0.1057092696428299, 0.03999999910593033]","[0.0, 0.0, -0.00046998485639781964]","[0.026750000193715096, 0.05299999937415123, 0.03999999910593033]","[0.0, 0.0, -0.7497665229086657]","[0.07581568509340286, 0.10569305717945099, 0.03999999910593033]","[0.0, 0.0, -0.0014557777936095985]",0.7344924452210284,-3.5864652058940925,"(0.0, 0.0, 0.0, 0.0, 0.0, 0.0)",0.6173964503690262,-0.7649166300024903,-3.602542785648727,"(0.0, 0.0, 0.0, 0.0, 0.0, 0.0)",0.08164469448201127,-0.7347898179221202,3.594395144589871,"(0.0, 0.0, 0.0, 0.0, 0.0, 0.0)",-0.61909767957405,0.7634808239898891,3.6408329727431203,"(0.0, 0.0, 0.0, 0.0, 0.0, 0.0)",-0.08216247127692902,False,,,,,False,,,,
48,Close,,,"(0.010003291824242136, 0.16005266914270105, 0.04523936165140331)","(-0.0010760316083767074, 6.725202012489063e-05, -3.618265319583079e-08)",,"[-0.026750000193715096, 0.05299999937415123, 0.03999999910593033]","[0.0, -0.0, 0.7344924171356654]","[-0.07500515878200531, 0.10643631219863892, 0.03999999910593033]","[0.0, 0.0, -0.03042418292779103]","[0.026750000193715096, 0.05299999937415123, 0.03999999910593033]","[0.0, 0.0, -0.7347898072320369]","[0.07502105087041855, 0.10642196238040924, 0.03999999910593033]","[0.0, -0.0, 0.028691003185096618]",0.7210432006989256,-3.227818685304683,"(0.0, 0.0, 0.0, 0.0, 0.0, 0.0)",0.5558325671900768,-0.77842604750784,-3.2422602012839143,"(0.0, 0.0, 0.0, 0.0, 0.0, 0.0)",0.07360992294062317,-0.7213108361299082,3.234955630130884,"(0.0, 0.0, 0.0, 0.0, 0.0, 0.0)",-0.5573653507703412,0.7771338289584356,3.2767211924511668,"(0.0, 0.0, 0.0, 0.0, 0.0, 0.0)",-0.07407739542501454,False,,,,,False,,,,
49,Close,,,"(0.010003456009463264, 0.16005529610398603, 0.04567389610019914)","(-0.0011297378697381003, 7.060866228110946e-05, -3.988464411418517e-08)",,"[-0.026750000193715096, 0.05299999937415123, 0.03999999910593033]","[0.0, -0.0, 0.7210432248946826]","[-0.07428213953971863, 0.10708045959472656, 0.03999999910593033]","[0.0, 0.0, -0.05738284539856889]","[0.026750000193715096, 0.05299999937415123, 0.03999999910593033]","[0.0, 0.0, -0.7213108742429458]","[0.07429660856723785, 0.10706773400306702, 0.03999999910593033]","[0.0, -0.0, 0.0558229905847104]",0.708938880629033,-2.905036816774215,"(0.0, 0.0, 0.0, 0.0, 0.0, 0.0)",0.5003668258645501,-0.7905844163893876,-2.9180085315714246,"(0.0, 0.0, 0.0, 0.0, 0.0, 0.0)",0.06632913423961855,-0.7091797525169173,2.911460067117798,"(0.0, 0.0, 0.0, 0.0, 0.0, 0.0)",-0.5017475327577147,0.7894214258858812,2.9490232625869344,"(0.0, 0.0, 0.0, 0.0, 0.0, 0.0)",-0.06675089596581112,False,,,,,False,,,,
50,Close,,,"(0.010001644182078712, 0.16005595153396976, 0.045940321410535084)","(-0.0011271805217326655, 1.767785898679914e-05, -1.508889111938428e-08)",,"[-0.026750000193715096, 0.05299999937415123, 0.03999999910593033]","[0.0, -0.0, 0.7089389671526269]","[-0.07362406700849533, 0.10765182226896286, 0.03999999910593033]","[0.0, 0.0, -0.08164554069303018]","[0.026750000193715096, 0.05299999937415123, 0.03999999910593033]","[0.0, 0.0, -0.7091797033714331]","[0.0736372321844101, 0.10764053463935852, 0.03999999910593033]","[0.0, -0.0, 0.08024167743029369]",0.6980449925661297,-2.6145331350967917,"(0.0, 0.0, 0.0, 0.0, 0.0, 0.0)",0.4504252929298086,-0.8015268519725993,-2.6261845399708146,"(0.0, 0.0, 0.0, 0.0, 0.0, 0.0)",0.059761147909024356,-0.6982617772652256,2.6203140604060167,"(0.0, 0.0, 0.0, 0.0, 0.0, 0.0)",-0.4516689022418484,0.8004801661036254,2.6540976522586175,"(0.0, 0.0, 0.0, 0.0, 0.0, 0.0)",-0.06014157277442886,False,,,,,False,,,,
51,Close,,,"(0.009998458164918766, 0.16005543218265145, 0.046184544665354044)","(-0.001116587313714928, -4.731063982249702e-05, 3.3486629919706074e-09)",,"[-0.026750000193715096, 0.05299999937415123, 0.03999999910593033]","[0.0, -0.0, 0.6980450466292163]","[-0.07302592694759369, 0.10815921425819397, 0.03999999910593033]","[0.0, 0.0, -0.1034818592301779]","[0.026750000193715096, 0.05299999937415123, 0.03999999910593033]","[0.0, 0.0, -0.6982617371246688]","[0.07303788512945175, 0.10814917832612991, 0.03999999910593033]","[0.0, -0.0, 0.10221840210156648]",0.6882404933095168,-2.3530798215871136,"(0.0, 0.0, 0.0, 0.0, 0.0, 0.0)",0.40545980991383274,-0.8113749570468809,-2.3635452178275753,"(0.0, 0.0, 0.0, 0.0, 0.0, 0.0)",0.0538375991228723,-0.688435599538703,2.358282654365416,"(0.0, 0.0, 0.0, 0.0, 0.0, 0.0)",-0.4065798463491374,0.810432944800545,2.3886668872606847,"(0.0, 0.0, 0.0, 0.0, 0.0, 0.0)",-0.0541806611811555,False,,,,,False,,,,
52,Close,,,"(0.0099979269032565, 0.16005188637635104, 0.04640949954916324)","(-0.0010442772263960227, -5.814874739306873e-05, 7.787963860925158e-09)",,"[-0.026750000193715096, 0.05299999937415123, 0.03999999910593033]","[0.0, -0.0, 0.688240548987758]","[-0.07248289883136749, 0.10861026495695114, 0.03999999910593033]","[0.0, 0.0, -0.12313446206189271]","[0.026750000193715096, 0.05299999937415123, 0.03999999910593033]","[0.0, 0.0, -0.6884356086136862]","[0.07249374687671661, 0.10860133916139603, 0.03999999910593033]","[0.0, -0.0, 0.1219973374555316]",0.679416393078237,-2.117784055507141,"(0.0, 0.0, 0.0, 0.0, 0.0, 0.0)",0.3649762140031281,-0.8202374613421928,-2.12700103087486,"(0.0, 0.0, 0.0, 0.0, 0.0, 0.0)",0.04851286211734207,-0.6795919883598663,2.1224666829208143,"(0.0, 0.0, 0.0, 0.0, 0.0, 0.0)",-0.36598488497268467,0.8193896503204905,2.149609324786922,"(0.0, 0.0, 0.0, 0.0, 0.0, 0.0)",-0.04882227338805697,False,,,,,False,,,,
53,Close,,,"(0.009997966950406065, 0.16004795201914346, 0.046616050094935475)","(-0.0009640430328522325, -5.7324486097668704e-05, 4.2980615420070005e-09)",,"[-0.026750000193715096, 0.05299999937415123, 0.03999999910593033]","[0.0, -0.0, 0.6794163791618646]","[-0.07199041545391083, 0.10901165008544922, 0.03999999910593033]","[0.0, 0.0, -0.1408210743259801]","[0.026750000193715096, 0.05299999937415123, 0.03999999910593033]","[0.0, 0.0, -0.6795920181483843]","[0.07200025022029877, 0.1090037003159523, 0.03999999910593033]","[0.0, -0.0, 0.13979766167419433]",0.6714747537704133,-1.9059934338776885,"(0.0, 0.0, 0.0, 0.0, 0.0, 0.0)",0.3285291326313333,-0.8282143561304102,-1.914454749172182,"(0.0, 0.0, 0.0, 0.0, 0.0, 0.0)",0.043663125146434535,-0.6716327895238797,1.9102077206367922,"(0.0, 0.0, 0.0, 0.0, 0.0, 0.0)",-0.3294374536237565,0.8274513303019508,1.934803195550486,"(0.0, 0.0, 0.0, 0.0, 0.0, 0.0)",-0.043941831288343336,False,,,,,False,,,,
54,Close,,,"(0.009998107600018924, 0.16004411888380865, 0.0468059782297436)","(-0.0008858309445970004, -5.447527859797503e-05, 4.128601528647624e-08)",,"[-0.026750000193715096, 0.05299999937415123, 0.03999999910593033]","[0.0, -0.0, 0.6714747449539094]","[-0.07154417037963867, 0.10936915874481201, 0.03999999910593033]","[0.0, 0.0, -0.15673960659097733]","[0.026750000193715096, 0.05299999937415123, 0.03999999910593033]","[0.0, 0.0, -0.6716327690441329]","[0.07155308127403259, 0.10936208069324493, 0.03999999910593033]","[0.0, -0.0, 0.15581855230220754]",0.664327278393372,-1.7153940904899205,"(0.0, 0.0, 0.0, 0.0, 0.0, 0.0)",0.2957170811345372,-0.8353934979980445,-1.7229940482322428,"(0.0, 0.0, 0.0, 0.0, 0.0, 0.0)",0.03934112702889199,-0.6644695105714917,1.7191869485731137,"(0.0, 0.0, 0.0, 0.0, 0.0, 0.0)",-0.2965349881453131,0.8347067784412298,1.7413075534269409,"(0.0, 0.0, 0.0, 0.0, 0.0, 0.0)",-0.039592428071821256,False,,,,,False,,,,
55,Close,,,"(0.009998248644105466, 0.16004048002584464, 0.0469807018618576)","(-0.0008115684428503489, -5.1596750749095254e-05, 7.881188886077776e-08)",,"[-0.026750000193715096, 0.05299999937415123, 0.03999999910593033]","[0.0, -0.0, 0.6643273336690038]","[-0.07114013284444809, 0.10968788713216782, 0.03999999910593033]","[0.0, 0.0, -0.17106622141763456]","[0.026750000193715096, 0.05299999937415123, 0.03999999910593033]","[0.0, 0.0, -0.6644694779113771]","[0.07114819437265396, 0.10968156903982162, 0.03999999910593033]","[0.0, -0.0, 0.17023725548976373]",0.6578945505540348,-1.543854681440929,"(0.0, 0.0, 0.0, 0.0, 0.0, 0.0)",0.2661784897251144,-0.8418546682622772,-1.5506808634158242,"(0.0, 0.0, 0.0, 0.0, 0.0, 0.0)",0.03542959308904228,-0.6580225595143425,1.547268253715802,"(0.0, 0.0, 0.0, 0.0, 0.0, 0.0)",-0.26691494494593054,0.8412366239853526,1.567162930589489,"(0.0, 0.0, 0.0, 0.0, 0.0, 0.0)",-0.035656056287006674,False,,,,,False,,,,
56,Close,,,"(0.009998390752654573, 0.16003702894197389, 0.04714144752999396)","(-0.0007411380797103218, -4.869650481896534e-05, 1.1687517768299383e-07)",,"[-0.026750000193715096, 0.05299999937415123, 0.03999999910593033]","[0.0, -0.0, 0.6578945475257985]","[-0.07077455520629883, 0.1099722608923912, 0.03999999910593033]","[0.0, 0.0, -0.18396012465064338]","[0.026750000193715096, 0.05299999937415123, 0.03999999910593033]","[0.0, 0.0, -0.6580225896942233]","[0.07078184932470322, 0.10996662080287933, 0.03999999910593033]","[0.0, -0.0, 0.18321406389742323]",0.6521050954986313,-1.3894692132968354,"(0.0, 0.0, 0.0, 0.0, 0.0, 0.0)",0.23958744527110798,-0.8476696697618468,-1.395600359896693,"(0.0, 0.0, 0.0, 0.0, 0.0, 0.0)",0.031904902566438624,-0.6522203035629083,1.392541428344221,"(0.0, 0.0, 0.0, 0.0, 0.0, 0.0)",-0.24025052935853647,0.8471134329078756,1.410434141405507,"(0.0, 0.0, 0.0, 0.0, 0.0, 0.0)",-0.032108956045352514,False,,,,,False,,,,
57,Close,,,"(0.009998534235924597, 0.16003375955333046, 0.04728933347451534)","(-0.0006744157946989166, -4.576820860538318e-05, 1.554405829918684e-07)",,"[-0.026750000193715096, 0.05299999937415123, 0.03999999910593033]","[0.0, -0.0, 0.6521051450040646]","[-0.07044398784637451, 0.11022617667913437, 0.03999999910593033]","[0.0, 0.0, -0.19556454293122102]","[0.026750000193715096, 0.05299999937415123, 0.03999999910593033]","[0.0, 0.0, -0.6522203497730787]","[0.07045057415962219, 0.11022114753723145, 0.03999999910593033]","[0.0, -0.0, 0.19489313608724637]",0.6468945859487681,-1.250522291967151,"(0.0, 0.0, 0.0, 0.0, 0.0, 0.0)",0.2156503992603495,-0.8529031244958994,-1.2560291361726517,"(0.0, 0.0, 0.0, 0.0, 0.0, 0.0)",0.02872919688306315,-0.6469982732066174,1.253287285509799,"(0.0, 0.0, 0.0, 0.0, 0.0, 0.0)",-0.2162473971085442,0.8524025140258721,1.2693794683191757,"(0.0, 0.0, 0.0, 0.0, 0.0, 0.0)",-0.02891303657535659,False,,,,,False,,,,
58,Close,,,"(0.009998679410322496, 0.16003066597344334, 0.0474253884764576)","(-0.0006112814540129935, -4.2805404436077314e-05, 1.9447426774393396e-07)",,"[-0.026750000193715096, 0.05299999937415123, 0.03999999910593033]","[0.0, -0.0, 0.6468945636476681]","[-0.07014521211385727, 0.11045306921005249, 0.03999999910593033]","[0.0, 0.0, -0.20600854729134555]","[0.026750000193715096, 0.05299999937415123, 0.03999999910593033]","[0.0, 0.0, -0.6469982503054421]","[0.07015117257833481, 0.11044856905937195, 0.03999999910593033]","[0.0, -0.0, 0.20540423443750838]",0.6422051273538913,-1.125470062770436,"(0.0, 0.0, 0.0, 0.0, 0.0, 0.0)",0.1941029233168818,-0.8576131917611358,-1.1304161436567226,"(0.0, 0.0, 0.0, 0.0, 0.0, 0.0)",0.025868240883426936,-0.6422984458859556,1.1279585569588184,"(0.0, 0.0, 0.0, 0.0, 0.0, 0.0)",-0.19464040126091972,0.8571626447690798,1.1424313783698345,"(0.0, 0.0, 0.0, 0.0, 0.0, 0.0)",-0.026033851694478666,False,,,,,False,,,,
59,Move,,,"(0.009998826598722164, 0.16002774252192944, 0.04755055901421763)","(-0.0005516191299448554, -3.980150267197137e-05, 2.339437659612592e-07)","[0.0, 0.0, 0.0]","[-0.026750000193715096, 0.05299999937415123, 0.03999999910593033]","[0.0, -0.0, 0.6422051137296667]","[-0.0698753148317337, 0.11065594106912613, 0.03999999910593033]","[0.0, 0.0, -0.2154080556264429]","[0.026750000193715096, 0.05299999937415123, 0.03999999910593033]","[0.0, 0.0, -0.6422983956794274]","[0.06988069415092468, 0.1106519103050232, 0.03999999910593033]","[0.0, -0.0, 0.21486417441436167]",0.6379846146185022,-1.0129230564933929,"(0.0, 0.0, 0.0, 0.0, 0.0, 0.0)",0.17470684718642912,-0.8618522144704561,-1.0173654502368856,"(0.0, 0.0, 0.0, 0.0, 0.0, 0.0)",0.023291096758263134,-0.6380686012973601,1.0151627012629356,"(0.0, 0.0, 0.0, 0.0, 0.0, 0.0)",-0.1751907229705418,0.8614467243673204,1.02817910357775,"(0.0, 0.0, 0.0, 0.0, 0.0, 0.0)",-0.023440272040621463,False,,,,,True,"(0.04276013174954747, 0.17974174897294792, 0.02399995643463635)","(-0.9999999990838299, -1.9447426661030803e-07, -4.2805404423670755e-05)",0.0013234533115717422,0.0
60,Move,,,"(0.008699259039732246, 0.1597652061907072, 0.04782485533738502)","(0.0040480273580015685, 0.009650479713711625, 0.017575803187450934)","[-0.0012995675589899183, -0.00026253633122225173, 0.00027429632316738894]","[-0.026750000193715096, 0.05299999937415123, 0.03999999910593033]","[0.0, -0.0, 0.6379846501970732]","[-0.06963159143924713, 0.1108374372124672, 0.03999999910593033]","[0.0, 0.0, -0.22386762157269943]","[0.026750000193715096, 0.05299999937415123, 0.03999999910593033]","[0.0, 0.0, -0.638068602671057]","[0.06963644921779633, 0.11083383113145828, 0.03999999910593033]","[0.0, -0.0, 0.22337816170537766]",0.6141590059460926,-5.718146081378296,"(0.0, 0.0, 0.0, 0.0, 0.0, 0.0)",-6.715100343954984,-0.8614283121995241,0.10173654502368734,"(0.0, 0.0, 0.0, 0.0, 0.0, 0.0)",-0.3723637437215536,-0.6186765363685498,4.654095582914465,"(0.0, 0.0, 0.0, 0.0, 0.0, 0.0)",16.91452213543579,0.8602423878670417,-0.28904076006690205,"(0.0, 0.0, 0.0, 0.0, 0.0, 0.0)",7.026754130549747,False,,,,,True,"(0.041928616181162004, 0.17969877893574898, 0.023999959438538117)","(-0.9999999992078928, -2.3394376620903917e-07, -3.980150265941498e-05)",0.0004918567139684023,94.17969713248019
61,Move,,,"(0.006953428279101256, 0.15936555806379668, 0.04799883027777207)","(0.0036027003309908674, 0.011726089522938334, 0.045571805054608026)","[-0.0030453983196209082, -0.000662184458132764, 0.0004482712635544353]","[-0.026750000193715096, 0.05299999937415123, 0.03999999910593033]","[0.0, -0.0, 0.6141590305095613]","[-0.06824154406785965, 0.11184260249137878, 0.03999999910593033]","[0.0, 0.0, -0.24726930604170874]","[0.026750000193715096, 0.05299999937415123, 0.03999999910593033]","[0.0, 0.0, -0.6186765449450942]","[0.06850694119930267, 0.11165456473827362, 0.03999999910593033]","[0.0, -0.0, 0.24156588090171732]",0.5923752537221402,-5.228100533748595,"(0.0, 0.0, 0.0, 0.0, 0.0, 0.0)",0.6968351830029371,-0.8614707024266173,-0.010173654502368734,"(0.0, 0.0, 0.0, 0.0, 0.0, 0.0)",0.03860943376531379,-0.6008618977467228,4.275513269238477,"(0.0, 0.0, 0.0, 0.0, 0.0, 0.0)",3.1840553339598543,0.8603207379647874,0.018804023458970476,"(0.0, 0.0, 0.0, 0.0, 0.0, 0.0)",2.2071937117843152,False,,,,,True,"(0.03955126028332891, 0.18000420521160232, 0.023999959438538117)","(-0.9999999992078928, -2.3394376620903917e-07, -3.980150265941498e-05)",-4.69285261207243e-06,0.0
62,Move,,,"(0.005232479171843643, 0.15895611509417099, 0.04805192961782931)","(0.0015613319654504138, 0.011710638263295036, 0.07400765980182708)","[-0.004766347426878521, -0.0010716274277584592, 0.0005013706036116755]","[-0.026750000193715096, 0.05299999937415123, 0.03999999910593033]","[0.0, -0.0, 0.5923752994005711]","[-0.0669499859213829, 0.1127324104309082, 0.03999999910593033]","[0.0, 0.0, -0.2690954538189607]","[0.026750000193715096, 0.05299999937415123, 0.03999999910593033]","[0.0, 0.0, -0.6008619062673114]","[0.0674554631114006, 0.11238910257816315, 0.03999999910593033]","[0.0, -0.0, 0.2594588653702835]",0.5711748754471921,-5.088090785987531,"(0.0, 0.0, 0.0, 0.0, 0.0, 0.0)",0.20179723839696584,-0.8614666854136499,0.0009640831121563087,"(0.0, 0.0, 0.0, 0.0, 0.0, 0.0)",0.015124512099487388,-0.5830478441846109,4.27537285490686,"(0.0, 0.0, 0.0, 0.0, 0.0, 0.0)",-0.00040728805220429705,0.8603129289032243,-0.001874174775147154,"(0.0, 0.0, 0.0, 0.0, 0.0, 0.0)",-0.0017677334094061982,False,,,,,True,"(0.03728150083157586, 0.18020972647077313, 0.023999959438538117)","(-0.9999999992078928, -2.3394376620903917e-07, -3.980150265941498e-05)",0.00010136561290409651,0.0
63,Move,,,"(0.003536438132730313, 0.15853702184869162, 0.04798413986117641)","(-0.002178499075898401, 0.009685758062407228, 0.10285468498251224)","[-0.006462388465991851, -0.0014907206732378275, 0.0004335808469587768]","[-0.026750000193715096, 0.05299999937415123, 0.03999999910593033]","[0.0, -0.0, 0.5711748797881039]","[-0.06567469984292984, 0.1135711818933487, 0.03999999910593033]","[0.0, 0.0, -0.2902918330000066]","[0.026750000193715096, 0.05299999937415123, 0.03999999910593033]","[0.0, 0.0, -0.5830479010023177]","[0.06639109551906586, 0.11310476809740067, 0.03999999910593033]","[0.0, -0.0, 0.2772650915613622]",0.5507922484404775,-4.891830481611522,"(0.0, 0.0, 0.0, 0.0, 0.0, 0.0)",0.282294284049585,-0.8614673765775518,-0.00016587933645189224,"(0.0, 0.0, 0.0, 0.0, 0.0, 0.0)",0.019719768305812027,-0.565275293151566,4.265412247930778,"(0.0, 0.0, 0.0, 0.0, 0.0, 0.0)",-0.012306804327906049,0.8603137161198487,0.00018893198985979812,"(0.0, 0.0, 0.0, 0.0, 0.0, 0.0)",-0.0004299034376783175,False,,,,,True,"(0.035014354147368115, 0.18037738642755824, 0.023999959438538117)","(-0.9999999992078928, -2.3394376620903917e-07, -3.980150265941498e-05)",0.0001657852207818292,0.0
64,Move,,,"(0.0033070809685918903, 0.15939336139403074, 0.0480245948749005)","(-0.003221721649284341, 0.008758192496794307, 0.10007245081902345)","[-0.006691745630130274, -0.0006343811278987088, 0.00047403586068286985]","[-0.026750000193715096, 0.05299999937415123, 0.03999999910593033]","[0.0, -0.0, 0.5507922756468575]","[-0.06443209946155548, 0.11435192823410034, 0.03999999910593033]","[0.0, 0.0, -0.31067510738133]","[0.026750000193715096, 0.05299999937415123, 0.03999999910593033]","[0.0, 0.0, -0.5652752430676895]","[0.06531667709350586, 0.11379976570606232, 0.03999999910593033]","[0.0, -0.0, 0.2950384296353975]",0.5330621314256022,-4.255228083570051,"(0.0, 0.0, 0.0, 0.0, 0.0, 0.0)",-63.6841566907319,-0.833899768100212,6.616226034561552,"(0.0, 0.0, 0.0, 0.0, 0.0, 0.0)",-32.0033096547166,-0.5494184347075574,3.805646026562078,"(0.0, 0.0, 0.0, 0.0, 0.0, 0.0)",54.08522476914028,0.834294882877888,-6.244519978070589,"(0.0, 0.0, 0.0, 0.0, 0.0, 0.0)",25.974823871813367,True,"(-0.030827226021807298, 0.18072875671023755, 0.023990313633420805)","(0.9946684597633704, 0.10266861339458756, -0.009685606619977753)",0.00023266339136997558,510.2877732171601,True,"(0.03274929454054999, 0.18050411530517568, 0.023999959438538117)","(-0.9999999992078928, -2.3394376620903917e-07, -3.980150265941498e-05)",0.00018643181396489492,418.4587664295024
65,Move,"(0.0078, 0.0, -0.0036000000000000003)","(0.0, 0.08563981573685775, 0.0)","(0.0031969503873777684, 0.16028143882127593, 0.048054583489053525)","(-0.004372781608329888, 0.007939463136719069, 0.09861198334618497)","[-0.006801876211344396, 0.00025369629934648974, 0.0005040244748358916]","[-0.026750000193715096, 0.05299999937415123, 0.03999999910593033]","[0.0, -0.0, 0.5330621158171134]","[-0.06333845853805542, 0.11501035839319229, 0.03999999910593033]","[0.0, 0.0, -0.30083767855036603]","[0.026750000193715096, 0.05299999937415123, 0.03999999910593033]","[0.0, 0.0, -0.549418426545043]","[0.0643477737903595, 0.11440364271402359, 0.03999999910593033]","[0.0, -0.0, 0.2848764361199625]",0.5161701590322703,-4.054073374399667,"(0.0, 0.0, 0.0, 0.0, 0.0, 0.0)",-68.88180562685734,-0.8061093417891989,6.669702314643141,"(0.0, 0.0, 0.0, 0.0, 0.0, 0.0)",-35.756361121383094,-0.5337544439677235,3.7593577775601132,"(0.0, 0.0, 0.0, 0.0, 0.0, 0.0)",68.77952387616044,0.8075007011486295,-6.430603615022057,"(0.0, 0.0, 0.0, 0.0, 0.0, 0.0)",33.85011913137436,True,"(-0.030386831991674287, 0.18170201039644102, 0.02399124115951112)","(0.9949587688124035, 0.09990167360330966, -0.008758080529661552)",-0.0003521033588324185,534.8399967547618,True,"(0.03245991098360225, 0.1814354915724969, 0.023999959438538117)","(-0.9999999992078928, -2.3394376620903917e-07, -3.980150265941498e-05)",3.895377007335016e-05,524.277520594291
66,Move,"(0.0081, 0.0, -0.0033)","(0.0, 0.09893224332004658, 0.0)","(0.003236311017004462, 0.16110311756769777, 0.04803385106086232)","(-0.005021240705510335, 0.0030984232932442617, 0.09275760340496983)","[-0.006762515581717702, 0.001075375045768323, 0.0004832920466446844]","[-0.026750000193715096, 0.05299999937415123, 0.03999999910593033]","[0.0, -0.0, 0.5161702079325045]","[-0.062285806983709335, 0.11561953276395798, 0.03999999910593033]","[0.0, 0.0, -0.28993919682770425]","[0.026750000193715096, 0.05299999937415123, 0.03999999910593033]","[0.0, 0.0, -0.5337544427276155]","[0.0633813738822937, 0.11498501896858215, 0.03999999910593033]","[0.0, -0.0, 0.27374624928461355]",0.5149818531335542,-0.28519341569186096,"(0.0, 0.0, 0.0, 0.0, 0.0, 0.0)",3.3838346259058016,-0.808874697030617,-0.6636852579403456,"(0.0, 0.0, 0.0, 0.0, 0.0, 0.0)",-1.0979402273202596,-0.5382863836989417,-1.0876655354923526,"(0.0, 0.0, 0.0, 0.0, 0.0, 0.0)",-6.301350928426416,0.8101801193215553,0.6430603615022044,"(0.0, 0.0, 0.0, 0.0, 0.0, 0.0)",0.23096677402272242,True,"(-0.03006166347399304, 0.18265404950541297, 0.023992059860314583)","(0.9951104129424696, 0.09844913561342714, -0.007939379726199769)",-0.0007346128178897825,10.070590580799673,True,"(0.032241548852435555, 0.18236762460912842, 0.023999959438538117)","(-0.9999999992078928, -2.3394376620903917e-07, -3.980150265941498e-05)",-0.00012424112725224057,0.0
67,Move,"(0.0094, 0.0, -0.0033)","(0.0, 0.11229273874406319, 0.0)","(0.0032542509001449197, 0.16188362173725948, 0.04793962286649831)","(-0.004747313648034297, -0.002933590208725942, 0.08654303232764231)","[-0.006744575698577245, 0.0018558792153300363, 0.0003890638522806786]","[-0.026750000193715096, 0.05299999937415123, 0.03999999910593033]","[0.0, -0.0, 0.5149818635434594]","[-0.06221137195825577, 0.11566171795129776, 0.03999999910593033]","[0.0, 0.0, -0.29389282808876666]","[0.026750000193715096, 0.05299999937415123, 0.03999999910593033]","[0.0, 0.0, -0.5382864094165345]","[0.06366191059350967, 0.11481837183237076, 0.03999999910593033]","[0.0, -0.0, 0.2718937413439895]",0.5122619633564509,-0.652773546504774,"(0.0, 0.0, 0.0, 0.0, 0.0, 0.0)",-0.5128799151896546,-0.8085969651323284,0.06665565558926267,"(0.0, 0.0, 0.0, 0.0, 0.0, 0.0)",0.00778917560552695,-0.5409520004259804,-0.639748014489296,"(0.0, 0.0, 0.0, 0.0, 0.0, 0.0)",0.5765514537382024,0.8099121775042627,-0.0643060361502199,"(0.0, 0.0, 0.0, 0.0, 0.0, 0.0)",-0.02694320327334609,True,"(-0.029722243584083173, 0.18256641591013784, 0.02399690082170513)","(0.9956963176610095, 0.09262420202151876, -0.003098418335654172)",-0.0006827860531844615,0.41910990830856604,True,"(0.032646965168458164, 0.18225854899244268, 0.023999959438538117)","(-0.9999999992078928, -2.3394376620903917e-07, -3.980150265941498e-05)",-5.879299549455809e-06,0.0
68,Move,"(0.0099, 0.0, -0.0033)","(0.0, 0.11719536861291525, 0.0)","(0.003522243872403693, 0.16242854415405486, 0.04800127789669014)","(-0.0035123029798236264, -0.002833774743696985, 0.0824720863856833)","[-0.006476582726318471, 0.0024008016321254155, 0.0004507188824725075]","[-0.026750000193715096, 0.05299999937415123, 0.03999999910593033]","[0.0, -0.0, 0.512261991357003]","[-0.06204080954194069, 0.11575794219970703, 0.03999999910593033]","[0.0, 0.0, -0.2963350538946187]","[0.026750000193715096, 0.05299999937415123, 0.03999999910593033]","[0.0, 0.0, -0.5409519228898716]","[0.06382656842470169, 0.11471975594758987, 0.03999999910593033]","[0.0, -0.0, 0.268960213418483]",0.5092701865543878,-0.7180264324951526,"(0.0, 0.0, 0.0, 0.0, 0.0, 0.0)",-3.0341929899255464,-0.8080828062183832,0.12339813934682356,"(0.0, 0.0, 0.0, 0.0, 0.0, 0.0)",-1.6266400595200183,-0.5437873699851813,-0.6804886942082181,"(0.0, 0.0, 0.0, 0.0, 0.0, 0.0)",0.34146210768371293,0.8094617302204118,-0.10810734812421262,"(0.0, 0.0, 0.0, 0.0, 0.0, 0.0)",0.23774463087050654,True,"(-0.02938838487160938, 0.1825830920188116, 0.02399690082170513)","(0.9956963176610095, 0.09262420202151876, -0.003098418335654172)",-0.0006277784512606671,17.97196540739232,True,"(0.03309480090881859, 0.18111403443461604, 0.05600309917829487)","(-0.9956963176610095, -0.09262420202152148, 0.003098418335652021)",-2.567598510721016e-05,3.298188421375809
69,Move,"(0.011, 0.0, -0.0034)","(0.0, 0.11229273874406319, 0.0)","(0.0038096406308146162, 0.16289749599510786, 0.04796509274873499)","(-0.00157995967620423, -0.00045412472504653857, 0.07925181464802472)","[-0.006189185967907548, 0.0028697534731784158, 0.0004145337345173583]","[-0.026750000193715096, 0.05299999937415123, 0.03999999910593033]","[0.0, -0.0, 0.5092702222788615]","[-0.061852890998125076, 0.11586324125528336, 0.03999999910593033]","[0.0, 0.0, -0.29881265645906907]","[0.026750000193715096, 0.05299999937415123, 0.03999999910593033]","[0.0, 0.0, -0.5437873896316855]","[0.0640014111995697, 0.11461438238620758, 0.03999999910593033]","[0.0, -0.0, 0.26567437955577855]",0.5063177487257824,-0.7085850788653171,"(0.0, 0.0, 0.0, 0.0, 0.0, 0.0)",-0.7948165729794319,-0.8078202432546837,0.06301511128788642,"(0.0, 0.0, 0.0, 0.0, 0.0, 0.0)",-0.44911427089354927,-0.5468217642877977,-0.728254632627931,"(0.0, 0.0, 0.0, 0.0, 0.0, 0.0)",0.46466128781521904,0.8091644359580565,-0.07135062296526973,"(0.0, 0.0, 0.0, 0.0, 0.0, 0.0)",0.3215197065751433,True,"(-0.0290345455144879, 0.18260194176496353, 0.056002834530910255)","(0.9965971031556542, 0.08237829643756393, 0.0028337709510281024)",-0.0006755228121167966,6.107307528289063,True,"(0.033487974901367755, 0.18110928107032576, 0.05600309917829487)","(-0.9956963176610095, -0.09262420202152148, 0.003098418335652021)",-2.1307884537111374e-05,4.325645468763181
70,Move,"(0.0123, 0.0, -0.0040999999999999995)","(0.0, 0.107426760789503, 0.0)","(0.004127611399890685, 0.16330448765924727, 0.047836080069782586)","(0.0009309672746240891, 0.00413767021092445, 0.07709741766974122)","[-0.00587121519883148, 0.0032767451373178214, 0.00028552105556495233]","[-0.026750000193715096, 0.05299999937415123, 0.03999999910593033]","[0.0, -0.0, 0.5063177624150492]","[-0.06166714057326317, 0.11596660315990448, 0.03999999910593033]","[0.0, 0.0, -0.30150251680336193]","[0.026750000193715096, 0.05299999937415123, 0.03999999910593033]","[0.0, 0.0, -0.5468217029149548]","[0.06418820470571518, 0.11450106650590897, 0.03999999910593033]","[0.0, -0.0, 0.2623426798998264]",0.5032417445569626,-0.7382410005167468,"(0.0, 0.0, 0.0, 0.0, 0.0, 0.0)",-0.6769548261176179,-0.8076249394694593,0.0468729084538554,"(0.0, 0.0, 0.0, 0.0, 0.0, 0.0)",-0.3542451780924664,-0.5501053711156225,-0.7880656386779462,"(0.0, 0.0, 0.0, 0.0, 0.0, 0.0)",0.23416910593874696,0.8089763536782605,-0.0451397471510534,"(0.0, 0.0, 0.0, 0.0, 0.0, 0.0)",0.1831759885788836,True,"(-0.028669347139137012, 0.1826162597457693, 0.05600045488466867)","(0.9968611155140249, 0.07916887107242333, 0.0004541247094432273)",-0.0006247214383029207,4.814266830391494,True,"(0.03389647468376723, 0.18109725414378272, 0.05600309917829487)","(-0.9956963176610095, -0.09262420202152148, 0.003098418335652021)",-1.8811633664980066e-05,2.569186392258475
71,Move,"(0.0121, 0.0, -0.004)","(0.0, 0.107426760789503, 0.0)","(0.0044667637047127095, 0.16365695905645705, 0.047927945373325516)","(-0.0018155373350989758, 0.006443671729463162, 0.07028627705092479)","[-0.005532062894009455, 0.0036292165345276073, 0.0003773863591078827]","[-0.026750000193715096, 0.05299999937415123, 0.03999999910593033]","[0.0, -0.0, 0.5032417631710596]","[-0.061473291367292404, 0.11607371270656586, 0.03999999910593033]","[0.0, 0.0, -0.30438316680783634]","[0.026750000193715096, 0.05299999937415123, 0.03999999910593033]","[0.0, 0.0, -0.5501054297540416]","[0.06438995152711868, 0.11437779664993286, 0.03999999910593033]","[0.0, -0.0, 0.2588709772051444]",0.5000030676926731,-0.777282447429475,"(0.0, 0.0, 0.0, 0.0, 0.0, 0.0)",-1.9097545620449514,-0.807372545515813,0.06057454887513551,"(0.0, 0.0, 0.0, 0.0, 0.0, 0.0)",-1.019193264131552,-0.5536751988917721,-0.8567586662759069,"(0.0, 0.0, 0.0, 0.0, 0.0, 0.0)",0.15562009561994558,0.8087404516537173,-0.056616485890369286,"(0.0, 0.0, 0.0, 0.0, 0.0, 0.0)",0.1480264441416337,True,"(-0.028283636210208088, 0.18262803378930625, 0.05600045488466867)","(0.9968611155140249, 0.07916887107242333, 0.0004541247094432273)",-0.000575552681231312,0.0,True,"(0.03432928927331269, 0.18108269479296418, 0.023999545115331335)","(-0.9968611155140247, -0.0791688710724278, -0.00045412470943898)",0.00014277320219469993,0.0
72,Move,"(0.0125, 0.0, -0.004200000000000001)","(0.0, 0.09412735188930618, 0.0)","(0.00477944371480916, 0.1639677014119273, 0.04802798961518513)","(-0.0016701158036915042, 0.006426266322047448, 0.06475391935265701)","[-0.005219382883913004, 0.003939958889997847, 0.0004774306009674989]","[-0.026750000193715096, 0.05299999937415123, 0.03999999910593033]","[0.0, -0.0, 0.5000029874169039]","[-0.06126883253455162, 0.11618583649396896, 0.03999999910593033]","[0.0, 0.0, -0.3073694725959244]","[0.026750000193715096, 0.05299999937415123, 0.03999999910593033]","[0.0, 0.0, -0.5536752621627024]","[0.06460881233215332, 0.1142430379986763, 0.03999999910593033]","[0.0, -0.0, 0.25506523971357153]",0.49693043022907823,-0.7374329912627704,"(0.0, 0.0, 0.0, 0.0, 0.0, 0.0)",-0.417623753962547,-0.8073947532599892,-0.005329858602306191,"(0.0, 0.0, 0.0, 0.0, 0.0, 0.0)",-0.2601226106664571,-0.5571645540268861,-0.8374452324273767,"(0.0, 0.0, 0.0, 0.0, 0.0, 0.0)",0.03425707179945945,0.8087640418561717,0.005661648589035735,"(0.0, 0.0, 0.0, 0.0, 0.0, 0.0)",0.008439377517903487,True,"(-0.027880577341164094, 0.18264075000764582, 0.05600045488466867)","(0.9968611155140249, 0.07916887107242333, 0.0004541247094432273)",-0.0004409873299813928,0.0,True,"(0.03480223503385225, 0.18106185526406454, 0.023999545115331335)","(-0.9968611155140247, -0.0791688710724278, -0.00045412470943898)",0.00019646253770702794,0.0
73,Move,"(0.012199999999999999, 0.0, -0.0037)","(0.0, 0.09041678189956627, 0.0)","(0.005056138490251143, 0.16425112024889518, 0.048084795507248916)","(-0.0015330238862846222, 0.005240703757765981, 0.05885358353217172)","[-0.004942688108471022, 0.004223377726965738, 0.0005342364930312829]","[-0.026750000193715096, 0.05299999937415123, 0.03999999910593033]","[0.0, -0.0, 0.49693042868816445]","[-0.06107452139258385, 0.1162916049361229, 0.03999999910593033]","[0.0, 0.0, -0.3104642918530137]","[0.026750000193715096, 0.05299999937415123, 0.03999999910593033]","[0.0, 0.0, -0.5571645301718641]","[0.06482228636741638, 0.114110566675663, 0.03999999910593033]","[0.0, -0.0, 0.2515995179547725]",0.49385913567269835,-0.7371106935311696,"(0.0, 0.0, 0.0, 0.0, 0.0, 0.0)",-0.18634447594523434,-0.8073910461521904,0.0008897058717173669,"(0.0, 0.0, 0.0, 0.0, 0.0, 0.0)",-0.10401430377827743,-0.5607715578276753,-0.865680912189389,"(0.0, 0.0, 0.0, 0.0, 0.0, 0.0)",-0.041875296552168366,0.8087616828359262,-0.0005661648589043722,"(0.0, 0.0, 0.0, 0.0, 0.0, 0.0)",-0.003603843373683486,True,"(-0.027480407066257276, 0.1826373410825581, 0.02399357301794946)","(0.99788359233494, 0.06470733975638712, -0.006426222091327994)",-0.0006079375264306819,1.4263733742292302,True,"(0.03524745969395551, 0.18103228094182475, 0.023999545115331335)","(-0.9968611155140247, -0.0791688710724278, -0.00045412470943898)",0.00021596771525594154,0.0
74,Move,"(0.014199999999999999, 0.0, -0.0039)","(0.0, 0.06861063822514908, 0.0)","(0.0052845506426745445, 0.16451220683671347, 0.04810535612326826)","(-0.0014037656020377965, 0.003101937223922433, 0.05266885858275853)","[-0.00471427595604762, 0.004484464314784026, 0.0005547971090506254]","[-0.026750000193715096, 0.05299999937415123, 0.03999999910593033]","[0.0, -0.0, 0.4938591283559791]","[-0.06087997555732727, 0.11639672517776489, 0.03999999910593033]","[0.0, 0.0, -0.3135318828184207]","[0.026750000193715096, 0.05299999937415123, 0.03999999910593033]","[0.0, 0.0, -0.5607715749478602]","[0.06504245847463608, 0.11397284269332886, 0.03999999910593033]","[0.0, -0.0, 0.24799011340844876]",0.4909524862518138,-0.6975958610122883,"(0.0, 0.0, 0.0, 0.0, 0.0, 0.0)",-0.06749169444125365,-0.8073901982762882,0.00020349021651144762,"(0.0, 0.0, 0.0, 0.0, 0.0, 0.0)",-0.06550005482287272,-0.5642997036107797,-0.846754987945066,"(0.0, 0.0, 0.0, 0.0, 0.0, 0.0)",0.02729412946402682,0.8087619187379508,5.6616485891503086e-05,"(0.0, 0.0, 0.0, 0.0, 0.0, 0.0)",0.002001284369434059,True,"(-0.027082317828067318, 0.18263627110242497, 0.02399475856027229)","(0.9982549190113399, 0.058818806050678456, -0.0052406797685005165)",-0.0005622687781684605,0.9493307561226373,True,"(0.035709374458984394, 0.18100086695682438, 0.023999545115331335)","(-0.9968611155140247, -0.0791688710724278, -0.00045412470943898)",0.00025714779416646685,0.0
75,Move,"(0.0158, 0.0, -0.0035)","(0.0, 0.08188561251581795, 0.0)","(0.0055145163941912705, 0.16475821735990762, 0.04807708075194587)","(-0.0012787236849462066, -0.0004167220632876304, 0.04547979818255822)","[-0.004484310204530894, 0.004730474837978171, 0.0005265217377282347]","[-0.026750000193715096, 0.05299999937415123, 0.03999999910593033]","[0.0, -0.0, 0.4909524366843397]","[-0.06069555878639221, 0.11649566143751144, 0.03999999910593033]","[0.0, 0.0, -0.3164377068109726]","[0.026750000193715096, 0.05299999937415123, 0.03999999910593033]","[0.0, 0.0, -0.5642997568392847]","[0.06525734066963196, 0.1138373613357544, 0.03999999910593033]","[0.0, -0.0, 0.2444622371150304]",0.4876358304531335,-0.7959973916832681,"(0.0, 0.0, 0.0, 0.0, 0.0, 0.0)",-0.5832835088041245,-0.8073883263829319,0.00044925440551656787,"(0.0, 0.0, 0.0, 0.0, 0.0, 0.0)",-0.25072385944345416,-0.5683135560564241,-0.9633245869546335,"(0.0, 0.0, 0.0, 0.0, 0.0, 0.0)",-0.16947910559659363,0.8087618951477483,-5.661648589949664e-06,"(0.0, 0.0, 0.0, 0.0, 0.0, 0.0)",-0.01213402383157498,True,"(-0.026705378950050214, 0.182633444655907, 0.02399689730779134)","(0.9986085119362451, 0.05264425804204952, -0.003101932249443497)",-0.0005203460339872047,3.3650250208157764,True,"(0.03616090764244406, 0.1809684535147003, 0.023999545115331335)","(-0.9968611155140247, -0.0791688710724278, -0.00045412470943898)",0.0003117241840014752,0.0
76,Move,"(0.0157, 0.0, -0.0037)","(0.0, 0.08188561251581795, 0.0)","(0.005870870966485801, 0.1649180456507919, 0.048150146777737254)","(-0.0010960781758678271, -0.0004568112358798217, 0.038511949239055765)","[-0.004127955632236363, 0.004890303128862461, 0.0005995877635196212]","[-0.026750000193715096, 0.05299999937415123, 0.03999999910593033]","[0.0, -0.0, 0.4876358834083049]","[-0.06048477813601494, 0.1166078969836235, 0.03999999910593033]","[0.0, 0.0, -0.31975251553321576]","[0.026750000193715096, 0.05299999937415123, 0.03999999910593033]","[0.0, 0.0, -0.5683135258382181]","[0.06550122797489166, 0.11368230730295181, 0.03999999910593033]","[0.0, -0.0, 0.24044836881750353]",0.48406633690223133,-0.8566784522165217,"(0.0, 0.0, 0.0, 0.0, 0.0, 0.0)",-2.0324310190350725,-0.8073272416821482,0.014660328188096278,"(0.0, 0.0, 0.0, 0.0, 0.0, 0.0)",-1.0792462297570036,-0.5725855762446147,-1.0252848451657508,"(0.0, 0.0, 0.0, 0.0, 0.0, 0.0)",-0.0902304508386669,0.8087618975067685,5.661648589949664e-07,"(0.0, 0.0, 0.0, 0.0, 0.0, 0.0)",-0.006463859964782745,True,"(-0.026275554059034437, 0.18263264770302595, 0.02399689730779134)","(0.9986085119362451, 0.05264425804204952, -0.003101932249443497)",-0.00047846029902688945,11.93127016668575,True,"(0.0366355538826865, 0.18176308867088908, 0.023999569721523305)","(-0.9989658793383916, -0.04546413346273297, -0.00042951851746838974)",0.0004149325116046127,0.0
77,Move,"(0.016, 0.0, -0.0039)","(0.0, 0.08188561251581795, 0.0)","(0.006213072240921262, 0.1650800284322138, 0.04821747536271291)","(-0.0010002845179545813, -0.0004158993613747165, 0.03135113260239227)","[-0.0037857543578009023, 0.005052285910284365, 0.0006669163484952778]","[-0.026750000193715096, 0.05299999937415123, 0.03999999910593033]","[0.0, -0.0, 0.4840663959646691]","[-0.06025751680135727, 0.11672791093587875, 0.03999999910593033]","[0.0, 0.0, -0.3232609342146163]","[0.026750000193715096, 0.05299999937415123, 0.03999999910593033]","[0.0, 0.0, -0.5725855721717853]","[0.06576010584831238, 0.11351621150970459, 0.03999999910593033]","[0.0, -0.0, 0.2361763135461006]",0.4806108971855604,-0.8293055320010266,"(0.0, 0.0, 0.0, 0.0, 0.0, 0.0)",-0.46155291794616543,-0.8073375055394456,-0.0024633257513899352,"(0.0, 0.0, 0.0, 0.0, 0.0, 0.0)",-0.27629592270134934,-0.5767943833681538,-1.010113709649377,"(0.0, 0.0, 0.0, 0.0, 0.0, 0.0)",0.021724787193852266,0.8087618972708666,-5.661648483365543e-08,"(0.0, 0.0, 0.0, 0.0, 0.0, 0.0)",0.0015388500693657126,True,"(-0.02581686084582622, 0.1826322322526442, 0.02399689730779134)","(0.9986085119362451, 0.05264425804204952, -0.003101932249443497)",-0.0004312481098861966,0.8797921483072533,True,"(0.03717387722651212, 0.18199520992952428, 0.023999542428820783)","(-0.9992584022755691, -0.038502425964944645, -0.0004568112199915009)",0.0004892719122686909,0.0
78,Move,"(0.014400000000000001, 0.0, -0.0043)","(0.0, 0.0771348262918894, 0.0)","(0.006556576260123265, 0.1652379204201596, 0.04827925524189152)","(-0.0015072494852632304, 0.00019937860633083876, 0.024534117924504526)","[-0.0034422503385989, 0.005210177898230167, 0.0007286962276738876]","[-0.026750000193715096, 0.05299999937415123, 0.03999999910593033]","[0.0, -0.0, 0.48061089298898996]","[-0.06003711000084877, 0.1168433129787445, 0.03999999910593033]","[0.0, 0.0, -0.32672661804368097]","[0.026750000193715096, 0.05299999937415123, 0.03999999910593033]","[0.0, 0.0, -0.5767944976847035]","[0.06601446121931076, 0.1133514866232872, 0.03999999910593033]","[0.0, -0.0, 0.23196753055301092]",0.4771566329827628,-0.8290234086714298,"(0.0, 0.0, 0.0, 0.0, 0.0, 0.0)",-0.5593059289851442,-0.8073140417157406,0.005631317689188866,"(0.0, 0.0, 0.0, 0.0, 0.0, 0.0)",-0.3071800641439324,-0.5810290094861328,-1.0163102683149523,"(0.0, 0.0, 0.0, 0.0, 0.0, 0.0)",-0.009290918885346874,0.8087618972944568,5.661647151100624e-09,"(0.0, 0.0, 0.0, 0.0, 0.0, 0.0)",-0.0006783556897301613,True,"(-0.025368255738970488, 0.18262787811249237, 0.02399689730779134)","(0.9986085119362451, 0.05264425804204952, -0.003101932249443497)",-0.00038424387899961223,4.274133794306056,True,"(0.03771660236742431, 0.18195314588131695, 0.02399958334069139)","(-0.9995085070506359, -0.03134599433963367, -0.0004158993493814967)",0.0005698787062376557,0.0
79,Move,"(0.0147, 0.0, -0.0047)","(0.0, 0.06392268385429233, 0.0)","(0.006858728414175103, 0.1653941505665857, 0.04833604306449686)","(-0.0013910764583542558, 0.00018275761983276142, 0.018261844691615084)","[-0.0031400981845470617, 0.005366408044656268, 0.0007854840502792282]","[-0.026750000193715096, 0.05299999937415123, 0.03999999910593033]","[0.0, -0.0, 0.47715660534432314]","[-0.059816379100084305, 0.11695791035890579, 0.03999999910593033]","[0.0, 0.0, -0.33015741611339927]","[0.026750000193715096, 0.05299999937415123, 0.03999999910593033]","[0.0, 0.0, -0.581028961226613]","[0.06626967340707779, 0.11318467557430267, 0.03999999910593033]","[0.0, -0.0, 0.22773289972427843]",0.47414359186876803,-0.7231298673587374,"(0.0, 0.0, 0.0, 0.0, 0.0, 0.0)",-0.16109275595261247,-0.8072967902030295,0.004140363050681457,"(0.0, 0.0, 0.0, 0.0, 0.0, 0.0)",-0.16479607960988377,-0.5848988655543702,-0.9287654563769756,"(0.0, 0.0, 0.0, 0.0, 0.0, 0.0)",0.12679786280272842,0.8087618972920978,-5.66165780924166e-10,"(0.0, 0.0, 0.0, 0.0, 0.0, 0.0)",0.009052135970854453,True,"(-0.024921663285313374, 0.18261212820470077, 0.05600041665930861)","(0.9995085070506359, 0.031345994339626995, 0.00041589934938686597)",-0.0003902633081107351,0.6589867499201524,True,"(0.03826257076659771, 0.18190555036269704, 0.02399958334069139)","(-0.9995085070506359, -0.03134599433963367, -0.0004158993493814967)",0.0006732755544421891,0.0
80,Move,"(0.0147, 0.0, -0.0054)","(0.0, 0.05541594908007196, 0.0)","(0.00716618513384602, 0.16553855424645783, 0.0483882210850943)","(-0.0012889945036980372, 0.00016709813175219853, 0.011928992622618909)","[-0.002832641464876145, 0.005510811724528386, 0.0008376620708766686]","[-0.026750000193715096, 0.05299999937415123, 0.03999999910593033]","[0.0, -0.0, 0.4741435857060452]","[-0.05962352082133293, 0.11705724895000458, 0.03999999910593033]","[0.0, 0.0, -0.3331531697300677]","[0.026750000193715096, 0.05299999937415123, 0.03999999910593033]","[0.0, 0.0, -0.5848988680996909]","[0.06650228798389435, 0.1130312904715538, 0.03999999910593033]","[0.0, -0.0, 0.22386302228193158]",0.47107618940730966,-0.7361765907500025,"(0.0, 0.0, 0.0, 0.0, 0.0, 0.0)",-0.6739857357508886,-0.8072551076660527,0.010003808874432828,"(0.0, 0.0, 0.0, 0.0, 0.0, 0.0)",-0.36714695441666473,-0.5888664424884525,-0.9522184641797669,"(0.0, 0.0, 0.0, 0.0, 0.0, 0.0)",-0.034315825035889126,0.8087618972923337,5.661604518536478e-11,"(0.0, 0.0, 0.0, 0.0, 0.0, 0.0)",-0.002465531677594927,True,"(-0.02453227632505521, 0.182606636410141, 0.05600041665930861)","(0.9995085070506359, 0.031345994339626995, 0.00041589934938686597)",-0.00035437042745786306,2.174433871692483,True,"(0.03876132924316955, 0.18186003325235756, 0.02399958334069139)","(-0.9995085070506359, -0.03134599433963367, -0.0004158993493814967)",0.0007654540748869477,0.0
81,Move,"(0.016800000000000002, 0.0, -0.004900000000000001)","(0.0, 0.04689525167183564, 0.0)","(0.007451664391594749, 0.16569331269267262, 0.04841845891539842)","(-0.0011832900587686569, -0.0004345354534208849, 0.0051544769913224155)","[-0.0025471622071274154, 0.005665570170743178, 0.0008678999011807881]","[-0.026750000193715096, 0.05299999937415123, 0.03999999910593033]","[0.0, -0.0, 0.4710761707242467]","[-0.05942687764763832, 0.11715778708457947, 0.03999999910593033]","[0.0, 0.0, -0.33617891414498785]","[0.026750000193715096, 0.05299999937415123, 0.03999999910593033]","[0.0, 0.0, -0.5888664423104075]","[0.06674014776945114, 0.11287309974431992, 0.03999999910593033]","[0.0, -0.0, 0.21989545295782972]",0.46805711292536734,-0.7245783556661596,"(0.0, 0.0, 0.0, 0.0, 0.0, 0.0)",-0.3630625653222287,-0.8072497622300283,0.0012829046458487925,"(0.0, 0.0, 0.0, 0.0, 0.0, 0.0)",-0.2123251510147344,-0.5928223445411638,-0.9494164926507073,"(0.0, 0.0, 0.0, 0.0, 0.0, 0.0)",0.0037925065722823974,0.8087618972923101,-5.662137425588298e-12,"(0.0, 0.0, 0.0, 0.0, 0.0, 0.0)",0.00025869747067849234,True,"(-0.02413745946192663, 0.18260069504785564, 0.05600041665930861)","(0.9995085070506359, 0.031345994339626995, 0.00041589934938686597)",-0.00031657754225322124,2.888955175382461,True,"(0.03927249545841163, 0.18181136327001007, 0.02399958334069139)","(-0.9995085070506359, -0.03134599433963367, -0.0004158993493814967)",0.0008653213154852214,0.0
82,Move,"(0.017, 0.0, -0.0054)","(0.0, 0.02981895027032312, 0.0)","(0.007831327548969255, 0.165785942014043, 0.048410358079973306)","(0.0006833713249545349, -0.0003936469065135141, -0.00022168602493674664)","[-0.00216749904975291, 0.005758199492113564, 0.0008597990657556731]","[-0.026750000193715096, 0.05299999937415123, 0.03999999910593033]","[0.0, -0.0, 0.46805714431309436]","[-0.059233032166957855, 0.11725614964962006, 0.03999999910593033]","[0.0, 0.0, -0.339192629652962]","[0.026750000193715096, 0.05299999937415123, 0.03999999910593033]","[0.0, 0.0, -0.5928223138211856]","[0.06697668880224228, 0.11271443217992783, 0.03999999910593033]","[0.0, -0.0, 0.21593955678514784]",0.46458896729056864,-0.8323549523516873,"(0.0, 0.0, 0.0, 0.0, 0.0, 0.0)",-1.3524817012380312,-0.8072018385735412,0.011501677556893844,"(0.0, 0.0, 0.0, 0.0, 0.0, 0.0)",-0.6857390644460719,-0.5972071250612058,-1.0523473248100688,"(0.0, 0.0, 0.0, 0.0, 0.0, 0.0)",-0.14970626448882857,0.8087618972923124,5.6754601018838e-13,"(0.0, 0.0, 0.0, 0.0, 0.0, 0.0)",-0.010716755821978556,True,"(-0.023746408152682974, 0.18258243782443645, 0.02399983214190981)","(0.999928836451332, 0.011928709540437288, -0.00016709813097854509)",-0.00031323354715785223,7.771734953402394,True,"(0.0397818571773217, 0.18177098585696239, 0.023999564704601028)","(-0.9999866213036106, -0.0051544536801506145, -0.00043453543974628143)",0.0009650209007251259,0.0
83,Move,"(0.0171, 0.0, -0.006200000000000001)","(0.0, 0.017205455766160106, 0.0)","(0.008231687625046436, 0.16582835597172169, 0.04845670934736616)","(0.0012442906762133493, 0.0002564743389709603, -0.004823896618647839)","[-0.0017671389736757283, 0.005800613449792241, 0.0009061503331485241]","[-0.026750000193715096, 0.05299999937415123, 0.03999999910593033]","[0.0, -0.0, 0.4645890513627932]","[-0.059009987860918045, 0.1173684149980545, 0.03999999910593033]","[0.0, 0.0, -0.34261288111089483]","[0.026750000193715096, 0.05299999937415123, 0.03999999910593033]","[0.0, 0.0, -0.5972071361261055]","[0.06723813712596893, 0.11253747344017029, 0.03999999910593033]","[0.0, -0.0, 0.2115547811467117]",0.4611439310547582,-0.8268086965945118,"(0.0, 0.0, 0.0, 0.0, 0.0, 0.0)",-0.9748457024365591,-0.8071886088313234,0.00317513813228109,"(0.0, 0.0, 0.0, 0.0, 0.0, 0.0)",-0.5348749162779002,-0.6016010479292149,-1.0545414883221957,"(0.0, 0.0, 0.0, 0.0, 0.0, 0.0)",-0.0034949014883330987,0.8087618972923122,-5.595524044110789e-14,"(0.0, 0.0, 0.0, 0.0, 0.0, 0.0)",-0.00026513118139050504,True,"(-0.023300141149879078, 0.18257295306241011, 0.02399983214190981)","(0.999928836451332, 0.011928709540437288, -0.00016709813097854509)",-0.0002837921234612791,7.530924994268079,True,"(0.0403463623127825, 0.18171359769607115, 0.023999605593144426)","(-0.9999998979487126, 0.0002216860059462698, -0.0003936468963483767)",0.0010648911944416651,0.0
84,Move,"(0.0171, 0.0, -0.006500000000000001)","(0.0, 0.008604473212332044, 0.0)","(0.008622894277444166, 0.1658791372598457, 0.04849938641478168)","(0.0006504762529956376, 0.0007263261173826946, -0.009805303230817962)","[-0.0013759323212779988, 0.005851394737916266, 0.0009488274005640465]","[-0.026750000193715096, 0.05299999937415123, 0.03999999910593033]","[0.0, -0.0, 0.4611439249075979]","[-0.05878804251551628, 0.11747917532920837, 0.03999999910593033]","[0.0, 0.0, -0.34604468424706325]","[0.026750000193715096, 0.05299999937415123, 0.03999999910593033]","[0.0, 0.0, -0.6016010918490495]","[0.06749934703111649, 0.11235900223255157, 0.03999999910593033]","[0.0, -0.0, 0.20716084565697185]",0.45773048095581353,-0.8192280237467157,"(0.0, 0.0, 0.0, 0.0, 0.0, 0.0)",-0.519006790721925,-0.8071629976720024,0.0061466782370266345,"(0.0, 0.0, 0.0, 0.0, 0.0, 0.0)",-0.29435863370755067,-0.6059754230774095,-1.0498500355667035,"(0.0, 0.0, 0.0, 0.0, 0.0, 0.0)",0.006500669795276002,0.8087618972923122,5.329070518200751e-15,"(0.0, 0.0, 0.0, 0.0, 0.0, 0.0)",0.00044951229301030894,True,"(-0.022854649521383656, 0.1825538875802431, 0.02399974276570462)","(0.9999883321441081, -0.004823877751350348, -0.0002564743361629023)",-0.0002766163247788153,4.070063412419696,True,"(0.04091178686402744, 0.18165261401473493, 0.023999605593144426)","(-0.9999998979487126, 0.0002216860059462698, -0.0003936468963483767)",0.0011727739121712947,0.0
85,Move,"(0.0172, 0.0, -0.006900000000000001)","(0.0, -0.0, 0.0)","(0.008990133229744391, 0.16595391585933003, 0.04847669625133012)","(-0.0014386092984673756, 0.0006625111539109884, -0.01517219808921641)","[-0.0010086933689777734, 0.0059261733374005865, 0.0009261372371124899]","[-0.026750000193715096, 0.05299999937415123, 0.03999999910593033]","[0.0, -0.0, 0.45773052411478105]","[-0.05856776237487793, 0.11758815497159958, 0.03999999910593033]","[0.0, 0.0, -0.34943253430593874]","[0.026750000193715096, 0.05299999937415123, 0.03999999910593033]","[0.0, 0.0, -0.6059754419743197]","[0.06775861233472824, 0.1121801808476448, 0.03999999910593033]","[0.0, -0.0, 0.20278646873842754]",0.4543656497551468,-0.807559488160016,"(0.0, 0.0, 0.0, 0.0, 0.0, 0.0)",-0.10026391364847036,-0.8071634654324338,-0.00011226250352253369,"(0.0, 0.0, 0.0, 0.0, 0.0, 0.0)",-0.06389668887907986,-0.610295616251518,-1.0368463617860373,"(0.0, 0.0, 0.0, 0.0, 0.0, 0.0)",0.018569727115932435,0.8087618972923122,0.0,"(0.0, 0.0, 0.0, 0.0, 0.0, 0.0)",0.0013126143892228795,True,"(-0.022414125429395138, 0.18253916872227724, 0.023999272913987266)","(0.9999516646373046, -0.009805143525089472, -0.0007263260535161673)",-0.00025592164573766315,0.8935745002813278,True,"(0.04147442437292998, 0.18158943435170863, 0.023999605593144426)","(-0.9999998979487126, 0.0002216860059462698, -0.0003936468963483767)",0.0012775129132831886,0.0
86,Move,"(0.0152, 0.0, -0.0064)","(0.0, -0.0, 0.0)","(0.00937623384888848, 0.16599412083461254, 0.04851762480050414)","(-0.001689657185816573, 0.00024006353110441592, -0.018842296662436833)","[-0.0006225927498336847, 0.005966378312683096, 0.0009670657862865042]","[-0.026750000193715096, 0.05299999937415123, 0.03999999910593033]","[0.0, -0.0, 0.4543656646976253]","[-0.058350253850221634, 0.11769485473632812, 0.03999999910593033]","[0.0, 0.0, -0.352797820505368]","[0.026750000193715096, 0.05299999937415123, 0.03999999910593033]","[0.0, 0.0, -0.6102956041603379]","[0.06801389902830124, 0.11200246214866638, 0.03999999910593033]","[0.0, -0.0, 0.19846631021969868]",0.45102169972944495,-0.8025480061684447,"(0.0, 0.0, 0.0, 0.0, 0.0, 0.0)",-1.0445115640292821,-0.8071257989631211,0.009039952635038215,"(0.0, 0.0, 0.0, 0.0, 0.0, 0.0)",-0.5920952500998691,-0.614587352355066,-1.0300166648515399,"(0.0, 0.0, 0.0, 0.0, 0.0, 0.0)",0.009611023134203875,0.8087618972923122,0.0,"(0.0, 0.0, 0.0, 0.0, 0.0, 0.0)",0.0006724191343669431,True,"(-0.021978271356544135, 0.18252182752936066, 0.023999336728935335)","(0.9998846849752235, -0.015171612670816457, -0.0006625111054487123)",-0.0002370212157914502,6.629478880711941,True,"(0.04202981643277855, 0.18152462219274212, 0.023999605593144426)","(-0.9999998979487126, 0.0002216860059462698, -0.0003936468963483767)",0.0013815022571583137,0.0
87,Move,"(0.0152, 0.0, -0.0067)","(0.0, -0.0, 0.0)","(0.009711617245936386, 0.1660256481069031, 0.04855536312830265)","(-0.0015558709563698607, 0.00021914629656325906, -0.02162717662616792)","[-0.0002872093527857781, 0.005997905584973651, 0.0010048041140850172]","[-0.026750000193715096, 0.05299999937415123, 0.03999999910593033]","[0.0, -0.0, 0.45102167074505073]","[-0.05813373997807503, 0.11780016124248505, 0.03999999910593033]","[0.0, 0.0, -0.35610412641694034]","[0.026750000193715096, 0.05299999937415123, 0.03999999910593033]","[0.0, 0.0, -0.6145873556752933]","[0.06826674193143845, 0.11182482540607452, 0.03999999910593033]","[0.0, -0.0, 0.19417454476341084]",0.4482101343999031,-0.674775679090044,"(0.0, 0.0, 0.0, 0.0, 0.0, 0.0)",-0.0756547588116351,-0.8071104192664486,0.0036911272014053375,"(0.0, 0.0, 0.0, 0.0, 0.0, 0.0)",-0.1316202930852691,-0.6184051215778387,-0.9162646134654411,"(0.0, 0.0, 0.0, 0.0, 0.0, 0.0)",0.1648400419253021,0.8087618972923122,0.0,"(0.0, 0.0, 0.0, 0.0, 0.0, 0.0)",0.011771856793969696,True,"(-0.021547628156210946, 0.18250616134166486, 0.023999759176511978)","(0.9998224603700384, -0.018841181202486526, -0.00024006352880387278)",-0.00021340779988634158,2.0012864119419453,False,,,,
88,Move,"(0.0152, 0.0, -0.0067)","(0.0, -0.0, 0.0)","(0.010029020995204209, 0.16605919957078674, 0.048575492697358204)","(-0.0014230398627304937, -0.0002777653670836609, -0.025032302771091874)","[3.0194396482044125e-05, 0.006031457048857297, 0.0010249336831405706]","[-0.026750000193715096, 0.05299999937415123, 0.03999999910593033]","[0.0, -0.0, 0.44821013732084625]","[-0.0579514279961586, 0.11788814514875412, 0.03999999910593033]","[0.0, 0.0, -0.358900308799607]","[0.026750000193715096, 0.05299999937415123, 0.03999999910593033]","[0.0, 0.0, -0.6184051395599446]","[0.06849101930856705, 0.11166589707136154, 0.03999999910593033]","[0.0, -0.0, 0.19035675149082285]",0.445415311891185,-0.6707574020923444,"(0.0, 0.0, 0.0, 0.0, 0.0, 0.0)",-0.4391164102582117,-0.8070864537395029,0.005751726466936756,"(0.0, 0.0, 0.0, 0.0, 0.0, 0.0)",-0.2501108965637889,-0.6221972888066929,-0.9101201349250195,"(0.0, 0.0, 0.0, 0.0, 0.0, 0.0)",0.008657084943871069,0.8087618972923122,1.3552527156068805e-20,"(0.0, 0.0, 0.0, 0.0, 0.0, 0.0)",0.0006074507131738223,True,"(-0.021184527492542904, 0.18249159946068874, 0.02399978009374597)","(0.999766117724173, -0.021625490182571584, -0.00021914629481329732)",-0.00019737841370161887,0.0,False,,,,
89,Move,"(0.0152, 0.0, -0.0067)","(0.0, -0.0, 0.0)","(0.01236631977631101, 0.16549751434267848, 0.04870293625634976)","(0.0007922743729572555, -0.005532946918403794, -0.04486413075699481)","[0.0023674931775888447, 0.0054697718207490365, 0.0011523772421321299]","[-0.026750000193715096, 0.05299999937415123, 0.03999999910593033]","[0.0, -0.0, 0.4454153007743567]","[-0.057769954204559326, 0.11797509342432022, 0.03999999910593033]","[0.0, 0.0, -0.3616711452239549]","[0.026750000193715096, 0.05299999937415123, 0.03999999910593033]","[0.0, 0.0, -0.6221972896951505]","[0.06871318817138672, 0.11150718480348587, 0.03999999910593033]","[0.0, -0.0, 0.18656461152305914]",0.4250642335467334,-4.884258802668389,"(0.0, 0.0, 0.0, 0.0, 0.0, 0.0)",-22.339950054273512,-0.806578266769045,0.12196487290990163,"(0.0, 0.0, 0.0, 0.0, 0.0, 0.0)",-9.668345067300404,-0.6016704978156346,4.926429837853987,"(0.0, 0.0, 0.0, 0.0, 0.0, 0.0)",8.473066942094752,0.8087618972923122,0.0,"(0.0, 0.0, 0.0, 0.0, 0.0, 0.0)",0.6058330086000199,True,"(-0.020824189460704676, 0.18247642468512512, 0.02399978009374597)","(0.999766117724173, -0.021625490182571584, -0.00021914629481329732)",-0.00017517896668246626,66.89205089283979,False,,,,
90,Move,"(0.0152, 0.0, -0.0067)","(0.0, -0.0, 0.0)","(0.012475634059332044, 0.16644868716381836, 0.04870009373898518)","(0.0013576688577981479, -0.0055984223474458755, -0.04018168288328453)","[0.0024768074606098794, 0.006420944641888915, 0.0011495347247675453]","[-0.026750000193715096, 0.05299999937415123, 0.03999999910593033]","[0.0, -0.0, 0.4250642657055784]","[-0.05644131079316139, 0.11859288066625595, 0.03999999910593033]","[0.0, 0.0, -0.3815140128242898]","[0.026750000193715096, 0.05299999937415123, 0.03999999910593033]","[0.0, 0.0, -0.6016705065437721]","[0.06750346720218658, 0.11235617101192474, 0.03999999910593033]","[0.0, -0.0, 0.2070913822655467]",0.4087103287464348,-3.9249371520716565,"(0.0, 0.0, 0.0, 0.0, 0.0, 0.0)",-57.23987626846438,-0.7809357805972674,6.1541966812266065,"(0.0, 0.0, 0.0, 0.0, 0.0, 0.0)",-26.25435867547999,-0.5857224908953879,3.8275216608592224,"(0.0, 0.0, 0.0, 0.0, 0.0, 0.0)",73.4670333712864,0.7758825158387022,-7.891051548866409,"(0.0, 0.0, 0.0, 0.0, 0.0, 0.0)",38.58200373163985,True,"(-0.018223008390179797, 0.1823484551830677, 0.02399978009374597)","(0.999766117724173, -0.021625490182571584, -0.00021914629481329732)",2.2520624467401076e-05,454.97645592318133,True,"(0.040921732204144017, 0.18169179351617992, 0.023994466335977536)","(-0.9989784823698369, 0.044848395432275846, -0.005532918687966787)",-0.0037737549163302736,586.1312517808044
91,Move,"(0.0151, 0.0, -0.0068)","(0.0, 0.013110913340981403, 0.0)","(0.01248508441072096, 0.16743932800376296, 0.0487082121976917)","(0.001345497718485031, -0.005548330843394923, -0.03919124520890925)","[0.002486257811998795, 0.007411585481833516, 0.0011576531834740639]","[-0.026750000193715096, 0.05299999937415123, 0.03999999910593033]","[0.0, -0.0, 0.4087103182834907]","[-0.055364686995744705, 0.1190696582198143, 0.03999999910593033]","[0.0, 0.0, -0.37222547058033045]","[0.026750000193715096, 0.05299999937415123, 0.03999999910593033]","[0.0, 0.0, -0.5857225420031502]","[0.06655171513557434, 0.11299853026866913, 0.03999999910593033]","[0.0, -0.0, 0.19016004295483693]",0.3920516232454081,-3.9980893202464056,"(0.0, 0.0, 0.0, 0.0, 0.0, 0.0)",-74.75351026362476,-0.7517732700919009,6.999002521287968,"(0.0, 0.0, 0.0, 0.0, 0.0, 0.0)",-36.69011145998956,-0.5704543093938858,3.664363560360511,"(0.0, 0.0, 0.0, 0.0, 0.0, 0.0)",75.10854095776607,0.74475160953429,-7.471417513058913,"(0.0, 0.0, 0.0, 0.0, 0.0, 0.0)",40.32477309366223,True,"(-0.01774022507578537, 0.18317746954298267, 0.02399978009374597)","(0.999766117724173, -0.021625490182571584, -0.00021914629481329732)",-0.0004289500091896129,542.7291645863547,True,"(0.0411465774401525, 0.1827526751221145, 0.02399440096241293)","(-0.9991771663162338, 0.04017024155923409, -0.0055983931028879465)",-0.003582895447688935,579.3444199068299
92,Move,"(0.0148, 0.0, -0.007)","(0.0, 0.021750293138353336, 0.0)","(0.012787457455163439, 0.16827394861119171, 0.048641203941029554)","(-0.0018462183385604838, -0.005234046777347364, -0.04061089244802679)","[0.002788630856441274, 0.00824620608926227, 0.0010906449268119206]","[-0.026750000193715096, 0.05299999937415123, 0.03999999910593033]","[0.0, -0.0, 0.39205161260916715]","[-0.05426013469696045, 0.11953715234994888, 0.03999999910593033]","[0.0, 0.0, -0.3597216230698316]","[0.026750000193715096, 0.05299999937415123, 0.03999999910593033]","[0.0, 0.0, -0.5704543111109777]","[0.06563103944063187, 0.11359921097755432, 0.03999999910593033]","[0.0, -0.0, 0.1742972884415984]",0.391525774546064,-0.1262036878425734,"(0.0, 0.0, 0.0, 0.0, 0.0, 0.0)",1.7155237512136452,-0.7540636206008305,-0.5496841221431126,"(0.0, 0.0, 0.0, 0.0, 0.0, 0.0)",-2.1199245223506757,-0.5760294642453557,-1.3380371643527997,"(0.0, 0.0, 0.0, 0.0, 0.0, 0.0)",-5.662795969526106,0.7472625322289852,0.6026214467268636,"(0.0, 0.0, 0.0, 0.0, 0.0, 0.0)",0.7635244735109269,True,"(-0.01744018249039779, 0.18411038905271834, 0.02399978009374597)","(0.999766117724173, -0.021625490182571584, -0.00021914629481329732)",-0.0007382363918155729,14.504882148681757,True,"(0.041334743631136775, 0.18373072654591932, 0.02399445103440669)","(-0.9992167413135873, 0.03918061024780733, -0.0055483023768248384)",-0.0033853639780873903,5.893279255465722
93,Move,"(0.0174, 0.0, -0.008199999999999999)","(0.0, 0.038988910160301336, 0.0)","(0.013221053763140379, 0.16891355377088962, 0.0486571621254087)","(-0.004932766197696199, -0.0011983331392225183, -0.0376344670374069)","[0.0032222271644182145, 0.00888581124896018, 0.001106603111191068]","[-0.026750000193715096, 0.05299999937415123, 0.03999999910593033]","[0.0, -0.0, 0.3915257803034244]","[-0.0542251393198967, 0.11955160647630692, 0.03999999910593033]","[0.0, 0.0, -0.36253789259008445]","[0.026750000193715096, 0.05299999937415123, 0.03999999910593033]","[0.0, 0.0, -0.5760294633758111]","[0.06596828997135162, 0.11338150501251221, 0.03999999910593033]","[0.0, -0.0, 0.1712330731278238]",0.38950896311128597,-0.48403474434672966,"(0.0, 0.0, 0.0, 0.0, 0.0, 0.0)",-2.1520076090276965,-0.7533826599796841,0.16343054907513643,"(0.0, 0.0, 0.0, 0.0, 0.0, 0.0)",-0.9015148117820002,-0.5795791736561183,-0.8519302585830129,"(0.0, 0.0, 0.0, 0.0, 0.0, 0.0)",0.9878398210715046,0.7466346223416035,-0.1506983729716037,"(0.0, 0.0, 0.0, 0.0, 0.0, 0.0)",0.18225315913981166,True,"(-0.017223485363883698, 0.18402089777801026, 0.02399978009374597)","(0.999766117724173, -0.021625490182571584, -0.00021914629481329732)",-0.0006581896395905249,12.865955165808101,True,"(0.041886930777036806, 0.18358549514106443, 0.023994765287758537)","(-0.9991618047369354, 0.04059917436757077, -0.005234022879380032)",-0.00311255398587686,2.7957871222337527
