OSUrobotics/InHand-Manipulation/AnalyseData/Data/Trial Data/Better/new_hand_human_sub1_2v2_b_n_1_kpNone_kdNone_dp5_step5_save_data.csv
,Phase,human_cube_pos,human_cube_orn,Cube_Pos,Cube_Orn,Cube_pos_in_start_pos,b'l_prox_pin'_link_pos,b'l_prox_pin'_link_orn,b'l_distal_pin'_link_pos,b'l_distal_pin'_link_orn,b'r_prox_pin'_link_pos,b'r_prox_pin'_link_orn,b'r_distal_pin'_link_pos,b'r_distal_pin'_link_orn,b'l_prox_pin'_joint_angle,b'l_prox_pin'_joint_vel,b'l_prox_pin'_joint_react_forces,b'l_prox_pin'_joint_motor_torque,b'l_distal_pin'_joint_angle,b'l_distal_pin'_joint_vel,b'l_distal_pin'_joint_react_forces,b'l_distal_pin'_joint_motor_torque,b'r_prox_pin'_joint_angle,b'r_prox_pin'_joint_vel,b'r_prox_pin'_joint_react_forces,b'r_prox_pin'_joint_motor_torque,b'r_distal_pin'_joint_angle,b'r_distal_pin'_joint_vel,b'r_distal_pin'_joint_react_forces,b'r_distal_pin'_joint_motor_torque,in_contact_l,contact_point_l_dist,contact_normal_l_dist,contact_distance_l_dist,contact_norm_force_l_dist,in_contact_r,contact_point_r_dist,contact_normal_r_dist,contact_distance_r_dist,contact_norm_force_r_dist
0,Open,,,,,,"[-0.026750000193715096, 0.05299999937415123, 0.03999999910593033]","[0.0, -0.0, 0.42755761853039154]","[-0.056604765355587006, 0.1185186430811882, 0.03999999910593033]","[0.0, -0.0, 0.4463066270391506]","[0.026750000193715096, 0.05299999937415123, 0.03999999910593033]","[0.0, 0.0, -0.42757404208311445]","[0.05660583823919296, 0.1185181587934494, 0.03999999910593033]","[0.0, 0.0, -0.4465272228574986]",0.5418018724257314,27.418616735313837,"(0.0, 0.0, 0.0, 0.0, 0.0, 0.0)",-4.412236817968903,0.016874447698417276,-0.44988750389777044,"(0.0, 0.0, 0.0, 0.0, 0.0, 0.0)",-0.3112578673856835,-0.5418166170859073,-27.418223544375806,"(0.0, 0.0, 0.0, 0.0, 0.0, 0.0)",4.412120589674461,-0.017058187988154127,0.4547872631353701,"(0.0, 0.0, 0.0, 0.0, 0.0, 0.0)",0.31119999541872967,False,,,,,False,,,,
1,Open,,,,,,"[-0.026750000193715096, 0.05299999937415123, 0.03999999910593033]","[0.0, -0.0, 0.8953992050914552]","[-0.08294302970170975, 0.09801492840051651, 0.03999999910593033]","[0.0, -0.0, 0.9064715399310761]","[0.026750000193715096, 0.05299999937415123, 0.03999999910593033]","[0.0, 0.0, -0.8954089117450801]","[0.08294346183538437, 0.09801438450813293, 0.03999999910593033]","[0.0, 0.0, -0.9066016844299951]",0.9628592876486701,16.190418996035465,"(0.0, 0.0, 0.0, 0.0, 0.0, 0.0)",-2.616982039675733,0.009965290062605858,-0.26568209241480656,"(0.0, 0.0, 0.0, 0.0, 0.0, 0.0)",-0.18775783729375353,-0.9628679942230576,-16.190186820718473,"(0.0, 0.0, 0.0, 0.0, 0.0, 0.0)",2.6169116334278195,-0.010073786659150813,0.26857534621184953,"(0.0, 0.0, 0.0, 0.0, 0.0, 0.0)",0.187722108909745,False,,,,,False,,,,
2,Open,,,,,,"[-0.026750000193715096, 0.05299999937415123, 0.03999999910593033]","[0.0, -0.0, 1.17165497759142]","[-0.09309044480323792, 0.08098116517066956, 0.03999999910593033]","[0.0, -0.0, 1.1781937273122836]","[0.026750000193715096, 0.05299999937415123, 0.03999999910593033]","[0.0, 0.0, -1.1716605985979762]","[0.09309060126543045, 0.08098078519105911, 0.03999999910593033]","[0.0, 0.0, -1.178270796658152]",1.2114894807636634,9.56028051296898,"(0.0, 0.0, 0.0, 0.0, 0.0, 0.0)",-1.549346412635057,0.005885062316220725,-0.15689973638119079,"(0.0, 0.0, 0.0, 0.0, 0.0, 0.0)",-0.11225090666269867,-1.2114946219087734,-9.560143415766044,"(0.0, 0.0, 0.0, 0.0, 0.0, 0.0)",1.5493042197033076,-0.00594912834521185,0.1586081706180975,"(0.0, 0.0, 0.0, 0.0, 0.0, 0.0)",0.11222926703597672,False,,,,,False,,,,
3,Open,,,,,,"[-0.026750000193715096, 0.05299999937415123, 0.03999999910593033]","[0.0, -0.0, 1.3347813147466918]","[-0.09675397723913193, 0.06983575969934464, 0.03999999910593033]","[0.0, -0.0, 1.3386449621367835]","[0.026750000193715096, 0.05299999937415123, 0.03999999910593033]","[0.0, 0.0, -1.3347844615433213]","[0.0967540368437767, 0.06983552873134613, 0.03999999910593033]","[0.0, 0.0, -1.3386905382854437]",1.3583031234961356,5.645250040103052,"(0.0, 0.0, 0.0, 0.0, 0.0, 0.0)",-0.9162890978823036,0.0034783869891320215,-0.09247571818598516,"(0.0, 0.0, 0.0, 0.0, 0.0, 0.0)",-0.06677007440367574,-1.3583061592909116,-5.645169085575695,"(0.0, 0.0, 0.0, 0.0, 0.0, 0.0)",0.9162639666346021,-0.003516216695348753,0.09348456497972772,"(0.0, 0.0, 0.0, 0.0, 0.0, 0.0)",0.06675710630673855,False,,,,,False,,,,
4,Open,,,,,,"[-0.026750000193715096, 0.05299999937415123, 0.03999999910593033]","[0.0, -0.0, 1.4311058207082674]","[-0.09804865717887878, 0.06302504986524582, 0.03999999910593033]","[0.0, -0.0, 1.433390691262394]","[0.026750000193715096, 0.05299999937415123, 0.03999999910593033]","[0.0, 0.0, -1.4311075924426346]","[0.09804867953062057, 0.06302490830421448, 0.03999999910593033]","[0.0, 0.0, -1.433417470845748]",1.4449951113932331,3.333463696180452,"(0.0, 0.0, 0.0, 0.0, 0.0, 0.0)",-0.5415503506795546,0.0020570753203455715,-0.05468855210882702,"(0.0, 0.0, 0.0, 0.0, 0.0, 0.0)",-0.039594115216637325,-1.4449969039996904,-3.3334158933415914,"(0.0, 0.0, 0.0, 0.0, 0.0, 0.0)",0.541535435877482,-0.002079412775410495,0.055284250111531166,"(0.0, 0.0, 0.0, 0.0, 0.0, 0.0)",0.03958639191865308,False,,,,,False,,,,
5,Open,,,,,,"[-0.026750000193715096, 0.05299999937415123, 0.03999999910593033]","[0.0, -0.0, 1.4879842849605203]","[-0.09850326180458069, 0.05895565450191498, 0.03999999910593033]","[0.0, -0.0, 1.4893357278409396]","[0.026750000193715096, 0.05299999937415123, 0.03999999910593033]","[0.0, 0.0, -1.4879853833286059]","[0.09850326925516129, 0.05895556882023811, 0.03999999910593033]","[0.0, 0.0, -1.4893513332680077]",1.4961858633265903,1.9683769779575933,"(0.0, 0.0, 0.0, 0.0, 0.0, 0.0)",-0.31995094896823073,0.0012165319928285922,-0.03234212113369103,"(0.0, 0.0, 0.0, 0.0, 0.0, 0.0)",-0.02343792779000599,-1.4961869218427772,-1.9683487508592754,"(0.0, 0.0, 0.0, 0.0, 0.0, 0.0)",0.31994211580738524,-0.0012297216752996233,0.03269386530715718,"(0.0, 0.0, 0.0, 0.0, 0.0, 0.0)",0.02343334437795369,False,,,,,False,,,,
6,Open,,,,,,"[-0.026750000193715096, 0.05299999937415123, 0.03999999910593033]","[0.0, -0.0, 1.5215704989376362]","[-0.09866278618574142, 0.05654282495379448, 0.03999999910593033]","[0.0, -0.0, 1.522369838325666]","[0.026750000193715096, 0.05299999937415123, 0.03999999910593033]","[0.0, 0.0, -1.5215710825913402]","[0.09866278618574142, 0.0565427765250206, 0.03999999910593033]","[0.0, 0.0, -1.522379029767931]",1.5264134904357183,1.1623069217141797,"(0.0, 0.0, 0.0, 0.0, 0.0, 0.0)",-0.18898727227709852,0.000719444125508032,-0.019126791845346432,"(0.0, 0.0, 0.0, 0.0, 0.0, 0.0)",-0.013859938289241243,-1.5264141154789415,-1.162290253894895,"(0.0, 0.0, 0.0, 0.0, 0.0, 0.0)",0.18898204730565804,-0.0007272322869396521,0.019334487584604668,"(0.0, 0.0, 0.0, 0.0, 0.0, 0.0)",0.013857223880827028,False,,,,,False,,,,
7,Close,,,"(1.2478112216283415e-07, 0.16999960627914334, 0.0003375139776509844)","(1.5703757789650807, 0.0001088681168706304, -5.122612185789874e-06)",,"[-0.026750000193715096, 0.05299999937415123, 0.03999999910593033]","[0.0, -0.0, 1.2785329680082034]","[-0.09569678455591202, 0.07374466955661774, 0.03999999910593033]","[0.0, -0.0, 1.0351044933740032]","[0.026750000193715096, 0.05299999937415123, 0.03999999910593033]","[0.0, 0.0, -1.2785333261376617]","[0.09569679200649261, 0.07374463975429535, 0.03999999910593033]","[0.0, 0.0, -1.0351099865887758]",1.2106796019673873,-16.28478938579699,"(0.0, 0.0, 0.0, 0.0, 0.0, 0.0)",2.809472854136235,-0.3090860149933808,-15.757821278062295,"(0.0, 0.0, 0.0, 0.0, 0.0, 0.0)",0.3661538009495806,-1.2106799710491603,16.284799227977608,"(0.0, 0.0, 0.0, 0.0, 0.0, 0.0)",-2.8094757422584213,0.30908141619234186,15.75794391320213,"(0.0, 0.0, 0.0, 0.0, 0.0, 0.0)",-0.3661552191151056,False,,,,,False,,,,
8,Close,,,"(3.0991841452431125e-07, 0.1699991530873768, 0.0005600347089338349)","(1.5707725584893357, 0.0003276471180493337, -1.5390016504502985e-05)",,"[-0.026750000193715096, 0.05299999937415123, 0.03999999910593033]","[0.0, -0.0, 1.0006670909649218]","[-0.08736184239387512, 0.09186135232448578, 0.03999999910593033]","[0.0, -0.0, 0.48836557737534114]","[0.026750000193715096, 0.05299999937415123, 0.03999999910593033]","[0.0, 0.0, -1.0006671906734346]","[0.08736184984445572, 0.09186133742332458, 0.03999999910593033]","[0.0, 0.0, -0.4883688154364048]",0.9606001981650306,-9.616005284561718,"(0.0, 0.0, 0.0, 0.0, 0.0, 0.0)",1.667253264949997,-0.5510712009946406,-9.304767973476249,"(0.0, 0.0, 0.0, 0.0, 0.0, 0.0)",0.2218037572572205,-0.9606004161041268,9.616011096270952,"(0.0, 0.0, 0.0, 0.0, 0.0, 0.0)",-1.6672550198735234,0.5510684854486152,9.30484038803693,"(0.0, 0.0, 0.0, 0.0, 0.0, 0.0)",-0.22180464092959223,False,,,,,False,,,,
9,Close,,,"(2.933853975158492e-07, 0.16999904048792538, 0.0007066062154399696)","(1.5708337628024795, 0.00026866528465535426, -1.404448202163588e-05)",,"[-0.026750000193715096, 0.05299999937415123, 0.03999999910593033]","[0.0, -0.0, 0.8365897781630613]","[-0.08020010590553284, 0.1012398824095726, 0.03999999910593033]","[0.0, -0.0, 0.16552144688028117]","[0.026750000193715096, 0.05299999937415123, 0.03999999910593033]","[0.0, 0.0, -0.8365899294750984]","[0.08020011335611343, 0.101239874958992, 0.03999999910593033]","[0.0, 0.0, -0.1655233971102189]",0.8129308110141114,-5.678154960376304,"(0.0, 0.0, 0.0, 0.0, 0.0, 0.0)",0.9873874064507416,-0.6939616573792659,-5.494397555666588,"(0.0, 0.0, 0.0, 0.0, 0.0, 0.0)",0.13292457281458034,-0.8129309397049683,5.678158392132489,"(0.0, 0.0, 0.0, 0.0, 0.0, 0.0)",-0.987388459985631,0.6939600538790082,5.494440315842426,"(0.0, 0.0, 0.0, 0.0, 0.0, 0.0)",-0.13292511074891808,False,,,,,False,,,,
10,Close,,,"(1.9902477861274505e-07, 0.16999905216518962, 0.0008031506137060285)","(1.5708213694470277, 0.0001751880104672085, -1.4031272711042213e-05)",,"[-0.026750000193715096, 0.05299999937415123, 0.03999999910593033]","[0.0, -0.0, 0.7397039398326887]","[-0.075282983481884, 0.10618411004543304, 0.03999999910593033]","[0.0, 0.0, -0.025114755601520013]","[0.026750000193715096, 0.05299999937415123, 0.03999999910593033]","[0.0, 0.0, -0.7397039829241547]","[0.0752829909324646, 0.10618410259485245, 0.03999999910593033]","[0.0, -0.0, 0.025113617980755978]",0.7257335145957226,-3.3528937225526034,"(0.0, 0.0, 0.0, 0.0, 0.0, 0.0)",0.5840196078844049,-0.7783380408184963,-3.244652289205478,"(0.0, 0.0, 0.0, 0.0, 0.0, 0.0)",0.07914031685893824,-0.7257335905863868,3.3528957489703144,"(0.0, 0.0, 0.0, 0.0, 0.0, 0.0)",-0.5840202358821991,0.778337093974245,3.2446775397467595,"(0.0, 0.0, 0.0, 0.0, 0.0, 0.0)",-0.07914064000385382,False,,,,,False,,,,
11,Close,,,"(1.3069317882946781e-07, 0.16999905849316785, 0.0008666025578373041)","(1.570813038524343, 0.0001076496945073061, -1.4014808324094979e-05)",,"[-0.026750000193715096, 0.05299999937415123, 0.03999999910593033]","[0.0, -0.0, 0.6824937890365349]","[-0.07216256856918335, 0.10887216031551361, 0.03999999910593033]","[0.0, 0.0, -0.137687120736303]","[0.026750000193715096, 0.05299999937415123, 0.03999999910593033]","[0.0, 0.0, -0.6824937890365349]","[0.07216257601976395, 0.10887216031551361, 0.03999999910593033]","[0.0, -0.0, 0.1376864353718678]",0.6742443830336282,-1.9798502142300851,"(0.0, 0.0, 0.0, 0.0, 0.0, 0.0)",0.34523008433021124,-0.8281635344937409,-1.9158370237869804,"(0.0, 0.0, 0.0, 0.0, 0.0, 0.0)",0.046989708289177236,-0.6742444279053555,1.9798514108094807,"(0.0, 0.0, 0.0, 0.0, 0.0, 0.0)",-0.3452304573414294,0.8281629754068567,1.9158519335829844,"(0.0, 0.0, 0.0, 0.0, 0.0, 0.0)",-0.04698990114977892,False,,,,,False,,,,
12,Close,,,"(8.555941999099156e-08, 0.16999906193922792, 0.000908421947806545)","(1.5708075491537519, 6.311807488844542e-05, -1.4000595358663434e-05)",,"[-0.026750000193715096, 0.05299999937415123, 0.03999999910593033]","[0.0, -0.0, 0.6487117277688945]","[-0.070249542593956, 0.11037412285804749, 0.03999999910593033]","[0.0, 0.0, -0.20415830575541527]","[0.026750000193715096, 0.05299999937415123, 0.03999999910593033]","[0.0, 0.0, -0.6487117277688945]","[0.070249542593956, 0.11037411540746689, 0.03999999910593033]","[0.0, -0.0, 0.20415788801885543]",0.6438405657375271,-1.1690817530007243,"(0.0, 0.0, 0.0, 0.0, 0.0, 0.0)",0.20397674457790932,-0.8575834812137779,-1.1312243968345508,"(0.0, 0.0, 0.0, 0.0, 0.0, 0.0)",0.027828964636992654,-0.6438405922338334,1.1690824595688907,"(0.0, 0.0, 0.0, 0.0, 0.0, 0.0)",-0.20397696556653716,0.8575831510875931,1.1312332006820753,"(0.0, 0.0, 0.0, 0.0, 0.0, 0.0)",-0.027829079200348807,False,,,,,False,,,,
13,Close,,,"(5.567361934631568e-08, 0.16999906349286917, 0.0009359839309479349)","(1.5708039321322358, 3.37560108188707e-05, -1.3987283228090085e-05)",,"[-0.026750000193715096, 0.05299999937415123, 0.03999999910593033]","[0.0, -0.0, 0.62876384308693]","[-0.06909646838903427, 0.11123037338256836, 0.03999999910593033]","[0.0, 0.0, -0.24340789693353326]","[0.026750000193715096, 0.05299999937415123, 0.03999999910593033]","[0.0, 0.0, -0.62876384308693]","[0.06909646838903427, 0.11123037338256836, 0.03999999910593033]","[0.0, -0.0, 0.24340764580603796]",0.6258874156623524,-0.6903310843293964,"(0.0, 0.0, 0.0, 0.0, 0.0, 0.0)",0.12048853373387189,-0.8749547691894786,-0.6679421640099914,"(0.0, 0.0, 0.0, 0.0, 0.0, 0.0)",0.016461146679105913,-0.6258874313081562,0.6903315015508323,"(0.0, 0.0, 0.0, 0.0, 0.0, 0.0)",-0.12048866447898966,0.8749545742586229,0.6679473624521103,"(0.0, 0.0, 0.0, 0.0, 0.0, 0.0)",-0.016461214564379854,False,,,,,False,,,,
14,Move,,,"(0.0002849434880139787, 0.17128526654835666, 0.0018667775255450016)","(1.529867145493542, 0.001236551690390913, -0.0026252758006009144)","[0.0, 0.0, 0.0]","[-0.026750000193715096, 0.05299999937415123, 0.03999999910593033]","[0.0, -0.0, 0.5674368798319164]","[-0.06544800847768784, 0.113716259598732, 0.03999999910593033]","[0.0, 0.0, -0.23086444862254737]","[0.026750000193715096, 0.05299999937415123, 0.03999999910593033]","[0.0, 0.0, -0.5672775113046467]","[0.06543833017349243, 0.11372242867946625, 0.03999999910593033]","[0.0, -0.0, 0.2338230653212545]",0.5526433844132694,-3.5504372063580854,"(0.0, 0.0, 0.0, 0.0, 0.0, 0.0)",-74.66311326449657,-0.7739535469156117,5.843468067207706,"(0.0, 0.0, 0.0, 0.0, 0.0, 0.0)",-38.567738900473906,-0.5523653530093062,3.5789086898164406,"(0.0, 0.0, 0.0, 0.0, 0.0, 0.0)",70.97380681712595,0.7784689212282292,-5.431581853362886,"(0.0, 0.0, 0.0, 0.0, 0.0, 0.0)",36.631671368390464,True,"(-0.031139027298926508, 0.18549673152317092, 0.03999924353386678)","(0.9999971505660776, -0.0022642037706561637, -0.0007564661332230728)",-0.000503181178828863,565.4925793008347,True,"(0.030917119596597424, 0.1854085662421605, 0.04000075646613322)","(-0.9999971505660776, 0.002264203770598743, 0.0007564661332168607)",-0.0013606486484191646,538.0249494895718
15,Move,"(0.0005, 0.0, 0.0007)","(0.0, 0.025778513051956248, 0.0)","(0.0002742551329429073, 0.1713961428364495, 0.0032003170793701275)","(1.4885647811651397, 0.0003304599670305862, -0.003064706528451628)","[-1.0688355071071412e-05, 0.00011087628809283712, 0.0013335395538251259]","[-0.026750000193715096, 0.05299999937415123, 0.03999999910593033]","[0.0, -0.0, 0.5445252207551965]","[-0.06404686719179153, 0.11458688229322433, 0.03999999910593033]","[0.0, 0.0, -0.21312052771967793]","[0.026750000193715096, 0.05299999937415123, 0.03999999910593033]","[0.0, 0.0, -0.5449930280873904]","[0.06407567113637924, 0.11456942558288574, 0.03999999910593033]","[0.0, -0.0, 0.21840607711020602]",0.5459269998097261,0.33642219401437057,"(0.0, 0.0, 0.0, 0.0, 0.0, 0.0)",-0.05003343474698209,-0.759276535555003,-0.3913869696162315,"(0.0, 0.0, 0.0, 0.0, 0.0, 0.0)",0.0006677079112461565,-0.5466261416307522,-0.3919500533242688,"(0.0, 0.0, 0.0, 0.0, 0.0, 0.0)",0.07083806828607923,0.7649046514014994,0.36133524757261365,"(0.0, 0.0, 0.0, 0.0, 0.0, 0.0)",0.006896988147520378,True,"(-0.031016770728214446, 0.1869464521805031, 0.03999921554993069)","(0.9999955833489899, -0.002866691577834613, -0.0007844500693116118)",-0.0005879755333158232,0.0,True,"(0.030663548987587996, 0.18676442536602372, 0.0400007844500693)","(-0.9999955833489897, 0.0028666915778435952, 0.0007844500693000618)",-0.0016514549648775061,0.08489531271646898
16,Move,"(0.0073, 0.0, 0.0034)","(0.0, 0.14231763786612162, 0.0)","(0.0010670524318019162, 0.17144615569950863, 0.0032690285004988097)","(1.490757957057688, 0.0006699027981882115, -0.0036316891461565894)","[0.0007821089437879376, 0.00016088915115197722, 0.001402250974953808]","[-0.026750000193715096, 0.05299999937415123, 0.03999999910593033]","[0.0, -0.0, 0.5428130998747831]","[-0.06394136697053909, 0.11465064436197281, 0.03999999910593033]","[0.0, 0.0, -0.21738175185548805]","[0.026750000193715096, 0.05299999937415123, 0.03999999910593033]","[0.0, 0.0, -0.5556611730889972]","[0.06473036855459213, 0.11416773498058319, 0.03999999910593033]","[0.0, -0.0, 0.21022364183605863]",0.541633601379645,-0.28308186254416645,"(0.0, 0.0, 0.0, 0.0, 0.0, 0.0)",-0.32328902889639477,-0.7600920117940576,0.024679713643984955,"(0.0, 0.0, 0.0, 0.0, 0.0, 0.0)",-0.17843138222480304,-0.5576960605636584,-0.4883799006656001,"(0.0, 0.0, 0.0, 0.0, 0.0, 0.0)",0.07981238621833638,0.7657867694078578,-0.023523146836223145,"(0.0, 0.0, 0.0, 0.0, 0.0, 0.0)",0.006213287910884572,True,"(-0.03060321638503974, 0.18687153054253441, 0.039999277018339566)","(0.9999900086625595, -0.004411334556907933, -0.0007229816604326664)",-0.00039004740195295614,2.739934319802415,True,"(0.03191003437750235, 0.1866270693867894, 0.040000722981660436)","(-0.9999900086625594, 0.004411334556902214, 0.000722981660440286)",-0.0010162474495101865,0.0
17,Move,"(0.0112, 0.0, 0.010199999999999999)","(0.0, 0.007517133088339578, 0.0)","(0.0017259540869950037, 0.17134274134678323, 0.0020721951624848856)","(1.5317540190337982, 0.00035817173500525773, 0.012179436562260539)","[0.0014410105989810249, 5.7474798426576656e-05, 0.00020541763693988392]","[-0.026750000193715096, 0.05299999937415123, 0.03999999910593033]","[0.0, -0.0, 0.5398821968185915]","[-0.06376051902770996, 0.11475938558578491, 0.03999999910593033]","[0.0, 0.0, -0.2201424791919471]","[0.026750000193715096, 0.05299999937415123, 0.03999999910593033]","[0.0, 0.0, -0.5704954860078615]","[0.06563354283571243, 0.11359760910272598, 0.03999999910593033]","[0.0, -0.0, 0.19522669554009414]",0.5396967158656142,-0.04453285134472296,"(0.0, 0.0, 0.0, 0.0, 0.0, 0.0)",0.0072726086385534626,-0.7600314868505509,-0.0016163602464797416,"(0.0, 0.0, 0.0, 0.0, 0.0, 0.0)",0.0005606550135929053,-0.5734459600511884,-0.7081059498434258,"(0.0, 0.0, 0.0, 0.0, 0.0, 0.0)",0.11527904246221997,0.765728535322214,0.0015167925300723147,"(0.0, 0.0, 0.0, 0.0, 0.0, 0.0)",0.008573653750173188,True,"(-0.030223122319153736, 0.18690358723617523, 0.03999954026238413)","(0.9999640994488274, 0.008460996089130517, -0.000459737615878522)",-0.0002410771853480736,0.0,True,"(0.033903372974755465, 0.18651311484385286, 0.04000045973761589)","(-0.9999640994488272, -0.008460996089137623, 0.0004597376158877624)",0.00044196771706818817,0.0
18,Move,"(0.0177, 0.0, 0.0181)","(0.0, 0.022591541837814602, 0.0)","(0.0024422430977965653, 0.1713757079381272, 0.0010027149132498634)","(1.5841069132205419, -0.006274678932033874, 0.012324582226265444)","[0.0021572996097825865, 9.044138977054583e-05, -0.0008640626122951383]","[-0.026750000193715096, 0.05299999937415123, 0.03999999910593033]","[0.0, -0.0, 0.5373140382021766]","[-0.0636017844080925, 0.11485423147678375, 0.03999999910593033]","[0.0, 0.0, -0.2221928231611017]","[0.026750000193715096, 0.05299999937415123, 0.03999999910593033]","[0.0, 0.0, -0.5928642078512738]","[0.06697918474674225, 0.11271275579929352, 0.03999999910593033]","[0.0, -0.0, 0.1728685551648206]",0.5367067799819325,-0.14573811073806994,"(0.0, 0.0, 0.0, 0.0, 0.0, 0.0)",-0.00048467822636477203,-0.7595594188111442,-0.012615700471204874,"(0.0, 0.0, 0.0, 0.0, 0.0, 0.0)",-0.012783113230906475,-0.5973733745464656,-1.0822192865371878,"(0.0, 0.0, 0.0, 0.0, 0.0, 0.0)",0.1761864601550096,0.7657322606196066,-0.00010346311275808836,"(0.0, 0.0, 0.0, 0.0, 0.0, 0.0)",0.013122464680007965,True,"(-0.029916639471718742, 0.18693801881475303, 0.040004917578253904)","(0.9998767641596362, 0.014908853670608384, 0.0049175782539092805)",-0.00015078146321780418,0.0,False,,,,
19,Move,"(0.0177, 0.0, 0.0181)","(0.0, 0.022591541837814602, 0.0)","(0.004349163985918569, 0.17244886760470116, 0.002108547334886806)","(1.5352323487166917, 0.0061633592556126875, -0.026701063077090567)","[0.00406422049790459, 0.0011636010563444987, 0.00024176980934180426]","[-0.026750000193715096, 0.05299999937415123, 0.03999999910593033]","[0.0, -0.0, 0.4817754132955379]","[-0.060111429542303085, 0.11680450290441513, 0.03999999910593033]","[0.0, 0.0, -0.2201538072454219]","[0.026750000193715096, 0.05299999937415123, 0.03999999910593033]","[0.0, 0.0, -0.544803431642075]","[0.06406400352716446, 0.11457649618387222, 0.03999999910593033]","[0.0, -0.0, 0.1647416302076753]",0.467856767601016,-3.3404675897274636,"(0.0, 0.0, 0.0, 0.0, 0.0, 0.0)",-71.00690351604666,-0.6767309722134824,6.047572515728864,"(0.0, 0.0, 0.0, 0.0, 0.0, 0.0)",-37.82899546471457,-0.5301259236679293,3.5226153372181064,"(0.0, 0.0, 0.0, 0.0, 0.0, 0.0)",65.81881673855277,0.6868713070417035,-5.441710420970685,"(0.0, 0.0, 0.0, 0.0, 0.0, 0.0)",34.52457588090864,True,"(-0.026573477198379755, 0.18891688584463298, 0.039991817640736435)","(0.9997020986946227, -0.022994844257976484, -0.008182359263568853)",-0.0003066920193633795,526.1172656496907,True,"(0.0345711253352424, 0.18842624406561517, 0.04000818235588684)","(-0.9997020986946229, 0.02299484425797535, 0.008182359263560953)",-0.0024757705521712115,486.70838465946434
20,Move,"(0.0214, 0.0, 0.0265)","(0.0, 0.038950512916757454, 0.0)","(0.00480468057369298, 0.17278793336099854, 0.003110220683369098)","(1.4961566643488184, -0.0002220475135564536, -0.03213825557001255)","[0.0045197370856790015, 0.001502666812641884, 0.0012434431578240966]","[-0.026750000193715096, 0.05299999937415123, 0.03999999910593033]","[0.0, -0.0, 0.45729718174783307]","[-0.05853977054357529, 0.11760193854570389, 0.03999999910593033]","[0.0, 0.0, -0.20256713249964328]","[0.026750000193715096, 0.05299999937415123, 0.03999999910593033]","[0.0, 0.0, -0.5432880089141793]","[0.063970647752285, 0.1146329715847969, 0.03999999910593033]","[0.0, -0.0, 0.12870541291027768]",0.4578211055386424,0.12574902375810926,"(0.0, 0.0, 0.0, 0.0, 0.0, 0.0)",-0.5360684015008234,-0.6615285914163884,-0.3994336467301731,"(0.0, 0.0, 0.0, 0.0, 0.0, 0.0)",-0.3049570575816096,-0.5503891532302697,-1.7042541502128021,"(0.0, 0.0, 0.0, 0.0, 0.0, 0.0)",0.2730711984744666,0.6734812750399595,0.3570675200465078,"(0.0, 0.0, 0.0, 0.0, 0.0, 0.0)",0.01632628853722664,True,"(-0.02627565472787048, 0.19026530730923263, 0.03999875668588879)","(0.999452551975712, -0.033061314542187435, -0.0012433141112121865)",-0.0004265802030101321,3.816956328369126,True,"(0.037156378964057726, 0.1894714182960832, 0.04000124331411122)","(-0.9994525519757121, 0.03306131454218316, 0.0012433141112161798)",-6.986630142907163e-05,0.0
21,Move,"(0.0252, 0.0, 0.0308)","(0.0, 0.017139133254584316, 0.0)","(0.005501545776273907, 0.1728365196658116, 0.00297792480476134)","(1.502513133840307, -0.0001434827833164148, -0.026860180865146323)","[0.005216602288259929, 0.001551253117454937, 0.0011111472792163382]","[-0.026750000193715096, 0.05299999937415123, 0.03999999910593033]","[0.0, -0.0, 0.45552017115251603]","[-0.058424923568964005, 0.11765832453966141, 0.03999999910593033]","[0.0, 0.0, -0.20699268937798881]","[0.026750000193715096, 0.05299999937415123, 0.03999999910593033]","[0.0, 0.0, -0.5812732759007773]","[0.06628437340259552, 0.11317501962184906, 0.03999999910593033]","[0.0, -0.0, 0.09318410172241509]",0.45477331734893206,-0.1792412583545917,"(0.0, 0.0, 0.0, 0.0, 0.0, 0.0)",-0.322990011867764,-0.6623923042368636,0.028931916909783504,"(0.0, 0.0, 0.0, 0.0, 0.0, 0.0)",-0.17080067722374953,-0.5878620624423755,-1.581302427390342,"(0.0, 0.0, 0.0, 0.0, 0.0, 0.0)",0.2576685587584881,0.6743597950395939,-0.02342719999025089,"(0.0, 0.0, 0.0, 0.0, 0.0, 0.0)",0.01943808738759951,True,"(-0.025839233636308585, 0.1901877789955566, 0.04000015547804121)","(0.9996106335642421, -0.027902635930556217, 0.00015547804121136577)",-0.0002851298487091459,2.5556796445270944,False,,,,
22,Move,"(0.0252, 0.0, 0.0308)","(0.0, 0.017139133254584316, 0.0)","(0.008048728260625018, 0.17553985051353707, 0.002695234967245228)","(1.5298283095740175, 0.015333388191885738, -0.04353872995927116)","[0.0077637847726110395, 0.004254583965180414, 0.0008284574417002262]","[-0.026750000193715096, 0.05299999937415123, 0.03999999910593033]","[0.0, -0.0, 0.40263363869981494]","[-0.054962679743766785, 0.11924231797456741, 0.03999999910593033]","[0.0, 0.0, -0.20635376232363456]","[0.026750000193715096, 0.05299999937415123, 0.03999999910593033]","[0.0, 0.0, -0.5383371650293127]","[0.06366505473852158, 0.11481649428606033, 0.03999999910593033]","[0.0, -0.0, 0.08134603860769678]",0.38936797288419067,-3.1837680307199685,"(0.0, 0.0, 0.0, 0.0, 0.0, 0.0)",-64.4416988824698,-0.5861809846948133,5.47354991334312,"(0.0, 0.0, 0.0, 0.0, 0.0, 0.0)",-34.25876431675927,-0.5239988977075075,3.4411896078011868,"(0.0, 0.0, 0.0, 0.0, 0.0, 0.0)",64.0857474465445,0.5961980636764356,-5.636438123726653,"(0.0, 0.0, 0.0, 0.0, 0.0, 0.0)",35.36418058912614,True,"(-0.02242325274952186, 0.19179586331469572, 0.0400001326310189)","(0.999667069910007, -0.025801777972728868, 0.00013263101889458205)",-0.00033629729178919843,466.7528239060011,True,"(0.040430385418355516, 0.19069796124213936, 0.0421600206345253)","(-0.9988976314923644, 0.0444297612576873, 0.015149855231296678)",-0.0007694497957765884,467.92761636388985
23,Move,"(0.030600000000000002, 0.0, 0.0348)","(0.0, 0.004012511950334963, 0.0)","(0.009006173311783916, 0.17923296873590042, 0.0013896027435819041)","(1.5704369681904287, 0.012584285692541013, -0.052926661453018366)","[0.008721229823769936, 0.00794770218754376, -0.0004771747819630975]","[-0.026750000193715096, 0.05299999937415123, 0.03999999910593033]","[0.0, -0.0, 0.3769364780190807]","[-0.05325131118297577, 0.11994535475969315, 0.03999999910593033]","[0.0, 0.0, -0.19422997235234374]","[0.026750000193715096, 0.05299999937415123, 0.03999999910593033]","[0.0, 0.0, -0.5449072974591361]","[0.06407039612531662, 0.11457262933254242, 0.03999999910593033]","[0.0, -0.0, 0.03587841715102077]",0.3768035825919167,-0.031901355705937134,"(0.0, 0.0, 0.0, 0.0, 0.0, 0.0)",-0.2325930532944617,-0.5726621162517719,-0.35895396101851934,"(0.0, 0.0, 0.0, 0.0, 0.0, 0.0)",-0.12875550221672408,-0.5540018612713505,-2.182701820744384,"(0.0, 0.0, 0.0, 0.0, 0.0, 0.0)",0.3507289050029482,0.58232692346634,0.3698970722692155,"(0.0, 0.0, 0.0, 0.0, 0.0, 0.0)",0.021950000420982912,True,"(-0.02161574243805333, 0.19274630955876615, 0.03784052940123127)","(0.9987079750446196, -0.04867469418065631, -0.01459981947473172)",-0.0003649640645087932,1.7284090835650343,False,,,,
24,Move,"(0.030600000000000002, 0.0, 0.0348)","(0.0, 0.004012511950334963, 0.0)","(0.011504113121093206, 0.1821633953835445, 0.0013628889491483433)","(1.573327510630884, 0.01955023333569936, -0.09023872212396855)","[0.011219169633079227, 0.01087812883518785, -0.0005038885763966583]","[-0.026750000193715096, 0.05299999937415123, 0.03999999910593033]","[0.0, -0.0, 0.32719656632766714]","[-0.049890048801898956, 0.12118019163608551, 0.03999999910593033]","[0.0, 0.0, -0.19206302676358547]","[0.026750000193715096, 0.05299999937415123, 0.03999999910593033]","[0.0, 0.0, -0.5087379469291169]","[0.06181942671537399, 0.11588191241025925, 0.03999999910593033]","[0.0, -0.0, 0.019956765718470337]",0.3144464263577976,-3.0600225423263394,"(0.0, 0.0, 0.0, 0.0, 0.0, 0.0)",-64.86271341889217,-0.49639032065210537,5.4886034871219795,"(0.0, 0.0, 0.0, 0.0, 0.0, 0.0)",-34.33348920047492,-0.49490098678782096,3.320861973171959,"(0.0, 0.0, 0.0, 0.0, 0.0, 0.0)",64.58112794938557,0.5049469108227069,-5.699463784736631,"(0.0, 0.0, 0.0, 0.0, 0.0, 0.0)",35.346940000648495,True,"(-0.01841255709088189, 0.19404342854628934, 0.037845134879346216)","(0.9982746216569276, -0.05786097904894218, -0.009994341359779627)",-0.0003684989795124252,460.68762660973545,True,"(0.043284828870111994, 0.1930534851714788, 0.04216482053851819)","(-0.9956667349349986, 0.09082818973631691, 0.01994975922418216)",-0.0020557621907947186,461.5265766369189
25,Move,"(0.0303, 0.0, 0.0386)","(0.0, 0.022591541837814602, 0.0)","(0.012562203999892241, 0.18397853555942886, 0.0011783479423790669)","(1.5681110073868607, 0.015391786563923296, -0.1078511068526892)","[0.012277260511878262, 0.012693269011072206, -0.0006884295831659348]","[-0.026750000193715096, 0.05299999937415123, 0.03999999910593033]","[0.0, -0.0, 0.3019187707561866]","[-0.0481593944132328, 0.12174327671527863, 0.03999999910593033]","[0.0, 0.0, -0.17923991782868326]","[0.026750000193715096, 0.05299999937415123, 0.03999999910593033]","[0.0, 0.0, -0.5179770870198402]","[0.06239890307188034, 0.11555521935224533, 0.03999999910593033]","[0.0, 0.0, -0.028715490417017955]",0.30163634872652534,-0.0677794500668168,"(0.0, 0.0, 0.0, 0.0, 0.0, 0.0)",-0.43930759150353227,-0.4826581970150233,-0.3598867800915686,"(0.0, 0.0, 0.0, 0.0, 0.0, 0.0)",-0.25364387492517365,-0.527536791054941,-2.294318777118601,"(0.0, 0.0, 0.0, 0.0, 0.0, 0.0)",0.3687985818186927,0.4908301648240284,0.3764465599647609,"(0.0, 0.0, 0.0, 0.0, 0.0, 0.0)",0.023217648678516164,True,"(-0.01767959985598425, 0.19463107973330157, 0.03577427264741893)","(0.9945498054830328, -0.10272874811389861, -0.017818213283399196)",-0.000401482589712685,3.208716740077774,True,"(0.047640884917745464, 0.19353716517294728, 0.04216482053851819)","(-0.9956667349349986, 0.09082818973631691, 0.01994975922418216)",0.00142894954260258,0.0
26,Move,"(0.0342, 0.0, 0.0389)","(0.0, 0.02957285884579192, 0.0)","(0.014539218103933585, 0.184643473460882, 0.0009048514567253038)","(1.5690664254183335, 0.0033886819870683664, -0.1407142837676787)","[0.014254274615919606, 0.013358206912525344, -0.0009619260688196979]","[-0.026750000193715096, 0.05299999937415123, 0.03999999910593033]","[0.0, -0.0, 0.29322602694731453]","[-0.047561027109622955, 0.12192678451538086, 0.03999999910593033]","[0.0, 0.0, -0.19023539562951333]","[0.026750000193715096, 0.05299999937415123, 0.03999999910593033]","[0.0, 0.0, -0.5685556638957998]","[0.0655159130692482, 0.11367292702198029, 0.03999999910593033]","[0.0, 0.0, -0.07669637693285472]",0.2910297679271715,-0.5270951679728352,"(0.0, 0.0, 0.0, 0.0, 0.0, 0.0)",-0.43293956242622206,-0.48336193337027494,0.023872890507355412,"(0.0, 0.0, 0.0, 0.0, 0.0, 0.0)",-0.28654888597297573,-0.5772754574882066,-2.092752116748075,"(0.0, 0.0, 0.0, 0.0, 0.0, 0.0)",0.3408619608678583,0.49175636452900173,-0.024698658799288786,"(0.0, 0.0, 0.0, 0.0, 0.0, 0.0)",0.0256242113445264,True,"(-0.01622440255045924, 0.19476457310467918, 0.03784849513633479)","(0.9910080645493289, -0.1336375879861242, -0.006634084371214711)",-0.00027927767769798554,3.6801563925230774,False,,,,
27,Move,"(0.0342, 0.0, 0.0389)","(0.0, 0.02957285884579192, 0.0)","(0.01932264150835335, 0.185198855153348, 0.0015635243359710756)","(1.5553724571808962, 0.012841731535876075, -0.17403069639464117)","[0.01903769802033937, 0.01391358860499134, -0.0003032531895739261]","[-0.026750000193715096, 0.05299999937415123, 0.03999999910593033]","[0.0, -0.0, 0.24037693765712545]","[-0.043890949338674545, 0.1229298785328865, 0.03999999910593033]","[0.0, 0.0, -0.21750028041128772]","[0.026750000193715096, 0.05299999937415123, 0.03999999910593033]","[0.0, 0.0, -0.5298625753165822]","[0.06313986331224442, 0.11512710899114609, 0.03999999910593033]","[0.0, 0.0, -0.0653072506460271]",0.22838114789642291,-2.8789873030348447,"(0.0, 0.0, 0.0, 0.0, 0.0, 0.0)",-58.04454738013124,-0.4351207987993607,5.46153397811023,"(0.0, 0.0, 0.0, 0.0, 0.0, 0.0)",-30.173016318836922,-0.5160778427058926,3.3083467952487693,"(0.0, 0.0, 0.0, 0.0, 0.0, 0.0)",58.83375251797636,0.44123315792957624,-5.597330692337506,"(0.0, 0.0, 0.0, 0.0, 0.0, 0.0)",31.779626796900207,True,"(-0.01058103567228258, 0.19488179861417187, 0.03785174054520439)","(0.9901103854067337, -0.1402495689407778, -0.0033886755016128843)",-0.000225701485685028,408.2770577314578,True,"(0.05124001026365074, 0.19357298902844766, 0.04215971414404443)","(-0.9846991446929656, 0.1736296888713141, 0.014843368330420843)",-0.0026014665692085178,413.85979854806146
28,Move,"(0.0388, 0.0, 0.037899999999999996)","(0.0, 0.0429961861228803, 0.0)","(0.021791758629087794, 0.1854934564378674, 0.0018919100826756358)","(1.5493901747820886, 0.015818693732675724, -0.1628949750881541)","[0.021506815141073814, 0.014208189889510753, 2.5132557130634137e-05]","[-0.026750000193715096, 0.05299999937415123, 0.03999999910593033]","[0.0, -0.0, 0.20722019374750464]","[-0.041563306003808975, 0.12345967441797256, 0.03999999910593033]","[0.0, 0.0, -0.21240788827346188]","[0.026750000193715096, 0.05299999937415123, 0.03999999910593033]","[0.0, 0.0, -0.5435431966828248]","[0.06398636847734451, 0.11462347954511642, 0.03999999910593033]","[0.0, 0.0, -0.11754457310832546]",0.2044201924096682,-0.6719971738162909,"(0.0, 0.0, 0.0, 0.0, 0.0, 0.0)",-0.07027554650925802,-0.4211711120305845,-0.3703261424504999,"(0.0, 0.0, 0.0, 0.0, 0.0, 0.0)",-0.0803770948047295,-0.5542692175198439,-2.5742416748167507,"(0.0, 0.0, 0.0, 0.0, 0.0, 0.0)",0.4144368151344105,0.4275220868131702,0.3656285631041603,"(0.0, 0.0, 0.0, 0.0, 0.0, 0.0)",0.026722869770517552,True,"(-0.008687133379141114, 0.1952695810906584, 0.0357831987019668)","(0.9868092248553996, -0.1616430736323332, -0.008892158735522649)",-0.00030305043155570607,1.2720808894658964,True,"(0.05619457967686393, 0.19356534281384027, 0.042155521250862554)","(-0.9848852816208324, 0.17288015924499234, 0.010650473514344094)",0.0005506991310461928,0.0
29,Move,"(0.041299999999999996, 0.0, 0.038200000000000005)","(0.0, 0.055869734685590484, 0.0)","(0.02512557115025752, 0.18539116369859165, 0.00125574099749894)","(1.574521433812072, 0.012268519353308865, -0.14749265128829311)","[0.024840627662243542, 0.014105897150234997, -0.0006110365280460617]","[-0.026750000193715096, 0.05299999937415123, 0.03999999910593033]","[0.0, -0.0, 0.18755084537827565]","[-0.040174633264541626, 0.1237373948097229, 0.03999999910593033]","[0.0, 0.0, -0.23454449868291252]","[0.026750000193715096, 0.05299999937415123, 0.03999999910593033]","[0.0, 0.0, -0.5975948618775561]","[0.0672612190246582, 0.11252177506685257, 0.03999999910593033]","[0.0, 0.0, -0.1690732459317157]",0.18369122043774275,-0.9263103507153919,"(0.0, 0.0, 0.0, 0.0, 0.0, 0.0)",-1.2168949433444725,-0.4219511729420427,0.03459612455353839,"(0.0, 0.0, 0.0, 0.0, 0.0, 0.0)",-0.723232554136676,-0.606652812762929,-2.1739092354995324,"(0.0, 0.0, 0.0, 0.0, 0.0, 0.0)",0.3540490421152052,0.4284216701891176,-0.02398889002526383,"(0.0, 0.0, 0.0, 0.0, 0.0, 0.0)",0.02659375571478489,True,"(-0.005710401925571151, 0.1948421765361933, 0.035776816096903565)","(0.989413145912243, -0.14432015897625144, -0.015274763798763639)",-0.000206929307780649,9.516538650118939,False,,,,
30,Move,"(0.041299999999999996, 0.0, 0.038200000000000005)","(0.0, 0.055869734685590484, 0.0)","(0.030699846404696925, 0.18514355280648187, 0.0011258812168897043)","(1.5642306603347913, -0.007262287594084482, -0.2152593270662084)","[0.030414902916682945, 0.013858286258125213, -0.0007408963086552973]","[-0.026750000193715096, 0.05299999937415123, 0.03999999910593033]","[0.0, -0.0, 0.13390352354096008]","[-0.03636226803064346, 0.12435548007488251, 0.03999999910593033]","[0.0, 0.0, -0.2593822126312941]","[0.026750000193715096, 0.05299999937415123, 0.03999999910593033]","[0.0, 0.0, -0.5632262515569936]","[0.06519201397895813, 0.11387865990400314, 0.03999999910593033]","[0.0, 0.0, -0.1624347139475349]",0.12232859368486729,-2.7779841970366888,"(0.0, 0.0, 0.0, 0.0, 0.0, 0.0)",-52.161793312920466,-0.37310971623631356,4.8422546598603,"(0.0, 0.0, 0.0, 0.0, 0.0, 0.0)",-26.0210739394855,-0.5503298909851355,3.0951203029936485,"(0.0, 0.0, 0.0, 0.0, 0.0, 0.0)",60.791956199019566,0.37580001287736026,-5.997959558791341,"(0.0, 0.0, 0.0, 0.0, 0.0, 0.0)",33.50171703061578,True,"(-0.00019307432942929081, 0.19437847494951802, 0.03522213258638728)","(0.9714211865555161, -0.23725082454167282, -0.00727492717278437)",-0.00017368462064287657,349.98096198241166,True,"(0.060950209288562145, 0.19308928495550337, 0.04215215026247955)","(-0.9714253062514316, 0.23723372728219877, 0.00728237695454264)",-0.0038683707378903364,418.408956615593
31,Move,"(0.0449, 0.0, 0.039200000000000006)","(0.0, 0.0774769108252803, 0.0)","(0.03428199079021776, 0.18639507443255995, 0.0009143079632546827)","(1.5688012789178372, 0.004433216083225585, -0.18353600481853696)","[0.03399704730220378, 0.015109807884203297, -0.000952469562290319]","[-0.026750000193715096, 0.05299999937415123, 0.03999999910593033]","[0.0, -0.0, 0.09534930890435231]","[-0.03360475227236748, 0.12467295676469803, 0.03999999910593033]","[0.0, 0.0, -0.2632708988601253]","[0.026750000193715096, 0.05299999937415123, 0.03999999910593033]","[0.0, 0.0, -0.5785272803042436]","[0.066118985414505, 0.11328335106372833, 0.03999999910593033]","[0.0, 0.0, -0.21855983979109536]",0.09086917148197032,-1.0752338376691624,"(0.0, 0.0, 0.0, 0.0, 0.0, 0.0)",-0.04164131636084375,-0.36005320411380626,-0.3439179655602626,"(0.0, 0.0, 0.0, 0.0, 0.0, 0.0)",-0.10628510149263043,-0.5892656814552106,-2.577203048643337,"(0.0, 0.0, 0.0, 0.0, 0.0, 0.0)",0.41478986053541717,0.36155075675055837,0.37998016338138374,"(0.0, 0.0, 0.0, 0.0, 0.0, 0.0)",0.026607867384574935,True,"(0.002878686983628892, 0.19471354541014538, 0.044217705145825535)","(0.9803945802027509, -0.19680067419899208, 0.009796006527858486)",-0.0001598746168380974,0.581418505684151,True,"(0.05686466922638757, 0.1500220760865213, 0.02899998189860127)","(-0.978365959497783, 0.20688172687890805, -1.948288682148915e-05)",-0.0025429373018197522,0.0
32,Move,"(0.0465, 0.0, 0.037)","(0.0, 0.09493892999148355, 0.0)","(0.03837807966171462, 0.1863835228217219, 0.0009293992122161968)","(1.570801330401129, 0.0038925478419134297, -0.1887312896190472)","[0.038093136173700644, 0.015098256273365251, -0.0009373783133288048]","[-0.026750000193715096, 0.05299999937415123, 0.03999999910593033]","[0.0, -0.0, 0.0687508690604098]","[-0.03169616311788559, 0.12482990324497223, 0.03999999910593033]","[0.0, 0.0, -0.29201897220474043]","[0.026750000193715096, 0.05299999937415123, 0.03999999910593033]","[0.0, 0.0, -0.6308476654004542]","[0.06921771913766861, 0.11114200204610825, 0.03999999910593033]","[0.0, 0.0, -0.268258119784634]",0.06388078055299258,-1.1688189511513967,"(0.0, 0.0, 0.0, 0.0, 0.0, 0.0)",0.09488383049617106,-0.36069570501653686,0.01779783954395004,"(0.0, 0.0, 0.0, 0.0, 0.0, 0.0)",-0.03636550283793216,-0.6394335580127903,-2.060619006193434,"(0.0, 0.0, 0.0, 0.0, 0.0, 0.0)",0.3356398802930554,0.36248565044503783,-0.024930498519453174,"(0.0, 0.0, 0.0, 0.0, 0.0, 0.0)",0.025239659270127238,True,"(0.0068891465890354026, 0.19415294027656935, 0.03784935303624708)","(0.9822709538106665, -0.18737771743988133, -0.0057761844589173895)",-0.0001395900845348132,0.6516457917881235,True,"(0.06233966860107506, 0.1502585615454942, 0.05100564422958894)","(-0.9642186893081788, 0.2650480356243314, 0.005644289193580543)",-0.001164659316334546,0.0
33,Move,"(0.048600000000000004, 0.0, 0.036000000000000004)","(0.0, 0.10813710979506469, 0.0)","(0.042767760779932266, 0.18574880699528296, 0.0007963635841686414)","(1.5678340585763366, 0.0005713427924436422, -0.1991666121098643)","[0.04248281729191829, 0.014463540446926298, -0.0010704139413763602]","[-0.026750000193715096, 0.05299999937415123, 0.03999999910593033]","[0.0, -0.0, 0.040439919915014014]","[-0.02966088056564331, 0.1249411329627037, 0.03999999910593033]","[0.0, 0.0, -0.3199549849885907]","[0.026750000193715096, 0.05299999937415123, 0.03999999910593033]","[0.0, 0.0, -0.6792365873790019]","[0.07198034226894379, 0.10901977866888046, 0.03999999910593033]","[0.0, 0.0, -0.3168195307054642]",0.03530825084413782,-1.2316003707007994,"(0.0, 0.0, 0.0, 0.0, 0.0, 0.0)",0.20058173276029126,-0.36042521913000714,-0.007276217553268309,"(0.0, 0.0, 0.0, 0.0, 0.0, 0.0)",0.015017388077714968,-0.6878650610819195,-2.070835605411836,"(0.0, 0.0, 0.0, 0.0, 0.0, 0.0)",0.33698314869966167,0.3624235211809197,0.0015512792488270811,"(0.0, 0.0, 0.0, 0.0, 0.0, 0.0)",0.025044844643006735,True,"(0.010845728797940178, 0.1931593408921558, 0.03784935303624708)","(0.9822709538106665, -0.18737771743988133, -0.0057761844589173895)",6.807214986991333e-08,0.0,True,"(0.06716316355911942, 0.1488937252684403, 0.05093551162667459)","(-0.9563360546958021, 0.29226851250946884, 0.0006834357105680858)",4.719428951657904e-05,0.0
34,Move,"(0.0506, 0.0, 0.0351)","(0.0, 0.12098273308974293, 0.0)","(0.04697576966479192, 0.18492372327479512, 0.0007718754532965441)","(1.5720889258380435, 0.0005291316199427521, -0.19607564334453595)","[0.046690826176777944, 0.013638456726438458, -0.0010949020722484577]","[-0.026750000193715096, 0.05299999937415123, 0.03999999910593033]","[0.0, -0.0, 0.010543410364781488]","[-0.027509111911058426, 0.12499599903821945, 0.03999999910593033]","[0.0, 0.0, -0.3496775470179093]","[0.026750000193715096, 0.05299999937415123, 0.03999999910593033]","[0.0, 0.0, -0.7268244165288679]","[0.07459399104118347, 0.106804758310318, 0.03999999910593033]","[0.0, 0.0, -0.36439637929577706]",0.005119242974928913,-1.301800070131392,"(0.0, 0.0, 0.0, 0.0, 0.0, 0.0)",-0.3051429836779312,-0.3602289999767189,-0.0019296193002586266,"(0.0, 0.0, 0.0, 0.0, 0.0, 0.0)",-0.2555371203224431,-0.735215648663476,-2.0138946096418713,"(0.0, 0.0, 0.0, 0.0, 0.0, 0.0)",0.32774290746318024,0.36242758004898773,-0.00010823648181457191,"(0.0, 0.0, 0.0, 0.0, 0.0, 0.0)",0.02437703730265286,True,"(0.015006928607784, 0.19198029096330005, 0.03784935303624708)","(0.9822709538106665, -0.18737771743988133, -0.0057761844589173895)",1.0829963144312864e-05,0.0,True,"(0.0721259522064521, 0.14803543624166562, 0.05093217784836661)","(-0.9343331712426435, 0.35639310452459705, 0.002340974793628246)",0.0006407465092216439,0.0
35,Move,"(0.0511, 0.0, 0.0354)","(0.0, 0.13771171397010862, 0.0)","(0.051277501240261696, 0.18394599493325983, 0.0006734318231991229)","(1.5695020216811286, 0.0015841387856844094, -0.19883577465995642)","[0.050992557752247716, 0.012660728384903175, -0.0011933457023458787]","[-0.026750000193715096, 0.05299999937415123, 0.03999999910593033]","[0.0, 0.0, -0.01931533279203455]","[-0.02535938285291195, 0.12498656660318375, 0.03999999910593033]","[0.0, 0.0, -0.3793295817767662]","[0.026750000193715096, 0.05299999937415123, 0.03999999910593033]","[0.0, 0.0, -0.7725956110077783]","[0.07700573652982712, 0.10455930233001709, 0.03999999910593033]","[0.0, 0.0, -0.4101691179254356]",-0.024579905369849664,-1.263498033773895,"(0.0, 0.0, 0.0, 0.0, 0.0, 0.0)",0.20574693063728527,-0.3600359571024592,-0.005212590817157581,"(0.0, 0.0, 0.0, 0.0, 0.0, 0.0)",0.015378281085849772,-0.7806193817889011,-1.9257112225176956,"(0.0, 0.0, 0.0, 0.0, 0.0, 0.0)",0.31340351496485624,0.3624262095171393,-6.166303878151922e-05,"(0.0, 0.0, 0.0, 0.0, 0.0, 0.0)",0.023314140240950187,True,"(0.019123896207503585, 0.19068091506574314, 0.03784935303624708)","(0.9822709538106665, -0.18737771743988133, -0.0057761844589173895)",9.027988190670215e-05,0.0,True,"(0.07649383509091588, 0.14601375651610835, 0.050929917027907355)","(-0.9313141704632812, 0.36421608449017184, 0.0007481262850575489)",0.00129423148756261,0.0
36,Move,"(0.051000000000000004, 0.0, 0.0348)","(0.0, 0.13771171397010862, 0.0)","(0.054900906584505, 0.18304972195885086, 0.0007766916889071294)","(1.5708661756176294, 0.0018163269797311038, -0.1941375878647901)","[0.05461596309649102, 0.011764455410494201, -0.0010900858366378722]","[-0.026750000193715096, 0.05299999937415123, 0.03999999910593033]","[0.0, 0.0, -0.0471087196622136]","[-0.023359427228569984, 0.12492012232542038, 0.03999999910593033]","[0.0, 0.0, -0.4069566163341207]","[0.026750000193715096, 0.05299999937415123, 0.03999999910593033]","[0.0, 0.0, -0.8156136144016961]","[0.07917653024196625, 0.10235036909580231, 0.03999999910593033]","[0.0, 0.0, -0.4531875185293015]",-0.051899112545125255,-1.1496957548477005,"(0.0, 0.0, 0.0, 0.0, 0.0, 0.0)",-0.07354732572047187,-0.35986137583355327,-0.003222703104095854,"(0.0, 0.0, 0.0, 0.0, 0.0, 0.0)",-0.1192971602088501,-0.823084552933424,-1.7930349550310736,"(0.0, 0.0, 0.0, 0.0, 0.0, 0.0)",0.2918243790728191,0.36242608188955305,3.40340229865177e-06,"(0.0, 0.0, 0.0, 0.0, 0.0, 0.0)",0.021711379430499406,True,"(0.022990661365276263, 0.18956384835649853, 0.039996830907388814)","(0.9810433916937272, -0.1937622782331211, -0.0031690926111809866)",-1.017464054298382e-05,1.796551367290691,False,,,,
37,Move,"(0.051000000000000004, 0.0, 0.0348)","(0.0, 0.13771171397010862, 0.0)","(0.060954907797280806, 0.18536954335093578, 0.0009218241182659028)","(1.5491293641977066, -0.003880815598948247, -0.37745982942779555)","[0.06066996430926683, 0.014084276802579121, -0.0009449534072790988]","[-0.026750000193715096, 0.05299999937415123, 0.03999999910593033]","[0.0, 0.0, -0.10044881355624784]","[-0.01952984184026718, 0.12463706731796265, 0.03999999910593033]","[0.0, 0.0, -0.4142253124902232]","[0.026750000193715096, 0.05299999937415123, 0.03999999910593033]","[0.0, 0.0, -0.7801572163084894]","[0.07739416509866714, 0.1041778102517128, 0.03999999910593033]","[0.0, 0.0, -0.4379783630609657]",-0.11226698289323678,-2.836359307204772,"(0.0, 0.0, 0.0, 0.0, 0.0, 0.0)",-44.256520731579336,-0.2991803668656421,3.5030781468979715,"(0.0, 0.0, 0.0, 0.0, 0.0, 0.0)",-24.524813876160195,-0.7668674734753733,3.18954430616447,"(0.0, 0.0, 0.0, 0.0, 0.0, 0.0)",28.07530675010547,0.3365654692600919,-1.3472186014664602,"(0.0, 0.0, 0.0, 0.0, 0.0, 0.0)",9.35795206708538,True,"(0.027263695876936007, 0.18884459367170642, 0.03999691518352237)","(0.9544115443932906, -0.2984779520100493, -0.003084816477631834)",-2.1902859039874006e-05,300.233475030493,True,"(0.07859987927009282, 0.14683638722600417, 0.051000519810342516)","(-0.9056107871692477, 0.42410945767788605, 0.0005196834273758389)",-0.002410485259620708,262.93782607347987
38,Move,"(0.0513, 0.0, 0.0348)","(0.0, 0.1337009473490256, 0.0)","(0.06892406089090232, 0.1873136009220022, 0.0019279318815176088)","(1.5992539872092233, 0.0001991094156590244, -0.48631588386962654)","[0.06863911740288835, 0.016028334373645536, 6.115435597260719e-05]","[-0.026750000193715096, 0.05299999937415123, 0.03999999910593033]","[0.0, 0.0, -0.1496634257391413]","[-0.01601441577076912, 0.12419513612985611, 0.03999999910593033]","[0.0, 0.0, -0.43064860849702313]","[0.026750000193715096, 0.05299999937415123, 0.03999999910593033]","[0.0, 0.0, -0.7897009810279824]","[0.07788027822971344, 0.10369215160608292, 0.03999999910593033]","[0.0, 0.0, -0.46217250508539937]",-0.15684357618506162,-1.7232366608206406,"(0.0, 0.0, 0.0, 0.0, 0.0, 0.0)",-6.783202577832901,-0.27968457317125206,0.3121545989721579,"(0.0, 0.0, 0.0, 0.0, 0.0, 0.0)",-3.527871942530622,-0.7990316713197126,-2.2393648381668894,"(0.0, 0.0, 0.0, 0.0, 0.0, 0.0)",6.451686220468416,0.32644368065812274,-0.26034952466606565,"(0.0, 0.0, 0.0, 0.0, 0.0, 0.0)",2.2859723422759335,True,"(0.025503168881401382, 0.17384495580013243, 0.029127759266702646)","(0.9086966621863916, -0.41745375052911615, -0.001655989276974576)",-0.000781181815958023,53.134831775125214,True,"(0.0801176278821607, 0.14630907595360565, 0.051000519810342516)","(-0.9056107871692477, 0.42410945767788605, 0.0005196834273758389)",-0.001969130779141347,25.14212286297471
39,Move,"(0.047799999999999995, 0.0, 0.0354)","(0.0, 0.14764089208470438, 0.0)","(0.07447470790215464, 0.18589166281318165, 0.0029017129635092406)","(1.6311246898706113, -0.0015912127466207095, -0.5022403876968603)","[0.07418976441414067, 0.014606396264824989, 0.001034935437964239]","[-0.026750000193715096, 0.05299999937415123, 0.03999999910593033]","[0.0, 0.0, -0.1957550138184005]","[-0.01274548564106226, 0.12362487614154816, 0.03999999910593033]","[0.0, 0.0, -0.45570356217934904]","[0.026750000193715096, 0.05299999937415123, 0.03999999910593033]","[0.0, 0.0, -0.834348516329976]","[0.08009184896945953, 0.10135955363512039, 0.03999999910593033]","[0.0, 0.0, -0.5213191037952524]",-0.20449486017230856,-2.097572888774305,"(0.0, 0.0, 0.0, 0.0, 0.0, 0.0)",-16.617344844539012,-0.2551257847513607,1.1574807797611368,"(0.0, 0.0, 0.0, 0.0, 0.0, 0.0)",-8.012835839744223,-0.841571799533682,-1.7335979987803536,"(0.0, 0.0, 0.0, 0.0, 0.0, 0.0)",15.157806010295639,0.3094775095899977,-0.8524699447347491,"(0.0, 0.0, 0.0, 0.0, 0.0, 0.0)",6.012061064943295,True,"(0.030002912888917075, 0.17221900472550644, 0.029127759266702646)","(0.9086966621863916, -0.41745375052911615, -0.001655989276974576)",-0.00043845608879387616,125.3955082744761,True,"(0.10395388392722614, 0.17704295874037063, 0.040000198920962585)","(-0.8840606897742354, 0.4673720757077207, 0.00019910941629719886)",-0.0008337456265974745,16.51093625594279
40,Move,"(0.050100000000000006, 0.0, 0.0343)","(0.0, 0.16809615091807786, 0.0)","(0.07918383137935557, 0.1832876879715219, 0.00249654216307492)","(1.6188556109843995, -0.0014362947148274126, -0.5154497171227207)","[0.0788988878913416, 0.012002421423165238, 0.0006297646375299183]","[-0.026750000193715096, 0.05299999937415123, 0.03999999910593033]","[0.0, 0.0, -0.2469097672246806]","[-0.009152579121291637, 0.12281640619039536, 0.03999999910593033]","[0.0, 0.0, -0.47582212047657807]","[0.026750000193715096, 0.05299999937415123, 0.03999999910593033]","[0.0, 0.0, -0.8737056463484786]","[0.08195334672927856, 0.09922326356172562, 0.03999999910593033]","[0.0, 0.0, -0.580537979377711]",-0.25620203051690127,-2.23014338346846,"(0.0, 0.0, 0.0, 0.0, 0.0, 0.0)",-20.81599732000138,-0.22300801229270725,1.4170489693478159,"(0.0, 0.0, 0.0, 0.0, 0.0, 0.0)",-10.08950663173331,-0.8805855793839087,-1.6511824159442086,"(0.0, 0.0, 0.0, 0.0, 0.0, 0.0)",17.093683743513452,0.2896839887582928,-0.8360778862961944,"(0.0, 0.0, 0.0, 0.0, 0.0, 0.0)",6.221205812738347,True,"(0.03456474550798385, 0.17054072115065505, 0.029127759266702646)","(0.9086966621863916, -0.41745375052911615, -0.001655989276974576)",-0.00028354659614293664,158.26254140925042,True,"(0.11025282835035086, 0.173361738818335, 0.040000198920962585)","(-0.8840606897742354, 0.4673720757077207, 0.00019910941629719886)",0.0010012953253789258,0.0
41,Move,"(0.0517, 0.0, 0.034100000000000005)","(0.0, 0.15163595074251932, 0.0)","(0.08335028025456477, 0.17944578161970123, 0.0011043696940402177)","(1.571472387696409, -0.005203554204085712, -0.5354296781463358)","[0.0830653367665508, 0.008160515071344576, -0.000762407831504784]","[-0.026750000193715096, 0.05299999937415123, 0.03999999910593033]","[0.0, 0.0, -0.29840420738744294]","[-0.00558233680203557, 0.12181809544563293, 0.03999999910593033]","[0.0, 0.0, -0.4928794557489607]","[0.026750000193715096, 0.05299999937415123, 0.03999999910593033]","[0.0, 0.0, -0.910990357810908]","[0.08363800495862961, 0.09713337570428848, 0.03999999910593033]","[0.0, 0.0, -0.6378815853689893]",-0.30748167837462137,-2.1785898178413055,"(0.0, 0.0, 0.0, 0.0, 0.0, 0.0)",-23.153212456281892,-0.1878788945848598,1.5831351744995867,"(0.0, 0.0, 0.0, 0.0, 0.0, 0.0)",-11.145801348615327,-0.9175328438626096,-1.5702101902875658,"(0.0, 0.0, 0.0, 0.0, 0.0, 0.0)",18.013800029403864,0.26923357192379227,-0.9300484196705459,"(0.0, 0.0, 0.0, 0.0, 0.0, 0.0)",6.573857097503827,True,"(0.03894264021534486, 0.16878979840514893, 0.029127759266702646)","(0.9086966621863916, -0.41745375052911615, -0.001655989276974576)",-0.00012347044287830305,166.4270902805968,True,"(0.09252992889796793, 0.13767681598333573, 0.05093074752265699)","(-0.8173412290538514, 0.5761511053550198, 0.001794181409052598)",-0.0016648606906133707,133.12658929050724
42,Move,"(0.0529, 0.0, 0.033)","(0.0, 0.16895659823931114, 0.0)","(0.08793892904614077, 0.17667881860811216, 0.0009242244343079672)","(1.563625973464672, -0.008152170504109829, -0.5510990619401799)","[0.0876539855581268, 0.005393552059755502, -0.0009425530912370345]","[-0.026750000193715096, 0.05299999937415123, 0.03999999910593033]","[0.0, 0.0, -0.3514680648910984]","[-0.001962091773748398, 0.12059851735830307, 0.03999999910593033]","[0.0, 0.0, -0.5055286579670943]","[0.026750000193715096, 0.05299999937415123, 0.03999999910593033]","[0.0, 0.0, -0.9458849595100699]","[0.085143081843853, 0.0951218232512474, 0.03999999910593033]","[0.0, 0.0, -0.6969365449458886]",-0.3611164261308062,-2.3156054745056474,"(0.0, 0.0, 0.0, 0.0, 0.0, 0.0)",-26.5431679676525,-0.14657101578990686,1.7974963860951039,"(0.0, 0.0, 0.0, 0.0, 0.0, 0.0)",-12.68377741682451,-0.9519634652104474,-1.4588322781464504,"(0.0, 0.0, 0.0, 0.0, 0.0, 0.0)",21.557152070171423,0.24411598297490883,-1.1597863627052163,"(0.0, 0.0, 0.0, 0.0, 0.0, 0.0)",8.064057519790948,True,"(0.043153458942842324, 0.16700327701632273, 0.029127759266702646)","(0.9086966621863916, -0.41745375052911615, -0.001655989276974576)",0.00011479422126466383,160.87739465653604,True,"(0.09641240839746092, 0.13506977773900342, 0.05093074752265699)","(-0.8173412290538514, 0.5761511053550198, 0.001794181409052598)",-0.0016515405523910315,176.36360574127306
43,Move,"(0.0494, 0.0, 0.035)","(0.0, 0.1603032558079232, 0.0)","(0.09223427807029891, 0.17431871011263977, 0.001062456088384391)","(1.5676543017516393, -0.009308604038884028, -0.5646433848865006)","[0.09194933458228494, 0.003033443564283117, -0.0008043214371606106]","[-0.026750000193715096, 0.05299999937415123, 0.03999999910593033]","[0.0, 0.0, -0.4031009916870243]","[0.001493629883043468, 0.11922913044691086, 0.03999999910593033]","[0.0, 0.0, -0.5170306291024821]","[0.026750000193715096, 0.05299999937415123, 0.03999999910593033]","[0.0, 0.0, -0.9778487061395937]","[0.08645939081907272, 0.09323416650295258, 0.03999999910593033]","[0.0, 0.0, -0.7545559258480249]",-0.4120627782327889,-2.1508368871627246,"(0.0, 0.0, 0.0, 0.0, 0.0, 0.0)",-24.702154185377896,-0.1070253608902325,1.6570389493704172,"(0.0, 0.0, 0.0, 0.0, 0.0, 0.0)",-11.830321814135212,-0.9833328443529726,-1.3161914748558934,"(0.0, 0.0, 0.0, 0.0, 0.0, 0.0)",20.31561299966442,0.21888409658137473,-1.0580997150644957,"(0.0, 0.0, 0.0, 0.0, 0.0, 0.0)",7.671412988716649,True,"(0.0471399318317943, 0.16511191016456334, 0.029127759266702646)","(0.9086966621863916, -0.41745375052911615, -0.001655989276974576)",0.0002961980778564675,113.60771541675172,True,"(0.1000105199006849, 0.13246685359696225, 0.05093074752265699)","(-0.8173412290538514, 0.5761511053550198, 0.001794181409052598)",-0.001732704483553322,166.96081962642162
44,Move,"(0.0526, 0.0, 0.0335)","(0.0, 0.17193762060171738, 0.0)","(0.09636806788716556, 0.1717863456551132, 0.00116414498418515)","(1.5700465394746497, -0.010105717056139532, -0.5776959671385585)","[0.09608312439915159, 0.0005010791067565357, -0.0007026325413598516]","[-0.026750000193715096, 0.05299999937415123, 0.03999999910593033]","[0.0, 0.0, -0.4558518783119405]","[0.004946370609104633, 0.11764781922101974, 0.03999999910593033]","[0.0, 0.0, -0.526620604705231]","[0.026750000193715096, 0.05299999937415123, 0.03999999910593033]","[0.0, 0.0, -1.0075911449796513]","[0.08762947469949722, 0.09144072979688644, 0.03999999910593033]","[0.0, 0.0, -0.8119674877500298]",-0.4654633427176581,-2.3067506131597098,"(0.0, 0.0, 0.0, 0.0, 0.0, 0.0)",-28.458278714050962,-0.06269878330574877,1.9367835399311635,"(0.0, 0.0, 0.0, 0.0, 0.0, 0.0)",-13.58426527521844,-1.012787355666867,-1.2470817068321596,"(0.0, 0.0, 0.0, 0.0, 0.0, 0.0)",23.286483228524343,0.19043204316042353,-1.245994164066475,"(0.0, 0.0, 0.0, 0.0, 0.0, 0.0)",8.88762840366966,True,"(0.05103058020056275, 0.16309074943411084, 0.029127759266702646)","(0.9086966621863916, -0.41745375052911615, -0.001655989276974576)",0.000343442400644286,131.1631029268787,True,"(0.10340944744822969, 0.1298312116151451, 0.05093074752265699)","(-0.8173412290538514, 0.5761511053550198, 0.001794181409052598)",-0.0018365196502342675,190.46399577601753
45,Move,"(0.0526, 0.0, 0.0335)","(0.0, 0.17193762060171738, 0.0)","(0.10021582463605569, 0.16920901175923292, 0.0012320367672393243)","(1.5716218877968147, -0.010658406370761667, -0.5900108952465408)","[0.09993088114804172, -0.002076254789123738, -0.0006347407583056773]","[-0.026750000193715096, 0.05299999937415123, 0.03999999910593033]","[0.0, 0.0, -0.5093715939896258]","[0.008359266445040703, 0.11585967987775803, 0.03999999910593033]","[0.0, 0.0, -0.5334819084609276]","[0.026750000193715096, 0.05299999937415123, 0.03999999910593033]","[0.0, 0.0, -1.035168132825009]","[0.08866626769304276, 0.08974745869636536, 0.03999999910593033]","[0.0, 0.0, -0.8694172639150994]",-0.5188430778675884,-2.2731580061827983,"(0.0, 0.0, 0.0, 0.0, 0.0, 0.0)",-30.443537497937097,-0.01554763409341235,2.0550427143772043,"(0.0, 0.0, 0.0, 0.0, 0.0, 0.0)",-14.44313439087469,-1.0399142352922477,-1.1390624237755014,"(0.0, 0.0, 0.0, 0.0, 0.0, 0.0)",23.47748494677075,0.16044144404685579,-1.2742583941230126,"(0.0, 0.0, 0.0, 0.0, 0.0, 0.0)",9.066483934785605,True,"(0.054754187101638735, 0.1609853487652571, 0.029127759266702646)","(0.9086966621863916, -0.41745375052911615, -0.001655989276974576)",0.00036943113816255717,139.0152389789218,True,"(0.10662452250276136, 0.12716854395849098, 0.05093074752265699)","(-0.8173412290538514, 0.5761511053550198, 0.001794181409052598)",-0.001956180250913097,193.30967744079283
46,Move,"(0.052700000000000004, 0.0, 0.0335)","(0.0, 0.16421802932014654, 0.0)","(0.10368162749054154, 0.1665881183633715, 0.0012141891139063165)","(1.571042142843527, -0.010741077754397059, -0.6011240856391226)","[0.10339668400252756, -0.00469714818498515, -0.0006525884116386851]","[-0.026750000193715096, 0.05299999937415123, 0.03999999910593033]","[0.0, 0.0, -0.5618560796012293]","[0.011608559638261795, 0.11393128335475922, 0.03999999910593033]","[0.0, 0.0, -0.5373709518286769]","[0.026750000193715096, 0.05299999937415123, 0.03999999910593033]","[0.0, 0.0, -1.060464873329951]","[0.08957595378160477, 0.08816958963871002, 0.03999999910593033]","[0.0, 0.0, -0.9249399991998951]",-0.5711322000156154,-2.22629393648962,"(0.0, 0.0, 0.0, 0.0, 0.0, 0.0)",-31.226722796965824,0.033210253687424376,2.0940529651356523,"(0.0, 0.0, 0.0, 0.0, 0.0, 0.0)",-14.805773544266394,-1.0648429007370626,-1.050730105879695,"(0.0, 0.0, 0.0, 0.0, 0.0, 0.0)",23.936842924874153,0.13010157662876984,-1.3016120573386578,"(0.0, 0.0, 0.0, 0.0, 0.0, 0.0)",9.278339379280567,True,"(0.05817862390134892, 0.15887617640720159, 0.029127759266702646)","(0.9086966621863916, -0.41745375052911615, -0.001655989276974576)",0.00038175027792700556,144.08752492679932,True,"(0.10958317928345584, 0.12453643333048135, 0.05093074752265699)","(-0.8173412290538514, 0.5761511053550198, 0.001794181409052598)",-0.0020570463128645597,195.43770214166486
