OSUrobotics/InHand-Manipulation/AnalyseData/Data/Trial Data/Better/new_hand_expected_exp_2v2_f_n_1_kpNone_kdNone_dp5_step5_save_data.csv
,Phase,human_cube_pos,human_cube_orn,Cube_Pos,Cube_Orn,Cube_pos_in_start_pos,b'l_prox_pin'_link_pos,b'l_prox_pin'_link_orn,b'l_distal_pin'_link_pos,b'l_distal_pin'_link_orn,b'r_prox_pin'_link_pos,b'r_prox_pin'_link_orn,b'r_distal_pin'_link_pos,b'r_distal_pin'_link_orn,b'l_prox_pin'_joint_angle,b'l_prox_pin'_joint_vel,b'l_prox_pin'_joint_react_forces,b'l_prox_pin'_joint_motor_torque,b'l_distal_pin'_joint_angle,b'l_distal_pin'_joint_vel,b'l_distal_pin'_joint_react_forces,b'l_distal_pin'_joint_motor_torque,b'r_prox_pin'_joint_angle,b'r_prox_pin'_joint_vel,b'r_prox_pin'_joint_react_forces,b'r_prox_pin'_joint_motor_torque,b'r_distal_pin'_joint_angle,b'r_distal_pin'_joint_vel,b'r_distal_pin'_joint_react_forces,b'r_distal_pin'_joint_motor_torque,in_contact_l,contact_point_l_dist,contact_normal_l_dist,contact_distance_l_dist,contact_norm_force_l_dist,in_contact_r,contact_point_r_dist,contact_normal_r_dist,contact_distance_r_dist,contact_norm_force_r_dist
0,Open,,,,,,"[-0.026750000193715096, 0.05299999937415123, 0.03999999910593033]","[0.0, -0.0, 0.42755761853039154]","[-0.056604765355587006, 0.1185186430811882, 0.03999999910593033]","[0.0, -0.0, 0.4463066270391506]","[0.026750000193715096, 0.05299999937415123, 0.03999999910593033]","[0.0, 0.0, -0.42757404208311445]","[0.05660583823919296, 0.1185181587934494, 0.03999999910593033]","[0.0, 0.0, -0.4465272228574986]",0.5418018724257314,27.418616735313837,"(0.0, 0.0, 0.0, 0.0, 0.0, 0.0)",-4.412236817968903,0.016874447698417276,-0.44988750389777044,"(0.0, 0.0, 0.0, 0.0, 0.0, 0.0)",-0.3112578673856835,-0.5418166170859073,-27.418223544375806,"(0.0, 0.0, 0.0, 0.0, 0.0, 0.0)",4.412120589674461,-0.017058187988154127,0.4547872631353701,"(0.0, 0.0, 0.0, 0.0, 0.0, 0.0)",0.31119999541872967,False,,,,,False,,,,
1,Open,,,,,,"[-0.026750000193715096, 0.05299999937415123, 0.03999999910593033]","[0.0, -0.0, 0.8953992050914552]","[-0.08294302970170975, 0.09801492840051651, 0.03999999910593033]","[0.0, -0.0, 0.9064715399310761]","[0.026750000193715096, 0.05299999937415123, 0.03999999910593033]","[0.0, 0.0, -0.8954089117450801]","[0.08294346183538437, 0.09801438450813293, 0.03999999910593033]","[0.0, 0.0, -0.9066016844299951]",0.9628592876486701,16.190418996035465,"(0.0, 0.0, 0.0, 0.0, 0.0, 0.0)",-2.616982039675733,0.009965290062605858,-0.26568209241480656,"(0.0, 0.0, 0.0, 0.0, 0.0, 0.0)",-0.18775783729375353,-0.9628679942230576,-16.190186820718473,"(0.0, 0.0, 0.0, 0.0, 0.0, 0.0)",2.6169116334278195,-0.010073786659150813,0.26857534621184953,"(0.0, 0.0, 0.0, 0.0, 0.0, 0.0)",0.187722108909745,False,,,,,False,,,,
2,Open,,,,,,"[-0.026750000193715096, 0.05299999937415123, 0.03999999910593033]","[0.0, -0.0, 1.17165497759142]","[-0.09309044480323792, 0.08098116517066956, 0.03999999910593033]","[0.0, -0.0, 1.1781937273122836]","[0.026750000193715096, 0.05299999937415123, 0.03999999910593033]","[0.0, 0.0, -1.1716605985979762]","[0.09309060126543045, 0.08098078519105911, 0.03999999910593033]","[0.0, 0.0, -1.178270796658152]",1.2114894807636634,9.56028051296898,"(0.0, 0.0, 0.0, 0.0, 0.0, 0.0)",-1.549346412635057,0.005885062316220725,-0.15689973638119079,"(0.0, 0.0, 0.0, 0.0, 0.0, 0.0)",-0.11225090666269867,-1.2114946219087734,-9.560143415766044,"(0.0, 0.0, 0.0, 0.0, 0.0, 0.0)",1.5493042197033076,-0.00594912834521185,0.1586081706180975,"(0.0, 0.0, 0.0, 0.0, 0.0, 0.0)",0.11222926703597672,False,,,,,False,,,,
3,Open,,,,,,"[-0.026750000193715096, 0.05299999937415123, 0.03999999910593033]","[0.0, -0.0, 1.3347813147466918]","[-0.09675397723913193, 0.06983575969934464, 0.03999999910593033]","[0.0, -0.0, 1.3386449621367835]","[0.026750000193715096, 0.05299999937415123, 0.03999999910593033]","[0.0, 0.0, -1.3347844615433213]","[0.0967540368437767, 0.06983552873134613, 0.03999999910593033]","[0.0, 0.0, -1.3386905382854437]",1.3583031234961356,5.645250040103052,"(0.0, 0.0, 0.0, 0.0, 0.0, 0.0)",-0.9162890978823036,0.0034783869891320215,-0.09247571818598516,"(0.0, 0.0, 0.0, 0.0, 0.0, 0.0)",-0.06677007440367574,-1.3583061592909116,-5.645169085575695,"(0.0, 0.0, 0.0, 0.0, 0.0, 0.0)",0.9162639666346021,-0.003516216695348753,0.09348456497972772,"(0.0, 0.0, 0.0, 0.0, 0.0, 0.0)",0.06675710630673855,False,,,,,False,,,,
4,Open,,,,,,"[-0.026750000193715096, 0.05299999937415123, 0.03999999910593033]","[0.0, -0.0, 1.4311058207082674]","[-0.09804865717887878, 0.06302504986524582, 0.03999999910593033]","[0.0, -0.0, 1.433390691262394]","[0.026750000193715096, 0.05299999937415123, 0.03999999910593033]","[0.0, 0.0, -1.4311075924426346]","[0.09804867953062057, 0.06302490830421448, 0.03999999910593033]","[0.0, 0.0, -1.433417470845748]",1.4449951113932331,3.333463696180452,"(0.0, 0.0, 0.0, 0.0, 0.0, 0.0)",-0.5415503506795546,0.0020570753203455715,-0.05468855210882702,"(0.0, 0.0, 0.0, 0.0, 0.0, 0.0)",-0.039594115216637325,-1.4449969039996904,-3.3334158933415914,"(0.0, 0.0, 0.0, 0.0, 0.0, 0.0)",0.541535435877482,-0.002079412775410495,0.055284250111531166,"(0.0, 0.0, 0.0, 0.0, 0.0, 0.0)",0.03958639191865308,False,,,,,False,,,,
5,Open,,,,,,"[-0.026750000193715096, 0.05299999937415123, 0.03999999910593033]","[0.0, -0.0, 1.4879842849605203]","[-0.09850326180458069, 0.05895565450191498, 0.03999999910593033]","[0.0, -0.0, 1.4893357278409396]","[0.026750000193715096, 0.05299999937415123, 0.03999999910593033]","[0.0, 0.0, -1.4879853833286059]","[0.09850326925516129, 0.05895556882023811, 0.03999999910593033]","[0.0, 0.0, -1.4893513332680077]",1.4961858633265903,1.9683769779575933,"(0.0, 0.0, 0.0, 0.0, 0.0, 0.0)",-0.31995094896823073,0.0012165319928285922,-0.03234212113369103,"(0.0, 0.0, 0.0, 0.0, 0.0, 0.0)",-0.02343792779000599,-1.4961869218427772,-1.9683487508592754,"(0.0, 0.0, 0.0, 0.0, 0.0, 0.0)",0.31994211580738524,-0.0012297216752996233,0.03269386530715718,"(0.0, 0.0, 0.0, 0.0, 0.0, 0.0)",0.02343334437795369,False,,,,,False,,,,
6,Open,,,,,,"[-0.026750000193715096, 0.05299999937415123, 0.03999999910593033]","[0.0, -0.0, 1.5215704989376362]","[-0.09866278618574142, 0.05654282495379448, 0.03999999910593033]","[0.0, -0.0, 1.522369838325666]","[0.026750000193715096, 0.05299999937415123, 0.03999999910593033]","[0.0, 0.0, -1.5215710825913402]","[0.09866278618574142, 0.0565427765250206, 0.03999999910593033]","[0.0, 0.0, -1.522379029767931]",1.5264134904357183,1.1623069217141797,"(0.0, 0.0, 0.0, 0.0, 0.0, 0.0)",-0.18898727227709852,0.000719444125508032,-0.019126791845346432,"(0.0, 0.0, 0.0, 0.0, 0.0, 0.0)",-0.013859938289241243,-1.5264141154789415,-1.162290253894895,"(0.0, 0.0, 0.0, 0.0, 0.0, 0.0)",0.18898204730565804,-0.0007272322869396521,0.019334487584604668,"(0.0, 0.0, 0.0, 0.0, 0.0, 0.0)",0.013857223880827028,False,,,,,False,,,,
7,Close,,,"(1.2478112216283415e-07, 0.16999960627914334, 0.0003375139776509844)","(1.5703757789650807, 0.0001088681168706304, -5.122612185789874e-06)",,"[-0.026750000193715096, 0.05299999937415123, 0.03999999910593033]","[0.0, -0.0, 1.2785329680082034]","[-0.09569678455591202, 0.07374466955661774, 0.03999999910593033]","[0.0, -0.0, 1.0351044933740032]","[0.026750000193715096, 0.05299999937415123, 0.03999999910593033]","[0.0, 0.0, -1.2785333261376617]","[0.09569679200649261, 0.07374463975429535, 0.03999999910593033]","[0.0, 0.0, -1.0351099865887758]",1.2106796019673873,-16.28478938579699,"(0.0, 0.0, 0.0, 0.0, 0.0, 0.0)",2.809472854136235,-0.3090860149933808,-15.757821278062295,"(0.0, 0.0, 0.0, 0.0, 0.0, 0.0)",0.3661538009495806,-1.2106799710491603,16.284799227977608,"(0.0, 0.0, 0.0, 0.0, 0.0, 0.0)",-2.8094757422584213,0.30908141619234186,15.75794391320213,"(0.0, 0.0, 0.0, 0.0, 0.0, 0.0)",-0.3661552191151056,False,,,,,False,,,,
8,Close,,,"(3.0991841452431125e-07, 0.1699991530873768, 0.0005600347089338349)","(1.5707725584893357, 0.0003276471180493337, -1.5390016504502985e-05)",,"[-0.026750000193715096, 0.05299999937415123, 0.03999999910593033]","[0.0, -0.0, 1.0006670909649218]","[-0.08736184239387512, 0.09186135232448578, 0.03999999910593033]","[0.0, -0.0, 0.48836557737534114]","[0.026750000193715096, 0.05299999937415123, 0.03999999910593033]","[0.0, 0.0, -1.0006671906734346]","[0.08736184984445572, 0.09186133742332458, 0.03999999910593033]","[0.0, 0.0, -0.4883688154364048]",0.9606001981650306,-9.616005284561718,"(0.0, 0.0, 0.0, 0.0, 0.0, 0.0)",1.667253264949997,-0.5510712009946406,-9.304767973476249,"(0.0, 0.0, 0.0, 0.0, 0.0, 0.0)",0.2218037572572205,-0.9606004161041268,9.616011096270952,"(0.0, 0.0, 0.0, 0.0, 0.0, 0.0)",-1.6672550198735234,0.5510684854486152,9.30484038803693,"(0.0, 0.0, 0.0, 0.0, 0.0, 0.0)",-0.22180464092959223,False,,,,,False,,,,
9,Close,,,"(2.933853975158492e-07, 0.16999904048792538, 0.0007066062154399696)","(1.5708337628024795, 0.00026866528465535426, -1.404448202163588e-05)",,"[-0.026750000193715096, 0.05299999937415123, 0.03999999910593033]","[0.0, -0.0, 0.8365897781630613]","[-0.08020010590553284, 0.1012398824095726, 0.03999999910593033]","[0.0, -0.0, 0.16552144688028117]","[0.026750000193715096, 0.05299999937415123, 0.03999999910593033]","[0.0, 0.0, -0.8365899294750984]","[0.08020011335611343, 0.101239874958992, 0.03999999910593033]","[0.0, 0.0, -0.1655233971102189]",0.8129308110141114,-5.678154960376304,"(0.0, 0.0, 0.0, 0.0, 0.0, 0.0)",0.9873874064507416,-0.6939616573792659,-5.494397555666588,"(0.0, 0.0, 0.0, 0.0, 0.0, 0.0)",0.13292457281458034,-0.8129309397049683,5.678158392132489,"(0.0, 0.0, 0.0, 0.0, 0.0, 0.0)",-0.987388459985631,0.6939600538790082,5.494440315842426,"(0.0, 0.0, 0.0, 0.0, 0.0, 0.0)",-0.13292511074891808,False,,,,,False,,,,
10,Close,,,"(1.9902477861274505e-07, 0.16999905216518962, 0.0008031506137060285)","(1.5708213694470277, 0.0001751880104672085, -1.4031272711042213e-05)",,"[-0.026750000193715096, 0.05299999937415123, 0.03999999910593033]","[0.0, -0.0, 0.7397039398326887]","[-0.075282983481884, 0.10618411004543304, 0.03999999910593033]","[0.0, 0.0, -0.025114755601520013]","[0.026750000193715096, 0.05299999937415123, 0.03999999910593033]","[0.0, 0.0, -0.7397039829241547]","[0.0752829909324646, 0.10618410259485245, 0.03999999910593033]","[0.0, -0.0, 0.025113617980755978]",0.7257335145957226,-3.3528937225526034,"(0.0, 0.0, 0.0, 0.0, 0.0, 0.0)",0.5840196078844049,-0.7783380408184963,-3.244652289205478,"(0.0, 0.0, 0.0, 0.0, 0.0, 0.0)",0.07914031685893824,-0.7257335905863868,3.3528957489703144,"(0.0, 0.0, 0.0, 0.0, 0.0, 0.0)",-0.5840202358821991,0.778337093974245,3.2446775397467595,"(0.0, 0.0, 0.0, 0.0, 0.0, 0.0)",-0.07914064000385382,False,,,,,False,,,,
11,Close,,,"(1.3069317882946781e-07, 0.16999905849316785, 0.0008666025578373041)","(1.570813038524343, 0.0001076496945073061, -1.4014808324094979e-05)",,"[-0.026750000193715096, 0.05299999937415123, 0.03999999910593033]","[0.0, -0.0, 0.6824937890365349]","[-0.07216256856918335, 0.10887216031551361, 0.03999999910593033]","[0.0, 0.0, -0.137687120736303]","[0.026750000193715096, 0.05299999937415123, 0.03999999910593033]","[0.0, 0.0, -0.6824937890365349]","[0.07216257601976395, 0.10887216031551361, 0.03999999910593033]","[0.0, -0.0, 0.1376864353718678]",0.6742443830336282,-1.9798502142300851,"(0.0, 0.0, 0.0, 0.0, 0.0, 0.0)",0.34523008433021124,-0.8281635344937409,-1.9158370237869804,"(0.0, 0.0, 0.0, 0.0, 0.0, 0.0)",0.046989708289177236,-0.6742444279053555,1.9798514108094807,"(0.0, 0.0, 0.0, 0.0, 0.0, 0.0)",-0.3452304573414294,0.8281629754068567,1.9158519335829844,"(0.0, 0.0, 0.0, 0.0, 0.0, 0.0)",-0.04698990114977892,False,,,,,False,,,,
12,Close,,,"(8.555941999099156e-08, 0.16999906193922792, 0.000908421947806545)","(1.5708075491537519, 6.311807488844542e-05, -1.4000595358663434e-05)",,"[-0.026750000193715096, 0.05299999937415123, 0.03999999910593033]","[0.0, -0.0, 0.6487117277688945]","[-0.070249542593956, 0.11037412285804749, 0.03999999910593033]","[0.0, 0.0, -0.20415830575541527]","[0.026750000193715096, 0.05299999937415123, 0.03999999910593033]","[0.0, 0.0, -0.6487117277688945]","[0.070249542593956, 0.11037411540746689, 0.03999999910593033]","[0.0, -0.0, 0.20415788801885543]",0.6438405657375271,-1.1690817530007243,"(0.0, 0.0, 0.0, 0.0, 0.0, 0.0)",0.20397674457790932,-0.8575834812137779,-1.1312243968345508,"(0.0, 0.0, 0.0, 0.0, 0.0, 0.0)",0.027828964636992654,-0.6438405922338334,1.1690824595688907,"(0.0, 0.0, 0.0, 0.0, 0.0, 0.0)",-0.20397696556653716,0.8575831510875931,1.1312332006820753,"(0.0, 0.0, 0.0, 0.0, 0.0, 0.0)",-0.027829079200348807,False,,,,,False,,,,
13,Close,,,"(5.567361934631568e-08, 0.16999906349286917, 0.0009359839309479349)","(1.5708039321322358, 3.37560108188707e-05, -1.3987283228090085e-05)",,"[-0.026750000193715096, 0.05299999937415123, 0.03999999910593033]","[0.0, -0.0, 0.62876384308693]","[-0.06909646838903427, 0.11123037338256836, 0.03999999910593033]","[0.0, 0.0, -0.24340789693353326]","[0.026750000193715096, 0.05299999937415123, 0.03999999910593033]","[0.0, 0.0, -0.62876384308693]","[0.06909646838903427, 0.11123037338256836, 0.03999999910593033]","[0.0, -0.0, 0.24340764580603796]",0.6258874156623524,-0.6903310843293964,"(0.0, 0.0, 0.0, 0.0, 0.0, 0.0)",0.12048853373387189,-0.8749547691894786,-0.6679421640099914,"(0.0, 0.0, 0.0, 0.0, 0.0, 0.0)",0.016461146679105913,-0.6258874313081562,0.6903315015508323,"(0.0, 0.0, 0.0, 0.0, 0.0, 0.0)",-0.12048866447898966,0.8749545742586229,0.6679473624521103,"(0.0, 0.0, 0.0, 0.0, 0.0, 0.0)",-0.016461214564379854,False,,,,,False,,,,
14,Move,,,"(0.0002849434880139787, 0.17128526654835666, 0.0018667775255450016)","(1.529867145493542, 0.001236551690390913, -0.0026252758006009144)","[0.0, 0.0, 0.0]","[-0.026750000193715096, 0.05299999937415123, 0.03999999910593033]","[0.0, -0.0, 0.5674368798319164]","[-0.06544800847768784, 0.113716259598732, 0.03999999910593033]","[0.0, 0.0, -0.23086444862254737]","[0.026750000193715096, 0.05299999937415123, 0.03999999910593033]","[0.0, 0.0, -0.5672775113046467]","[0.06543833017349243, 0.11372242867946625, 0.03999999910593033]","[0.0, -0.0, 0.2338230653212545]",0.5526433844132694,-3.5504372063580854,"(0.0, 0.0, 0.0, 0.0, 0.0, 0.0)",-74.66311326449657,-0.7739535469156117,5.843468067207706,"(0.0, 0.0, 0.0, 0.0, 0.0, 0.0)",-38.567738900473906,-0.5523653530093062,3.5789086898164406,"(0.0, 0.0, 0.0, 0.0, 0.0, 0.0)",70.97380681712595,0.7784689212282292,-5.431581853362886,"(0.0, 0.0, 0.0, 0.0, 0.0, 0.0)",36.631671368390464,True,"(-0.031139027298926508, 0.18549673152317092, 0.03999924353386678)","(0.9999971505660776, -0.0022642037706561637, -0.0007564661332230728)",-0.000503181178828863,565.4925793008347,True,"(0.030917119596597424, 0.1854085662421605, 0.04000075646613322)","(-0.9999971505660776, 0.002264203770598743, 0.0007564661332168607)",-0.0013606486484191646,538.0249494895718
15,Move,"(0.0, 0.0, 0.0)","(0.0, -0.0, 0.0)","(0.00016274991557831364, 0.17136475104845758, 0.0031640906121350575)","(1.4899865793592248, -0.0009251634143453488, -0.006053919932276661)","[-0.00012219357243566505, 7.948450010092367e-05, 0.001297313086590056]","[-0.026750000193715096, 0.05299999937415123, 0.03999999910593033]","[0.0, -0.0, 0.5448782568355026]","[-0.06406860798597336, 0.11457370966672897, 0.03999999910593033]","[0.0, 0.0, -0.2125956411648876]","[0.026750000193715096, 0.05299999937415123, 0.03999999910593033]","[0.0, 0.0, -0.5441825092896027]","[0.06402575969696045, 0.11459966003894806, 0.03999999910593033]","[0.0, -0.0, 0.21903630347083206]",0.5463765798653516,0.35960109272080254,"(0.0, 0.0, 0.0, 0.0, 0.0, 0.0)",-0.08406283938624641,-0.7590286933635231,-0.37315947580442554,"(0.0, 0.0, 0.0, 0.0, 0.0, 0.0)",-0.017297597694563044,-0.5456033040750284,-0.3409927387516254,"(0.0, 0.0, 0.0, 0.0, 0.0, 0.0)",0.7656171975284948,0.7645763731677416,0.32581485659360865,"(0.0, 0.0, 0.0, 0.0, 0.0, 0.0)",0.4026025408250114,True,"(-0.031076504252458274, 0.1869479334441972, 0.04000075744199429)","(0.9999871217005202, -0.0050182382101970815, 0.0007574419942935584)",-0.000622934270282677,0.221954412255134,True,"(0.03056815038234164, 0.1867763680017247, 0.03999924255800572)","(-0.9999871217005204, 0.005018238210180842, -0.0007574419942756659)",-0.0016523435419804678,5.374466445399798
16,Move,"(-0.005063291139240506, 0.0, -0.005063291139240506)","(0.0, -0.0, 0.0)","(-0.0004987127870547739, 0.17160264832410166, 0.0032421426091799855)","(1.4912821116976565, -0.0008117202620387396, -0.0071761794953245014)","[-0.0007836562750687526, 0.0003173817757450015, 0.0013753650836349838]","[-0.026750000193715096, 0.05299999937415123, 0.03999999910593033]","[0.0, -0.0, 0.5501806136979818]","[-0.06439457088708878, 0.11437496542930603, 0.03999999910593033]","[0.0, 0.0, -0.20683468054479154]","[0.026750000193715096, 0.05299999937415123, 0.03999999910593033]","[0.0, 0.0, -0.5433064951647995]","[0.06397178024053574, 0.11463229358196259, 0.03999999910593033]","[0.0, -0.0, 0.2187461683798412]",0.5508502098103668,0.16069712652221624,"(0.0, 0.0, 0.0, 0.0, 0.0, 0.0)",-2.798226374189923,-0.7559168740631318,0.263623639910001,"(0.0, 0.0, 0.0, 0.0, 0.0, 0.0)",-1.4803679362689384,-0.5423348258197846,0.2331874526827283,"(0.0, 0.0, 0.0, 0.0, 0.0, 0.0)",2.7162630550906726,0.7611835897984867,-0.20856101055972256,"(0.0, 0.0, 0.0, 0.0, 0.0, 0.0)",1.4613219899814993,True,"(-0.03181998163763451, 0.18693011971770693, 0.04000083185701028)","(0.9999737895924515, -0.007192227890298431, 0.0008318570102830772)",-0.0004188438730737389,20.68913761963671,True,"(0.030535126820510156, 0.18682058892834408, 0.03999916814298971)","(-0.9999737895924514, 0.007192227890299605, -0.0008318570102802237)",-0.001146894012722661,20.506098302346853
17,Move,"(-0.010126582278481011, 0.0, -0.010126582278481011)","(0.0, -0.0, 0.0)","(-0.001562860540243857, 0.17254906173004342, 0.0029235258631195703)","(1.511216809171684, -0.0012231952455231433, -0.005485973670014891)","[-0.0018478040282578355, 0.001263795181686761, 0.0010567483375745687]","[-0.026750000193715096, 0.05299999937415123, 0.03999999910593033]","[0.0, -0.0, 0.5550701215273907]","[-0.06469420343637466, 0.11419017612934113, 0.03999999910593033]","[0.0, 0.0, -0.19505137545347598]","[0.026750000193715096, 0.05299999937415123, 0.03999999910593033]","[0.0, 0.0, -0.5342873728164371]","[0.06341440230607986, 0.11496548354625702, 0.03999999910593033]","[0.0, -0.0, 0.22135977417904276]",0.5560441692976782,0.23379632019463778,"(0.0, 0.0, 0.0, 0.0, 0.0, 0.0)",-4.3292339982543515,-0.7488072135136751,0.3154076135498829,"(0.0, 0.0, 0.0, 0.0, 0.0, 0.0)",-2.326793925630269,-0.5323596864901009,0.4626373792610673,"(0.0, 0.0, 0.0, 0.0, 0.0, 0.0)",4.045451411127955,0.75438324157638,-0.3033313897293364,"(0.0, 0.0, 0.0, 0.0, 0.0, 0.0)",2.179906776366152,True,"(-0.0329768008934363, 0.18711383673931486, 0.04000125444094859)","(0.9999830249396446, -0.00569000970687846, 0.001254440948588156)",-0.0003030545420644771,31.95990759833669,True,"(0.02978920014168078, 0.18706725853218326, 0.03999874555905142)","(-0.9999830249396446, 0.0056900097068913824, -0.0012544409485780895)",-0.0008517463738293217,30.68812680897022
18,Move,"(-0.01518987341772152, 0.0, -0.01518987341772152)","(0.0, -0.0, 0.0)","(-0.003019375703127257, 0.17416877930292002, 0.0024210520228432585)","(1.546366521026797, -0.001243023910191246, -0.003522313799099899)","[-0.0033043191911412357, 0.002883512754563361, 0.0005542744972982568]","[-0.026750000193715096, 0.05299999937415123, 0.03999999910593033]","[0.0, -0.0, 0.5611383599856956]","[-0.06506482511758804, 0.11395879089832306, 0.03999999910593033]","[0.0, 0.0, -0.17980396086424974]","[0.026750000193715096, 0.05299999937415123, 0.03999999910593033]","[0.0, 0.0, -0.5198131357632649]","[0.06251370161771774, 0.115489661693573, 0.03999999910593033]","[0.0, -0.0, 0.22650119233216487]",0.5622742831664405,0.2726166772337236,"(0.0, 0.0, 0.0, 0.0, 0.0, 0.0)",-6.133499790556559,-0.7390481660448235,0.45460321205864096,"(0.0, 0.0, 0.0, 0.0, 0.0, 0.0)",-3.3235112784742133,-0.5169021464440163,0.6986553085487486,"(0.0, 0.0, 0.0, 0.0, 0.0, 0.0)",5.744945096847217,0.7445248602088752,-0.4294867589479131,"(0.0, 0.0, 0.0, 0.0, 0.0, 0.0)",3.099729399401465,True,"(-0.03446292769811976, 0.18734422293182965, 0.04000128854459568)","(0.9999920044519729, -0.0037855891153568823, 0.0012885445956725785)",-0.00023512282145652516,45.27500452717321,True,"(0.028518243497815773, 0.18742083882099192, 0.039998711455404325)","(-0.999992004451973, 0.0037855891153591335, -0.0012885445956772308)",-0.0007045012861190271,43.5319236488453
19,Move,"(-0.020253164556962026, 0.0, -0.020253164556962026)","(0.0, -0.0, 0.0)","(-0.004866032505447626, 0.1764166259400276, 0.0018055337330844452)","(1.5952508875181146, -0.000983189917753929, -0.001474911816578778)","[-0.005150975993461604, 0.005131359391670948, -6.124379246055648e-05]","[-0.026750000193715096, 0.05299999937415123, 0.03999999910593033]","[0.0, -0.0, 0.5679217326478004]","[-0.06547744572162628, 0.11369749158620834, 0.03999999910593033]","[0.0, 0.0, -0.16045007207721412]","[0.026750000193715096, 0.05299999937415123, 0.03999999910593033]","[0.0, 0.0, -0.5001761469524136]","[0.061279769986867905, 0.11617986112833023, 0.03999999910593033]","[0.0, -0.0, 0.23371425102193585]",0.569167711455042,0.2990409052338442,"(0.0, 0.0, 0.0, 0.0, 0.0, 0.0)",-8.073082312793288,-0.725890162746039,0.5955853551069122,"(0.0, 0.0, 0.0, 0.0, 0.0, 0.0)",-4.404061941826497,-0.496379817514869,0.9111229352327278,"(0.0, 0.0, 0.0, 0.0, 0.0, 0.0)",7.600761209227375,0.7315337562255062,-0.565598359238347,"(0.0, 0.0, 0.0, 0.0, 0.0, 0.0)",4.090308675993862,True,"(-0.036301363796626525, 0.18764403444048888, 0.04000104575684684)","(0.9999978261424401, -0.0018039132494800639, 0.0010457568468403623)",-0.00019897886943899844,59.52790097552019,True,"(0.026766354024509248, 0.18786918958681714, 0.03999895424315317)","(-0.99999782614244, 0.0018039132494785367, -0.0010457568468279323)",-0.0006538471347883862,57.40032498340775
20,Move,"(-0.02531645569620253, 0.0, -0.02531645569620253)","(0.0, -0.0, 0.0)","(-0.007042418555004815, 0.17699102270564002, 0.0018398929700042918)","(1.598853570238329, 0.0012663830932620412, 0.005995676264711394)","[-0.007327362043018793, 0.005705756157283359, -2.688455554070981e-05]","[-0.026750000193715096, 0.05299999937415123, 0.03999999910593033]","[0.0, -0.0, 0.5750424121088809]","[-0.06590867042541504, 0.11342018097639084, 0.03999999910593033]","[0.0, 0.0, -0.13747860923468438]","[0.026750000193715096, 0.05299999937415123, 0.03999999910593033]","[0.0, 0.0, -0.4758663282666323]","[0.05973382666707039, 0.1170005276799202, 0.03999999910593033]","[0.0, -0.0, 0.24159634035622898]",0.576328411147003,0.3086299983298084,"(0.0, 0.0, 0.0, 0.0, 0.0, 0.0)",-10.038695580998565,-0.7093771122502361,0.7545490789579217,"(0.0, 0.0, 0.0, 0.0, 0.0, 0.0)",-5.502389768782361,-0.47127156258283726,1.1027470204570973,"(0.0, 0.0, 0.0, 0.0, 0.0, 0.0)",9.680884572442752,0.714572322610501,-0.6936906259498999,"(0.0, 0.0, 0.0, 0.0, 0.0, 0.0)",5.224503487547605,True,"(-0.03843858923253734, 0.18800186972701532, 0.03999873849557151)","(0.999983199835341, 0.005657619079572632, -0.0012615044284847155)",-0.00017579681104981532,73.85716529235603,True,"(0.02465642456225866, 0.18841600976924186, 0.04000126150442849)","(-0.999983199835341, -0.005657619079565193, 0.0012615044284938262)",-0.0006479079145190112,72.74680495290109
21,Move,"(-0.03037974683544304, 0.0, -0.03037974683544304)","(0.0, -0.0, 0.0)","(-0.009539251205295418, 0.17747433885151795, 0.0018454819111810288)","(1.5979979618298417, 0.0012942272288696264, 0.008358574191669063)","[-0.009824194693309397, 0.0061890723031612915, -2.129561436397284e-05]","[-0.026750000193715096, 0.05299999937415123, 0.03999999910593033]","[0.0, -0.0, 0.5823197637009754]","[-0.06634733080863953, 0.11313361674547195, 0.03999999910593033]","[0.0, 0.0, -0.110369597610532]","[0.026750000193715096, 0.05299999937415123, 0.03999999910593033]","[0.0, 0.0, -0.4472653884959624]","[0.057890113443136215, 0.11791758984327316, 0.03999999910593033]","[0.0, -0.0, 0.2514208130636319]",0.5836201036594736,0.3120751373131739,"(0.0, 0.0, 0.0, 0.0, 0.0, 0.0)",-12.068792757882363,-0.6889350355379221,0.9010452490311698,"(0.0, 0.0, 0.0, 0.0, 0.0, 0.0)",-6.657435506157764,-0.441919986206417,1.2829029874055364,"(0.0, 0.0, 0.0, 0.0, 0.0, 0.0)",11.66555119300481,0.6951350384338667,-0.8522836571413634,"(0.0, 0.0, 0.0, 0.0, 0.0, 0.0)",6.2403360436420465,True,"(-0.04090842286458713, 0.18840767165581462, 0.03999871187029589)","(0.9999676584321336, 0.007938690800205187, -0.0012881297041058089)",-0.00017524638350150802,88.57327476753898,True,"(0.022112708309544073, 0.18899256010351861, 0.04000128812970411)","(-0.9999676584321334, -0.007938690800210386, 0.0012881297041086415)",-0.0007210190921370765,87.20611171522171
22,Move,"(-0.03544303797468354, 0.0, -0.03544303797468354)","(0.0, -0.0, 0.0)","(-0.012290146126589244, 0.17799350247127196, 0.0018480522719181046)","(1.5973300157218708, 0.001327209606177081, 0.010785162507760711)","[-0.012575089614603224, 0.006708235922915307, -1.872525362689708e-05]","[-0.026750000193715096, 0.05299999937415123, 0.03999999910593033]","[0.0, -0.0, 0.5893786530830734]","[-0.06677081435918808, 0.11285260319709778, 0.03999999910593033]","[0.0, 0.0, -0.0799435078838493]","[0.026750000193715096, 0.05299999937415123, 0.03999999910593033]","[0.0, 0.0, -0.4149936362764591]","[0.05577925592660904, 0.11888855695724487, 0.03999999910593033]","[0.0, -0.0, 0.26158669416999814]",0.5906130907837785,0.29625980130037277,"(0.0, 0.0, 0.0, 0.0, 0.0, 0.0)",-14.059956868361553,-0.6649184740806485,1.0568894558967346,"(0.0, 0.0, 0.0, 0.0, 0.0, 0.0)",-7.803602553253051,-0.409044201171178,1.427867046878715,"(0.0, 0.0, 0.0, 0.0, 0.0, 0.0)",13.628618562683112,0.6724820462217809,-0.9835858850059137,"(0.0, 0.0, 0.0, 0.0, 0.0, 0.0)",7.222385970847205,True,"(-0.04363294338111812, 0.188837728031158, 0.03999868019211343)","(0.9999453260925797, 0.010373183346837305, -0.0013198078865712364)",-0.00018229311546961004,102.89470456286374,True,"(0.01928106454242287, 0.1896038860886018, 0.04000131980788657)","(-0.9999453260925795, -0.010373183346847586, 0.0013198078865738017)",-0.0008191930789788239,101.30044358908125
23,Move,"(-0.04050632911392405, 0.0, -0.04050632911392405)","(0.0, -0.0, 0.0)","(-0.01525784492885635, 0.17853008340219614, 0.0018458155073554443)","(1.5969974532039437, 0.0013677163738971734, 0.013130854863046736)","[-0.01554278841687033, 0.007244816853839486, -2.0962018189557303e-05]","[-0.026750000193715096, 0.05299999937415123, 0.03999999910593033]","[0.0, -0.0, 0.5959246836419706]","[-0.06716173887252808, 0.11258935183286667, 0.03999999910593033]","[0.0, 0.0, -0.04649055551563324]","[0.026750000193715096, 0.05299999937415123, 0.03999999910593033]","[0.0, 0.0, -0.3796675621354352]","[0.053434040397405624, 0.11987272650003433, 0.03999999910593033]","[0.0, -0.0, 0.27184538614524817]",0.5970546050153939,0.2712088006737182,"(0.0, 0.0, 0.0, 0.0, 0.0, 0.0)",-15.947249855124689,-0.637389850946815,1.206065417511116,"(0.0, 0.0, 0.0, 0.0, 0.0, 0.0)",-8.90198020916594,-0.3732053868984252,1.550914197692689,"(0.0, 0.0, 0.0, 0.0, 0.0, 0.0)",15.502750036554762,0.6468954366815649,-1.1081902980621148,"(0.0, 0.0, 0.0, 0.0, 0.0, 0.0)",8.13800553112615,True,"(-0.046577390797555095, 0.189274766180786, 0.03999864104227109)","(0.9999180382365929, 0.012730673311916841, -0.0013589577289069268)",-0.00019206075533916846,116.34186067418659,True,"(0.016212204851935724, 0.19021781740272733, 0.0400013589577289)","(-0.999918038236593, -0.01273067331191515, 0.0013589577288965686)",-0.0009314863352239065,114.56782926463173
24,Move,"(-0.04556962025316456, 0.0, -0.04556962025316456)","(0.0, -0.0, 0.0)","(-0.01839676745888253, 0.17905566375199453, 0.00184113923528211)","(1.5968502201967372, 0.0013957401367006596, 0.015379177077792131)","[-0.01868171094689651, 0.007770397203637869, -2.563829026289155e-05]","[-0.026750000193715096, 0.05299999937415123, 0.03999999910593033]","[0.0, -0.0, 0.6017540232513738]","[-0.06750842928886414, 0.11235276609659195, 0.03999999910593033]","[0.0, 0.0, -0.010398156756150585]","[0.026750000193715096, 0.05299999937415123, 0.03999999910593033]","[0.0, 0.0, -0.34181781062187094]","[0.050884418189525604, 0.12083457410335541, 0.03999999910593033]","[0.0, -0.0, 0.2818794660654394]",0.6027466655464122,0.23822846883878665,"(0.0, 0.0, 0.0, 0.0, 0.0, 0.0)",-17.72832042441126,-0.606542209640274,1.3463981696828986,"(0.0, 0.0, 0.0, 0.0, 0.0, 0.0)",-9.93715702602101,-0.334939590459735,1.6507681771083713,"(0.0, 0.0, 0.0, 0.0, 0.0, 0.0)",17.276625784299107,0.6185845338422856,-1.2270490944203856,"(0.0, 0.0, 0.0, 0.0, 0.0, 0.0)",8.988618232374483,True,"(-0.04970460687502824, 0.189596831448239, 0.037985549650186266)","(0.9998867120565205, 0.014987052251164886, -0.0013968957090436799)",-0.00019974996528354048,128.98402979169515,True,"(0.012958472879875706, 0.1908104236576787, 0.040001398934082215)","(-0.99988677660583, -0.014982554930196235, 0.0013989340822081107)",-0.0010489009122703968,126.94086806597
25,Move,"(-0.05063291139240506, 0.0, -0.05063291139240506)","(0.0, -0.0, 0.0)","(-0.021254054109216998, 0.17963600394780505, 0.0018322722256989652)","(1.5965750493417037, 0.0012224909964186552, 0.022244827574445222)","[-0.021538997597230977, 0.008350737399448388, -3.450529984603645e-05]","[-0.026750000193715096, 0.05299999937415123, 0.03999999910593033]","[0.0, -0.0, 0.6069534201386483]","[-0.06781646609306335, 0.11214004456996918, 0.03999999910593033]","[0.0, -0.0, 0.027361834781279622]","[0.026750000193715096, 0.05299999937415123, 0.03999999910593033]","[0.0, 0.0, -0.30204596312037285]","[0.04816814139485359, 0.12174054980278015, 0.03999999910593033]","[0.0, -0.0, 0.2878240924102201]",0.607961503808846,0.24196251370601082,"(0.0, 0.0, 0.0, 0.0, 0.0, 0.0)",-21.828092685008336,-0.5738487897417073,1.3782480387228495,"(0.0, 0.0, 0.0, 0.0, 0.0, 0.0)",-10.05378312328902,-0.29491496815393275,1.7114400465193516,"(0.0, 0.0, 0.0, 0.0, 0.0, 0.0)",23.59815755205545,0.5815314969765948,-2.001252936020364,"(0.0, 0.0, 0.0, 0.0, 0.0, 0.0)",13.327741356340413,True,"(-0.05294064673703858, 0.1899828013093275, 0.0378537367720427)","(0.9998752569468012, 0.015733138030549446, -0.0013924486632948178)",-3.708402380171008e-05,111.13519187418903,True,"(0.00982685658467121, 0.19149113983179183, 0.04000135343044415)","(-0.9998090846395361, -0.019492626767213757, 0.001353430444151237)",-0.0011009381702335723,167.66903287135756
26,Move,"(-0.055696202531645575, 0.0, -0.055696202531645575)","(0.0, -0.0, 0.0)","(-0.023737554037021713, 0.17948681829217727, 0.001731190838675986)","(1.5940660426264799, -0.002905444999706544, 0.05787630516678341)","[-0.024022497525035692, 0.008201551743820618, -0.0001355866868690157]","[-0.026750000193715096, 0.05299999937415123, 0.03999999910593033]","[0.0, -0.0, 0.611728121259886]","[-0.06809838116168976, 0.11194328963756561, 0.03999999910593033]","[0.0, -0.0, 0.06317894991994993]","[0.026750000193715096, 0.05299999937415123, 0.03999999910593033]","[0.0, 0.0, -0.26036985065936163]","[0.045285534113645554, 0.12257322669029236, 0.03999999910593033]","[0.0, -0.0, 0.2861061214016527]",0.6125051334257253,0.18648899203479094,"(0.0, 0.0, 0.0, 0.0, 0.0, 0.0)",-20.482428011380225,-0.5430059937450968,1.33035579024426,"(0.0, 0.0, 0.0, 0.0, 0.0, 0.0)",-9.410643758474308,-0.25281269112711996,1.813717805757587,"(0.0, 0.0, 0.0, 0.0, 0.0, 0.0)",22.56573580966663,0.5388134333761752,-1.8390152218123288,"(0.0, 0.0, 0.0, 0.0, 0.0, 0.0)",12.791439141987944,True,"(-0.05601960531707299, 0.1902688145239816, 0.0378537367720427)","(0.9998752569468012, 0.015733138030549446, -0.0013924486632948178)",0.00014167284506259146,103.346810389624,True,"(0.007065275908054745, 0.1923563889630876, 0.03999752098393016)","(-0.9986971962910981, -0.050968270518289456, -0.00247901606984231)",-0.0009033146171335016,159.3785964040912
27,Move,"(-0.06075949367088608, 0.0, -0.06075949367088608)","(0.0, -0.0, 0.0)","(-0.026773270307417628, 0.17968220103134244, 0.0017033311380118322)","(1.5839976129645974, -0.0015386168336553618, 0.13225226751427702)","[-0.027058213795431607, 0.008396934482985785, -0.00016344638753316943]","[-0.026750000193715096, 0.05299999937415123, 0.03999999910593033]","[0.0, -0.0, 0.6155901490514246]","[-0.0683257132768631, 0.11178316175937653, 0.03999999910593033]","[0.0, -0.0, 0.09200755332432743]","[0.026750000193715096, 0.05299999937415123, 0.03999999910593033]","[0.0, 0.0, -0.2154686587263335]","[0.04214397817850113, 0.1233350932598114, 0.03999999910593033]","[0.0, -0.0, 0.2943755668021474]",0.6164379806889736,0.20347354167781234,"(0.0, 0.0, 0.0, 0.0, 0.0, 0.0)",-22.375937525677966,-0.5174047464523799,1.4826925480631241,"(0.0, 0.0, 0.0, 0.0, 0.0, 0.0)",-9.777806005730286,-0.2074275559721534,1.9298638249987083,"(0.0, 0.0, 0.0, 0.0, 0.0, 0.0)",24.596080958279796,0.5005867381492192,-2.2218014294931856,"(0.0, 0.0, 0.0, 0.0, 0.0, 0.0)",13.92053756081537,True,"(-0.054364032324837414, 0.14549498568309113, 0.0509546284831448)","(0.9971687452698433, 0.07511546269194024, 0.003487222611472114)",2.9509473382937726e-05,69.63410095707027,True,"(0.0033539310805680775, 0.192735038876457, 0.03999737774666364)","(-0.9922789481512024, -0.12399843887478335, -0.0026222533363567556)",-0.0007797892889017256,174.25594695984523
28,Move,"(-0.0658227848101266, 0.0, -0.0658227848101266)","(0.0, -0.0, 0.0)","(-0.03021018947199307, 0.18001405487934669, 0.0016716023313451314)","(1.5860261485433358, -0.0007550665872130145, 0.14467810991776472)","[-0.03049513296000705, 0.008728788330990028, -0.00019517519419987028]","[-0.026750000193715096, 0.05299999937415123, 0.03999999910593033]","[0.0, -0.0, 0.6205809963280279]","[-0.06861856579780579, 0.1115749329328537, 0.03999999910593033]","[0.0, -0.0, 0.13626256613730742]","[0.026750000193715096, 0.05299999937415123, 0.03999999910593033]","[0.0, 0.0, -0.16738558290653538]","[0.038745563477277756, 0.12399370968341827, 0.03999999910593033]","[0.0, -0.0, 0.29615014284934127]",0.6214388415087818,0.20589523007806426,"(0.0, 0.0, 0.0, 0.0, 0.0, 0.0)",-24.844278495062255,-0.4761020757508016,1.9719176781632197,"(0.0, 0.0, 0.0, 0.0, 0.0, 0.0)",-14.06614629586161,-0.15855436935186384,2.1194919602886237,"(0.0, 0.0, 0.0, 0.0, 0.0, 0.0)",24.226062281010464,0.456931949113737,-1.5849064448740884,"(0.0, 0.0, 0.0, 0.0, 0.0, 0.0)",12.294496443833484,True,"(-0.06230652649746905, 0.19068416327036367, 0.04000061901173673)","(0.9895509590618704, 0.1441822327618847, 0.0006190117367335493)",-0.0010816291083607186,177.08728415586884,True,"(-0.0001650711942608185, 0.19330628520286092, 0.03999934636969565)","(-0.9895509498830474, -0.14418214297541795, -0.0006536303043531631)",-0.0009681708300014306,172.84412438890038
29,Move,"(-0.07088607594936708, 0.0, -0.07088607594936708)","(0.0, -0.0, 0.0)","(-0.03265028727759743, 0.18064129881120503, 0.0016396787206908595)","(1.5842672805924665, -0.00010809230473287439, 0.1630520589932841)","[-0.03293523076561141, 0.009356032262848368, -0.00022709880485414211]","[-0.026750000193715096, 0.05299999937415123, 0.03999999910593033]","[0.0, -0.0, 0.6259596573039626]","[-0.06893301010131836, 0.11134889721870422, 0.03999999910593033]","[0.0, -0.0, 0.18237208717053796]","[0.026750000193715096, 0.05299999937415123, 0.03999999910593033]","[0.0, 0.0, -0.11805660094518311]","[0.03523034229874611, 0.12449883669614792, 0.03999999910593033]","[0.0, -0.0, 0.28731278292005585]",0.6268507481272302,0.21388088462087335,"(0.0, 0.0, 0.0, 0.0, 0.0, 0.0)",-28.330665682515995,-0.4370000677979008,1.5809796288875728,"(0.0, 0.0, 0.0, 0.0, 0.0, 0.0)",-11.967336061174066,-0.10923572956716086,2.117008457700177,"(0.0, 0.0, 0.0, 0.0, 0.0, 0.0)",32.770744014543254,0.3946510951500301,-2.572389199012273,"(0.0, 0.0, 0.0, 0.0, 0.0, 0.0)",18.39005729062358,True,"(-0.0662740796823702, 0.1906649818706356, 0.04000061901173673)","(0.9895509590618704, 0.1441822327618847, 0.0006190117367335493)",0.00010312288074965456,121.43463550801863,True,"(-0.0030629344689062574, 0.19413027031565205, 0.039999542740989276)","(-0.987481717925292, -0.1577328363959488, -0.0004572590107250834)",-0.001056055557889516,226.8398235690989
30,Move,"(-0.07594936708860758, 0.0, -0.07594936708860758)","(0.0, -0.0, 0.0)","(-0.035740416576668516, 0.1811762166307004, 0.0015718247149736613)","(1.58337188353714, 0.0032565561672947304, 0.20713364547439414)","[-0.036025360064682495, 0.009890950082343752, -0.0002949528105713403]","[-0.026750000193715096, 0.05299999937415123, 0.03999999910593033]","[0.0, -0.0, 0.6306702405930623]","[-0.06920740753412247, 0.11114953458309174, 0.03999999910593033]","[0.0, -0.0, 0.2233477318414391]","[0.026750000193715096, 0.05299999937415123, 0.03999999910593033]","[0.0, 0.0, -0.06735816551198145]","[0.031596120446920395, 0.12483672797679901, 0.03999999910593033]","[0.0, -0.0, 0.2804997247569425]",0.6314877549438579,0.19620571942986695,"(0.0, 0.0, 0.0, 0.0, 0.0, 0.0)",-26.33427979374673,-0.4008036387338227,1.564525323104769,"(0.0, 0.0, 0.0, 0.0, 0.0, 0.0)",-11.096800112706223,-0.05823446767715729,2.1896880880494782,"(0.0, 0.0, 0.0, 0.0, 0.0, 0.0)",30.19448973184008,0.33773058973445247,-2.4305545097081716,"(0.0, 0.0, 0.0, 0.0, 0.0, 0.0)",16.976377191538813,True,"(-0.06979982216544438, 0.19050797002601477, 0.04000061901173673)","(0.9895509590618704, 0.1441822327618847, 0.0006190117367335493)",0.0002500681954285346,110.61528620584555,True,"(-0.006213649225933891, 0.1946810039813075, 0.04000250556910806)","(-0.9803134462192729, -0.19743168257687896, 0.0025055691080581688)",-0.000980314519165855,208.48362775502596
