OSUrobotics/InHand-Manipulation/AnalyseData/Data/Trial Data/Better/new_hand_human_sub1_2v2_h_n_1_kpNone_kdNone_dp5_step5_save_data.csv
,Phase,human_cube_pos,human_cube_orn,Cube_Pos,Cube_Orn,Cube_pos_in_start_pos,b'l_prox_pin'_link_pos,b'l_prox_pin'_link_orn,b'l_distal_pin'_link_pos,b'l_distal_pin'_link_orn,b'r_prox_pin'_link_pos,b'r_prox_pin'_link_orn,b'r_distal_pin'_link_pos,b'r_distal_pin'_link_orn,b'l_prox_pin'_joint_angle,b'l_prox_pin'_joint_vel,b'l_prox_pin'_joint_react_forces,b'l_prox_pin'_joint_motor_torque,b'l_distal_pin'_joint_angle,b'l_distal_pin'_joint_vel,b'l_distal_pin'_joint_react_forces,b'l_distal_pin'_joint_motor_torque,b'r_prox_pin'_joint_angle,b'r_prox_pin'_joint_vel,b'r_prox_pin'_joint_react_forces,b'r_prox_pin'_joint_motor_torque,b'r_distal_pin'_joint_angle,b'r_distal_pin'_joint_vel,b'r_distal_pin'_joint_react_forces,b'r_distal_pin'_joint_motor_torque,in_contact_l,contact_point_l_dist,contact_normal_l_dist,contact_distance_l_dist,contact_norm_force_l_dist,in_contact_r,contact_point_r_dist,contact_normal_r_dist,contact_distance_r_dist,contact_norm_force_r_dist
0,Open,,,,,,"[-0.026750000193715096, 0.05299999937415123, 0.03999999910593033]","[0.0, -0.0, 0.42755761853039154]","[-0.056604765355587006, 0.1185186430811882, 0.03999999910593033]","[0.0, -0.0, 0.4463066270391506]","[0.026750000193715096, 0.05299999937415123, 0.03999999910593033]","[0.0, 0.0, -0.42757404208311445]","[0.05660583823919296, 0.1185181587934494, 0.03999999910593033]","[0.0, 0.0, -0.4465272228574986]",0.5418018724257314,27.418616735313837,"(0.0, 0.0, 0.0, 0.0, 0.0, 0.0)",-4.412236817968903,0.016874447698417276,-0.44988750389777044,"(0.0, 0.0, 0.0, 0.0, 0.0, 0.0)",-0.3112578673856835,-0.5418166170859073,-27.418223544375806,"(0.0, 0.0, 0.0, 0.0, 0.0, 0.0)",4.412120589674461,-0.017058187988154127,0.4547872631353701,"(0.0, 0.0, 0.0, 0.0, 0.0, 0.0)",0.31119999541872967,False,,,,,False,,,,
1,Open,,,,,,"[-0.026750000193715096, 0.05299999937415123, 0.03999999910593033]","[0.0, -0.0, 0.8953992050914552]","[-0.08294302970170975, 0.09801492840051651, 0.03999999910593033]","[0.0, -0.0, 0.9064715399310761]","[0.026750000193715096, 0.05299999937415123, 0.03999999910593033]","[0.0, 0.0, -0.8954089117450801]","[0.08294346183538437, 0.09801438450813293, 0.03999999910593033]","[0.0, 0.0, -0.9066016844299951]",0.9628592876486701,16.190418996035465,"(0.0, 0.0, 0.0, 0.0, 0.0, 0.0)",-2.616982039675733,0.009965290062605858,-0.26568209241480656,"(0.0, 0.0, 0.0, 0.0, 0.0, 0.0)",-0.18775783729375353,-0.9628679942230576,-16.190186820718473,"(0.0, 0.0, 0.0, 0.0, 0.0, 0.0)",2.6169116334278195,-0.010073786659150813,0.26857534621184953,"(0.0, 0.0, 0.0, 0.0, 0.0, 0.0)",0.187722108909745,False,,,,,False,,,,
2,Open,,,,,,"[-0.026750000193715096, 0.05299999937415123, 0.03999999910593033]","[0.0, -0.0, 1.17165497759142]","[-0.09309044480323792, 0.08098116517066956, 0.03999999910593033]","[0.0, -0.0, 1.1781937273122836]","[0.026750000193715096, 0.05299999937415123, 0.03999999910593033]","[0.0, 0.0, -1.1716605985979762]","[0.09309060126543045, 0.08098078519105911, 0.03999999910593033]","[0.0, 0.0, -1.178270796658152]",1.2114894807636634,9.56028051296898,"(0.0, 0.0, 0.0, 0.0, 0.0, 0.0)",-1.549346412635057,0.005885062316220725,-0.15689973638119079,"(0.0, 0.0, 0.0, 0.0, 0.0, 0.0)",-0.11225090666269867,-1.2114946219087734,-9.560143415766044,"(0.0, 0.0, 0.0, 0.0, 0.0, 0.0)",1.5493042197033076,-0.00594912834521185,0.1586081706180975,"(0.0, 0.0, 0.0, 0.0, 0.0, 0.0)",0.11222926703597672,False,,,,,False,,,,
3,Open,,,,,,"[-0.026750000193715096, 0.05299999937415123, 0.03999999910593033]","[0.0, -0.0, 1.3347813147466918]","[-0.09675397723913193, 0.06983575969934464, 0.03999999910593033]","[0.0, -0.0, 1.3386449621367835]","[0.026750000193715096, 0.05299999937415123, 0.03999999910593033]","[0.0, 0.0, -1.3347844615433213]","[0.0967540368437767, 0.06983552873134613, 0.03999999910593033]","[0.0, 0.0, -1.3386905382854437]",1.3583031234961356,5.645250040103052,"(0.0, 0.0, 0.0, 0.0, 0.0, 0.0)",-0.9162890978823036,0.0034783869891320215,-0.09247571818598516,"(0.0, 0.0, 0.0, 0.0, 0.0, 0.0)",-0.06677007440367574,-1.3583061592909116,-5.645169085575695,"(0.0, 0.0, 0.0, 0.0, 0.0, 0.0)",0.9162639666346021,-0.003516216695348753,0.09348456497972772,"(0.0, 0.0, 0.0, 0.0, 0.0, 0.0)",0.06675710630673855,False,,,,,False,,,,
4,Open,,,,,,"[-0.026750000193715096, 0.05299999937415123, 0.03999999910593033]","[0.0, -0.0, 1.4311058207082674]","[-0.09804865717887878, 0.06302504986524582, 0.03999999910593033]","[0.0, -0.0, 1.433390691262394]","[0.026750000193715096, 0.05299999937415123, 0.03999999910593033]","[0.0, 0.0, -1.4311075924426346]","[0.09804867953062057, 0.06302490830421448, 0.03999999910593033]","[0.0, 0.0, -1.433417470845748]",1.4449951113932331,3.333463696180452,"(0.0, 0.0, 0.0, 0.0, 0.0, 0.0)",-0.5415503506795546,0.0020570753203455715,-0.05468855210882702,"(0.0, 0.0, 0.0, 0.0, 0.0, 0.0)",-0.039594115216637325,-1.4449969039996904,-3.3334158933415914,"(0.0, 0.0, 0.0, 0.0, 0.0, 0.0)",0.541535435877482,-0.002079412775410495,0.055284250111531166,"(0.0, 0.0, 0.0, 0.0, 0.0, 0.0)",0.03958639191865308,False,,,,,False,,,,
5,Open,,,,,,"[-0.026750000193715096, 0.05299999937415123, 0.03999999910593033]","[0.0, -0.0, 1.4879842849605203]","[-0.09850326180458069, 0.05895565450191498, 0.03999999910593033]","[0.0, -0.0, 1.4893357278409396]","[0.026750000193715096, 0.05299999937415123, 0.03999999910593033]","[0.0, 0.0, -1.4879853833286059]","[0.09850326925516129, 0.05895556882023811, 0.03999999910593033]","[0.0, 0.0, -1.4893513332680077]",1.4961858633265903,1.9683769779575933,"(0.0, 0.0, 0.0, 0.0, 0.0, 0.0)",-0.31995094896823073,0.0012165319928285922,-0.03234212113369103,"(0.0, 0.0, 0.0, 0.0, 0.0, 0.0)",-0.02343792779000599,-1.4961869218427772,-1.9683487508592754,"(0.0, 0.0, 0.0, 0.0, 0.0, 0.0)",0.31994211580738524,-0.0012297216752996233,0.03269386530715718,"(0.0, 0.0, 0.0, 0.0, 0.0, 0.0)",0.02343334437795369,False,,,,,False,,,,
6,Open,,,,,,"[-0.026750000193715096, 0.05299999937415123, 0.03999999910593033]","[0.0, -0.0, 1.5215704989376362]","[-0.09866278618574142, 0.05654282495379448, 0.03999999910593033]","[0.0, -0.0, 1.522369838325666]","[0.026750000193715096, 0.05299999937415123, 0.03999999910593033]","[0.0, 0.0, -1.5215710825913402]","[0.09866278618574142, 0.0565427765250206, 0.03999999910593033]","[0.0, 0.0, -1.522379029767931]",1.5264134904357183,1.1623069217141797,"(0.0, 0.0, 0.0, 0.0, 0.0, 0.0)",-0.18898727227709852,0.000719444125508032,-0.019126791845346432,"(0.0, 0.0, 0.0, 0.0, 0.0, 0.0)",-0.013859938289241243,-1.5264141154789415,-1.162290253894895,"(0.0, 0.0, 0.0, 0.0, 0.0, 0.0)",0.18898204730565804,-0.0007272322869396521,0.019334487584604668,"(0.0, 0.0, 0.0, 0.0, 0.0, 0.0)",0.013857223880827028,False,,,,,False,,,,
7,Close,,,"(1.2478112216283415e-07, 0.16999960627914334, 0.0003375139776509844)","(1.5703757789650807, 0.0001088681168706304, -5.122612185789874e-06)",,"[-0.026750000193715096, 0.05299999937415123, 0.03999999910593033]","[0.0, -0.0, 1.2785329680082034]","[-0.09569678455591202, 0.07374466955661774, 0.03999999910593033]","[0.0, -0.0, 1.0351044933740032]","[0.026750000193715096, 0.05299999937415123, 0.03999999910593033]","[0.0, 0.0, -1.2785333261376617]","[0.09569679200649261, 0.07374463975429535, 0.03999999910593033]","[0.0, 0.0, -1.0351099865887758]",1.2106796019673873,-16.28478938579699,"(0.0, 0.0, 0.0, 0.0, 0.0, 0.0)",2.809472854136235,-0.3090860149933808,-15.757821278062295,"(0.0, 0.0, 0.0, 0.0, 0.0, 0.0)",0.3661538009495806,-1.2106799710491603,16.284799227977608,"(0.0, 0.0, 0.0, 0.0, 0.0, 0.0)",-2.8094757422584213,0.30908141619234186,15.75794391320213,"(0.0, 0.0, 0.0, 0.0, 0.0, 0.0)",-0.3661552191151056,False,,,,,False,,,,
8,Close,,,"(3.0991841452431125e-07, 0.1699991530873768, 0.0005600347089338349)","(1.5707725584893357, 0.0003276471180493337, -1.5390016504502985e-05)",,"[-0.026750000193715096, 0.05299999937415123, 0.03999999910593033]","[0.0, -0.0, 1.0006670909649218]","[-0.08736184239387512, 0.09186135232448578, 0.03999999910593033]","[0.0, -0.0, 0.48836557737534114]","[0.026750000193715096, 0.05299999937415123, 0.03999999910593033]","[0.0, 0.0, -1.0006671906734346]","[0.08736184984445572, 0.09186133742332458, 0.03999999910593033]","[0.0, 0.0, -0.4883688154364048]",0.9606001981650306,-9.616005284561718,"(0.0, 0.0, 0.0, 0.0, 0.0, 0.0)",1.667253264949997,-0.5510712009946406,-9.304767973476249,"(0.0, 0.0, 0.0, 0.0, 0.0, 0.0)",0.2218037572572205,-0.9606004161041268,9.616011096270952,"(0.0, 0.0, 0.0, 0.0, 0.0, 0.0)",-1.6672550198735234,0.5510684854486152,9.30484038803693,"(0.0, 0.0, 0.0, 0.0, 0.0, 0.0)",-0.22180464092959223,False,,,,,False,,,,
9,Close,,,"(2.933853975158492e-07, 0.16999904048792538, 0.0007066062154399696)","(1.5708337628024795, 0.00026866528465535426, -1.404448202163588e-05)",,"[-0.026750000193715096, 0.05299999937415123, 0.03999999910593033]","[0.0, -0.0, 0.8365897781630613]","[-0.08020010590553284, 0.1012398824095726, 0.03999999910593033]","[0.0, -0.0, 0.16552144688028117]","[0.026750000193715096, 0.05299999937415123, 0.03999999910593033]","[0.0, 0.0, -0.8365899294750984]","[0.08020011335611343, 0.101239874958992, 0.03999999910593033]","[0.0, 0.0, -0.1655233971102189]",0.8129308110141114,-5.678154960376304,"(0.0, 0.0, 0.0, 0.0, 0.0, 0.0)",0.9873874064507416,-0.6939616573792659,-5.494397555666588,"(0.0, 0.0, 0.0, 0.0, 0.0, 0.0)",0.13292457281458034,-0.8129309397049683,5.678158392132489,"(0.0, 0.0, 0.0, 0.0, 0.0, 0.0)",-0.987388459985631,0.6939600538790082,5.494440315842426,"(0.0, 0.0, 0.0, 0.0, 0.0, 0.0)",-0.13292511074891808,False,,,,,False,,,,
10,Close,,,"(1.9902477861274505e-07, 0.16999905216518962, 0.0008031506137060285)","(1.5708213694470277, 0.0001751880104672085, -1.4031272711042213e-05)",,"[-0.026750000193715096, 0.05299999937415123, 0.03999999910593033]","[0.0, -0.0, 0.7397039398326887]","[-0.075282983481884, 0.10618411004543304, 0.03999999910593033]","[0.0, 0.0, -0.025114755601520013]","[0.026750000193715096, 0.05299999937415123, 0.03999999910593033]","[0.0, 0.0, -0.7397039829241547]","[0.0752829909324646, 0.10618410259485245, 0.03999999910593033]","[0.0, -0.0, 0.025113617980755978]",0.7257335145957226,-3.3528937225526034,"(0.0, 0.0, 0.0, 0.0, 0.0, 0.0)",0.5840196078844049,-0.7783380408184963,-3.244652289205478,"(0.0, 0.0, 0.0, 0.0, 0.0, 0.0)",0.07914031685893824,-0.7257335905863868,3.3528957489703144,"(0.0, 0.0, 0.0, 0.0, 0.0, 0.0)",-0.5840202358821991,0.778337093974245,3.2446775397467595,"(0.0, 0.0, 0.0, 0.0, 0.0, 0.0)",-0.07914064000385382,False,,,,,False,,,,
11,Close,,,"(1.3069317882946781e-07, 0.16999905849316785, 0.0008666025578373041)","(1.570813038524343, 0.0001076496945073061, -1.4014808324094979e-05)",,"[-0.026750000193715096, 0.05299999937415123, 0.03999999910593033]","[0.0, -0.0, 0.6824937890365349]","[-0.07216256856918335, 0.10887216031551361, 0.03999999910593033]","[0.0, 0.0, -0.137687120736303]","[0.026750000193715096, 0.05299999937415123, 0.03999999910593033]","[0.0, 0.0, -0.6824937890365349]","[0.07216257601976395, 0.10887216031551361, 0.03999999910593033]","[0.0, -0.0, 0.1376864353718678]",0.6742443830336282,-1.9798502142300851,"(0.0, 0.0, 0.0, 0.0, 0.0, 0.0)",0.34523008433021124,-0.8281635344937409,-1.9158370237869804,"(0.0, 0.0, 0.0, 0.0, 0.0, 0.0)",0.046989708289177236,-0.6742444279053555,1.9798514108094807,"(0.0, 0.0, 0.0, 0.0, 0.0, 0.0)",-0.3452304573414294,0.8281629754068567,1.9158519335829844,"(0.0, 0.0, 0.0, 0.0, 0.0, 0.0)",-0.04698990114977892,False,,,,,False,,,,
12,Close,,,"(8.555941999099156e-08, 0.16999906193922792, 0.000908421947806545)","(1.5708075491537519, 6.311807488844542e-05, -1.4000595358663434e-05)",,"[-0.026750000193715096, 0.05299999937415123, 0.03999999910593033]","[0.0, -0.0, 0.6487117277688945]","[-0.070249542593956, 0.11037412285804749, 0.03999999910593033]","[0.0, 0.0, -0.20415830575541527]","[0.026750000193715096, 0.05299999937415123, 0.03999999910593033]","[0.0, 0.0, -0.6487117277688945]","[0.070249542593956, 0.11037411540746689, 0.03999999910593033]","[0.0, -0.0, 0.20415788801885543]",0.6438405657375271,-1.1690817530007243,"(0.0, 0.0, 0.0, 0.0, 0.0, 0.0)",0.20397674457790932,-0.8575834812137779,-1.1312243968345508,"(0.0, 0.0, 0.0, 0.0, 0.0, 0.0)",0.027828964636992654,-0.6438405922338334,1.1690824595688907,"(0.0, 0.0, 0.0, 0.0, 0.0, 0.0)",-0.20397696556653716,0.8575831510875931,1.1312332006820753,"(0.0, 0.0, 0.0, 0.0, 0.0, 0.0)",-0.027829079200348807,False,,,,,False,,,,
13,Close,,,"(5.567361934631568e-08, 0.16999906349286917, 0.0009359839309479349)","(1.5708039321322358, 3.37560108188707e-05, -1.3987283228090085e-05)",,"[-0.026750000193715096, 0.05299999937415123, 0.03999999910593033]","[0.0, -0.0, 0.62876384308693]","[-0.06909646838903427, 0.11123037338256836, 0.03999999910593033]","[0.0, 0.0, -0.24340789693353326]","[0.026750000193715096, 0.05299999937415123, 0.03999999910593033]","[0.0, 0.0, -0.62876384308693]","[0.06909646838903427, 0.11123037338256836, 0.03999999910593033]","[0.0, -0.0, 0.24340764580603796]",0.6258874156623524,-0.6903310843293964,"(0.0, 0.0, 0.0, 0.0, 0.0, 0.0)",0.12048853373387189,-0.8749547691894786,-0.6679421640099914,"(0.0, 0.0, 0.0, 0.0, 0.0, 0.0)",0.016461146679105913,-0.6258874313081562,0.6903315015508323,"(0.0, 0.0, 0.0, 0.0, 0.0, 0.0)",-0.12048866447898966,0.8749545742586229,0.6679473624521103,"(0.0, 0.0, 0.0, 0.0, 0.0, 0.0)",-0.016461214564379854,False,,,,,False,,,,
14,Move,,,"(0.0002849434880139787, 0.17128526654835666, 0.0018667775255450016)","(1.529867145493542, 0.001236551690390913, -0.0026252758006009144)","[0.0, 0.0, 0.0]","[-0.026750000193715096, 0.05299999937415123, 0.03999999910593033]","[0.0, -0.0, 0.5674368798319164]","[-0.06544800847768784, 0.113716259598732, 0.03999999910593033]","[0.0, 0.0, -0.23086444862254737]","[0.026750000193715096, 0.05299999937415123, 0.03999999910593033]","[0.0, 0.0, -0.5672775113046467]","[0.06543833017349243, 0.11372242867946625, 0.03999999910593033]","[0.0, -0.0, 0.2338230653212545]",0.5526433844132694,-3.5504372063580854,"(0.0, 0.0, 0.0, 0.0, 0.0, 0.0)",-74.66311326449657,-0.7739535469156117,5.843468067207706,"(0.0, 0.0, 0.0, 0.0, 0.0, 0.0)",-38.567738900473906,-0.5523653530093062,3.5789086898164406,"(0.0, 0.0, 0.0, 0.0, 0.0, 0.0)",70.97380681712595,0.7784689212282292,-5.431581853362886,"(0.0, 0.0, 0.0, 0.0, 0.0, 0.0)",36.631671368390464,True,"(-0.031139027298926508, 0.18549673152317092, 0.03999924353386678)","(0.9999971505660776, -0.0022642037706561637, -0.0007564661332230728)",-0.000503181178828863,565.4925793008347,True,"(0.030917119596597424, 0.1854085662421605, 0.04000075646613322)","(-0.9999971505660776, 0.002264203770598743, 0.0007564661332168607)",-0.0013606486484191646,538.0249494895718
15,Move,"(-0.0011, 0.0, 0.0014)","(0.0, 0.01321039710834508, 0.0)","(0.00012129705293513006, 0.17133289379856176, 0.003174453814646505)","(1.4897460811674128, -0.0003356009731068368, -0.006778359783079074)","[-0.00016364643507884864, 4.762725020510117e-05, 0.0013076762891015034]","[-0.026750000193715096, 0.05299999937415123, 0.03999999910593033]","[0.0, -0.0, 0.5458990601823397]","[-0.06413143873214722, 0.11453558504581451, 0.03999999910593033]","[0.0, 0.0, -0.2117467481356035]","[0.026750000193715096, 0.05299999937415123, 0.03999999910593033]","[0.0, 0.0, -0.5441818457221961]","[0.06402571499347687, 0.11459968239068985, 0.03999999910593033]","[0.0, -0.0, 0.21908862059054934]",0.5476703509284447,0.4251156257477309,"(0.0, 0.0, 0.0, 0.0, 0.0, 0.0)",-0.06447601920460913,-0.759276535555003,-0.3913869696162315,"(0.0, 0.0, 0.0, 0.0, 0.0, 0.0)",-0.00040974928973953824,-0.5456007143999295,-0.3405332630273919,"(0.0, 0.0, 0.0, 0.0, 0.0, 0.0)",0.4807880867134728,0.7646681295613088,0.3354431205381535,"(0.0, 0.0, 0.0, 0.0, 0.0, 0.0)",0.24292530341011298,True,"(-0.031200795292256348, 0.18693647548435455, 0.04000034600552933)","(0.9999849164416539, -0.00548152983683356, 0.0003460055293390978)",-0.0005035548817369208,0.0,True,"(0.030564335463480946, 0.18677515838082578, 0.03999965399447066)","(-0.999984916441654, 0.005481529836831492, -0.0003460055293387063)",-0.001651360352964338,3.22029732060542
16,Move,"(-0.009800000000000001, 0.0, 0.0092)","(0.0, 0.13193991013376333, 0.0)","(-0.0004395378816785371, 0.1712902160960747, 0.0032086051266306008)","(1.4922288878007173, -0.00025516956223466445, -0.013052457980203255)","[-0.0007244813696925158, 4.94954771804168e-06, 0.0013418276010855991]","[-0.026750000193715096, 0.05299999937415123, 0.03999999910593033]","[0.0, -0.0, 0.5574820265877545]","[-0.06484168022871017, 0.11409847438335419, 0.03999999910593033]","[0.0, 0.0, -0.20286447454796525]","[0.026750000193715096, 0.05299999937415123, 0.03999999910593033]","[0.0, 0.0, -0.5464988234145214]","[0.06416834145784378, 0.11451315134763718, 0.03999999910593033]","[0.0, -0.0, 0.21899087443245233]",0.5596925457331222,0.530527723458362,"(0.0, 0.0, 0.0, 0.0, 0.0, 0.0)",-0.08670032997160704,-0.7602394942703725,0.025678899076519986,"(0.0, 0.0, 0.0, 0.0, 0.0, 0.0)",-0.006750472818972433,-0.5463956548573047,0.024749568010505228,"(0.0, 0.0, 0.0, 0.0, 0.0, 0.0)",0.3733139065421047,0.7653891753229163,-0.024112069093117177,"(0.0, 0.0, 0.0, 0.0, 0.0, 0.0)",0.18151558860722322,True,"(-0.03255547219881544, 0.18677394512583495, 0.04000026953134456)","(0.9999319689724634, -0.011661251206742402, 0.00026953134455408285)",0.00043985867836130707,0.0,True,"(0.030714067240105503, 0.186697979861061, 0.03999973046865544)","(-0.9999319689724634, 0.011661251206741453, -0.0002695313445637292)",-0.0010937362040405146,2.808650509504667
17,Move,"(-0.0137, 0.0, 0.0158)","(0.0, 0.08280714636087097, 0.0)","(-0.0008751612835732458, 0.17115039446307298, 0.002056173892369031)","(1.531954981852292, -0.0002373587575649696, -0.020630939177181805)","[-0.0011601047715872246, -0.0001348720852836771, 0.00018939636682402958]","[-0.026750000193715096, 0.05299999937415123, 0.03999999910593033]","[0.0, -0.0, 0.575230391616256]","[-0.06592002511024475, 0.11341282725334167, 0.03999999910593033]","[0.0, 0.0, -0.18493896337036078]","[0.026750000193715096, 0.05299999937415123, 0.03999999910593033]","[0.0, 0.0, -0.546468430538429]","[0.06416647136211395, 0.1145142912864685, 0.03999999910593033]","[0.0, -0.0, 0.2187947748353364]",0.5788748922596557,0.8746915117537836,"(0.0, 0.0, 0.0, 0.0, 0.0, 0.0)",-0.14239138300402962,-0.7601763145490572,-0.0016847925684091436,"(0.0, 0.0, 0.0, 0.0, 0.0, 0.0)",-0.01058912496129674,-0.5465136302290847,-0.010851073348510895,"(0.0, 0.0, 0.0, 0.0, 0.0, 0.0)",0.301949860150676,0.7652440172721534,-0.00460141880070819,"(0.0, 0.0, 0.0, 0.0, 0.0, 0.0)",0.1475379051913102,False,,,,,True,"(0.03072647081710851, 0.1867131029879182, 0.039999766353400815)","(-0.9998139859086407, 0.019285719865824273, -0.00023364659918758126)",-0.0007263158246643781,2.241556606397482
18,Move,"(-0.0137, 0.0, 0.0158)","(0.0, 0.08280714636087097, 0.0)","(-0.002177820294305332, 0.17448680945188264, 0.0013879461546779995)","(1.574368849674046, -0.016579230692804516, -0.0007398498694351699)","[-0.0024627637823193107, 0.003201542903525978, -0.00047883137086700213]","[-0.026750000193715096, 0.05299999937415123, 0.03999999910593033]","[0.0, -0.0, 0.5260613409296719]","[-0.06290344148874283, 0.11526498943567276, 0.03999999910593033]","[0.0, 0.0, -0.17485780423634145]","[0.026750000193715096, 0.05299999937415123, 0.03999999910593033]","[0.0, 0.0, -0.49244625939689773]","[0.06079036742448807, 0.11644488573074341, 0.03999999910593033]","[0.0, -0.0, 0.21493876836675996]",0.5115761042579545,-3.476444830852745,"(0.0, 0.0, 0.0, 0.0, 0.0, 0.0)",-69.72959144151156,-0.6755758644913471,6.082373211252076,"(0.0, 0.0, 0.0, 0.0, 0.0, 0.0)",-37.976215578940256,-0.4784912593815452,3.349192417873782,"(0.0, 0.0, 0.0, 0.0, 0.0, 0.0)",69.4361681946464,0.6825688492321903,-5.955874213365114,"(0.0, 0.0, 0.0, 0.0, 0.0, 0.0)",37.55828291887799,True,"(-0.032683632820350396, 0.18869373169153114, 0.04216159727558447)","(0.9998598681092078, -0.0006840888710119277, 0.016726510904975043)",-0.0023306719998293394,516.8280177306569,True,"(0.027629072038896127, 0.18877453996223859, 0.039999757809435134)","(-0.9997613269190739, 0.021845606898019784, -0.00024219056486612318)",-0.001309853662577394,511.3399494133794
19,Move,"(-0.018600000000000002, 0.0, 0.0223)","(0.0, -0.0, 0.0)","(-0.0023802517971179956, 0.17709713341634833, 0.0011802943332707638)","(1.5690858340360185, -0.0125269947879004, 0.025853913805933163)","[-0.0026651952851319744, 0.005811866867991677, -0.0006864831922742379]","[-0.026750000193715096, 0.05299999937415123, 0.03999999910593033]","[0.0, -0.0, 0.5219760222849543]","[-0.06264875829219818, 0.1154121682047844, 0.03999999910593033]","[0.0, 0.0, -0.13698739487764278]","[0.026750000193715096, 0.05299999937415123, 0.03999999910593033]","[0.0, 0.0, -0.46880073097641706]","[0.05928080528974533, 0.11723197251558304, 0.03999999910593033]","[0.0, -0.0, 0.19732777876785826]",0.5282789077025065,1.51271665349812,"(0.0, 0.0, 0.0, 0.0, 0.0, 0.0)",-0.24140845147416423,-0.6606245576728195,-0.39870151516073626,"(0.0, 0.0, 0.0, 0.0, 0.0, 0.0)",-0.013506383183948369,-0.46957081571913684,-0.18481714982135947,"(0.0, 0.0, 0.0, 0.0, 0.0, 0.0)",0.06729319228778287,0.667771363005851,0.3942839197528434,"(0.0, 0.0, 0.0, 0.0, 0.0, 0.0)",0.02152873049866736,True,"(-0.03523018354688743, 0.18991319890549474, 0.042160194017991696)","(0.9997215524694014, 0.01794480102936999, 0.015323238697689222)",0.0001575618601406245,0.0,True,"(0.02741869637710536, 0.18996840448437713, 0.03783980598200834)","(-0.9997215524694022, -0.0179448010293443, -0.015323238697651682)",-0.0015113364236322522,0.30685336436496674
20,Move,"(-0.028100000000000003, 0.0, 0.028399999999999998)","(0.0, 0.03511427922087392, 0.0)","(-0.003785621754318734, 0.17856713927486545, 0.0007878071320497888)","(1.5697361509723204, 0.0023223240280755664, 0.07092998804949183)","[-0.004070565242332713, 0.007281872726508792, -0.0010789703934952128]","[-0.026750000193715096, 0.05299999937415123, 0.03999999910593033]","[0.0, -0.0, 0.560429671333864]","[-0.06502161175012589, 0.11398593336343765, 0.03999999910593033]","[0.0, 0.0, -0.10128491051113064]","[0.026750000193715096, 0.05299999937415123, 0.03999999910593033]","[0.0, 0.0, -0.46544333792399234]","[0.059064969420433044, 0.11734083294868469, 0.03999999910593033]","[0.0, -0.0, 0.203156799294302]",0.5675522561681117,1.7094421783024556,"(0.0, 0.0, 0.0, 0.0, 0.0, 0.0)",-0.27854432390096767,-0.6616055129131831,0.026158806409696922,"(0.0, 0.0, 0.0, 0.0, 0.0, 0.0)",-0.021018213088507834,-0.46414456340306504,0.3117046649955388,"(0.0, 0.0, 0.0, 0.0, 0.0, 0.0)",0.4733616070919822,0.6684733795790122,-0.030417836741455307,"(0.0, 0.0, 0.0, 0.0, 0.0, 0.0)",0.30160205115550764,False,,,,,True,"(0.026759318298097357, 0.18995765703714315, 0.03999862344813094)","(-0.9981271646945373, -0.061157732166877615, -0.0013765518690572664)",-0.0010196502512035833,3.8674806286483543
21,Move,"(-0.028100000000000003, 0.0, 0.028399999999999998)","(0.0, 0.03511427922087392, 0.0)","(-0.006279417603993266, 0.18025180527816945, 0.0016233258930674797)","(1.545622869191532, -0.006565743866228237, 0.1032643483266228)","[-0.006564361092007244, 0.00896653872981279, -0.00024345163247752196]","[-0.026750000193715096, 0.05299999937415123, 0.03999999910593033]","[0.0, -0.0, 0.5172094750951396]","[-0.06235086917877197, 0.11558257043361664, 0.03999999910593033]","[0.0, 0.0, -0.088362059893517]","[0.026750000193715096, 0.05299999937415123, 0.03999999910593033]","[0.0, 0.0, -0.41103805375544317]","[0.05551839992403984, 0.11900287121534348, 0.03999999910593033]","[0.0, -0.0, 0.20023315015660462]",0.5025575916076626,-3.5164500139400166,"(0.0, 0.0, 0.0, 0.0, 0.0, 0.0)",-66.52075667375274,-0.5826352516367779,5.504705432532109,"(0.0, 0.0, 0.0, 0.0, 0.0, 0.0)",-34.93343321137803,-0.3976997356627256,3.2011944587864813,"(0.0, 0.0, 0.0, 0.0, 0.0, 0.0)",68.7943696757809,0.5868673082515861,-5.856932009128605,"(0.0, 0.0, 0.0, 0.0, 0.0, 0.0)",36.58552425360655,True,"(-0.038589575001464156, 0.19137060923982907, 0.042155194169892135)","(0.9949669415169429, 0.09967052169512726, 0.010323390598128302)",-0.001278974781572489,479.67154160905915,True,"(0.023426106147306287, 0.1916999588993906, 0.040003786135559126)","(-0.9970026951999245, -0.07727412853998712, 0.0037861355591252317)",-0.0009019608495614297,498.30550148187984
22,Move,"(-0.0263, 0.0, 0.0344)","(0.0, 0.06885672964968029, 0.0)","(-0.006936741287164307, 0.18082669868501244, 0.002108450006143767)","(1.524655537648111, 0.0004370832971233338, 0.10226604802372882)","[-0.007221684775178285, 0.009541432136655786, 0.00024167248059876528]","[-0.026750000193715096, 0.05299999937415123, 0.03999999910593033]","[0.0, -0.0, 0.5228851788808642]","[-0.06270549446344376, 0.11537950485944748, 0.03999999910593033]","[0.0, 0.0, -0.04478148520672054]","[0.026750000193715096, 0.05299999937415123, 0.03999999910593033]","[0.0, 0.0, -0.38841600208231103]","[0.0540180504322052, 0.11963672935962677, 0.03999999910593033]","[0.0, -0.0, 0.18213163786548725]",0.5319060410620922,2.1650056774754898,"(0.0, 0.0, 0.0, 0.0, 0.0, 0.0)",-0.3479799393165288,-0.569163527001793,-0.35924599026626497,"(0.0, 0.0, 0.0, 0.0, 0.0, 0.0)",-0.021864983336877718,-0.3891398214027604,-0.17370832944091089,"(0.0, 0.0, 0.0, 0.0, 0.0, 0.0)",0.1029596035582813,0.572176690615606,0.3909677091629069,"(0.0, 0.0, 0.0, 0.0, 0.0, 0.0)",0.04248073365573747,False,,,,,True,"(0.023250903012152643, 0.19285207801567228, 0.04000047519705228)","(-0.9944968374701401, -0.1047655212827748, 0.00047519705228008565)",-0.0008073582565258691,0.287112150053996
23,Move,"(-0.0263, 0.0, 0.0344)","(0.0, 0.06885672964968029, 0.0)","(-0.009303979053882921, 0.18294199955042129, 0.0023043356378031066)","(1.5360127477825671, -0.017329619935102934, 0.10516425715197403)","[-0.0095889225418969, 0.011656733002064629, 0.00043755811225810494]","[-0.026750000193715096, 0.05299999937415123, 0.03999999910593033]","[0.0, -0.0, 0.486453418829989]","[-0.0604095421731472, 0.11664774268865585, 0.03999999910593033]","[0.0, 0.0, -0.027990904849295683]","[0.026750000193715096, 0.05299999937415123, 0.03999999910593033]","[0.0, 0.0, -0.3402805297962405]","[0.05078011006116867, 0.12087159603834152, 0.03999999910593033]","[0.0, -0.0, 0.17853222646374414]",0.47258065200211335,-3.329453159606791,"(0.0, 0.0, 0.0, 0.0, 0.0, 0.0)",-65.13729470772353,-0.49037959904436157,5.775523270312604,"(0.0, 0.0, 0.0, 0.0, 0.0, 0.0)",-35.79899274359021,-0.3275454441099592,3.0564143650594384,"(0.0, 0.0, 0.0, 0.0, 0.0, 0.0)",65.42082885912092,0.49589173960193716,-5.501035989437377,"(0.0, 0.0, 0.0, 0.0, 0.0, 0.0)",34.36763307796695,True,"(-0.04125552969381205, 0.19366829446229006, 0.04216208429332559)","(0.9942594940246691, 0.10560185870725904, 0.017213540582377413)",-0.002001608782874739,463.59115322295867,True,"(0.020276062617622423, 0.194203620813809, 0.04000040255022209)","(-0.9949810548240338, -0.10006267283343842, 0.00040255022209325286)",-0.0007071581407078332,462.7484926172724
24,Move,"(-0.0348, 0.0, 0.0357)","(0.0, 0.05146626898280879, 0.0)","(-0.010723382394086567, 0.18516825105423704, 0.0016263999272694354)","(1.567795094556553, -0.023852154080222496, 0.10685923792009143)","[-0.011008325882100546, 0.01388298450588038, -0.0002403775982755662]","[-0.026750000193715096, 0.05299999937415123, 0.03999999910593033]","[0.0, -0.0, 0.4980751684693872]","[-0.06114695221185684, 0.11625226587057114, 0.03999999910593033]","[0.0, -0.0, 0.02353184395701727]","[0.026750000193715096, 0.05299999937415123, 0.03999999910593033]","[0.0, 0.0, -0.31255668383824825]","[0.04888945817947388, 0.12151163816452026, 0.03999999910593033]","[0.0, -0.0, 0.16802152588336802]",0.5082913636536761,2.451882070674957,"(0.0, 0.0, 0.0, 0.0, 0.0, 0.0)",-0.3943716640280442,-0.4761269706857559,-0.38007008956281835,"(0.0, 0.0, 0.0, 0.0, 0.0, 0.0)",-0.02507404693553561,-0.31160382752952653,0.22868692530966353,"(0.0, 0.0, 0.0, 0.0, 0.0, 0.0)",0.1781548861770169,0.4821000894570984,0.3652451344455437,"(0.0, 0.0, 0.0, 0.0, 0.0, 0.0)",0.11212046307716543,True,"(-0.04598327604955785, 0.19414632789366804, 0.04216219950779493)","(0.994326009451185, 0.10495475817590061, 0.01732875255523031)",0.0014759678388548596,0.0,True,"(0.019157849504634714, 0.19516022163321106, 0.04000040255022209)","(-0.9949810548240338, -0.10006267283343842, 0.00040255022209325286)",-0.0005595574316267991,0.6252089870343411
25,Move,"(-0.0349, 0.0, 0.0356)","(0.0, 0.02991494337918281, 0.0)","(-0.012768657679935005, 0.18665871735698739, 0.0013456923243408106)","(1.5856637981556665, -0.012083760112274805, 0.15420578184670333)","[-0.013053601167948984, 0.015373450808630729, -0.000521085201204191]","[-0.026750000193715096, 0.05299999937415123, 0.03999999910593033]","[0.0, -0.0, 0.548953449266848]","[-0.06431922316551208, 0.11442111432552338, 0.03999999910593033]","[0.0, -0.0, 0.07178747442701394]","[0.026750000193715096, 0.05299999937415123, 0.03999999910593033]","[0.0, 0.0, -0.3034011406716723]","[0.04826128110289574, 0.12171146273612976, 0.03999999910593033]","[0.0, -0.0, 0.1793058571664731]",0.5574183460954931,2.0315722656151394,"(0.0, 0.0, 0.0, 0.0, 0.0, 0.0)",-0.3309168083836491,-0.47706208563236396,0.024936398576216323,"(0.0, 0.0, 0.0, 0.0, 0.0, 0.0)",-0.024889548207541082,-0.30141923196368636,0.47566937339986726,"(0.0, 0.0, 0.0, 0.0, 0.0, 0.0)",0.26907088547087976,0.48261881871766354,-0.021172071523169064,"(0.0, 0.0, 0.0, 0.0, 0.0, 0.0)",0.19383501939777162,False,,,,,True,"(0.017939793429195487, 0.193684778927051, 0.032948040223689)","(-0.9898479841635726, -0.14123296445721328, -0.01594421518730929)",-0.000457086106486877,2.5018627560849156
26,Move,"(-0.0349, 0.0, 0.0356)","(0.0, 0.02991494337918281, 0.0)","(-0.019016184439629567, 0.18616710137501294, 0.0007298690114212579)","(1.5542876093073352, 0.009897916494922259, 0.13344770499568687)","[-0.019301127927643547, 0.014881834826656282, -0.0011369085141237439]","[-0.026750000193715096, 0.05299999937415123, 0.03999999910593033]","[0.0, -0.0, 0.5093167731411598]","[-0.061855822801589966, 0.11586160212755203, 0.03999999910593033]","[0.0, -0.0, 0.05507016262347637]","[0.026750000193715096, 0.05299999937415123, 0.03999999910593033]","[0.0, 0.0, -0.2507525698911779]","[0.04461558163166046, 0.12274827063083649, 0.03999999910593033]","[0.0, -0.0, 0.20907448491970304]",0.495421656469973,-3.3348303415399574,"(0.0, 0.0, 0.0, 0.0, 0.0, 0.0)",-55.920006466332374,-0.42953757355907657,5.93017335024623,"(0.0, 0.0, 0.0, 0.0, 0.0, 0.0)",-31.14041215437912,-0.23865131359738237,2.9043013382604834,"(0.0, 0.0, 0.0, 0.0, 0.0, 0.0)",54.420504717377106,0.43851172047637266,-5.115670985143589,"(0.0, 0.0, 0.0, 0.0, 0.0, 0.0)",27.87490707309351,True,"(-0.04914357408433973, 0.19390566840034024, 0.04423057134157467)","(0.9804485407523218, 0.1954663107622101, 0.02266230998053559)",-0.002856645132669735,370.15463969109476,True,"(0.011891350326637254, 0.1950800623291803, 0.039999422361311494)","(-0.9871735140095158, -0.1596499908288431, -0.0005776386885053003)",-0.0005946377705911487,381.48775874309064
27,Move,"(-0.040299999999999996, 0.0, 0.035)","(0.0, 0.038950512916757454, 0.0)","(-0.02173041625544197, 0.18832175902272302, 0.0005568755931775959)","(1.5675915727562397, 0.006676311451643988, 0.05520057624175267)","[-0.022015359743455948, 0.017036492474366366, -0.0013099019323674058]","[-0.026750000193715096, 0.05299999937415123, 0.03999999910593033]","[0.0, -0.0, 0.5214878562861084]","[-0.06261830031871796, 0.11542968451976776, 0.03999999910593033]","[0.0, -0.0, 0.10963989023174159]","[0.026750000193715096, 0.05299999937415123, 0.03999999910593033]","[0.0, 0.0, -0.22105291875195493]","[0.042536504566669464, 0.12324803322553635, 0.03999999910593033]","[0.0, -0.0, 0.2039297141094893]",0.5318193672002591,2.4795535768835366,"(0.0, 0.0, 0.0, 0.0, 0.0, 0.0)",-0.7093701978833469,-0.4136157746307615,-0.42426425808945745,"(0.0, 0.0, 0.0, 0.0, 0.0, 0.0)",-0.15094975824566434,-0.21925146427598452,0.43234664582818105,"(0.0, 0.0, 0.0, 0.0, 0.0, 0.0)",-0.07434041615705238,0.42633555399777157,0.32469777276269557,"(0.0, 0.0, 0.0, 0.0, 0.0, 0.0)",-0.009184539975482273,True,"(-0.049883582145678125, 0.15510881183969324, 0.028990540233954035)","(0.9939510896097148, 0.10941546125809162, -0.009459825650611884)",-0.0008477479127482633,3.0513053181865706,True,"(0.010196946601080545, 0.1957273702467448, 0.04215399424924401)","(-0.9975262537007945, -0.06970032620963412, 0.00912346995000995)",-0.0004291942550704162,0.0
28,Move,"(-0.0348, 0.0, 0.034)","(0.0, 0.031243138939950493, 0.0)","(-0.022813710016734844, 0.18947394434209106, 0.0004356791308758565)","(1.568708603349189, -0.010290003207244436, 0.0412415896474573)","[-0.023098653504748823, 0.018188677793734398, -0.001431098394669145]","[-0.026750000193715096, 0.05299999937415123, 0.03999999910593033]","[0.0, -0.0, 0.5667734181400329]","[-0.06540771573781967, 0.1137419193983078, 0.03999999910593033]","[0.0, -0.0, 0.1519980206290398]","[0.026750000193715096, 0.05299999937415123, 0.03999999910593033]","[0.0, 0.0, -0.21603814913440447]","[0.04218403249979019, 0.12332631647586823, 0.03999999910593033]","[0.0, -0.0, 0.21118590193683892]",0.5736748987546537,1.6563594062264122,"(0.0, 0.0, 0.0, 0.0, 0.0, 0.0)",-0.26993153251428387,-0.41465940316532696,0.02783009425507954,"(0.0, 0.0, 0.0, 0.0, 0.0, 0.0)",-0.020407312957845973,-0.21560988726256952,0.10278233159905564,"(0.0, 0.0, 0.0, 0.0, 0.0, 0.0)",-0.016480573309776186,0.42713518175508636,-0.02132340686172718,"(0.0, 0.0, 0.0, 0.0, 0.0, 0.0)",-0.000989981336601994,True,"(-0.054628797514807474, 0.15564934959400592, 0.029075159307601302)","(0.9920756406035576, 0.12559196920061597, -0.0035469132147154876)",0.0011124153982006355,0.0,True,"(0.009319407883423579, 0.19556908566742598, 0.04215399424924401)","(-0.9975262537007945, -0.06970032620963412, 0.00912346995000995)",0.000637425386048751,0.0
29,Move,"(-0.039700000000000006, 0.0, 0.0351)","(0.0, 0.038950512916757454, 0.0)","(-0.022828455242214028, 0.18951287183108081, 0.000644064982909288)","(1.5690937514098429, -0.007084378593874378, 0.04218838348577716)","[-0.023113398730228007, 0.018227605282724157, -0.0012227125426357136]","[-0.026750000193715096, 0.05299999937415123, 0.03999999910593033]","[0.0, -0.0, 0.6098635907263438]","[-0.06798840314149857, 0.11202028393745422, 0.03999999910593033]","[0.0, -0.0, 0.19528088893583165]","[0.026750000193715096, 0.05299999937415123, 0.03999999910593033]","[0.0, 0.0, -0.2119219517956056]","[0.041894424706697464, 0.12338925153017044, 0.03999999910593033]","[0.0, -0.0, 0.21515501133551698]",0.6179274989323568,1.9353596180023036,"(0.0, 0.0, 0.0, 0.0, 0.0, 0.0)",-0.3149603657452734,-0.41459028458523156,-0.001843162135877208,"(0.0, 0.0, 0.0, 0.0, 0.0, 0.0)",-0.023418340017999556,-0.21104940375087797,0.2094127483179046,"(0.0, 0.0, 0.0, 0.0, 0.0, 0.0)",0.9642550824827213,0.4268047598414623,-0.0653275611364159,"(0.0, 0.0, 0.0, 0.0, 0.0, 0.0)",0.5125724736715511,False,,,,,True,"(0.008743320952875944, 0.1955010068203537, 0.04215399424924401)","(-0.9975262537007945, -0.06970032620963412, 0.00912346995000995)",0.00012167818962901567,2.3338065785491615
30,Move,"(-0.039700000000000006, 0.0, 0.0351)","(0.0, 0.038950512916757454, 0.0)","(-0.029988599196126092, 0.18991307503971006, 0.0018943526232742826)","(1.5535435676599647, -0.023840694085986568, 0.25730412381631723)","[-0.03027354268414007, 0.018627808491353398, 2.7575097729281e-05]","[-0.026750000193715096, 0.05299999937415123, 0.03999999910593033]","[0.0, -0.0, 0.5690514552818243]","[-0.06554599106311798, 0.11365369707345963, 0.03999999910593033]","[0.0, -0.0, 0.15781753187610834]","[0.026750000193715096, 0.05299999937415123, 0.03999999910593033]","[0.0, 0.0, -0.1607826317889501]","[0.038276538252830505, 0.12407136708498001, 0.03999999910593033]","[0.0, -0.0, 0.2554234645010191]",0.5540041406660803,-3.611355173764372,"(0.0, 0.0, 0.0, 0.0, 0.0, 0.0)",-6.635777836189117,-0.4100288551893695,0.2892146527861694,"(0.0, 0.0, 0.0, 0.0, 0.0, 0.0)",-2.3178198567950585,-0.14751124910438557,3.1851316308980904,"(0.0, 0.0, 0.0, 0.0, 0.0, 0.0)",14.793595867023406,0.4124523546712579,-0.9008971456320329,"(0.0, 0.0, 0.0, 0.0, 0.0, 0.0)",8.567677753052237,True,"(-0.054887080528852786, 0.1548404678634526, 0.051031772866117174)","(0.9870740254886902, 0.1570838928618334, 0.03177292572181954)",-0.00164945699640667,65.50447060984281,True,"(0.002461650173085743, 0.19396381172656701, 0.033858735028897684)","(-0.9878476236370453, -0.1521315165622404, -0.031828825663466835)",-0.00021344619084635822,104.73544818578287
31,Move,"(-0.0405, 0.0, 0.0349)","(0.0, 0.034222415973104825, 0.0)","(-0.03444330129125635, 0.1913856340130962, 0.0021101983768661513)","(1.557891353926428, 0.029288446348596453, 0.1689340376621987)","[-0.03472824477927033, 0.020100367464739533, 0.0002434208513211497]","[-0.026750000193715096, 0.05299999937415123, 0.03999999910593033]","[0.0, -0.0, 0.5787958481149004]","[-0.06613517552614212, 0.1132727786898613, 0.03999999910593033]","[0.0, -0.0, 0.1840406922265601]","[0.026750000193715096, 0.05299999937415123, 0.03999999910593033]","[0.0, 0.0, -0.12847299816122637]","[0.03597462922334671, 0.12440662831068039, 0.03999999910593033]","[0.0, -0.0, 0.27099953755452344]",0.5888295096662971,2.4080778415428834,"(0.0, 0.0, 0.0, 0.0, 0.0, 0.0)",-1.9633970574923778,-0.3962537879852338,-0.3596733764083669,"(0.0, 0.0, 0.0, 0.0, 0.0, 0.0)",-0.6975597828976853,-0.1262508092008677,0.533323951685674,"(0.0, 0.0, 0.0, 0.0, 0.0, 0.0)",0.6077617890299263,0.40069543412306574,0.29350127221396605,"(0.0, 0.0, 0.0, 0.0, 0.0, 0.0)",0.350144583598708,True,"(-0.06316227264586838, 0.19019367838853213, 0.03083593172882436)","(0.9797464636890089, 0.19941146849991745, -0.018219031796112742)",-0.002147578956751897,0.0,True,"(3.2763022131385156e-05, 0.19026689415709697, 0.029187203126258575)","(-0.9668047022135434, -0.2544020376488753, -0.02383843572640632)",0.0005990875832434039,0.0
32,Move,"(-0.040799999999999996, 0.0, 0.0344)","(0.0, 0.043708280457693996, 0.0)","(-0.03669086655994337, 0.1929094100714867, 0.001892613132813049)","(1.5763963241429635, 0.028910207858308123, 0.12775788902713436)","[-0.03697581004795735, 0.02162414352313005, 2.5835607268047357e-05]","[-0.026750000193715096, 0.05299999937415123, 0.03999999910593033]","[0.0, -0.0, 0.62621240936879]","[-0.06894776225090027, 0.11133822798728943, 0.03999999910593033]","[0.0, -0.0, 0.2289600917226231]","[0.026750000193715096, 0.05299999937415123, 0.03999999910593033]","[0.0, 0.0, -0.1186878829607791]","[0.035275477916002274, 0.12449347227811813, 0.03999999910593033]","[0.0, -0.0, 0.282849556140886]",0.63383979282249,1.8305864393298155,"(0.0, 0.0, 0.0, 0.0, 0.0, 0.0)",-0.2982229730865193,-0.3971520626210429,0.02404858548113372,"(0.0, 0.0, 0.0, 0.0, 0.0, 0.0)",-0.022455891823690687,-0.11719242983819285,0.3589067352889561,"(0.0, 0.0, 0.0, 0.0, 0.0, 0.0)",-0.05820210592241938,0.40145327926291047,-0.020191878912780088,"(0.0, 0.0, 0.0, 0.0, 0.0, 0.0)",-0.004112726993225685,True,"(-0.06231151498291883, 0.15776136490674733, 0.028967746261479466)","(0.9733962348188315, 0.22684678209536527, -0.03225379812518076)",-0.0007740080346002673,0.0,True,"(-0.0024474055568399627, 0.1934076021868034, 0.0461464869894089)","(-0.9886226022870833, -0.1457826642925084, 0.037050843970053426)",0.0003128506226681029,0.0
33,Move,"(-0.040100000000000004, 0.0, 0.0343)","(0.0, 0.03601835977340698, 0.0)","(-0.03761144203107153, 0.19384214797007696, 0.0008753529808427584)","(1.567258067958212, -0.007207445734871999, 0.11098934507734409)","[-0.03789638551908551, 0.0225568814217203, -0.0009914245447022432]","[-0.026750000193715096, 0.05299999937415123, 0.03999999910593033]","[0.0, -0.0, 0.6688232798981214]","[-0.07139455527067184, 0.10948773473501205, 0.03999999910593033]","[0.0, -0.0, 0.2717376347361908]","[0.026750000193715096, 0.05299999937415123, 0.03999999910593033]","[0.0, 0.0, -0.11351364211425519]","[0.03490544110536575, 0.12453662604093552, 0.03999999910593033]","[0.0, -0.0, 0.2878845182977314]",0.6763873462103803,1.8153742884271598,"(0.0, 0.0, 0.0, 0.0, 0.0, 0.0)",-0.2954489629463333,-0.39709227518358026,-0.0015874300142290037,"(0.0, 0.0, 0.0, 0.0, 0.0, 0.0)",-0.02197234258877611,-0.11288610368660731,0.15061242060433877,"(0.0, 0.0, 0.0, 0.0, 0.0, 0.0)",-0.024545763112528825,0.4014036649400114,0.0013236285318927626,"(0.0, 0.0, 0.0, 0.0, 0.0, 0.0)",-0.001846257888008679,True,"(-0.0673727413949444, 0.1583903256257073, 0.02899205536603901)","(0.9654954518613929, 0.2602987020311727, -0.007944693565630134)",0.0016104760601253327,0.0,False,,,,
34,Move,"(-0.040100000000000004, 0.0, 0.0343)","(0.0, 0.03601835977340698, 0.0)","(-0.04134198964769496, 0.19606711272980426, 0.0011108970429273572)","(1.5607208446301328, 0.005674664796026597, 0.273727163310439)","[-0.04162693313570894, 0.024781846181447603, -0.0007558804826176444]","[-0.026750000193715096, 0.05299999937415123, 0.03999999910593033]","[0.0, -0.0, 0.6316157817579859]","[-0.06926236301660538, 0.11110936850309372, 0.03999999910593033]","[0.0, -0.0, 0.256928225909068]","[0.026750000193715096, 0.05299999937415123, 0.03999999910593033]","[0.0, 0.0, -0.0637138193508051]","[0.0313342921435833, 0.12485390901565552, 0.03999999910593033]","[0.0, -0.0, 0.2908076247207618]",0.6180667848788852,-3.251744022778262,"(0.0, 0.0, 0.0, 0.0, 0.0, 0.0)",-36.28119753275371,-0.3661359375940116,2.052373581927842,"(0.0, 0.0, 0.0, 0.0, 0.0, 0.0)",-13.374891974944603,-0.05088411247378196,3.0791272755660524,"(0.0, 0.0, 0.0, 0.0, 0.0, 0.0)",49.104100859955636,0.336717428996587,-4.272964015983986,"(0.0, 0.0, 0.0, 0.0, 0.0, 0.0)",27.654695378224417,True,"(-0.06458740995948933, 0.1602158460291556, 0.05100498992285224)","(0.9658224444623819, 0.2591565276966594, 0.00498998245688796)",-0.0006193738397711916,275.75514047078855,True,"(-0.00719489137867859, 0.19431186091768604, 0.040001242682644246)","(-0.9797113611777587, -0.2004098413727953, 0.001242682644236801)",-0.00028135735633845276,337.82873749878934
35,Move,"(-0.0412, 0.0, 0.0346)","(0.0, 0.03038094628946529, 0.0)","(-0.04333982148273346, 0.198512315005446, 0.0016455849389685833)","(1.5698358137719455, -0.02214055424736097, 0.2991043166988038)","[-0.04362476497074744, 0.027227048457089342, -0.00022119258657641834]","[-0.026750000193715096, 0.05299999937415123, 0.03999999910593033]","[0.0, -0.0, 0.6440482283680341]","[-0.06998150795698166, 0.11057635396718979, 0.03999999910593033]","[0.0, -0.0, 0.2909395450209356]","[0.026750000193715096, 0.05299999937415123, 0.03999999910593033]","[0.0, 0.0, -0.03160031652797062]","[0.029024843126535416, 0.12496405094861984, 0.03999999910593033]","[0.0, -0.0, 0.28665744478089267]",0.6541085433804067,2.414468862534404,"(0.0, 0.0, 0.0, 0.0, 0.0, 0.0)",-0.3891020378991382,-0.35441139464961763,-0.3126544785171723,"(0.0, 0.0, 0.0, 0.0, 0.0, 0.0)",-0.025435729074032045,-0.02935790938579972,0.53817707792117,"(0.0, 0.0, 0.0, 0.0, 0.0, 0.0)",0.1661519527637011,0.32010255730876697,0.44274870055803195,"(0.0, 0.0, 0.0, 0.0, 0.0, 0.0)",0.11668270169106006,True,"(-0.07566734694182911, 0.18882776633742143, 0.0461166124738686)","(0.9573673288483683, 0.2887841719416232, 0.007176328429744276)",0.0013496567106206444,0.0,True,"(-0.004252649575547426, 0.17773108788220052, 0.028981391118678236)","(-0.9590282328917, -0.2826987015078426, -0.0186089409264089)",-0.0005717713466727071,2.0412781778096294
36,Move,"(-0.041299999999999996, 0.0, 0.0345)","(0.0, 0.03038094628946529, 0.0)","(-0.04592199274900918, 0.19882078073784895, 0.0016674388788889634)","(1.5701607433756066, -0.022521249546505535, 0.28445550959449145)","[-0.04620693623702316, 0.027535514189492294, -0.00019933864665603825]","[-0.026750000193715096, 0.05299999937415123, 0.03999999910593033]","[0.0, -0.0, 0.6948243059189173]","[-0.07284803688526154, 0.10830796509981155, 0.03999999910593033]","[0.0, -0.0, 0.339558251618949]","[0.026750000193715096, 0.05299999937415123, 0.03999999910593033]","[0.0, 0.0, -0.014818935782814763]","[0.027816923335194588, 0.12499209493398666, 0.03999999910593033]","[0.0, -0.0, 0.30645949756709456]",0.7033414325976304,2.0440980740728776,"(0.0, 0.0, 0.0, 0.0, 0.0, 0.0)",-0.3329002544851526,-0.35518064191219934,0.02051326033551204,"(0.0, 0.0, 0.0, 0.0, 0.0, 0.0)",-0.02498723634127885,-0.011450280126085306,0.8084769619863295,"(0.0, 0.0, 0.0, 0.0, 0.0, 0.0)",0.2139790034332502,0.32115583282525645,-0.029417495500606516,"(0.0, 0.0, 0.0, 0.0, 0.0, 0.0)",0.16843377076537777,False,,,,,True,"(-0.0067532017304049, 0.17789402435685012, 0.028975728170366827)","(-0.9566877738749117, -0.2901023590236612, -0.0242718892378176)",-0.00019112036597688763,0.0
37,Move,"(-0.041299999999999996, 0.0, 0.0345)","(0.0, 0.03038094628946529, 0.0)","(-0.05012338790759229, 0.19945105568392682, 0.001904104218769406)","(1.5708419002051757, 0.026302187576408346, 0.2641604032066595)","[-0.05040833139560627, 0.028165789135570163, 3.732669322440438e-05]","[-0.026750000193715096, 0.05299999937415123, 0.03999999910593033]","[0.0, -0.0, 0.6609220180907558]","[-0.0709468349814415, 0.10983871668577194, 0.03999999910593033]","[0.0, -0.0, 0.3439556994525978]","[0.026750000193715096, 0.05299999937415123, 0.03999999910593033]","[0.0, -0.0, 0.033902619666899496]","[0.02430947870016098, 0.12495862692594528, 0.03999999910593033]","[0.0, -0.0, 0.30224542215077815]",0.6482841278841521,-3.0330910239580007,"(0.0, 0.0, 0.0, 0.0, 0.0, 0.0)",-65.90844701455677,-0.29882767864065923,4.3532802983062036,"(0.0, 0.0, 0.0, 0.0, 0.0, 0.0)",-27.445022185589757,0.04454086314567489,2.55317914785332,"(0.0, 0.0, 0.0, 0.0, 0.0, 0.0)",70.18795924701118,0.24486667409001964,-5.634269094872158,"(0.0, 0.0, 0.0, 0.0, 0.0, 0.0)",34.75916537243289,True,"(-0.07130096296296078, 0.16123952076223214, 0.02897436165618415)","(0.941118667196207, 0.33710284265322216, -0.025638403420495306)",-0.0010434031557617928,567.8986445762146,True,"(-0.010037408582664348, 0.1780057662729204, 0.028975728170366827)","(-0.9566877738749117, -0.2901023590236612, -0.0242718892378176)",0.0006963211540151146,381.5001452534788
38,Move,"(-0.0409, 0.0, 0.035)","(0.0, 0.022591541837814602, 0.0)","(-0.0512882995377002, 0.20060376663515292, 0.0007776716743765765)","(1.5708547202186063, -0.0068223089319576, 0.23021886707067726)","[-0.05157324302571418, 0.029318500086796262, -0.0010891058511684252]","[-0.026750000193715096, 0.05299999937415123, 0.03999999910593033]","[0.0, -0.0, 0.6733094196847984]","[-0.071647509932518, 0.10928688943386078, 0.03999999910593033]","[0.0, -0.0, 0.38650162260596116]","[0.026750000193715096, 0.05299999937415123, 0.03999999910593033]","[0.0, -0.0, 0.06286179565681439]","[0.022226931527256966, 0.12485779076814651, 0.03999999910593033]","[0.0, -0.0, 0.29238281266521976]",0.6831030745335336,2.350489221714252,"(0.0, 0.0, 0.0, 0.0, 0.0, 0.0)",-0.37899433643295216,-0.2880093421721845,-0.2883838359456145,"(0.0, 0.0, 0.0, 0.0, 0.0, 0.0)",-0.02495829708663738,0.06522299065320807,0.5666879284296547,"(0.0, 0.0, 0.0, 0.0, 0.0, 0.0)",-0.09673897607186495,0.23105571716299506,0.36833995721921886,"(0.0, 0.0, 0.0, 0.0, 0.0, 0.0)",-0.01134068261917492,True,"(-0.07498525087268272, 0.16258704920507708, 0.029117660355689214)","(0.9262193472862441, 0.37696241539234276, -0.004130144575519486)",0.0003665014695868134,0.0,True,"(-0.011595108864421215, 0.17824109531527302, 0.028975728170366827)","(-0.9566877738749117, -0.2901023590236612, -0.0242718892378176)",0.001070435068837077,0.0
39,Move,"(-0.0404, 0.0, 0.0345)","(0.0, 0.03038094628946529, 0.0)","(-0.05203998560404048, 0.2002564748637349, 0.0011745526318781858)","(1.5656638716257953, -0.018149123608174826, 0.21719403512377686)","[-0.05232492909205446, 0.02897120831537825, -0.0006922248936668159]","[-0.026750000193715096, 0.05299999937415123, 0.03999999910593033]","[0.0, -0.0, 0.7204341326375798]","[-0.07424919307231903, 0.10710939764976501, 0.03999999910593033]","[0.0, -0.0, 0.43163613347337826]","[0.026750000193715096, 0.05299999937415123, 0.03999999910593033]","[0.0, -0.0, 0.07474437794085106]","[0.021373415365815163, 0.1247989684343338, 0.03999999910593033]","[0.0, -0.0, 0.30664158630036964]",0.7281052185994807,1.841064014949513,"(0.0, 0.0, 0.0, 0.0, 0.0, 0.0)",-0.29986403322379945,-0.2887191319319809,0.018927726927904235,"(0.0, 0.0, 0.0, 0.0, 0.0, 0.0)",-0.02251937720020257,0.07673571362383838,0.47792266673792894,"(0.0, 0.0, 0.0, 0.0, 0.0, 0.0)",0.5441659904752135,0.23178043182619734,-0.028019717868502124,"(0.0, 0.0, 0.0, 0.0, 0.0, 0.0)",0.29811168246689196,False,,,,,True,"(-0.013206342724181367, 0.17769460616754407, 0.028975728170366827)","(-0.9566877738749117, -0.2901023590236612, -0.0242718892378176)",0.001262955822458626,0.0
40,Move,"(-0.0404, 0.0, 0.0345)","(0.0, 0.03038094628946529, 0.0)","(-0.05632554587017205, 0.2022778123721169, 0.0010182092345073397)","(1.5622646942509324, 0.0070461966799427135, 0.25863257995856187)","[-0.05661048935818603, 0.030992545823760237, -0.0008485682910376619]","[-0.026750000193715096, 0.05299999937415123, 0.03999999910593033]","[0.0, -0.0, 0.684852024464378]","[-0.0722942054271698, 0.10876490920782089, 0.03999999910593033]","[0.0, -0.0, 0.42811921842118855]","[0.026750000193715096, 0.05299999937415123, 0.03999999910593033]","[0.0, -0.0, 0.11723977388683374]","[0.01832806132733822, 0.12450574338436127, 0.03999999910593033]","[0.0, -0.0, 0.29885886362850084]",0.6718629737837526,-3.1173799852096886,"(0.0, 0.0, 0.0, 0.0, 0.0, 0.0)",-47.68136151450998,-0.2430155409566238,3.292151510231464,"(0.0, 0.0, 0.0, 0.0, 0.0, 0.0)",-20.549015377541544,0.1271819829523271,2.3861313078933515,"(0.0, 0.0, 0.0, 0.0, 0.0, 0.0)",58.15368174293323,0.15980821895258923,-5.234604568183784,"(0.0, 0.0, 0.0, 0.0, 0.0, 0.0)",31.251172162640845,True,"(-0.07898195716367072, 0.16436783617114703, 0.05100779868003966)","(0.9102542689803068, 0.41397626195603004, 0.0077987396442976125)",-0.000734641321277206,319.4208199723451,True,"(-0.020729874635139964, 0.193560290158124, 0.03784471248564326)","(-0.9777585015254614, -0.20947506850534015, -0.0104167350627353)",0.00016894053063231578,361.2516522545015
41,Move,"(-0.041600000000000005, 0.0, 0.0349)","(0.0, 0.026502824691533897, 0.0)","(-0.05956512444648411, 0.20602234793241367, 0.0007163233926308843)","(1.5717648185032687, -0.008708193848644626, 0.29383407289841634)","[-0.05985006793449809, 0.03473708138405701, -0.0011504541329141172]","[-0.026750000193715096, 0.05299999937415123, 0.03999999910593033]","[0.0, -0.0, 0.6962689557367913]","[-0.07292788475751877, 0.10824131220579147, 0.03999999910593033]","[0.0, -0.0, 0.46306676340829583]","[0.026750000193715096, 0.05299999937415123, 0.03999999910593033]","[0.0, -0.0, 0.1455594868041184]","[0.016306685283780098, 0.12423859536647797, 0.03999999910593033]","[0.0, -0.0, 0.29079869410924725]",0.7059510957014614,2.3237132212616864,"(0.0, 0.0, 0.0, 0.0, 0.0, 0.0)",-0.3752900680660508,-0.23418358728418778,-0.2355187645982939,"(0.0, 0.0, 0.0, 0.0, 0.0, 0.0)",-0.025284476972974913,0.1480913678510538,0.607650182020739,"(0.0, 0.0, 0.0, 0.0, 0.0, 0.0)",0.5947070360666521,0.14666760878683047,0.34281879153685996,"(0.0, 0.0, 0.0, 0.0, 0.0, 0.0)",0.3602967483904327,True,"(-0.08254407992046396, 0.16555899536707674, 0.051006357823588436)","(0.8946687482841922, 0.4466849092647972, 0.006357883193077236)",0.00171438661326795,0.0,True,"(-0.02167237593543262, 0.19184704228503818, 0.047980486193763744)","(-0.9601898648385597, -0.2793442504928379, 0.0014876753351461315)",0.00020652313272123135,0.0
