OSUrobotics/InHand-Manipulation/AnalyseData/Data/Trial Data/Better/new_hand_expected_exp_2v2_f_n_1_kpNone_kdNone_dp1_step1_save_data.csv
,Phase,human_cube_pos,human_cube_orn,Cube_Pos,Cube_Orn,Cube_pos_in_start_pos,b'l_prox_pin'_link_pos,b'l_prox_pin'_link_orn,b'l_distal_pin'_link_pos,b'l_distal_pin'_link_orn,b'r_prox_pin'_link_pos,b'r_prox_pin'_link_orn,b'r_distal_pin'_link_pos,b'r_distal_pin'_link_orn,b'l_prox_pin'_joint_angle,b'l_prox_pin'_joint_vel,b'l_prox_pin'_joint_react_forces,b'l_prox_pin'_joint_motor_torque,b'l_distal_pin'_joint_angle,b'l_distal_pin'_joint_vel,b'l_distal_pin'_joint_react_forces,b'l_distal_pin'_joint_motor_torque,b'r_prox_pin'_joint_angle,b'r_prox_pin'_joint_vel,b'r_prox_pin'_joint_react_forces,b'r_prox_pin'_joint_motor_torque,b'r_distal_pin'_joint_angle,b'r_distal_pin'_joint_vel,b'r_distal_pin'_joint_react_forces,b'r_distal_pin'_joint_motor_torque,in_contact_l,contact_point_l_dist,contact_normal_l_dist,contact_distance_l_dist,contact_norm_force_l_dist,in_contact_r,contact_point_r_dist,contact_normal_r_dist,contact_distance_r_dist,contact_norm_force_r_dist
0,Open,,,,,,"[-0.026750000193715096, 0.05299999937415123, 0.03999999910593033]","[0.0, -0.0, 0.0]","[-0.026750000193715096, 0.125, 0.03999999910593033]","[0.0, -0.0, 0.0]","[0.026750000193715096, 0.05299999937415123, 0.03999999910593033]","[0.0, -0.0, 0.0]","[0.026750000193715096, 0.125, 0.03999999910593033]","[0.0, -0.0, 0.0]",0.0,0.0,"(0.0, 0.0, 0.0, 0.0, 0.0, 0.0)",1.3400621000080305e-17,5.883223478113402e-32,1.4119736347472167e-29,"(0.0, 0.0, 0.0, 0.0, 0.0, 0.0)",1.0542555313129702e-18,-0.008068665190486622,-1.9364796457167894,"(0.0, 0.0, 0.0, 0.0, 0.0, 0.0)",193.26378306879909,-0.0700246186727924,-16.805908481470176,"(0.0, 0.0, 0.0, 0.0, 0.0, 0.0)",71.94009191575694,False,,,,,False,,,,
1,Open,,,,,,"[-0.026750000193715096, 0.05299999937415123, 0.03999999910593033]","[0.0, -0.0, 0.0]","[-0.026750000193715096, 0.125, 0.03999999910593033]","[0.0, -0.0, 5.883223447970011e-32]","[0.026750000193715096, 0.05299999937415123, 0.03999999910593033]","[0.0, 0.0, -0.008068665592501188]","[0.02733093686401844, 0.12499765306711197, 0.03999999910593033]","[0.0, 0.0, -0.0780932845685428]",0.157,37.68,"(0.0, 0.0, 0.0, 0.0, 0.0, 0.0)",54.702693795169004,5.294901130302062e-32,-1.4119736347472162e-30,"(0.0, 0.0, 0.0, 0.0, 0.0, 0.0)",3.9113724975844915,-0.1670280316324969,-38.150247946082466,"(0.0, 0.0, 0.0, 0.0, 0.0, 0.0)",-25.93345404555236,-0.0659493391739072,0.9780670797324476,"(0.0, 0.0, 0.0, 0.0, 0.0, 0.0)",-6.754749483880455,False,,,,,False,,,,
2,Open,,,,,,"[-0.026750000193715096, 0.05299999937415123, 0.03999999910593033]","[0.0, -0.0, 0.1569999988554567]","[-0.03800761699676514, 0.12411445379257202, 0.03999999910593033]","[0.0, -0.0, 0.1569999988554567]","[0.026750000193715096, 0.05299999937415123, 0.03999999910593033]","[0.0, 0.0, -0.16702801712980753]","[0.038720179349184036, 0.1239979937672615, 0.03999999910593033]","[0.0, 0.0, -0.23297739431320727]",0.29829999999999995,33.91199999999999,"(0.0, 0.0, 0.0, 0.0, 0.0, 0.0)",-5.390828189440958,5.294901130302062e-32,0.0,"(0.0, 0.0, 0.0, 0.0, 0.0, 0.0)",-0.3659219356209609,-0.3122944613104081,-34.863943122698686,"(0.0, 0.0, 0.0, 0.0, 0.0, 0.0)",95.8006544774165,-0.06705867534034729,-0.2662406799456205,"(0.0, 0.0, 0.0, 0.0, 0.0, 0.0)",9.049911776264722,False,,,,,False,,,,
3,Open,,,,,,"[-0.026750000193715096, 0.05299999937415123, 0.03999999910593033]","[0.0, -0.0, 0.29830000998707634]","[-0.04791048914194107, 0.12182030081748962, 0.03999999910593033]","[0.0, -0.0, 0.29830000998707634]","[0.026750000193715096, 0.05299999937415123, 0.03999999910593033]","[0.0, 0.0, -0.3122944642903269]","[0.048871491104364395, 0.12151744216680527, 0.03999999910593033]","[0.0, 0.0, -0.3793531994353912]",0.42546999999999996,30.5208,"(0.0, 0.0, 0.0, 0.0, 0.0, 0.0)",-4.858074537215091,5.294901130302062e-32,0.0,"(0.0, 0.0, 0.0, 0.0, 0.0, 0.0)",-0.33154044974508506,-0.44292449566296654,-31.35120824461403,"(0.0, 0.0, 0.0, 0.0, 0.0, 0.0)",100.88457241511576,-0.08373770380977785,-4.0029668326633345,"(0.0, 0.0, 0.0, 0.0, 0.0, 0.0)",24.077304806401806,False,,,,,False,,,,
4,Open,,,,,,"[-0.026750000193715096, 0.05299999937415123, 0.03999999910593033]","[0.0, -0.0, 0.4254700097131474]","[-0.056467924267053604, 0.11858082562685013, 0.03999999910593033]","[0.0, -0.0, 0.4254700097131474]","[0.026750000193715096, 0.05299999937415123, 0.03999999910593033]","[0.0, 0.0, -0.4429245237535421]","[0.057608019560575485, 0.1180521547794342, 0.03999999910593033]","[0.0, 0.0, -0.5266622746639338]",0.5399229999999999,27.46872,"(0.0, 0.0, 0.0, 0.0, 0.0, 0.0)",-4.377393708535371,5.294901130302062e-32,0.0,"(0.0, 0.0, 0.0, 0.0, 0.0, 0.0)",-0.30017707799641646,-0.5623038734984663,-28.651050680519948,"(0.0, 0.0, 0.0, 0.0, 0.0, 0.0)",144.45470973647488,-0.10456727132876567,-4.999096204557077,"(0.0, 0.0, 0.0, 0.0, 0.0, 0.0)",33.97911746732963,False,,,,,False,,,,
5,Open,,,,,,"[-0.026750000193715096, 0.05299999937415123, 0.03999999910593033]","[0.0, -0.0, 0.5399230359738098]","[-0.06376303732395172, 0.11475787311792374, 0.03999999910593033]","[0.0, -0.0, 0.5399230359738098]","[0.026750000193715096, 0.05299999937415123, 0.03999999910593033]","[0.0, 0.0, -0.5623038790270362]","[0.06513584405183792, 0.11391409486532211, 0.03999999910593033]","[0.0, 0.0, -0.6668711870723439]",0.6429307,24.721848,"(0.0, 0.0, 0.0, 0.0, 0.0, 0.0)",-3.943806903965684,5.294901130302062e-32,0.0,"(0.0, 0.0, 0.0, 0.0, 0.0, 0.0)",-0.2716098155097054,-0.6673401099248648,-25.208696742335626,"(0.0, 0.0, 0.0, 0.0, 0.0, 0.0)",94.97739775913854,-0.11755295807544866,-3.116564819203918,"(0.0, 0.0, 0.0, 0.0, 0.0, 0.0)",25.79194570087013,False,,,,,False,,,,
6,Open,,,,,,"[-0.026750000193715096, 0.05299999937415123, 0.03999999910593033]","[0.0, -0.0, 0.6429307111289271]","[-0.06991713494062424, 0.11062463372945786, 0.03999999910593033]","[0.0, -0.0, 0.6429307111289271]","[0.026750000193715096, 0.05299999937415123, 0.03999999910593033]","[0.0, 0.0, -0.6673401753977319]","[0.07131072133779526, 0.10955388844013214, 0.03999999910593033]","[0.0, 0.0, -0.7848931559948581]",0.73563763,22.249663200000004,"(0.0, 0.0, 0.0, 0.0, 0.0, 0.0)",-3.552789792259023,5.294901130302062e-32,0.0,"(0.0, 0.0, 0.0, 0.0, 0.0, 0.0)",-0.24562369466220793,-0.7579917869736262,-21.756402491702737,"(0.0, 0.0, 0.0, 0.0, 0.0, 0.0)",34.46450837185191,-0.10794166402774508,2.3067105714488583,"(0.0, 0.0, 0.0, 0.0, 0.0, 0.0)",8.765009015475858,False,,,,,False,,,,
7,Open,,,,,,"[-0.026750000193715096, 0.05299999937415123, 0.03999999910593033]","[0.0, -0.0, 0.7356376306875043]","[-0.07506632059812546, 0.10638101398944855, 0.03999999910593033]","[0.0, -0.0, 0.7356376306875043]","[0.026750000193715096, 0.05299999937415123, 0.03999999910593033]","[0.0, 0.0, -0.757991847340814]","[0.076247438788414, 0.10528770089149475, 0.03999999910593033]","[0.0, 0.0, -0.8659334873334429]",0.8190738670000001,20.024696880000004,"(0.0, 0.0, 0.0, 0.0, 0.0, 0.0)",-3.2002295086701533,2.3293280891773424e-07,5.5903874140256216e-05,"(0.0, 0.0, 0.0, 0.0, 0.0, 0.0)",-0.22200715926400075,-0.8391926082762636,-19.488197112632974,"(0.0, 0.0, 0.0, 0.0, 0.0, 0.0)",3.295349739497939,-0.09714776835574307,2.590534961280482,"(0.0, 0.0, 0.0, 0.0, 0.0, 0.0)",0.25803221970863044,False,,,,,False,,,,
8,Open,,,,,,"[-0.026750000193715096, 0.05299999937415123, 0.03999999910593033]","[0.0, -0.0, 0.8190738875671263]","[-0.07934698462486267, 0.10216865688562393, 0.03999999910593033]","[0.0, -0.0, 0.8190741465287105]","[0.026750000193715096, 0.05299999937415123, 0.03999999910593033]","[0.0, 0.0, -0.839192558822362]","[0.08032548427581787, 0.10110059380531311, 0.03999999910593033]","[0.0, 0.0, -0.9363403253067936]",0.8941664803,18.022227192,"(0.0, 0.0, 0.0, 0.0, 0.0, 0.0)",-2.8824197251771095,4.2009445145371055e-07,4.4918794208634316e-05,"(0.0, 0.0, 0.0, 0.0, 0.0, 0.0)",-0.2005835928406654,-0.9122733474486373,-17.539377401369673,"(0.0, 0.0, 0.0, 0.0, 0.0, 0.0)",2.7804978356880783,-0.0874331700712747,2.33150358827241,"(0.0, 0.0, 0.0, 0.0, 0.0, 0.0)",0.17017621517521792,False,,,,,False,,,,
9,Open,,,,,,"[-0.026750000193715096, 0.05299999937415123, 0.03999999910593033]","[0.0, -0.0, 0.894166469119967]","[-0.08288749307394028, 0.09808415919542313, 0.03999999910593033]","[0.0, -0.0, 0.894166894674561]","[0.026750000193715096, 0.05299999937415123, 0.03999999910593033]","[0.0, 0.0, -0.9122733503889549]","[0.08369457721710205, 0.09706035256385803, 0.03999999910593033]","[0.0, 0.0, -0.9997066729229968]",0.96174983227,16.220004472800003,"(0.0, 0.0, 0.0, 0.0, 0.0, 0.0)",-2.5959652512206968,5.681494863714967e-07,3.553320838026869e-05,"(0.0, 0.0, 0.0, 0.0, 0.0, 0.0)",-0.18114955764248034,-0.9780460127037736,-15.785439661232708,"(0.0, 0.0, 0.0, 0.0, 0.0, 0.0)",2.503992476159733,-0.0786900142246732,2.098357403184359,"(0.0, 0.0, 0.0, 0.0, 0.0, 0.0)",0.15360133560797545,False,,,,,False,,,,
10,Open,,,,,,"[-0.026750000193715096, 0.05299999937415123, 0.03999999910593033]","[0.0, -0.0, 0.9617498658906226]","[-0.08580395579338074, 0.09419016540050507, 0.03999999910593033]","[0.0, -0.0, 0.9617504517765805]","[0.026750000193715096, 0.05299999937415123, 0.03999999910593033]","[0.0, 0.0, -0.9780460255881384]","[0.08646733313798904, 0.09322238713502884, 0.03999999910593033]","[0.0, 0.0, -1.0567360258914282]",1.022574849043,14.598004025520002,"(0.0, 0.0, 0.0, 0.0, 0.0, 0.0)",-2.337816594086846,6.829231533297027e-07,2.7545680069969436e-05,"(0.0, 0.0, 0.0, 0.0, 0.0, 0.0)",-0.16354029854134106,-1.0372414114333963,-14.206895695109438,"(0.0, 0.0, 0.0, 0.0, 0.0, 0.0)",2.2548456713339484,-0.07082115822448021,1.8885254400463192,"(0.0, 0.0, 0.0, 0.0, 0.0, 0.0)",0.13860128234430863,False,,,,,False,,,,
11,Open,,,,,,"[-0.026750000193715096, 0.05299999937415123, 0.03999999910593033]","[0.0, -0.0, 1.0225748785172661]","[-0.08819860219955444, 0.09052424877882004, 0.03999999910593033]","[0.0, -0.0, 1.0225755149967983]","[0.026750000193715096, 0.05299999937415123, 0.03999999910593033]","[0.0, 0.0, -1.037241417801626]","[0.08874232321977615, 0.08961901068687439, 0.03999999910593033]","[0.0, 0.0, -1.1080626941470386]",1.0773173641387,13.138203622968001,"(0.0, 0.0, 0.0, 0.0, 0.0, 0.0)",-2.105207702642618,7.694903593429899e-07,2.0776129443188934e-05,"(0.0, 0.0, 0.0, 0.0, 0.0, 0.0)",-0.14759587787833617,-1.0905172702900567,-12.78620612559849,"(0.0, 0.0, 0.0, 0.0, 0.0, 0.0)",2.0303755786213302,-0.06373917358809339,1.6996763127328351,"(0.0, 0.0, 0.0, 0.0, 0.0, 0.0)",0.1250328149112744,False,,,,,False,,,,
12,Open,,,,,,"[-0.026750000193715096, 0.05299999937415123, 0.03999999910593033]","[0.0, -0.0, 1.0773173786594632]","[-0.09015969932079315, 0.08710587024688721, 0.03999999910593033]","[0.0, -0.0, 1.0773182784199262]","[0.026750000193715096, 0.05299999937415123, 0.03999999910593033]","[0.0, 0.0, -1.090517334189526]","[0.09060435742139816, 0.0862659215927124, 0.03999999910593033]","[0.0, 0.0, -1.1542564269670996]",1.1265856277248298,11.824383260671203,"(0.0, 0.0, 0.0, 0.0, 0.0, 0.0)",-1.895636869852492,8.322629993378343e-07,1.5065433598762668e-05,"(0.0, 0.0, 0.0, 0.0, 0.0, 0.0)",-0.13316806895824274,-1.138465543261051,-11.50758551303864,"(0.0, 0.0, 0.0, 0.0, 0.0, 0.0)",1.828159741200242,-0.05736537454460671,1.5297117704368035,"(0.0, 0.0, 0.0, 0.0, 0.0, 0.0)",0.11276577482950233,False,,,,,False,,,,
13,Open,,,,,,"[-0.026750000193715096, 0.05299999937415123, 0.03999999910593033]","[0.0, -0.0, 1.126585512342968]","[-0.09176240861415863, 0.08394166082143784, 0.03999999910593033]","[0.0, -0.0, 1.1265864725026016]","[0.026750000193715096, 0.05299999937415123, 0.03999999910593033]","[0.0, 0.0, -1.13846552283997]","[0.09212540090084076, 0.08316715806722641, 0.03999999910593033]","[0.0, 0.0, -1.1958309904194953]",1.1709270649523469,10.641944934604087,"(0.0, 0.0, 0.0, 0.0, 0.0, 0.0)",-1.7068426281171958,8.750681698751778e-07,1.0273240928962424e-05,"(0.0, 0.0, 0.0, 0.0, 0.0, 0.0)",-0.12011999884119333,-1.181618988934946,-10.356826961734775,"(0.0, 0.0, 0.0, 0.0, 0.0, 0.0)",1.6460093571929852,-0.051628943774705546,1.376743384776279,"(0.0, 0.0, 0.0, 0.0, 0.0, 0.0)",0.10168054944364863,False,,,,,False,,,,
14,Open,,,,,,"[-0.026750000193715096, 0.05299999937415123, 0.03999999910593033]","[0.0, -0.0, 1.170927100750299]","[-0.09307006001472473, 0.08102945238351822, 0.03999999910593033]","[0.0, -0.0, 1.1709279927689973]","[0.026750000193715096, 0.05299999937415123, 0.03999999910593033]","[0.0, 0.0, -1.181618964677462]","[0.09336595237255096, 0.08031877130270004, 0.03999999910593033]","[0.0, 0.0, -1.233247876832181]",1.2108343584571122,9.577750441143678,"(0.0, 0.0, 0.0, 0.0, 0.0, 0.0)",-1.5367816122769582,9.012180617793662e-07,6.275974057005224e-06,"(0.0, 0.0, 0.0, 0.0, 0.0, 0.0)",-0.1083256720668905,-1.2204570900414513,-9.3211442655613,"(0.0, 0.0, 0.0, 0.0, 0.0, 0.0)",1.4819475463743526,-0.046466145575958295,1.239071567699341,"(0.0, 0.0, 0.0, 0.0, 0.0, 0.0)",0.09166748660725833,False,,,,,False,,,,
15,Open,,,,,,"[-0.026750000193715096, 0.05299999937415123, 0.03999999910593033]","[0.0, -0.0, 1.2108343955497323]","[-0.09413553774356842, 0.07836118340492249, 0.03999999910593033]","[0.0, -0.0, 1.210835255049739]","[0.026750000193715096, 0.05299999937415123, 0.03999999910593033]","[0.0, 0.0, -1.2204571829136446]","[0.09437645971775055, 0.07771158218383789, 0.03999999910593033]","[0.0, 0.0, -1.2669233179031547]",1.2467509226114009,8.619975397029307,"(0.0, 0.0, 0.0, 0.0, 0.0, 0.0)",-1.3836082777937824,9.135722823677317e-07,2.9650129412077397e-06,"(0.0, 0.0, 0.0, 0.0, 0.0, 0.0)",-0.09766941677677543,-1.2554113810373062,-8.38902983900517,"(0.0, 0.0, 0.0, 0.0, 0.0, 0.0)",1.334189480132575,-0.04181961771093252,1.1151666876061868,"(0.0, 0.0, 0.0, 0.0, 0.0, 0.0)",0.08262627878010878,False,,,,,False,,,,
16,Open,,,,,,"[-0.026750000193715096, 0.05299999937415123, 0.03999999910593033]","[0.0, -0.0, 1.2467510110527222]","[-0.09500277042388916, 0.07592508941888809, 0.03999999910593033]","[0.0, -0.0, 1.246751870145374]","[0.026750000193715096, 0.05299999937415123, 0.03999999910593033]","[0.0, 0.0, -1.255411348379259]","[0.09519875049591064, 0.0753331333398819, 0.03999999910593033]","[0.0, 0.0, -1.2972309672073006]",1.2790758303502607,7.757977857326381,"(0.0, 0.0, 0.0, 0.0, 0.0, 0.0)",-1.2456264712746363,2.1141758111398655e-06,0.0002881448469053121,"(0.0, 0.0, 0.0, 0.0, 0.0, 0.0)",-0.088015399348708,-1.2868702429335757,-7.5501268551046525,"(0.0, 0.0, 0.0, 0.0, 0.0, 0.0)",1.2010989712673745,-0.037638748630864464,1.0034085792163332,"(0.0, 0.0, 0.0, 0.0, 0.0, 0.0)",0.07444006052486639,False,,,,,False,,,,
17,Open,,,,,,"[-0.026750000193715096, 0.05299999937415123, 0.03999999910593033]","[0.0, -0.0, 1.2790758758817962]","[-0.09570803493261337, 0.0737072303891182, 0.03999999910593033]","[0.0, -0.0, 1.2790780932516201]","[0.026750000193715096, 0.05299999937415123, 0.03999999910593033]","[0.0, 0.0, -1.2868702529032277]","[0.0958673357963562, 0.07316911965608597, 0.03999999910593033]","[0.0, 0.0, -1.3245087793274308]",1.3081682532711112,6.982181501004109,"(0.0, 0.0, 0.0, 0.0, 0.0, 0.0)",-1.12145472366965,1.9027582300258812e-06,-5.0740219467356254e-05,"(0.0, 0.0, 0.0, 0.0, 0.0, 0.0)",-0.07939114715284208,-1.315183223212741,-6.795115266999686,"(0.0, 0.0, 0.0, 0.0, 0.0, 0.0)",1.0813262344929835,-0.033874873767778015,0.9033299671407473,"(0.0, 0.0, 0.0, 0.0, 0.0, 0.0)",0.06713055017345074,False,,,,,False,,,,
18,Open,,,,,,"[-0.026750000193715096, 0.05299999937415123, 0.03999999910593033]","[0.0, -0.0, 1.3081682459906412]","[-0.09628119319677353, 0.07169260084629059, 0.03999999910593033]","[0.0, -0.0, 1.3081702011658356]","[0.026750000193715096, 0.05299999937415123, 0.03999999910593033]","[0.0, 0.0, -1.3151833180210462]","[0.0964106097817421, 0.07120437920093536, 0.03999999910593033]","[0.0, 0.0, -1.349058153261439]",1.334351427944,6.283961921493333,"(0.0, 0.0, 0.0, 0.0, 0.0, 0.0)",-1.0095234585863413,2.7618377923566443e-06,0.00020617909495938315,"(0.0, 0.0, 0.0, 0.0, 0.0, 0.0)",-0.07148780084672787,-1.3406649008914668,-6.11560264289422,"(0.0, 0.0, 0.0, 0.0, 0.0, 0.0)",0.9733796231570812,-0.030488273507324658,0.8127840625088054,"(0.0, 0.0, 0.0, 0.0, 0.0, 0.0)",0.060435192896783604,False,,,,,False,,,,
19,Open,,,,,,"[-0.026750000193715096, 0.05299999937415123, 0.03999999910593033]","[0.0, -0.0, 1.334351465706577]","[-0.09674673527479172, 0.06986585259437561, 0.03999999910593033]","[0.0, -0.0, 1.33435435145599]","[0.026750000193715096, 0.05299999937415123, 0.03999999910593033]","[0.0, 0.0, -1.3406650641721125]","[0.09685182571411133, 0.06942359358072281, 0.03999999910593033]","[0.0, 0.0, -1.3711530696282732]",1.3579162851496,5.655565729344001,"(0.0, 0.0, 0.0, 0.0, 0.0, 0.0)",-0.9088150211252332,3.4316066113876724e-06,0.0001607445165674468,"(0.0, 0.0, 0.0, 0.0, 0.0, 0.0)",-0.06444344013525093,-1.3635984108023202,-5.504042378604797,"(0.0, 0.0, 0.0, 0.0, 0.0, 0.0)",0.8762522980402716,-0.02744024570882781,0.7315266716392431,"(0.0, 0.0, 0.0, 0.0, 0.0, 0.0)",0.05446985052483407,False,,,,,False,,,,
20,Open,,,,,,"[-0.026750000193715096, 0.05299999937415123, 0.03999999910593033]","[0.0, -0.0, 1.3579163939939654]","[-0.09712471067905426, 0.0682118609547615, 0.03999999910593033]","[0.0, -0.0, 1.3579197824809437]","[0.026750000193715096, 0.05299999937415123, 0.03999999910593033]","[0.0, 0.0, -1.3635984874387626]","[0.09721000492572784, 0.06781173497438431, 0.03999999910593033]","[0.0, 0.0, -1.3910385869420074]",1.37912465663464,5.090009156409601,"(0.0, 0.0, 0.0, 0.0, 0.0, 0.0)",-0.8181093185961676,3.940702417530038e-06,0.0001221829934741677,"(0.0, 0.0, 0.0, 0.0, 0.0, 0.0)",-0.05806034967263589,-1.3842385697220883,-4.953638140744317,"(0.0, 0.0, 0.0, 0.0, 0.0, 0.0)",0.7887791417834831,-0.024696941374704916,0.6583930401894944,"(0.0, 0.0, 0.0, 0.0, 0.0, 0.0)",0.04906644857689494,False,,,,,False,,,,
21,Open,,,,,,"[-0.026750000193715096, 0.05299999937415123, 0.03999999910593033]","[0.0, -0.0, 1.3791247702213432]","[-0.0974314734339714, 0.0667160153388977, 0.03999999910593033]","[0.0, -0.0, 1.3791284782568445]","[0.026750000193715096, 0.05299999937415123, 0.03999999910593033]","[0.0, 0.0, -1.3842387704807777]","[0.09750068932771683, 0.06635437905788422, 0.03999999910593033]","[0.0, 0.0, -1.408935619520831]",1.398212190971176,4.581008240768642,"(0.0, 0.0, 0.0, 0.0, 0.0, 0.0)",-0.7364407507487188,4.314390796743166e-06,8.968521101115077e-05,"(0.0, 0.0, 0.0, 0.0, 0.0, 0.0)",-0.05230389643117988,-1.4028147127498793,-4.458274326669883,"(0.0, 0.0, 0.0, 0.0, 0.0, 0.0)",0.7100243788118592,-0.02222789596809768,0.5925708975857369,"(0.0, 0.0, 0.0, 0.0, 0.0, 0.0)",0.04419507766734469,False,,,,,False,,,,
22,Open,,,,,,"[-0.026750000193715096, 0.05299999937415123, 0.03999999910593033]","[0.0, -0.0, 1.3982120672717784]","[-0.09768038988113403, 0.06536446511745453, 0.03999999910593033]","[0.0, -0.0, 1.3982164487645397]","[0.026750000193715096, 0.05299999937415123, 0.03999999910593033]","[0.0, 0.0, -1.4028147367436141]","[0.09773654490709305, 0.06503787636756897, 0.03999999910593033]","[0.0, 0.0, -1.4250426427007885]",1.4153909718740585,4.122907416691778,"(0.0, 0.0, 0.0, 0.0, 0.0, 0.0)",-0.6629119687698639,4.574523674952359e-06,6.243189077020624e-05,"(0.0, 0.0, 0.0, 0.0, 0.0, 0.0)",-0.04711364623212332,-1.4195332414748913,-4.012446894002898,"(0.0, 0.0, 0.0, 0.0, 0.0, 0.0)",0.6391216750959775,-0.02000569064819732,0.5333292767760867,"(0.0, 0.0, 0.0, 0.0, 0.0, 0.0)",0.039804123486470444,False,,,,,False,,,,
23,Open,,,,,,"[-0.026750000193715096, 0.05299999937415123, 0.03999999910593033]","[0.0, -0.0, 1.415391158105469]","[-0.09788231551647186, 0.06414420157670975, 0.03999999910593033]","[0.0, -0.0, 1.415395709317307]","[0.026750000193715096, 0.05299999937415123, 0.03999999910593033]","[0.0, 0.0, -1.419533200978404]","[0.09792786836624146, 0.06384945660829544, 0.03999999910593033]","[0.0, 0.0, -1.4395389386881268]",1.4308518746866525,3.7106166750225977,"(0.0, 0.0, 0.0, 0.0, 0.0, 0.0)",-0.5967141397561109,4.7399630338636504e-06,3.9705446138709865e-05,"(0.0, 0.0, 0.0, 0.0, 0.0, 0.0)",-0.042434775014060074,-1.4345799173274023,-3.611202204602609,"(0.0, 0.0, 0.0, 0.0, 0.0, 0.0)",0.5752902758042565,-0.018005647771851804,0.4800102903229233,"(0.0, 0.0, 0.0, 0.0, 0.0, 0.0)",0.0358468230863414,False,,,,,False,,,,
24,Open,,,,,,"[-0.026750000193715096, 0.05299999937415123, 0.03999999910593033]","[0.0, -0.0, 1.4308518944899675]","[-0.09804610908031464, 0.06304314732551575, 0.03999999910593033]","[0.0, -0.0, 1.4308566269594332]","[0.026750000193715096, 0.05299999937415123, 0.03999999910593033]","[0.0, 0.0, -1.4345798203875788]","[0.09808305650949478, 0.06277728080749512, 0.03999999910593033]","[0.0, 0.0, -1.4525855975984745]",1.4447666872179874,3.339555007520341,"(0.0, 0.0, 0.0, 0.0, 0.0, 0.0)",-0.5371183361845069,4.8269553674989e-06,2.0878160072459843e-05,"(0.0, 0.0, 0.0, 0.0, 0.0, 0.0)",-0.03821759960562203,-1.448121925594662,-3.2500819841423465,"(0.0, 0.0, 0.0, 0.0, 0.0, 0.0)",0.5178266556878065,-0.016205556838873442,0.4320218239148067,"(0.0, 0.0, 0.0, 0.0, 0.0, 0.0)",0.0322808466635012,False,,,,,False,,,,
25,Open,,,,,,"[-0.026750000193715096, 0.05299999937415123, 0.03999999910593033]","[0.0, -0.0, 1.4447668540021588]","[-0.09817895293235779, 0.06205013021826744, 0.03999999910593033]","[0.0, -0.0, 1.4447715863131299]","[0.026750000193715096, 0.05299999937415123, 0.03999999910593033]","[0.0, 0.0, -1.448121993206969]","[0.09820891171693802, 0.06181041896343231, 0.03999999910593033]","[0.0, 0.0, -1.46432761016298]",1.4572900184961886,3.005599506768304,"(0.0, 0.0, 0.0, 0.0, 0.0, 0.0)",-0.483467731204937,4.849462099751187e-06,5.401615740548756e-06,"(0.0, 0.0, 0.0, 0.0, 0.0, 0.0)",-0.03441712855198442,-1.4603097330351957,-2.925073785728113,"(0.0, 0.0, 0.0, 0.0, 0.0, 0.0)",0.4660969568661882,-0.014585427836986846,0.38883096045278315,"(0.0, 0.0, 0.0, 0.0, 0.0, 0.0)",0.029067900465992856,False,,,,,False,,,,
26,Open,,,,,,"[-0.026750000193715096, 0.05299999937415123, 0.03999999910593033]","[0.0, -0.0, 1.4572900807517244]","[-0.0982866883277893, 0.061154916882514954, 0.03999999910593033]","[0.0, -0.0, 1.4572948921008348]","[0.026750000193715096, 0.05299999937415123, 0.03999999910593033]","[0.0, 0.0, -1.4603097470714805]","[0.09831098467111588, 0.06093886122107506, 0.03999999910593033]","[0.0, 0.0, -1.4748951413427742]",1.4685610166465697,2.705039556091476,"(0.0, 0.0, 0.0, 0.0, 0.0, 0.0)",-0.43517053908893033,4.819450845044722e-06,-7.202701129551542e-06,"(0.0, 0.0, 0.0, 0.0, 0.0, 0.0)",-0.030992645518402973,-1.471278759731676,-2.632566407155304,"(0.0, 0.0, 0.0, 0.0, 0.0, 0.0)",0.4195301522878829,-0.013127269246907155,0.3499580616191257,"(0.0, 0.0, 0.0, 0.0, 0.0, 0.0)",0.02617336062226555,False,,,,,False,,,,
27,Open,,,,,,"[-0.026750000193715096, 0.05299999937415123, 0.03999999910593033]","[0.0, -0.0, 1.4685611215819594]","[-0.09837405383586884, 0.06034812703728676, 0.03999999910593033]","[0.0, -0.0, 1.468565853091142]","[0.026750000193715096, 0.05299999937415123, 0.03999999910593033]","[0.0, 0.0, -1.4712788457263521]","[0.0983937606215477, 0.06015344336628914, 0.03999999910593033]","[0.0, 0.0, -1.4844061039497418]",1.4787049149819127,2.434535600482329,"(0.0, 0.0, 0.0, 0.0, 0.0, 0.0)",-0.39169363303347604,4.747151892642784e-06,-1.7351748576465223e-05,"(0.0, 0.0, 0.0, 0.0, 0.0, 0.0)",-0.02790732436186781,-1.4811508837585086,-2.3693097664397755,"(0.0, 0.0, 0.0, 0.0, 0.0, 0.0)",0.37761186810531283,-0.011814888241968555,0.3149714411852639,"(0.0, 0.0, 0.0, 0.0, 0.0, 0.0)",0.023565936472848985,False,,,,,False,,,,
28,Open,,,,,,"[-0.026750000193715096, 0.05299999937415123, 0.03999999910593033]","[0.0, -0.0, 1.4787049625213984]","[-0.09844490885734558, 0.059621214866638184, 0.03999999910593033]","[0.0, -0.0, 1.4787095898811649]","[0.026750000193715096, 0.05299999937415123, 0.03999999910593033]","[0.0, 0.0, -1.4811508165812142]","[0.09846089035272598, 0.059445831924676895, 0.03999999910593033]","[0.0, 0.0, -1.492965762433775]",1.4878344234837215,2.191082040434097,"(0.0, 0.0, 0.0, 0.0, 0.0, 0.0)",-0.35255677801820895,4.641283838470101e-06,-2.5408333001444004e-05,"(0.0, 0.0, 0.0, 0.0, 0.0, 0.0)",-0.02512787460267613,-1.4900357953826577,-2.132378789795796,"(0.0, 0.0, 0.0, 0.0, 0.0, 0.0)",0.33987880377374147,-0.010633710863257649,0.2834825708906175,"(0.0, 0.0, 0.0, 0.0, 0.0, 0.0)",0.021217361806457186,False,,,,,False,,,,
29,Close,,,"(0.010000165031897679, 0.16000264050809818, 0.003919197399597577)","(-5.388791991209616e-05, 3.3679978815229247e-06, -9.074720008653711e-11)",,"[-0.026750000193715096, 0.05299999937415123, 0.03999999910593033]","[0.0, -0.0, 1.487834617901085]","[-0.09850236773490906, 0.05896640568971634, 0.03999999910593033]","[0.0, -0.0, 1.4878390921106803]","[0.026750000193715096, 0.05299999937415123, 0.03999999910593033]","[0.0, 0.0, -1.4900358577435544]","[0.09851532429456711, 0.05880843847990036, 0.03999999910593033]","[0.0, 0.0, -1.5006695807985118]",1.4960509811353493,1.9719738363906854,"(0.0, 0.0, 0.0, 0.0, 0.0, 0.0)",-0.3173274216127963,4.509251873886308e-06,-3.168767150011037e-05,"(0.0, 0.0, 0.0, 0.0, 0.0, 0.0)",-0.022624215793833224,-1.498032215844392,-1.9191409108162163,"(0.0, 0.0, 0.0, 0.0, 0.0, 0.0)",0.30591369390909257,-0.00957062017308593,0.2551417656412126,"(0.0, 0.0, 0.0, 0.0, 0.0, 0.0)",0.019102112305110365,False,,,,,False,,,,
30,Close,,,"(0.010000330010418335, 0.1600052801621647, 0.0076635160840755065)","(-0.00010776674212266888, 6.7354271463595154e-06, -3.629275205618536e-10)",,"[-0.026750000193715096, 0.05299999937415123, 0.03999999910593033]","[0.0, -0.0, 1.4960509653323988]","[-0.09854896366596222, 0.058376654982566833, 0.03999999910593033]","[0.0, -0.0, 1.4960555203126162]","[0.026750000193715096, 0.05299999937415123, 0.03999999910593033]","[0.0, 0.0, -1.4980320325532246]","[0.09855947643518448, 0.05823439359664917, 0.03999999910593033]","[0.0, 0.0, -1.5076028800413472]",1.4064458830218143,-21.505223547248388,"(0.0, 0.0, 0.0, 0.0, 0.0, 0.0)",-36.32500847077206,-0.08999559064729075,-21.600023975799512,"(0.0, 0.0, 0.0, 0.0, 0.0, 0.0)",-4.679136399120495,-1.4082289942599528,21.552773180265405,"(0.0, 0.0, 0.0, 0.0, 0.0, 0.0)",36.31473208701179,0.08138609105625041,21.82961069504072,"(0.0, 0.0, 0.0, 0.0, 0.0, 0.0)",4.675963213372079,False,,,,,False,,,,
31,Close,,,"(0.010000494936733278, 0.16000791898094055, 0.011233038807318392)","(-0.00016163646818851668, 1.0102287881965475e-05, -8.164490687548302e-10)",,"[-0.026750000193715096, 0.05299999937415123, 0.03999999910593033]","[0.0, -0.0, 1.4064459844712927]","[-0.0977797880768776, 0.06478003412485123, 0.03999999910593033]","[0.0, -0.0, 1.316450240076391]","[0.026750000193715096, 0.05299999937415123, 0.03999999910593033]","[0.0, 0.0, -1.4082291009672807]","[0.09780067950487137, 0.06465335935354233, 0.03999999910593033]","[0.0, 0.0, -1.3268428349863826]",1.325801294719633,-19.354701192523546,"(0.0, 0.0, 0.0, 0.0, 0.0, 0.0)",3.2936342521930255,-0.17099646652613912,-19.44021021092361,"(0.0, 0.0, 0.0, 0.0, 0.0, 0.0)",0.4145426679866387,-1.3274060948339577,19.39749586223887,"(0.0, 0.0, 0.0, 0.0, 0.0, 0.0)",-3.3024243844052092,0.16324791947241268,19.646838819878944,"(0.0, 0.0, 0.0, 0.0, 0.0, 0.0)",-0.41699994760359754,False,,,,,False,,,,
32,Close,,,"(0.010000659812012168, 0.16001055698314023, 0.0146278458391823)","(-0.0002154970996661642, 1.346858017578936e-05, -1.4512199879406586e-09)",,"[-0.026750000193715096, 0.05299999937415123, 0.03999999910593033]","[0.0, -0.0, 1.3258013857525741]","[-0.09659997373819351, 0.07046370953321457, 0.03999999910593033]","[0.0, -0.0, 1.1548048042561467]","[0.026750000193715096, 0.05299999937415123, 0.03999999910593033]","[0.0, 0.0, -1.3274060658778382]","[0.09662791341543198, 0.07035159319639206, 0.03999999910593033]","[0.0, 0.0, -1.1641581075845935]",1.2532211652476697,-17.41923107327119,"(0.0, 0.0, 0.0, 0.0, 0.0, 0.0)",2.9685258329366073,-0.24389721437960032,-17.496179484830687,"(0.0, 0.0, 0.0, 0.0, 0.0, 0.0)",0.3760018756193849,-1.2546654853505619,17.457746276014984,"(0.0, 0.0, 0.0, 0.0, 0.0, 0.0)",-2.976480273609718,0.2369235243908578,17.682145180426822,"(0.0, 0.0, 0.0, 0.0, 0.0, 0.0)",-0.3782508099482112,False,,,,,False,,,,
33,Close,,,"(0.010000824637423049, 0.16001319418745247, 0.017848014970055004)","(-0.00026934863811186216, 1.6834304115272585e-05, -2.2671484573282825e-09)",,"[-0.026750000193715096, 0.05299999937415123, 0.03999999910593033]","[0.0, -0.0, 1.2532212515508983]","[-0.09514966607093811, 0.07548300176858902, 0.03999999910593033]","[0.0, -0.0, 1.0093239867956962]","[0.026750000193715096, 0.05299999937415123, 0.03999999910593033]","[0.0, 0.0, -1.254665405963893]","[0.09518206864595413, 0.07538418471813202, 0.03999999910593033]","[0.0, 0.0, -1.0177419933055243]",1.1878990487229026,-15.677307965944074,"(0.0, 0.0, 0.0, 0.0, 0.0, 0.0)",2.675103284419244,-0.30950785045582774,-15.746552658294572,"(0.0, 0.0, 0.0, 0.0, 0.0, 0.0)",0.34074508229325023,-1.1891989368155058,15.711971648413485,"(0.0, 0.0, 0.0, 0.0, 0.0, 0.0)",-2.6822973218910153,0.30323153162132754,15.913921735312746,"(0.0, 0.0, 0.0, 0.0, 0.0, 0.0)",-0.34279935345822066,False,,,,,False,,,,
34,Close,,,"(0.010000989414132393, 0.1600158306125408, 0.020893621515273818)","(-0.00032319108508158773, 2.0199459787849396e-05, -3.2641426920478403e-09)",,"[-0.026750000193715096, 0.05299999937415123, 0.03999999910593033]","[0.0, -0.0, 1.1878990574339587]","[-0.09353619813919067, 0.07989988476037979, 0.03999999910593033]","[0.0, -0.0, 0.8783912846834516]","[0.026750000193715096, 0.05299999937415123, 0.03999999910593033]","[0.0, 0.0, -1.1891990098250689]","[0.09357111155986786, 0.07981304824352264, 0.03999999910593033]","[0.0, 0.0, -0.8859674697633095]",1.1291091438506125,-14.109577169349663,"(0.0, 0.0, 0.0, 0.0, 0.0, 0.0)",2.4103712722760626,-0.36855738916456426,-14.17188929009676,"(0.0, 0.0, 0.0, 0.0, 0.0, 0.0)",0.3085687115248564,-1.1302790431339553,14.140774483572143,"(0.0, 0.0, 0.0, 0.0, 0.0, 0.0)",-2.4168742890236286,0.36290870417903687,14.322521413850238,"(0.0, 0.0, 0.0, 0.0, 0.0, 0.0)",-0.31044204201279674,False,,,,,False,,,,
35,Close,,,"(0.010001154143305145, 0.16001846627704427, 0.023764738319401603)","(-0.00037702444213104407, 2.3564047280946926e-05, -4.4421109431381166e-09)",,"[-0.026750000193715096, 0.05299999937415123, 0.03999999910593033]","[0.0, -0.0, 1.1291090274464952]","[-0.09184028208255768, 0.08377750217914581, 0.03999999910593033]","[0.0, -0.0, 0.7605517150898052]","[0.026750000193715096, 0.05299999937415123, 0.03999999910593033]","[0.0, 0.0, -1.130279133319625]","[0.09187624603509903, 0.08370133489370346, 0.03999999910593033]","[0.0, 0.0, -0.7673703325611945]",1.0761982294655512,-12.698619452414698,"(0.0, 0.0, 0.0, 0.0, 0.0, 0.0)",2.1715845710489208,-0.42170194324014043,-12.754692978138287,"(0.0, 0.0, 0.0, 0.0, 0.0, 0.0)",0.27924932151422227,-1.07725113882056,12.72669703521493,"(0.0, 0.0, 0.0, 0.0, 0.0, 0.0)",-2.177460276301377,0.41661812854294633,12.890261847338277,"(0.0, 0.0, 0.0, 0.0, 0.0, 0.0)",-0.2809551529003472,False,,,,,False,,,,
36,Close,,,"(0.010001318826104761, 0.16002110119957821, 0.02646143576036139)","(-0.0004308487108156613, 2.692806668198511e-05, -5.800961497533997e-09)",,"[-0.026750000193715096, 0.05299999937415123, 0.03999999910593033]","[0.0, -0.0, 1.076198055145404]","[-0.09012148529291153, 0.08717681467533112, 0.03999999910593033]","[0.0, -0.0, 0.6544962762796218]","[0.026750000193715096, 0.05299999937415123, 0.03999999910593033]","[0.0, 0.0, -1.0772510781061955]","[0.09015743434429169, 0.08711007237434387, 0.03999999910593033]","[0.0, 0.0, -0.6606329452337051]",1.028578406518996,-11.428757507173229,"(0.0, 0.0, 0.0, 0.0, 0.0, 0.0)",1.9562489498726314,-0.46953201391559385,-11.479216962108818,"(0.0, 0.0, 0.0, 0.0, 0.0, 0.0)",0.2525697399559188,-1.0295260249385039,11.454027331693439,"(0.0, 0.0, 0.0, 0.0, 0.0, 0.0)",-1.961555706583625,0.46495658231577774,11.601228905479532,"(0.0, 0.0, 0.0, 0.0, 0.0, 0.0)",-0.25412105363877113,False,,,,,False,,,,
37,Close,,,"(0.010001483463693249, 0.1600237353987347, 0.0289837817534302)","(-0.0004846638926905951, 3.0291518078376737e-05, -7.3406026780539124e-09)",,"[-0.026750000193715096, 0.05299999937415123, 0.03999999910593033]","[0.0, -0.0, 1.028578444789276]","[-0.08842276781797409, 0.09015467017889023, 0.03999999910593033]","[0.0, -0.0, 0.5590464126725148]","[0.026750000193715096, 0.05299999937415123, 0.03999999910593033]","[0.0, 0.0, -1.029526007298545]","[0.08845794945955276, 0.09009620547294617, 0.03999999910593033]","[0.0, 0.0, -0.564569399435659]",0.9857205658670964,-10.285881756455906,"(0.0, 0.0, 0.0, 0.0, 0.0, 0.0)",1.7621005438122825,-0.5125790520819234,-10.331289159919107,"(0.0, 0.0, 0.0, 0.0, 0.0, 0.0)",0.22832149176550065,-0.9865734224446535,10.308624598524094,"(0.0, 0.0, 0.0, 0.0, 0.0, 0.0)",-1.766891708603882,0.508461165120635,10.441099873165749,"(0.0, 0.0, 0.0, 0.0, 0.0, 0.0)",-0.22973068702752517,False,,,,,False,,,,
38,Close,,,"(0.010001648057231211, 0.16002636889308344, 0.03133184175509247)","(-0.0005384699893107284, 3.3654401557527444e-05, -9.06094284338731e-09)",,"[-0.026750000193715096, 0.05299999937415123, 0.03999999910593033]","[0.0, -0.0, 0.9857205423734198]","[-0.08677425980567932, 0.09276290237903595, 0.03999999910593033]","[0.0, -0.0, 0.47314147483112123]","[0.026750000193715096, 0.05299999937415123, 0.03999999910593033]","[0.0, 0.0, -0.9865734261287252]","[0.08680814504623413, 0.09271169453859329, 0.03999999910593033]","[0.0, 0.0, -0.4781122693565934]",0.9471485092803869,-9.257293580810316,"(0.0, 0.0, 0.0, 0.0, 0.0, 0.0)",1.587086438141582,-0.5513213633331018,-9.29815470028281,"(0.0, 0.0, 0.0, 0.0, 0.0, 0.0)",0.206306403170868,-0.9479160802001881,9.277762138671687,"(0.0, 0.0, 0.0, 0.0, 0.0, 0.0)",-1.5914107042435905,0.5476152664096928,9.396984309373877,"(0.0, 0.0, 0.0, 0.0, 0.0, 0.0)",-0.2075852193448244,False,,,,,False,,,,
39,Close,,,"(0.01000181260787789, 0.16002900170117218, 0.03350567876675359)","(-0.00059226700223067, 3.7016717206835695e-05, -1.0961890388082131e-08)",,"[-0.026750000193715096, 0.05299999937415123, 0.03999999910593033]","[0.0, -0.0, 0.9471486716739237]","[-0.08519625663757324, 0.09504801034927368, 0.03999999910593033]","[0.0, -0.0, 0.39582717163487297]","[0.026750000193715096, 0.05299999937415123, 0.03999999910593033]","[0.0, 0.0, -0.9479160840165974]","[0.08522851020097733, 0.09500313550233841, 0.03999999910593033]","[0.0, 0.0, -0.4003008647547732]",0.9124336583523481,-8.331564222729286,"(0.0, 0.0, 0.0, 0.0, 0.0, 0.0)",1.4293465062267445,-0.5861894225076075,-8.368334201881392,"(0.0, 0.0, 0.0, 0.0, 0.0, 0.0)",0.18633757536892917,-0.9131244721801693,8.349985924804516,"(0.0, 0.0, 0.0, 0.0, 0.0, 0.0)",-1.433248242084051,0.5828539364930729,8.45728082001123,"(0.0, 0.0, 0.0, 0.0, 0.0, 0.0)",-0.18749704763631705,False,,,,,False,,,,
40,Close,,,"(0.010001977116791199, 0.1600316338415276, 0.035505353338314005)","(-0.0006460549330047555, 4.037846511369274e-05, -1.3043353742532214e-08)",,"[-0.026750000193715096, 0.05299999937415123, 0.03999999910593033]","[0.0, -0.0, 0.9124336635104583]","[-0.08370164036750793, 0.0970512256026268, 0.03999999910593033]","[0.0, -0.0, 0.3262442150321584]","[0.026750000193715096, 0.05299999937415123, 0.03999999910593033]","[0.0, 0.0, -0.9131245532476111]","[0.08373206108808517, 0.09701187163591385, 0.03999999910593033]","[0.0, 0.0, -0.3302705841133475]",0.8811902925171133,-7.498407800456356,"(0.0, 0.0, 0.0, 0.0, 0.0, 0.0)",1.2871965063691413,-0.6175706567763247,-7.531496224492115,"(0.0, 0.0, 0.0, 0.0, 0.0, 0.0)",0.16823988009592084,-0.8818120249621524,7.514987332324067,"(0.0, 0.0, 0.0, 0.0, 0.0, 0.0)",-1.2907160846573733,0.6145687204653795,7.61154815335357,"(0.0, 0.0, 0.0, 0.0, 0.0, 0.0)",-0.16929032064296096,False,,,,,False,,,,
41,Close,,,"(0.010002141585127773, 0.16003426533265583, 0.03733092357160428)","(-0.0006998337831870475, 4.3739645365482716e-05, -1.5305241372964883e-08)",,"[-0.026750000193715096, 0.05299999937415123, 0.03999999910593033]","[0.0, -0.0, 0.8811903688816151]","[-0.08229776471853256, 0.09880879521369934, 0.03999999910593033]","[0.0, -0.0, 0.2636196251065186]","[0.026750000193715096, 0.05299999937415123, 0.03999999910593033]","[0.0, 0.0, -0.8818121535754343]","[0.08232623338699341, 0.098774254322052, 0.03999999910593033]","[0.0, 0.0, -0.26724331826119446]",0.853071263265402,-6.7485670204107215,"(0.0, 0.0, 0.0, 0.0, 0.0, 0.0)",1.1591124175888132,-0.6458137504217961,-6.77834247491313,"(0.0, 0.0, 0.0, 0.0, 0.0, 0.0)",0.1518500972569631,-0.8536308224659371,6.763488599091658,"(0.0, 0.0, 0.0, 0.0, 0.0, 0.0)",-1.1622865309865396,0.643112008739745,6.850389185847702,"(0.0, 0.0, 0.0, 0.0, 0.0, 0.0)",-0.15280109527428076,False,,,,,False,,,,
42,Close,,,"(0.010002306014043007, 0.16003689619304312, 0.038982445123681576)","(-0.0007536035543313348, 4.7100258049582536e-05, -1.7747461781428295e-08)",,"[-0.026750000193715096, 0.05299999937415123, 0.03999999910593033]","[0.0, -0.0, 0.8530713239495782]","[-0.08098787814378738, 0.10035242885351181, 0.03999999910593033]","[0.0, -0.0, 0.2072574956851119]","[0.026750000193715096, 0.05299999937415123, 0.03999999910593033]","[0.0, 0.0, -0.8536307856313979]","[0.08101436495780945, 0.10032207518815994, 0.03999999910593033]","[0.0, 0.0, -0.21051882644475053]",0.8277641369388617,-6.073710318369648,"(0.0, 0.0, 0.0, 0.0, 0.0, 0.0)",1.043715976216214,-0.6712325191394197,-6.100504492229669,"(0.0, 0.0, 0.0, 0.0, 0.0, 0.0)",0.1370167890019201,-0.8282677402193435,6.0871397391824935,"(0.0, 0.0, 0.0, 0.0, 0.0, 0.0)",-1.0465779375227178,0.6688009525283538,6.165346509266115,"(0.0, 0.0, 0.0, 0.0, 0.0, 0.0)",-0.1378772244212715,False,,,,,False,,,,
43,Close,,,"(0.010002470404691093, 0.16003952644115657, 0.04045997120998789)","(-0.0008073642479911328, 5.0460303253361964e-05, -2.0369923505779015e-08)",,"[-0.026750000193715096, 0.05299999937415123, 0.03999999910593033]","[0.0, -0.0, 0.8277641182932235]","[-0.07977228611707687, 0.10170972347259521, 0.03999999910593033]","[0.0, -0.0, 0.1565316389415725]","[0.026750000193715096, 0.05299999937415123, 0.03999999910593033]","[0.0, 0.0, -0.8282677342123946]","[0.07979680597782135, 0.10168302059173584, 0.03999999910593033]","[0.0, 0.0, -0.1594667900835625]",0.8049877232449756,-5.4663392865326825,"(0.0, 0.0, 0.0, 0.0, 0.0, 0.0)",0.9397613626777375,-0.6941093969081942,-5.49045066450586,"(0.0, 0.0, 0.0, 0.0, 0.0, 0.0)",0.12359998406321729,-0.8054409661974091,5.478425765264244,"(0.0, 0.0, 0.0, 0.0, 0.0, 0.0)",-0.9423413878167864,0.6919209877745929,5.54880845909737,"(0.0, 0.0, 0.0, 0.0, 0.0, 0.0)",-0.12437805104754245,False,,,,,False,,,,
44,Close,,,"(0.010002634758225062, 0.1600421560954447, 0.041763552607370504)","(-0.000861115865719684, 5.381978106418352e-05, -2.3172535119669436e-08)",,"[-0.026750000193715096, 0.05299999937415123, 0.03999999910593033]","[0.0, -0.0, 0.8049877164750058]","[-0.07864919304847717, 0.10290464758872986, 0.03999999910593033]","[0.0, -0.0, 0.11087832859978779]","[0.026750000193715096, 0.05299999937415123, 0.03999999910593033]","[0.0, 0.0, -0.805440964305088]","[0.07867180556058884, 0.10288111865520477, 0.03999999910593033]","[0.0, 0.0, -0.11351997099607207]",0.784488950920478,-4.919705357879415,"(0.0, 0.0, 0.0, 0.0, 0.0, 0.0)",0.8461229797239068,-0.7146985741739192,-4.941402543774016,"(0.0, 0.0, 0.0, 0.0, 0.0, 0.0)",0.11147072977230046,-0.7848968695776682,4.93058318873782,"(0.0, 0.0, 0.0, 0.0, 0.0, 0.0)",-0.8484484528940599,0.7127290066915236,4.993924540063379,"(0.0, 0.0, 0.0, 0.0, 0.0, 0.0)",-0.1121739668696123,False,,,,,False,,,,
45,Close,,,"(0.010002799075796832, 0.16004478517433812, 0.04289323765696492)","(-0.0009148584090699577, 5.7178691569402595e-05, -2.615520523253533e-08)",,"[-0.026750000193715096, 0.05299999937415123, 0.03999999910593033]","[0.0, -0.0, 0.7844889896573499]","[-0.07761538028717041, 0.10395795851945877, 0.03999999910593033]","[0.0, -0.0, 0.06979037514545033]","[0.026750000193715096, 0.05299999937415123, 0.03999999910593033]","[0.0, 0.0, -0.7848969068252226]","[0.07763615995645523, 0.10393720120191574, 0.03999999910593033]","[0.0, 0.0, -0.07216786709232846]",0.7660400558284302,-4.427734822091471,"(0.0, 0.0, 0.0, 0.0, 0.0, 0.0)",0.7617842585328375,-0.7332288222135146,-4.44725952950288,"(0.0, 0.0, 0.0, 0.0, 0.0, 0.0)",0.10051055612556806,-0.7664071826199014,4.437524869864038,"(0.0, 0.0, 0.0, 0.0, 0.0, 0.0)",-0.7638799793048979,0.7314562121459494,4.494529309062177,"(0.0, 0.0, 0.0, 0.0, 0.0, 0.0)",-0.10114588070786824,False,,,,,False,,,,
46,Close,,,"(0.010002963358557236, 0.16004741369625017, 0.04384907226694074)","(-0.0009685918795946493, 6.053703485636736e-05, -2.9317842489583264e-08)",,"[-0.026750000193715096, 0.05299999937415123, 0.03999999910593033]","[0.0, -0.0, 0.7660400058439011]","[-0.07666666060686111, 0.10488764196634293, 0.03999999910593033]","[0.0, -0.0, 0.0328112365488731]","[0.026750000193715096, 0.05299999937415123, 0.03999999910593033]","[0.0, 0.0, -0.7664072421942376]","[0.07668570429086685, 0.1048693135380745, 0.03999999910593033]","[0.0, 0.0, -0.03495097036229706]",0.7494360502455871,-3.984961339882325,"(0.0, 0.0, 0.0, 0.0, 0.0, 0.0)",0.6858274268188955,-0.7499060350622873,-4.002531083705426,"(0.0, 0.0, 0.0, 0.0, 0.0, 0.0)",0.09061088591719418,-0.7497664643579113,3.9937723828776335,"(0.0, 0.0, 0.0, 0.0, 0.0, 0.0)",-0.6877158393779155,0.7483106866034595,4.045073869802414,"(0.0, 0.0, 0.0, 0.0, 0.0, 0.0)",-0.09118463108881669,False,,,,,False,,,,
47,Close,,,"(0.010003127607656072, 0.16005004167957756, 0.04463109991511072)","(-0.0010223162788461832, 6.389481101241881e-05, -3.266035557177819e-08)",,"[-0.026750000193715096, 0.05299999937415123, 0.03999999910593033]","[0.0, -0.0, 0.7494360616149593]","[-0.07579827308654785, 0.1057092696428299, 0.03999999910593033]","[0.0, 0.0, -0.00046998485639781964]","[0.026750000193715096, 0.05299999937415123, 0.03999999910593033]","[0.0, 0.0, -0.7497665229086657]","[0.07581568509340286, 0.10569305717945099, 0.03999999910593033]","[0.0, 0.0, -0.0014557777936095985]",0.7344924452210284,-3.5864652058940925,"(0.0, 0.0, 0.0, 0.0, 0.0, 0.0)",0.6173964503690262,-0.7649166300024903,-3.602542785648727,"(0.0, 0.0, 0.0, 0.0, 0.0, 0.0)",0.08164469448201127,-0.7347898179221202,3.594395144589871,"(0.0, 0.0, 0.0, 0.0, 0.0, 0.0)",-0.61909767957405,0.7634808239898891,3.6408329727431203,"(0.0, 0.0, 0.0, 0.0, 0.0, 0.0)",-0.08216247127692902,False,,,,,False,,,,
48,Close,,,"(0.010003291824242136, 0.16005266914270105, 0.04523936165140331)","(-0.0010760316083767074, 6.725202012489063e-05, -3.618265319583079e-08)",,"[-0.026750000193715096, 0.05299999937415123, 0.03999999910593033]","[0.0, -0.0, 0.7344924171356654]","[-0.07500515878200531, 0.10643631219863892, 0.03999999910593033]","[0.0, 0.0, -0.03042418292779103]","[0.026750000193715096, 0.05299999937415123, 0.03999999910593033]","[0.0, 0.0, -0.7347898072320369]","[0.07502105087041855, 0.10642196238040924, 0.03999999910593033]","[0.0, -0.0, 0.028691003185096618]",0.7210432006989256,-3.227818685304683,"(0.0, 0.0, 0.0, 0.0, 0.0, 0.0)",0.5558325671900768,-0.77842604750784,-3.2422602012839143,"(0.0, 0.0, 0.0, 0.0, 0.0, 0.0)",0.07360992294062317,-0.7213108361299082,3.234955630130884,"(0.0, 0.0, 0.0, 0.0, 0.0, 0.0)",-0.5573653507703412,0.7771338289584356,3.2767211924511668,"(0.0, 0.0, 0.0, 0.0, 0.0, 0.0)",-0.07407739542501454,False,,,,,False,,,,
49,Close,,,"(0.010003456009463264, 0.16005529610398603, 0.04567389610019914)","(-0.0011297378697381003, 7.060866228110946e-05, -3.988464411418517e-08)",,"[-0.026750000193715096, 0.05299999937415123, 0.03999999910593033]","[0.0, -0.0, 0.7210432248946826]","[-0.07428213953971863, 0.10708045959472656, 0.03999999910593033]","[0.0, 0.0, -0.05738284539856889]","[0.026750000193715096, 0.05299999937415123, 0.03999999910593033]","[0.0, 0.0, -0.7213108742429458]","[0.07429660856723785, 0.10706773400306702, 0.03999999910593033]","[0.0, -0.0, 0.0558229905847104]",0.708938880629033,-2.905036816774215,"(0.0, 0.0, 0.0, 0.0, 0.0, 0.0)",0.5003668258645501,-0.7905844163893876,-2.9180085315714246,"(0.0, 0.0, 0.0, 0.0, 0.0, 0.0)",0.06632913423961855,-0.7091797525169173,2.911460067117798,"(0.0, 0.0, 0.0, 0.0, 0.0, 0.0)",-0.5017475327577147,0.7894214258858812,2.9490232625869344,"(0.0, 0.0, 0.0, 0.0, 0.0, 0.0)",-0.06675089596581112,False,,,,,False,,,,
50,Close,,,"(0.010001644182078712, 0.16005595153396976, 0.045940321410535084)","(-0.0011271805217326655, 1.767785898679914e-05, -1.508889111938428e-08)",,"[-0.026750000193715096, 0.05299999937415123, 0.03999999910593033]","[0.0, -0.0, 0.7089389671526269]","[-0.07362406700849533, 0.10765182226896286, 0.03999999910593033]","[0.0, 0.0, -0.08164554069303018]","[0.026750000193715096, 0.05299999937415123, 0.03999999910593033]","[0.0, 0.0, -0.7091797033714331]","[0.0736372321844101, 0.10764053463935852, 0.03999999910593033]","[0.0, -0.0, 0.08024167743029369]",0.6980449925661297,-2.6145331350967917,"(0.0, 0.0, 0.0, 0.0, 0.0, 0.0)",0.4504252929298086,-0.8015268519725993,-2.6261845399708146,"(0.0, 0.0, 0.0, 0.0, 0.0, 0.0)",0.059761147909024356,-0.6982617772652256,2.6203140604060167,"(0.0, 0.0, 0.0, 0.0, 0.0, 0.0)",-0.4516689022418484,0.8004801661036254,2.6540976522586175,"(0.0, 0.0, 0.0, 0.0, 0.0, 0.0)",-0.06014157277442886,False,,,,,False,,,,
51,Close,,,"(0.009998458164918766, 0.16005543218265145, 0.046184544665354044)","(-0.001116587313714928, -4.731063982249702e-05, 3.3486629919706074e-09)",,"[-0.026750000193715096, 0.05299999937415123, 0.03999999910593033]","[0.0, -0.0, 0.6980450466292163]","[-0.07302592694759369, 0.10815921425819397, 0.03999999910593033]","[0.0, 0.0, -0.1034818592301779]","[0.026750000193715096, 0.05299999937415123, 0.03999999910593033]","[0.0, 0.0, -0.6982617371246688]","[0.07303788512945175, 0.10814917832612991, 0.03999999910593033]","[0.0, -0.0, 0.10221840210156648]",0.6882404933095168,-2.3530798215871136,"(0.0, 0.0, 0.0, 0.0, 0.0, 0.0)",0.40545980991383274,-0.8113749570468809,-2.3635452178275753,"(0.0, 0.0, 0.0, 0.0, 0.0, 0.0)",0.0538375991228723,-0.688435599538703,2.358282654365416,"(0.0, 0.0, 0.0, 0.0, 0.0, 0.0)",-0.4065798463491374,0.810432944800545,2.3886668872606847,"(0.0, 0.0, 0.0, 0.0, 0.0, 0.0)",-0.0541806611811555,False,,,,,False,,,,
52,Close,,,"(0.0099979269032565, 0.16005188637635104, 0.04640949954916324)","(-0.0010442772263960227, -5.814874739306873e-05, 7.787963860925158e-09)",,"[-0.026750000193715096, 0.05299999937415123, 0.03999999910593033]","[0.0, -0.0, 0.688240548987758]","[-0.07248289883136749, 0.10861026495695114, 0.03999999910593033]","[0.0, 0.0, -0.12313446206189271]","[0.026750000193715096, 0.05299999937415123, 0.03999999910593033]","[0.0, 0.0, -0.6884356086136862]","[0.07249374687671661, 0.10860133916139603, 0.03999999910593033]","[0.0, -0.0, 0.1219973374555316]",0.679416393078237,-2.117784055507141,"(0.0, 0.0, 0.0, 0.0, 0.0, 0.0)",0.3649762140031281,-0.8202374613421928,-2.12700103087486,"(0.0, 0.0, 0.0, 0.0, 0.0, 0.0)",0.04851286211734207,-0.6795919883598663,2.1224666829208143,"(0.0, 0.0, 0.0, 0.0, 0.0, 0.0)",-0.36598488497268467,0.8193896503204905,2.149609324786922,"(0.0, 0.0, 0.0, 0.0, 0.0, 0.0)",-0.04882227338805697,False,,,,,False,,,,
53,Close,,,"(0.009997966950406065, 0.16004795201914346, 0.046616050094935475)","(-0.0009640430328522325, -5.7324486097668704e-05, 4.2980615420070005e-09)",,"[-0.026750000193715096, 0.05299999937415123, 0.03999999910593033]","[0.0, -0.0, 0.6794163791618646]","[-0.07199041545391083, 0.10901165008544922, 0.03999999910593033]","[0.0, 0.0, -0.1408210743259801]","[0.026750000193715096, 0.05299999937415123, 0.03999999910593033]","[0.0, 0.0, -0.6795920181483843]","[0.07200025022029877, 0.1090037003159523, 0.03999999910593033]","[0.0, -0.0, 0.13979766167419433]",0.6714747537704133,-1.9059934338776885,"(0.0, 0.0, 0.0, 0.0, 0.0, 0.0)",0.3285291326313333,-0.8282143561304102,-1.914454749172182,"(0.0, 0.0, 0.0, 0.0, 0.0, 0.0)",0.043663125146434535,-0.6716327895238797,1.9102077206367922,"(0.0, 0.0, 0.0, 0.0, 0.0, 0.0)",-0.3294374536237565,0.8274513303019508,1.934803195550486,"(0.0, 0.0, 0.0, 0.0, 0.0, 0.0)",-0.043941831288343336,False,,,,,False,,,,
54,Close,,,"(0.009998107600018924, 0.16004411888380865, 0.0468059782297436)","(-0.0008858309445970004, -5.447527859797503e-05, 4.128601528647624e-08)",,"[-0.026750000193715096, 0.05299999937415123, 0.03999999910593033]","[0.0, -0.0, 0.6714747449539094]","[-0.07154417037963867, 0.10936915874481201, 0.03999999910593033]","[0.0, 0.0, -0.15673960659097733]","[0.026750000193715096, 0.05299999937415123, 0.03999999910593033]","[0.0, 0.0, -0.6716327690441329]","[0.07155308127403259, 0.10936208069324493, 0.03999999910593033]","[0.0, -0.0, 0.15581855230220754]",0.664327278393372,-1.7153940904899205,"(0.0, 0.0, 0.0, 0.0, 0.0, 0.0)",0.2957170811345372,-0.8353934979980445,-1.7229940482322428,"(0.0, 0.0, 0.0, 0.0, 0.0, 0.0)",0.03934112702889199,-0.6644695105714917,1.7191869485731137,"(0.0, 0.0, 0.0, 0.0, 0.0, 0.0)",-0.2965349881453131,0.8347067784412298,1.7413075534269409,"(0.0, 0.0, 0.0, 0.0, 0.0, 0.0)",-0.039592428071821256,False,,,,,False,,,,
55,Close,,,"(0.009998248644105466, 0.16004048002584464, 0.0469807018618576)","(-0.0008115684428503489, -5.1596750749095254e-05, 7.881188886077776e-08)",,"[-0.026750000193715096, 0.05299999937415123, 0.03999999910593033]","[0.0, -0.0, 0.6643273336690038]","[-0.07114013284444809, 0.10968788713216782, 0.03999999910593033]","[0.0, 0.0, -0.17106622141763456]","[0.026750000193715096, 0.05299999937415123, 0.03999999910593033]","[0.0, 0.0, -0.6644694779113771]","[0.07114819437265396, 0.10968156903982162, 0.03999999910593033]","[0.0, -0.0, 0.17023725548976373]",0.6578945505540348,-1.543854681440929,"(0.0, 0.0, 0.0, 0.0, 0.0, 0.0)",0.2661784897251144,-0.8418546682622772,-1.5506808634158242,"(0.0, 0.0, 0.0, 0.0, 0.0, 0.0)",0.03542959308904228,-0.6580225595143425,1.547268253715802,"(0.0, 0.0, 0.0, 0.0, 0.0, 0.0)",-0.26691494494593054,0.8412366239853526,1.567162930589489,"(0.0, 0.0, 0.0, 0.0, 0.0, 0.0)",-0.035656056287006674,False,,,,,False,,,,
56,Close,,,"(0.009998390752654573, 0.16003702894197389, 0.04714144752999396)","(-0.0007411380797103218, -4.869650481896534e-05, 1.1687517768299383e-07)",,"[-0.026750000193715096, 0.05299999937415123, 0.03999999910593033]","[0.0, -0.0, 0.6578945475257985]","[-0.07077455520629883, 0.1099722608923912, 0.03999999910593033]","[0.0, 0.0, -0.18396012465064338]","[0.026750000193715096, 0.05299999937415123, 0.03999999910593033]","[0.0, 0.0, -0.6580225896942233]","[0.07078184932470322, 0.10996662080287933, 0.03999999910593033]","[0.0, -0.0, 0.18321406389742323]",0.6521050954986313,-1.3894692132968354,"(0.0, 0.0, 0.0, 0.0, 0.0, 0.0)",0.23958744527110798,-0.8476696697618468,-1.395600359896693,"(0.0, 0.0, 0.0, 0.0, 0.0, 0.0)",0.031904902566438624,-0.6522203035629083,1.392541428344221,"(0.0, 0.0, 0.0, 0.0, 0.0, 0.0)",-0.24025052935853647,0.8471134329078756,1.410434141405507,"(0.0, 0.0, 0.0, 0.0, 0.0, 0.0)",-0.032108956045352514,False,,,,,False,,,,
57,Close,,,"(0.009998534235924597, 0.16003375955333046, 0.04728933347451534)","(-0.0006744157946989166, -4.576820860538318e-05, 1.554405829918684e-07)",,"[-0.026750000193715096, 0.05299999937415123, 0.03999999910593033]","[0.0, -0.0, 0.6521051450040646]","[-0.07044398784637451, 0.11022617667913437, 0.03999999910593033]","[0.0, 0.0, -0.19556454293122102]","[0.026750000193715096, 0.05299999937415123, 0.03999999910593033]","[0.0, 0.0, -0.6522203497730787]","[0.07045057415962219, 0.11022114753723145, 0.03999999910593033]","[0.0, -0.0, 0.19489313608724637]",0.6468945859487681,-1.250522291967151,"(0.0, 0.0, 0.0, 0.0, 0.0, 0.0)",0.2156503992603495,-0.8529031244958994,-1.2560291361726517,"(0.0, 0.0, 0.0, 0.0, 0.0, 0.0)",0.02872919688306315,-0.6469982732066174,1.253287285509799,"(0.0, 0.0, 0.0, 0.0, 0.0, 0.0)",-0.2162473971085442,0.8524025140258721,1.2693794683191757,"(0.0, 0.0, 0.0, 0.0, 0.0, 0.0)",-0.02891303657535659,False,,,,,False,,,,
58,Close,,,"(0.009998679410322496, 0.16003066597344334, 0.0474253884764576)","(-0.0006112814540129935, -4.2805404436077314e-05, 1.9447426774393396e-07)",,"[-0.026750000193715096, 0.05299999937415123, 0.03999999910593033]","[0.0, -0.0, 0.6468945636476681]","[-0.07014521211385727, 0.11045306921005249, 0.03999999910593033]","[0.0, 0.0, -0.20600854729134555]","[0.026750000193715096, 0.05299999937415123, 0.03999999910593033]","[0.0, 0.0, -0.6469982503054421]","[0.07015117257833481, 0.11044856905937195, 0.03999999910593033]","[0.0, -0.0, 0.20540423443750838]",0.6422051273538913,-1.125470062770436,"(0.0, 0.0, 0.0, 0.0, 0.0, 0.0)",0.1941029233168818,-0.8576131917611358,-1.1304161436567226,"(0.0, 0.0, 0.0, 0.0, 0.0, 0.0)",0.025868240883426936,-0.6422984458859556,1.1279585569588184,"(0.0, 0.0, 0.0, 0.0, 0.0, 0.0)",-0.19464040126091972,0.8571626447690798,1.1424313783698345,"(0.0, 0.0, 0.0, 0.0, 0.0, 0.0)",-0.026033851694478666,False,,,,,False,,,,
59,Move,,,"(0.009998826598722164, 0.16002774252192944, 0.04755055901421763)","(-0.0005516191299448554, -3.980150267197137e-05, 2.339437659612592e-07)","[0.0, 0.0, 0.0]","[-0.026750000193715096, 0.05299999937415123, 0.03999999910593033]","[0.0, -0.0, 0.6422051137296667]","[-0.0698753148317337, 0.11065594106912613, 0.03999999910593033]","[0.0, 0.0, -0.2154080556264429]","[0.026750000193715096, 0.05299999937415123, 0.03999999910593033]","[0.0, 0.0, -0.6422983956794274]","[0.06988069415092468, 0.1106519103050232, 0.03999999910593033]","[0.0, -0.0, 0.21486417441436167]",0.6379846146185022,-1.0129230564933929,"(0.0, 0.0, 0.0, 0.0, 0.0, 0.0)",0.17470684718642912,-0.8618522144704561,-1.0173654502368856,"(0.0, 0.0, 0.0, 0.0, 0.0, 0.0)",0.023291096758263134,-0.6380686012973601,1.0151627012629356,"(0.0, 0.0, 0.0, 0.0, 0.0, 0.0)",-0.1751907229705418,0.8614467243673204,1.02817910357775,"(0.0, 0.0, 0.0, 0.0, 0.0, 0.0)",-0.023440272040621463,False,,,,,True,"(0.04276013174954747, 0.17974174897294792, 0.02399995643463635)","(-0.9999999990838299, -1.9447426661030803e-07, -4.2805404423670755e-05)",0.0013234533115717422,0.0
60,Move,,,"(0.008699259039732246, 0.1597652061907072, 0.04782485533738502)","(0.0040480273580015685, 0.009650479713711625, 0.017575803187450934)","[-0.0012995675589899183, -0.00026253633122225173, 0.00027429632316738894]","[-0.026750000193715096, 0.05299999937415123, 0.03999999910593033]","[0.0, -0.0, 0.6379846501970732]","[-0.06963159143924713, 0.1108374372124672, 0.03999999910593033]","[0.0, 0.0, -0.22386762157269943]","[0.026750000193715096, 0.05299999937415123, 0.03999999910593033]","[0.0, 0.0, -0.638068602671057]","[0.06963644921779633, 0.11083383113145828, 0.03999999910593033]","[0.0, -0.0, 0.22337816170537766]",0.6141590059460926,-5.718146081378296,"(0.0, 0.0, 0.0, 0.0, 0.0, 0.0)",-6.715100343954984,-0.8614283121995241,0.10173654502368734,"(0.0, 0.0, 0.0, 0.0, 0.0, 0.0)",-0.3723637437215536,-0.6186765363685498,4.654095582914465,"(0.0, 0.0, 0.0, 0.0, 0.0, 0.0)",16.91452213543579,0.8602423878670417,-0.28904076006690205,"(0.0, 0.0, 0.0, 0.0, 0.0, 0.0)",7.026754130549747,False,,,,,True,"(0.041928616181162004, 0.17969877893574898, 0.023999959438538117)","(-0.9999999992078928, -2.3394376620903917e-07, -3.980150265941498e-05)",0.0004918567139684023,94.17969713248019
61,Move,,,"(0.006953428279101256, 0.15936555806379668, 0.04799883027777207)","(0.0036027003309908674, 0.011726089522938334, 0.045571805054608026)","[-0.0030453983196209082, -0.000662184458132764, 0.0004482712635544353]","[-0.026750000193715096, 0.05299999937415123, 0.03999999910593033]","[0.0, -0.0, 0.6141590305095613]","[-0.06824154406785965, 0.11184260249137878, 0.03999999910593033]","[0.0, 0.0, -0.24726930604170874]","[0.026750000193715096, 0.05299999937415123, 0.03999999910593033]","[0.0, 0.0, -0.6186765449450942]","[0.06850694119930267, 0.11165456473827362, 0.03999999910593033]","[0.0, -0.0, 0.24156588090171732]",0.5923752537221402,-5.228100533748595,"(0.0, 0.0, 0.0, 0.0, 0.0, 0.0)",0.6968351830029371,-0.8614707024266173,-0.010173654502368734,"(0.0, 0.0, 0.0, 0.0, 0.0, 0.0)",0.03860943376531379,-0.6008618977467228,4.275513269238477,"(0.0, 0.0, 0.0, 0.0, 0.0, 0.0)",3.1840553339598543,0.8603207379647874,0.018804023458970476,"(0.0, 0.0, 0.0, 0.0, 0.0, 0.0)",2.2071937117843152,False,,,,,True,"(0.03955126028332891, 0.18000420521160232, 0.023999959438538117)","(-0.9999999992078928, -2.3394376620903917e-07, -3.980150265941498e-05)",-4.69285261207243e-06,0.0
62,Move,,,"(0.005232479171843643, 0.15895611509417099, 0.04805192961782931)","(0.0015613319654504138, 0.011710638263295036, 0.07400765980182708)","[-0.004766347426878521, -0.0010716274277584592, 0.0005013706036116755]","[-0.026750000193715096, 0.05299999937415123, 0.03999999910593033]","[0.0, -0.0, 0.5923752994005711]","[-0.0669499859213829, 0.1127324104309082, 0.03999999910593033]","[0.0, 0.0, -0.2690954538189607]","[0.026750000193715096, 0.05299999937415123, 0.03999999910593033]","[0.0, 0.0, -0.6008619062673114]","[0.0674554631114006, 0.11238910257816315, 0.03999999910593033]","[0.0, -0.0, 0.2594588653702835]",0.5711748754471921,-5.088090785987531,"(0.0, 0.0, 0.0, 0.0, 0.0, 0.0)",0.20179723839696584,-0.8614666854136499,0.0009640831121563087,"(0.0, 0.0, 0.0, 0.0, 0.0, 0.0)",0.015124512099487388,-0.5830478441846109,4.27537285490686,"(0.0, 0.0, 0.0, 0.0, 0.0, 0.0)",-0.00040728805220429705,0.8603129289032243,-0.001874174775147154,"(0.0, 0.0, 0.0, 0.0, 0.0, 0.0)",-0.0017677334094061982,False,,,,,True,"(0.03728150083157586, 0.18020972647077313, 0.023999959438538117)","(-0.9999999992078928, -2.3394376620903917e-07, -3.980150265941498e-05)",0.00010136561290409651,0.0
63,Move,,,"(0.003536438132730313, 0.15853702184869162, 0.04798413986117641)","(-0.002178499075898401, 0.009685758062407228, 0.10285468498251224)","[-0.006462388465991851, -0.0014907206732378275, 0.0004335808469587768]","[-0.026750000193715096, 0.05299999937415123, 0.03999999910593033]","[0.0, -0.0, 0.5711748797881039]","[-0.06567469984292984, 0.1135711818933487, 0.03999999910593033]","[0.0, 0.0, -0.2902918330000066]","[0.026750000193715096, 0.05299999937415123, 0.03999999910593033]","[0.0, 0.0, -0.5830479010023177]","[0.06639109551906586, 0.11310476809740067, 0.03999999910593033]","[0.0, -0.0, 0.2772650915613622]",0.5507922484404775,-4.891830481611522,"(0.0, 0.0, 0.0, 0.0, 0.0, 0.0)",0.282294284049585,-0.8614673765775518,-0.00016587933645189224,"(0.0, 0.0, 0.0, 0.0, 0.0, 0.0)",0.019719768305812027,-0.565275293151566,4.265412247930778,"(0.0, 0.0, 0.0, 0.0, 0.0, 0.0)",-0.012306804327906049,0.8603137161198487,0.00018893198985979812,"(0.0, 0.0, 0.0, 0.0, 0.0, 0.0)",-0.0004299034376783175,False,,,,,True,"(0.035014354147368115, 0.18037738642755824, 0.023999959438538117)","(-0.9999999992078928, -2.3394376620903917e-07, -3.980150265941498e-05)",0.0001657852207818292,0.0
64,Move,,,"(0.0033070809685918903, 0.15939336139403074, 0.0480245948749005)","(-0.003221721649284341, 0.008758192496794307, 0.10007245081902345)","[-0.006691745630130274, -0.0006343811278987088, 0.00047403586068286985]","[-0.026750000193715096, 0.05299999937415123, 0.03999999910593033]","[0.0, -0.0, 0.5507922756468575]","[-0.06443209946155548, 0.11435192823410034, 0.03999999910593033]","[0.0, 0.0, -0.31067510738133]","[0.026750000193715096, 0.05299999937415123, 0.03999999910593033]","[0.0, 0.0, -0.5652752430676895]","[0.06531667709350586, 0.11379976570606232, 0.03999999910593033]","[0.0, -0.0, 0.2950384296353975]",0.5330621314256022,-4.255228083570051,"(0.0, 0.0, 0.0, 0.0, 0.0, 0.0)",-63.6841566907319,-0.833899768100212,6.616226034561552,"(0.0, 0.0, 0.0, 0.0, 0.0, 0.0)",-32.0033096547166,-0.5494184347075574,3.805646026562078,"(0.0, 0.0, 0.0, 0.0, 0.0, 0.0)",54.08522476914028,0.834294882877888,-6.244519978070589,"(0.0, 0.0, 0.0, 0.0, 0.0, 0.0)",25.974823871813367,True,"(-0.030827226021807298, 0.18072875671023755, 0.023990313633420805)","(0.9946684597633704, 0.10266861339458756, -0.009685606619977753)",0.00023266339136997558,510.2877732171601,True,"(0.03274929454054999, 0.18050411530517568, 0.023999959438538117)","(-0.9999999992078928, -2.3394376620903917e-07, -3.980150265941498e-05)",0.00018643181396489492,418.4587664295024
65,Move,"(0.0, 0.0, 0.0)","(0.0, -0.0, 0.0)","(0.0031969503873777684, 0.16028143882127593, 0.048054583489053525)","(-0.004372781608329888, 0.007939463136719069, 0.09861198334618497)","[-0.006801876211344396, 0.00025369629934648974, 0.0005040244748358916]","[-0.026750000193715096, 0.05299999937415123, 0.03999999910593033]","[0.0, -0.0, 0.5330621158171134]","[-0.06333845853805542, 0.11501035839319229, 0.03999999910593033]","[0.0, 0.0, -0.30083767855036603]","[0.026750000193715096, 0.05299999937415123, 0.03999999910593033]","[0.0, 0.0, -0.549418426545043]","[0.0643477737903595, 0.11440364271402359, 0.03999999910593033]","[0.0, -0.0, 0.2848764361199625]",0.5161701590322703,-4.054073374399667,"(0.0, 0.0, 0.0, 0.0, 0.0, 0.0)",-68.88180562685734,-0.8061093417891989,6.669702314643141,"(0.0, 0.0, 0.0, 0.0, 0.0, 0.0)",-35.756361121383094,-0.5337544439677235,3.7593577775601132,"(0.0, 0.0, 0.0, 0.0, 0.0, 0.0)",68.77952387616044,0.8075007011486295,-6.430603615022057,"(0.0, 0.0, 0.0, 0.0, 0.0, 0.0)",33.85011913137436,True,"(-0.030386831991674287, 0.18170201039644102, 0.02399124115951112)","(0.9949587688124035, 0.09990167360330966, -0.008758080529661552)",-0.0003521033588324185,534.8399967547618,True,"(0.03245991098360225, 0.1814354915724969, 0.023999959438538117)","(-0.9999999992078928, -2.3394376620903917e-07, -3.980150265941498e-05)",3.895377007335016e-05,524.277520594291
66,Move,"(-0.0010126582278481011, 0.0, -0.0010126582278481011)","(0.0, -0.0, 0.0)","(0.003103231430513846, 0.16109440397195374, 0.048059086996620294)","(-0.004816457762876065, 0.004152668738523914, 0.09477766741003538)","[-0.006895595168208318, 0.0010666614500242921, 0.0005085279824026609]","[-0.026750000193715096, 0.05299999937415123, 0.03999999910593033]","[0.0, -0.0, 0.5161702079325045]","[-0.062285806983709335, 0.11561953276395798, 0.03999999910593033]","[0.0, 0.0, -0.28993919682770425]","[0.026750000193715096, 0.05299999937415123, 0.03999999910593033]","[0.0, 0.0, -0.5337544427276155]","[0.0633813738822937, 0.11498501896858215, 0.03999999910593033]","[0.0, -0.0, 0.27374624928461355]",0.5166144337824271,0.10662594003765413,"(0.0, 0.0, 0.0, 0.0, 0.0, 0.0)",5.0099850593155235,-0.8088825038537306,-0.6655588954876208,"(0.0, 0.0, 0.0, 0.0, 0.0, 0.0)",-0.47721716603763553,-0.5367630675167633,-0.7220696517695289,"(0.0, 0.0, 0.0, 0.0, 0.0, 0.0)",-5.770589790420478,0.8101801193215553,0.6430603615022044,"(0.0, 0.0, 0.0, 0.0, 0.0, 0.0)",0.2689174556793983,True,"(-0.03006166347399304, 0.18265404950541297, 0.023992059860314583)","(0.9951104129424696, 0.09844913561342714, -0.007939379726199769)",-0.0007346128178897825,2.032966651424181,True,"(0.032241548852435555, 0.18236762460912842, 0.023999959438538117)","(-0.9999999992078928, -2.3394376620903917e-07, -3.980150265941498e-05)",-0.00012424112725224057,0.0
67,Move,"(-0.0020253164556962027, 0.0, -0.0020253164556962027)","(0.0, -0.0, 0.0)","(0.0029910768105851616, 0.16186073625718753, 0.04798998038562005)","(-0.0045981609938671505, -0.0011019872966189074, 0.09011239615636148)","[-0.0070077497881370025, 0.0018329937352580816, 0.0004394213714024181]","[-0.026750000193715096, 0.05299999937415123, 0.03999999910593033]","[0.0, -0.0, 0.5166145167686849]","[-0.06231362372636795, 0.1156037449836731, 0.03999999910593033]","[0.0, 0.0, -0.29226808746388727]","[0.026750000193715096, 0.05299999937415123, 0.03999999910593033]","[0.0, 0.0, -0.5367630711600129]","[0.06356769800186157, 0.11487452685832977, 0.03999999910593033]","[0.0, -0.0, 0.27341709946321935]",0.5156686833503323,-0.2269801037027399,"(0.0, 0.0, 0.0, 0.0, 0.0, 0.0)",-0.40833356706083973,-0.8086060202413887,0.06635606696205054,"(0.0, 0.0, 0.0, 0.0, 0.0, 0.0)",0.04133138344723909,-0.5377901026159366,-0.2464884238015977,"(0.0, 0.0, 0.0, 0.0, 0.0, 0.0)",0.6168346868756992,0.809912530575564,-0.06422129903791463,"(0.0, 0.0, 0.0, 0.0, 0.0, 0.0)",-0.02405313892968291,True,"(-0.029933285562671302, 0.18256153119103405, 0.023995846583237473)","(0.9955033743714912, 0.09463502024329482, -0.004152656803312201)",-0.0006805043496028978,0.0,True,"(0.032450056763315, 0.18226738195973757, 0.023999959438538117)","(-0.9999999992078928, -2.3394376620903917e-07, -3.980150265941498e-05)",9.451939916559619e-07,0.0
68,Move,"(-0.003037974683544304, 0.0, -0.003037974683544304)","(0.0, -0.0, 0.0)","(0.0030307290235766352, 0.16241281793480591, 0.04805633819356803)","(-0.0037971387521885994, -0.0010302789176316323, 0.08880063544724158)","[-0.00696809757514553, 0.0023850754128764695, 0.0005057791793503935]","[-0.026750000193715096, 0.05299999937415123, 0.03999999910593033]","[0.0, -0.0, 0.5156687364153173]","[-0.0622544027864933, 0.11563734710216522, 0.03999999910593033]","[0.0, 0.0, -0.29293734776275426]","[0.026750000193715096, 0.05299999937415123, 0.03999999910593033]","[0.0, 0.0, -0.537790097318084]","[0.06363122910261154, 0.1148366779088974, 0.03999999910593033]","[0.0, -0.0, 0.272122438411283]",0.5149000750654863,-0.1844659883630443,"(0.0, 0.0, 0.0, 0.0, 0.0, 0.0)",-1.6039895798584922,-0.8081894955544918,0.09996592485526881,"(0.0, 0.0, 0.0, 0.0, 0.0, 0.0)",-0.9131997755697127,-0.5385816875879693,-0.18998039328783686,"(0.0, 0.0, 0.0, 0.0, 0.0, 0.0)",0.4606862851485909,0.809558257558848,-0.08502552401182596,"(0.0, 0.0, 0.0, 0.0, 0.0, 0.0)",0.2358167704120499,True,"(-0.029829256779065755, 0.18257345142099254, 0.023995846583237473)","(0.9955033743714912, 0.09463502024329482, -0.004152656803312201)",-0.0005818620552798786,9.870048390863335,True,"(0.0326897130273807, 0.18113295044177852, 0.05600415341676252)","(-0.9955033743714903, -0.0946350202433038, 0.004152656803305648)",-0.00011818608314293058,3.1032866506062584
69,Move,"(-0.004050632911392405, 0.0, -0.004050632911392405)","(0.0, -0.0, 0.0)","(0.003057287252633348, 0.1628728608232887, 0.04809381350038743)","(-0.002267096694408202, -0.0009468748968210401, 0.08748600026832563)","[-0.0069415393460888165, 0.0028451183013592507, 0.0005432544861697988]","[-0.026750000193715096, 0.05299999937415123, 0.03999999910593033]","[0.0, -0.0, 0.5149000329286457]","[-0.062206245958805084, 0.11566461622714996, 0.03999999910593033]","[0.0, 0.0, -0.29328940462827546]","[0.026750000193715096, 0.05299999937415123, 0.03999999910593033]","[0.0, 0.0, -0.5385816645507016]","[0.06368016451597214, 0.11480746418237686, 0.03999999910593033]","[0.0, -0.0, 0.27097657202058073]",0.5144479157834353,-0.10851822769224756,"(0.0, 0.0, 0.0, 0.0, 0.0, 0.0)",-0.13565661821562647,-0.8081075309513406,0.019671504756293395,"(0.0, 0.0, 0.0, 0.0, 0.0, 0.0)",-0.13180348862876085,-0.5393215878879023,-0.17757607198391454,"(0.0, 0.0, 0.0, 0.0, 0.0, 0.0)",0.29468339872290894,0.8094565496324823,-0.024409902327794282,"(0.0, 0.0, 0.0, 0.0, 0.0, 0.0)",0.17253340275880527,True,"(-0.0297570778431874, 0.1825843670976358, 0.05600103103869459)","(0.9960592851594064, 0.0886839273682644, 0.0010302787353646242)",-0.0005754780751498628,1.8089177449821403,True,"(0.03281463686140669, 0.18113914749682775, 0.05600415341676252)","(-0.9955033743714903, -0.0946350202433038, 0.004152656803305648)",-0.00010745156965361831,2.20443910311943
70,Move,"(-0.005063291139240506, 0.0, -0.005063291139240506)","(0.0, -0.0, 0.0)","(0.0030924082550487617, 0.16328721298432716, 0.048050477462738383)","(-0.00031570602381403507, 0.0011424131043358233, 0.08777667692700804)","[-0.006906418343673403, 0.0032594704623977178, 0.0004999184485207503]","[-0.026750000193715096, 0.05299999937415123, 0.03999999910593033]","[0.0, -0.0, 0.5144479244447069]","[-0.062177907675504684, 0.11568064242601395, 0.03999999910593033]","[0.0, 0.0, -0.29365962264118023]","[0.026750000193715096, 0.05299999937415123, 0.03999999910593033]","[0.0, 0.0, -0.5393216400706721]","[0.06372588872909546, 0.11478012055158615, 0.03999999910593033]","[0.0, -0.0, 0.2701349433716953]",0.5142715458440417,-0.04232878545446807,"(0.0, 0.0, 0.0, 0.0, 0.0, 0.0)",0.09381752323085474,-0.8081157952457964,-0.0019834306693822072,"(0.0, 0.0, 0.0, 0.0, 0.0, 0.0)",0.004621230904333636,-0.5399001540184422,-0.13885587132957156,"(0.0, 0.0, 0.0, 0.0, 0.0, 0.0)",0.05897926771042919,0.8094676956483996,0.0026750438201692817,"(0.0, 0.0, 0.0, 0.0, 0.0, 0.0)",0.006826703063375215,True,"(-0.02970388567358305, 0.18258743468581917, 0.05600094763471455)","(0.9961750935450887, 0.08737440373834482, 0.0009468747553247317)",-0.0005311717933168573,0.0,True,"(0.03291582784355012, 0.18114175190971293, 0.023999052365285444)","(-0.9961750935450884, -0.08737440373835048, -0.0009468747553301365)",-0.00011924688498534319,0.0
71,Move,"(-0.006075949367088608, 0.0, -0.006075949367088608)","(0.0, -0.0, 0.0)","(0.0030948111236274918, 0.1635900723743154, 0.04803903526709989)","(0.0025561272086186073, 0.0010538940000586739, 0.0864721909101659)","[-0.006904015475094673, 0.0035623298523859426, 0.0004884762528822584]","[-0.026750000193715096, 0.05299999937415123, 0.03999999910593033]","[0.0, -0.0, 0.5142715728979524]","[-0.06216685473918915, 0.11568689346313477, 0.03999999910593033]","[0.0, 0.0, -0.29384425723238555]","[0.026750000193715096, 0.05299999937415123, 0.03999999910593033]","[0.0, 0.0, -0.5399001278083417]","[0.0637616217136383, 0.11475872248411179, 0.03999999910593033]","[0.0, -0.0, 0.26956754007824546]",0.5143630146589773,0.021952515584533927,"(0.0, 0.0, 0.0, 0.0, 0.0, 0.0)",0.09353777579228627,-0.8081149688163508,0.00019834306693855552,"(0.0, 0.0, 0.0, 0.0, 0.0, 0.0)",0.006898399039471506,-0.54032501899363,-0.10196759404508013,"(0.0, 0.0, 0.0, 0.0, 0.0, 0.0)",0.22976222271127425,0.8094500560748568,-0.00423349765028236,"(0.0, 0.0, 0.0, 0.0, 0.0, 0.0)",0.1108491359013143,True,"(-0.029680477410795617, 0.18258768517225998, 0.05600094763471455)","(0.9961750935450887, 0.08737440373834482, 0.0009468747553247317)",-0.00047315612693690827,0.0,True,"(0.03298922542059721, 0.18113782013821472, 0.023999052365285444)","(-0.9961750935450884, -0.08737440373835048, -0.0009468747553301365)",-6.266850449600998e-05,0.9177467346729277
72,Move,"(-0.0070886075949367095, 0.0, -0.0070886075949367095)","(0.0, -0.0, 0.0)","(0.0030918792572408042, 0.1637641716887263, 0.04811512284645114)","(0.0023517494983285796, 0.0009692226578952014, 0.08560043401763134)","[-0.006906947341481361, 0.0037364291667968674, 0.0005645638322335084]","[-0.026750000193715096, 0.05299999937415123, 0.03999999910593033]","[0.0, -0.0, 0.5143630297291121]","[-0.06217258796095848, 0.1156836524605751, 0.03999999910593033]","[0.0, 0.0, -0.2937519546793643]","[0.026750000193715096, 0.05299999937415123, 0.03999999910593033]","[0.0, 0.0, -0.5403249834885672]","[0.06378786265850067, 0.11474298685789108, 0.03999999910593033]","[0.0, -0.0, 0.269125028423986]",0.5147161416744171,0.08475048370556326,"(0.0, 0.0, 0.0, 0.0, 0.0, 0.0)",0.09115089772141499,-0.8081150514592954,-1.9834306694175793e-05,"(0.0, 0.0, 0.0, 0.0, 0.0, 0.0)",0.006496487057754957,-0.5405856178619097,-0.06254372838715572,"(0.0, 0.0, 0.0, 0.0, 0.0, 0.0)",0.057708888316895225,0.8094524772880348,0.0005810911627299169,"(0.0, 0.0, 0.0, 0.0, 0.0, 0.0)",0.00459014038311041,True,"(-0.029692385921764868, 0.18258744342548186, 0.05600094763471455)","(0.9961750935450887, 0.08737440373834482, 0.0009468747553247317)",-0.0004036856745406902,0.0,True,"(0.033044837261914116, 0.18113570004900373, 0.023999052365285444)","(-0.9961750935450884, -0.08737440373835048, -0.0009468747553301365)",-5.898188604801497e-05,0.0
73,Move,"(-0.00810126582278481, 0.0, -0.00810126582278481)","(0.0, -0.0, 0.0)","(0.003081760819308729, 0.16385572302922988, 0.04818512444648442)","(0.0021637681717690503, 0.0008916235987383586, 0.08505236540957524)","[-0.006917065779413435, 0.0038279805073004325, 0.0006345654322667885]","[-0.026750000193715096, 0.05299999937415123, 0.03999999910593033]","[0.0, -0.0, 0.5147161939728331]","[-0.06219471991062164, 0.11567114293575287, 0.03999999910593033]","[0.0, 0.0, -0.2933988605587133]","[0.026750000193715096, 0.05299999937415123, 0.03999999910593033]","[0.0, 0.0, -0.540585684468453]","[0.06380394846200943, 0.11473333835601807, 0.03999999910593033]","[0.0, -0.0, 0.26886685046707126]",0.515312004250087,0.14300701816077144,"(0.0, 0.0, 0.0, 0.0, 0.0, 0.0)",0.08459821585244094,-0.8081150431950009,1.9834306703714367e-06,"(0.0, 0.0, 0.0, 0.0, 0.0, 0.0)",0.006051174618705892,-0.5406820530140998,-0.023144436525602607,"(0.0, 0.0, 0.0, 0.0, 0.0, 0.0)",0.05712208286672144,0.8094524374906374,-9.551375365380384e-06,"(0.0, 0.0, 0.0, 0.0, 0.0, 0.0)",0.004027393513993562,True,"(-0.029738141034419588, 0.18258639362754547, 0.05600094763471455)","(0.9961750935450887, 0.08737440373834482, 0.0009468747553247317)",-0.0003267206315435347,0.0,True,"(0.03307806829600237, 0.1811339808768799, 0.023999052365285444)","(-0.9961750935450884, -0.08737440373835048, -0.0009468747553301365)",-5.406980920369076e-05,0.0
74,Move,"(-0.00911392405063291, 0.0, -0.00911392405063291)","(0.0, -0.0, 0.0)","(0.003073631408881567, 0.1638676186943823, 0.04824924440455231)","(0.0019957615085914116, 0.0007982520453877993, 0.08500596934384759)","[-0.0069251951898405975, 0.0038398761724528496, 0.0006986853903346787]","[-0.026750000193715096, 0.05299999937415123, 0.03999999910593033]","[0.0, -0.0, 0.5153120134540742]","[-0.06223205849528313, 0.1156500056385994, 0.03999999910593033]","[0.0, 0.0, -0.29280308777517244]","[0.026750000193715096, 0.05299999937415123, 0.03999999910593033]","[0.0, 0.0, -0.5406820266496779]","[0.06380990147590637, 0.11472976207733154, 0.03999999910593033]","[0.0, -0.0, 0.26877037924441505]",0.5161291402926628,0.1961126502181827,"(0.0, 0.0, 0.0, 0.0, 0.0, 0.0)",0.0771325524787993,-0.8081150440214304,-1.9834306730359685e-07,"(0.0, 0.0, 0.0, 0.0, 0.0, 0.0)",0.0055152317984167145,-0.540602288894955,0.019143388594752342,"(0.0, 0.0, 0.0, 0.0, 0.0, 0.0)",0.3555859282717038,0.8093331489803908,-0.02862924245921438,"(0.0, 0.0, 0.0, 0.0, 0.0, 0.0)",0.16278559200712095,True,"(-0.029815356734823086, 0.18258459036917174, 0.05600094763471455)","(0.9961750935450887, 0.08737440373834482, 0.0009468747553247317)",-0.0002399401040253022,0.0,True,"(0.03309042752919589, 0.18113337125540063, 0.023999052365285444)","(-0.9961750935450884, -0.08737440373835048, -0.0009468747553301365)",-5.021971518065016e-05,2.340499950921843
75,Move,"(-0.010126582278481011, 0.0, -0.010126582278481011)","(0.0, -0.0, 0.0)","(0.0030533244156946285, 0.16386863835892043, 0.048307997933760304)","(0.0019463137028733612, 0.0006369036020632295, 0.08515765419255321)","[-0.006945502183027536, 0.0038408958369909874, 0.0007574389195426703]","[-0.026750000193715096, 0.05299999937415123, 0.03999999910593033]","[0.0, -0.0, 0.5161291452920427]","[-0.062283240258693695, 0.11562099307775497, 0.03999999910593033]","[0.0, 0.0, -0.29198593316892657]","[0.026750000193715096, 0.05299999937415123, 0.03999999910593033]","[0.0, 0.0, -0.540602288099005]","[0.0638049766421318, 0.11473271995782852, 0.03999999910593033]","[0.0, -0.0, 0.2687308397753975]",0.5171560048286926,0.2464474886471608,"(0.0, 0.0, 0.0, 0.0, 0.0, 0.0)",0.07312398802600174,-0.8081150439387874,1.983430752972111e-08,"(0.0, 0.0, 0.0, 0.0, 0.0, 0.0)",0.005229088981908802,-0.5403372036507039,0.06362045862025564,"(0.0, 0.0, 0.0, 0.0, 0.0, 0.0)",0.8289655383012507,0.809075156530028,-0.061918188087068546,"(0.0, 0.0, 0.0, 0.0, 0.0, 0.0)",0.41509539131625556,True,"(-0.02992124388366714, 0.18258204226668823, 0.05600094763471455)","(0.9961750935450887, 0.08737440373834482, 0.0009468747553247317)",-0.00014094645649969016,0.0,True,"(0.03308812817736195, 0.1811375412262377, 0.023999052365285444)","(-0.9961750935450884, -0.08737440373835048, -0.0009468747553301365)",-4.81090750185829e-05,6.035226981431596
76,Move,"(-0.01113924050632911, 0.0, -0.01113924050632911)","(0.0, -0.0, 0.0)","(0.0030010267735926383, 0.16386262719970088, 0.04836242924552087)","(0.0018614074559755909, 0.0005153192285243595, 0.08581654027349193)","[-0.006997799825129526, 0.003834884677771433, 0.0008118702313032397]","[-0.026750000193715096, 0.05299999937415123, 0.03999999910593033]","[0.0, -0.0, 0.5171559799200224]","[-0.062347523868083954, 0.11558447033166885, 0.03999999910593033]","[0.0, 0.0, -0.29095903819037244]","[0.026750000193715096, 0.05299999937415123, 0.03999999910593033]","[0.0, 0.0, -0.5403371648966961]","[0.06378861516714096, 0.11474253982305527, 0.03999999910593033]","[0.0, -0.0, 0.2687379534538558]",0.5183825401203022,0.29436846998630095,"(0.0, 0.0, 0.0, 0.0, 0.0, 0.0)",0.0696328802751329,-0.8081150439470517,-1.983432085239656e-09,"(0.0, 0.0, 0.0, 0.0, 0.0, 0.0)",0.004979749864400593,-0.5398585074923689,0.11488707800040485,"(0.0, 0.0, 0.0, 0.0, 0.0, 0.0)",0.9949606767644359,0.8090193953464251,-0.013382684064709376,"(0.0, 0.0, 0.0, 0.0, 0.0, 0.0)",0.5096253702461311,True,"(-0.030054305397568815, 0.18257871751311355, 0.05600094763471455)","(0.9961750935450887, 0.08737440373834482, 0.0009468747553247317)",-3.291270103132115e-05,0.0,True,"(0.03307129144792536, 0.18114714391534714, 0.023999052365285444)","(-0.9961750935450884, -0.08737440373835048, -0.0009468747553301365)",-4.547498680466387e-05,7.218253168679878
77,Move,"(-0.012151898734177217, 0.0, -0.012151898734177217)","(0.0, -0.0, 0.0)","(0.0029250336075715188, 0.16384971864830103, 0.04841257133100948)","(0.0018517002824069062, 0.00033465187772512017, 0.08674687444384035)","[-0.007073792991150646, 0.0038219761263715846, 0.000862012316791845]","[-0.026750000193715096, 0.05299999937415123, 0.03999999910593033]","[0.0, -0.0, 0.5183825360556817]","[-0.06242426112294197, 0.1155407652258873, 0.03999999910593033]","[0.0, 0.0, -0.28973251594521443]","[0.026750000193715096, 0.05299999937415123, 0.03999999910593033]","[0.0, 0.0, -0.5398584782759885]","[0.06375905126333237, 0.11476026475429535, 0.03999999910593033]","[0.0, -0.0, 0.26916085782676]",0.519805332990816,0.34147028892331205,"(0.0, 0.0, 0.0, 0.0, 0.0, 0.0)",0.06845652608331383,-0.8081150439462252,1.9834267561691377e-10,"(0.0, 0.0, 0.0, 0.0, 0.0, 0.0)",0.004895996648604889,-0.5391770772297905,0.163543263018817,"(0.0, 0.0, 0.0, 0.0, 0.0, 0.0)",0.9197242773655379,0.8089861884991913,-0.007969643336093176,"(0.0, 0.0, 0.0, 0.0, 0.0, 0.0)",0.4695362673523437,True,"(-0.030213235741756966, 0.18257456719830434, 0.05600094763471455)","(0.9961750935450887, 0.08737440373834482, 0.0009468747553247317)",5.737192864915793e-05,0.0,True,"(0.03301364920732927, 0.18115186971403352, 0.023999052365285444)","(-0.9961750935450884, -0.08737440373835048, -0.0009468747553301365)",-4.254053835625476e-05,6.69472357015277
78,Move,"(-0.013164556962025316, 0.0, -0.013164556962025316)","(0.0, -0.0, 0.0)","(0.0028263752519404983, 0.16382951924363098, 0.04845870955373194)","(0.0019261587288864194, 8.484917477433125e-05, 0.08792669407336644)","[-0.007172451346781666, 0.0038017767217015386, 0.0009081505395143047]","[-0.026750000193715096, 0.05299999937415123, 0.03999999910593033]","[0.0, -0.0, 0.5198052994066452]","[-0.06251320242881775, 0.11548994481563568, 0.03999999910593033]","[0.0, 0.0, -0.28830968851566996]","[0.026750000193715096, 0.05299999937415123, 0.03999999910593033]","[0.0, 0.0, -0.5391771519480977]","[0.06371696293354034, 0.11478547006845474, 0.03999999910593033]","[0.0, -0.0, 0.2698091305111735]",0.5214163902520322,0.3866537426918901,"(0.0, 0.0, 0.0, 0.0, 0.0, 0.0)",0.06568438108764417,-0.8081150439463078,-1.9834800468743197e-11,"(0.0, 0.0, 0.0, 0.0, 0.0, 0.0)",0.004698193544445191,-0.5382972316898419,0.21116292958764854,"(0.0, 0.0, 0.0, 0.0, 0.0, 0.0)",0.9120260047454233,0.8089599048002087,-0.00630808775581758,"(0.0, 0.0, 0.0, 0.0, 0.0, 0.0)",0.4663713141603618,True,"(-0.03039758994463966, 0.18256950858143253, 0.05600094763471455)","(0.9961750935450887, 0.08737440373834482, 0.0009468747553247317)",0.000142282858675344,0.0,True,"(0.03292852517432594, 0.18115713062376804, 0.023999052365285444)","(-0.9961750935450884, -0.08737440373835048, -0.0009468747553301365)",-3.988930399468968e-05,6.650724218128952
79,Move,"(-0.01417721518987342, 0.0, -0.01417721518987342)","(0.0, -0.0, 0.0)","(0.0027054050338452197, 0.16380177671429655, 0.04850115183088171)","(0.002087868297835403, -0.0002383834376522096, 0.08935132190388216)","[-0.007293421564876945, 0.003774034192367104, 0.0009505928166640767]","[-0.026750000193715096, 0.05299999937415123, 0.03999999910593033]","[0.0, -0.0, 0.5214163768330878]","[-0.0626138374209404, 0.1154322475194931, 0.03999999910593033]","[0.0, 0.0, -0.28669866015798084]","[0.026750000193715096, 0.05299999937415123, 0.03999999910593033]","[0.0, 0.0, -0.5382972829309322]","[0.0636625811457634, 0.11481796950101852, 0.03999999910593033]","[0.0, -0.0, 0.27066263266226237]",0.5232098818028907,0.43043797220604674,"(0.0, 0.0, 0.0, 0.0, 0.0, 0.0)",0.06366559152054929,-0.8081150439462996,1.9824142361588113e-12,"(0.0, 0.0, 0.0, 0.0, 0.0, 0.0)",0.004554297986262448,-0.5372209705109791,0.25830268292708963,"(0.0, 0.0, 0.0, 0.0, 0.0, 0.0)",0.910519345871165,0.8089369496618963,-0.005509233194978258,"(0.0, 0.0, 0.0, 0.0, 0.0, 0.0)",0.4660906359854358,True,"(-0.030606329018298295, 0.1825634639585561, 0.05600094763471455)","(0.9961750935450887, 0.08737440373834482, 0.0009468747553247317)",0.00022222205307188201,0.0,True,"(0.03281750810840559, 0.18116332791145287, 0.023999052365285444)","(-0.9961750935450884, -0.08737440373835048, -0.0009468747553301365)",-3.745268861093683e-05,6.645789353905901
80,Move,"(-0.01518987341772152, 0.0, -0.01518987341772152)","(0.0, -0.0, 0.0)","(0.002570502824323496, 0.16378538497497494, 0.04854022774077718)","(0.0019201327794359428, -0.00021834690036814464, 0.09102461972193136)","[-0.007428323774398669, 0.0037576424530454955, 0.0009896687265595477]","[-0.026750000193715096, 0.05299999937415123, 0.03999999910593033]","[0.0, -0.0, 0.5232099100727028]","[-0.0627257451415062, 0.1153678223490715, 0.03999999910593033]","[0.0, 0.0, -0.2849051718978193]","[0.026750000193715096, 0.05299999937415123, 0.03999999910593033]","[0.0, 0.0, -0.5372209378018329]","[0.06359603255987167, 0.11485765874385834, 0.03999999910593033]","[0.0, -0.0, 0.27171595499555135]",0.5251799368655264,0.4728132150325655,"(0.0, 0.0, 0.0, 0.0, 0.0, 0.0)",0.0616324330409176,-0.8081150439463004,-1.971756091734278e-13,"(0.0, 0.0, 0.0, 0.0, 0.0, 0.0)",0.0044094145706364005,-0.5359513549801281,0.30470772740421337,"(0.0, 0.0, 0.0, 0.0, 0.0, 0.0)",0.7865454235659795,0.8088967666662572,-0.009643918953380296,"(0.0, 0.0, 0.0, 0.0, 0.0, 0.0)",0.4060743186376478,True,"(-0.030838054886858375, 0.18254947985397357, 0.05600023914339462)","(0.9960107974139776, 0.08923247507555908, 0.00023838343539508012)",0.0002979565564684129,0.0,True,"(0.03268111452936736, 0.18117021036855793, 0.023999760856605375)","(-0.9960107974139777, -0.08923247507555931, -0.00023838343540126297)",-3.6882180756529465e-05,5.50154291953663
81,Move,"(-0.01620253164556962, 0.0, -0.01620253164556962)","(0.0, -0.0, 0.0)","(0.0024136667174156925, 0.16376840400462905, 0.048576170391472814)","(0.0017657765982754734, -0.00019965569819356993, 0.09283453063415018)","[-0.0075851598813064715, 0.0037406614826996087, 0.0010256113772551811]","[-0.026750000193715096, 0.05299999937415123, 0.03999999910593033]","[0.0, -0.0, 0.5251800072230169]","[-0.0628485456109047, 0.11529682576656342, 0.03999999910593033]","[0.0, 0.0, -0.2829351058324093]","[0.026750000193715096, 0.05299999937415123, 0.03999999910593033]","[0.0, 0.0, -0.5359513690992804]","[0.06351746618747711, 0.11490438878536224, 0.03999999910593033]","[0.0, -0.0, 0.27294541558082674]",0.5273205938610273,0.5137576789201921,"(0.0, 0.0, 0.0, 0.0, 0.0, 0.0)",0.05956742012348808,-0.8081150439463003,1.865174681370263e-14,"(0.0, 0.0, 0.0, 0.0, 0.0, 0.0)",0.004262287884290474,-0.5344893431392191,0.3508828418181611,"(0.0, 0.0, 0.0, 0.0, 0.0, 0.0)",0.8854322518114549,0.8088511156458903,-0.010956244888053567,"(0.0, 0.0, 0.0, 0.0, 0.0, 0.0)",0.4645230109235732,True,"(-0.031093239373975068, 0.18254087924342347, 0.05600021910685786)","(0.9958600951567833, 0.09089897248569162, 0.00021834689863473811)",0.0003808933896448207,0.0,True,"(0.03252108623001321, 0.18117844084675705, 0.023999780893142142)","(-0.995860095156783, -0.09089897248569406, -0.00021834689862935635)",-3.475667878193703e-05,6.269893025522147
82,Move,"(-0.017215189873417722, 0.0, -0.017215189873417722)","(0.0, -0.0, 0.0)","(0.002235144240059123, 0.16374889126175804, 0.04860923640961277)","(0.0016237543594422295, -0.00018234573701975416, 0.09479544940581892)","[-0.007763682358663041, 0.0037211487398285947, 0.0010586773953951342]","[-0.026750000193715096, 0.05299999937415123, 0.03999999910593033]","[0.0, -0.0, 0.5273205511197746]","[-0.06298182159662247, 0.11521941423416138, 0.03999999910593033]","[0.0, 0.0, -0.2807944957423281]","[0.026750000193715096, 0.05299999937415123, 0.03999999910593033]","[0.0, 0.0, -0.5344893233535525]","[0.0634269192814827, 0.11495807766914368, 0.03999999910593033]","[0.0, -0.0, 0.27436171032480106]",0.5296291506992884,0.5540536411826879,"(0.0, 0.0, 0.0, 0.0, 0.0, 0.0)",0.058637852715755535,-0.8081150439463003,-2.6645420353639537e-15,"(0.0, 0.0, 0.0, 0.0, 0.0, 0.0)",0.004196377405263822,-0.5328368174902038,0.39660615576367236,"(0.0, 0.0, 0.0, 0.0, 0.0, 0.0)",0.8894658866366484,0.8088056785824119,-0.01090489523479981,"(0.0, 0.0, 0.0, 0.0, 0.0, 0.0)",0.46951564323635725,True,"(-0.03137050108136961, 0.18253095574359068, 0.0560002004156561)","(0.995693948986451, 0.09270124103467854, 0.0001996556968697471)",0.0004608972718819568,0.0,True,"(0.0323367415707252, 0.1811877687569221, 0.023999799584343905)","(-0.9956939489864508, -0.09270124103468037, -0.00019965569686877522)",-3.2885611201995876e-05,6.33228405118465
83,Move,"(-0.01822784810126582, 0.0, -0.01822784810126582)","(0.0, -0.0, 0.0)","(0.0020354771269187806, 0.16372580696700578, 0.04863965643313834)","(0.0014930593033383583, -0.00016633001367074887, 0.09691151464066346)","[-0.007963349471803384, 0.003698064445076338, 0.0010890974189207078]","[-0.026750000193715096, 0.05299999937415123, 0.03999999910593033]","[0.0, -0.0, 0.5296291489347508]","[-0.0631253570318222, 0.11513560265302658, 0.03999999910593033]","[0.0, 0.0, -0.27848588855100515]","[0.026750000193715096, 0.05299999937415123, 0.03999999910593033]","[0.0, 0.0, -0.5328368344602109]","[0.06332448124885559, 0.11501860618591309, 0.03999999910593033]","[0.0, -0.0, 0.27596883154371554]",0.5321000541762455,0.5930168344697062,"(0.0, 0.0, 0.0, 0.0, 0.0, 0.0)",0.056714860040438186,-0.8081150439463003,-6.776263578034403e-21,"(0.0, 0.0, 0.0, 0.0, 0.0, 0.0)",0.004059470900687754,-0.530996671385575,0.44163506511092177,"(0.0, 0.0, 0.0, 0.0, 0.0, 0.0)",0.887526535856441,0.8087602414246063,-0.010904917873335626,"(0.0, 0.0, 0.0, 0.0, 0.0, 0.0)",0.4708351303268104,True,"(-0.03166948510846649, 0.18251959782924648, 0.05600018310569523)","(0.9955102584688343, 0.09465353682429051, 0.0001823457360076233)",0.0005373447572776309,0.0,True,"(0.03212794086509185, 0.18119789125757824, 0.023999816894304762)","(-0.9955102584688342, -0.0946535368242914, -0.00018234573601588514)",-3.129226036448596e-05,6.352253377334778
84,Move,"(-0.019240506329113925, 0.0, -0.019240506329113925)","(0.0, -0.0, 0.0)","(0.0018211544876021236, 0.16372278550404287, 0.04861964951599934)","(-0.00020879224251569876, -0.00015009582503678064, 0.1000017694573563)","[-0.00817767211112004, 0.003695042982113428, 0.0010690905017817082]","[-0.026750000193715096, 0.05299999937415123, 0.03999999910593033]","[0.0, -0.0, 0.5321000984542119]","[-0.06327877938747406, 0.11504553258419037, 0.03999999910593033]","[0.0, 0.0, -0.27601498281251446]","[0.026750000193715096, 0.05299999937415123, 0.03999999910593033]","[0.0, 0.0, -0.5309967036866118]","[0.06321030110120773, 0.11508580297231674, 0.03999999910593033]","[0.0, -0.0, 0.2777635817770218]",0.5347276719896932,0.6306282752274431,"(0.0, 0.0, 0.0, 0.0, 0.0, 0.0)",0.0547640676043878,-0.8081150439463003,0.0,"(0.0, 0.0, 0.0, 0.0, 0.0, 0.0)",0.003920599556891932,-0.5289693649817734,0.486553536912407,"(0.0, 0.0, 0.0, 0.0, 0.0, 0.0)",0.44185662250313956,0.8087531975584248,-0.0016905278835847738,"(0.0, 0.0, 0.0, 0.0, 0.0, 0.0)",0.21764361008210847,True,"(-0.03198946579026402, 0.18250669371993433, 0.056000167089972124)","(0.9953077395254495, 0.09675988825472523, 0.00016633001290071147)",0.0006098281491689343,0.0,True,"(0.031895064500609624, 0.18120867349233644, 0.023999832910027878)","(-0.9953077395254497, -0.09675988825472201, -0.00016633001289779472)",-2.9979814574708425e-05,2.989226314863232
85,Move,"(-0.020253164556962026, 0.0, -0.020253164556962026)","(0.0, -0.0, 0.0)","(0.0015776611571560529, 0.16369943286962121, 0.048649145447835496)","(-0.0004585880532787384, 0.00013071862421058664, 0.10231842276472106)","[-0.008421165441566111, 0.0036716903476917695, 0.0010985864336178625]","[-0.026750000193715096, 0.05299999937415123, 0.03999999910593033]","[0.0, -0.0, 0.534727762725289]","[-0.0634416863322258, 0.11494933813810349, 0.03999999910593033]","[0.0, 0.0, -0.27338740664209876]","[0.026750000193715096, 0.05299999937415123, 0.03999999910593033]","[0.0, 0.0, -0.5289694153879985]","[0.06308435648679733, 0.11515958607196808, 0.03999999910593033]","[0.0, -0.0, 0.2797838295254096]",0.5375063310528019,0.6668781751460857,"(0.0, 0.0, 0.0, 0.0, 0.0, 0.0)",0.05279880357503766,-0.8081150439463003,0.0,"(0.0, 0.0, 0.0, 0.0, 0.0, 0.0)",0.0037807117530489313,-0.5267621713435654,0.5297264731699034,"(0.0, 0.0, 0.0, 0.0, 0.0, 0.0)",1.1701548963935655,0.8086890029471225,-0.015406706712529116,"(0.0, 0.0, 0.0, 0.0, 0.0, 0.0)",0.6485051697287205,True,"(-0.03232978748485561, 0.1824929396775583, 0.0560001508557837)","(0.9950039774173933, 0.09983517613952808, 0.00015009582447393736)",0.0006682935687891021,0.0,True,"(0.03163570740484303, 0.1812179974591963, 0.023999849144216306)","(-0.9950039774173934, -0.09983517613952919, -0.0001500958244731571)",-2.845912036222007e-05,7.331919708594868
86,Move,"(-0.02126582278481013, 0.0, -0.02126582278481013)","(0.0, -0.0, 0.0)","(0.0013124180387571668, 0.1636653348046651, 0.04867634502002402)","(-0.0004231789017967765, 0.00012167612531026776, 0.10472748713603132)","[-0.008686408559964998, 0.0036375922827356633, 0.0011257860058063868]","[-0.026750000193715096, 0.05299999937415123, 0.03999999910593033]","[0.0, -0.0, 0.5375063279099735]","[-0.06361368298530579, 0.11484714597463608, 0.03999999910593033]","[0.0, 0.0, -0.27060874755718406]","[0.026750000193715096, 0.05299999937415123, 0.03999999910593033]","[0.0, 0.0, -0.526762181565789]","[0.06294707208871841, 0.11523963510990143, 0.03999999910593033]","[0.0, -0.0, 0.28192681804954867]",0.5404332892339618,0.7024699634783866,"(0.0, 0.0, 0.0, 0.0, 0.0, 0.0)",0.05185447769232167,-0.8081150439463003,0.0,"(0.0, 0.0, 0.0, 0.0, 0.0, 0.0)",0.0037138373672865065,-0.5243678186556858,0.5746446450910919,"(0.0, 0.0, 0.0, 0.0, 0.0, 0.0)",0.920346895468089,0.8086404351089896,-0.011656281151888846,"(0.0, 0.0, 0.0, 0.0, 0.0, 0.0)",0.48968311065737613,True,"(-0.03268958221167288, 0.1824769354667567, 0.0560001508557837)","(0.9950039774173933, 0.09983517613952808, 0.00015009582447393736)",0.0007342731998243219,0.0,True,"(0.03135692997810918, 0.18123049688551057, 0.023999849144216306)","(-0.9950039774173934, -0.09983517613952919, -0.0001500958244731571)",-1.9572589798560592e-05,6.466138944512238
87,Move,"(-0.02227848101265822, 0.0, -0.02227848101265822)","(0.0, -0.0, 0.0)","(0.0010289088966266631, 0.16362473179097606, 0.048701373488983235)","(-0.00039058143646348155, 0.0001132650985232434, 0.10739071156520308)","[-0.0089699177020955, 0.003596989269046613, 0.0011508144747656018]","[-0.026750000193715096, 0.05299999937415123, 0.03999999910593033]","[0.0, -0.0, 0.5404333223394945]","[-0.06379454582929611, 0.11473897844552994, 0.03999999910593033]","[0.0, 0.0, -0.2676817469891848]","[0.026750000193715096, 0.05299999937415123, 0.03999999910593033]","[0.0, 0.0, -0.5243678459395671]","[0.06279794126749039, 0.11532612144947052, 0.03999999910593033]","[0.0, -0.0, 0.2842726655836746]",0.54349952080595,0.7358955772771596,"(0.0, 0.0, 0.0, 0.0, 0.0, 0.0)",0.048720716374949916,-0.8081150439463003,0.0,"(0.0, 0.0, 0.0, 0.0, 0.0, 0.0)",0.0034904365820394964,-0.521796915888443,0.6170166641382814,"(0.0, 0.0, 0.0, 0.0, 0.0, 0.0)",0.8763207671361422,0.808593218134148,-0.011332073962005017,"(0.0, 0.0, 0.0, 0.0, 0.0, 0.0)",0.46802222156265777,True,"(-0.03306852980366035, 0.18245899596332482, 0.0560001508557837)","(0.9950039774173933, 0.09983517613952808, 0.00015009582447393736)",0.000792791476390745,0.0,True,"(0.031053089419185678, 0.1812427017790355, 0.023999849144216306)","(-0.9950039774173934, -0.09983517613952919, -0.0001500958244731571)",-1.855996260586023e-05,6.140351414210522
88,Move,"(-0.02329113924050633, 0.0, -0.02329113924050633)","(0.0, -0.0, 0.0)","(0.0007268878671851027, 0.16357790605176462, 0.04872440168497114)","(-0.0003605839773002609, 0.0001054927435204151, 0.11027858239032125)","[-0.009271938731537062, 0.003550163529835171, 0.0011738426707535096]","[-0.026750000193715096, 0.05299999937415123, 0.03999999910593033]","[0.0, -0.0, 0.5434994668511455]","[-0.06398367881774902, 0.11462510377168655, 0.03999999910593033]","[0.0, 0.0, -0.26461551184663784]","[0.026750000193715096, 0.05299999937415123, 0.03999999910593033]","[0.0, 0.0, -0.5217969146870408]","[0.06263758987188339, 0.11541859805583954, 0.03999999910593033]","[0.0, -0.0, 0.2867963397819412]",0.5466991488433414,0.7679107289739333,"(0.0, 0.0, 0.0, 0.0, 0.0, 0.0)",0.04668351891094478,-0.8081150439463003,0.0,"(0.0, 0.0, 0.0, 0.0, 0.0, 0.0)",0.0033454336446743452,-0.5190504071325523,0.6591621014137564,"(0.0, 0.0, 0.0, 0.0, 0.0, 0.0)",0.8739596715879007,0.8085460586178755,-0.011318283905395849,"(0.0, 0.0, 0.0, 0.0, 0.0, 0.0)",0.46816724576964913,True,"(-0.033465450739675655, 0.18243901334634346, 0.0560001508557837)","(0.9950039774173933, 0.09983517613952808, 0.00015009582447393736)",0.0008452060465766163,0.0,True,"(0.030726484597902226, 0.1812548475980689, 0.023999849144216306)","(-0.9950039774173934, -0.09983517613952919, -0.0001500958244731571)",-1.74532930763349e-05,6.093418242838336
89,Move,"(-0.024303797468354434, 0.0, -0.024303797468354434)","(0.0, -0.0, 0.0)","(0.00040117571084025225, 0.16353436317782913, 0.04874559757809086)","(-0.000566415772247852, -0.00013446090515090658, 0.11342869664075639)","[-0.009597650887881913, 0.0035066206558996837, 0.0011950385638732283]","[-0.026750000193715096, 0.05299999937415123, 0.03999999910593033]","[0.0, -0.0, 0.5466992427548687]","[-0.06418066471815109, 0.11450565606355667, 0.03999999910593033]","[0.0, 0.0, -0.26141589637516727]","[0.026750000193715096, 0.05299999937415123, 0.03999999910593033]","[0.0, 0.0, -0.5190504280259871]","[0.06246602162718773, 0.11551692336797714, 0.03999999910593033]","[0.0, -0.0, 0.2894956664194047]",0.5500264545475511,0.7985533690103264,"(0.0, 0.0, 0.0, 0.0, 0.0, 0.0)",0.04470107876773515,-0.8081150439463003,0.0,"(0.0, 0.0, 0.0, 0.0, 0.0, 0.0)",0.0032043468984971095,-0.5161288155239965,0.7011819860534141,"(0.0, 0.0, 0.0, 0.0, 0.0, 0.0)",0.8764006319141101,0.808497470803343,-0.011661075487815873,"(0.0, 0.0, 0.0, 0.0, 0.0, 0.0)",0.4710813378261935,True,"(-0.03387957235416248, 0.18241686386541228, 0.0560001508557837)","(0.9950039774173933, 0.09983517613952808, 0.00015009582447393736)",0.000891250927912577,0.0,True,"(0.030377317677490655, 0.1812667986621614, 0.023999849144216306)","(-0.9950039774173934, -0.09983517613952919, -0.0001500958244731571)",-1.6220209897955598e-05,6.50846761339531
90,Move,"(-0.02531645569620253, 0.0, -0.02531645569620253)","(0.0, -0.0, 0.0)","(5.761216398508632e-05, 0.1634870351217921, 0.04876502068865921)","(-0.0005217897448899897, -0.0001221975994659216, 0.11648280333259778)","[-0.009941214434737078, 0.0034592925998626622, 0.001214461674441579]","[-0.026750000193715096, 0.05299999937415123, 0.03999999910593033]","[0.0, -0.0, 0.550026437609694]","[-0.06438510119915009, 0.11438076943159103, 0.03999999910593033]","[0.0, 0.0, -0.25808859065006823]","[0.026750000193715096, 0.05299999937415123, 0.03999999910593033]","[0.0, 0.0, -0.5161288571376526]","[0.062283217906951904, 0.11562100797891617, 0.03999999910593033]","[0.0, -0.0, 0.2923686250449338]",0.5534755772118427,0.8277894394300089,"(0.0, 0.0, 0.0, 0.0, 0.0, 0.0)",0.04266885507775632,-0.8081150439463003,0.0,"(0.0, 0.0, 0.0, 0.0, 0.0, 0.0)",0.0030596985293057806,-0.5130329643432415,0.7430042833812,"(0.0, 0.0, 0.0, 0.0, 0.0, 0.0)",0.8508040003517935,0.8084497502843173,-0.011452924566158453,"(0.0, 0.0, 0.0, 0.0, 0.0, 0.0)",0.4644248174750797,True,"(-0.03430992795353612, 0.18239056563149192, 0.05600013522086397)","(0.9935738507724297, 0.11318562179672327, 0.00013446090474626956)",0.0009158183853934641,0.0,True,"(0.03000584459879227, 0.18127758040100062, 0.023999864779136026)","(-0.9935738507724294, -0.11318562179672613, -0.00013446090474867684)",-1.7625487540781328e-05,6.101183463958852
91,Move,"(-0.026329113924050632, 0.0, -0.026329113924050632)","(0.0, -0.0, 0.0)","(-0.0003215680012470082, 0.1634158007787887, 0.048723826105850535)","(0.0014658549860411547, -0.00011429617367216213, 0.11854677701979079)","[-0.010320394599969173, 0.0033880582568592554, 0.0011732670916329013]","[-0.026750000193715096, 0.05299999937415123, 0.03999999910593033]","[0.0, -0.0, 0.5534755810676566]","[-0.06459659337997437, 0.11425060033798218, 0.03999999910593033]","[0.0, 0.0, -0.25463947177823]","[0.026750000193715096, 0.05299999937415123, 0.03999999910593033]","[0.0, 0.0, -0.5130329615908479]","[0.06208918243646622, 0.11573071032762527, 0.03999999910593033]","[0.0, -0.0, 0.29541681700119077]",0.5570412270314146,0.8557559566972435,"(0.0, 0.0, 0.0, 0.0, 0.0, 0.0)",0.040835185020818114,-0.8081150439463003,0.0,"(0.0, 0.0, 0.0, 0.0, 0.0, 0.0)",0.002929240987237045,-0.5097636681807484,0.7846310789983553,"(0.0, 0.0, 0.0, 0.0, 0.0, 0.0)",0.6777738440773893,0.8084260349327957,-0.005691684365178544,"(0.0, 0.0, 0.0, 0.0, 0.0, 0.0)",0.3652820031033221,True,"(-0.03475612004540075, 0.1823633285911964, 0.056000122957558386)","(0.99322353809788, 0.11621956993585693, 0.0001221975991585267)",0.0009461393624299048,0.0,True,"(0.029611830444175757, 0.18128858924580915, 0.02399987704244162)","(-0.9932235380978799, -0.11621956993585832, -0.0001221975991629175)",-1.7192126489561867e-05,4.72440235818573
92,Move,"(-0.02734177215189873, 0.0, -0.02734177215189873)","(0.0, -0.0, 0.0)","(-0.000702544360277601, 0.16335579677707965, 0.04874504605489349)","(0.0015549888167599054, 9.999485635477385e-05, 0.12200441662443254)","[-0.010701370958999765, 0.0033280542551502035, 0.0011944870406758595]","[-0.026750000193715096, 0.05299999937415123, 0.03999999910593033]","[0.0, -0.0, 0.5570412372135575]","[-0.0648147463798523, 0.11411526054143906, 0.03999999910593033]","[0.0, 0.0, -0.2510738274970073]","[0.026750000193715096, 0.05299999937415123, 0.03999999910593033]","[0.0, 0.0, -0.5097636952536673]","[0.06188391149044037, 0.11584591120481491, 0.03999999910593033]","[0.0, -0.0, 0.2986623520525588]",0.5607179881153859,0.8824226601531153,"(0.0, 0.0, 0.0, 0.0, 0.0, 0.0)",0.038957253232964575,-0.8081150439463003,0.0,"(0.0, 0.0, 0.0, 0.0, 0.0, 0.0)",0.002795612228669598,-0.5063268870186439,0.8248274789050545,"(0.0, 0.0, 0.0, 0.0, 0.0, 0.0)",0.9164295116731832,0.8083730206154957,-0.012723436152013278,"(0.0, 0.0, 0.0, 0.0, 0.0, 0.0)",0.5088144162893351,True,"(-0.03521715378029793, 0.1823324682758565, 0.05600011505613265)","(0.9929815495025484, 0.11826930829214605, 0.00011429617342470784)",0.0009755799097823653,0.0,True,"(0.029193814273785562, 0.18129920831106178, 0.02399988494386736)","(-0.992981549502549, -0.1182693082921417, -0.00011429617341886399)",-1.6537683340676566e-05,5.324463101035381
