OSUrobotics/InHand-Manipulation/AnalyseData/Data/Trial Data/Better/new_hand_human_sub1_2v2_b_n_1_kpNone_kdNone_dp5_step5_save_data.csv
,Phase,human_cube_pos,human_cube_orn,Cube_Pos,Cube_Orn,Cube_pos_in_start_pos,b'l_prox_pin'_link_pos,b'l_prox_pin'_link_orn,b'l_distal_pin'_link_pos,b'l_distal_pin'_link_orn,b'r_prox_pin'_link_pos,b'r_prox_pin'_link_orn,b'r_distal_pin'_link_pos,b'r_distal_pin'_link_orn,b'l_prox_pin'_joint_angle,b'l_prox_pin'_joint_vel,b'l_prox_pin'_joint_react_forces,b'l_prox_pin'_joint_motor_torque,b'l_distal_pin'_joint_angle,b'l_distal_pin'_joint_vel,b'l_distal_pin'_joint_react_forces,b'l_distal_pin'_joint_motor_torque,b'r_prox_pin'_joint_angle,b'r_prox_pin'_joint_vel,b'r_prox_pin'_joint_react_forces,b'r_prox_pin'_joint_motor_torque,b'r_distal_pin'_joint_angle,b'r_distal_pin'_joint_vel,b'r_distal_pin'_joint_react_forces,b'r_distal_pin'_joint_motor_torque,in_contact_l,contact_point_l_dist,contact_normal_l_dist,contact_distance_l_dist,contact_norm_force_l_dist,in_contact_r,contact_point_r_dist,contact_normal_r_dist,contact_distance_r_dist,contact_norm_force_r_dist
0,Open,,,,,,"[-0.026750000193715096, 0.05299999937415123, 0.03999999910593033]","[0.0, -0.0, 0.4254700097131474]","[-0.056467924267053604, 0.11858082562685013, 0.03999999910593033]","[0.0, -0.0, 0.4254700097131474]","[0.026750000193715096, 0.05299999937415123, 0.03999999910593033]","[0.0, 0.0, -0.4429245237535421]","[0.057608019560575485, 0.1180521547794342, 0.03999999910593033]","[0.0, 0.0, -0.5266622746639338]",0.5399229999999999,27.46872,"(0.0, 0.0, 0.0, 0.0, 0.0, 0.0)",-4.377393708535371,5.294901130302062e-32,0.0,"(0.0, 0.0, 0.0, 0.0, 0.0, 0.0)",-0.30017707799641646,-0.5623038734984663,-28.651050680519948,"(0.0, 0.0, 0.0, 0.0, 0.0, 0.0)",144.45470973647488,-0.10456727132876567,-4.999096204557077,"(0.0, 0.0, 0.0, 0.0, 0.0, 0.0)",33.97911746732963,False,,,,,False,,,,
1,Open,,,,,,"[-0.026750000193715096, 0.05299999937415123, 0.03999999910593033]","[0.0, -0.0, 0.894166469119967]","[-0.08288749307394028, 0.09808415919542313, 0.03999999910593033]","[0.0, -0.0, 0.894166894674561]","[0.026750000193715096, 0.05299999937415123, 0.03999999910593033]","[0.0, 0.0, -0.9122733503889549]","[0.08369457721710205, 0.09706035256385803, 0.03999999910593033]","[0.0, 0.0, -0.9997066729229968]",0.96174983227,16.220004472800003,"(0.0, 0.0, 0.0, 0.0, 0.0, 0.0)",-2.5959652512206968,5.681494863714967e-07,3.553320838026869e-05,"(0.0, 0.0, 0.0, 0.0, 0.0, 0.0)",-0.18114955764248034,-0.9780460127037736,-15.785439661232708,"(0.0, 0.0, 0.0, 0.0, 0.0, 0.0)",2.503992476159733,-0.0786900142246732,2.098357403184359,"(0.0, 0.0, 0.0, 0.0, 0.0, 0.0)",0.15360133560797545,False,,,,,False,,,,
2,Open,,,,,,"[-0.026750000193715096, 0.05299999937415123, 0.03999999910593033]","[0.0, -0.0, 1.170927100750299]","[-0.09307006001472473, 0.08102945238351822, 0.03999999910593033]","[0.0, -0.0, 1.1709279927689973]","[0.026750000193715096, 0.05299999937415123, 0.03999999910593033]","[0.0, 0.0, -1.181618964677462]","[0.09336595237255096, 0.08031877130270004, 0.03999999910593033]","[0.0, 0.0, -1.233247876832181]",1.2108343584571122,9.577750441143678,"(0.0, 0.0, 0.0, 0.0, 0.0, 0.0)",-1.5367816122769582,9.012180617793662e-07,6.275974057005224e-06,"(0.0, 0.0, 0.0, 0.0, 0.0, 0.0)",-0.1083256720668905,-1.2204570900414513,-9.3211442655613,"(0.0, 0.0, 0.0, 0.0, 0.0, 0.0)",1.4819475463743526,-0.046466145575958295,1.239071567699341,"(0.0, 0.0, 0.0, 0.0, 0.0, 0.0)",0.09166748660725833,False,,,,,False,,,,
3,Open,,,,,,"[-0.026750000193715096, 0.05299999937415123, 0.03999999910593033]","[0.0, -0.0, 1.334351465706577]","[-0.09674673527479172, 0.06986585259437561, 0.03999999910593033]","[0.0, -0.0, 1.33435435145599]","[0.026750000193715096, 0.05299999937415123, 0.03999999910593033]","[0.0, 0.0, -1.3406650641721125]","[0.09685182571411133, 0.06942359358072281, 0.03999999910593033]","[0.0, 0.0, -1.3711530696282732]",1.3579162851496,5.655565729344001,"(0.0, 0.0, 0.0, 0.0, 0.0, 0.0)",-0.9088150211252332,3.4316066113876724e-06,0.0001607445165674468,"(0.0, 0.0, 0.0, 0.0, 0.0, 0.0)",-0.06444344013525093,-1.3635984108023202,-5.504042378604797,"(0.0, 0.0, 0.0, 0.0, 0.0, 0.0)",0.8762522980402716,-0.02744024570882781,0.7315266716392431,"(0.0, 0.0, 0.0, 0.0, 0.0, 0.0)",0.05446985052483407,False,,,,,False,,,,
4,Open,,,,,,"[-0.026750000193715096, 0.05299999937415123, 0.03999999910593033]","[0.0, -0.0, 1.4308518944899675]","[-0.09804610908031464, 0.06304314732551575, 0.03999999910593033]","[0.0, -0.0, 1.4308566269594332]","[0.026750000193715096, 0.05299999937415123, 0.03999999910593033]","[0.0, 0.0, -1.4345798203875788]","[0.09808305650949478, 0.06277728080749512, 0.03999999910593033]","[0.0, 0.0, -1.4525855975984745]",1.4447666872179874,3.339555007520341,"(0.0, 0.0, 0.0, 0.0, 0.0, 0.0)",-0.5371183361845069,4.8269553674989e-06,2.0878160072459843e-05,"(0.0, 0.0, 0.0, 0.0, 0.0, 0.0)",-0.03821759960562203,-1.448121925594662,-3.2500819841423465,"(0.0, 0.0, 0.0, 0.0, 0.0, 0.0)",0.5178266556878065,-0.016205556838873442,0.4320218239148067,"(0.0, 0.0, 0.0, 0.0, 0.0, 0.0)",0.0322808466635012,False,,,,,False,,,,
5,Open,,,,,,"[-0.026750000193715096, 0.05299999937415123, 0.03999999910593033]","[0.0, -0.0, 1.487834617901085]","[-0.09850236773490906, 0.05896640568971634, 0.03999999910593033]","[0.0, -0.0, 1.4878390921106803]","[0.026750000193715096, 0.05299999937415123, 0.03999999910593033]","[0.0, 0.0, -1.4900358577435544]","[0.09851532429456711, 0.05880843847990036, 0.03999999910593033]","[0.0, 0.0, -1.5006695807985118]",1.4960509811353493,1.9719738363906854,"(0.0, 0.0, 0.0, 0.0, 0.0, 0.0)",-0.3173274216127963,4.509251873886308e-06,-3.168767150011037e-05,"(0.0, 0.0, 0.0, 0.0, 0.0, 0.0)",-0.022624215793833224,-1.498032215844392,-1.9191409108162163,"(0.0, 0.0, 0.0, 0.0, 0.0, 0.0)",0.30591369390909257,-0.00957062017308593,0.2551417656412126,"(0.0, 0.0, 0.0, 0.0, 0.0, 0.0)",0.019102112305110365,False,,,,,False,,,,
6,Open,,,,,,"[-0.026750000193715096, 0.05299999937415123, 0.03999999910593033]","[0.0, -0.0, 1.5214821319654974]","[-0.09866246581077576, 0.05654918774962425, 0.03999999910593033]","[0.0, -0.0, 1.5214858439169519]","[0.026750000193715096, 0.05299999937415123, 0.03999999910593033]","[0.0, 0.0, -1.5227821585534602]","[0.09866702556610107, 0.05645570904016495, 0.03999999910593033]","[0.0, 0.0, -1.529061933448946]",1.5263338438506127,1.164430830650334,"(0.0, 0.0, 0.0, 0.0, 0.0, 0.0)",-0.18743587261192823,3.6440993970645793e-06,-4.480530101024996e-05,"(0.0, 0.0, 0.0, 0.0, 0.0, 0.0)",-0.013379159967550349,-1.527503743133955,-1.1332335164278682,"(0.0, 0.0, 0.0, 0.0, 0.0, 0.0)",0.18068846528573543,-0.005652184024362593,0.1506807000213291,"(0.0, 0.0, 0.0, 0.0, 0.0, 0.0)",0.011293655891939093,False,,,,,False,,,,
7,Close,,,"(0.010000824637423049, 0.16001319418745247, 0.017848014970055004)","(-0.00026934863811186216, 1.6834304115272585e-05, -2.2671484573282825e-09)",,"[-0.026750000193715096, 0.05299999937415123, 0.03999999910593033]","[0.0, -0.0, 1.2784808254221978]","[-0.09569569677114487, 0.07374827563762665, 0.03999999910593033]","[0.0, -0.0, 1.034582661993943]","[0.026750000193715096, 0.05299999937415123, 0.03999999910593033]","[0.0, 0.0, -1.2792482299640686]","[0.0957116037607193, 0.0736953467130661, 0.03999999910593033]","[0.0, 0.0, -1.0390562259147462]",1.210632571455348,-16.283535238809286,"(0.0, 0.0, 0.0, 0.0, 0.0, 0.0)",2.771136716181199,-0.3095085607892871,-15.746535439217235,"(0.0, 0.0, 0.0, 0.0, 0.0, 0.0)",0.3469037989659341,-1.211323385283169,16.3019569408845,"(0.0, 0.0, 0.0, 0.0, 0.0, 0.0)",-2.7749564531312414,0.30617317599991634,15.835479338328643,"(0.0, 0.0, 0.0, 0.0, 0.0, 0.0)",-0.3479929302165593,False,,,,,False,,,,
8,Close,,,"(0.010001648057231211, 0.16002636889308344, 0.03133184175509247)","(-0.0005384699893107284, 3.3654401557527444e-05, -9.06094284338731e-09)",,"[-0.026750000193715096, 0.05299999937415123, 0.03999999910593033]","[0.0, -0.0, 1.0006360422079206]","[-0.08736064285039902, 0.0918632224202156, 0.03999999910593033]","[0.0, -0.0, 0.4880565025715103]","[0.026750000193715096, 0.05299999937415123, 0.03999999910593033]","[0.0, 0.0, -1.001089448203126]","[0.08737824857234955, 0.09183574467897415, 0.03999999910593033]","[0.0, 0.0, -0.49069812233338583]",0.9605724271186684,-9.615264723164493,"(0.0, 0.0, 0.0, 0.0, 0.0, 0.0)",1.6441783201079794,-0.5513218025251249,-9.298144061583436,"(0.0, 0.0, 0.0, 0.0, 0.0, 0.0)",0.21014173445603831,-0.9609803457758583,9.626142554022893,"(0.0, 0.0, 0.0, 0.0, 0.0, 0.0)",-1.6464751946207798,0.5493522946545342,9.350664461360347,"(0.0, 0.0, 0.0, 0.0, 0.0, 0.0)",-0.2108204377510729,False,,,,,False,,,,
9,Close,,,"(0.010002470404691093, 0.16003952644115657, 0.04045997120998789)","(-0.0008073642479911328, 5.0460303253361964e-05, -2.0369923505779015e-08)",,"[-0.026750000193715096, 0.05299999937415123, 0.03999999910593033]","[0.0, -0.0, 0.8365715799965936]","[-0.0801992267370224, 0.1012408509850502, 0.03999999910593033]","[0.0, -0.0, 0.16533874626364803]","[0.026750000193715096, 0.05299999937415123, 0.03999999910593033]","[0.0, 0.0, -0.8368392086626993]","[0.08021213859319687, 0.10122654587030411, 0.03999999910593033]","[0.0, 0.0, -0.1668985823484083]",0.8129144124893025,-5.677717666381402,"(0.0, 0.0, 0.0, 0.0, 0.0, 0.0)",0.9736078226475493,-0.6941096683608667,-5.490444078796776,"(0.0, 0.0, 0.0, 0.0, 0.0, 0.0)",0.12593397924105265,-0.8131552843771866,5.684140916724979,"(0.0, 0.0, 0.0, 0.0, 0.0, 0.0)",-0.9749785244213759,0.6929466958025952,5.521456795952681,"(0.0, 0.0, 0.0, 0.0, 0.0, 0.0)",-0.12634715317523504,False,,,,,False,,,,
10,Close,,,"(0.010003291824242136, 0.16005266914270105, 0.04523936165140331)","(-0.0010760316083767074, 6.725202012489063e-05, -3.618265319583079e-08)",,"[-0.026750000193715096, 0.05299999937415123, 0.03999999910593033]","[0.0, -0.0, 0.7396932119518481]","[-0.07528240978717804, 0.10618463158607483, 0.03999999910593033]","[0.0, 0.0, -0.025223688738047617]","[0.026750000193715096, 0.05299999937415123, 0.03999999910593033]","[0.0, 0.0, -0.7398511766938903]","[0.07529081404209137, 0.10617695748806, 0.03999999910593033]","[0.0, -0.0, 0.02430263317545323]",0.7257238314308083,-3.352635504821555,"(0.0, 0.0, 0.0, 0.0, 0.0, 0.0)",0.5758654822812497,-0.7784262532781683,-3.242260203768412,"(0.0, 0.0, 0.0, 0.0, 0.0, 0.0)",0.0750123771406224,-0.725866063871885,3.3564283699169333,"(0.0, 0.0, 0.0, 0.0, 0.0, 0.0)",-0.5766799137830688,0.7777395376647703,3.260573592131318,"(0.0, 0.0, 0.0, 0.0, 0.0, 0.0)",-0.0752606958188736,False,,,,,False,,,,
11,Close,,,"(0.009997966950406065, 0.16004795201914346, 0.046616050094935475)","(-0.0009640430328522325, -5.7324486097668704e-05, 4.2980615420070005e-09)",,"[-0.026750000193715096, 0.05299999937415123, 0.03999999910593033]","[0.0, -0.0, 0.682487397988505]","[-0.0721622109413147, 0.10887245088815689, 0.03999999910593033]","[0.0, 0.0, -0.13775029188859572]","[0.026750000193715096, 0.05299999937415123, 0.03999999910593033]","[0.0, 0.0, -0.6825807377410441]","[0.07216742634773254, 0.10886821150779724, 0.03999999910593033]","[0.0, -0.0, 0.1372064129763775]",0.6742386185346878,-1.979696494258342,"(0.0, 0.0, 0.0, 0.0, 0.0, 0.0)",0.34037467823530393,-0.8282145265472606,-1.9144534778819295,"(0.0, 0.0, 0.0, 0.0, 0.0, 0.0)",0.04449932044982575,-0.674322605213594,1.981936139029174,"(0.0, 0.0, 0.0, 0.0, 0.0, 0.0)",-0.3408573424145132,0.8278090365055835,1.9252671252731466,"(0.0, 0.0, 0.0, 0.0, 0.0, 0.0)",-0.04464739446319682,False,,,,,False,,,,
12,Close,,,"(0.009998679410322496, 0.16003066597344334, 0.0474253884764576)","(-0.0006112814540129935, -4.2805404436077314e-05, 1.9447426774393396e-07)",,"[-0.026750000193715096, 0.05299999937415123, 0.03999999910593033]","[0.0, -0.0, 0.6487079580530938]","[-0.07024932652711868, 0.11037428677082062, 0.03999999910593033]","[0.0, 0.0, -0.20419532625251113]","[0.026750000193715096, 0.05299999937415123, 0.03999999910593033]","[0.0, 0.0, -0.6487631098841893]","[0.07025248557329178, 0.11037188768386841, 0.03999999910593033]","[0.0, -0.0, 0.20387417727936794]",0.6438371618585478,-1.1689909828946077,"(0.0, 0.0, 0.0, 0.0, 0.0, 0.0)",0.20110328062585062,-0.8576133287829941,-1.1304144347684295,"(0.0, 0.0, 0.0, 0.0, 0.0, 0.0)",0.026365137971139978,-0.6438867551525752,1.1703134707353389,"(0.0, 0.0, 0.0, 0.0, 0.0, 0.0)",-0.20138889834359572,0.857373897412956,1.136799615752827,"(0.0, 0.0, 0.0, 0.0, 0.0, 0.0)",-0.026453134766811503,False,,,,,False,,,,
13,Close,,,"(0.008562352819313064, 0.15963169911231415, 0.04795936059784778)","(0.002880050037504477, -0.0018080766405500393, 0.027156574699580344)",,"[-0.026750000193715096, 0.05299999937415123, 0.03999999910593033]","[0.0, -0.0, 0.6287615983534538]","[-0.06909634172916412, 0.11123047024011612, 0.03999999910593033]","[0.0, 0.0, -0.24342883421715172]","[0.026750000193715096, 0.05299999937415123, 0.03999999910593033]","[0.0, 0.0, -0.6288059721302652]","[0.06909892708063126, 0.1112285852432251, 0.03999999910593033]","[0.0, -0.0, 0.24295585513718987]",0.6258854057058539,-0.6902774854894381,"(0.0, 0.0, 0.0, 0.0, 0.0, 0.0)",0.11878846609148704,-0.8749713231347032,-0.6674313830745814,"(0.0, 0.0, 0.0, 0.0, 0.0, 0.0)",0.015594191474811038,-0.6259255556368085,0.6912982329409242,"(0.0, 0.0, 0.0, 0.0, 0.0, 0.0)",0.23889456753769728,0.8745816224765113,0.6767593625972839,"(0.0, 0.0, 0.0, 0.0, 0.0, 0.0)",0.18939691443679915,False,,,,,True,"(0.040048198705117485, 0.17954190147604243, 0.02399995236517949)","(-0.9999968496142797, -0.00250969405768167, -4.6874861287478436e-05)",-8.481535683957195e-06,2.863336982423626
14,Move,,,"(0.003226703519616097, 0.15887842572556865, 0.048057042824217085)","(0.00733137607255103, 0.004060605831319912, 0.12411081910370701)","[0.0, 0.0, 0.0]","[-0.026750000193715096, 0.05299999937415123, 0.03999999910593033]","[0.0, -0.0, 0.5601465041237582]","[-0.06500434130430222, 0.11399676650762558, 0.03999999910593033]","[0.0, 0.0, -0.31665092698218517]","[0.026750000193715096, 0.05299999937415123, 0.03999999910593033]","[0.0, 0.0, -0.5704848668453074]","[0.0656328946352005, 0.11359802633523941, 0.03999999910593033]","[0.0, -0.0, 0.3056114929739557]",0.5446837312064112,-3.7110582962534506,"(0.0, 0.0, 0.0, 0.0, 0.0, 0.0)",-53.09089974488294,-0.8536776571297426,5.5487419201507295,"(0.0, 0.0, 0.0, 0.0, 0.0, 0.0)",-27.521806933097807,-0.5577558572400253,3.0549589579805563,"(0.0, 0.0, 0.0, 0.0, 0.0, 0.0)",39.845640952717,0.8551826533669656,-5.0192908628628805,"(0.0, 0.0, 0.0, 0.0, 0.0, 0.0)",19.520428399002,True,"(-0.031006456029053206, 0.18019920383377602, 0.023994329638221932)","(0.9922239401206523, 0.12433627092149606, -0.005669601818851313)",-0.0005148038489068186,428.5206410406488,True,"(0.03236246380961459, 0.17994971919477992, 0.023997959838382148)","(-0.9993845697424365, -0.035018889211399305, -0.00203940165862912)",0.0005577664042068458,310.72647358115125
15,Move,"(0.0005, 0.0, 0.0007)","(0.0, 0.025778513051956248, 0.0)","(0.0035266296938303984, 0.16140292424439984, 0.04816954149637753)","(-0.011954839303562568, 0.00233338691099729, 0.1171551092405758)","[0.00029992617421430124, 0.0025244985188311864, 0.0001124986721604479]","[-0.026750000193715096, 0.05299999937415123, 0.03999999910593033]","[0.0, -0.0, 0.5307039854357387]","[-0.06319212168455124, 0.11509647220373154, 0.03999999910593033]","[0.0, 0.0, -0.30574387852569096]","[0.026750000193715096, 0.05299999937415123, 0.03999999910593033]","[0.0, 0.0, -0.5532258835860488]","[0.06458129733800888, 0.11426004767417908, 0.03999999910593033]","[0.0, -0.0, 0.286157515520424]",0.5306529396555448,-0.012233641236916521,"(0.0, 0.0, 0.0, 0.0, 0.0, 0.0)",-1.5034508117805871,-0.8376658324468219,-0.29233085803707826,"(0.0, 0.0, 0.0, 0.0, 0.0, 0.0)",-0.7765666008476919,-0.5550326436126782,-0.4336200292561311,"(0.0, 0.0, 0.0, 0.0, 0.0, 0.0)",0.8303794923026117,0.8405036523643812,0.26886474026787505,"(0.0, 0.0, 0.0, 0.0, 0.0, 0.0)",0.4601373808988447,True,"(-0.029915977374490588, 0.18164746100787116, 0.023997472310946365)","(0.993148824576899, 0.11682904977305919, -0.002526929094416628)",-0.0007869472702198828,10.998854751299918,True,"(0.032713453395950665, 0.1801060153179367, 0.05600252768905363)","(-0.9931488245768987, -0.11682904977306174, 0.0025269290944133107)",-0.00014766750871985428,5.7188292649167325
16,Move,"(0.0073, 0.0, 0.0034)","(0.0, 0.14231763786612162, 0.0)","(0.004600060325516843, 0.16163351199558032, 0.04849097394003372)","(-0.009648026983247739, 0.0016095491480243604, 0.10863596104441221)","[0.001373356805900746, 0.0027550862700116696, 0.0004339311158166326]","[-0.026750000193715096, 0.05299999937415123, 0.03999999910593033]","[0.0, -0.0, 0.5233095559343172]","[-0.06273195892572403, 0.11536423861980438, 0.03999999910593033]","[0.0, 0.0, -0.3133893318819587]","[0.026750000193715096, 0.05299999937415123, 0.03999999910593033]","[0.0, 0.0, -0.5628707066550319]","[0.06517037004232407, 0.1138923242688179, 0.03999999910593033]","[0.0, -0.0, 0.27696199074879957]",0.5213460285862725,-0.4712370566297862,"(0.0, 0.0, 0.0, 0.0, 0.0, 0.0)",-1.5925109290863921,-0.8361564498898991,0.13017021094297523,"(0.0, 0.0, 0.0, 0.0, 0.0, 0.0)",-0.8479215151964776,-0.5645415272073865,-0.400997925249552,"(0.0, 0.0, 0.0, 0.0, 0.0, 0.0)",1.0235165194408224,0.8394008365465258,-0.10364684224576082,"(0.0, 0.0, 0.0, 0.0, 0.0, 0.0)",0.5017290609963027,True,"(-0.02894813230001103, 0.18166021795405735, 0.023998266836590402)","(0.9938662358624171, 0.11057533174698263, -0.0017324034503836791)",-0.0005505385768514405,12.897801496616603,True,"(0.03390966595161486, 0.18002566505915407, 0.056001733163409596)","(-0.9938662358624177, -0.11057533174697763, 0.0017324034503781774)",-8.740241599481631e-05,6.625009187185093
17,Move,"(0.0112, 0.0, 0.010199999999999999)","(0.0, 0.007517133088339578, 0.0)","(0.00599994614574921, 0.1614399512769814, 0.04823831765857483)","(0.0061764613186627735, -0.00028611499757187826, 0.09255372954983852)","[0.0027732426261331132, 0.0025615255514127577, 0.00018127483435774472]","[-0.026750000193715096, 0.05299999937415123, 0.03999999910593033]","[0.0, -0.0, 0.5108132756371168]","[-0.06194985285401344, 0.11580900102853775, 0.03999999910593033]","[0.0, 0.0, -0.32441035650370326]","[0.026750000193715096, 0.05299999937415123, 0.03999999910593033]","[0.0, 0.0, -0.5750517866538476]","[0.06590922921895981, 0.11341981589794159, 0.03999999910593033]","[0.0, -0.0, 0.26372939918582505]",0.5084550383360754,-0.5659761734118867,"(0.0, 0.0, 0.0, 0.0, 0.0, 0.0)",-0.3940763534748653,-0.8351777890582888,0.010999158439835975,"(0.0, 0.0, 0.0, 0.0, 0.0, 0.0)",-0.24627178873607694,-0.5774751480616761,-0.5816128347625866,"(0.0, 0.0, 0.0, 0.0, 0.0, 0.0)",0.3241156758791595,0.8386916555977945,-0.02148288154055685,"(0.0, 0.0, 0.0, 0.0, 0.0, 0.0)",0.13092298429533775,True,"(-0.027437273502722133, 0.18172695499999122, 0.023999332214607462)","(0.9943156661863726, 0.10647023552815811, -0.0006670254333234763)",-0.0003295926317644872,2.914697740634986,True,"(0.03552635775016291, 0.17996099479915809, 0.05600066778539253)","(-0.9943156661863728, -0.1064702355281559, 0.0006670254333136261)",-6.975338232581194e-06,0.6669001272353916
18,Move,"(0.0177, 0.0, 0.0181)","(0.0, 0.022591541837814602, 0.0)","(0.0077128740594668566, 0.1613500664629985, 0.04829634184450209)","(-0.001097438746600594, 0.0017188349937895444, 0.06496866272759788)","[0.004486170539850759, 0.0024716407374298366, 0.00023929902028500816]","[-0.026750000193715096, 0.05299999937415123, 0.03999999910593033]","[0.0, -0.0, 0.4944902604647665]","[-0.060919977724552155, 0.11637517064809799, 0.03999999910593033]","[0.0, 0.0, -0.3403261843393008]","[0.026750000193715096, 0.05299999937415123, 0.03999999910593033]","[0.0, 0.0, -0.5913891347569387]","[0.06689106673002243, 0.11277202516794205, 0.03999999910593033]","[0.0, -0.0, 0.2470943420668992]",0.4912961614021276,-0.7665847528197586,"(0.0, 0.0, 0.0, 0.0, 0.0, 0.0)",0.12351363653479774,-0.8348525498510752,-0.008673045525695144,"(0.0, 0.0, 0.0, 0.0, 0.0, 0.0)",0.008913997316128857,-0.5945406583503545,-0.7563497843573089,"(0.0, 0.0, 0.0, 0.0, 0.0, 0.0)",0.144845355776832,0.8385056346551074,0.005304517588402316,"(0.0, 0.0, 0.0, 0.0, 0.0, 0.0)",0.020898222528535456,True,"(-0.02536177811679228, 0.1817237361606154, 0.02399812048254351)","(0.997522583973411, 0.07032186525736805, -0.0018787574972734418)",-0.0002297863682339439,0.0,True,"(0.03761846526342284, 0.17981993564630833, 0.056001879517456485)","(-0.9975225839734112, -0.0703218652573671, 0.0018787574972651496)",-1.4004813019723622e-05,0.18115324898511637
19,Move,"(0.0214, 0.0, 0.0265)","(0.0, 0.038950512916757454, 0.0)","(0.00968321992727924, 0.16131530690803214, 0.04842914553361734)","(0.0006928588314903343, -0.000845389459532515, 0.040590559154843914)","[0.006456516407663142, 0.0024368811824634906, 0.000372102709400253]","[-0.026750000193715096, 0.05299999937415123, 0.03999999910593033]","[0.0, -0.0, 0.4754086891770859]","[-0.059704530984163284, 0.11701561510562897, 0.03999999910593033]","[0.0, 0.0, -0.35940854558370794]","[0.026750000193715096, 0.05299999937415123, 0.03999999910593033]","[0.0, 0.0, -0.6099746073358618]","[0.06799495220184326, 0.11201570928096771, 0.03999999910593033]","[0.0, -0.0, 0.22854462650277627]",0.47191446892645894,-0.8386008079734595,"(0.0, 0.0, 0.0, 0.0, 0.0, 0.0)",-0.4652361021175165,-0.8346831124421408,0.03218125487142869,"(0.0, 0.0, 0.0, 0.0, 0.0, 0.0)",-0.3185654785724479,-0.6133697016567558,-0.8148353560523323,"(0.0, 0.0, 0.0, 0.0, 0.0, 0.0)",0.24569948665349073,0.8384242094903798,-0.022796661947914867,"(0.0, 0.0, 0.0, 0.0, 0.0, 0.0)",0.06659131165509109,True,"(-0.022905577024064053, 0.18166774162336422, 0.023999930119579762)","(0.998792844003083, 0.049120769442209514, -6.912046102352596e-05)",-0.00012834185935420915,4.109231321583816,True,"(0.03997072033882115, 0.1796015004142226, 0.056000069880420236)","(-0.998792844003083, -0.04912076944221282, 6.912046101899646e-05)",1.0736994392878536e-05,0.0
20,Move,"(0.0252, 0.0, 0.0308)","(0.0, 0.017139133254584316, 0.0)","(0.011897184031432436, 0.16104838200704819, 0.04857544987657476)","(-0.00039283619870726785, 4.528128532789874e-05, 0.015692103269034228)","[0.008670480511816339, 0.002169956281479535, 0.0005184070523576723]","[-0.026750000193715096, 0.05299999937415123, 0.03999999910593033]","[0.0, -0.0, 0.4543966940860201]","[-0.0583522655069828, 0.11769387125968933, 0.03999999910593033]","[0.0, 0.0, -0.37953485400315945]","[0.026750000193715096, 0.05299999937415123, 0.03999999910593033]","[0.0, 0.0, -0.6301000948774954]","[0.06917424499988556, 0.11117373406887054, 0.03999999910593033]","[0.0, -0.0, 0.2077452438775884]",0.450534233586696,-0.9269974624616549,"(0.0, 0.0, 0.0, 0.0, 0.0, 0.0)",-0.6026627212087375,-0.8337155104001311,0.0518481942779418,"(0.0, 0.0, 0.0, 0.0, 0.0, 0.0)",-0.39351392516087214,-0.6337786303777523,-0.8828389370899944,"(0.0, 0.0, 0.0, 0.0, 0.0, 0.0)",0.4890049001588738,0.8377136923122108,-0.03159980450097213,"(0.0, 0.0, 0.0, 0.0, 0.0, 0.0)",0.17967434566653886,True,"(-0.020259521707228265, 0.18158676806566684, 0.023999919210591955)","(0.9998087291260922, 0.019557575477439113, -8.00294488260958e-05)",-9.454347341237509e-05,5.803624511710816,True,"(0.042561607680308144, 0.17933276755141406, 0.05600008078940805)","(-0.9998087291260923, -0.019557575477435408, 8.002944883113284e-05)",-1.698692353475346e-05,2.6750101881975823
21,Move,"(0.030600000000000002, 0.0, 0.0348)","(0.0, 0.004012511950334963, 0.0)","(0.014529802290781026, 0.1606635604126214, 0.04861234305108511)","(-0.00014147567271008055, -2.65299711165772e-06, -0.0040575597526083555)","[0.011303098771164928, 0.0017851346870527418, 0.000555300226868026]","[-0.026750000193715096, 0.05299999937415123, 0.03999999910593033]","[0.0, -0.0, 0.4303302517351343]","[-0.05678630992770195, 0.11843561381101608, 0.03999999910593033]","[0.0, 0.0, -0.40145223790383006]","[0.026750000193715096, 0.05299999937415123, 0.03999999910593033]","[0.0, 0.0, -0.6523402658449161]","[0.07045744359493256, 0.11021590232849121, 0.03999999910593033]","[0.0, -0.0, 0.1839720156531615]",0.4258433631415802,-1.0768585697334232,"(0.0, 0.0, 0.0, 0.0, 0.0, 0.0)",-2.032462148881611,-0.8312099376102277,0.1374177054754223,"(0.0, 0.0, 0.0, 0.0, 0.0, 0.0)",-1.1153478566044237,-0.656447674157054,-0.9857762184911983,"(0.0, 0.0, 0.0, 0.0, 0.0, 0.0)",1.7114990659643938,0.8359564023703978,-0.085410686012413,"(0.0, 0.0, 0.0, 0.0, 0.0, 0.0)",0.7735117391636697,True,"(-0.01730246267080606, 0.18147834144522035, 0.023999919210591955)","(0.9998087291260922, 0.019557575477439113, -8.00294488260958e-05)",-4.518810543565134e-05,17.115147887713068,True,"(0.04547252808926219, 0.17898828651335302, 0.05600008078940805)","(-0.9998087291260923, -0.019557575477435408, 8.002944883113284e-05)",-9.06757592252511e-07,11.802765976598941
22,Move,"(0.0303, 0.0, 0.0386)","(0.0, 0.022591541837814602, 0.0)","(0.017128650223900612, 0.1603890370293073, 0.04865823410802433)","(0.0009361474561641827, -0.0005408128730835887, -0.010956860466857656)","[0.013901946704284514, 0.0015106113037386404, 0.0006011912838072425]","[-0.026750000193715096, 0.05299999937415123, 0.03999999910593033]","[0.0, -0.0, 0.4068699302245216]","[-0.05524304509162903, 0.1191222071647644, 0.03999999910593033]","[0.0, 0.0, -0.42160290576429205]","[0.026750000193715096, 0.05299999937415123, 0.03999999910593033]","[0.0, 0.0, -0.6732779768969022]","[0.07164575159549713, 0.109288290143013, 0.03999999910593033]","[0.0, -0.0, 0.16050777814044656]",0.4028522268018778,-0.9642575864813306,"(0.0, 0.0, 0.0, 0.0, 0.0, 0.0)",-1.9671526545646036,-0.8278568781180222,0.14782648987411956,"(0.0, 0.0, 0.0, 0.0, 0.0, 0.0)",-1.089420177142957,-0.6768180699192659,-0.8496023715342113,"(0.0, 0.0, 0.0, 0.0, 0.0, 0.0)",1.6351438066927624,0.8331878086479803,-0.14353314040531215,"(0.0, 0.0, 0.0, 0.0, 0.0, 0.0)",0.8006899752865607,True,"(-0.014496774722051742, 0.18136662052724836, 0.023999519089162175)","(0.9999627828918423, -0.008614074897292427, -0.0004801508786085214)",-6.038750698803833e-05,14.327972951208041,True,"(0.04828095822024141, 0.17861349773311702, 0.05600048091083783)","(-0.9999627828918422, 0.008614074897290866, 0.00048015087861031974)",-1.0196306697922562e-05,9.912642670793366
23,Move,"(0.0342, 0.0, 0.0389)","(0.0, 0.02957285884579192, 0.0)","(0.01980226560184714, 0.16016068990871266, 0.048648081513662775)","(0.0010375912887515151, -0.00047709950612413087, -0.01839753205874406)","[0.016575562082231043, 0.0012822641831440051, 0.0005910386894456901]","[-0.026750000193715096, 0.05299999937415123, 0.03999999910593033]","[0.0, -0.0, 0.3830760433617561]","[-0.05366182327270508, 0.11978138983249664, 0.03999999910593033]","[0.0, 0.0, -0.44130270442809516]","[0.026750000193715096, 0.05299999937415123, 0.03999999910593033]","[0.0, 0.0, -0.6936560082389026]","[0.07278338819742203, 0.10836178809404373, 0.03999999910593033]","[0.0, -0.0, 0.13675160713208298]",0.3787357078557489,-1.0416789363643313,"(0.0, 0.0, 0.0, 0.0, 0.0, 0.0)",-2.5477369341417595,-0.8236490226271276,0.17513248413155894,"(0.0, 0.0, 0.0, 0.0, 0.0, 0.0)",-1.3359423641212316,-0.6973297097147712,-0.8816913950431025,"(0.0, 0.0, 0.0, 0.0, 0.0, 0.0)",2.2508828842531283,0.8297332208300543,-0.16185104783082627,"(0.0, 0.0, 0.0, 0.0, 0.0, 0.0)",1.1941142285132973,True,"(-0.011697330670628489, 0.18121108027049265, 0.023999519089162175)","(0.9999627828918423, -0.008614074897292427, -0.0004801508786085214)",-4.644981019758516e-05,20.16497109754761,True,"(0.05107193782775187, 0.17822243687333386, 0.05600048091083783)","(-0.9999627828918422, 0.008614074897290866, 0.00048015087861031974)",4.14082305599479e-06,14.370077542795984
24,Move,"(0.0388, 0.0, 0.037899999999999996)","(0.0, 0.0429961861228803, 0.0)","(0.02264764193396966, 0.159868856207553, 0.048719680065207105)","(-0.0006319907779090163, 0.00013008184920483912, -0.02633167015222284)","[0.019420938414353564, 0.0009904304819843557, 0.0006626372409900202]","[-0.026750000193715096, 0.05299999937415123, 0.03999999910593033]","[0.0, -0.0, 0.35728611909932545]","[-0.05193077772855759, 0.12045315653085709, 0.03999999910593033]","[0.0, 0.0, -0.4620043898935454]","[0.026750000193715096, 0.05299999937415123, 0.03999999910593033]","[0.0, 0.0, -0.7148812045638675]","[0.07394798845052719, 0.10737232118844986, 0.03999999910593033]","[0.0, -0.0, 0.1112360414687023]",0.35257041304913594,-1.1317629151651574,"(0.0, 0.0, 0.0, 0.0, 0.0, 0.0)",-3.2877379368012183,-0.8183168608429573,0.23367271373256004,"(0.0, 0.0, 0.0, 0.0, 0.0, 0.0)",-1.703114902738877,-0.7187086113304191,-0.9185977132595339,"(0.0, 0.0, 0.0, 0.0, 0.0, 0.0)",2.860329288374266,0.825364481840532,-0.18064581826447687,"(0.0, 0.0, 0.0, 0.0, 0.0, 0.0)",1.4807974836947861,True,"(-0.008703667517155386, 0.18100101312731576, 0.023999519089162175)","(0.9999627828918423, -0.008614074897292427, -0.0004801508786085214)",-7.026209015641322e-05,26.812662603725812,True,"(0.05402594855381937, 0.17776415547989538, 0.05600048091083783)","(-0.9999627828918422, 0.008614074897290866, 0.00048015087861031974)",3.404704805995776e-06,20.687570624638433
25,Move,"(0.041299999999999996, 0.0, 0.038200000000000005)","(0.0, 0.055869734685590484, 0.0)","(0.02552597643182426, 0.15946027261363488, 0.04873868998731187)","(-4.78134602510734e-05, -0.0013393508553154086, -0.03137727770559299)","[0.02229927291220816, 0.0005818468880662286, 0.0006816471630947882]","[-0.026750000193715096, 0.05299999937415123, 0.03999999910593033]","[0.0, -0.0, 0.33087914749032726]","[-0.050140973180532455, 0.12109450995922089, 0.03999999910593033]","[0.0, 0.0, -0.4825003128927221]","[0.026750000193715096, 0.05299999937415123, 0.03999999910593033]","[0.0, 0.0, -0.7357656906600728]","[0.07507316023111343, 0.1063748300075531, 0.03999999910593033]","[0.0, -0.0, 0.08474869740788576]",0.32617901531101196,-1.1280300844760682,"(0.0, 0.0, 0.0, 0.0, 0.0, 0.0)",-3.267859081715262,-0.8123101613681744,0.2566269785833432,"(0.0, 0.0, 0.0, 0.0, 0.0, 0.0)",-1.6832033835915718,-0.7394306674997738,-0.8795940721993667,"(0.0, 0.0, 0.0, 0.0, 0.0, 0.0)",3.659993714490191,0.8194062313211449,-0.2659562905579317,"(0.0, 0.0, 0.0, 0.0, 0.0, 0.0)",1.926967399918885,True,"(-0.005680116564036802, 0.18077806983002181, 0.023999917355942774)","(0.9996708079427338, -0.025656754317652002, -8.188409800711087e-05)",-8.335112740958739e-05,23.51548011556303,True,"(0.05701936043942055, 0.17722401163314816, 0.05600008264405723)","(-0.999670807942734, 0.02565675431764811, 8.188409801260757e-05)",2.530349590894739e-05,19.769141316420605
26,Move,"(0.0449, 0.0, 0.039200000000000006)","(0.0, 0.0774769108252803, 0.0)","(0.0284277405389396, 0.15905026949593745, 0.048748889380888345)","(0.0012559864241477052, -0.00029451778280552103, -0.03586471806322725)","[0.025201037019323504, 0.00017184377036880139, 0.0006918465566712606]","[-0.026750000193715096, 0.05299999937415123, 0.03999999910593033]","[0.0, -0.0, 0.3038265615182905]","[-0.04829050600528717, 0.12170230597257614, 0.03999999910593033]","[0.0, 0.0, -0.5024739464227259]","[0.026750000193715096, 0.05299999937415123, 0.03999999910593033]","[0.0, 0.0, -0.7561544167487234]","[0.0761512815952301, 0.10537856072187424, 0.03999999910593033]","[0.0, -0.0, 0.0580860361651772]",0.2989492323361472,-1.1705576795441393,"(0.0, 0.0, 0.0, 0.0, 0.0, 0.0)",-4.49405384859066,-0.8049628452668268,0.3210344910011502,"(0.0, 0.0, 0.0, 0.0, 0.0, 0.0)",-2.259733505871804,-0.7597667297820972,-0.8669687892402447,"(0.0, 0.0, 0.0, 0.0, 0.0, 0.0)",3.770165495237092,0.8131394050534464,-0.26423707554202003,"(0.0, 0.0, 0.0, 0.0, 0.0, 0.0)",2.0159531126700325,True,"(-0.002646500189443117, 0.1804859725588732, 0.023999917355942774)","(0.9996708079427338, -0.025656754317652002, -8.188409800711087e-05)",-0.00013527580364770323,36.16148496483805,True,"(0.05999270360884186, 0.17668386500304667, 0.05600008264405723)","(-0.999670807942734, 0.02565675431764811, 8.188409801260757e-05)",1.5906930689680105e-05,25.941729224634294
27,Move,"(0.0465, 0.0, 0.037)","(0.0, 0.09493892999148355, 0.0)","(0.03119396206313141, 0.15870079214541474, 0.04873179954909886)","(0.0006913558721078564, -0.0009117565288272932, -0.041613177090524145)","[0.02796725854351531, -0.0001776335801539075, 0.0006747567248817782]","[-0.026750000193715096, 0.05299999937415123, 0.03999999910593033]","[0.0, -0.0, 0.27712648683240954]","[-0.046448688954114914, 0.12225288152694702, 0.03999999910593033]","[0.0, 0.0, -0.5211937526895558]","[0.026750000193715096, 0.05299999937415123, 0.03999999910593033]","[0.0, 0.0, -0.7753491436868531]","[0.07714752107858658, 0.10442071408033371, 0.03999999910593033]","[0.0, -0.0, 0.03152914047517812]",0.2724382531688812,-1.1251811943628611,"(0.0, 0.0, 0.0, 0.0, 0.0, 0.0)",-4.852168371429004,-0.7970003991375698,0.31676758188473497,"(0.0, 0.0, 0.0, 0.0, 0.0, 0.0)",-2.385606238819221,-0.7786619645249675,-0.7950569543057703,"(0.0, 0.0, 0.0, 0.0, 0.0, 0.0)",4.247487267686535,0.8054578272413553,-0.34092890537686693,"(0.0, 0.0, 0.0, 0.0, 0.0, 0.0)",2.3642723319969754,True,"(0.0002876725303281938, 0.1801718521998365, 0.023999917355942774)","(0.9996708079427338, -0.025656754317652002, -8.188409800711087e-05)",-0.0001524168861692664,36.57062598366708,True,"(0.06288806361044186, 0.17612995122863262, 0.05600008264405723)","(-0.999670807942734, 0.02565675431764811, 8.188409801260757e-05)",2.6413249661931302e-05,26.380708281372165
28,Move,"(0.048600000000000004, 0.0, 0.036000000000000004)","(0.0, 0.10813710979506469, 0.0)","(0.03384629729829221, 0.1583140988826878, 0.048782622930407624)","(-0.0010447589839065454, -0.00045015966616813893, -0.04762876393796045)","[0.03061959377867611, -0.0005643268428808523, 0.000725580106190539]","[-0.026750000193715096, 0.05299999937415123, 0.03999999910593033]","[0.0, -0.0, 0.2509698219450808]","[-0.044630732387304306, 0.12274438887834549, 0.03999999910593033]","[0.0, 0.0, -0.5387662388865828]","[0.026750000193715096, 0.05299999937415123, 0.03999999910593033]","[0.0, 0.0, -0.7932538416878071]","[0.07806005328893661, 0.10351017862558365, 0.03999999910593033]","[0.0, -0.0, 0.005542203890023935]",0.2463313893585663,-1.113220986171368,"(0.0, 0.0, 0.0, 0.0, 0.0, 0.0)",-5.502074039023892,-0.7881329936028912,0.3847346267077394,"(0.0, 0.0, 0.0, 0.0, 0.0, 0.0)",-2.702065513462752,-0.7963718543660191,-0.7483417664393296,"(0.0, 0.0, 0.0, 0.0, 0.0, 0.0)",4.449260219495957,0.7974413921365177,-0.32509803197183335,"(0.0, 0.0, 0.0, 0.0, 0.0, 0.0)",2.4342915174791537,True,"(0.0031161432967539357, 0.17983318285592548, 0.023999917355942774)","(0.9996708079427338, -0.025656754317652002, -8.188409800711087e-05)",-0.00018402665448669225,43.3700437256759,True,"(0.06566870865732324, 0.1755657192130311, 0.05600008264405723)","(-0.999670807942734, 0.02565675431764811, 8.188409801260757e-05)",2.599591689764487e-05,29.86865146383708
29,Move,"(0.0506, 0.0, 0.0351)","(0.0, 0.12098273308974293, 0.0)","(0.036456714371897785, 0.15788689671453748, 0.04877742618852637)","(-0.0007313835837555534, -0.0005959990168808469, -0.052116977630572436)","[0.03323001085228169, -0.000991529011031167, 0.0007203833643092822]","[-0.026750000193715096, 0.05299999937415123, 0.03999999910593033]","[0.0, -0.0, 0.22511342720318772]","[-0.04282161965966225, 0.12318335473537445, 0.03999999910593033]","[0.0, 0.0, -0.5553335406423651]","[0.026750000193715096, 0.05299999937415123, 0.03999999910593033]","[0.0, 0.0, -0.8100841013083832]","[0.07890284806489944, 0.10263950377702713, 0.03999999910593033]","[0.0, 0.0, -0.020267192189186625]",0.2205376872656726,-1.0981778739442292,"(0.0, 0.0, 0.0, 0.0, 0.0, 0.0)",-6.0431784238055055,-0.778644399409095,0.4326123857868995,"(0.0, 0.0, 0.0, 0.0, 0.0, 0.0)",-2.9381189680574553,-0.8130114383346894,-0.7025650905539927,"(0.0, 0.0, 0.0, 0.0, 0.0, 0.0)",4.894612681260593,0.7882988724871235,-0.36432473618881533,"(0.0, 0.0, 0.0, 0.0, 0.0, 0.0)",2.7320731917556107,True,"(0.005864466815224741, 0.1794733156685998, 0.023999917355942774)","(0.9996708079427338, -0.025656754317652002, -8.188409800711087e-05)",-0.000202817160686279,47.14876786515907,True,"(0.06837513445241035, 0.17499082173980865, 0.05600008264405723)","(-0.999670807942734, 0.02565675431764811, 8.188409801260757e-05)",2.739089886389207e-05,32.01889133061886
30,Move,"(0.0511, 0.0, 0.0354)","(0.0, 0.13771171397010862, 0.0)","(0.03886079830372704, 0.15745188525182893, 0.04878695976960961)","(0.0007535753285499416, -0.0003005997845994541, -0.05551049172301419)","[0.03563409478411094, -0.001426540473739718, 0.0007299169453925253]","[-0.026750000193715096, 0.05299999937415123, 0.03999999910593033]","[0.0, -0.0, 0.2006028044541574]","[-0.041096724569797516, 0.12355615943670273, 0.03999999910593033]","[0.0, 0.0, -0.5699230235358544]","[0.026750000193715096, 0.05299999937415123, 0.03999999910593033]","[0.0, 0.0, -0.8251182332198506]","[0.07964321225881577, 0.10184984654188156, 0.03999999910593033]","[0.0, 0.0, -0.04457211219584851]",0.19635115775648312,-1.0203959419290258,"(0.0, 0.0, 0.0, 0.0, 0.0, 0.0)",-6.300601313064997,-0.7687232024736332,0.4326423605237747,"(0.0, 0.0, 0.0, 0.0, 0.0, 0.0)",-3.0340726053671183,-0.8276621349311611,-0.6105417100806884,"(0.0, 0.0, 0.0, 0.0, 0.0, 0.0)",4.9780541038388035,0.7789722195242905,-0.3777312696752981,"(0.0, 0.0, 0.0, 0.0, 0.0, 0.0)",2.7758941112862607,True,"(0.008405394153037302, 0.17912984707596785, 0.023999917355942774)","(0.9996708079427338, -0.025656754317652002, -8.188409800711087e-05)",-0.0002342488660386434,48.59267442532498,True,"(0.07087692837475473, 0.17443565004147246, 0.05600008264405723)","(-0.999670807942734, 0.02565675431764811, 8.188409801260757e-05)",2.7324063530141903e-05,33.976359034500405
31,Move,"(0.051000000000000004, 0.0, 0.0348)","(0.0, 0.13771171397010862, 0.0)","(0.040831404603131144, 0.1570872896288509, 0.04881845692355066)","(3.0000583548578255e-05, -0.0008102517610701064, -0.06690015096138606)","[0.037604701083515046, -0.0017911360967177437, 0.000761414099333578]","[-0.026750000193715096, 0.05299999937415123, 0.03999999910593033]","[0.0, -0.0, 0.17816987312093643]","[-0.039510466158390045, 0.12386021763086319, 0.03999999910593033]","[0.0, 0.0, -0.581806573570444]","[0.026750000193715096, 0.05299999937415123, 0.03999999910593033]","[0.0, 0.0, -0.8380758491845922]","[0.08027173578739166, 0.10116039961576462, 0.03999999910593033]","[0.0, 0.0, -0.06685495907952253]",0.17430835261784317,-0.9267637201367067,"(0.0, 0.0, 0.0, 0.0, 0.0, 0.0)",-6.835338262770772,-0.757650747952061,0.558147650075088,"(0.0, 0.0, 0.0, 0.0, 0.0, 0.0)",-3.5238001740017233,-0.8402871303277487,-0.5307155986403838,"(0.0, 0.0, 0.0, 0.0, 0.0, 0.0)",5.5704983059873125,0.7695898081057063,-0.3914534163573286,"(0.0, 0.0, 0.0, 0.0, 0.0, 0.0)",2.5541013984313374,True,"(0.010648548115849012, 0.1788417421270992, 0.023999917355942774)","(0.9996708079427338, -0.025656754317652002, -8.188409800711087e-05)",-0.0002211369240290809,46.50319139156079,True,"(0.07312490755375532, 0.17392350101534085, 0.05600008264405723)","(-0.999670807942734, 0.02565675431764811, 8.188409801260757e-05)",4.736477333838669e-05,24.926944165462896
32,Move,"(0.0513, 0.0, 0.0348)","(0.0, 0.1337009473490256, 0.0)","(0.04243906184597185, 0.15650687545511333, 0.04887682527645913)","(-0.00027182232895314534, -0.0009165699859110031, -0.08794502523076378)","[0.03921235832635575, -0.002371550270455325, 0.0008197824522420474]","[-0.026750000193715096, 0.05299999937415123, 0.03999999910593033]","[0.0, -0.0, 0.15722052904746886]","[-0.03802330046892166, 0.12411197274923325, 0.03999999910593033]","[0.0, 0.0, -0.590910160598148]","[0.026750000193715096, 0.05299999937415123, 0.03999999910593033]","[0.0, 0.0, -0.8494866952145751]","[0.08081778883934021, 0.10054654628038406, 0.03999999910593033]","[0.0, 0.0, -0.08718406371519559]",0.1535568275852091,-0.8792839638449923,"(0.0, 0.0, 0.0, 0.0, 0.0, 0.0)",-6.292822294620093,-0.7461226723567852,0.4819139539471709,"(0.0, 0.0, 0.0, 0.0, 0.0, 0.0)",-3.1756242401482058,-0.8514290772612804,-0.46618163201083473,"(0.0, 0.0, 0.0, 0.0, 0.0, 0.0)",5.163337796805127,0.760714361202484,-0.381174375345141,"(0.0, 0.0, 0.0, 0.0, 0.0, 0.0)",2.472747197366776,True,"(0.012634162269471907, 0.17863459562495682, 0.023999917355942774)","(0.9996708079427338, -0.025656754317652002, -8.188409800711087e-05)",-9.389287311847222e-05,45.430336796092355,True,"(0.07515154605400355, 0.17343989468418125, 0.05600008264405723)","(-0.999670807942734, 0.02565675431764811, 8.188409801260757e-05)",9.092491877508486e-05,19.974453211901487
33,Move,"(0.047799999999999995, 0.0, 0.0354)","(0.0, 0.14764089208470438, 0.0)","(0.0437121719128914, 0.15598781127729328, 0.0488387302050343)","(0.0011371244932172626, 0.00021697167521996267, -0.10994110671097597)","[0.040485468393275305, -0.002890614448275375, 0.0007816873808172142]","[-0.026750000193715096, 0.05299999937415123, 0.03999999910593033]","[0.0, -0.0, 0.1394152370832896]","[-0.03675541281700134, 0.12430141121149063, 0.03999999910593033]","[0.0, 0.0, -0.6007081425515924]","[0.026750000193715096, 0.05299999937415123, 0.03999999910593033]","[0.0, 0.0, -0.8575153068344611]","[0.08119776844978333, 0.10011093318462372, 0.03999999910593033]","[0.0, 0.0, -0.10155908319328402]",0.13657603110840946,-0.6814137608731,"(0.0, 0.0, 0.0, 0.0, 0.0, 0.0)",-6.0179390519972635,-0.7376858828912102,0.5850063927628004,"(0.0, 0.0, 0.0, 0.0, 0.0, 0.0)",-3.154305781850282,-0.8587561087421735,-0.29781999719723234,"(0.0, 0.0, 0.0, 0.0, 0.0, 0.0)",5.37746848352067,0.7544218089156478,-0.36823268385842056,"(0.0, 0.0, 0.0, 0.0, 0.0, 0.0)",2.36797589334026,True,"(0.014440473392602779, 0.1783752311533153, 0.023999029923886972)","(0.9943261462675679, -0.10636999236100966, -0.0009693161538105525)",-0.00014216898985020497,41.96573162346207,True,"(0.07144448873635227, 0.12276697370165068, 0.023999456074957074)","(-0.9949133796810249, 0.10073267545028487, -0.0005431650836964124)",-0.00013445541063004314,16.850814094647504
34,Move,"(0.050100000000000006, 0.0, 0.0343)","(0.0, 0.16809615091807786, 0.0)","(0.04479605373079712, 0.15566808903247062, 0.04893851226675961)","(-0.0006172933443332229, -0.003905929714007784, -0.12802905178277765)","[0.04156935021118102, -0.0032103366930980315, 0.0008814694425425262]","[-0.026750000193715096, 0.05299999937415123, 0.03999999910593033]","[0.0, -0.0, 0.12200381416326249]","[-0.03551249951124191, 0.12446480989456177, 0.03999999910593033]","[0.0, 0.0, -0.6040577879462088]","[0.026750000193715096, 0.05299999937415123, 0.03999999910593033]","[0.0, 0.0, -0.864798882611897]","[0.08153945952653885, 0.09971310943365097, 0.03999999910593033]","[0.0, 0.0, -0.11971472606405113]",0.11878097554522565,-0.7734816360551445,"(0.0, 0.0, 0.0, 0.0, 0.0, 0.0)",-8.722070469323524,-0.7232992177765448,0.6629510341594808,"(0.0, 0.0, 0.0, 0.0, 0.0, 0.0)",-4.436096770337011,-0.8660990435199989,-0.31205052464275285,"(0.0, 0.0, 0.0, 0.0, 0.0, 0.0)",6.444623528857391,0.7433692048611076,-0.4115807358826892,"(0.0, 0.0, 0.0, 0.0, 0.0, 0.0)",2.922416188482498,True,"(0.015863893080058734, 0.17836388818511173, 0.023999782268367274)","(0.9939625380419219, -0.10971976072045521, -0.00021697167351206675)",6.661939106490001e-06,58.465460166424556,True,"(0.07219910001635926, 0.12254248287207198, 0.023999456074957074)","(-0.9949133796810249, 0.10073267545028487, -0.0005431650836964124)",5.2556066175512576e-05,17.50256425535034
35,Move,"(0.0517, 0.0, 0.034100000000000005)","(0.0, 0.15163595074251932, 0.0)","(0.04611981972326062, 0.15533676436050484, 0.048982697410065126)","(-0.0009604788627529016, -0.004030599485515713, -0.1398449984252263)","[0.04289311620364452, -0.003541661365063814, 0.0009256545858480417]","[-0.026750000193715096, 0.05299999937415123, 0.03999999910593033]","[0.0, -0.0, 0.10318375947139471]","[-0.03416605666279793, 0.12461705505847931, 0.03999999910593033]","[0.0, 0.0, -0.6084129351904097]","[0.026750000193715096, 0.05299999937415123, 0.03999999910593033]","[0.0, 0.0, -0.8721779575818538]","[0.08188267052173615, 0.09930754452943802, 0.03999999910593033]","[0.0, 0.0, -0.13791988098250335]",0.09976978010769907,-0.8193575437969948,"(0.0, 0.0, 0.0, 0.0, 0.0, 0.0)",-8.691081397352626,-0.7086570306703626,0.7055354640831704,"(0.0, 0.0, 0.0, 0.0, 0.0, 0.0)",-4.4358347181739886,-0.8735549825648076,-0.3304978559811347,"(0.0, 0.0, 0.0, 0.0, 0.0, 0.0)",7.848083483448679,0.7322636249353849,-0.4786586150555256,"(0.0, 0.0, 0.0, 0.0, 0.0, 0.0)",3.479629772069021,True,"(0.01744459471788483, 0.1782918634747062, 0.023999782268367274)","(0.9939625380419219, -0.10971976072045521, -0.00021697167351206675)",-2.477750216083674e-06,62.86876602345736,True,"(0.07989523718223798, 0.17227237258861092, 0.023995436785988956)","(-0.9905747279064363, 0.13689737925217862, -0.004562454051822013)",-0.00017978128394953726,40.434782229503185
36,Move,"(0.0529, 0.0, 0.033)","(0.0, 0.16895659823931114, 0.0)","(0.04740121540503566, 0.15497884752967236, 0.04887861323294004)","(0.0008648830671110556, -0.0012244976053609484, -0.1557005827089782)","[0.044174511885419564, -0.003899578195896286, 0.000821570408722952]","[-0.026750000193715096, 0.05299999937415123, 0.03999999910593033]","[0.0, -0.0, 0.08376435619731737]","[-0.03277398273348808, 0.12474755197763443, 0.03999999910593033]","[0.0, 0.0, -0.6116099282383338]","[0.026750000193715096, 0.05299999937415123, 0.03999999910593033]","[0.0, 0.0, -0.8794821519778588]","[0.0822194293141365, 0.09890361875295639, 0.03999999910593033]","[0.0, 0.0, -0.15705874466128886]",0.08027051955191931,-0.8385203812658902,"(0.0, 0.0, 0.0, 0.0, 0.0, 0.0)",-8.369677074203027,-0.6928041100204875,0.6168315414597548,"(0.0, 0.0, 0.0, 0.0, 0.0, 0.0)",-4.275451379688444,-0.8807178265442067,-0.29657812397714,"(0.0, 0.0, 0.0, 0.0, 0.0, 0.0)",6.966409174368599,0.7205286720141841,-0.4547216606436361,"(0.0, 0.0, 0.0, 0.0, 0.0, 0.0)",3.204114142491162,True,"(0.01900799560613846, 0.17825709858890965, 0.023999782268367274)","(0.9939625380419219, -0.10971976072045521, -0.00021697167351206675)",-1.5516072877470265e-05,62.27838745312675,True,"(0.08162874474956035, 0.17189311406297722, 0.023995436785988956)","(-0.9905747279064363, 0.13689737925217862, -0.004562454051822013)",2.6381605960345453e-05,41.35799307412386
37,Move,"(0.0494, 0.0, 0.035)","(0.0, 0.1603032558079232, 0.0)","(0.04835906262294752, 0.15476477786983067, 0.04885156515171007)","(-8.627289189477666e-05, 0.0005150559494353654, -0.1704945139846437)","[0.045132359103331424, -0.0041136478557379785, 0.000794522327492983]","[-0.026750000193715096, 0.05299999937415123, 0.03999999910593033]","[0.0, -0.0, 0.06701410104971471]","[-0.0315714031457901, 0.12483838945627213, 0.03999999910593033]","[0.0, 0.0, -0.6141679687821413]","[0.026750000193715096, 0.05299999937415123, 0.03999999910593033]","[0.0, 0.0, -0.8842242550663847]","[0.08243649452924728, 0.09864005446434021, 0.03999999910593033]","[0.0, 0.0, -0.17200112580415933]",0.06430187005306953,-0.6509357162365342,"(0.0, 0.0, 0.0, 0.0, 0.0, 0.0)",-8.298765675726047,-0.6785412532225497,0.6337892782446201,"(0.0, 0.0, 0.0, 0.0, 0.0, 0.0)",-4.35637855437092,-0.8848632259715281,-0.1533323182603977,"(0.0, 0.0, 0.0, 0.0, 0.0, 0.0)",6.269096758808659,0.710511102763072,-0.4109108034645488,"(0.0, 0.0, 0.0, 0.0, 0.0, 0.0)",2.723485483223562,True,"(0.020340756576015764, 0.17817075073333594, 0.02399939324666344)","(0.9859169106291581, -0.1672347993316086, -0.0006059933773486074)",-6.385697383532462e-05,58.21925165441427,True,"(0.08293646848844008, 0.17163022633852515, 0.023995436785988956)","(-0.9905747279064363, 0.13689737925217862, -0.004562454051822013)",2.924550134993101e-05,33.74332575738259
38,Move,"(0.0526, 0.0, 0.0335)","(0.0, 0.17193762060171738, 0.0)","(0.04943730117747879, 0.15419399138904893, 0.04889265804738406)","(-0.0012104623659659143, -0.0007243530314560294, -0.19531330789315585)","[0.046210597657862694, -0.004684434336519716, 0.0008356152231669758]","[-0.026750000193715096, 0.05299999937415123, 0.03999999910593033]","[0.0, -0.0, 0.04928545768736094]","[-0.030297117307782173, 0.1249125748872757, 0.03999999910593033]","[0.0, 0.0, -0.6203272960545051]","[0.026750000193715096, 0.05299999937415123, 0.03999999910593033]","[0.0, 0.0, -0.8885858239279792]","[0.08263502269983292, 0.09839674830436707, 0.03999999910593033]","[0.0, 0.0, -0.18430244232750848]",0.046033742476284625,-0.780412301276991,"(0.0, 0.0, 0.0, 0.0, 0.0, 0.0)",-8.612033299138222,-0.6661409721036656,0.8332230587104337,"(0.0, 0.0, 0.0, 0.0, 0.0, 0.0)",-4.362023120026723,-0.8895188016319436,-0.22392887141909218,"(0.0, 0.0, 0.0, 0.0, 0.0, 0.0)",7.9131847223432725,0.7020875366675358,-0.5269893024419456,"(0.0, 0.0, 0.0, 0.0, 0.0, 0.0)",3.4841997026475884,True,"(0.02194048970448958, 0.17791285455383454, 0.0239999070466106)","(0.9836749311289676, -0.17995449805101343, -9.219343017975911e-05)",-3.989751288937359e-05,62.007249943903936,True,"(0.07450286978188049, 0.12025394105408728, 0.056000092953389397)","(-0.9836749311289664, 0.17995449805101923, 9.219343017727351e-05)",-0.00019199495831422574,17.620249466570478
39,Move,"(0.0526, 0.0, 0.0335)","(0.0, 0.17193762060171738, 0.0)","(0.05023339268927398, 0.1539229085790113, 0.04892969066599787)","(-0.0014883195167672396, -0.0013989848846993624, -0.2098075961730221)","[0.04700668916965788, -0.004955517146557342, 0.0008726478417807881]","[-0.026750000193715096, 0.05299999937415123, 0.03999999910593033]","[0.0, -0.0, 0.031196078723373214]","[-0.028995754197239876, 0.12496496737003326, 0.03999999910593033]","[0.0, 0.0, -0.6182197481754229]","[0.026750000193715096, 0.05299999937415123, 0.03999999910593033]","[0.0, 0.0, -0.892953129056725]","[0.08283274620771408, 0.09815224260091782, 0.03999999910593033]","[0.0, 0.0, -0.20114911607080638]",0.027987503988186325,-0.7700579696847556,"(0.0, 0.0, 0.0, 0.0, 0.0, 0.0)",-11.457880799552454,-0.6459365947275643,0.8349927777603136,"(0.0, 0.0, 0.0, 0.0, 0.0, 0.0)",-5.906326105756513,-0.8936569846383585,-0.16893170761504925,"(0.0, 0.0, 0.0, 0.0, 0.0, 0.0)",8.838399931446471,0.6894516936774306,-0.564550879559576,"(0.0, 0.0, 0.0, 0.0, 0.0, 0.0)",3.7473895886566178,True,"(0.023130032542715586, 0.17807523003338338, 0.0239999070466106)","(0.9836749311289676, -0.17995449805101343, -9.219343017975911e-05)",-6.360149034424424e-05,78.86046365893363,True,"(0.07506995671185822, 0.12014333175622616, 0.056000092953389397)","(-0.9836749311289664, 0.17995449805101923, 9.219343017727351e-05)",3.145033813547867e-05,29.874478517373063
40,Move,"(0.052700000000000004, 0.0, 0.0335)","(0.0, 0.16421802932014654, 0.0)","(0.05123006617440027, 0.15373204518989184, 0.04893409962909516)","(5.921839535911892e-05, -0.0023098500530761754, -0.21881562072945926)","[0.04800336265478417, -0.005146380535676814, 0.000877056804878075]","[-0.026750000193715096, 0.05299999937415123, 0.03999999910593033]","[0.0, -0.0, 0.013113062389620476]","[-0.027694113552570343, 0.12499380856752396, 0.03999999910593033]","[0.0, 0.0, -0.6179409537265987]","[0.026750000193715096, 0.05299999937415123, 0.03999999910593033]","[0.0, 0.0, -0.896462005369812]","[0.08299084007740021, 0.09795518219470978, 0.03999999910593033]","[0.0, 0.0, -0.2184850905183703]",0.00991216360959498,-0.7682152486593985,"(0.0, 0.0, 0.0, 0.0, 0.0, 0.0)",-11.263268762741355,-0.6269452137519551,0.9861118861874333,"(0.0, 0.0, 0.0, 0.0, 0.0, 0.0)",-5.763659263335127,-0.8971398864034301,-0.162694709706557,"(0.0, 0.0, 0.0, 0.0, 0.0, 0.0)",9.88514227612577,0.6755714194296983,-0.5773221609941194,"(0.0, 0.0, 0.0, 0.0, 0.0, 0.0)",4.191109700329491,True,"(0.024416868787876713, 0.17811859740317787, 0.0239999070466106)","(0.9836749311289676, -0.17995449805101343, -9.219343017975911e-05)",-7.665214023104124e-05,80.81461602189619,True,"(0.08688178689846136, 0.17084271237517135, 0.023997475854411407)","(-0.9764490091721766, 0.21573355096424024, -0.0025233856293638383)",-0.00022267245450912967,51.014643235343364
