OSUrobotics/InHand-Manipulation/AnalyseData/Data/Trial Data/Better/new_hand_human_sub1_2v2_c_n_1_kpNone_kdNone_dp5_step5_save_data.csv
,Phase,human_cube_pos,human_cube_orn,Cube_Pos,Cube_Orn,Cube_pos_in_start_pos,b'l_prox_pin'_link_pos,b'l_prox_pin'_link_orn,b'l_distal_pin'_link_pos,b'l_distal_pin'_link_orn,b'r_prox_pin'_link_pos,b'r_prox_pin'_link_orn,b'r_distal_pin'_link_pos,b'r_distal_pin'_link_orn,b'l_prox_pin'_joint_angle,b'l_prox_pin'_joint_vel,b'l_prox_pin'_joint_react_forces,b'l_prox_pin'_joint_motor_torque,b'l_distal_pin'_joint_angle,b'l_distal_pin'_joint_vel,b'l_distal_pin'_joint_react_forces,b'l_distal_pin'_joint_motor_torque,b'r_prox_pin'_joint_angle,b'r_prox_pin'_joint_vel,b'r_prox_pin'_joint_react_forces,b'r_prox_pin'_joint_motor_torque,b'r_distal_pin'_joint_angle,b'r_distal_pin'_joint_vel,b'r_distal_pin'_joint_react_forces,b'r_distal_pin'_joint_motor_torque,in_contact_l,contact_point_l_dist,contact_normal_l_dist,contact_distance_l_dist,contact_norm_force_l_dist,in_contact_r,contact_point_r_dist,contact_normal_r_dist,contact_distance_r_dist,contact_norm_force_r_dist
0,Open,,,,,,"[-0.026750000193715096, 0.05299999937415123, 0.03999999910593033]","[0.0, -0.0, 0.4254700097131474]","[-0.056467924267053604, 0.11858082562685013, 0.03999999910593033]","[0.0, -0.0, 0.4254700097131474]","[0.026750000193715096, 0.05299999937415123, 0.03999999910593033]","[0.0, 0.0, -0.4429245237535421]","[0.057608019560575485, 0.1180521547794342, 0.03999999910593033]","[0.0, 0.0, -0.5266622746639338]",0.5399229999999999,27.46872,"(0.0, 0.0, 0.0, 0.0, 0.0, 0.0)",-4.377393708535371,5.294901130302062e-32,0.0,"(0.0, 0.0, 0.0, 0.0, 0.0, 0.0)",-0.30017707799641646,-0.5623038734984663,-28.651050680519948,"(0.0, 0.0, 0.0, 0.0, 0.0, 0.0)",144.45470973647488,-0.10456727132876567,-4.999096204557077,"(0.0, 0.0, 0.0, 0.0, 0.0, 0.0)",33.97911746732963,False,,,,,False,,,,
1,Open,,,,,,"[-0.026750000193715096, 0.05299999937415123, 0.03999999910593033]","[0.0, -0.0, 0.894166469119967]","[-0.08288749307394028, 0.09808415919542313, 0.03999999910593033]","[0.0, -0.0, 0.894166894674561]","[0.026750000193715096, 0.05299999937415123, 0.03999999910593033]","[0.0, 0.0, -0.9122733503889549]","[0.08369457721710205, 0.09706035256385803, 0.03999999910593033]","[0.0, 0.0, -0.9997066729229968]",0.96174983227,16.220004472800003,"(0.0, 0.0, 0.0, 0.0, 0.0, 0.0)",-2.5959652512206968,5.681494863714967e-07,3.553320838026869e-05,"(0.0, 0.0, 0.0, 0.0, 0.0, 0.0)",-0.18114955764248034,-0.9780460127037736,-15.785439661232708,"(0.0, 0.0, 0.0, 0.0, 0.0, 0.0)",2.503992476159733,-0.0786900142246732,2.098357403184359,"(0.0, 0.0, 0.0, 0.0, 0.0, 0.0)",0.15360133560797545,False,,,,,False,,,,
2,Open,,,,,,"[-0.026750000193715096, 0.05299999937415123, 0.03999999910593033]","[0.0, -0.0, 1.170927100750299]","[-0.09307006001472473, 0.08102945238351822, 0.03999999910593033]","[0.0, -0.0, 1.1709279927689973]","[0.026750000193715096, 0.05299999937415123, 0.03999999910593033]","[0.0, 0.0, -1.181618964677462]","[0.09336595237255096, 0.08031877130270004, 0.03999999910593033]","[0.0, 0.0, -1.233247876832181]",1.2108343584571122,9.577750441143678,"(0.0, 0.0, 0.0, 0.0, 0.0, 0.0)",-1.5367816122769582,9.012180617793662e-07,6.275974057005224e-06,"(0.0, 0.0, 0.0, 0.0, 0.0, 0.0)",-0.1083256720668905,-1.2204570900414513,-9.3211442655613,"(0.0, 0.0, 0.0, 0.0, 0.0, 0.0)",1.4819475463743526,-0.046466145575958295,1.239071567699341,"(0.0, 0.0, 0.0, 0.0, 0.0, 0.0)",0.09166748660725833,False,,,,,False,,,,
3,Open,,,,,,"[-0.026750000193715096, 0.05299999937415123, 0.03999999910593033]","[0.0, -0.0, 1.334351465706577]","[-0.09674673527479172, 0.06986585259437561, 0.03999999910593033]","[0.0, -0.0, 1.33435435145599]","[0.026750000193715096, 0.05299999937415123, 0.03999999910593033]","[0.0, 0.0, -1.3406650641721125]","[0.09685182571411133, 0.06942359358072281, 0.03999999910593033]","[0.0, 0.0, -1.3711530696282732]",1.3579162851496,5.655565729344001,"(0.0, 0.0, 0.0, 0.0, 0.0, 0.0)",-0.9088150211252332,3.4316066113876724e-06,0.0001607445165674468,"(0.0, 0.0, 0.0, 0.0, 0.0, 0.0)",-0.06444344013525093,-1.3635984108023202,-5.504042378604797,"(0.0, 0.0, 0.0, 0.0, 0.0, 0.0)",0.8762522980402716,-0.02744024570882781,0.7315266716392431,"(0.0, 0.0, 0.0, 0.0, 0.0, 0.0)",0.05446985052483407,False,,,,,False,,,,
4,Open,,,,,,"[-0.026750000193715096, 0.05299999937415123, 0.03999999910593033]","[0.0, -0.0, 1.4308518944899675]","[-0.09804610908031464, 0.06304314732551575, 0.03999999910593033]","[0.0, -0.0, 1.4308566269594332]","[0.026750000193715096, 0.05299999937415123, 0.03999999910593033]","[0.0, 0.0, -1.4345798203875788]","[0.09808305650949478, 0.06277728080749512, 0.03999999910593033]","[0.0, 0.0, -1.4525855975984745]",1.4447666872179874,3.339555007520341,"(0.0, 0.0, 0.0, 0.0, 0.0, 0.0)",-0.5371183361845069,4.8269553674989e-06,2.0878160072459843e-05,"(0.0, 0.0, 0.0, 0.0, 0.0, 0.0)",-0.03821759960562203,-1.448121925594662,-3.2500819841423465,"(0.0, 0.0, 0.0, 0.0, 0.0, 0.0)",0.5178266556878065,-0.016205556838873442,0.4320218239148067,"(0.0, 0.0, 0.0, 0.0, 0.0, 0.0)",0.0322808466635012,False,,,,,False,,,,
5,Open,,,,,,"[-0.026750000193715096, 0.05299999937415123, 0.03999999910593033]","[0.0, -0.0, 1.487834617901085]","[-0.09850236773490906, 0.05896640568971634, 0.03999999910593033]","[0.0, -0.0, 1.4878390921106803]","[0.026750000193715096, 0.05299999937415123, 0.03999999910593033]","[0.0, 0.0, -1.4900358577435544]","[0.09851532429456711, 0.05880843847990036, 0.03999999910593033]","[0.0, 0.0, -1.5006695807985118]",1.4960509811353493,1.9719738363906854,"(0.0, 0.0, 0.0, 0.0, 0.0, 0.0)",-0.3173274216127963,4.509251873886308e-06,-3.168767150011037e-05,"(0.0, 0.0, 0.0, 0.0, 0.0, 0.0)",-0.022624215793833224,-1.498032215844392,-1.9191409108162163,"(0.0, 0.0, 0.0, 0.0, 0.0, 0.0)",0.30591369390909257,-0.00957062017308593,0.2551417656412126,"(0.0, 0.0, 0.0, 0.0, 0.0, 0.0)",0.019102112305110365,False,,,,,False,,,,
6,Open,,,,,,"[-0.026750000193715096, 0.05299999937415123, 0.03999999910593033]","[0.0, -0.0, 1.5214821319654974]","[-0.09866246581077576, 0.05654918774962425, 0.03999999910593033]","[0.0, -0.0, 1.5214858439169519]","[0.026750000193715096, 0.05299999937415123, 0.03999999910593033]","[0.0, 0.0, -1.5227821585534602]","[0.09866702556610107, 0.05645570904016495, 0.03999999910593033]","[0.0, 0.0, -1.529061933448946]",1.5263338438506127,1.164430830650334,"(0.0, 0.0, 0.0, 0.0, 0.0, 0.0)",-0.18743587261192823,3.6440993970645793e-06,-4.480530101024996e-05,"(0.0, 0.0, 0.0, 0.0, 0.0, 0.0)",-0.013379159967550349,-1.527503743133955,-1.1332335164278682,"(0.0, 0.0, 0.0, 0.0, 0.0, 0.0)",0.18068846528573543,-0.005652184024362593,0.1506807000213291,"(0.0, 0.0, 0.0, 0.0, 0.0, 0.0)",0.011293655891939093,False,,,,,False,,,,
7,Close,,,"(0.010000824637423049, 0.16001319418745247, 0.017848014970055004)","(-0.00026934863811186216, 1.6834304115272585e-05, -2.2671484573282825e-09)",,"[-0.026750000193715096, 0.05299999937415123, 0.03999999910593033]","[0.0, -0.0, 1.2784808254221978]","[-0.09569569677114487, 0.07374827563762665, 0.03999999910593033]","[0.0, -0.0, 1.034582661993943]","[0.026750000193715096, 0.05299999937415123, 0.03999999910593033]","[0.0, 0.0, -1.2792482299640686]","[0.0957116037607193, 0.0736953467130661, 0.03999999910593033]","[0.0, 0.0, -1.0390562259147462]",1.210632571455348,-16.283535238809286,"(0.0, 0.0, 0.0, 0.0, 0.0, 0.0)",2.771136716181199,-0.3095085607892871,-15.746535439217235,"(0.0, 0.0, 0.0, 0.0, 0.0, 0.0)",0.3469037989659341,-1.211323385283169,16.3019569408845,"(0.0, 0.0, 0.0, 0.0, 0.0, 0.0)",-2.7749564531312414,0.30617317599991634,15.835479338328643,"(0.0, 0.0, 0.0, 0.0, 0.0, 0.0)",-0.3479929302165593,False,,,,,False,,,,
8,Close,,,"(0.010001648057231211, 0.16002636889308344, 0.03133184175509247)","(-0.0005384699893107284, 3.3654401557527444e-05, -9.06094284338731e-09)",,"[-0.026750000193715096, 0.05299999937415123, 0.03999999910593033]","[0.0, -0.0, 1.0006360422079206]","[-0.08736064285039902, 0.0918632224202156, 0.03999999910593033]","[0.0, -0.0, 0.4880565025715103]","[0.026750000193715096, 0.05299999937415123, 0.03999999910593033]","[0.0, 0.0, -1.001089448203126]","[0.08737824857234955, 0.09183574467897415, 0.03999999910593033]","[0.0, 0.0, -0.49069812233338583]",0.9605724271186684,-9.615264723164493,"(0.0, 0.0, 0.0, 0.0, 0.0, 0.0)",1.6441783201079794,-0.5513218025251249,-9.298144061583436,"(0.0, 0.0, 0.0, 0.0, 0.0, 0.0)",0.21014173445603831,-0.9609803457758583,9.626142554022893,"(0.0, 0.0, 0.0, 0.0, 0.0, 0.0)",-1.6464751946207798,0.5493522946545342,9.350664461360347,"(0.0, 0.0, 0.0, 0.0, 0.0, 0.0)",-0.2108204377510729,False,,,,,False,,,,
9,Close,,,"(0.010002470404691093, 0.16003952644115657, 0.04045997120998789)","(-0.0008073642479911328, 5.0460303253361964e-05, -2.0369923505779015e-08)",,"[-0.026750000193715096, 0.05299999937415123, 0.03999999910593033]","[0.0, -0.0, 0.8365715799965936]","[-0.0801992267370224, 0.1012408509850502, 0.03999999910593033]","[0.0, -0.0, 0.16533874626364803]","[0.026750000193715096, 0.05299999937415123, 0.03999999910593033]","[0.0, 0.0, -0.8368392086626993]","[0.08021213859319687, 0.10122654587030411, 0.03999999910593033]","[0.0, 0.0, -0.1668985823484083]",0.8129144124893025,-5.677717666381402,"(0.0, 0.0, 0.0, 0.0, 0.0, 0.0)",0.9736078226475493,-0.6941096683608667,-5.490444078796776,"(0.0, 0.0, 0.0, 0.0, 0.0, 0.0)",0.12593397924105265,-0.8131552843771866,5.684140916724979,"(0.0, 0.0, 0.0, 0.0, 0.0, 0.0)",-0.9749785244213759,0.6929466958025952,5.521456795952681,"(0.0, 0.0, 0.0, 0.0, 0.0, 0.0)",-0.12634715317523504,False,,,,,False,,,,
10,Close,,,"(0.010003291824242136, 0.16005266914270105, 0.04523936165140331)","(-0.0010760316083767074, 6.725202012489063e-05, -3.618265319583079e-08)",,"[-0.026750000193715096, 0.05299999937415123, 0.03999999910593033]","[0.0, -0.0, 0.7396932119518481]","[-0.07528240978717804, 0.10618463158607483, 0.03999999910593033]","[0.0, 0.0, -0.025223688738047617]","[0.026750000193715096, 0.05299999937415123, 0.03999999910593033]","[0.0, 0.0, -0.7398511766938903]","[0.07529081404209137, 0.10617695748806, 0.03999999910593033]","[0.0, -0.0, 0.02430263317545323]",0.7257238314308083,-3.352635504821555,"(0.0, 0.0, 0.0, 0.0, 0.0, 0.0)",0.5758654822812497,-0.7784262532781683,-3.242260203768412,"(0.0, 0.0, 0.0, 0.0, 0.0, 0.0)",0.0750123771406224,-0.725866063871885,3.3564283699169333,"(0.0, 0.0, 0.0, 0.0, 0.0, 0.0)",-0.5766799137830688,0.7777395376647703,3.260573592131318,"(0.0, 0.0, 0.0, 0.0, 0.0, 0.0)",-0.0752606958188736,False,,,,,False,,,,
11,Close,,,"(0.009997966950406065, 0.16004795201914346, 0.046616050094935475)","(-0.0009640430328522325, -5.7324486097668704e-05, 4.2980615420070005e-09)",,"[-0.026750000193715096, 0.05299999937415123, 0.03999999910593033]","[0.0, -0.0, 0.682487397988505]","[-0.0721622109413147, 0.10887245088815689, 0.03999999910593033]","[0.0, 0.0, -0.13775029188859572]","[0.026750000193715096, 0.05299999937415123, 0.03999999910593033]","[0.0, 0.0, -0.6825807377410441]","[0.07216742634773254, 0.10886821150779724, 0.03999999910593033]","[0.0, -0.0, 0.1372064129763775]",0.6742386185346878,-1.979696494258342,"(0.0, 0.0, 0.0, 0.0, 0.0, 0.0)",0.34037467823530393,-0.8282145265472606,-1.9144534778819295,"(0.0, 0.0, 0.0, 0.0, 0.0, 0.0)",0.04449932044982575,-0.674322605213594,1.981936139029174,"(0.0, 0.0, 0.0, 0.0, 0.0, 0.0)",-0.3408573424145132,0.8278090365055835,1.9252671252731466,"(0.0, 0.0, 0.0, 0.0, 0.0, 0.0)",-0.04464739446319682,False,,,,,False,,,,
12,Close,,,"(0.009998679410322496, 0.16003066597344334, 0.0474253884764576)","(-0.0006112814540129935, -4.2805404436077314e-05, 1.9447426774393396e-07)",,"[-0.026750000193715096, 0.05299999937415123, 0.03999999910593033]","[0.0, -0.0, 0.6487079580530938]","[-0.07024932652711868, 0.11037428677082062, 0.03999999910593033]","[0.0, 0.0, -0.20419532625251113]","[0.026750000193715096, 0.05299999937415123, 0.03999999910593033]","[0.0, 0.0, -0.6487631098841893]","[0.07025248557329178, 0.11037188768386841, 0.03999999910593033]","[0.0, -0.0, 0.20387417727936794]",0.6438371618585478,-1.1689909828946077,"(0.0, 0.0, 0.0, 0.0, 0.0, 0.0)",0.20110328062585062,-0.8576133287829941,-1.1304144347684295,"(0.0, 0.0, 0.0, 0.0, 0.0, 0.0)",0.026365137971139978,-0.6438867551525752,1.1703134707353389,"(0.0, 0.0, 0.0, 0.0, 0.0, 0.0)",-0.20138889834359572,0.857373897412956,1.136799615752827,"(0.0, 0.0, 0.0, 0.0, 0.0, 0.0)",-0.026453134766811503,False,,,,,False,,,,
13,Close,,,"(0.008562352819313064, 0.15963169911231415, 0.04795936059784778)","(0.002880050037504477, -0.0018080766405500393, 0.027156574699580344)",,"[-0.026750000193715096, 0.05299999937415123, 0.03999999910593033]","[0.0, -0.0, 0.6287615983534538]","[-0.06909634172916412, 0.11123047024011612, 0.03999999910593033]","[0.0, 0.0, -0.24342883421715172]","[0.026750000193715096, 0.05299999937415123, 0.03999999910593033]","[0.0, 0.0, -0.6288059721302652]","[0.06909892708063126, 0.1112285852432251, 0.03999999910593033]","[0.0, -0.0, 0.24295585513718987]",0.6258854057058539,-0.6902774854894381,"(0.0, 0.0, 0.0, 0.0, 0.0, 0.0)",0.11878846609148704,-0.8749713231347032,-0.6674313830745814,"(0.0, 0.0, 0.0, 0.0, 0.0, 0.0)",0.015594191474811038,-0.6259255556368085,0.6912982329409242,"(0.0, 0.0, 0.0, 0.0, 0.0, 0.0)",0.23889456753769728,0.8745816224765113,0.6767593625972839,"(0.0, 0.0, 0.0, 0.0, 0.0, 0.0)",0.18939691443679915,False,,,,,True,"(0.040048198705117485, 0.17954190147604243, 0.02399995236517949)","(-0.9999968496142797, -0.00250969405768167, -4.6874861287478436e-05)",-8.481535683957195e-06,2.863336982423626
14,Move,,,"(0.003226703519616097, 0.15887842572556865, 0.048057042824217085)","(0.00733137607255103, 0.004060605831319912, 0.12411081910370701)","[0.0, 0.0, 0.0]","[-0.026750000193715096, 0.05299999937415123, 0.03999999910593033]","[0.0, -0.0, 0.5601465041237582]","[-0.06500434130430222, 0.11399676650762558, 0.03999999910593033]","[0.0, 0.0, -0.31665092698218517]","[0.026750000193715096, 0.05299999937415123, 0.03999999910593033]","[0.0, 0.0, -0.5704848668453074]","[0.0656328946352005, 0.11359802633523941, 0.03999999910593033]","[0.0, -0.0, 0.3056114929739557]",0.5446837312064112,-3.7110582962534506,"(0.0, 0.0, 0.0, 0.0, 0.0, 0.0)",-53.09089974488294,-0.8536776571297426,5.5487419201507295,"(0.0, 0.0, 0.0, 0.0, 0.0, 0.0)",-27.521806933097807,-0.5577558572400253,3.0549589579805563,"(0.0, 0.0, 0.0, 0.0, 0.0, 0.0)",39.845640952717,0.8551826533669656,-5.0192908628628805,"(0.0, 0.0, 0.0, 0.0, 0.0, 0.0)",19.520428399002,True,"(-0.031006456029053206, 0.18019920383377602, 0.023994329638221932)","(0.9922239401206523, 0.12433627092149606, -0.005669601818851313)",-0.0005148038489068186,428.5206410406488,True,"(0.03236246380961459, 0.17994971919477992, 0.023997959838382148)","(-0.9993845697424365, -0.035018889211399305, -0.00203940165862912)",0.0005577664042068458,310.72647358115125
15,Move,"(-0.0031000000000000003, 0.0, -0.0002)","(0.0, 0.02079385270826044, 0.0)","(0.003263008606544455, 0.16130558235884088, 0.04819236844559784)","(-0.010990109020328296, 0.0006697204406797765, 0.12032536991973942)","[3.630508692835767e-05, 0.002427156633272226, 0.000135325621380758]","[-0.026750000193715096, 0.05299999937415123, 0.03999999910593033]","[0.0, -0.0, 0.5327906793337871]","[-0.06332162022590637, 0.11502029001712799, 0.03999999910593033]","[0.0, 0.0, -0.30421938128079257]","[0.026750000193715096, 0.05299999937415123, 0.03999999910593033]","[0.0, 0.0, -0.551101438372152]","[0.06445106863975525, 0.11434027552604675, 0.03999999910593033]","[0.0, -0.0, 0.28828574479021635]",0.5333167022270282,0.1262461655024376,"(0.0, 0.0, 0.0, 0.0, 0.0, 0.0)",-1.356620921366907,-0.838160059406048,-0.2760068342670233,"(0.0, 0.0, 0.0, 0.0, 0.0, 0.0)",-0.6824863277341972,-0.5523361695728845,-0.29632362304588855,"(0.0, 0.0, 0.0, 0.0, 0.0, 0.0)",0.8909572347182195,0.8405049698789832,0.268257356938442,"(0.0, 0.0, 0.0, 0.0, 0.0, 0.0)",0.507004343843981,True,"(-0.03014714054785425, 0.18162333381669152, 0.023999284576372123)","(0.9928045145054668, 0.11974424927070577, -0.0007146636686612093)",-0.0007853425874461722,9.901465623725903,True,"(0.032443255688119496, 0.18011747231412575, 0.056000715423627875)","(-0.9928045145054653, -0.1197442492707183, 0.0007146636686617731)",-0.0001518181715837807,6.4636475702263505
16,Move,"(0.0029, 0.0, 0.0011)","(0.0, 0.013110913340981403, 0.0)","(0.00401301887227211, 0.16149177921536678, 0.048512655208646366)","(-0.009126832647893072, 0.0004963543033291573, 0.1121217449707217)","[0.0007863153526560126, 0.0026133534897981314, 0.00045561238442928115]","[-0.026750000193715096, 0.05299999937415123, 0.03999999910593033]","[0.0, -0.0, 0.5285122759145638]","[-0.06305593252182007, 0.11517619341611862, 0.03999999910593033]","[0.0, 0.0, -0.3092063660592728]","[0.026750000193715096, 0.05299999937415123, 0.03999999910593033]","[0.0, 0.0, -0.5582602569702394]","[0.06488921493291855, 0.11406881362199783, 0.03999999910593033]","[0.0, -0.0, 0.2820292559836741]",0.5270920107917343,-0.3408469001362287,"(0.0, 0.0, 0.0, 0.0, 0.0, 0.0)",-1.1761577716553318,-0.8373261807347191,0.0941735659244757,"(0.0, 0.0, 0.0, 0.0, 0.0, 0.0)",-0.6271762879811108,-0.5595545886955152,-0.3106551312604927,"(0.0, 0.0, 0.0, 0.0, 0.0, 0.0)",0.6375494397310665,0.8399747944028388,-0.07551738269070707,"(0.0, 0.0, 0.0, 0.0, 0.0, 0.0)",0.30809547298040335,True,"(-0.02954962482351326, 0.18161215454877, 0.023999472820618237)","(0.9934830295391683, 0.11397891427921006, -0.000526419422546167)",-0.0005433170625978635,9.514602594275608,True,"(0.03329361186558828, 0.18004453135531856, 0.05600052717938177)","(-0.9934830295391686, -0.11397891427920871, 0.000526419422547729)",-9.251592329975018e-05,3.9631306204843995
17,Move,"(0.0143, 0.0, 0.0024)","(0.0, 0.04689525167183564, 0.0)","(0.0055375300745437945, 0.16146273655349244, 0.04867439432110471)","(-0.005959862659367361, 0.00027345014224555947, 0.0876859870631518)","[0.0023108265549276973, 0.0025843108279237914, 0.0006173514968876234]","[-0.026750000193715096, 0.05299999937415123, 0.03999999910593033]","[0.0, -0.0, 0.514752396270602]","[-0.062196996062994, 0.1156698539853096, 0.03999999910593033]","[0.0, 0.0, -0.322076850807392]","[0.026750000193715096, 0.05299999937415123, 0.03999999910593033]","[0.0, 0.0, -0.5716843098541539]","[0.0657055526971817, 0.11355134099721909, 0.03999999910593033]","[0.0, -0.0, 0.2679022325530773]",0.5117781493951661,-0.7138273491713862,"(0.0, 0.0, 0.0, 0.0, 0.0, 0.0)",-0.325609552982244,-0.8367690574096469,0.014452681706957023,"(0.0, 0.0, 0.0, 0.0, 0.0, 0.0)",-0.22863394513848923,-0.5746343788354534,-0.7080149273527362,"(0.0, 0.0, 0.0, 0.0, 0.0, 0.0)",0.2247862133178895,0.8395521677534037,-0.008253533083078479,"(0.0, 0.0, 0.0, 0.0, 0.0, 0.0)",0.06248936320805767,True,"(-0.027838205708729566, 0.18166694937346292, 0.02399953055397814)","(0.993941495682362, 0.10990943314421972, -0.0004686860626418405)",-0.00035393230015324715,3.380783823251151,True,"(0.035045004738154605, 0.17996784542331004, 0.05600046944602186)","(-0.9939414956823615, -0.10990943314422527, 0.00046868606264712295)",-3.98521659913113e-05,0.8527460024532151
18,Move,"(0.0254, 0.0, 0.0083)","(0.0, 0.04296127953784044, 0.0)","(0.00808529942302628, 0.16108948273776785, 0.04847217706812266)","(0.0031828666821179133, 0.0032076699500641795, 0.06020901235169048)","[0.004858595903410182, 0.0022110570121992024, 0.00041513424390557385]","[-0.026750000193715096, 0.05299999937415123, 0.03999999910593033]","[0.0, -0.0, 0.4924664113930396]","[-0.06079164892435074, 0.1164441928267479, 0.03999999910593033]","[0.0, 0.0, -0.343116017752746]","[0.026750000193715096, 0.05299999937415123, 0.03999999910593033]","[0.0, 0.0, -0.5934905599317681]","[0.06701657921075821, 0.11268754303455353, 0.03999999910593033]","[0.0, -0.0, 0.24519617596415016]",0.48799199570130547,-1.0738733505026656,"(0.0, 0.0, 0.0, 0.0, 0.0, 0.0)",-0.929555312366293,-0.8352923523547368,0.06962736146151262,"(0.0, 0.0, 0.0, 0.0, 0.0, 0.0)",-0.574358463197039,-0.5978454599674731,-1.0451877174283155,"(0.0, 0.0, 0.0, 0.0, 0.0, 0.0)",0.8281257211077044,0.8384997979686944,-0.04484968061510186,"(0.0, 0.0, 0.0, 0.0, 0.0, 0.0)",0.32955802987280786,True,"(-0.025051153370887376, 0.18169144753207, 0.023997406291128846)","(0.997837169135389, 0.06568303059248302, -0.0025929489119376255)",-0.0002509716914447701,8.375013654135957,True,"(0.03787111428174406, 0.17979364373674955, 0.05600259370887116)","(-0.9978371691353889, -0.06568303059248526, 0.002592948911945687)",-4.449239080061356e-05,4.949495085844825
19,Move,"(0.0319, 0.0, 0.0108)","(0.0, 0.04296127953784044, 0.0)","(0.010841456898763313, 0.16082900535168507, 0.04844904197047913)","(-0.001907931052748425, -0.0005290763657203807, 0.021431005977749547)","[0.0076147533791472155, 0.0019505796261164166, 0.0003919991462620481]","[-0.026750000193715096, 0.05299999937415123, 0.03999999910593033]","[0.0, -0.0, 0.4647853526966106]","[-0.059022627770900726, 0.11736208200454712, 0.03999999910593033]","[0.0, 0.0, -0.3699486130095103]","[0.026750000193715096, 0.05299999937415123, 0.03999999910593033]","[0.0, 0.0, -0.6196047937095773]","[0.0685613676905632, 0.11161577701568604, 0.03999999910593033]","[0.0, -0.0, 0.21843464915832636]",0.4596379240434718,-1.2353839857542437,"(0.0, 0.0, 0.0, 0.0, 0.0, 0.0)",-0.4854343743704184,-0.8344692779994118,0.06352847630869786,"(0.0, 0.0, 0.0, 0.0, 0.0, 0.0)",-0.3542483693524522,-0.6244133433322706,-1.1540664487941807,"(0.0, 0.0, 0.0, 0.0, 0.0, 0.0)",0.7380840286702759,0.837830233403274,-0.05019691430714182,"(0.0, 0.0, 0.0, 0.0, 0.0, 0.0)",0.27864197740771735,True,"(-0.02154404244089373, 0.18161454771167745, 0.023999510089647673)","(0.9996490471154135, 0.026486663307007184, -0.0004891503931127916)",-0.0001621472127073375,1.1036957413132973,True,"(0.04122157214801815, 0.17949020930845666, 0.05600048991035233)","(-0.9996490471154135, -0.02648666330700233, 0.000489150393115499)",-4.018609145773861e-05,4.26150416479991
20,Move,"(0.043000000000000003, 0.0, 0.0117)","(0.0, 0.0044209189953016365, 0.0)","(0.014638758564829896, 0.16024075840485988, 0.04846076501943351)","(-0.0019010482076232164, -0.0005573363570937818, -0.007771996691398773)","[0.011412055045213799, 0.0013623326792912283, 0.00040372219521642855]","[-0.026750000193715096, 0.05299999937415123, 0.03999999910593033]","[0.0, -0.0, 0.4300480072212525]","[-0.05676783621311188, 0.11844409257173538, 0.03999999910593033]","[0.0, 0.0, -0.4007150116926818]","[0.026750000193715096, 0.05299999937415123, 0.03999999910593033]","[0.0, 0.0, -0.6510002664262978]","[0.07038073241710663, 0.11027441918849945, 0.03999999910593033]","[0.0, -0.0, 0.18400328315197037]",0.4233366760619842,-1.6107083451073976,"(0.0, 0.0, 0.0, 0.0, 0.0, 0.0)",-2.7141186462495246,-0.8299232207269502,0.20154152188685023,"(0.0, 0.0, 0.0, 0.0, 0.0, 0.0)",-1.5005895749865859,-0.6569791621952483,-1.4349364747133575,"(0.0, 0.0, 0.0, 0.0, 0.0, 0.0)",2.3497740724552534,0.8344092026882913,-0.14263996963558057,"(0.0, 0.0, 0.0, 0.0, 0.0, 0.0)",1.044485376973662,True,"(-0.01733048325882567, 0.1815132544345237, 0.023999510089647673)","(0.9996490471154135, 0.026486663307007184, -0.0004891503931127916)",-7.001218333351267e-05,22.947732249053946,True,"(0.04539369130661611, 0.17904978080505812, 0.05600048991035233)","(-0.9996490471154135, -0.02648666330700233, 0.000489150393115499)",2.7805836656324485e-05,14.230082534729819
21,Move,"(0.0514, 0.0, 0.009800000000000001)","(0.0, 0.05170537909033201, 0.0)","(0.019302825801192393, 0.1597651700080724, 0.04847592454750131)","(0.0023894892088403307, -0.0006917930957453767, -0.015995789570579642)","[0.016076122281576295, 0.0008867442825037375, 0.00041888172328422707]","[-0.026750000193715096, 0.05299999937415123, 0.03999999910593033]","[0.0, -0.0, 0.3892817370157863]","[-0.05407572537660599, 0.11961309611797333, 0.03999999910593033]","[0.0, 0.0, -0.434506342892948]","[0.026750000193715096, 0.05299999937415123, 0.03999999910593033]","[0.0, 0.0, -0.6857607646710117]","[0.07234486937522888, 0.10872349888086319, 0.03999999910593033]","[0.0, -0.0, 0.14346823763787403]",0.381752407665978,-1.8070353127360317,"(0.0, 0.0, 0.0, 0.0, 0.0, 0.0)",-4.433178950734237,-0.8223614815700202,0.3423882806302861,"(0.0, 0.0, 0.0, 0.0, 0.0, 0.0)",-2.2831241452194977,-0.6920481103407924,-1.508944764509529,"(0.0, 0.0, 0.0, 0.0, 0.0, 0.0)",4.078072255181653,0.8280381025060278,-0.2858323539837712,"(0.0, 0.0, 0.0, 0.0, 0.0, 0.0)",2.171738485702208,True,"(-0.012529889904143734, 0.18131983007557087, 0.023999810821726666)","(0.9999555975161638, -0.009421650313542989, -0.0001884183141152856)",-0.00011051232089543422,35.404640844720966,True,"(0.050164926011142676, 0.17844391711658342, 0.05600018917827334)","(-0.9999555975161638, 0.00942165031354386, 0.00018841831411821496)",-6.040414516454096e-06,28.72473888685057
22,Move,"(0.0578, 0.0, 0.007200000000000001)","(0.0, 0.08614596121993615, 0.0)","(0.024082240700514013, 0.1592720313438887, 0.048516097873227866)","(0.001504074962374881, -0.0014000197933595538, -0.026691896823923488)","[0.020855537180897915, 0.00039360561832005314, 0.0004590550490107814]","[-0.026750000193715096, 0.05299999937415123, 0.03999999910593033]","[0.0, -0.0, 0.3455259896681657]","[-0.051135797053575516, 0.12074461579322815, 0.03999999910593033]","[0.0, 0.0, -0.4685944011494948]","[0.026750000193715096, 0.05299999937415123, 0.03999999910593033]","[0.0, 0.0, -0.7208893163616322]","[0.07427380979061127, 0.10708777606487274, 0.03999999910593033]","[0.0, -0.0, 0.09979953019803676]",0.3376197890421788,-1.897488152736447,"(0.0, 0.0, 0.0, 0.0, 0.0, 0.0)",-5.813663923428991,-0.8123161218446139,0.43302858440380765,"(0.0, 0.0, 0.0, 0.0, 0.0, 0.0)",-2.932022105371575,-0.7271132097746917,-1.4937473111137343,"(0.0, 0.0, 0.0, 0.0, 0.0, 0.0)",5.2419866592558355,0.8190762690074342,-0.3870049615329383,"(0.0, 0.0, 0.0, 0.0, 0.0, 0.0)",2.8551931346618677,True,"(-0.00751104225903991, 0.18099955854127722, 0.023999810821726666)","(0.9999555975161638, -0.009421650313542989, -0.0001884183141152856)",-0.00012278665382135838,45.34426052778335,True,"(0.05515865018194706, 0.17770998788076378, 0.05600018917827334)","(-0.9999555975161638, 0.00942165031354386, 0.00018841831411821496)",3.9103996378771964e-05,30.038029961462176
23,Move,"(0.0606, 0.0, 0.0060999999999999995)","(0.0, 0.0730751904517506, 0.0)","(0.028709537419064405, 0.15867561231259478, 0.048548022352258254)","(0.0019250295935125444, -0.000761729219787563, -0.03546776467845789)","[0.025482833899448307, -0.00020281341297387345, 0.0004909795280411688]","[-0.026750000193715096, 0.05299999937415123, 0.03999999910593033]","[0.0, -0.0, 0.3019038931469651]","[-0.048158373683691025, 0.1217435896396637, 0.03999999910593033]","[0.0, 0.0, -0.5010202298635413]","[0.026750000193715096, 0.05299999937415123, 0.03999999910593033]","[0.0, 0.0, -0.7540799974612965]","[0.07604251801967621, 0.10548092424869537, 0.03999999910593033]","[0.0, -0.0, 0.05659186475448568]",0.2942119265941415,-1.8460709689667532,"(0.0, 0.0, 0.0, 0.0, 0.0, 0.0)",-6.616312695704931,-0.8008935960891805,0.48732383293049786,"(0.0, 0.0, 0.0, 0.0, 0.0, 0.0)",-3.302163193961169,-0.7598189724276574,-1.3773580730903339,"(0.0, 0.0, 0.0, 0.0, 0.0, 0.0)",5.95586188519183,0.808978319703609,-0.406445308211997,"(0.0, 0.0, 0.0, 0.0, 0.0, 0.0)",3.1446142741886636,True,"(-0.002603078482219544, 0.1805525417608074, 0.023999810821726666)","(0.9999555975161638, -0.009421650313542989, -0.0001884183141152856)",-0.00017979008045282497,53.42500104404526,True,"(0.05999567031089896, 0.1768628910244267, 0.05600018917827334)","(-0.9999555975161638, 0.00942165031354386, 0.00018841831411821496)",5.110568144064599e-05,37.80523753205976
24,Move,"(0.06620000000000001, 0.0, 0.0008)","(0.0, 0.11190003966236446, 0.0)","(0.03334972810092015, 0.15801261682975584, 0.04856755598782043)","(0.0008894901983641292, -0.0012409240651615194, -0.0451495833115647)","[0.030123024581304052, -0.0008658088958128085, 0.0005105131636033433]","[-0.026750000193715096, 0.05299999937415123, 0.03999999910593033]","[0.0, -0.0, 0.25752736348055677]","[-0.04508769512176514, 0.12262563407421112, 0.03999999910593033]","[0.0, 0.0, -0.5321981278335797]","[0.026750000193715096, 0.05299999937415123, 0.03999999910593033]","[0.0, 0.0, -0.7858633751757946]","[0.07768537104129791, 0.10388799756765366, 0.03999999910593033]","[0.0, -0.0, 0.012251191462697897]",0.24952347261866067,-1.9209265913180944,"(0.0, 0.0, 0.0, 0.0, 0.0, 0.0)",-8.13017228091001,-0.7872399457896685,0.5965085499681994,"(0.0, 0.0, 0.0, 0.0, 0.0, 0.0)",-3.9802042304155814,-0.791461098558678,-1.3434463753203254,"(0.0, 0.0, 0.0, 0.0, 0.0, 0.0)",7.183794603597324,0.7959957442449201,-0.5085244477214159,"(0.0, 0.0, 0.0, 0.0, 0.0, 0.0)",3.8727379793296324,True,"(0.0022786999597753654, 0.17998591710926695, 0.023999810821726666)","(0.9999555975161638, -0.009421650313542989, -0.0001884183141152856)",-0.0002071677578522975,64.40637343944282,True,"(0.064818377252555, 0.17591109875259187, 0.05600018917827334)","(-0.9999555975161638, 0.00942165031354386, 0.00018841831411821496)",7.602527611634365e-05,43.19879452611521
25,Move,"(0.0684, 0.0, 0.0012)","(0.0, 0.11190003966236446, 0.0)","(0.03779686208979037, 0.15724299579014395, 0.04859235698140346)","(-4.1549057960828696e-06, -0.0015331831231660993, -0.053356741415635754)","[0.03457015857017427, -0.0016354299354247037, 0.000535314157186377]","[-0.026750000193715096, 0.05299999937415123, 0.03999999910593033]","[0.0, -0.0, 0.21386308562931072]","[-0.04203103110194206, 0.12335971742868423, 0.03999999910593033]","[0.0, 0.0, -0.5611756534652947]","[0.026750000193715096, 0.05299999937415123, 0.03999999910593033]","[0.0, 0.0, -0.8153012980506182]","[0.07916112244129181, 0.10236673802137375, 0.03999999910593033]","[0.0, 0.0, -0.031026965606043986]",0.206182950966565,-1.8432316574144751,"(0.0, 0.0, 0.0, 0.0, 0.0, 0.0)",-8.311897419185966,-0.7726511463756759,0.5730276078465635,"(0.0, 0.0, 0.0, 0.0, 0.0, 0.0)",-4.035930295056553,-0.8203852596273421,-1.220150328663848,"(0.0, 0.0, 0.0, 0.0, 0.0, 0.0)",8.561014305537343,0.7813054977919118,-0.7125211647396608,"(0.0, 0.0, 0.0, 0.0, 0.0, 0.0)",4.731910225702169,True,"(0.006977409468949765, 0.1793235478839252, 0.023999810821726666)","(0.9999555975161638, -0.009421650313542989, -0.0001884183141152856)",-0.00027252077077346437,58.0604668266828,True,"(0.06942223000970885, 0.17487908415389142, 0.05600018917827334)","(-0.9999555975161638, 0.00942165031354386, 0.00018841831411821496)",5.9001592366789016e-05,51.58485111899159
26,Move,"(0.0692, 0.0, 0.0005)","(0.0, 0.11653563415566137, 0.0)","(0.0415701301708225, 0.15646301272703922, 0.04864066194792521)","(0.00036190188961628177, -0.0018274799965065786, -0.07268999501289332)","[0.0383434266512064, -0.0024154129985294315, 0.0005836191237081276]","[-0.026750000193715096, 0.05299999937415123, 0.03999999910593033]","[0.0, -0.0, 0.17290052250072685]","[-0.03913690522313118, 0.12392647564411163, 0.03999999910593033]","[0.0, 0.0, -0.5859026066747385]","[0.026750000193715096, 0.05299999937415123, 0.03999999910593033]","[0.0, 0.0, -0.841304058723718]","[0.08042692393064499, 0.10098736733198166, 0.03999999910593033]","[0.0, 0.0, -0.07225307301809673]",0.16577424112267267,-1.7103088449305888,"(0.0, 0.0, 0.0, 0.0, 0.0, 0.0)",-9.49253993473266,-0.7555855509532523,0.7722357933359254,"(0.0, 0.0, 0.0, 0.0, 0.0, 0.0)",-4.831897373067923,-0.8457546411079409,-1.0681545630605438,"(0.0, 0.0, 0.0, 0.0, 0.0, 0.0)",9.13017964986083,0.7662235432849416,-0.6785708487817161,"(0.0, 0.0, 0.0, 0.0, 0.0, 0.0)",4.4334287940438015,True,"(0.011240230372450165, 0.17866148595437276, 0.023999810821726666)","(0.9999555975161638, -0.009421650313542989, -0.0001884183141152856)",-0.00024993258541712007,58.823718059393165,True,"(0.07368486633647042, 0.17383948961730358, 0.05600018917827334)","(-0.9999555975161638, 0.00942165031354386, 0.00018841831411821496)",0.00011262839442558615,37.83055251127536
27,Move,"(0.0698, 0.0, 0.0009000000000000001)","(0.0, 0.1033252370473163, 0.0)","(0.04471028567916185, 0.15571039507507523, 0.04859901605169825)","(0.004978448420082612, 0.004530738670847819, -0.11622985452422045)","[0.04148358215954575, -0.0031680306504934252, 0.000541973227481167]","[-0.026750000193715096, 0.05299999937415123, 0.03999999910593033]","[0.0, -0.0, 0.13434963271400385]","[-0.03639410063624382, 0.12435118108987808, 0.03999999910593033]","[0.0, 0.0, -0.6071123393463371]","[0.026750000193715096, 0.05299999937415123, 0.03999999910593033]","[0.0, 0.0, -0.864171252550421]","[0.08151013404130936, 0.09974748641252518, 0.03999999910593033]","[0.0, 0.0, -0.10979008363713501]",0.12762100035511592,-1.6148717304390987,"(0.0, 0.0, 0.0, 0.0, 0.0, 0.0)",-9.719313788626366,-0.7387441387549873,0.6522882537894787,"(0.0, 0.0, 0.0, 0.0, 0.0, 0.0)",-4.868895506250855,-0.8680310880257839,-0.9263660725796735,"(0.0, 0.0, 0.0, 0.0, 0.0, 0.0)",8.378423825665129,0.7519835272394096,-0.5754274910899249,"(0.0, 0.0, 0.0, 0.0, 0.0, 0.0)",3.9054555836441565,True,"(0.01514860531820171, 0.17811087190238448, 0.05600213198618313)","(0.9960509394623281, -0.08875800736269435, 0.002131226223904002)",-0.00023437443104281348,54.00041639581743,True,"(0.07192125221256077, 0.12227972551350064, 0.056001631708694294)","(-0.9939777978941745, 0.10956950898708699, 0.0016309487350772663)",-0.00032035675841178107,20.39072406485725
28,Move,"(0.0693, 0.0, 0.0)","(0.0, 0.11257024609513026, 0.0)","(0.04737187877009371, 0.15600294623569058, 0.048407421511776745)","(-0.0016383469954871258, -0.009067390754042268, -0.15617883359152074)","[0.04414517525047761, -0.002875479489878069, 0.0003503786875596604]","[-0.026750000193715096, 0.05299999937415123, 0.03999999910593033]","[0.0, -0.0, 0.09787663640525393]","[-0.0337858721613884, 0.12465540319681168, 0.03999999910593033]","[0.0, 0.0, -0.6271173258264152]","[0.026750000193715096, 0.05299999937415123, 0.03999999910593033]","[0.0, 0.0, -0.883768492262765]","[0.08241567760705948, 0.09866543859243393, 0.03999999910593033]","[0.0, 0.0, -0.14355930287874]",0.09159067572638013,-1.5086318075982363,"(0.0, 0.0, 0.0, 0.0, 0.0, 0.0)",-13.077633346009385,-0.720633195658558,1.0465737776437054,"(0.0, 0.0, 0.0, 0.0, 0.0, 0.0)",-6.494732201482676,-0.8872005327058369,-0.8237099210126724,"(0.0, 0.0, 0.0, 0.0, 0.0, 0.0)",11.389352210405923,0.7365748934737509,-0.8722085945458404,"(0.0, 0.0, 0.0, 0.0, 0.0, 0.0)",5.805999165576547,True,"(0.018817803182742066, 0.1773427919941674, 0.023995471895473228)","(0.98983128764695, -0.14217427737234176, -0.0045273445675551765)",-0.0003152968068482067,66.73189352026,True,"(0.0735930159372007, 0.12150857504599386, 0.056001631708694294)","(-0.9939777978941745, 0.10956950898708699, 0.0016309487350772663)",0.00019173289573910763,0.0
29,Move,"(0.0725, 0.0, 0.0007)","(0.0, 0.09931272509698134, 0.0)","(0.05017223801105741, 0.1551441739056966, 0.04858087477505391)","(0.0017140862603141718, -0.01020367530284711, -0.18399850762938283)","[0.046945534491441315, -0.003734251819872053, 0.0005238319508368283]","[-0.026750000193715096, 0.05299999937415123, 0.03999999910593033]","[0.0, -0.0, 0.060958367519998884]","[-0.03113628551363945, 0.12486626952886581, 0.03999999910593033]","[0.0, 0.0, -0.637764591827036]","[0.026750000193715096, 0.05299999937415123, 0.03999999910593033]","[0.0, 0.0, -0.9029203601219739]","[0.08328000456094742, 0.09759102016687393, 0.03999999910593033]","[0.0, 0.0, -0.1810599104108354]",0.054218279621851245,-1.6176216786340265,"(0.0, 0.0, 0.0, 0.0, 0.0, 0.0)",-14.810509282552413,-0.6945774410047714,0.9949198025921375,"(0.0, 0.0, 0.0, 0.0, 0.0, 0.0)",-7.297893228250942,-0.9063116962718462,-0.8139070821787229,"(0.0, 0.0, 0.0, 0.0, 0.0, 0.0)",11.22080785218985,0.7184837626678464,-0.8104248508249541,"(0.0, 0.0, 0.0, 0.0, 0.0, 0.0)",5.485719575744026,True,"(0.022025375882321053, 0.17699059655756194, 0.023995471895473228)","(0.98983128764695, -0.14217427737234176, -0.0045273445675551765)",-9.563347501525869e-05,98.90673429974227,True,"(0.07531997144945655, 0.12074887307685936, 0.056001631708694294)","(-0.9939777978941745, 0.10956950898708699, 0.0016309487350772663)",0.0002787059077611203,20.560965510074787
30,Move,"(0.0725, 0.0, 0.0006)","(0.0, 0.09931272509698134, 0.0)","(0.05302890814968916, 0.1542764180363335, 0.048150684753522785)","(0.0016429985118925116, 0.015437708008329764, -0.21948850380989274)","[0.049802204630073066, -0.00460200768923516, 9.364192930570031e-05]","[-0.026750000193715096, 0.05299999937415123, 0.03999999910593033]","[0.0, -0.0, 0.024109776524447492]","[-0.02848573587834835, 0.12497907131910324, 0.03999999910593033]","[0.0, 0.0, -0.6506389736257832]","[0.026750000193715096, 0.05299999937415123, 0.03999999910593033]","[0.0, 0.0, -0.9201357190488373]","[0.08403923362493515, 0.09661128371953964, 0.03999999910593033]","[0.0, 0.0, -0.21632512346290297]",0.017375521541878235,-1.6162211235533017,"(0.0, 0.0, 0.0, 0.0, 0.0, 0.0)",-6.542093963535331,-0.6748501957984747,-0.024360136760193996,"(0.0, 0.0, 0.0, 0.0, 0.0, 0.0)",-3.2693979984289405,-0.9227321265353671,-0.623167222938136,"(0.0, 0.0, 0.0, 0.0, 0.0, 0.0)",5.781633318159259,0.7033322496570551,-0.11477423299784373,"(0.0, 0.0, 0.0, 0.0, 0.0, 0.0)",3.1663777525527106,True,"(0.02533438879984577, 0.1763729227502487, 0.05600156774233099)","(0.976995514215551, -0.2132540967225196, 0.0015669823717636407)",-0.00038401561381707614,50.02795386168846,True,"(0.07661145111976819, 0.11871945399512403, 0.023998432257669008)","(-0.9769955142155496, 0.21325409672252513, -0.001566982371769519)",-0.00014783465600754015,2.264835644637502
31,Move,"(0.0718, 0.0, -0.0004)","(0.0, 0.08614596121993615, 0.0)","(0.05537713596109824, 0.15423424446244227, 0.04853233816050913)","(-0.0009720067030049008, 0.01715414201588245, -0.25095995342376104)","[0.05215043244148214, -0.004644181263126379, 0.0004752953362920434]","[-0.026750000193715096, 0.05299999937415123, 0.03999999910593033]","[0.0, 0.0, -0.010898204666242325]","[-0.025965344160795212, 0.12499572336673737, 0.03999999910593033]","[0.0, 0.0, -0.6593147771147233]","[0.026750000193715096, 0.05299999937415123, 0.03999999910593033]","[0.0, 0.0, -0.9345781887995919]","[0.08466309309005737, 0.09577935934066772, 0.03999999910593033]","[0.0, 0.0, -0.24871404048314907]",-0.016973834447562567,-1.4581509249625553,"(0.0, 0.0, 0.0, 0.0, 0.0, 0.0)",-18.697712178398078,-0.64240919253824,1.4417700088157481,"(0.0, 0.0, 0.0, 0.0, 0.0, 0.0)",-9.659049583245908,-0.9370807355628737,-0.6006187609885043,"(0.0, 0.0, 0.0, 0.0, 0.0, 0.0)",13.66451348190028,0.6820932843812101,-0.9050001550080244,"(0.0, 0.0, 0.0, 0.0, 0.0, 0.0)",6.306400691506881,True,"(0.028298634203859765, 0.17592070825377587, 0.05600156774233099)","(0.976995514215551, -0.2132540967225196, 0.0015669823717636407)",-0.00011182810826434627,124.51291005433941,True,"(0.07795514325974538, 0.11811647174486918, 0.023998432257669008)","(-0.9769955142155496, 0.21325409672252513, -0.001566982371769519)",0.0001051379905841676,12.36004292513986
32,Move,"(0.0756, 0.0, -0.0005)","(0.0, 0.10392213965149837, 0.0)","(0.05752048228926902, 0.15379780367927093, 0.048174080986656195)","(0.005228103693222828, -0.01249141851633079, -0.29719830975264594)","[0.054293778769652926, -0.0050806220462977225, 0.00011703816243911064]","[-0.026750000193715096, 0.05299999937415123, 0.03999999910593033]","[0.0, 0.0, -0.04795669634852642]","[-0.023298442363739014, 0.12491722404956818, 0.03999999910593033]","[0.0, 0.0, -0.6711118558741844]","[0.026750000193715096, 0.05299999937415123, 0.03999999910593033]","[0.0, 0.0, -0.9485437608972368]","[0.08525486290454865, 0.09496641904115677, 0.03999999910593033]","[0.0, 0.0, -0.28096238370391335]",-0.054651661205480026,-1.6067933341704854,"(0.0, 0.0, 0.0, 0.0, 0.0, 0.0)",-19.469636407577266,-0.6166146065018014,1.5697373242014463,"(0.0, 0.0, 0.0, 0.0, 0.0, 0.0)",-10.266337307057626,-0.9511662925671104,-0.6294001414100574,"(0.0, 0.0, 0.0, 0.0, 0.0, 0.0)",14.660372631831668,0.6634762693507882,-0.9852423560209267,"(0.0, 0.0, 0.0, 0.0, 0.0, 0.0)",6.522106919849113,True,"(0.031550576702708485, 0.17515345090935522, 0.023995053156006304)","(0.9621624508322228, -0.2724315592240636, -0.004946084034481474)",-0.0005542588825440736,119.73482965575036,True,"(0.07927061404171294, 0.11750820194286618, 0.023998432257669008)","(-0.9769955142155496, 0.21325409672252513, -0.001566982371769519)",5.547580344329826e-05,36.9127071941521
33,Move,"(0.0741, 0.0, -0.0015)","(0.0, 0.1033252370473163, 0.0)","(0.05992011924721926, 0.153375016099249, 0.04831776590956887)","(-0.002023104522372844, -0.009223780807405327, -0.31697938902515205)","[0.05669341572760316, -0.00550340962631965, 0.00026072308535178557]","[-0.026750000193715096, 0.05299999937415123, 0.03999999910593033]","[0.0, 0.0, -0.08473639718021166]","[-0.020656278356909752, 0.12474166601896286, 0.03999999910593033]","[0.0, 0.0, -0.6717606329926638]","[0.026750000193715096, 0.05299999937415123, 0.03999999910593033]","[0.0, 0.0, -0.9613179763443266]","[0.08578616380691528, 0.09421566873788834, 0.03999999910593033]","[0.0, 0.0, -0.3181975861987734]",-0.09115567669750407,-1.5406272222008313,"(0.0, 0.0, 0.0, 0.0, 0.0, 0.0)",-22.794873697714642,-0.5799877018181081,1.6887756446479394,"(0.0, 0.0, 0.0, 0.0, 0.0, 0.0)",-11.394957282971651,-0.9634148142622939,-0.5032403074252718,"(0.0, 0.0, 0.0, 0.0, 0.0, 0.0)",16.42968759453932,0.6391238370364302,-0.9591703193108971,"(0.0, 0.0, 0.0, 0.0, 0.0, 0.0)",6.807629860711637,True,"(0.034225322001592284, 0.17494229841857528, 0.023995053156006304)","(0.9621624508322228, -0.2724315592240636, -0.004946084034481474)",-0.00042165936599433793,162.07536988063566,True,"(0.09691539171758327, 0.16635910381080382, 0.023988351951694534)","(-0.954660623082658, 0.29746837715900265, -0.01164728834624543)",-0.0001252607655147529,80.96377208695158
