OSUrobotics/InHand-Manipulation/AnalyseData/Data/Trial Data/Better/new_hand_human_sub1_2v2_c_n_1_kpNone_kdNone_dp5_step5_save_data.csv
,Phase,human_cube_pos,human_cube_orn,Cube_Pos,Cube_Orn,Cube_pos_in_start_pos,b'l_prox_pin'_link_pos,b'l_prox_pin'_link_orn,b'l_distal_pin'_link_pos,b'l_distal_pin'_link_orn,b'r_prox_pin'_link_pos,b'r_prox_pin'_link_orn,b'r_distal_pin'_link_pos,b'r_distal_pin'_link_orn,b'l_prox_pin'_joint_angle,b'l_prox_pin'_joint_vel,b'l_prox_pin'_joint_react_forces,b'l_prox_pin'_joint_motor_torque,b'l_distal_pin'_joint_angle,b'l_distal_pin'_joint_vel,b'l_distal_pin'_joint_react_forces,b'l_distal_pin'_joint_motor_torque,b'r_prox_pin'_joint_angle,b'r_prox_pin'_joint_vel,b'r_prox_pin'_joint_react_forces,b'r_prox_pin'_joint_motor_torque,b'r_distal_pin'_joint_angle,b'r_distal_pin'_joint_vel,b'r_distal_pin'_joint_react_forces,b'r_distal_pin'_joint_motor_torque,in_contact_l,contact_point_l_dist,contact_normal_l_dist,contact_distance_l_dist,contact_norm_force_l_dist,in_contact_r,contact_point_r_dist,contact_normal_r_dist,contact_distance_r_dist,contact_norm_force_r_dist
0,Open,,,,,,"[-0.026750000193715096, 0.05299999937415123, 0.03999999910593033]","[0.0, -0.0, 0.42755761853039154]","[-0.056604765355587006, 0.1185186430811882, 0.03999999910593033]","[0.0, -0.0, 0.4463066270391506]","[0.026750000193715096, 0.05299999937415123, 0.03999999910593033]","[0.0, 0.0, -0.42757404208311445]","[0.05660583823919296, 0.1185181587934494, 0.03999999910593033]","[0.0, 0.0, -0.4465272228574986]",0.5418018724257314,27.418616735313837,"(0.0, 0.0, 0.0, 0.0, 0.0, 0.0)",-4.412236817968903,0.016874447698417276,-0.44988750389777044,"(0.0, 0.0, 0.0, 0.0, 0.0, 0.0)",-0.3112578673856835,-0.5418166170859073,-27.418223544375806,"(0.0, 0.0, 0.0, 0.0, 0.0, 0.0)",4.412120589674461,-0.017058187988154127,0.4547872631353701,"(0.0, 0.0, 0.0, 0.0, 0.0, 0.0)",0.31119999541872967,False,,,,,False,,,,
1,Open,,,,,,"[-0.026750000193715096, 0.05299999937415123, 0.03999999910593033]","[0.0, -0.0, 0.8953992050914552]","[-0.08294302970170975, 0.09801492840051651, 0.03999999910593033]","[0.0, -0.0, 0.9064715399310761]","[0.026750000193715096, 0.05299999937415123, 0.03999999910593033]","[0.0, 0.0, -0.8954089117450801]","[0.08294346183538437, 0.09801438450813293, 0.03999999910593033]","[0.0, 0.0, -0.9066016844299951]",0.9628592876486701,16.190418996035465,"(0.0, 0.0, 0.0, 0.0, 0.0, 0.0)",-2.616982039675733,0.009965290062605858,-0.26568209241480656,"(0.0, 0.0, 0.0, 0.0, 0.0, 0.0)",-0.18775783729375353,-0.9628679942230576,-16.190186820718473,"(0.0, 0.0, 0.0, 0.0, 0.0, 0.0)",2.6169116334278195,-0.010073786659150813,0.26857534621184953,"(0.0, 0.0, 0.0, 0.0, 0.0, 0.0)",0.187722108909745,False,,,,,False,,,,
2,Open,,,,,,"[-0.026750000193715096, 0.05299999937415123, 0.03999999910593033]","[0.0, -0.0, 1.17165497759142]","[-0.09309044480323792, 0.08098116517066956, 0.03999999910593033]","[0.0, -0.0, 1.1781937273122836]","[0.026750000193715096, 0.05299999937415123, 0.03999999910593033]","[0.0, 0.0, -1.1716605985979762]","[0.09309060126543045, 0.08098078519105911, 0.03999999910593033]","[0.0, 0.0, -1.178270796658152]",1.2114894807636634,9.56028051296898,"(0.0, 0.0, 0.0, 0.0, 0.0, 0.0)",-1.549346412635057,0.005885062316220725,-0.15689973638119079,"(0.0, 0.0, 0.0, 0.0, 0.0, 0.0)",-0.11225090666269867,-1.2114946219087734,-9.560143415766044,"(0.0, 0.0, 0.0, 0.0, 0.0, 0.0)",1.5493042197033076,-0.00594912834521185,0.1586081706180975,"(0.0, 0.0, 0.0, 0.0, 0.0, 0.0)",0.11222926703597672,False,,,,,False,,,,
3,Open,,,,,,"[-0.026750000193715096, 0.05299999937415123, 0.03999999910593033]","[0.0, -0.0, 1.3347813147466918]","[-0.09675397723913193, 0.06983575969934464, 0.03999999910593033]","[0.0, -0.0, 1.3386449621367835]","[0.026750000193715096, 0.05299999937415123, 0.03999999910593033]","[0.0, 0.0, -1.3347844615433213]","[0.0967540368437767, 0.06983552873134613, 0.03999999910593033]","[0.0, 0.0, -1.3386905382854437]",1.3583031234961356,5.645250040103052,"(0.0, 0.0, 0.0, 0.0, 0.0, 0.0)",-0.9162890978823036,0.0034783869891320215,-0.09247571818598516,"(0.0, 0.0, 0.0, 0.0, 0.0, 0.0)",-0.06677007440367574,-1.3583061592909116,-5.645169085575695,"(0.0, 0.0, 0.0, 0.0, 0.0, 0.0)",0.9162639666346021,-0.003516216695348753,0.09348456497972772,"(0.0, 0.0, 0.0, 0.0, 0.0, 0.0)",0.06675710630673855,False,,,,,False,,,,
4,Open,,,,,,"[-0.026750000193715096, 0.05299999937415123, 0.03999999910593033]","[0.0, -0.0, 1.4311058207082674]","[-0.09804865717887878, 0.06302504986524582, 0.03999999910593033]","[0.0, -0.0, 1.433390691262394]","[0.026750000193715096, 0.05299999937415123, 0.03999999910593033]","[0.0, 0.0, -1.4311075924426346]","[0.09804867953062057, 0.06302490830421448, 0.03999999910593033]","[0.0, 0.0, -1.433417470845748]",1.4449951113932331,3.333463696180452,"(0.0, 0.0, 0.0, 0.0, 0.0, 0.0)",-0.5415503506795546,0.0020570753203455715,-0.05468855210882702,"(0.0, 0.0, 0.0, 0.0, 0.0, 0.0)",-0.039594115216637325,-1.4449969039996904,-3.3334158933415914,"(0.0, 0.0, 0.0, 0.0, 0.0, 0.0)",0.541535435877482,-0.002079412775410495,0.055284250111531166,"(0.0, 0.0, 0.0, 0.0, 0.0, 0.0)",0.03958639191865308,False,,,,,False,,,,
5,Open,,,,,,"[-0.026750000193715096, 0.05299999937415123, 0.03999999910593033]","[0.0, -0.0, 1.4879842849605203]","[-0.09850326180458069, 0.05895565450191498, 0.03999999910593033]","[0.0, -0.0, 1.4893357278409396]","[0.026750000193715096, 0.05299999937415123, 0.03999999910593033]","[0.0, 0.0, -1.4879853833286059]","[0.09850326925516129, 0.05895556882023811, 0.03999999910593033]","[0.0, 0.0, -1.4893513332680077]",1.4961858633265903,1.9683769779575933,"(0.0, 0.0, 0.0, 0.0, 0.0, 0.0)",-0.31995094896823073,0.0012165319928285922,-0.03234212113369103,"(0.0, 0.0, 0.0, 0.0, 0.0, 0.0)",-0.02343792779000599,-1.4961869218427772,-1.9683487508592754,"(0.0, 0.0, 0.0, 0.0, 0.0, 0.0)",0.31994211580738524,-0.0012297216752996233,0.03269386530715718,"(0.0, 0.0, 0.0, 0.0, 0.0, 0.0)",0.02343334437795369,False,,,,,False,,,,
6,Open,,,,,,"[-0.026750000193715096, 0.05299999937415123, 0.03999999910593033]","[0.0, -0.0, 1.5215704989376362]","[-0.09866278618574142, 0.05654282495379448, 0.03999999910593033]","[0.0, -0.0, 1.522369838325666]","[0.026750000193715096, 0.05299999937415123, 0.03999999910593033]","[0.0, 0.0, -1.5215710825913402]","[0.09866278618574142, 0.0565427765250206, 0.03999999910593033]","[0.0, 0.0, -1.522379029767931]",1.5264134904357183,1.1623069217141797,"(0.0, 0.0, 0.0, 0.0, 0.0, 0.0)",-0.18898727227709852,0.000719444125508032,-0.019126791845346432,"(0.0, 0.0, 0.0, 0.0, 0.0, 0.0)",-0.013859938289241243,-1.5264141154789415,-1.162290253894895,"(0.0, 0.0, 0.0, 0.0, 0.0, 0.0)",0.18898204730565804,-0.0007272322869396521,0.019334487584604668,"(0.0, 0.0, 0.0, 0.0, 0.0, 0.0)",0.013857223880827028,False,,,,,False,,,,
7,Close,,,"(1.2478112216283415e-07, 0.16999960627914334, 0.0003375139776509844)","(1.5703757789650807, 0.0001088681168706304, -5.122612185789874e-06)",,"[-0.026750000193715096, 0.05299999937415123, 0.03999999910593033]","[0.0, -0.0, 1.2785329680082034]","[-0.09569678455591202, 0.07374466955661774, 0.03999999910593033]","[0.0, -0.0, 1.0351044933740032]","[0.026750000193715096, 0.05299999937415123, 0.03999999910593033]","[0.0, 0.0, -1.2785333261376617]","[0.09569679200649261, 0.07374463975429535, 0.03999999910593033]","[0.0, 0.0, -1.0351099865887758]",1.2106796019673873,-16.28478938579699,"(0.0, 0.0, 0.0, 0.0, 0.0, 0.0)",2.809472854136235,-0.3090860149933808,-15.757821278062295,"(0.0, 0.0, 0.0, 0.0, 0.0, 0.0)",0.3661538009495806,-1.2106799710491603,16.284799227977608,"(0.0, 0.0, 0.0, 0.0, 0.0, 0.0)",-2.8094757422584213,0.30908141619234186,15.75794391320213,"(0.0, 0.0, 0.0, 0.0, 0.0, 0.0)",-0.3661552191151056,False,,,,,False,,,,
8,Close,,,"(3.0991841452431125e-07, 0.1699991530873768, 0.0005600347089338349)","(1.5707725584893357, 0.0003276471180493337, -1.5390016504502985e-05)",,"[-0.026750000193715096, 0.05299999937415123, 0.03999999910593033]","[0.0, -0.0, 1.0006670909649218]","[-0.08736184239387512, 0.09186135232448578, 0.03999999910593033]","[0.0, -0.0, 0.48836557737534114]","[0.026750000193715096, 0.05299999937415123, 0.03999999910593033]","[0.0, 0.0, -1.0006671906734346]","[0.08736184984445572, 0.09186133742332458, 0.03999999910593033]","[0.0, 0.0, -0.4883688154364048]",0.9606001981650306,-9.616005284561718,"(0.0, 0.0, 0.0, 0.0, 0.0, 0.0)",1.667253264949997,-0.5510712009946406,-9.304767973476249,"(0.0, 0.0, 0.0, 0.0, 0.0, 0.0)",0.2218037572572205,-0.9606004161041268,9.616011096270952,"(0.0, 0.0, 0.0, 0.0, 0.0, 0.0)",-1.6672550198735234,0.5510684854486152,9.30484038803693,"(0.0, 0.0, 0.0, 0.0, 0.0, 0.0)",-0.22180464092959223,False,,,,,False,,,,
9,Close,,,"(2.933853975158492e-07, 0.16999904048792538, 0.0007066062154399696)","(1.5708337628024795, 0.00026866528465535426, -1.404448202163588e-05)",,"[-0.026750000193715096, 0.05299999937415123, 0.03999999910593033]","[0.0, -0.0, 0.8365897781630613]","[-0.08020010590553284, 0.1012398824095726, 0.03999999910593033]","[0.0, -0.0, 0.16552144688028117]","[0.026750000193715096, 0.05299999937415123, 0.03999999910593033]","[0.0, 0.0, -0.8365899294750984]","[0.08020011335611343, 0.101239874958992, 0.03999999910593033]","[0.0, 0.0, -0.1655233971102189]",0.8129308110141114,-5.678154960376304,"(0.0, 0.0, 0.0, 0.0, 0.0, 0.0)",0.9873874064507416,-0.6939616573792659,-5.494397555666588,"(0.0, 0.0, 0.0, 0.0, 0.0, 0.0)",0.13292457281458034,-0.8129309397049683,5.678158392132489,"(0.0, 0.0, 0.0, 0.0, 0.0, 0.0)",-0.987388459985631,0.6939600538790082,5.494440315842426,"(0.0, 0.0, 0.0, 0.0, 0.0, 0.0)",-0.13292511074891808,False,,,,,False,,,,
10,Close,,,"(1.9902477861274505e-07, 0.16999905216518962, 0.0008031506137060285)","(1.5708213694470277, 0.0001751880104672085, -1.4031272711042213e-05)",,"[-0.026750000193715096, 0.05299999937415123, 0.03999999910593033]","[0.0, -0.0, 0.7397039398326887]","[-0.075282983481884, 0.10618411004543304, 0.03999999910593033]","[0.0, 0.0, -0.025114755601520013]","[0.026750000193715096, 0.05299999937415123, 0.03999999910593033]","[0.0, 0.0, -0.7397039829241547]","[0.0752829909324646, 0.10618410259485245, 0.03999999910593033]","[0.0, -0.0, 0.025113617980755978]",0.7257335145957226,-3.3528937225526034,"(0.0, 0.0, 0.0, 0.0, 0.0, 0.0)",0.5840196078844049,-0.7783380408184963,-3.244652289205478,"(0.0, 0.0, 0.0, 0.0, 0.0, 0.0)",0.07914031685893824,-0.7257335905863868,3.3528957489703144,"(0.0, 0.0, 0.0, 0.0, 0.0, 0.0)",-0.5840202358821991,0.778337093974245,3.2446775397467595,"(0.0, 0.0, 0.0, 0.0, 0.0, 0.0)",-0.07914064000385382,False,,,,,False,,,,
11,Close,,,"(1.3069317882946781e-07, 0.16999905849316785, 0.0008666025578373041)","(1.570813038524343, 0.0001076496945073061, -1.4014808324094979e-05)",,"[-0.026750000193715096, 0.05299999937415123, 0.03999999910593033]","[0.0, -0.0, 0.6824937890365349]","[-0.07216256856918335, 0.10887216031551361, 0.03999999910593033]","[0.0, 0.0, -0.137687120736303]","[0.026750000193715096, 0.05299999937415123, 0.03999999910593033]","[0.0, 0.0, -0.6824937890365349]","[0.07216257601976395, 0.10887216031551361, 0.03999999910593033]","[0.0, -0.0, 0.1376864353718678]",0.6742443830336282,-1.9798502142300851,"(0.0, 0.0, 0.0, 0.0, 0.0, 0.0)",0.34523008433021124,-0.8281635344937409,-1.9158370237869804,"(0.0, 0.0, 0.0, 0.0, 0.0, 0.0)",0.046989708289177236,-0.6742444279053555,1.9798514108094807,"(0.0, 0.0, 0.0, 0.0, 0.0, 0.0)",-0.3452304573414294,0.8281629754068567,1.9158519335829844,"(0.0, 0.0, 0.0, 0.0, 0.0, 0.0)",-0.04698990114977892,False,,,,,False,,,,
12,Close,,,"(8.555941999099156e-08, 0.16999906193922792, 0.000908421947806545)","(1.5708075491537519, 6.311807488844542e-05, -1.4000595358663434e-05)",,"[-0.026750000193715096, 0.05299999937415123, 0.03999999910593033]","[0.0, -0.0, 0.6487117277688945]","[-0.070249542593956, 0.11037412285804749, 0.03999999910593033]","[0.0, 0.0, -0.20415830575541527]","[0.026750000193715096, 0.05299999937415123, 0.03999999910593033]","[0.0, 0.0, -0.6487117277688945]","[0.070249542593956, 0.11037411540746689, 0.03999999910593033]","[0.0, -0.0, 0.20415788801885543]",0.6438405657375271,-1.1690817530007243,"(0.0, 0.0, 0.0, 0.0, 0.0, 0.0)",0.20397674457790932,-0.8575834812137779,-1.1312243968345508,"(0.0, 0.0, 0.0, 0.0, 0.0, 0.0)",0.027828964636992654,-0.6438405922338334,1.1690824595688907,"(0.0, 0.0, 0.0, 0.0, 0.0, 0.0)",-0.20397696556653716,0.8575831510875931,1.1312332006820753,"(0.0, 0.0, 0.0, 0.0, 0.0, 0.0)",-0.027829079200348807,False,,,,,False,,,,
13,Close,,,"(5.567361934631568e-08, 0.16999906349286917, 0.0009359839309479349)","(1.5708039321322358, 3.37560108188707e-05, -1.3987283228090085e-05)",,"[-0.026750000193715096, 0.05299999937415123, 0.03999999910593033]","[0.0, -0.0, 0.62876384308693]","[-0.06909646838903427, 0.11123037338256836, 0.03999999910593033]","[0.0, 0.0, -0.24340789693353326]","[0.026750000193715096, 0.05299999937415123, 0.03999999910593033]","[0.0, 0.0, -0.62876384308693]","[0.06909646838903427, 0.11123037338256836, 0.03999999910593033]","[0.0, -0.0, 0.24340764580603796]",0.6258874156623524,-0.6903310843293964,"(0.0, 0.0, 0.0, 0.0, 0.0, 0.0)",0.12048853373387189,-0.8749547691894786,-0.6679421640099914,"(0.0, 0.0, 0.0, 0.0, 0.0, 0.0)",0.016461146679105913,-0.6258874313081562,0.6903315015508323,"(0.0, 0.0, 0.0, 0.0, 0.0, 0.0)",-0.12048866447898966,0.8749545742586229,0.6679473624521103,"(0.0, 0.0, 0.0, 0.0, 0.0, 0.0)",-0.016461214564379854,False,,,,,False,,,,
14,Move,,,"(0.0002849434880139787, 0.17128526654835666, 0.0018667775255450016)","(1.529867145493542, 0.001236551690390913, -0.0026252758006009144)","[0.0, 0.0, 0.0]","[-0.026750000193715096, 0.05299999937415123, 0.03999999910593033]","[0.0, -0.0, 0.5674368798319164]","[-0.06544800847768784, 0.113716259598732, 0.03999999910593033]","[0.0, 0.0, -0.23086444862254737]","[0.026750000193715096, 0.05299999937415123, 0.03999999910593033]","[0.0, 0.0, -0.5672775113046467]","[0.06543833017349243, 0.11372242867946625, 0.03999999910593033]","[0.0, -0.0, 0.2338230653212545]",0.5526433844132694,-3.5504372063580854,"(0.0, 0.0, 0.0, 0.0, 0.0, 0.0)",-74.66311326449657,-0.7739535469156117,5.843468067207706,"(0.0, 0.0, 0.0, 0.0, 0.0, 0.0)",-38.567738900473906,-0.5523653530093062,3.5789086898164406,"(0.0, 0.0, 0.0, 0.0, 0.0, 0.0)",70.97380681712595,0.7784689212282292,-5.431581853362886,"(0.0, 0.0, 0.0, 0.0, 0.0, 0.0)",36.631671368390464,True,"(-0.031139027298926508, 0.18549673152317092, 0.03999924353386678)","(0.9999971505660776, -0.0022642037706561637, -0.0007564661332230728)",-0.000503181178828863,565.4925793008347,True,"(0.030917119596597424, 0.1854085662421605, 0.04000075646613322)","(-0.9999971505660776, 0.002264203770598743, 0.0007564661332168607)",-0.0013606486484191646,538.0249494895718
15,Move,"(-0.0031000000000000003, 0.0, -0.0002)","(0.0, 0.02079385270826044, 0.0)","(-0.00011316720712258132, 0.1712260513827039, 0.0031705022446708903)","(1.4919626920405629, -0.0027170470868987896, -0.010202925192614294)","[-0.00039811069513656, -5.921516565277063e-05, 0.0013037247191258886]","[-0.026750000193715096, 0.05299999937415123, 0.03999999910593033]","[0.0, -0.0, 0.546420820759122]","[-0.06416354328393936, 0.11451607197523117, 0.03999999910593033]","[0.0, 0.0, -0.21092560805557503]","[0.026750000193715096, 0.05299999937415123, 0.03999999910593033]","[0.0, 0.0, -0.5424795647160507]","[0.06392080336809158, 0.11466304957866669, 0.03999999910593033]","[0.0, -0.0, 0.22060540600780576]",0.5483353850436162,0.4594927878680396,"(0.0, 0.0, 0.0, 0.0, 0.0, 0.0)",-0.2179311310051963,-0.7588397983798807,-0.35840773669975035,"(0.0, 0.0, 0.0, 0.0, 0.0, 0.0)",-0.08693506833195468,-0.5434419128745638,-0.23095764962241955,"(0.0, 0.0, 0.0, 0.0, 0.0, 0.0)",0.8200688566869601,0.764423281909082,0.3211861722870347,"(0.0, 0.0, 0.0, 0.0, 0.0, 0.0)",0.42891708009749696,True,"(-0.031292382280628916, 0.18694090895842097, 0.04000253939487526)","(0.9999669089769893, -0.007728675479865357, 0.002539394875263316)",-0.0006244306172022536,1.1166995767515189,True,"(0.030350012747878158, 0.18679144812254997, 0.03999746060512474)","(-0.9999669089769893, 0.00772867547987907, -0.0025393948752574324)",-0.0016540703045198374,5.896146390010143
16,Move,"(0.0029, 0.0, 0.0011)","(0.0, 0.013110913340981403, 0.0)","(-0.00010738054911100763, 0.17121984020791858, 0.0030659298396924412)","(1.4986560871512085, -0.0013191312354588448, -0.016139930072617676)","[-0.00039232403712498635, -6.542634043807394e-05, 0.0011991523141474396]","[-0.026750000193715096, 0.05299999937415123, 0.03999999910593033]","[0.0, -0.0, 0.5492022638305164]","[-0.06433450430631638, 0.11441176384687424, 0.03999999910593033]","[0.0, 0.0, -0.2103053351098605]","[0.026750000193715096, 0.05299999937415123, 0.03999999910593033]","[0.0, 0.0, -0.5479740311010713]","[0.06425904482603073, 0.1144578829407692, 0.03999999910593033]","[0.0, -0.0, 0.21729886671994245]",0.5489682758936009,-0.05616066761152362,"(0.0, 0.0, 0.0, 0.0, 0.0, 0.0)",-0.4181595284859789,-0.7593972224026623,0.026494693112736816,"(0.0, 0.0, 0.0, 0.0, 0.0, 0.0)",-0.21458343378851433,-0.5489614685927501,-0.2369866279058526,"(0.0, 0.0, 0.0, 0.0, 0.0, 0.0)",0.05143196257568715,0.7651567528267061,-0.02786984301076881,"(0.0, 0.0, 0.0, 0.0, 0.0, 0.0)",0.009327346987457475,True,"(-0.03150836719917234, 0.18684828741284604, 0.040001444024509426)","(0.9998740790401969, -0.015803191346505548, 0.0014440245094247222)",-0.00041515388093356424,3.1699040925922057,True,"(0.030926995642432266, 0.18670166339272498, 0.039998555975490575)","(-0.9998740790401967, 0.0158031913465086, -0.0014440245094266245)",-0.0010750306188056589,0.10150783949110007
17,Move,"(0.0143, 0.0, 0.0024)","(0.0, 0.04689525167183564, 0.0)","(0.0009103903993475286, 0.17153571951706817, 0.0019355745845593807)","(1.5415815010814344, 0.003823515782583795, -0.028842260918246425)","[0.00062544691133355, 0.000250452968711512, 6.87970590143791e-05]","[-0.026750000193715096, 0.05299999937415123, 0.03999999910593033]","[0.0, -0.0, 0.5413938542084016]","[-0.06385383754968643, 0.11470336467027664, 0.03999999910593033]","[0.0, 0.0, -0.2178067706477639]","[0.026750000193715096, 0.05299999937415123, 0.03999999910593033]","[0.0, 0.0, -0.5609341918684073]","[0.06505237519741058, 0.11396661400794983, 0.03999999910593033]","[0.0, -0.0, 0.20413680041797294]",0.5394104596059697,-0.47602256228424056,"(0.0, 0.0, 0.0, 0.0, 0.0, 0.0)",-0.2859667057314516,-0.7592152366208714,-0.003501014614427992,"(0.0, 0.0, 0.0, 0.0, 0.0, 0.0)",-0.18064361027058015,-0.5639155989733071,-0.7155361030059905,"(0.0, 0.0, 0.0, 0.0, 0.0, 0.0)",0.11648151691186698,0.7650795864861981,0.0020577690802126014,"(0.0, 0.0, 0.0, 0.0, 0.0, 0.0)",0.00865669229633712,True,"(-0.030485340637329605, 0.18688817895032006, 0.03999681979558354)","(0.999637563904981, -0.026732510731023843, -0.003180204416457889)",-0.0002773276194588482,2.697628719000014,True,"(0.03267400521345703, 0.18664061000636006, 0.040003180204416455)","(-0.999637563904981, 0.026732510731023524, 0.0031802044164563914)",-0.0004996182219394001,0.0
18,Move,"(0.0254, 0.0, 0.0083)","(0.0, 0.04296127953784044, 0.0)","(0.00279626815784421, 0.17248913178172476, 0.0010354451296801243)","(1.594239539573896, 0.002544012639478452, -0.06347124719324229)","[0.0025113246698302313, 0.001203865233368101, -0.0008313323958648773]","[-0.026750000193715096, 0.05299999937415123, 0.03999999910593033]","[0.0, -0.0, 0.526093554120714]","[-0.0629054456949234, 0.11526381969451904, 0.03999999910593033]","[0.0, 0.0, -0.2329730468419776]","[0.026750000193715096, 0.05299999937415123, 0.03999999910593033]","[0.0, 0.0, -0.5845827328760123]","[0.06648330390453339, 0.11304385960102081, 0.03999999910593033]","[0.0, -0.0, 0.18050249703520965]",0.5229887263206332,-0.7451609322855198,"(0.0, 0.0, 0.0, 0.0, 0.0, 0.0)",-0.17151461192624917,-0.7590705109330002,-0.0009265248873432941,"(0.0, 0.0, 0.0, 0.0, 0.0, 0.0)",-0.17109365009344454,-0.5894204263760178,-1.1610530285536589,"(0.0, 0.0, 0.0, 0.0, 0.0, 0.0)",0.18901554399339038,0.7650846493697989,-0.00013501022935358264,"(0.0, 0.0, 0.0, 0.0, 0.0, 0.0)",0.014077075677957046,True,"(-0.0284464994524201, 0.1869250229282532, 0.0399937904682755)","(0.9986720742014003, -0.0511422518670751, -0.0062095317244987)",-0.00018975532008562448,2.1821370295551863,True,"(0.0358314671582337, 0.18646351997824756, 0.04000620953172449)","(-0.9986720742014008, 0.05114225186706587, 0.006209531724492742)",0.00048589236657216035,0.0
19,Move,"(0.0319, 0.0, 0.0108)","(0.0, 0.04296127953784044, 0.0)","(0.005367861293738392, 0.1737603311018188, 0.0010499002042857104)","(1.5902367844027165, -0.0013477091275950514, -0.1234198517860949)","[0.005082917805724414, 0.0024750645534621363, -0.0008168773212592912]","[-0.026750000193715096, 0.05299999937415123, 0.03999999910593033]","[0.0, -0.0, 0.505568037399369]","[-0.061619922518730164, 0.11599276214838028, 0.03999999910593033]","[0.0, 0.0, -0.25338571063709325]","[0.026750000193715096, 0.05299999937415123, 0.03999999910593033]","[0.0, 0.0, -0.6142966592432414]","[0.0682496428489685, 0.11183689534664154, 0.03999999910593033]","[0.0, -0.0, 0.15078734231442623]",0.5016315614509814,-0.9447475636224145,"(0.0, 0.0, 0.0, 0.0, 0.0, 0.0)",0.153860425454654,-0.7589655852454692,-0.002846481342943372,"(0.0, 0.0, 0.0, 0.0, 0.0, 0.0)",0.011504602394980093,-0.6198172114953527,-1.3249359210365812,"(0.0, 0.0, 0.0, 0.0, 0.0, 0.0)",0.21568061392278523,0.7650838086291404,-4.522719154003975e-05,"(0.0, 0.0, 0.0, 0.0, 0.0, 0.0)",0.016058664030166887,True,"(-0.025709207352132384, 0.18689490683039553, 0.040001437923259754)","(0.9936736633855163, -0.1122968524523574, 0.001437923259753824)",-0.00012018865859185809,0.0,True,"(0.03979573012101698, 0.18616633958642903, 0.03999856207674024)","(-0.9936736633855171, 0.1122968524523503, -0.0014379232597559848)",0.001372533142864565,0.0
20,Move,"(0.043000000000000003, 0.0, 0.0117)","(0.0, 0.0044209189953016365, 0.0)","(0.008821315925595865, 0.17441379947667549, 0.0008219370623430469)","(1.56716258809524, 0.005002521048357691, -0.1663415663215026)","[0.008536372437581886, 0.003128532928318828, -0.0010448404632019547]","[-0.026750000193715096, 0.05299999937415123, 0.03999999910593033]","[0.0, -0.0, 0.4777470109882702]","[-0.05985413119196892, 0.11693838238716125, 0.03999999910593033]","[0.0, 0.0, -0.28093990669794994]","[0.026750000193715096, 0.05299999937415123, 0.03999999910593033]","[0.0, 0.0, -0.650585952120932]","[0.07035699486732483, 0.11029249429702759, 0.03999999910593033]","[0.0, -0.0, 0.11449778488288345]",0.4722706782910886,-1.3143223094505607,"(0.0, 0.0, 0.0, 0.0, 0.0, 0.0)",-0.011637541145759376,-0.7587040894020489,-0.004115117387911434,"(0.0, 0.0, 0.0, 0.0, 0.0, 0.0)",-0.12690003795695515,-0.6575262841835645,-1.665684472153952,"(0.0, 0.0, 0.0, 0.0, 0.0, 0.0)",0.2711112237851473,0.7650837139607873,2.5244894148456778e-06,"(0.0, 0.0, 0.0, 0.0, 0.0, 0.0)",0.0201741147274596,True,"(-0.022014954149713356, 0.18677428901048307, 0.03943174262366684)","(0.9866733487230579, -0.1626219572057887, -0.0054591166122106086)",-4.0078553633485585e-05,1.7038740652785036,False,,,,
21,Move,"(0.043000000000000003, 0.0, 0.0117)","(0.0, 0.0044209189953016365, 0.0)","(0.011992595093819171, 0.1754053933729995, 0.0019946775276818794)","(1.519536160600568, 0.00015015785882219884, -0.17953757901549086)","[0.011707651605805192, 0.004120126824642856, 0.00012790000213687772]","[-0.026750000193715096, 0.05299999937415123, 0.03999999910593033]","[0.0, -0.0, 0.4139310295534694]","[-0.055709224194288254, 0.11891937255859375, 0.03999999910593033]","[0.0, 0.0, -0.2857094478183081]","[0.026750000193715096, 0.05299999937415123, 0.03999999910593033]","[0.0, 0.0, -0.6056776366188463]","[0.06774099171161652, 0.11219238489866257, 0.03999999910593033]","[0.0, -0.0, 0.10071767615447906]",0.4002393418822796,-3.286004345973129,"(0.0, 0.0, 0.0, 0.0, 0.0, 0.0)",-71.94837046973879,-0.6743706906939546,6.064743931443112,"(0.0, 0.0, 0.0, 0.0, 0.0, 0.0)",-37.89733456842797,-0.5906707844023379,3.601647650505706,"(0.0, 0.0, 0.0, 0.0, 0.0, 0.0)",70.6950204374397,0.6819555542958246,-5.865543152824026,"(0.0, 0.0, 0.0, 0.0, 0.0, 0.0)",37.32965704656381,True,"(-0.01752874956475247, 0.18860528426738443, 0.039996477512106776)","(0.9856835700165714, -0.16856895288999335, -0.0035224878932244978)",-0.0003518286092487783,528.4743952829845,True,"(0.04304592259423423, 0.18787047966966663, 0.040005894989063144)","(-0.9837218107054325, 0.17960135914895314, 0.00589499230482347)",-0.0038422314861375345,523.303821803204
22,Move,"(0.0514, 0.0, 0.009800000000000001)","(0.0, 0.05170537909033201, 0.0)","(0.016622151362691618, 0.1741992247447294, 0.0038461932175031283)","(1.4642566099367067, 0.0010940315959194326, -0.1552995846248845)","[0.01633720787467764, 0.0029139581963727457, 0.0019794156919581266]","[-0.026750000193715096, 0.05299999937415123, 0.03999999910593033]","[0.0, -0.0, 0.36384139743787586]","[-0.05237241089344025, 0.12028664350509644, 0.03999999910593033]","[0.0, 0.0, -0.2915224865247578]","[0.026750000193715096, 0.05299999937415123, 0.03999999910593033]","[0.0, 0.0, -0.6120205585164024]","[0.06811561435461044, 0.1119311973452568, 0.03999999910593033]","[0.0, -0.0, 0.05203194132624244]",0.35733626384495065,-1.561242505749455,"(0.0, 0.0, 0.0, 0.0, 0.0, 0.0)",-1.0852995119613282,-0.6566824609122934,-0.31644251930632034,"(0.0, 0.0, 0.0, 0.0, 0.0, 0.0)",-0.6786208001205961,-0.62141460374077,-2.2545746982480677,"(0.0, 0.0, 0.0, 0.0, 0.0, 0.0)",1.4421179475946941,0.6653217592763762,0.3046267107198541,"(0.0, 0.0, 0.0, 0.0, 0.0, 0.0)",0.6365760104958654,True,"(-0.013786586414548316, 0.1897547822535463, 0.03999883961683151)","(0.9865659461063944, -0.16335938140828446, -0.0011603831684887506)",-0.0004963304328605098,9.703907761209285,True,"(0.04712004545836983, 0.18865753605307972, 0.0400011603772094)","(-0.9865659461063944, 0.16335938140828418, 0.001160383168484815)",-0.0031560162792521294,7.830190278527848
23,Move,"(0.0578, 0.0, 0.007200000000000001)","(0.0, 0.08614596121993615, 0.0)","(0.022510181708011796, 0.17287170664961818, 0.004080371308098704)","(1.4614358590468433, 0.0011739003964174586, -0.1257748712042697)","[0.022225238219997816, 0.0015864401012615215, 0.002213593782553702]","[-0.026750000193715096, 0.05299999937415123, 0.03999999910593033]","[0.0, -0.0, 0.3221558016589264]","[-0.049546077847480774, 0.12129596620798111, 0.03999999910593033]","[0.0, 0.0, -0.3309903165228409]","[0.026750000193715096, 0.05299999937415123, 0.03999999910593033]","[0.0, 0.0, -0.6576546547039628]","[0.07076089084148407, 0.10998281836509705, 0.03999999910593033]","[0.0, -0.0, 0.0037311150585276395]",0.3142652173538803,-1.8937387379131803,"(0.0, 0.0, 0.0, 0.0, 0.0, 0.0)",-3.4189720665664565,-0.6519298498776863,0.29189395230687787,"(0.0, 0.0, 0.0, 0.0, 0.0, 0.0)",-1.7880341965351947,-0.6651469535818003,-1.7981561282533143,"(0.0, 0.0, 0.0, 0.0, 0.0, 0.0)",4.391619194008629,0.6598332337204807,-0.37260428572385074,"(0.0, 0.0, 0.0, 0.0, 0.0, 0.0)",2.413587470464058,True,"(-0.008237024930781676, 0.18926024925322532, 0.03999779474757009)","(0.991587774488437, -0.12941724130419727, -0.002205252429906468)",-0.0003731485420298777,27.085738362261992,True,"(0.05348025131389886, 0.18755200072613298, 0.040002205132183596)","(-0.9915877744883852, 0.12941724130459545, 0.0022052524298857828)",-0.0021276861507511548,30.26467173968275
24,Move,"(0.0606, 0.0, 0.0060999999999999995)","(0.0, 0.0730751904517506, 0.0)","(0.027964650537876758, 0.17239148131680096, 0.0036210029681924463)","(1.4810888976213183, -0.0019459794280357703, -0.12046087517465597)","[0.02767970704986278, 0.0011062147684443024, 0.0017542254426474446]","[-0.026750000193715096, 0.05299999937415123, 0.03999999910593033]","[0.0, -0.0, 0.28061189041303075]","[-0.046689946204423904, 0.12218379974365234, 0.03999999910593033]","[0.0, 0.0, -0.36656258650853096]","[0.026750000193715096, 0.05299999937415123, 0.03999999910593033]","[0.0, 0.0, -0.6971351116625839]","[0.07297571748495102, 0.1082012951374054, 0.03999999910593033]","[0.0, 0.0, -0.043379456686962546]",0.2734692345616349,-1.7142456183074475,"(0.0, 0.0, 0.0, 0.0, 0.0, 0.0)",-3.075999675831453,-0.6461827298794315,0.23803296296187054,"(0.0, 0.0, 0.0, 0.0, 0.0, 0.0)",-1.626242468334446,-0.703921594902904,-1.6287690302376807,"(0.0, 0.0, 0.0, 0.0, 0.0, 0.0)",4.159093685103685,0.6525396827521105,-0.2918207244463536,"(0.0, 0.0, 0.0, 0.0, 0.0, 0.0)",2.2753792219721376,True,"(-0.0029837055615886954, 0.1886786330920992, 0.04000106492529239)","(0.9925406764424524, -0.12190927586234207, 0.001064925292388899)",-0.0002779707989296933,24.521248862696993,True,"(0.0593590787508058, 0.18644415396412023, 0.039998935074707614)","(-0.9925406764424527, 0.12190927586233913, -0.0010649252923846098)",-0.0014918768016121795,28.824198775833015
25,Move,"(0.06620000000000001, 0.0, 0.0008)","(0.0, 0.11190003966236446, 0.0)","(0.03328971521141079, 0.172706001838678, 0.0030199836868870034)","(1.5166753037509866, 5.7893702762765966e-05, -0.12274891541697112)","[0.03300477172339681, 0.0014207352903213566, 0.0011532061613420018]","[-0.026750000193715096, 0.05299999937415123, 0.03999999910593033]","[0.0, -0.0, 0.23725846789030033]","[-0.04367279261350632, 0.12298299372196198, 0.03999999910593033]","[0.0, 0.0, -0.400172022973724]","[0.026750000193715096, 0.05299999937415123, 0.03999999910593033]","[0.0, 0.0, -0.7325586920990939]","[0.07490173727273941, 0.10652952641248703, 0.03999999910593033]","[0.0, 0.0, -0.08999181803593571]",0.22924398129094148,-1.9234805667678467,"(0.0, 0.0, 0.0, 0.0, 0.0, 0.0)",-6.514998919677642,-0.6354180802228547,0.48299206096436803,"(0.0, 0.0, 0.0, 0.0, 0.0, 0.0)",-3.274402294681917,-0.7386234830172937,-1.4555497414102805,"(0.0, 0.0, 0.0, 0.0, 0.0, 0.0)",7.794148066425182,0.6400405852569214,-0.60631031414734,"(0.0, 0.0, 0.0, 0.0, 0.0, 0.0)",4.452709571929847,True,"(0.002247902244781483, 0.1880052669668822, 0.04000057606048875)","(0.992587767964434, -0.12152856060077337, 0.0005760604887522713)",-0.00024000366403907874,50.15075361114438,True,"(0.06493884854797985, 0.18527537623691243, 0.039999423939511246)","(-0.9925877679644328, 0.12152856060078512, -0.0005760604887507107)",-0.001121969223533355,56.319752970984744
26,Move,"(0.0684, 0.0, 0.0012)","(0.0, 0.11190003966236446, 0.0)","(0.03823319589469774, 0.17356930930824435, 0.002401577818235392)","(1.5609873998691877, 0.00032846706013481703, -0.1396020018522958)","[0.03794825240668376, 0.0022840427598876945, 0.0005348002926903904]","[-0.026750000193715096, 0.05299999937415123, 0.03999999910593033]","[0.0, -0.0, 0.19389096169788186]","[-0.04062284529209137, 0.12365086376667023, 0.03999999910593033]","[0.0, 0.0, -0.4304247263330414]","[0.026750000193715096, 0.05299999937415123, 0.03999999910593033]","[0.0, 0.0, -0.7648398219914339]","[0.07660434395074844, 0.1049475148320198, 0.03999999910593033]","[0.0, 0.0, -0.13583658402911986]",0.1863338109698836,-1.8137173715563832,"(0.0, 0.0, 0.0, 0.0, 0.0, 0.0)",-8.883092671777447,-0.6210062160112373,0.7942689935897282,"(0.0, 0.0, 0.0, 0.0, 0.0, 0.0)",-4.914504223971871,-0.7704832828019911,-1.3544380236878872,"(0.0, 0.0, 0.0, 0.0, 0.0, 0.0)",9.042885201071732,0.6265344943348229,-0.5924901487331724,"(0.0, 0.0, 0.0, 0.0, 0.0, 0.0)",4.341890927745042,True,"(0.007246355472215943, 0.18727335038478626, 0.039998425798922384)","(0.9911790555471711, -0.13252019368981147, -0.0015742010776161402)",-0.00019771517374570334,65.48110659282672,True,"(0.07024788403127673, 0.1839757754258577, 0.04156060604869576)","(-0.9923727276185411, 0.12327137835402889, 0.0007326374509967915)",-0.0008408002825935886,48.51101915708486
27,Move,"(0.0692, 0.0, 0.0005)","(0.0, 0.11653563415566137, 0.0)","(0.042282975622885334, 0.17363840050092, 0.002120699229662261)","(1.5877248788933265, -0.002307445440910236, -0.17559098445778187)","[0.041998032134871355, 0.002353133952563341, 0.00025392170411725956]","[-0.026750000193715096, 0.05299999937415123, 0.03999999910593033]","[0.0, -0.0, 0.15253986420303292]","[-0.03769032657146454, 0.12416396290063858, 0.03999999910593033]","[0.0, 0.0, -0.4513543722309121]","[0.026750000193715096, 0.05299999937415123, 0.03999999910593033]","[0.0, 0.0, -0.7938854505561057]","[0.07809194922447205, 0.10347775369882584, 0.03999999910593033]","[0.0, 0.0, -0.1790397590676635]",0.1452796467366456,-1.7424504696490575,"(0.0, 0.0, 0.0, 0.0, 0.0, 0.0)",-10.682410610299494,-0.5999938275079945,0.9361125863829909,"(0.0, 0.0, 0.0, 0.0, 0.0, 0.0)",-6.051690713333848,-0.7988235485984087,-1.1851369225900619,"(0.0, 0.0, 0.0, 0.0, 0.0, 0.0)",10.220024170690444,0.6123173906729937,-0.606796394937279,"(0.0, 0.0, 0.0, 0.0, 0.0, 0.0)",4.663487610005514,True,"(0.01149743414635978, 0.18675560274510336, 0.040001886611918745)","(0.9857288077115354, -0.16833050330544033, 0.00188661191874198)",-0.00017825934063781494,77.3715457865826,True,"(0.07515463625700529, 0.18270680568578768, 0.04156060604869576)","(-0.9923727276185411, 0.12327137835402889, 0.0007326374509967915)",-0.0002655317678885233,48.7371450005426
28,Move,"(0.0698, 0.0, 0.0009000000000000001)","(0.0, 0.1033252370473163, 0.0)","(0.04598082907603392, 0.1727602787454379, 0.0018168674378433913)","(1.599010265267849, 0.0028795945855508024, -0.22930290533516817)","[0.045695885588019944, 0.001475012197081238, -4.991008770161031e-05]","[-0.026750000193715096, 0.05299999937415123, 0.03999999910593033]","[0.0, -0.0, 0.1121122074621482]","[-0.03480517864227295, 0.12454798817634583, 0.03999999910593033]","[0.0, 0.0, -0.47506352099862154]","[0.026750000193715096, 0.05299999937415123, 0.03999999910593033]","[0.0, 0.0, -0.8194435594807735]","[0.07936516404151917, 0.10214921087026596, 0.03999999910593033]","[0.0, 0.0, -0.21532840504159204]",0.10503249744076978,-1.6991280362325099,"(0.0, 0.0, 0.0, 0.0, 0.0, 0.0)",-11.053649796860537,-0.5827362601896058,1.0654649532898577,"(0.0, 0.0, 0.0, 0.0, 0.0, 0.0)",-6.333349786962052,-0.8238950758888823,-1.0683501654607965,"(0.0, 0.0, 0.0, 0.0, 0.0, 0.0)",10.061027949669734,0.6015622529096141,-0.612708627994741,"(0.0, 0.0, 0.0, 0.0, 0.0, 0.0)",4.1489670966473895,True,"(0.01584672484824802, 0.18592797080310178, 0.03999683483761634)","(0.9755780247752722, -0.21963036976398229, -0.003165162383654196)",-0.00018651841027489117,79.72892327547576,True,"(0.06934135616961494, 0.1358822555369467, 0.02904237538970055)","(-0.9794996031266279, 0.20144513352278154, -0.0006210110847032079)",-0.0004989962797357539,40.16904970091951
29,Move,"(0.0693, 0.0, 0.0)","(0.0, 0.11257024609513026, 0.0)","(0.04923072771056499, 0.17229792439317151, 0.001800727244866871)","(1.5966070349114052, 0.0037706978314619387, -0.2700069327364765)","[0.04894578422255101, 0.001012657844814857, -6.60502806781307e-05]","[-0.026750000193715096, 0.05299999937415123, 0.03999999910593033]","[0.0, -0.0, 0.07201189284340191]","[-0.03193037584424019, 0.12481339275836945, 0.03999999910593033]","[0.0, 0.0, -0.486915556645865]","[0.026750000193715096, 0.05299999937415123, 0.03999999910593033]","[0.0, 0.0, -0.841380525167035]","[0.08043059706687927, 0.10098326206207275, 0.03999999910593033]","[0.0, 0.0, -0.2535691177112586]",0.06484413823622129,-1.7202603156902259,"(0.0, 0.0, 0.0, 0.0, 0.0, 0.0)",-15.37021270328672,-0.5535300752200786,1.2953453897583327,"(0.0, 0.0, 0.0, 0.0, 0.0, 0.0)",-8.819880986126227,-0.845005883381796,-0.8701019069154371,"(0.0, 0.0, 0.0, 0.0, 0.0, 0.0)",13.14624920407492,0.5847143110197471,-0.7432916206202488,"(0.0, 0.0, 0.0, 0.0, 0.0, 0.0)",5.392287402629204,True,"(0.019438145361240514, 0.18556002607990124, 0.03999632475651725)","(0.9656255129459286, -0.259911256649755, -0.0036752434827487636)",-0.00018023148861249046,109.69109283454137,True,"(0.07170377756619412, 0.13507487423313302, 0.02904237538970055)","(-0.9794996031266279, 0.20144513352278154, -0.0006210110847032079)",-8.718351164211322e-06,57.90071081375434
30,Move,"(0.0725, 0.0, 0.0007)","(0.0, 0.09931272509698134, 0.0)","(0.0530475483352153, 0.17164807495760132, 0.0016890964584948965)","(1.595448702020824, 0.00032972734461572765, -0.28769949833404385)","[0.05276260484720132, 0.0003628084092446582, -0.00017768106705010511]","[-0.026750000193715096, 0.05299999937415123, 0.03999999910593033]","[0.0, -0.0, 0.02986485963905833]","[-0.02889995090663433, 0.12496789544820786, 0.03999999910593033]","[0.0, 0.0, -0.5025664394027626]","[0.026750000193715096, 0.05299999937415123, 0.03999999910593033]","[0.0, 0.0, -0.8619309956419223]","[0.08140526711940765, 0.09987004846334457, 0.03999999910593033]","[0.0, 0.0, -0.2956458603622649]",0.022229527214259723,-1.8324797504297181,"(0.0, 0.0, 0.0, 0.0, 0.0, 0.0)",-17.253034755206485,-0.5259936205067233,1.5450454877584496,"(0.0, 0.0, 0.0, 0.0, 0.0, 0.0)",-9.57560552889228,-0.8657129023180193,-0.907676558508376,"(0.0, 0.0, 0.0, 0.0, 0.0, 0.0)",14.930574556048693,0.5627176422419796,-0.8561770379318878,"(0.0, 0.0, 0.0, 0.0, 0.0, 0.0)",6.714301619978174,True,"(0.023411748739157405, 0.1848988370646963, 0.039999040921936985)","(0.9602022426004722, -0.279304016215831, -0.0009590780630157989)",-0.00036952049934520833,122.99110467297156,True,"(0.08739463390241534, 0.17788224496492844, 0.04661908559159016)","(-0.9637621869993022, 0.26673629090006457, 0.003768026963574145)",-0.00016071619772814214,70.81590124553156
31,Move,"(0.0725, 0.0, 0.0006)","(0.0, 0.09931272509698134, 0.0)","(0.05633749280496684, 0.17079621289746078, 0.0016510226061139872)","(1.5910369450533837, -0.00268317722803636, -0.32475420918552267)","[0.05605254931695286, -0.000489053650895882, -0.00021575491943101447]","[-0.026750000193715096, 0.05299999937415123, 0.03999999910593033]","[0.0, 0.0, -0.01193698259721841]","[-0.02589055709540844, 0.12499487400054932, 0.03999999910593033]","[0.0, 0.0, -0.5102769179268299]","[0.026750000193715096, 0.05299999937415123, 0.03999999910593033]","[0.0, 0.0, -0.8810844634376196]","[0.08229291439056396, 0.09881468117237091, 0.03999999910593033]","[0.0, 0.0, -0.3342331421462792]",-0.01928980320590426,-1.7646769861015936,"(0.0, 0.0, 0.0, 0.0, 0.0, 0.0)",-17.112776325498313,-0.49264076484463715,1.3678014856405551,"(0.0, 0.0, 0.0, 0.0, 0.0, 0.0)",-9.645673696825208,-0.8842988792221451,-0.7714882435730045,"(0.0, 0.0, 0.0, 0.0, 0.0, 0.0)",14.497734364184636,0.5434973157065573,-0.8049345156160964,"(0.0, 0.0, 0.0, 0.0, 0.0, 0.0)",5.90964863960227,True,"(0.026873825509699027, 0.1844956563152964, 0.0400019683927084)","(0.9501681989151063, -0.31173148573823684, 0.0019683927083962815)",-0.00039198265970124434,120.88790761393604,True,"(0.09128734802194316, 0.17653774838357394, 0.04661908559159016)","(-0.9637621869993022, 0.26673629090006457, 0.003768026963574145)",0.00019215286040603384,50.455986264693344
32,Move,"(0.0718, 0.0, -0.0004)","(0.0, 0.08614596121993615, 0.0)","(0.059400910693819364, 0.16904150191171838, 0.001562458825027637)","(1.5900249617257767, 0.0006295314252873022, -0.3884220316204974)","[0.059115967205805385, -0.002243764636638279, -0.00030431870051736464]","[-0.026750000193715096, 0.05299999937415123, 0.03999999910593033]","[0.0, 0.0, -0.05231447898375284]","[-0.022985074669122696, 0.12490149587392807, 0.03999999910593033]","[0.0, 0.0, -0.5173831082805385]","[0.026750000193715096, 0.05299999937415123, 0.03999999910593033]","[0.0, 0.0, -0.8968185971899603]","[0.08300686627626419, 0.09793512523174286, 0.03999999910593033]","[0.0, 0.0, -0.3691687387996361]",-0.05981814015864919,-1.800878269157715,"(0.0, 0.0, 0.0, 0.0, 0.0, 0.0)",-8.947994806333782,-0.4661218080499271,-0.25276931006207604,"(0.0, 0.0, 0.0, 0.0, 0.0, 0.0)",-5.173565848788234,-0.8989305663222047,-0.5068787173908479,"(0.0, 0.0, 0.0, 0.0, 0.0, 0.0)",4.849922364451213,0.5288902513063869,0.29770733155548,"(0.0, 0.0, 0.0, 0.0, 0.0, 0.0)",1.2551539007676973,True,"(0.03018897740001416, 0.18399263899275198, 0.0400048565635566)","(0.9361119710892125, -0.35166858172701504, 0.00485656355660302)",-0.0004100054348521797,61.52972478699456,True,"(0.07683816215688294, 0.1291037216153598, 0.029022538349575938)","(-0.9326107223349152, 0.3608537170179122, -0.004672847130468217)",-0.0005917415190481216,47.68156465145544
33,Move,"(0.0756, 0.0, -0.0005)","(0.0, 0.10392213965149837, 0.0)","(0.06252396236749158, 0.16798076668808423, 0.001518637528278327)","(1.5868794708364489, 0.0024416677104335646, -0.40449040872827435)","[0.0622390188794776, -0.003304499860272425, -0.00034813999726667454]","[-0.026750000193715096, 0.05299999937415123, 0.03999999910593033]","[0.0, 0.0, -0.09742444991401371]","[-0.019746530801057816, 0.12465857714414597, 0.03999999910593033]","[0.0, 0.0, -0.5283371797217838]","[0.026750000193715096, 0.05299999937415123, 0.03999999910593033]","[0.0, 0.0, -0.9103631204364294]","[0.08361031115055084, 0.09716904908418655, 0.03999999910593033]","[0.0, 0.0, -0.4045463110221427]",-0.10595864510966903,-2.04820698744142,"(0.0, 0.0, 0.0, 0.0, 0.0, 0.0)",-18.833111259262285,-0.42671334862564547,1.0078558612503663,"(0.0, 0.0, 0.0, 0.0, 0.0, 0.0)",-9.24764249223448,-0.9125347289476525,-0.521181302218306,"(0.0, 0.0, 0.0, 0.0, 0.0, 0.0)",18.200678487790878,0.49914320622742386,-1.6016712741860273,"(0.0, 0.0, 0.0, 0.0, 0.0, 0.0)",10.83274712880958,True,"(0.034055963945110505, 0.18312572021865242, 0.03999689159939949)","(0.9165578795033094, -0.39988997407549964, -0.0031084006005156362)",-0.0005696161011961146,133.97866295732697,True,"(0.09832752427428583, 0.1747324726065162, 0.04421113281810554)","(-0.916490487008248, 0.4000434915335183, 0.0032236788078647935)",-0.0010984999630103953,130.2550886133762
34,Move,"(0.0741, 0.0, -0.0015)","(0.0, 0.1033252370473163, 0.0)","(0.06487754940988699, 0.16782390070581152, 0.0014482670153955575)","(1.5855538096503854, 0.0003048958655548072, -0.42384552414228366)","[0.06459260592187302, -0.003461365842545139, -0.00041851051014944415]","[-0.026750000193715096, 0.05299999937415123, 0.03999999910593033]","[0.0, 0.0, -0.1420039038573644]","[-0.01656004600226879, 0.12427527457475662, 0.03999999910593033]","[0.0, 0.0, -0.5243544310327112]","[0.026750000193715096, 0.05299999937415123, 0.03999999910593033]","[0.0, 0.0, -0.9219144829078401]","[0.08411671966314316, 0.09650930017232895, 0.03999999910593033]","[0.0, 0.0, -0.44638933794569846]",-0.14970194139678797,-1.8475286794369878,"(0.0, 0.0, 0.0, 0.0, 0.0, 0.0)",-28.692063040067378,-0.3730907636104288,2.222340521477287,"(0.0, 0.0, 0.0, 0.0, 0.0, 0.0)",-15.992384546575407,-0.9237720312332961,-0.44580108791657336,"(0.0, 0.0, 0.0, 0.0, 0.0, 0.0)",22.5742866700892,0.4707997876648718,-1.1340985566764477,"(0.0, 0.0, 0.0, 0.0, 0.0, 0.0)",8.612290422860047,True,"(0.03700431122577841, 0.18294517495396395, 0.03999917590697709)","(0.9132938506032028, -0.407300458287324, -0.0008240930229147267)",-0.0007266718413137404,198.6352723498799,True,"(0.10206559260221279, 0.1733892013725939, 0.04421113281810554)","(-0.916490487008248, 0.4000434915335183, 0.0032236788078647935)",0.00011366206377594213,73.82275623623616
