OSUrobotics/InHand-Manipulation/AnalyseData/Data/Trial Data/Better/new_hand_human_sub1_2v2_g_n_1_kpNone_kdNone_dp5_step5_save_data.csv
,Phase,human_cube_pos,human_cube_orn,Cube_Pos,Cube_Orn,Cube_pos_in_start_pos,b'l_prox_pin'_link_pos,b'l_prox_pin'_link_orn,b'l_distal_pin'_link_pos,b'l_distal_pin'_link_orn,b'r_prox_pin'_link_pos,b'r_prox_pin'_link_orn,b'r_distal_pin'_link_pos,b'r_distal_pin'_link_orn,b'l_prox_pin'_joint_angle,b'l_prox_pin'_joint_vel,b'l_prox_pin'_joint_react_forces,b'l_prox_pin'_joint_motor_torque,b'l_distal_pin'_joint_angle,b'l_distal_pin'_joint_vel,b'l_distal_pin'_joint_react_forces,b'l_distal_pin'_joint_motor_torque,b'r_prox_pin'_joint_angle,b'r_prox_pin'_joint_vel,b'r_prox_pin'_joint_react_forces,b'r_prox_pin'_joint_motor_torque,b'r_distal_pin'_joint_angle,b'r_distal_pin'_joint_vel,b'r_distal_pin'_joint_react_forces,b'r_distal_pin'_joint_motor_torque,in_contact_l,contact_point_l_dist,contact_normal_l_dist,contact_distance_l_dist,contact_norm_force_l_dist,in_contact_r,contact_point_r_dist,contact_normal_r_dist,contact_distance_r_dist,contact_norm_force_r_dist
0,Open,,,,,,"[-0.026750000193715096, 0.05299999937415123, 0.03999999910593033]","[0.0, -0.0, 0.4254700097131474]","[-0.056467924267053604, 0.11858082562685013, 0.03999999910593033]","[0.0, -0.0, 0.4254700097131474]","[0.026750000193715096, 0.05299999937415123, 0.03999999910593033]","[0.0, 0.0, -0.4429245237535421]","[0.057608019560575485, 0.1180521547794342, 0.03999999910593033]","[0.0, 0.0, -0.5266622746639338]",0.5399229999999999,27.46872,"(0.0, 0.0, 0.0, 0.0, 0.0, 0.0)",-4.377393708535371,5.294901130302062e-32,0.0,"(0.0, 0.0, 0.0, 0.0, 0.0, 0.0)",-0.30017707799641646,-0.5623038734984663,-28.651050680519948,"(0.0, 0.0, 0.0, 0.0, 0.0, 0.0)",144.45470973647488,-0.10456727132876567,-4.999096204557077,"(0.0, 0.0, 0.0, 0.0, 0.0, 0.0)",33.97911746732963,False,,,,,False,,,,
1,Open,,,,,,"[-0.026750000193715096, 0.05299999937415123, 0.03999999910593033]","[0.0, -0.0, 0.894166469119967]","[-0.08288749307394028, 0.09808415919542313, 0.03999999910593033]","[0.0, -0.0, 0.894166894674561]","[0.026750000193715096, 0.05299999937415123, 0.03999999910593033]","[0.0, 0.0, -0.9122733503889549]","[0.08369457721710205, 0.09706035256385803, 0.03999999910593033]","[0.0, 0.0, -0.9997066729229968]",0.96174983227,16.220004472800003,"(0.0, 0.0, 0.0, 0.0, 0.0, 0.0)",-2.5959652512206968,5.681494863714967e-07,3.553320838026869e-05,"(0.0, 0.0, 0.0, 0.0, 0.0, 0.0)",-0.18114955764248034,-0.9780460127037736,-15.785439661232708,"(0.0, 0.0, 0.0, 0.0, 0.0, 0.0)",2.503992476159733,-0.0786900142246732,2.098357403184359,"(0.0, 0.0, 0.0, 0.0, 0.0, 0.0)",0.15360133560797545,False,,,,,False,,,,
2,Open,,,,,,"[-0.026750000193715096, 0.05299999937415123, 0.03999999910593033]","[0.0, -0.0, 1.170927100750299]","[-0.09307006001472473, 0.08102945238351822, 0.03999999910593033]","[0.0, -0.0, 1.1709279927689973]","[0.026750000193715096, 0.05299999937415123, 0.03999999910593033]","[0.0, 0.0, -1.181618964677462]","[0.09336595237255096, 0.08031877130270004, 0.03999999910593033]","[0.0, 0.0, -1.233247876832181]",1.2108343584571122,9.577750441143678,"(0.0, 0.0, 0.0, 0.0, 0.0, 0.0)",-1.5367816122769582,9.012180617793662e-07,6.275974057005224e-06,"(0.0, 0.0, 0.0, 0.0, 0.0, 0.0)",-0.1083256720668905,-1.2204570900414513,-9.3211442655613,"(0.0, 0.0, 0.0, 0.0, 0.0, 0.0)",1.4819475463743526,-0.046466145575958295,1.239071567699341,"(0.0, 0.0, 0.0, 0.0, 0.0, 0.0)",0.09166748660725833,False,,,,,False,,,,
3,Open,,,,,,"[-0.026750000193715096, 0.05299999937415123, 0.03999999910593033]","[0.0, -0.0, 1.334351465706577]","[-0.09674673527479172, 0.06986585259437561, 0.03999999910593033]","[0.0, -0.0, 1.33435435145599]","[0.026750000193715096, 0.05299999937415123, 0.03999999910593033]","[0.0, 0.0, -1.3406650641721125]","[0.09685182571411133, 0.06942359358072281, 0.03999999910593033]","[0.0, 0.0, -1.3711530696282732]",1.3579162851496,5.655565729344001,"(0.0, 0.0, 0.0, 0.0, 0.0, 0.0)",-0.9088150211252332,3.4316066113876724e-06,0.0001607445165674468,"(0.0, 0.0, 0.0, 0.0, 0.0, 0.0)",-0.06444344013525093,-1.3635984108023202,-5.504042378604797,"(0.0, 0.0, 0.0, 0.0, 0.0, 0.0)",0.8762522980402716,-0.02744024570882781,0.7315266716392431,"(0.0, 0.0, 0.0, 0.0, 0.0, 0.0)",0.05446985052483407,False,,,,,False,,,,
4,Open,,,,,,"[-0.026750000193715096, 0.05299999937415123, 0.03999999910593033]","[0.0, -0.0, 1.4308518944899675]","[-0.09804610908031464, 0.06304314732551575, 0.03999999910593033]","[0.0, -0.0, 1.4308566269594332]","[0.026750000193715096, 0.05299999937415123, 0.03999999910593033]","[0.0, 0.0, -1.4345798203875788]","[0.09808305650949478, 0.06277728080749512, 0.03999999910593033]","[0.0, 0.0, -1.4525855975984745]",1.4447666872179874,3.339555007520341,"(0.0, 0.0, 0.0, 0.0, 0.0, 0.0)",-0.5371183361845069,4.8269553674989e-06,2.0878160072459843e-05,"(0.0, 0.0, 0.0, 0.0, 0.0, 0.0)",-0.03821759960562203,-1.448121925594662,-3.2500819841423465,"(0.0, 0.0, 0.0, 0.0, 0.0, 0.0)",0.5178266556878065,-0.016205556838873442,0.4320218239148067,"(0.0, 0.0, 0.0, 0.0, 0.0, 0.0)",0.0322808466635012,False,,,,,False,,,,
5,Open,,,,,,"[-0.026750000193715096, 0.05299999937415123, 0.03999999910593033]","[0.0, -0.0, 1.487834617901085]","[-0.09850236773490906, 0.05896640568971634, 0.03999999910593033]","[0.0, -0.0, 1.4878390921106803]","[0.026750000193715096, 0.05299999937415123, 0.03999999910593033]","[0.0, 0.0, -1.4900358577435544]","[0.09851532429456711, 0.05880843847990036, 0.03999999910593033]","[0.0, 0.0, -1.5006695807985118]",1.4960509811353493,1.9719738363906854,"(0.0, 0.0, 0.0, 0.0, 0.0, 0.0)",-0.3173274216127963,4.509251873886308e-06,-3.168767150011037e-05,"(0.0, 0.0, 0.0, 0.0, 0.0, 0.0)",-0.022624215793833224,-1.498032215844392,-1.9191409108162163,"(0.0, 0.0, 0.0, 0.0, 0.0, 0.0)",0.30591369390909257,-0.00957062017308593,0.2551417656412126,"(0.0, 0.0, 0.0, 0.0, 0.0, 0.0)",0.019102112305110365,False,,,,,False,,,,
6,Open,,,,,,"[-0.026750000193715096, 0.05299999937415123, 0.03999999910593033]","[0.0, -0.0, 1.5214821319654974]","[-0.09866246581077576, 0.05654918774962425, 0.03999999910593033]","[0.0, -0.0, 1.5214858439169519]","[0.026750000193715096, 0.05299999937415123, 0.03999999910593033]","[0.0, 0.0, -1.5227821585534602]","[0.09866702556610107, 0.05645570904016495, 0.03999999910593033]","[0.0, 0.0, -1.529061933448946]",1.5263338438506127,1.164430830650334,"(0.0, 0.0, 0.0, 0.0, 0.0, 0.0)",-0.18743587261192823,3.6440993970645793e-06,-4.480530101024996e-05,"(0.0, 0.0, 0.0, 0.0, 0.0, 0.0)",-0.013379159967550349,-1.527503743133955,-1.1332335164278682,"(0.0, 0.0, 0.0, 0.0, 0.0, 0.0)",0.18068846528573543,-0.005652184024362593,0.1506807000213291,"(0.0, 0.0, 0.0, 0.0, 0.0, 0.0)",0.011293655891939093,False,,,,,False,,,,
7,Close,,,"(0.010000824637423049, 0.16001319418745247, 0.017848014970055004)","(-0.00026934863811186216, 1.6834304115272585e-05, -2.2671484573282825e-09)",,"[-0.026750000193715096, 0.05299999937415123, 0.03999999910593033]","[0.0, -0.0, 1.2784808254221978]","[-0.09569569677114487, 0.07374827563762665, 0.03999999910593033]","[0.0, -0.0, 1.034582661993943]","[0.026750000193715096, 0.05299999937415123, 0.03999999910593033]","[0.0, 0.0, -1.2792482299640686]","[0.0957116037607193, 0.0736953467130661, 0.03999999910593033]","[0.0, 0.0, -1.0390562259147462]",1.210632571455348,-16.283535238809286,"(0.0, 0.0, 0.0, 0.0, 0.0, 0.0)",2.771136716181199,-0.3095085607892871,-15.746535439217235,"(0.0, 0.0, 0.0, 0.0, 0.0, 0.0)",0.3469037989659341,-1.211323385283169,16.3019569408845,"(0.0, 0.0, 0.0, 0.0, 0.0, 0.0)",-2.7749564531312414,0.30617317599991634,15.835479338328643,"(0.0, 0.0, 0.0, 0.0, 0.0, 0.0)",-0.3479929302165593,False,,,,,False,,,,
8,Close,,,"(0.010001648057231211, 0.16002636889308344, 0.03133184175509247)","(-0.0005384699893107284, 3.3654401557527444e-05, -9.06094284338731e-09)",,"[-0.026750000193715096, 0.05299999937415123, 0.03999999910593033]","[0.0, -0.0, 1.0006360422079206]","[-0.08736064285039902, 0.0918632224202156, 0.03999999910593033]","[0.0, -0.0, 0.4880565025715103]","[0.026750000193715096, 0.05299999937415123, 0.03999999910593033]","[0.0, 0.0, -1.001089448203126]","[0.08737824857234955, 0.09183574467897415, 0.03999999910593033]","[0.0, 0.0, -0.49069812233338583]",0.9605724271186684,-9.615264723164493,"(0.0, 0.0, 0.0, 0.0, 0.0, 0.0)",1.6441783201079794,-0.5513218025251249,-9.298144061583436,"(0.0, 0.0, 0.0, 0.0, 0.0, 0.0)",0.21014173445603831,-0.9609803457758583,9.626142554022893,"(0.0, 0.0, 0.0, 0.0, 0.0, 0.0)",-1.6464751946207798,0.5493522946545342,9.350664461360347,"(0.0, 0.0, 0.0, 0.0, 0.0, 0.0)",-0.2108204377510729,False,,,,,False,,,,
9,Close,,,"(0.010002470404691093, 0.16003952644115657, 0.04045997120998789)","(-0.0008073642479911328, 5.0460303253361964e-05, -2.0369923505779015e-08)",,"[-0.026750000193715096, 0.05299999937415123, 0.03999999910593033]","[0.0, -0.0, 0.8365715799965936]","[-0.0801992267370224, 0.1012408509850502, 0.03999999910593033]","[0.0, -0.0, 0.16533874626364803]","[0.026750000193715096, 0.05299999937415123, 0.03999999910593033]","[0.0, 0.0, -0.8368392086626993]","[0.08021213859319687, 0.10122654587030411, 0.03999999910593033]","[0.0, 0.0, -0.1668985823484083]",0.8129144124893025,-5.677717666381402,"(0.0, 0.0, 0.0, 0.0, 0.0, 0.0)",0.9736078226475493,-0.6941096683608667,-5.490444078796776,"(0.0, 0.0, 0.0, 0.0, 0.0, 0.0)",0.12593397924105265,-0.8131552843771866,5.684140916724979,"(0.0, 0.0, 0.0, 0.0, 0.0, 0.0)",-0.9749785244213759,0.6929466958025952,5.521456795952681,"(0.0, 0.0, 0.0, 0.0, 0.0, 0.0)",-0.12634715317523504,False,,,,,False,,,,
10,Close,,,"(0.010003291824242136, 0.16005266914270105, 0.04523936165140331)","(-0.0010760316083767074, 6.725202012489063e-05, -3.618265319583079e-08)",,"[-0.026750000193715096, 0.05299999937415123, 0.03999999910593033]","[0.0, -0.0, 0.7396932119518481]","[-0.07528240978717804, 0.10618463158607483, 0.03999999910593033]","[0.0, 0.0, -0.025223688738047617]","[0.026750000193715096, 0.05299999937415123, 0.03999999910593033]","[0.0, 0.0, -0.7398511766938903]","[0.07529081404209137, 0.10617695748806, 0.03999999910593033]","[0.0, -0.0, 0.02430263317545323]",0.7257238314308083,-3.352635504821555,"(0.0, 0.0, 0.0, 0.0, 0.0, 0.0)",0.5758654822812497,-0.7784262532781683,-3.242260203768412,"(0.0, 0.0, 0.0, 0.0, 0.0, 0.0)",0.0750123771406224,-0.725866063871885,3.3564283699169333,"(0.0, 0.0, 0.0, 0.0, 0.0, 0.0)",-0.5766799137830688,0.7777395376647703,3.260573592131318,"(0.0, 0.0, 0.0, 0.0, 0.0, 0.0)",-0.0752606958188736,False,,,,,False,,,,
11,Close,,,"(0.009997966950406065, 0.16004795201914346, 0.046616050094935475)","(-0.0009640430328522325, -5.7324486097668704e-05, 4.2980615420070005e-09)",,"[-0.026750000193715096, 0.05299999937415123, 0.03999999910593033]","[0.0, -0.0, 0.682487397988505]","[-0.0721622109413147, 0.10887245088815689, 0.03999999910593033]","[0.0, 0.0, -0.13775029188859572]","[0.026750000193715096, 0.05299999937415123, 0.03999999910593033]","[0.0, 0.0, -0.6825807377410441]","[0.07216742634773254, 0.10886821150779724, 0.03999999910593033]","[0.0, -0.0, 0.1372064129763775]",0.6742386185346878,-1.979696494258342,"(0.0, 0.0, 0.0, 0.0, 0.0, 0.0)",0.34037467823530393,-0.8282145265472606,-1.9144534778819295,"(0.0, 0.0, 0.0, 0.0, 0.0, 0.0)",0.04449932044982575,-0.674322605213594,1.981936139029174,"(0.0, 0.0, 0.0, 0.0, 0.0, 0.0)",-0.3408573424145132,0.8278090365055835,1.9252671252731466,"(0.0, 0.0, 0.0, 0.0, 0.0, 0.0)",-0.04464739446319682,False,,,,,False,,,,
12,Close,,,"(0.009998679410322496, 0.16003066597344334, 0.0474253884764576)","(-0.0006112814540129935, -4.2805404436077314e-05, 1.9447426774393396e-07)",,"[-0.026750000193715096, 0.05299999937415123, 0.03999999910593033]","[0.0, -0.0, 0.6487079580530938]","[-0.07024932652711868, 0.11037428677082062, 0.03999999910593033]","[0.0, 0.0, -0.20419532625251113]","[0.026750000193715096, 0.05299999937415123, 0.03999999910593033]","[0.0, 0.0, -0.6487631098841893]","[0.07025248557329178, 0.11037188768386841, 0.03999999910593033]","[0.0, -0.0, 0.20387417727936794]",0.6438371618585478,-1.1689909828946077,"(0.0, 0.0, 0.0, 0.0, 0.0, 0.0)",0.20110328062585062,-0.8576133287829941,-1.1304144347684295,"(0.0, 0.0, 0.0, 0.0, 0.0, 0.0)",0.026365137971139978,-0.6438867551525752,1.1703134707353389,"(0.0, 0.0, 0.0, 0.0, 0.0, 0.0)",-0.20138889834359572,0.857373897412956,1.136799615752827,"(0.0, 0.0, 0.0, 0.0, 0.0, 0.0)",-0.026453134766811503,False,,,,,False,,,,
13,Close,,,"(0.008562352819313064, 0.15963169911231415, 0.04795936059784778)","(0.002880050037504477, -0.0018080766405500393, 0.027156574699580344)",,"[-0.026750000193715096, 0.05299999937415123, 0.03999999910593033]","[0.0, -0.0, 0.6287615983534538]","[-0.06909634172916412, 0.11123047024011612, 0.03999999910593033]","[0.0, 0.0, -0.24342883421715172]","[0.026750000193715096, 0.05299999937415123, 0.03999999910593033]","[0.0, 0.0, -0.6288059721302652]","[0.06909892708063126, 0.1112285852432251, 0.03999999910593033]","[0.0, -0.0, 0.24295585513718987]",0.6258854057058539,-0.6902774854894381,"(0.0, 0.0, 0.0, 0.0, 0.0, 0.0)",0.11878846609148704,-0.8749713231347032,-0.6674313830745814,"(0.0, 0.0, 0.0, 0.0, 0.0, 0.0)",0.015594191474811038,-0.6259255556368085,0.6912982329409242,"(0.0, 0.0, 0.0, 0.0, 0.0, 0.0)",0.23889456753769728,0.8745816224765113,0.6767593625972839,"(0.0, 0.0, 0.0, 0.0, 0.0, 0.0)",0.18939691443679915,False,,,,,True,"(0.040048198705117485, 0.17954190147604243, 0.02399995236517949)","(-0.9999968496142797, -0.00250969405768167, -4.6874861287478436e-05)",-8.481535683957195e-06,2.863336982423626
14,Move,,,"(0.003226703519616097, 0.15887842572556865, 0.048057042824217085)","(0.00733137607255103, 0.004060605831319912, 0.12411081910370701)","[0.0, 0.0, 0.0]","[-0.026750000193715096, 0.05299999937415123, 0.03999999910593033]","[0.0, -0.0, 0.5601465041237582]","[-0.06500434130430222, 0.11399676650762558, 0.03999999910593033]","[0.0, 0.0, -0.31665092698218517]","[0.026750000193715096, 0.05299999937415123, 0.03999999910593033]","[0.0, 0.0, -0.5704848668453074]","[0.0656328946352005, 0.11359802633523941, 0.03999999910593033]","[0.0, -0.0, 0.3056114929739557]",0.5446837312064112,-3.7110582962534506,"(0.0, 0.0, 0.0, 0.0, 0.0, 0.0)",-53.09089974488294,-0.8536776571297426,5.5487419201507295,"(0.0, 0.0, 0.0, 0.0, 0.0, 0.0)",-27.521806933097807,-0.5577558572400253,3.0549589579805563,"(0.0, 0.0, 0.0, 0.0, 0.0, 0.0)",39.845640952717,0.8551826533669656,-5.0192908628628805,"(0.0, 0.0, 0.0, 0.0, 0.0, 0.0)",19.520428399002,True,"(-0.031006456029053206, 0.18019920383377602, 0.023994329638221932)","(0.9922239401206523, 0.12433627092149606, -0.005669601818851313)",-0.0005148038489068186,428.5206410406488,True,"(0.03236246380961459, 0.17994971919477992, 0.023997959838382148)","(-0.9993845697424365, -0.035018889211399305, -0.00203940165862912)",0.0005577664042068458,310.72647358115125
15,Move,"(-0.0032, 0.0, 0.0006)","(0.0, 0.012639674442942934, 0.0)","(0.0032605549258122573, 0.16130525606722748, 0.048192718507791645)","(-0.010991699201345835, 0.0006572306414468967, 0.12036307548316819)","[3.385140619616015e-05, 0.002426830341658831, 0.00013567568357455984]","[-0.026750000193715096, 0.05299999937415123, 0.03999999910593033]","[0.0, -0.0, 0.5328161590261036]","[-0.06332319974899292, 0.11501935869455338, 0.03999999910593033]","[0.0, 0.0, -0.3042042433921188]","[0.026750000193715096, 0.05299999937415123, 0.03999999910593033]","[0.0, 0.0, -0.5510824852313151]","[0.06444990634918213, 0.11434099078178406, 0.03999999910593033]","[0.0, -0.0, 0.2883062577899087]",0.5333491635103075,0.12792034048863765,"(0.0, 0.0, 0.0, 0.0, 0.0, 0.0)",-1.3491526495224158,-0.8381712913753575,-0.2762152165048288,"(0.0, 0.0, 0.0, 0.0, 0.0, 0.0)",-0.6784614611272581,-0.5523119801284175,-0.2950752283375335,"(0.0, 0.0, 0.0, 0.0, 0.0, 0.0)",0.888737469598901,0.8405083343120823,0.2687072791374411,"(0.0, 0.0, 0.0, 0.0, 0.0, 0.0)",0.5057931555113176,True,"(-0.030149730477470826, 0.18162292134738997, 0.023999298191677617)","(0.9928005482606016, 0.11977720945422542, -0.0007010483631663389)",-0.000784952159015497,9.847109967922936,True,"(0.032440745528822625, 0.18011752007780651, 0.05600070180832238)","(-0.9928005482606016, -0.11977720945422544, 0.0007010483631643828)",-0.00015193643253704554,6.450232533167656
16,Move,"(-0.012400000000000001, 0.0, 0.0086)","(0.0, 0.13771171397010862, 0.0)","(0.00266224883837323, 0.16133629232663968, 0.04849827783680166)","(-0.0066167117813310345, -0.0019217267684050444, 0.12152547695996559)","[-0.0005644546812428671, 0.0024578666010710293, 0.00044123501258457737]","[-0.026750000193715096, 0.05299999937415123, 0.03999999910593033]","[0.0, -0.0, 0.5379978670061011]","[-0.06364407390356064, 0.11482901871204376, 0.03999999910593033]","[0.0, 0.0, -0.29912402856666803]","[0.026750000193715096, 0.05299999937415123, 0.03999999910593033]","[0.0, 0.0, -0.5481252771709495]","[0.06426834315061569, 0.11445221304893494, 0.03999999910593033]","[0.0, -0.0, 0.290497606976148]",0.5391201229517301,0.2693436619521002,"(0.0, 0.0, 0.0, 0.0, 0.0, 0.0)",-1.528238148144961,-0.8365427973894775,0.13897415704024424,"(0.0, 0.0, 0.0, 0.0, 0.0, 0.0)",-0.70111271373403,-0.5467001348527,0.34203516685596236,"(0.0, 0.0, 0.0, 0.0, 0.0, 0.0)",2.3442310760637293,0.8378764359154501,-0.17914350486235264,"(0.0, 0.0, 0.0, 0.0, 0.0, 0.0)",1.250264539210293,True,"(-0.030809488074116834, 0.18160101204672263, 0.023999831299915467)","(0.9925734735859506, 0.12164650151005052, -0.00016794012531847868)",-0.0004966332371608921,4.015638547935518,True,"(0.03211526849843162, 0.1801572228284779, 0.05600016870008454)","(-0.9925734735859498, -0.12164650151005559, 0.00016794012532266186)",-5.6218722396075314e-05,11.566454685803661
17,Move,"(-0.0162, 0.0, 0.0137)","(0.0, 0.021678734639021566, 0.0)","(0.0017363950368063101, 0.16116844451168225, 0.048660329384187205)","(-0.002764077977909112, -0.003037546176640528, 0.12333968165343795)","[-0.001490308482809787, 0.0022900187861135957, 0.0006032865599701204]","[-0.026750000193715096, 0.05299999937415123, 0.03999999910593033]","[0.0, -0.0, 0.5457572203866885]","[-0.06412271410226822, 0.11454088240861893, 0.03999999910593033]","[0.0, 0.0, -0.28948773102831515]","[0.026750000193715096, 0.05299999937415123, 0.03999999910593033]","[0.0, 0.0, -0.5397453089166186]","[0.06375205516815186, 0.11476445198059082, 0.03999999910593033]","[0.0, -0.0, 0.2963183723403096]",0.5472680298809613,0.36259282094779843,"(0.0, 0.0, 0.0, 0.0, 0.0, 0.0)",-0.6905279518594287,-0.8350657198325876,0.04301636963343456,"(0.0, 0.0, 0.0, 0.0, 0.0, 0.0)",-0.3013094677916991,-0.5382156979302845,0.367093956955697,"(0.0, 0.0, 0.0, 0.0, 0.0, 0.0)",1.2897305380996882,0.8358109453367972,-0.06063872610533273,"(0.0, 0.0, 0.0, 0.0, 0.0, 0.0)",0.7165368643368969,True,"(-0.03193307425945664, 0.18162617684008953, 0.023999831299915467)","(0.9925734735859506, 0.12164650151005052, -0.00016794012531847868)",-0.0002846406140993817,2.0484553812778454,True,"(0.031217079525765405, 0.18028119857375613, 0.05600016870008454)","(-0.9925734735859498, -0.12164650151005559, 0.00016794012532266186)",1.8909128204091123e-05,0.8189221466854677
18,Move,"(-0.0296, 0.0, 0.0167)","(0.0, 0.008583529261308114, 0.0)","(-0.00024473777018783, 0.16104097444403817, 0.048721038816493444)","(-6.656175728887266e-05, -0.002431510986482723, 0.1336657775448736)","[-0.003471441289803927, 0.0021625487184695202, 0.0006639959922763589]","[-0.026750000193715096, 0.05299999937415123, 0.03999999910593033]","[0.0, -0.0, 0.5612346102927321]","[-0.06507068872451782, 0.11395510286092758, 0.03999999910593033]","[0.0, 0.0, -0.27260615364046425]","[0.026750000193715096, 0.05299999937415123, 0.03999999910593033]","[0.0, 0.0, -0.5234244715027346]","[0.06273912638425827, 0.11536010354757309, 0.03999999910593033]","[0.0, -0.0, 0.3103088440433994]",0.5646217998084364,0.8129405702137099,"(0.0, 0.0, 0.0, 0.0, 0.0, 0.0)",-0.9319068350295955,-0.8335630759678576,0.06662222069125641,"(0.0, 0.0, 0.0, 0.0, 0.0, 0.0)",-0.38279168375153094,-0.5198125708891407,0.866851292100402,"(0.0, 0.0, 0.0, 0.0, 0.0, 0.0)",1.3270591129964664,0.833307608131503,-0.10216322842790762,"(0.0, 0.0, 0.0, 0.0, 0.0, 0.0)",0.7960696884101429,True,"(-0.034018088566695345, 0.18157422760244468, 0.023999831299915467)","(0.9925734735859506, 0.12164650151005052, -0.00016794012531847868)",-0.00019869782000162675,5.76635599998506,True,"(0.029290753520108737, 0.18041527211922176, 0.05600016870008454)","(-0.9925734735859498, -0.12164650151005559, 0.00016794012532266186)",6.1637794889291675e-06,8.925199016289078
19,Move,"(-0.0439, 0.0, 0.0166)","(0.0, 0.039882518737322424, 0.0)","(-0.003679023900784301, 0.16097760299766137, 0.048747552573269716)","(0.0009758594320821685, -0.002891451070340489, 0.142250113726423)","[-0.006905727420400398, 0.002099177272092717, 0.0006905097490526313]","[-0.026750000193715096, 0.05299999937415123, 0.03999999910593033]","[0.0, -0.0, 0.5865873332840608]","[-0.06660357862710953, 0.11296408623456955, 0.03999999910593033]","[0.0, 0.0, -0.24463152351040718]","[0.026750000193715096, 0.05299999937415123, 0.03999999910593033]","[0.0, 0.0, -0.4953998508025414]","[0.06097761169075966, 0.11634406447410583, 0.03999999910593033]","[0.0, -0.0, 0.3344343832330839]",0.591674391123859,1.2209237122848522,"(0.0, 0.0, 0.0, 0.0, 0.0, 0.0)",-2.4363311688963285,-0.8304805365354251,0.17717076742310245,"(0.0, 0.0, 0.0, 0.0, 0.0, 0.0)",-1.168044612748994,-0.48969423065742756,1.3693490389716196,"(0.0, 0.0, 0.0, 0.0, 0.0, 0.0)",1.8920453286464287,0.8292900884801633,-0.1305915729738198,"(0.0, 0.0, 0.0, 0.0, 0.0, 0.0)",1.1024733004746146,True,"(-0.037454502089329655, 0.18142532494125133, 0.023999831299915467)","(0.9925734735859506, 0.12164650151005052, -0.00016794012531847868)",-0.000126046215374881,13.368865847975362,True,"(0.025969629148985547, 0.18057342147577551, 0.05600016870008454)","(-0.9925734735859498, -0.12164650151005559, 0.00016794012532266186)",1.784765713010496e-05,7.550093701281218
20,Move,"(-0.04870000000000001, 0.0, 0.0132)","(0.0, 0.05973912963726191, 0.0)","(-0.007523809505789394, 0.16087000667479884, 0.048777427292961265)","(0.0010781604014566068, -0.0030613691505159326, 0.14629342732908626)","[-0.010750513025405492, 0.0019915809492301872, 0.0007203844687441799]","[-0.026750000193715096, 0.05299999937415123, 0.03999999910593033]","[0.0, -0.0, 0.6150794863851935]","[-0.0682956874370575, 0.11180438846349716, 0.03999999910593033]","[0.0, 0.0, -0.2117983154134611]","[0.026750000193715096, 0.05299999937415123, 0.03999999910593033]","[0.0, 0.0, -0.46243973584018944]","[0.058871567249298096, 0.11743760108947754, 0.03999999910593033]","[0.0, -0.0, 0.3626397559535537]",0.6201365635747574,1.2136909909134208,"(0.0, 0.0, 0.0, 0.0, 0.0, 0.0)",-2.590291332273926,-0.8261235871511529,0.18102283898654475,"(0.0, 0.0, 0.0, 0.0, 0.0, 0.0)",-1.2671584332647199,-0.4564908866834317,1.4277143488508328,"(0.0, 0.0, 0.0, 0.0, 0.0, 0.0)",2.924496577404859,0.8241321216649494,-0.2273503325443059,"(0.0, 0.0, 0.0, 0.0, 0.0, 0.0)",1.592593287937819,True,"(-0.04140971894085253, 0.18118560777318832, 0.023999831299915467)","(0.9925734735859506, 0.12164650151005052, -0.00016794012531847868)",-8.500149008909719e-05,16.78848911416774,True,"(0.022066139618230285, 0.18065413176362144, 0.05600016870008454)","(-0.9925734735859498, -0.12164650151005559, 0.00016794012532266186)",4.26487089490528e-05,11.447585168925203
21,Move,"(-0.0533, 0.0, 0.0126)","(0.0, 0.07790626182127092, 0.0)","(-0.011505929921342091, 0.16071679545264878, 0.04879561979284041)","(0.0011122230506862422, -0.003208958536364949, 0.15043576514551985)","[-0.014732633440958189, 0.0018383697270801247, 0.0007385769686233251]","[-0.026750000193715096, 0.05299999937415123, 0.03999999910593033]","[0.0, -0.0, 0.6435739022528183]","[-0.06995418667793274, 0.11059685796499252, 0.03999999910593033]","[0.0, 0.0, -0.17779590260941094]","[0.026750000193715096, 0.05299999937415123, 0.03999999910593033]","[0.0, 0.0, -0.42792541828761577]","[0.056628864258527756, 0.11850766092538834, 0.03999999910593033]","[0.0, -0.0, 0.39098162481133736]",0.6486428300009679,1.2165587817450199,"(0.0, 0.0, 0.0, 0.0, 0.0, 0.0)",-3.554281813091539,-0.820229379225811,0.2736873710311459,"(0.0, 0.0, 0.0, 0.0, 0.0, 0.0)",-1.9179288534093393,-0.4216877425679188,1.4970493576751613,"(0.0, 0.0, 0.0, 0.0, 0.0, 0.0)",3.5844838226243265,0.8178070875903931,-0.2639930503994863,"(0.0, 0.0, 0.0, 0.0, 0.0, 0.0)",1.8424050899612443,True,"(-0.04544243406933364, 0.18085198890806792, 0.023999831299915467)","(0.9925734735859506, 0.12164650151005052, -0.00016794012531847868)",-8.178416127093094e-05,22.359399609204686,True,"(0.01804678050714187, 0.18065580325250605, 0.05600016870008454)","(-0.9925734735859498, -0.12164650151005559, 0.00016794012532266186)",5.580872818072846e-05,10.317331381004095
22,Move,"(-0.0577, 0.0, 0.0096)","(0.0, 0.08508829169322756, 0.0)","(-0.015544053921935266, 0.16047634883028336, 0.04885936061170914)","(-0.0002979143498143456, -0.0033171947332000322, 0.15502238879426344)","[-0.018770757441551364, 0.0015979231047147102, 0.0008023177874920545]","[-0.026750000193715096, 0.05299999937415123, 0.03999999910593033]","[0.0, -0.0, 0.67186749579001]","[-0.07156630605459213, 0.10935156792402267, 0.03999999910593033]","[0.0, 0.0, -0.14237802139994832]","[0.026750000193715096, 0.05299999937415123, 0.03999999910593033]","[0.0, 0.0, -0.3920835131210153]","[0.054262254387140274, 0.11953627318143845, 0.03999999910593033]","[0.0, -0.0, 0.419422720649975]",0.6768767218469225,1.2022164248759115,"(0.0, 0.0, 0.0, 0.0, 0.0, 0.0)",-4.121009959209934,-0.8129241864566417,0.3171175819357336,"(0.0, 0.0, 0.0, 0.0, 0.0, 0.0)",-2.2075088678315464,-0.38563631542972354,1.5473260461346596,"(0.0, 0.0, 0.0, 0.0, 0.0, 0.0)",4.720545971073966,0.8100130686084783,-0.35834964217597765,"(0.0, 0.0, 0.0, 0.0, 0.0, 0.0)",2.430040153154486,True,"(-0.04955769055842129, 0.18043060791494214, 0.023999831299915467)","(0.9925734735859506, 0.12164650151005052, -0.00016794012531847868)",-8.192245494196408e-05,26.65566862356975,True,"(0.013928453380706862, 0.1805621159811746, 0.05600016870008454)","(-0.9925734735859498, -0.12164650151005559, 0.00016794012532266186)",5.927623703258559e-05,18.11529467748082
23,Move,"(-0.0548, 0.0, 0.0092)","(0.0, 0.07790626182127092, 0.0)","(-0.018976015727604722, 0.1602025432844425, 0.04886750006980249)","(-0.00022735872818526167, -0.003380428688344934, 0.15854677382906446)","[-0.02220271924722082, 0.0013241175588738496, 0.0008104572455854067]","[-0.026750000193715096, 0.05299999937415123, 0.03999999910593033]","[0.0, -0.0, 0.6959818682672219]","[-0.07291202247142792, 0.1082545667886734, 0.03999999910593033]","[0.0, 0.0, -0.11056278640438177]","[0.026750000193715096, 0.05299999937415123, 0.03999999910593033]","[0.0, 0.0, -0.3600489268708887]","[0.05211704224348068, 0.12038332968950272, 0.03999999910593033]","[0.0, -0.0, 0.44374953926568117]",0.699913087063749,0.9434969697503255,"(0.0, 0.0, 0.0, 0.0, 0.0, 0.0)",-4.684412657594973,-0.8050703521584855,0.3538271943343856,"(0.0, 0.0, 0.0, 0.0, 0.0, 0.0)",-2.509573162555704,-0.3547213135481654,1.2786266212074693,"(0.0, 0.0, 0.0, 0.0, 0.0, 0.0)",4.226678013039403,0.8025516245248839,-0.2992438483625135,"(0.0, 0.0, 0.0, 0.0, 0.0, 0.0)",2.1656866469038865,True,"(-0.053175564283603455, 0.1799977333462356, 0.023999831299915467)","(0.9925734735859506, 0.12164650151005052, -0.00016794012531847868)",-7.451976184847585e-05,31.139078984659022,True,"(0.010310753739600768, 0.18041001682860128, 0.05600016870008454)","(-0.9925734735859498, -0.12164650151005559, 0.00016794012532266186)",7.498364992128668e-05,9.92781234205729
24,Move,"(-0.06509999999999999, 0.0, 0.008400000000000001)","(0.0, 0.09133133442761127, 0.0)","(-0.02298392973819583, 0.15977114469754772, 0.048897871681882824)","(4.7584754332822995e-05, -0.004350040981255785, 0.1622893347457073)","[-0.02621063325781193, 0.0008927189719790674, 0.0008408288576657388]","[-0.026750000193715096, 0.05299999937415123, 0.03999999910593033]","[0.0, -0.0, 0.7214519753507757]","[-0.0743042379617691, 0.10706102102994919, 0.03999999910593033]","[0.0, 0.0, -0.07568650778539686]","[0.026750000193715096, 0.05299999937415123, 0.03999999910593033]","[0.0, 0.0, -0.3246918720413372]","[0.04971921071410179, 0.12123793363571167, 0.03999999910593033]","[0.0, -0.0, 0.46918933687209374]",0.7263265637475893,1.1699080063269884,"(0.0, 0.0, 0.0, 0.0, 0.0, 0.0)",-6.268717788660039,-0.7950291807778366,0.5062249209610616,"(0.0, 0.0, 0.0, 0.0, 0.0, 0.0)",-3.4048290628414866,-0.3178698715702643,1.6372847581693264,"(0.0, 0.0, 0.0, 0.0, 0.0, 0.0)",5.82260215862233,0.7922605134106785,-0.38896846729226087,"(0.0, 0.0, 0.0, 0.0, 0.0, 0.0)",2.9017870134895425,True,"(-0.05708140833399976, 0.1794487542468951, 0.023999831299915467)","(0.9925734735859506, 0.12164650151005052, -0.00016794012531847868)",-5.2420407083972396e-05,41.934245114117296,True,"(0.006399547947843601, 0.18018176819048115, 0.05600016870008454)","(-0.9925734735859498, -0.12164650151005559, 0.00016794012532266186)",9.108412466780493e-05,16.3259465665367
25,Move,"(-0.06720000000000001, 0.0, 0.0055)","(0.0, 0.10680367824654101, 0.0)","(-0.026953646297983986, 0.15927403479761973, 0.048915970392105164)","(-2.461222089150071e-05, -0.004910613190887898, 0.1659420892571433)","[-0.030180349817600084, 0.00039560907205107854, 0.0008589275678880792]","[-0.026750000193715096, 0.05299999937415123, 0.03999999910593033]","[0.0, -0.0, 0.7469953061275557]","[-0.07566947489976883, 0.10582882910966873, 0.03999999910593033]","[0.0, 0.0, -0.03860324380504936]","[0.026750000193715096, 0.05299999937415123, 0.03999999910593033]","[0.0, 0.0, -0.28752637937839887]","[0.0471678301692009, 0.12204428017139435, 0.03999999910593033]","[0.0, -0.0, 0.4954376974591022]",0.7514024009234807,1.0577137520563071,"(0.0, 0.0, 0.0, 0.0, 0.0, 0.0)",-6.821334351577995,-0.7832851810313828,0.5551975002856838,"(0.0, 0.0, 0.0, 0.0, 0.0, 0.0)",-3.7626883960803257,-0.2809878653501625,1.5692377711531356,"(0.0, 0.0, 0.0, 0.0, 0.0, 0.0)",6.5353350532329175,0.7811836944979296,-0.4272778836347282,"(0.0, 0.0, 0.0, 0.0, 0.0, 0.0)",3.2126438852889923,True,"(-0.06114224170640717, 0.17880532352821393, 0.023999831299915467)","(0.9925734735859506, 0.12164650151005052, -0.00016794012531847868)",-5.901415165953673e-05,46.194238345385514,True,"(0.0023160929699554272, 0.17983086946731933, 0.05600016870008454)","(-0.9925734735859498, -0.12164650151005559, 0.00016794012532266186)",0.00010339966614266833,17.753201720525325
26,Move,"(-0.0684, 0.0, 0.006)","(0.0, 0.08996648695255173, 0.0)","(-0.030599654256447853, 0.15876471734552033, 0.04892979230914787)","(-0.0001660289416510845, -0.005253325818107228, 0.16931285756667722)","[-0.03382635777606395, -0.00011370838004831629, 0.0008727494849307821]","[-0.026750000193715096, 0.05299999937415123, 0.03999999910593033]","[0.0, -0.0, 0.7698630885158068]","[-0.07686465978622437, 0.10469643026590347, 0.03999999910593033]","[0.0, 0.0, -0.0035141298682165355]","[0.026750000193715096, 0.05299999937415123, 0.03999999910593033]","[0.0, 0.0, -0.2524343123210514]","[0.04473285377025604, 0.12271812558174133, 0.03999999910593033]","[0.0, -0.0, 0.5188075659034173]",0.7737988834158953,0.9445959542435423,"(0.0, 0.0, 0.0, 0.0, 0.0, 0.0)",-7.146379930047779,-0.7708821589880355,0.5988090562011383,"(0.0, 0.0, 0.0, 0.0, 0.0, 0.0)",-3.9837918832036427,-0.24630059082220698,1.47209237195809,"(0.0, 0.0, 0.0, 0.0, 0.0, 0.0)",7.043975612287188,0.7693817605679437,-0.4464338096590384,"(0.0, 0.0, 0.0, 0.0, 0.0, 0.0)",3.429242891920882,True,"(-0.06490652302244775, 0.17813764921624478, 0.023999831299915467)","(0.9925734735859506, 0.12164650151005052, -0.00016794012531847868)",-4.546460447595122e-05,46.999088700845775,True,"(-0.0014569835412210977, 0.1794408519256086, 0.05600016870008454)","(-0.9925734735859498, -0.12164650151005559, 0.00016794012532266186)",0.00010318719355579447,20.543048382714453
27,Move,"(-0.0688, 0.0, 0.0073)","(0.0, 0.08774468281476293, 0.0)","(-0.033892770318608156, 0.1582523579708593, 0.04894070379021689)","(-9.63306875995916e-05, -0.005645822936792222, 0.17227195335182935)","[-0.037119473838224254, -0.0006260677547093585, 0.0008836609659998024]","[-0.026750000193715096, 0.05299999937415123, 0.03999999910593033]","[0.0, -0.0, 0.7899343469776169]","[-0.07789210975170135, 0.10368022322654724, 0.03999999910593033]","[0.0, -0.0, 0.02944204404695109]","[0.026750000193715096, 0.05299999937415123, 0.03999999910593033]","[0.0, 0.0, -0.21983717207290687]","[0.04245109111070633, 0.12326717376708984, 0.03999999910593033]","[0.0, -0.0, 0.5394722921669468]",0.7933288215484355,0.814677891087886,"(0.0, 0.0, 0.0, 0.0, 0.0, 0.0)",-6.487976441902802,-0.758236545900665,0.5413775728337155,"(0.0, 0.0, 0.0, 0.0, 0.0, 0.0)",-3.7470656978785972,-0.21419638011275438,1.353790337383123,"(0.0, 0.0, 0.0, 0.0, 0.0, 0.0)",8.036857169238747,0.7571207164082944,-0.5253078160431557,"(0.0, 0.0, 0.0, 0.0, 0.0, 0.0)",3.7844771276164164,True,"(-0.06836036871407847, 0.17747558356692453, 0.023999831299915467)","(0.9925734735859506, 0.12164650151005052, -0.00016794012531847868)",-1.7592873448845827e-05,42.3494587796123,True,"(-0.0049009601968789535, 0.17902335711986828, 0.05600016870008454)","(-0.9925734735859498, -0.12164650151005559, 0.00016794012532266186)",0.00010612218912025824,27.225782084839658
28,Move,"(-0.0688, 0.0, 0.0073)","(0.0, 0.08774468281476293, 0.0)","(-0.036869391175241295, 0.1577522190900178, 0.04895272988456876)","(-0.00010589810447997393, -0.005985381918499408, 0.17470330316829805)","[-0.04009609469485739, -0.0011262066355508527, 0.0008956870603516742]","[-0.026750000193715096, 0.05299999937415123, 0.03999999910593033]","[0.0, -0.0, 0.8071886969117619]","[-0.07875890284776688, 0.10279030352830887, 0.03999999910593033]","[0.0, -0.0, 0.05959044089415064]","[0.026750000193715096, 0.05299999937415123, 0.03999999910593033]","[0.0, 0.0, -0.1899320416748164]","[0.0403430350124836, 0.12370523065328598, 0.03999999910593033]","[0.0, -0.0, 0.5571526994931375]",0.8100944319178573,0.6973926137000581,"(0.0, 0.0, 0.0, 0.0, 0.0, 0.0)",-6.597625847582008,-0.745268765894201,0.5590626344298321,"(0.0, 0.0, 0.0, 0.0, 0.0, 0.0)",-3.840547723616469,-0.18476826357172893,1.2393060377809886,"(0.0, 0.0, 0.0, 0.0, 0.0, 0.0)",8.027536261200387,0.7449414031953641,-0.5143783902240031,"(0.0, 0.0, 0.0, 0.0, 0.0, 0.0)",3.7361311542477287,True,"(-0.07145597035961115, 0.1768394506546443, 0.023999831299915467)","(0.9925734735859506, 0.12164650151005052, -0.00016794012531847868)",1.3800904539991466e-05,38.78772386478184,True,"(-0.007987349566525054, 0.1786155439048645, 0.05600016870008454)","(-0.9925734735859498, -0.12164650151005559, 0.00016794012532266186)",0.00010764986050261174,26.26172318126933
29,Move,"(-0.07, 0.0, 0.007200000000000001)","(0.0, 0.08280714636087097, 0.0)","(-0.039668587672656526, 0.15724336798306252, 0.04896361995883354)","(-0.00010745562841459573, -0.006224619219173466, 0.176759677134942)","[-0.042895291192272623, -0.0016350577425061352, 0.0009065771346164556]","[-0.026750000193715096, 0.05299999937415123, 0.03999999910593033]","[0.0, -0.0, 0.8224729219066386]","[-0.07951381057500839, 0.10198958963155746, 0.03999999910593033]","[0.0, -0.0, 0.08825045180390535]","[0.026750000193715096, 0.05299999937415123, 0.03999999910593033]","[0.0, 0.0, -0.16177507942050162]","[0.038347069174051285, 0.12405989319086075, 0.03999999910593033]","[0.0, -0.0, 0.5731721652135183]",0.8250960063185483,0.6295265406077197,"(0.0, 0.0, 0.0, 0.0, 0.0, 0.0)",-6.823306643962466,-0.7317807758641972,0.5860192394202651,"(0.0, 0.0, 0.0, 0.0, 0.0, 0.0)",-4.0010706216359555,-0.15683777002529184,1.1849587998761293,"(0.0, 0.0, 0.0, 0.0, 0.0, 0.0)",8.095136170371811,0.7328074454860333,-0.5135593434507074,"(0.0, 0.0, 0.0, 0.0, 0.0, 0.0)",3.724493009673193,True,"(-0.07433583702336945, 0.17621760743317672, 0.023999831299915467)","(0.9925734735859506, 0.12164650151005052, -0.00016794012531847868)",3.946194570025277e-05,35.79460812752946,True,"(-0.010856718154677446, 0.1781889610052459, 0.05600016870008454)","(-0.9925734735859498, -0.12164650151005559, 0.00016794012532266186)",0.00011157880907055706,25.45196451495368
30,Move,"(-0.0713, 0.0, 0.0067)","(0.0, 0.07790626182127092, 0.0)","(-0.04232630314025336, 0.15672300754151547, 0.04897284945966414)","(-0.00011936114160113407, -0.006397682477975598, 0.1784704124765035)","[-0.04555300665986946, -0.0021554181840531816, 0.0009158066354470543]","[-0.026750000193715096, 0.05299999937415123, 0.03999999910593033]","[0.0, -0.0, 0.8362762395360992]","[-0.08018497377634048, 0.10125663876533508, 0.03999999910593033]","[0.0, -0.0, 0.11596964455743486]","[0.026750000193715096, 0.05299999937415123, 0.03999999910593033]","[0.0, 0.0, -0.13481908501858242]","[0.03642759472131729, 0.12434665113687515, 0.03999999910593033]","[0.0, -0.0, 0.588023321100736]",0.8386451463058647,0.5685568812613147,"(0.0, 0.0, 0.0, 0.0, 0.0, 0.0)",-7.026097027681341,-0.7177626915045245,0.6105210198670838,"(0.0, 0.0, 0.0, 0.0, 0.0, 0.0)",-4.148738750324412,-0.13008800741044202,1.1354564844572348,"(0.0, 0.0, 0.0, 0.0, 0.0, 0.0)",8.138414019418946,0.7207484254291773,-0.5025359539931823,"(0.0, 0.0, 0.0, 0.0, 0.0, 0.0)",3.70204617386287,True,"(-0.07706626621329928, 0.17559965126788302, 0.023999831299915467)","(0.9925734735859506, 0.12164650151005052, -0.00016794012531847868)",6.429189743287088e-05,32.88345576113079,True,"(-0.013574610482994534, 0.1777390473325226, 0.05600016870008454)","(-0.9925734735859498, -0.12164650151005559, 0.00016794012532266186)",0.00011503281753186614,24.66430186738558
31,Move,"(-0.0625, 0.0, 0.0046)","(0.0, 0.09488133412616774, 0.0)","(-0.04396557439486588, 0.15645091742532774, 0.04897922320060679)","(0.00033560152365135143, -0.006028645733630104, 0.17885320851637126)","[-0.04719227791448198, -0.0024275083002409104, 0.0009221803763897057]","[-0.026750000193715096, 0.05299999937415123, 0.03999999910593033]","[0.0, -0.0, 0.8441668621075012]","[-0.08056408911943436, 0.10083350539207458, 0.03999999910593033]","[0.0, -0.0, 0.1362299135755883]","[0.026750000193715096, 0.05299999937415123, 0.03999999910593033]","[0.0, 0.0, -0.11569624042975278]","[0.0350615568459034, 0.12451865524053574, 0.03999999910593033]","[0.0, -0.0, 0.597295240667433]",0.8450798680899919,0.219126197759014,"(0.0, 0.0, 0.0, 0.0, 0.0, 0.0)",-5.741114291984775,-0.7058992098651448,0.48905359714822705,"(0.0, 0.0, 0.0, 0.0, 0.0, 0.0)",-3.338105573988142,-0.11296766013936758,0.6548591144381236,"(0.0, 0.0, 0.0, 0.0, 0.0, 0.0)",6.230080096799307,0.7114246410381276,-0.37604388817465806,"(0.0, 0.0, 0.0, 0.0, 0.0, 0.0)",2.8475646013895908,True,"(-0.07895212375652144, 0.17522443890204273, 0.023999831299915467)","(0.9925734735859506, 0.12164650151005052, -0.00016794012531847868)",8.283210134983641e-05,20.783986476802472,True,"(-0.015433545004526664, 0.17744514544034884, 0.05600016870008454)","(-0.9925734735859498, -0.12164650151005559, 0.00016794012532266186)",0.00012139763071270991,9.506105182837052
32,Move,"(-0.0738, 0.0, 0.0048)","(0.0, 0.08151385738514316, 0.0)","(-0.04635914237357864, 0.1559355541284761, 0.04899925543388189)","(-0.00038922833669497147, -0.005892306877523268, 0.180598083205328)","[-0.04958584589319474, -0.0029428715970925556, 0.0009422126096648026]","[-0.026750000193715096, 0.05299999937415123, 0.03999999910593033]","[0.0, -0.0, 0.8540144677881265]","[-0.08103251457214355, 0.10030125826597214, 0.03999999910593033]","[0.0, -0.0, 0.16006416152771377]","[0.026750000193715096, 0.05299999937415123, 0.03999999910593033]","[0.0, 0.0, -0.0931537906861913]","[0.033447377383708954, 0.12468782812356949, 0.03999999910593033]","[0.0, -0.0, 0.6087826727873421]",0.8561856452207709,0.5210964448669989,"(0.0, 0.0, 0.0, 0.0, 0.0, 0.0)",-7.384945430346818,-0.6912371715332621,0.651134273130506,"(0.0, 0.0, 0.0, 0.0, 0.0, 0.0)",-4.38366639091008,-0.08848754194209768,1.1199010223712222,"(0.0, 0.0, 0.0, 0.0, 0.0, 0.0)",8.243728002469318,0.6997723650724327,-0.5193808397267435,"(0.0, 0.0, 0.0, 0.0, 0.0, 0.0)",3.7084166417793267,True,"(-0.08119389412187474, 0.17470947789533592, 0.023999831299915467)","(0.9925734735859506, 0.12164650151005052, -0.00016794012531847868)",9.948356754047181e-05,29.276027052799723,True,"(-0.01765236844047302, 0.17703078464206642, 0.05600016870008454)","(-0.9925734735859498, -0.12164650151005559, 0.00016794012532266186)",0.00012332947482280072,23.143014003046517
33,Move,"(-0.07440000000000001, 0.0, 0.0019)","(0.0, 0.10187835909741304, 0.0)","(-0.048599204131777984, 0.15549418298666093, 0.048989793617158855)","(-0.00014698543267861465, -0.005523505975299562, 0.1853175793125255)","[-0.05182590765139408, -0.0033842427389077223, 0.0009327507929417708]","[-0.026750000193715096, 0.05299999937415123, 0.03999999910593033]","[0.0, -0.0, 0.8648369196602206]","[-0.08154124021530151, 0.09971102327108383, 0.03999999910593033]","[0.0, -0.0, 0.18617793064660723]","[0.026750000193715096, 0.05299999937415123, 0.03999999910593033]","[0.0, 0.0, -0.06836635526635933]","[0.03166854381561279, 0.12483180314302444, 0.03999999910593033]","[0.0, -0.0, 0.6215369646084223]",0.8667734231107673,0.4647647166781891,"(0.0, 0.0, 0.0, 0.0, 0.0, 0.0)",-9.77244653460939,-0.6763915725352154,0.5441722113175071,"(0.0, 0.0, 0.0, 0.0, 0.0, 0.0)",-4.056431886063847,-0.0641190600325906,1.0193504245768956,"(0.0, 0.0, 0.0, 0.0, 0.0, 0.0)",10.408080285888776,0.685907685266494,-0.9589580664377697,"(0.0, 0.0, 0.0, 0.0, 0.0, 0.0)",5.3125514805304155,True,"(-0.08364542590073477, 0.17408966422808264, 0.023999831299915467)","(0.9925734735859506, 0.12164650151005052, -0.00016794012531847868)",0.0001221838221141197,18.74072685232165,True,"(-0.020094627105815784, 0.17651877357699647, 0.05600016870008454)","(-0.9925734735859498, -0.12164650151005559, 0.00016794012532266186)",0.0001198687858685204,42.49087186091162
34,Move,"(-0.06409999999999999, 0.0, 0.0040999999999999995)","(0.0, 0.08996648695255173, 0.0)","(-0.049383248394839645, 0.1557569035522399, 0.04886224824872897)","(7.412258021633256e-05, -0.000229420019753662, 0.19864394685852307)","[-0.05260995191445574, -0.0031215221733287557, 0.0008052054245118873]","[-0.026750000193715096, 0.05299999937415123, 0.03999999910593033]","[0.0, -0.0, 0.8695909263215632]","[-0.08176268637180328, 0.0994500145316124, 0.03999999910593033]","[0.0, -0.0, 0.20146495045383087]","[0.026750000193715096, 0.05299999937415123, 0.03999999910593033]","[0.0, 0.0, -0.052825010931416415]","[0.03055163100361824, 0.12489956617355347, 0.03999999910593033]","[0.0, -0.0, 0.6224179641440857]",0.8698893545726032,0.07161390996995587,"(0.0, 0.0, 0.0, 0.0, 0.0, 0.0)",-5.933731428326881,-0.6663495681628757,0.42634823960561974,"(0.0, 0.0, 0.0, 0.0, 0.0, 0.0)",-2.826700922125732,-0.05082497374809412,0.4800069229013077,"(0.0, 0.0, 0.0, 0.0, 0.0, 0.0)",7.173753551852381,0.6731354251993733,-0.5058039662435126,"(0.0, 0.0, 0.0, 0.0, 0.0, 0.0)",3.586622818676375,True,"(-0.08500360881872418, 0.17378780041176656, 0.023999831299915467)","(0.9925734735859506, 0.12164650151005052, -0.00016794012531847868)",0.00012701037201633895,9.88854722348976,True,"(-0.021257052885048845, 0.17654091584382867, 0.05600016870008454)","(-0.9925734735859498, -0.12164650151005559, 0.00016794012532266186)",0.0001069426808842244,24.31216089301051
35,Move,"(-0.06620000000000001, 0.0, 0.003)","(0.0, 0.10333396369357628, 0.0)","(-0.05017255662471452, 0.15582610086095414, 0.048873148711252)","(-0.0007905267215636934, -0.00018016679936952323, 0.21115436664411774)","[-0.05339926014433062, -0.003052324864614514, 0.0008161058870349153]","[-0.026750000193715096, 0.05299999937415123, 0.03999999910593033]","[0.0, -0.0, 0.8725989616155488]","[-0.0819021612405777, 0.099284328520298, 0.03999999910593033]","[0.0, -0.0, 0.21467636223728354]","[0.026750000193715096, 0.05299999937415123, 0.03999999910593033]","[0.0, 0.0, -0.03949636548407205]","[0.029593000188469887, 0.12494384497404099, 0.03999999910593033]","[0.0, -0.0, 0.6206057657060986]",0.873260823694258,0.1588291969253915,"(0.0, 0.0, 0.0, 0.0, 0.0, 0.0)",-7.1355611719890515,-0.6560842498762642,0.44121492748487556,"(0.0, 0.0, 0.0, 0.0, 0.0, 0.0)",-2.9460213293032025,-0.03694096668186387,0.6132972594711654,"(0.0, 0.0, 0.0, 0.0, 0.0, 0.0)",9.382238966564312,0.6570563907472723,-0.7309530824234645,"(0.0, 0.0, 0.0, 0.0, 0.0, 0.0)",4.92643877548199,True,"(-0.0861248829073303, 0.17357280492782903, 0.023999831299915467)","(0.9925734735859506, 0.12164650151005052, -0.00016794012531847868)",0.00023646393378091025,0.0,True,"(-0.022654848367809767, 0.1779070417228809, 0.05600008291281687)","(-0.9782458596160862, -0.207448864530256, 8.215285765194683e-05)",-7.900619117187959e-05,65.85380682081907
36,Move,"(-0.07640000000000001, 0.0, 0.0)","(0.0, 0.10187835909741304, 0.0)","(-0.051660541668410505, 0.1554772366031279, 0.04890514467236642)","(-0.000644359586875966, -4.7478465617174444e-05, 0.23211140111335263)","[-0.0548872451880266, -0.003401189122440751, 0.0008481018481493324]","[-0.026750000193715096, 0.05299999937415123, 0.03999999910593033]","[0.0, -0.0, 0.8805151508213738]","[-0.08226682245731354, 0.09884628653526306, 0.03999999910593033]","[0.0, -0.0, 0.2349566553340657]","[0.026750000193715096, 0.05299999937415123, 0.03999999910593033]","[0.0, 0.0, -0.018251078358832048]","[0.028064005076885223, 0.12498801201581955, 0.03999999910593033]","[0.0, -0.0, 0.621966834769313]",0.882291706636075,0.4263693239214392,"(0.0, 0.0, 0.0, 0.0, 0.0, 0.0)",-8.743552397968282,-0.6432978680109841,0.5425582830828377,"(0.0, 0.0, 0.0, 0.0, 0.0, 0.0)",-3.5905927440182537,-0.013826615459312783,1.0618704660686378,"(0.0, 0.0, 0.0, 0.0, 0.0, 0.0)",10.97690319389917,0.6367094775950415,-0.8420390236543969,"(0.0, 0.0, 0.0, 0.0, 0.0, 0.0)",5.827438185316072,True,"(-0.08799516121714757, 0.17303385905438856, 0.023999831299915467)","(0.9925734735859506, 0.12164650151005052, -0.00016794012531847868)",0.0003945737685327558,0.0,True,"(-0.02425589059675859, 0.17788003080701192, 0.05600008291281687)","(-0.9782458596160862, -0.207448864530256, 8.215285765194683e-05)",2.7821143655471396e-05,76.77179509427926
37,Move,"(-0.0768, 0.0, 0.0004)","(0.0, 0.11675554564141268, 0.0)","(-0.05325990987740925, 0.15533301287927664, 0.04892278494350598)","(-0.00018308595823898386, -0.0013696357983799896, 0.2595451130922859)","[-0.05648661339702535, -0.0035454128462920065, 0.0008657421192888939]","[-0.026750000193715096, 0.05299999937415123, 0.03999999910593033]","[0.0, -0.0, 0.8894863254797285]","[-0.08267588168382645, 0.09834639728069305, 0.03999999910593033]","[0.0, -0.0, 0.2571798279824892]","[0.026750000193715096, 0.05299999937415123, 0.03999999910593033]","[0.0, -0.0, 0.006236395450779051]","[0.026300981640815735, 0.12499859929084778, 0.03999999910593033]","[0.0, -0.0, 0.6262564033911482]",0.8909821120553418,0.3589930375750351,"(0.0, 0.0, 0.0, 0.0, 0.0, 0.0)",-9.196718730657093,-0.6299345786244357,0.5692543963554335,"(0.0, 0.0, 0.0, 0.0, 0.0, 0.0)",-3.9584832909672456,0.010576953471897915,1.0417340933348658,"(0.0, 0.0, 0.0, 0.0, 0.0, 0.0)",10.833005392891335,0.6164084535099869,-0.8667755812889839,"(0.0, 0.0, 0.0, 0.0, 0.0, 0.0)",5.749835725173828,True,"(-0.07615619183244557, 0.12073534652444992, 0.02399991708718313)","(0.9782458596160866, 0.20744886453025366, -8.215285765760464e-05)",-0.00022714846041446186,29.86842391231261,True,"(-0.026245311715044402, 0.17766570909665869, 0.05600008291281687)","(-0.9782458596160862, -0.207448864530256, 8.215285765194683e-05)",0.00010859856339223347,51.4277363879509
38,Move,"(-0.0768, 0.0, 0.0005)","(0.0, 0.12178209388715636, 0.0)","(-0.05468993391653438, 0.1552742041970483, 0.048726067774276335)","(-0.000724801301870464, 0.009976518116820467, 0.28738235434792336)","[-0.05791663743615048, -0.003604221528520357, 0.0006690249500592507]","[-0.026750000193715096, 0.05299999937415123, 0.03999999910593033]","[0.0, -0.0, 0.8972919571883795]","[-0.08302813023328781, 0.09790848940610886, 0.03999999910593033]","[0.0, -0.0, 0.278742041213767]","[0.026750000193715096, 0.05299999937415123, 0.03999999910593033]","[0.0, -0.0, 0.030685416839255443]","[0.024540996178984642, 0.1249661073088646, 0.03999999910593033]","[0.0, -0.0, 0.6293461675843]",0.898478931916198,0.2848747449202814,"(0.0, 0.0, 0.0, 0.0, 0.0, 0.0)",-7.734707022281012,-0.6171263378205107,0.3416595599334076,"(0.0, 0.0, 0.0, 0.0, 0.0, 0.0)",-3.754246277851933,0.035198676213331566,1.0831826643887528,"(0.0, 0.0, 0.0, 0.0, 0.0, 0.0)",8.024360527710432,0.5978355603191535,-0.19803433996120745,"(0.0, 0.0, 0.0, 0.0, 0.0, 0.0)",4.03528180809452,True,"(-0.09130167258768646, 0.17043057376243803, 0.0560004065513423)","(0.9603107505741866, 0.2789320663978882, 0.0004057913830771292)",-0.0003157601077820061,47.334412036581625,True,"(-0.02815168760144827, 0.1774076698684095, 0.023999593448657704)","(-0.9603107505741884, -0.2789320663978821, -0.00040579138307562533)",1.8519577063314244e-05,59.352882716884594
39,Move,"(-0.07690000000000001, 0.0, 0.0005)","(0.0, 0.11675554564141268, 0.0)","(-0.05608829217692639, 0.1548457146759765, 0.048937043299785044)","(-0.0008951909397326662, 0.014083620957049256, 0.3044365491427442)","[-0.059314995696542486, -0.004032711049592158, 0.0008800004755679589]","[-0.026750000193715096, 0.05299999937415123, 0.03999999910593033]","[0.0, -0.0, 0.9042189215110925]","[-0.08333785086870193, 0.09751757979393005, 0.03999999910593033]","[0.0, -0.0, 0.2995288408011006]","[0.026750000193715096, 0.05299999937415123, 0.03999999910593033]","[0.0, -0.0, 0.05502738712915486]","[0.022790027782320976, 0.1248910203576088, 0.03999999910593033]","[0.0, -0.0, 0.6313609239921875]",0.9054741076921671,0.30126885612457427,"(0.0, 0.0, 0.0, 0.0, 0.0, 0.0)",-11.873345682095847,-0.6013765865301661,0.7952148602176097,"(0.0, 0.0, 0.0, 0.0, 0.0, 0.0)",-5.117291371471962,0.059377233380618566,1.0439651027240457,"(0.0, 0.0, 0.0, 0.0, 0.0, 0.0)",14.422509708834063,0.5717529046888196,-1.0993411557324588,"(0.0, 0.0, 0.0, 0.0, 0.0, 0.0)",7.479605593299064,True,"(-0.0931170015629358, 0.16985203272952376, 0.0560004065513423)","(0.9603107505741866, 0.2789320663978882, 0.0004057913830771292)",-0.00012877396331507506,60.84636329567148,True,"(-0.030008206296103828, 0.17722631456062615, 0.023999593448657704)","(-0.9603107505741884, -0.2789320663978821, -0.00040579138307562533)",0.00014657533407660617,53.68828377820628
40,Move,"(-0.07629999999999999, 0.0, -0.0015)","(0.0, 0.1553779366587952, 0.0)","(-0.057354628778592466, 0.1545836384652948, 0.04900484273272692)","(-0.0019176039235856974, 0.012195940809801973, 0.3216833742953538)","[-0.060581332298208564, -0.004294787260273852, 0.000947799908509836]","[-0.026750000193715096, 0.05299999937415123, 0.03999999910593033]","[0.0, -0.0, 0.9102034453982367]","[-0.08360325545072556, 0.0971781313419342, 0.03999999910593033]","[0.0, -0.0, 0.3212937903563564]","[0.026750000193715096, 0.05299999937415123, 0.03999999910593033]","[0.0, -0.0, 0.07909282699431668]","[0.021061250939965248, 0.12477491050958633, 0.03999999910593033]","[0.0, -0.0, 0.6280329274945055]",0.9111755018571553,0.23329425038375928,"(0.0, 0.0, 0.0, 0.0, 0.0, 0.0)",-11.274803459870709,-0.5862171312378734,0.6462085018146217,"(0.0, 0.0, 0.0, 0.0, 0.0, 0.0)",-4.380703024690039,0.08336514954121285,1.0253561248260135,"(0.0, 0.0, 0.0, 0.0, 0.0, 0.0)",15.569557865504212,0.5440364509852196,-1.1768675916839997,"(0.0, 0.0, 0.0, 0.0, 0.0, 0.0)",8.050683122290144,True,"(-0.09495432181044884, 0.16928262269825642, 0.0560004065513423)","(0.9603107505741866, 0.2789320663978882, 0.0004057913830771292)",2.656871213431273e-05,48.205484417165216,True,"(-0.03156252011423952, 0.17728562951239174, 0.023999593448657704)","(-0.9603107505741884, -0.2789320663978821, -0.00040579138307562533)",0.00026510514645954807,48.52765110353247
