OSUrobotics/InHand-Manipulation/AnalyseData/Data/Trial Data/Better/new_hand_expected_exp_2v2_b_n_1_kpNone_kdNone_dp1_step1_save_data.csv
,Phase,human_cube_pos,human_cube_orn,Cube_Pos,Cube_Orn,Cube_pos_in_start_pos,b'l_prox_pin'_link_pos,b'l_prox_pin'_link_orn,b'l_distal_pin'_link_pos,b'l_distal_pin'_link_orn,b'r_prox_pin'_link_pos,b'r_prox_pin'_link_orn,b'r_distal_pin'_link_pos,b'r_distal_pin'_link_orn,b'l_prox_pin'_joint_angle,b'l_prox_pin'_joint_vel,b'l_prox_pin'_joint_react_forces,b'l_prox_pin'_joint_motor_torque,b'l_distal_pin'_joint_angle,b'l_distal_pin'_joint_vel,b'l_distal_pin'_joint_react_forces,b'l_distal_pin'_joint_motor_torque,b'r_prox_pin'_joint_angle,b'r_prox_pin'_joint_vel,b'r_prox_pin'_joint_react_forces,b'r_prox_pin'_joint_motor_torque,b'r_distal_pin'_joint_angle,b'r_distal_pin'_joint_vel,b'r_distal_pin'_joint_react_forces,b'r_distal_pin'_joint_motor_torque,in_contact_l,contact_point_l_dist,contact_normal_l_dist,contact_distance_l_dist,contact_norm_force_l_dist,in_contact_r,contact_point_r_dist,contact_normal_r_dist,contact_distance_r_dist,contact_norm_force_r_dist
0,Open,,,,,,"[-0.026750000193715096, 0.05299999937415123, 0.03999999910593033]","[0.0, -0.0, 0.0]","[-0.026750000193715096, 0.125, 0.03999999910593033]","[0.0, -0.0, 0.0]","[0.026750000193715096, 0.05299999937415123, 0.03999999910593033]","[0.0, -0.0, 0.0]","[0.026750000193715096, 0.125, 0.03999999910593033]","[0.0, -0.0, 0.0]",0.0,0.0,"(0.0, 0.0, 0.0, 0.0, 0.0, 0.0)",1.3400621000080305e-17,5.883223478113402e-32,1.4119736347472167e-29,"(0.0, 0.0, 0.0, 0.0, 0.0, 0.0)",1.0542555313129702e-18,-0.008068665190486622,-1.9364796457167894,"(0.0, 0.0, 0.0, 0.0, 0.0, 0.0)",193.26378306879909,-0.0700246186727924,-16.805908481470176,"(0.0, 0.0, 0.0, 0.0, 0.0, 0.0)",71.94009191575694,False,,,,,False,,,,
1,Open,,,,,,"[-0.026750000193715096, 0.05299999937415123, 0.03999999910593033]","[0.0, -0.0, 0.0]","[-0.026750000193715096, 0.125, 0.03999999910593033]","[0.0, -0.0, 5.883223447970011e-32]","[0.026750000193715096, 0.05299999937415123, 0.03999999910593033]","[0.0, 0.0, -0.008068665592501188]","[0.02733093686401844, 0.12499765306711197, 0.03999999910593033]","[0.0, 0.0, -0.0780932845685428]",0.157,37.68,"(0.0, 0.0, 0.0, 0.0, 0.0, 0.0)",54.702693795169004,5.294901130302062e-32,-1.4119736347472162e-30,"(0.0, 0.0, 0.0, 0.0, 0.0, 0.0)",3.9113724975844915,-0.1670280316324969,-38.150247946082466,"(0.0, 0.0, 0.0, 0.0, 0.0, 0.0)",-25.93345404555236,-0.0659493391739072,0.9780670797324476,"(0.0, 0.0, 0.0, 0.0, 0.0, 0.0)",-6.754749483880455,False,,,,,False,,,,
2,Open,,,,,,"[-0.026750000193715096, 0.05299999937415123, 0.03999999910593033]","[0.0, -0.0, 0.1569999988554567]","[-0.03800761699676514, 0.12411445379257202, 0.03999999910593033]","[0.0, -0.0, 0.1569999988554567]","[0.026750000193715096, 0.05299999937415123, 0.03999999910593033]","[0.0, 0.0, -0.16702801712980753]","[0.038720179349184036, 0.1239979937672615, 0.03999999910593033]","[0.0, 0.0, -0.23297739431320727]",0.29829999999999995,33.91199999999999,"(0.0, 0.0, 0.0, 0.0, 0.0, 0.0)",-5.390828189440958,5.294901130302062e-32,0.0,"(0.0, 0.0, 0.0, 0.0, 0.0, 0.0)",-0.3659219356209609,-0.3122944613104081,-34.863943122698686,"(0.0, 0.0, 0.0, 0.0, 0.0, 0.0)",95.8006544774165,-0.06705867534034729,-0.2662406799456205,"(0.0, 0.0, 0.0, 0.0, 0.0, 0.0)",9.049911776264722,False,,,,,False,,,,
3,Open,,,,,,"[-0.026750000193715096, 0.05299999937415123, 0.03999999910593033]","[0.0, -0.0, 0.29830000998707634]","[-0.04791048914194107, 0.12182030081748962, 0.03999999910593033]","[0.0, -0.0, 0.29830000998707634]","[0.026750000193715096, 0.05299999937415123, 0.03999999910593033]","[0.0, 0.0, -0.3122944642903269]","[0.048871491104364395, 0.12151744216680527, 0.03999999910593033]","[0.0, 0.0, -0.3793531994353912]",0.42546999999999996,30.5208,"(0.0, 0.0, 0.0, 0.0, 0.0, 0.0)",-4.858074537215091,5.294901130302062e-32,0.0,"(0.0, 0.0, 0.0, 0.0, 0.0, 0.0)",-0.33154044974508506,-0.44292449566296654,-31.35120824461403,"(0.0, 0.0, 0.0, 0.0, 0.0, 0.0)",100.88457241511576,-0.08373770380977785,-4.0029668326633345,"(0.0, 0.0, 0.0, 0.0, 0.0, 0.0)",24.077304806401806,False,,,,,False,,,,
4,Open,,,,,,"[-0.026750000193715096, 0.05299999937415123, 0.03999999910593033]","[0.0, -0.0, 0.4254700097131474]","[-0.056467924267053604, 0.11858082562685013, 0.03999999910593033]","[0.0, -0.0, 0.4254700097131474]","[0.026750000193715096, 0.05299999937415123, 0.03999999910593033]","[0.0, 0.0, -0.4429245237535421]","[0.057608019560575485, 0.1180521547794342, 0.03999999910593033]","[0.0, 0.0, -0.5266622746639338]",0.5399229999999999,27.46872,"(0.0, 0.0, 0.0, 0.0, 0.0, 0.0)",-4.377393708535371,5.294901130302062e-32,0.0,"(0.0, 0.0, 0.0, 0.0, 0.0, 0.0)",-0.30017707799641646,-0.5623038734984663,-28.651050680519948,"(0.0, 0.0, 0.0, 0.0, 0.0, 0.0)",144.45470973647488,-0.10456727132876567,-4.999096204557077,"(0.0, 0.0, 0.0, 0.0, 0.0, 0.0)",33.97911746732963,False,,,,,False,,,,
5,Open,,,,,,"[-0.026750000193715096, 0.05299999937415123, 0.03999999910593033]","[0.0, -0.0, 0.5399230359738098]","[-0.06376303732395172, 0.11475787311792374, 0.03999999910593033]","[0.0, -0.0, 0.5399230359738098]","[0.026750000193715096, 0.05299999937415123, 0.03999999910593033]","[0.0, 0.0, -0.5623038790270362]","[0.06513584405183792, 0.11391409486532211, 0.03999999910593033]","[0.0, 0.0, -0.6668711870723439]",0.6429307,24.721848,"(0.0, 0.0, 0.0, 0.0, 0.0, 0.0)",-3.943806903965684,5.294901130302062e-32,0.0,"(0.0, 0.0, 0.0, 0.0, 0.0, 0.0)",-0.2716098155097054,-0.6673401099248648,-25.208696742335626,"(0.0, 0.0, 0.0, 0.0, 0.0, 0.0)",94.97739775913854,-0.11755295807544866,-3.116564819203918,"(0.0, 0.0, 0.0, 0.0, 0.0, 0.0)",25.79194570087013,False,,,,,False,,,,
6,Open,,,,,,"[-0.026750000193715096, 0.05299999937415123, 0.03999999910593033]","[0.0, -0.0, 0.6429307111289271]","[-0.06991713494062424, 0.11062463372945786, 0.03999999910593033]","[0.0, -0.0, 0.6429307111289271]","[0.026750000193715096, 0.05299999937415123, 0.03999999910593033]","[0.0, 0.0, -0.6673401753977319]","[0.07131072133779526, 0.10955388844013214, 0.03999999910593033]","[0.0, 0.0, -0.7848931559948581]",0.73563763,22.249663200000004,"(0.0, 0.0, 0.0, 0.0, 0.0, 0.0)",-3.552789792259023,5.294901130302062e-32,0.0,"(0.0, 0.0, 0.0, 0.0, 0.0, 0.0)",-0.24562369466220793,-0.7579917869736262,-21.756402491702737,"(0.0, 0.0, 0.0, 0.0, 0.0, 0.0)",34.46450837185191,-0.10794166402774508,2.3067105714488583,"(0.0, 0.0, 0.0, 0.0, 0.0, 0.0)",8.765009015475858,False,,,,,False,,,,
7,Open,,,,,,"[-0.026750000193715096, 0.05299999937415123, 0.03999999910593033]","[0.0, -0.0, 0.7356376306875043]","[-0.07506632059812546, 0.10638101398944855, 0.03999999910593033]","[0.0, -0.0, 0.7356376306875043]","[0.026750000193715096, 0.05299999937415123, 0.03999999910593033]","[0.0, 0.0, -0.757991847340814]","[0.076247438788414, 0.10528770089149475, 0.03999999910593033]","[0.0, 0.0, -0.8659334873334429]",0.8190738670000001,20.024696880000004,"(0.0, 0.0, 0.0, 0.0, 0.0, 0.0)",-3.2002295086701533,2.3293280891773424e-07,5.5903874140256216e-05,"(0.0, 0.0, 0.0, 0.0, 0.0, 0.0)",-0.22200715926400075,-0.8391926082762636,-19.488197112632974,"(0.0, 0.0, 0.0, 0.0, 0.0, 0.0)",3.295349739497939,-0.09714776835574307,2.590534961280482,"(0.0, 0.0, 0.0, 0.0, 0.0, 0.0)",0.25803221970863044,False,,,,,False,,,,
8,Open,,,,,,"[-0.026750000193715096, 0.05299999937415123, 0.03999999910593033]","[0.0, -0.0, 0.8190738875671263]","[-0.07934698462486267, 0.10216865688562393, 0.03999999910593033]","[0.0, -0.0, 0.8190741465287105]","[0.026750000193715096, 0.05299999937415123, 0.03999999910593033]","[0.0, 0.0, -0.839192558822362]","[0.08032548427581787, 0.10110059380531311, 0.03999999910593033]","[0.0, 0.0, -0.9363403253067936]",0.8941664803,18.022227192,"(0.0, 0.0, 0.0, 0.0, 0.0, 0.0)",-2.8824197251771095,4.2009445145371055e-07,4.4918794208634316e-05,"(0.0, 0.0, 0.0, 0.0, 0.0, 0.0)",-0.2005835928406654,-0.9122733474486373,-17.539377401369673,"(0.0, 0.0, 0.0, 0.0, 0.0, 0.0)",2.7804978356880783,-0.0874331700712747,2.33150358827241,"(0.0, 0.0, 0.0, 0.0, 0.0, 0.0)",0.17017621517521792,False,,,,,False,,,,
9,Open,,,,,,"[-0.026750000193715096, 0.05299999937415123, 0.03999999910593033]","[0.0, -0.0, 0.894166469119967]","[-0.08288749307394028, 0.09808415919542313, 0.03999999910593033]","[0.0, -0.0, 0.894166894674561]","[0.026750000193715096, 0.05299999937415123, 0.03999999910593033]","[0.0, 0.0, -0.9122733503889549]","[0.08369457721710205, 0.09706035256385803, 0.03999999910593033]","[0.0, 0.0, -0.9997066729229968]",0.96174983227,16.220004472800003,"(0.0, 0.0, 0.0, 0.0, 0.0, 0.0)",-2.5959652512206968,5.681494863714967e-07,3.553320838026869e-05,"(0.0, 0.0, 0.0, 0.0, 0.0, 0.0)",-0.18114955764248034,-0.9780460127037736,-15.785439661232708,"(0.0, 0.0, 0.0, 0.0, 0.0, 0.0)",2.503992476159733,-0.0786900142246732,2.098357403184359,"(0.0, 0.0, 0.0, 0.0, 0.0, 0.0)",0.15360133560797545,False,,,,,False,,,,
10,Open,,,,,,"[-0.026750000193715096, 0.05299999937415123, 0.03999999910593033]","[0.0, -0.0, 0.9617498658906226]","[-0.08580395579338074, 0.09419016540050507, 0.03999999910593033]","[0.0, -0.0, 0.9617504517765805]","[0.026750000193715096, 0.05299999937415123, 0.03999999910593033]","[0.0, 0.0, -0.9780460255881384]","[0.08646733313798904, 0.09322238713502884, 0.03999999910593033]","[0.0, 0.0, -1.0567360258914282]",1.022574849043,14.598004025520002,"(0.0, 0.0, 0.0, 0.0, 0.0, 0.0)",-2.337816594086846,6.829231533297027e-07,2.7545680069969436e-05,"(0.0, 0.0, 0.0, 0.0, 0.0, 0.0)",-0.16354029854134106,-1.0372414114333963,-14.206895695109438,"(0.0, 0.0, 0.0, 0.0, 0.0, 0.0)",2.2548456713339484,-0.07082115822448021,1.8885254400463192,"(0.0, 0.0, 0.0, 0.0, 0.0, 0.0)",0.13860128234430863,False,,,,,False,,,,
11,Open,,,,,,"[-0.026750000193715096, 0.05299999937415123, 0.03999999910593033]","[0.0, -0.0, 1.0225748785172661]","[-0.08819860219955444, 0.09052424877882004, 0.03999999910593033]","[0.0, -0.0, 1.0225755149967983]","[0.026750000193715096, 0.05299999937415123, 0.03999999910593033]","[0.0, 0.0, -1.037241417801626]","[0.08874232321977615, 0.08961901068687439, 0.03999999910593033]","[0.0, 0.0, -1.1080626941470386]",1.0773173641387,13.138203622968001,"(0.0, 0.0, 0.0, 0.0, 0.0, 0.0)",-2.105207702642618,7.694903593429899e-07,2.0776129443188934e-05,"(0.0, 0.0, 0.0, 0.0, 0.0, 0.0)",-0.14759587787833617,-1.0905172702900567,-12.78620612559849,"(0.0, 0.0, 0.0, 0.0, 0.0, 0.0)",2.0303755786213302,-0.06373917358809339,1.6996763127328351,"(0.0, 0.0, 0.0, 0.0, 0.0, 0.0)",0.1250328149112744,False,,,,,False,,,,
12,Open,,,,,,"[-0.026750000193715096, 0.05299999937415123, 0.03999999910593033]","[0.0, -0.0, 1.0773173786594632]","[-0.09015969932079315, 0.08710587024688721, 0.03999999910593033]","[0.0, -0.0, 1.0773182784199262]","[0.026750000193715096, 0.05299999937415123, 0.03999999910593033]","[0.0, 0.0, -1.090517334189526]","[0.09060435742139816, 0.0862659215927124, 0.03999999910593033]","[0.0, 0.0, -1.1542564269670996]",1.1265856277248298,11.824383260671203,"(0.0, 0.0, 0.0, 0.0, 0.0, 0.0)",-1.895636869852492,8.322629993378343e-07,1.5065433598762668e-05,"(0.0, 0.0, 0.0, 0.0, 0.0, 0.0)",-0.13316806895824274,-1.138465543261051,-11.50758551303864,"(0.0, 0.0, 0.0, 0.0, 0.0, 0.0)",1.828159741200242,-0.05736537454460671,1.5297117704368035,"(0.0, 0.0, 0.0, 0.0, 0.0, 0.0)",0.11276577482950233,False,,,,,False,,,,
13,Open,,,,,,"[-0.026750000193715096, 0.05299999937415123, 0.03999999910593033]","[0.0, -0.0, 1.126585512342968]","[-0.09176240861415863, 0.08394166082143784, 0.03999999910593033]","[0.0, -0.0, 1.1265864725026016]","[0.026750000193715096, 0.05299999937415123, 0.03999999910593033]","[0.0, 0.0, -1.13846552283997]","[0.09212540090084076, 0.08316715806722641, 0.03999999910593033]","[0.0, 0.0, -1.1958309904194953]",1.1709270649523469,10.641944934604087,"(0.0, 0.0, 0.0, 0.0, 0.0, 0.0)",-1.7068426281171958,8.750681698751778e-07,1.0273240928962424e-05,"(0.0, 0.0, 0.0, 0.0, 0.0, 0.0)",-0.12011999884119333,-1.181618988934946,-10.356826961734775,"(0.0, 0.0, 0.0, 0.0, 0.0, 0.0)",1.6460093571929852,-0.051628943774705546,1.376743384776279,"(0.0, 0.0, 0.0, 0.0, 0.0, 0.0)",0.10168054944364863,False,,,,,False,,,,
14,Open,,,,,,"[-0.026750000193715096, 0.05299999937415123, 0.03999999910593033]","[0.0, -0.0, 1.170927100750299]","[-0.09307006001472473, 0.08102945238351822, 0.03999999910593033]","[0.0, -0.0, 1.1709279927689973]","[0.026750000193715096, 0.05299999937415123, 0.03999999910593033]","[0.0, 0.0, -1.181618964677462]","[0.09336595237255096, 0.08031877130270004, 0.03999999910593033]","[0.0, 0.0, -1.233247876832181]",1.2108343584571122,9.577750441143678,"(0.0, 0.0, 0.0, 0.0, 0.0, 0.0)",-1.5367816122769582,9.012180617793662e-07,6.275974057005224e-06,"(0.0, 0.0, 0.0, 0.0, 0.0, 0.0)",-0.1083256720668905,-1.2204570900414513,-9.3211442655613,"(0.0, 0.0, 0.0, 0.0, 0.0, 0.0)",1.4819475463743526,-0.046466145575958295,1.239071567699341,"(0.0, 0.0, 0.0, 0.0, 0.0, 0.0)",0.09166748660725833,False,,,,,False,,,,
15,Open,,,,,,"[-0.026750000193715096, 0.05299999937415123, 0.03999999910593033]","[0.0, -0.0, 1.2108343955497323]","[-0.09413553774356842, 0.07836118340492249, 0.03999999910593033]","[0.0, -0.0, 1.210835255049739]","[0.026750000193715096, 0.05299999937415123, 0.03999999910593033]","[0.0, 0.0, -1.2204571829136446]","[0.09437645971775055, 0.07771158218383789, 0.03999999910593033]","[0.0, 0.0, -1.2669233179031547]",1.2467509226114009,8.619975397029307,"(0.0, 0.0, 0.0, 0.0, 0.0, 0.0)",-1.3836082777937824,9.135722823677317e-07,2.9650129412077397e-06,"(0.0, 0.0, 0.0, 0.0, 0.0, 0.0)",-0.09766941677677543,-1.2554113810373062,-8.38902983900517,"(0.0, 0.0, 0.0, 0.0, 0.0, 0.0)",1.334189480132575,-0.04181961771093252,1.1151666876061868,"(0.0, 0.0, 0.0, 0.0, 0.0, 0.0)",0.08262627878010878,False,,,,,False,,,,
16,Open,,,,,,"[-0.026750000193715096, 0.05299999937415123, 0.03999999910593033]","[0.0, -0.0, 1.2467510110527222]","[-0.09500277042388916, 0.07592508941888809, 0.03999999910593033]","[0.0, -0.0, 1.246751870145374]","[0.026750000193715096, 0.05299999937415123, 0.03999999910593033]","[0.0, 0.0, -1.255411348379259]","[0.09519875049591064, 0.0753331333398819, 0.03999999910593033]","[0.0, 0.0, -1.2972309672073006]",1.2790758303502607,7.757977857326381,"(0.0, 0.0, 0.0, 0.0, 0.0, 0.0)",-1.2456264712746363,2.1141758111398655e-06,0.0002881448469053121,"(0.0, 0.0, 0.0, 0.0, 0.0, 0.0)",-0.088015399348708,-1.2868702429335757,-7.5501268551046525,"(0.0, 0.0, 0.0, 0.0, 0.0, 0.0)",1.2010989712673745,-0.037638748630864464,1.0034085792163332,"(0.0, 0.0, 0.0, 0.0, 0.0, 0.0)",0.07444006052486639,False,,,,,False,,,,
17,Open,,,,,,"[-0.026750000193715096, 0.05299999937415123, 0.03999999910593033]","[0.0, -0.0, 1.2790758758817962]","[-0.09570803493261337, 0.0737072303891182, 0.03999999910593033]","[0.0, -0.0, 1.2790780932516201]","[0.026750000193715096, 0.05299999937415123, 0.03999999910593033]","[0.0, 0.0, -1.2868702529032277]","[0.0958673357963562, 0.07316911965608597, 0.03999999910593033]","[0.0, 0.0, -1.3245087793274308]",1.3081682532711112,6.982181501004109,"(0.0, 0.0, 0.0, 0.0, 0.0, 0.0)",-1.12145472366965,1.9027582300258812e-06,-5.0740219467356254e-05,"(0.0, 0.0, 0.0, 0.0, 0.0, 0.0)",-0.07939114715284208,-1.315183223212741,-6.795115266999686,"(0.0, 0.0, 0.0, 0.0, 0.0, 0.0)",1.0813262344929835,-0.033874873767778015,0.9033299671407473,"(0.0, 0.0, 0.0, 0.0, 0.0, 0.0)",0.06713055017345074,False,,,,,False,,,,
18,Open,,,,,,"[-0.026750000193715096, 0.05299999937415123, 0.03999999910593033]","[0.0, -0.0, 1.3081682459906412]","[-0.09628119319677353, 0.07169260084629059, 0.03999999910593033]","[0.0, -0.0, 1.3081702011658356]","[0.026750000193715096, 0.05299999937415123, 0.03999999910593033]","[0.0, 0.0, -1.3151833180210462]","[0.0964106097817421, 0.07120437920093536, 0.03999999910593033]","[0.0, 0.0, -1.349058153261439]",1.334351427944,6.283961921493333,"(0.0, 0.0, 0.0, 0.0, 0.0, 0.0)",-1.0095234585863413,2.7618377923566443e-06,0.00020617909495938315,"(0.0, 0.0, 0.0, 0.0, 0.0, 0.0)",-0.07148780084672787,-1.3406649008914668,-6.11560264289422,"(0.0, 0.0, 0.0, 0.0, 0.0, 0.0)",0.9733796231570812,-0.030488273507324658,0.8127840625088054,"(0.0, 0.0, 0.0, 0.0, 0.0, 0.0)",0.060435192896783604,False,,,,,False,,,,
19,Open,,,,,,"[-0.026750000193715096, 0.05299999937415123, 0.03999999910593033]","[0.0, -0.0, 1.334351465706577]","[-0.09674673527479172, 0.06986585259437561, 0.03999999910593033]","[0.0, -0.0, 1.33435435145599]","[0.026750000193715096, 0.05299999937415123, 0.03999999910593033]","[0.0, 0.0, -1.3406650641721125]","[0.09685182571411133, 0.06942359358072281, 0.03999999910593033]","[0.0, 0.0, -1.3711530696282732]",1.3579162851496,5.655565729344001,"(0.0, 0.0, 0.0, 0.0, 0.0, 0.0)",-0.9088150211252332,3.4316066113876724e-06,0.0001607445165674468,"(0.0, 0.0, 0.0, 0.0, 0.0, 0.0)",-0.06444344013525093,-1.3635984108023202,-5.504042378604797,"(0.0, 0.0, 0.0, 0.0, 0.0, 0.0)",0.8762522980402716,-0.02744024570882781,0.7315266716392431,"(0.0, 0.0, 0.0, 0.0, 0.0, 0.0)",0.05446985052483407,False,,,,,False,,,,
20,Open,,,,,,"[-0.026750000193715096, 0.05299999937415123, 0.03999999910593033]","[0.0, -0.0, 1.3579163939939654]","[-0.09712471067905426, 0.0682118609547615, 0.03999999910593033]","[0.0, -0.0, 1.3579197824809437]","[0.026750000193715096, 0.05299999937415123, 0.03999999910593033]","[0.0, 0.0, -1.3635984874387626]","[0.09721000492572784, 0.06781173497438431, 0.03999999910593033]","[0.0, 0.0, -1.3910385869420074]",1.37912465663464,5.090009156409601,"(0.0, 0.0, 0.0, 0.0, 0.0, 0.0)",-0.8181093185961676,3.940702417530038e-06,0.0001221829934741677,"(0.0, 0.0, 0.0, 0.0, 0.0, 0.0)",-0.05806034967263589,-1.3842385697220883,-4.953638140744317,"(0.0, 0.0, 0.0, 0.0, 0.0, 0.0)",0.7887791417834831,-0.024696941374704916,0.6583930401894944,"(0.0, 0.0, 0.0, 0.0, 0.0, 0.0)",0.04906644857689494,False,,,,,False,,,,
21,Open,,,,,,"[-0.026750000193715096, 0.05299999937415123, 0.03999999910593033]","[0.0, -0.0, 1.3791247702213432]","[-0.0974314734339714, 0.0667160153388977, 0.03999999910593033]","[0.0, -0.0, 1.3791284782568445]","[0.026750000193715096, 0.05299999937415123, 0.03999999910593033]","[0.0, 0.0, -1.3842387704807777]","[0.09750068932771683, 0.06635437905788422, 0.03999999910593033]","[0.0, 0.0, -1.408935619520831]",1.398212190971176,4.581008240768642,"(0.0, 0.0, 0.0, 0.0, 0.0, 0.0)",-0.7364407507487188,4.314390796743166e-06,8.968521101115077e-05,"(0.0, 0.0, 0.0, 0.0, 0.0, 0.0)",-0.05230389643117988,-1.4028147127498793,-4.458274326669883,"(0.0, 0.0, 0.0, 0.0, 0.0, 0.0)",0.7100243788118592,-0.02222789596809768,0.5925708975857369,"(0.0, 0.0, 0.0, 0.0, 0.0, 0.0)",0.04419507766734469,False,,,,,False,,,,
22,Open,,,,,,"[-0.026750000193715096, 0.05299999937415123, 0.03999999910593033]","[0.0, -0.0, 1.3982120672717784]","[-0.09768038988113403, 0.06536446511745453, 0.03999999910593033]","[0.0, -0.0, 1.3982164487645397]","[0.026750000193715096, 0.05299999937415123, 0.03999999910593033]","[0.0, 0.0, -1.4028147367436141]","[0.09773654490709305, 0.06503787636756897, 0.03999999910593033]","[0.0, 0.0, -1.4250426427007885]",1.4153909718740585,4.122907416691778,"(0.0, 0.0, 0.0, 0.0, 0.0, 0.0)",-0.6629119687698639,4.574523674952359e-06,6.243189077020624e-05,"(0.0, 0.0, 0.0, 0.0, 0.0, 0.0)",-0.04711364623212332,-1.4195332414748913,-4.012446894002898,"(0.0, 0.0, 0.0, 0.0, 0.0, 0.0)",0.6391216750959775,-0.02000569064819732,0.5333292767760867,"(0.0, 0.0, 0.0, 0.0, 0.0, 0.0)",0.039804123486470444,False,,,,,False,,,,
23,Open,,,,,,"[-0.026750000193715096, 0.05299999937415123, 0.03999999910593033]","[0.0, -0.0, 1.415391158105469]","[-0.09788231551647186, 0.06414420157670975, 0.03999999910593033]","[0.0, -0.0, 1.415395709317307]","[0.026750000193715096, 0.05299999937415123, 0.03999999910593033]","[0.0, 0.0, -1.419533200978404]","[0.09792786836624146, 0.06384945660829544, 0.03999999910593033]","[0.0, 0.0, -1.4395389386881268]",1.4308518746866525,3.7106166750225977,"(0.0, 0.0, 0.0, 0.0, 0.0, 0.0)",-0.5967141397561109,4.7399630338636504e-06,3.9705446138709865e-05,"(0.0, 0.0, 0.0, 0.0, 0.0, 0.0)",-0.042434775014060074,-1.4345799173274023,-3.611202204602609,"(0.0, 0.0, 0.0, 0.0, 0.0, 0.0)",0.5752902758042565,-0.018005647771851804,0.4800102903229233,"(0.0, 0.0, 0.0, 0.0, 0.0, 0.0)",0.0358468230863414,False,,,,,False,,,,
24,Open,,,,,,"[-0.026750000193715096, 0.05299999937415123, 0.03999999910593033]","[0.0, -0.0, 1.4308518944899675]","[-0.09804610908031464, 0.06304314732551575, 0.03999999910593033]","[0.0, -0.0, 1.4308566269594332]","[0.026750000193715096, 0.05299999937415123, 0.03999999910593033]","[0.0, 0.0, -1.4345798203875788]","[0.09808305650949478, 0.06277728080749512, 0.03999999910593033]","[0.0, 0.0, -1.4525855975984745]",1.4447666872179874,3.339555007520341,"(0.0, 0.0, 0.0, 0.0, 0.0, 0.0)",-0.5371183361845069,4.8269553674989e-06,2.0878160072459843e-05,"(0.0, 0.0, 0.0, 0.0, 0.0, 0.0)",-0.03821759960562203,-1.448121925594662,-3.2500819841423465,"(0.0, 0.0, 0.0, 0.0, 0.0, 0.0)",0.5178266556878065,-0.016205556838873442,0.4320218239148067,"(0.0, 0.0, 0.0, 0.0, 0.0, 0.0)",0.0322808466635012,False,,,,,False,,,,
25,Open,,,,,,"[-0.026750000193715096, 0.05299999937415123, 0.03999999910593033]","[0.0, -0.0, 1.4447668540021588]","[-0.09817895293235779, 0.06205013021826744, 0.03999999910593033]","[0.0, -0.0, 1.4447715863131299]","[0.026750000193715096, 0.05299999937415123, 0.03999999910593033]","[0.0, 0.0, -1.448121993206969]","[0.09820891171693802, 0.06181041896343231, 0.03999999910593033]","[0.0, 0.0, -1.46432761016298]",1.4572900184961886,3.005599506768304,"(0.0, 0.0, 0.0, 0.0, 0.0, 0.0)",-0.483467731204937,4.849462099751187e-06,5.401615740548756e-06,"(0.0, 0.0, 0.0, 0.0, 0.0, 0.0)",-0.03441712855198442,-1.4603097330351957,-2.925073785728113,"(0.0, 0.0, 0.0, 0.0, 0.0, 0.0)",0.4660969568661882,-0.014585427836986846,0.38883096045278315,"(0.0, 0.0, 0.0, 0.0, 0.0, 0.0)",0.029067900465992856,False,,,,,False,,,,
26,Open,,,,,,"[-0.026750000193715096, 0.05299999937415123, 0.03999999910593033]","[0.0, -0.0, 1.4572900807517244]","[-0.0982866883277893, 0.061154916882514954, 0.03999999910593033]","[0.0, -0.0, 1.4572948921008348]","[0.026750000193715096, 0.05299999937415123, 0.03999999910593033]","[0.0, 0.0, -1.4603097470714805]","[0.09831098467111588, 0.06093886122107506, 0.03999999910593033]","[0.0, 0.0, -1.4748951413427742]",1.4685610166465697,2.705039556091476,"(0.0, 0.0, 0.0, 0.0, 0.0, 0.0)",-0.43517053908893033,4.819450845044722e-06,-7.202701129551542e-06,"(0.0, 0.0, 0.0, 0.0, 0.0, 0.0)",-0.030992645518402973,-1.471278759731676,-2.632566407155304,"(0.0, 0.0, 0.0, 0.0, 0.0, 0.0)",0.4195301522878829,-0.013127269246907155,0.3499580616191257,"(0.0, 0.0, 0.0, 0.0, 0.0, 0.0)",0.02617336062226555,False,,,,,False,,,,
27,Open,,,,,,"[-0.026750000193715096, 0.05299999937415123, 0.03999999910593033]","[0.0, -0.0, 1.4685611215819594]","[-0.09837405383586884, 0.06034812703728676, 0.03999999910593033]","[0.0, -0.0, 1.468565853091142]","[0.026750000193715096, 0.05299999937415123, 0.03999999910593033]","[0.0, 0.0, -1.4712788457263521]","[0.0983937606215477, 0.06015344336628914, 0.03999999910593033]","[0.0, 0.0, -1.4844061039497418]",1.4787049149819127,2.434535600482329,"(0.0, 0.0, 0.0, 0.0, 0.0, 0.0)",-0.39169363303347604,4.747151892642784e-06,-1.7351748576465223e-05,"(0.0, 0.0, 0.0, 0.0, 0.0, 0.0)",-0.02790732436186781,-1.4811508837585086,-2.3693097664397755,"(0.0, 0.0, 0.0, 0.0, 0.0, 0.0)",0.37761186810531283,-0.011814888241968555,0.3149714411852639,"(0.0, 0.0, 0.0, 0.0, 0.0, 0.0)",0.023565936472848985,False,,,,,False,,,,
28,Open,,,,,,"[-0.026750000193715096, 0.05299999937415123, 0.03999999910593033]","[0.0, -0.0, 1.4787049625213984]","[-0.09844490885734558, 0.059621214866638184, 0.03999999910593033]","[0.0, -0.0, 1.4787095898811649]","[0.026750000193715096, 0.05299999937415123, 0.03999999910593033]","[0.0, 0.0, -1.4811508165812142]","[0.09846089035272598, 0.059445831924676895, 0.03999999910593033]","[0.0, 0.0, -1.492965762433775]",1.4878344234837215,2.191082040434097,"(0.0, 0.0, 0.0, 0.0, 0.0, 0.0)",-0.35255677801820895,4.641283838470101e-06,-2.5408333001444004e-05,"(0.0, 0.0, 0.0, 0.0, 0.0, 0.0)",-0.02512787460267613,-1.4900357953826577,-2.132378789795796,"(0.0, 0.0, 0.0, 0.0, 0.0, 0.0)",0.33987880377374147,-0.010633710863257649,0.2834825708906175,"(0.0, 0.0, 0.0, 0.0, 0.0, 0.0)",0.021217361806457186,False,,,,,False,,,,
29,Close,,,"(0.010000165031897679, 0.16000264050809818, 0.003919197399597577)","(-5.388791991209616e-05, 3.3679978815229247e-06, -9.074720008653711e-11)",,"[-0.026750000193715096, 0.05299999937415123, 0.03999999910593033]","[0.0, -0.0, 1.487834617901085]","[-0.09850236773490906, 0.05896640568971634, 0.03999999910593033]","[0.0, -0.0, 1.4878390921106803]","[0.026750000193715096, 0.05299999937415123, 0.03999999910593033]","[0.0, 0.0, -1.4900358577435544]","[0.09851532429456711, 0.05880843847990036, 0.03999999910593033]","[0.0, 0.0, -1.5006695807985118]",1.4960509811353493,1.9719738363906854,"(0.0, 0.0, 0.0, 0.0, 0.0, 0.0)",-0.3173274216127963,4.509251873886308e-06,-3.168767150011037e-05,"(0.0, 0.0, 0.0, 0.0, 0.0, 0.0)",-0.022624215793833224,-1.498032215844392,-1.9191409108162163,"(0.0, 0.0, 0.0, 0.0, 0.0, 0.0)",0.30591369390909257,-0.00957062017308593,0.2551417656412126,"(0.0, 0.0, 0.0, 0.0, 0.0, 0.0)",0.019102112305110365,False,,,,,False,,,,
30,Close,,,"(0.010000330010418335, 0.1600052801621647, 0.0076635160840755065)","(-0.00010776674212266888, 6.7354271463595154e-06, -3.629275205618536e-10)",,"[-0.026750000193715096, 0.05299999937415123, 0.03999999910593033]","[0.0, -0.0, 1.4960509653323988]","[-0.09854896366596222, 0.058376654982566833, 0.03999999910593033]","[0.0, -0.0, 1.4960555203126162]","[0.026750000193715096, 0.05299999937415123, 0.03999999910593033]","[0.0, 0.0, -1.4980320325532246]","[0.09855947643518448, 0.05823439359664917, 0.03999999910593033]","[0.0, 0.0, -1.5076028800413472]",1.4064458830218143,-21.505223547248388,"(0.0, 0.0, 0.0, 0.0, 0.0, 0.0)",-36.32500847077206,-0.08999559064729075,-21.600023975799512,"(0.0, 0.0, 0.0, 0.0, 0.0, 0.0)",-4.679136399120495,-1.4082289942599528,21.552773180265405,"(0.0, 0.0, 0.0, 0.0, 0.0, 0.0)",36.31473208701179,0.08138609105625041,21.82961069504072,"(0.0, 0.0, 0.0, 0.0, 0.0, 0.0)",4.675963213372079,False,,,,,False,,,,
31,Close,,,"(0.010000494936733278, 0.16000791898094055, 0.011233038807318392)","(-0.00016163646818851668, 1.0102287881965475e-05, -8.164490687548302e-10)",,"[-0.026750000193715096, 0.05299999937415123, 0.03999999910593033]","[0.0, -0.0, 1.4064459844712927]","[-0.0977797880768776, 0.06478003412485123, 0.03999999910593033]","[0.0, -0.0, 1.316450240076391]","[0.026750000193715096, 0.05299999937415123, 0.03999999910593033]","[0.0, 0.0, -1.4082291009672807]","[0.09780067950487137, 0.06465335935354233, 0.03999999910593033]","[0.0, 0.0, -1.3268428349863826]",1.325801294719633,-19.354701192523546,"(0.0, 0.0, 0.0, 0.0, 0.0, 0.0)",3.2936342521930255,-0.17099646652613912,-19.44021021092361,"(0.0, 0.0, 0.0, 0.0, 0.0, 0.0)",0.4145426679866387,-1.3274060948339577,19.39749586223887,"(0.0, 0.0, 0.0, 0.0, 0.0, 0.0)",-3.3024243844052092,0.16324791947241268,19.646838819878944,"(0.0, 0.0, 0.0, 0.0, 0.0, 0.0)",-0.41699994760359754,False,,,,,False,,,,
32,Close,,,"(0.010000659812012168, 0.16001055698314023, 0.0146278458391823)","(-0.0002154970996661642, 1.346858017578936e-05, -1.4512199879406586e-09)",,"[-0.026750000193715096, 0.05299999937415123, 0.03999999910593033]","[0.0, -0.0, 1.3258013857525741]","[-0.09659997373819351, 0.07046370953321457, 0.03999999910593033]","[0.0, -0.0, 1.1548048042561467]","[0.026750000193715096, 0.05299999937415123, 0.03999999910593033]","[0.0, 0.0, -1.3274060658778382]","[0.09662791341543198, 0.07035159319639206, 0.03999999910593033]","[0.0, 0.0, -1.1641581075845935]",1.2532211652476697,-17.41923107327119,"(0.0, 0.0, 0.0, 0.0, 0.0, 0.0)",2.9685258329366073,-0.24389721437960032,-17.496179484830687,"(0.0, 0.0, 0.0, 0.0, 0.0, 0.0)",0.3760018756193849,-1.2546654853505619,17.457746276014984,"(0.0, 0.0, 0.0, 0.0, 0.0, 0.0)",-2.976480273609718,0.2369235243908578,17.682145180426822,"(0.0, 0.0, 0.0, 0.0, 0.0, 0.0)",-0.3782508099482112,False,,,,,False,,,,
33,Close,,,"(0.010000824637423049, 0.16001319418745247, 0.017848014970055004)","(-0.00026934863811186216, 1.6834304115272585e-05, -2.2671484573282825e-09)",,"[-0.026750000193715096, 0.05299999937415123, 0.03999999910593033]","[0.0, -0.0, 1.2532212515508983]","[-0.09514966607093811, 0.07548300176858902, 0.03999999910593033]","[0.0, -0.0, 1.0093239867956962]","[0.026750000193715096, 0.05299999937415123, 0.03999999910593033]","[0.0, 0.0, -1.254665405963893]","[0.09518206864595413, 0.07538418471813202, 0.03999999910593033]","[0.0, 0.0, -1.0177419933055243]",1.1878990487229026,-15.677307965944074,"(0.0, 0.0, 0.0, 0.0, 0.0, 0.0)",2.675103284419244,-0.30950785045582774,-15.746552658294572,"(0.0, 0.0, 0.0, 0.0, 0.0, 0.0)",0.34074508229325023,-1.1891989368155058,15.711971648413485,"(0.0, 0.0, 0.0, 0.0, 0.0, 0.0)",-2.6822973218910153,0.30323153162132754,15.913921735312746,"(0.0, 0.0, 0.0, 0.0, 0.0, 0.0)",-0.34279935345822066,False,,,,,False,,,,
34,Close,,,"(0.010000989414132393, 0.1600158306125408, 0.020893621515273818)","(-0.00032319108508158773, 2.0199459787849396e-05, -3.2641426920478403e-09)",,"[-0.026750000193715096, 0.05299999937415123, 0.03999999910593033]","[0.0, -0.0, 1.1878990574339587]","[-0.09353619813919067, 0.07989988476037979, 0.03999999910593033]","[0.0, -0.0, 0.8783912846834516]","[0.026750000193715096, 0.05299999937415123, 0.03999999910593033]","[0.0, 0.0, -1.1891990098250689]","[0.09357111155986786, 0.07981304824352264, 0.03999999910593033]","[0.0, 0.0, -0.8859674697633095]",1.1291091438506125,-14.109577169349663,"(0.0, 0.0, 0.0, 0.0, 0.0, 0.0)",2.4103712722760626,-0.36855738916456426,-14.17188929009676,"(0.0, 0.0, 0.0, 0.0, 0.0, 0.0)",0.3085687115248564,-1.1302790431339553,14.140774483572143,"(0.0, 0.0, 0.0, 0.0, 0.0, 0.0)",-2.4168742890236286,0.36290870417903687,14.322521413850238,"(0.0, 0.0, 0.0, 0.0, 0.0, 0.0)",-0.31044204201279674,False,,,,,False,,,,
35,Close,,,"(0.010001154143305145, 0.16001846627704427, 0.023764738319401603)","(-0.00037702444213104407, 2.3564047280946926e-05, -4.4421109431381166e-09)",,"[-0.026750000193715096, 0.05299999937415123, 0.03999999910593033]","[0.0, -0.0, 1.1291090274464952]","[-0.09184028208255768, 0.08377750217914581, 0.03999999910593033]","[0.0, -0.0, 0.7605517150898052]","[0.026750000193715096, 0.05299999937415123, 0.03999999910593033]","[0.0, 0.0, -1.130279133319625]","[0.09187624603509903, 0.08370133489370346, 0.03999999910593033]","[0.0, 0.0, -0.7673703325611945]",1.0761982294655512,-12.698619452414698,"(0.0, 0.0, 0.0, 0.0, 0.0, 0.0)",2.1715845710489208,-0.42170194324014043,-12.754692978138287,"(0.0, 0.0, 0.0, 0.0, 0.0, 0.0)",0.27924932151422227,-1.07725113882056,12.72669703521493,"(0.0, 0.0, 0.0, 0.0, 0.0, 0.0)",-2.177460276301377,0.41661812854294633,12.890261847338277,"(0.0, 0.0, 0.0, 0.0, 0.0, 0.0)",-0.2809551529003472,False,,,,,False,,,,
36,Close,,,"(0.010001318826104761, 0.16002110119957821, 0.02646143576036139)","(-0.0004308487108156613, 2.692806668198511e-05, -5.800961497533997e-09)",,"[-0.026750000193715096, 0.05299999937415123, 0.03999999910593033]","[0.0, -0.0, 1.076198055145404]","[-0.09012148529291153, 0.08717681467533112, 0.03999999910593033]","[0.0, -0.0, 0.6544962762796218]","[0.026750000193715096, 0.05299999937415123, 0.03999999910593033]","[0.0, 0.0, -1.0772510781061955]","[0.09015743434429169, 0.08711007237434387, 0.03999999910593033]","[0.0, 0.0, -0.6606329452337051]",1.028578406518996,-11.428757507173229,"(0.0, 0.0, 0.0, 0.0, 0.0, 0.0)",1.9562489498726314,-0.46953201391559385,-11.479216962108818,"(0.0, 0.0, 0.0, 0.0, 0.0, 0.0)",0.2525697399559188,-1.0295260249385039,11.454027331693439,"(0.0, 0.0, 0.0, 0.0, 0.0, 0.0)",-1.961555706583625,0.46495658231577774,11.601228905479532,"(0.0, 0.0, 0.0, 0.0, 0.0, 0.0)",-0.25412105363877113,False,,,,,False,,,,
37,Close,,,"(0.010001483463693249, 0.1600237353987347, 0.0289837817534302)","(-0.0004846638926905951, 3.0291518078376737e-05, -7.3406026780539124e-09)",,"[-0.026750000193715096, 0.05299999937415123, 0.03999999910593033]","[0.0, -0.0, 1.028578444789276]","[-0.08842276781797409, 0.09015467017889023, 0.03999999910593033]","[0.0, -0.0, 0.5590464126725148]","[0.026750000193715096, 0.05299999937415123, 0.03999999910593033]","[0.0, 0.0, -1.029526007298545]","[0.08845794945955276, 0.09009620547294617, 0.03999999910593033]","[0.0, 0.0, -0.564569399435659]",0.9857205658670964,-10.285881756455906,"(0.0, 0.0, 0.0, 0.0, 0.0, 0.0)",1.7621005438122825,-0.5125790520819234,-10.331289159919107,"(0.0, 0.0, 0.0, 0.0, 0.0, 0.0)",0.22832149176550065,-0.9865734224446535,10.308624598524094,"(0.0, 0.0, 0.0, 0.0, 0.0, 0.0)",-1.766891708603882,0.508461165120635,10.441099873165749,"(0.0, 0.0, 0.0, 0.0, 0.0, 0.0)",-0.22973068702752517,False,,,,,False,,,,
38,Close,,,"(0.010001648057231211, 0.16002636889308344, 0.03133184175509247)","(-0.0005384699893107284, 3.3654401557527444e-05, -9.06094284338731e-09)",,"[-0.026750000193715096, 0.05299999937415123, 0.03999999910593033]","[0.0, -0.0, 0.9857205423734198]","[-0.08677425980567932, 0.09276290237903595, 0.03999999910593033]","[0.0, -0.0, 0.47314147483112123]","[0.026750000193715096, 0.05299999937415123, 0.03999999910593033]","[0.0, 0.0, -0.9865734261287252]","[0.08680814504623413, 0.09271169453859329, 0.03999999910593033]","[0.0, 0.0, -0.4781122693565934]",0.9471485092803869,-9.257293580810316,"(0.0, 0.0, 0.0, 0.0, 0.0, 0.0)",1.587086438141582,-0.5513213633331018,-9.29815470028281,"(0.0, 0.0, 0.0, 0.0, 0.0, 0.0)",0.206306403170868,-0.9479160802001881,9.277762138671687,"(0.0, 0.0, 0.0, 0.0, 0.0, 0.0)",-1.5914107042435905,0.5476152664096928,9.396984309373877,"(0.0, 0.0, 0.0, 0.0, 0.0, 0.0)",-0.2075852193448244,False,,,,,False,,,,
39,Close,,,"(0.01000181260787789, 0.16002900170117218, 0.03350567876675359)","(-0.00059226700223067, 3.7016717206835695e-05, -1.0961890388082131e-08)",,"[-0.026750000193715096, 0.05299999937415123, 0.03999999910593033]","[0.0, -0.0, 0.9471486716739237]","[-0.08519625663757324, 0.09504801034927368, 0.03999999910593033]","[0.0, -0.0, 0.39582717163487297]","[0.026750000193715096, 0.05299999937415123, 0.03999999910593033]","[0.0, 0.0, -0.9479160840165974]","[0.08522851020097733, 0.09500313550233841, 0.03999999910593033]","[0.0, 0.0, -0.4003008647547732]",0.9124336583523481,-8.331564222729286,"(0.0, 0.0, 0.0, 0.0, 0.0, 0.0)",1.4293465062267445,-0.5861894225076075,-8.368334201881392,"(0.0, 0.0, 0.0, 0.0, 0.0, 0.0)",0.18633757536892917,-0.9131244721801693,8.349985924804516,"(0.0, 0.0, 0.0, 0.0, 0.0, 0.0)",-1.433248242084051,0.5828539364930729,8.45728082001123,"(0.0, 0.0, 0.0, 0.0, 0.0, 0.0)",-0.18749704763631705,False,,,,,False,,,,
40,Close,,,"(0.010001977116791199, 0.1600316338415276, 0.035505353338314005)","(-0.0006460549330047555, 4.037846511369274e-05, -1.3043353742532214e-08)",,"[-0.026750000193715096, 0.05299999937415123, 0.03999999910593033]","[0.0, -0.0, 0.9124336635104583]","[-0.08370164036750793, 0.0970512256026268, 0.03999999910593033]","[0.0, -0.0, 0.3262442150321584]","[0.026750000193715096, 0.05299999937415123, 0.03999999910593033]","[0.0, 0.0, -0.9131245532476111]","[0.08373206108808517, 0.09701187163591385, 0.03999999910593033]","[0.0, 0.0, -0.3302705841133475]",0.8811902925171133,-7.498407800456356,"(0.0, 0.0, 0.0, 0.0, 0.0, 0.0)",1.2871965063691413,-0.6175706567763247,-7.531496224492115,"(0.0, 0.0, 0.0, 0.0, 0.0, 0.0)",0.16823988009592084,-0.8818120249621524,7.514987332324067,"(0.0, 0.0, 0.0, 0.0, 0.0, 0.0)",-1.2907160846573733,0.6145687204653795,7.61154815335357,"(0.0, 0.0, 0.0, 0.0, 0.0, 0.0)",-0.16929032064296096,False,,,,,False,,,,
41,Close,,,"(0.010002141585127773, 0.16003426533265583, 0.03733092357160428)","(-0.0006998337831870475, 4.3739645365482716e-05, -1.5305241372964883e-08)",,"[-0.026750000193715096, 0.05299999937415123, 0.03999999910593033]","[0.0, -0.0, 0.8811903688816151]","[-0.08229776471853256, 0.09880879521369934, 0.03999999910593033]","[0.0, -0.0, 0.2636196251065186]","[0.026750000193715096, 0.05299999937415123, 0.03999999910593033]","[0.0, 0.0, -0.8818121535754343]","[0.08232623338699341, 0.098774254322052, 0.03999999910593033]","[0.0, 0.0, -0.26724331826119446]",0.853071263265402,-6.7485670204107215,"(0.0, 0.0, 0.0, 0.0, 0.0, 0.0)",1.1591124175888132,-0.6458137504217961,-6.77834247491313,"(0.0, 0.0, 0.0, 0.0, 0.0, 0.0)",0.1518500972569631,-0.8536308224659371,6.763488599091658,"(0.0, 0.0, 0.0, 0.0, 0.0, 0.0)",-1.1622865309865396,0.643112008739745,6.850389185847702,"(0.0, 0.0, 0.0, 0.0, 0.0, 0.0)",-0.15280109527428076,False,,,,,False,,,,
42,Close,,,"(0.010002306014043007, 0.16003689619304312, 0.038982445123681576)","(-0.0007536035543313348, 4.7100258049582536e-05, -1.7747461781428295e-08)",,"[-0.026750000193715096, 0.05299999937415123, 0.03999999910593033]","[0.0, -0.0, 0.8530713239495782]","[-0.08098787814378738, 0.10035242885351181, 0.03999999910593033]","[0.0, -0.0, 0.2072574956851119]","[0.026750000193715096, 0.05299999937415123, 0.03999999910593033]","[0.0, 0.0, -0.8536307856313979]","[0.08101436495780945, 0.10032207518815994, 0.03999999910593033]","[0.0, 0.0, -0.21051882644475053]",0.8277641369388617,-6.073710318369648,"(0.0, 0.0, 0.0, 0.0, 0.0, 0.0)",1.043715976216214,-0.6712325191394197,-6.100504492229669,"(0.0, 0.0, 0.0, 0.0, 0.0, 0.0)",0.1370167890019201,-0.8282677402193435,6.0871397391824935,"(0.0, 0.0, 0.0, 0.0, 0.0, 0.0)",-1.0465779375227178,0.6688009525283538,6.165346509266115,"(0.0, 0.0, 0.0, 0.0, 0.0, 0.0)",-0.1378772244212715,False,,,,,False,,,,
43,Close,,,"(0.010002470404691093, 0.16003952644115657, 0.04045997120998789)","(-0.0008073642479911328, 5.0460303253361964e-05, -2.0369923505779015e-08)",,"[-0.026750000193715096, 0.05299999937415123, 0.03999999910593033]","[0.0, -0.0, 0.8277641182932235]","[-0.07977228611707687, 0.10170972347259521, 0.03999999910593033]","[0.0, -0.0, 0.1565316389415725]","[0.026750000193715096, 0.05299999937415123, 0.03999999910593033]","[0.0, 0.0, -0.8282677342123946]","[0.07979680597782135, 0.10168302059173584, 0.03999999910593033]","[0.0, 0.0, -0.1594667900835625]",0.8049877232449756,-5.4663392865326825,"(0.0, 0.0, 0.0, 0.0, 0.0, 0.0)",0.9397613626777375,-0.6941093969081942,-5.49045066450586,"(0.0, 0.0, 0.0, 0.0, 0.0, 0.0)",0.12359998406321729,-0.8054409661974091,5.478425765264244,"(0.0, 0.0, 0.0, 0.0, 0.0, 0.0)",-0.9423413878167864,0.6919209877745929,5.54880845909737,"(0.0, 0.0, 0.0, 0.0, 0.0, 0.0)",-0.12437805104754245,False,,,,,False,,,,
44,Close,,,"(0.010002634758225062, 0.1600421560954447, 0.041763552607370504)","(-0.000861115865719684, 5.381978106418352e-05, -2.3172535119669436e-08)",,"[-0.026750000193715096, 0.05299999937415123, 0.03999999910593033]","[0.0, -0.0, 0.8049877164750058]","[-0.07864919304847717, 0.10290464758872986, 0.03999999910593033]","[0.0, -0.0, 0.11087832859978779]","[0.026750000193715096, 0.05299999937415123, 0.03999999910593033]","[0.0, 0.0, -0.805440964305088]","[0.07867180556058884, 0.10288111865520477, 0.03999999910593033]","[0.0, 0.0, -0.11351997099607207]",0.784488950920478,-4.919705357879415,"(0.0, 0.0, 0.0, 0.0, 0.0, 0.0)",0.8461229797239068,-0.7146985741739192,-4.941402543774016,"(0.0, 0.0, 0.0, 0.0, 0.0, 0.0)",0.11147072977230046,-0.7848968695776682,4.93058318873782,"(0.0, 0.0, 0.0, 0.0, 0.0, 0.0)",-0.8484484528940599,0.7127290066915236,4.993924540063379,"(0.0, 0.0, 0.0, 0.0, 0.0, 0.0)",-0.1121739668696123,False,,,,,False,,,,
45,Close,,,"(0.010002799075796832, 0.16004478517433812, 0.04289323765696492)","(-0.0009148584090699577, 5.7178691569402595e-05, -2.615520523253533e-08)",,"[-0.026750000193715096, 0.05299999937415123, 0.03999999910593033]","[0.0, -0.0, 0.7844889896573499]","[-0.07761538028717041, 0.10395795851945877, 0.03999999910593033]","[0.0, -0.0, 0.06979037514545033]","[0.026750000193715096, 0.05299999937415123, 0.03999999910593033]","[0.0, 0.0, -0.7848969068252226]","[0.07763615995645523, 0.10393720120191574, 0.03999999910593033]","[0.0, 0.0, -0.07216786709232846]",0.7660400558284302,-4.427734822091471,"(0.0, 0.0, 0.0, 0.0, 0.0, 0.0)",0.7617842585328375,-0.7332288222135146,-4.44725952950288,"(0.0, 0.0, 0.0, 0.0, 0.0, 0.0)",0.10051055612556806,-0.7664071826199014,4.437524869864038,"(0.0, 0.0, 0.0, 0.0, 0.0, 0.0)",-0.7638799793048979,0.7314562121459494,4.494529309062177,"(0.0, 0.0, 0.0, 0.0, 0.0, 0.0)",-0.10114588070786824,False,,,,,False,,,,
46,Close,,,"(0.010002963358557236, 0.16004741369625017, 0.04384907226694074)","(-0.0009685918795946493, 6.053703485636736e-05, -2.9317842489583264e-08)",,"[-0.026750000193715096, 0.05299999937415123, 0.03999999910593033]","[0.0, -0.0, 0.7660400058439011]","[-0.07666666060686111, 0.10488764196634293, 0.03999999910593033]","[0.0, -0.0, 0.0328112365488731]","[0.026750000193715096, 0.05299999937415123, 0.03999999910593033]","[0.0, 0.0, -0.7664072421942376]","[0.07668570429086685, 0.1048693135380745, 0.03999999910593033]","[0.0, 0.0, -0.03495097036229706]",0.7494360502455871,-3.984961339882325,"(0.0, 0.0, 0.0, 0.0, 0.0, 0.0)",0.6858274268188955,-0.7499060350622873,-4.002531083705426,"(0.0, 0.0, 0.0, 0.0, 0.0, 0.0)",0.09061088591719418,-0.7497664643579113,3.9937723828776335,"(0.0, 0.0, 0.0, 0.0, 0.0, 0.0)",-0.6877158393779155,0.7483106866034595,4.045073869802414,"(0.0, 0.0, 0.0, 0.0, 0.0, 0.0)",-0.09118463108881669,False,,,,,False,,,,
47,Close,,,"(0.010003127607656072, 0.16005004167957756, 0.04463109991511072)","(-0.0010223162788461832, 6.389481101241881e-05, -3.266035557177819e-08)",,"[-0.026750000193715096, 0.05299999937415123, 0.03999999910593033]","[0.0, -0.0, 0.7494360616149593]","[-0.07579827308654785, 0.1057092696428299, 0.03999999910593033]","[0.0, 0.0, -0.00046998485639781964]","[0.026750000193715096, 0.05299999937415123, 0.03999999910593033]","[0.0, 0.0, -0.7497665229086657]","[0.07581568509340286, 0.10569305717945099, 0.03999999910593033]","[0.0, 0.0, -0.0014557777936095985]",0.7344924452210284,-3.5864652058940925,"(0.0, 0.0, 0.0, 0.0, 0.0, 0.0)",0.6173964503690262,-0.7649166300024903,-3.602542785648727,"(0.0, 0.0, 0.0, 0.0, 0.0, 0.0)",0.08164469448201127,-0.7347898179221202,3.594395144589871,"(0.0, 0.0, 0.0, 0.0, 0.0, 0.0)",-0.61909767957405,0.7634808239898891,3.6408329727431203,"(0.0, 0.0, 0.0, 0.0, 0.0, 0.0)",-0.08216247127692902,False,,,,,False,,,,
48,Close,,,"(0.010003291824242136, 0.16005266914270105, 0.04523936165140331)","(-0.0010760316083767074, 6.725202012489063e-05, -3.618265319583079e-08)",,"[-0.026750000193715096, 0.05299999937415123, 0.03999999910593033]","[0.0, -0.0, 0.7344924171356654]","[-0.07500515878200531, 0.10643631219863892, 0.03999999910593033]","[0.0, 0.0, -0.03042418292779103]","[0.026750000193715096, 0.05299999937415123, 0.03999999910593033]","[0.0, 0.0, -0.7347898072320369]","[0.07502105087041855, 0.10642196238040924, 0.03999999910593033]","[0.0, -0.0, 0.028691003185096618]",0.7210432006989256,-3.227818685304683,"(0.0, 0.0, 0.0, 0.0, 0.0, 0.0)",0.5558325671900768,-0.77842604750784,-3.2422602012839143,"(0.0, 0.0, 0.0, 0.0, 0.0, 0.0)",0.07360992294062317,-0.7213108361299082,3.234955630130884,"(0.0, 0.0, 0.0, 0.0, 0.0, 0.0)",-0.5573653507703412,0.7771338289584356,3.2767211924511668,"(0.0, 0.0, 0.0, 0.0, 0.0, 0.0)",-0.07407739542501454,False,,,,,False,,,,
49,Close,,,"(0.010003456009463264, 0.16005529610398603, 0.04567389610019914)","(-0.0011297378697381003, 7.060866228110946e-05, -3.988464411418517e-08)",,"[-0.026750000193715096, 0.05299999937415123, 0.03999999910593033]","[0.0, -0.0, 0.7210432248946826]","[-0.07428213953971863, 0.10708045959472656, 0.03999999910593033]","[0.0, 0.0, -0.05738284539856889]","[0.026750000193715096, 0.05299999937415123, 0.03999999910593033]","[0.0, 0.0, -0.7213108742429458]","[0.07429660856723785, 0.10706773400306702, 0.03999999910593033]","[0.0, -0.0, 0.0558229905847104]",0.708938880629033,-2.905036816774215,"(0.0, 0.0, 0.0, 0.0, 0.0, 0.0)",0.5003668258645501,-0.7905844163893876,-2.9180085315714246,"(0.0, 0.0, 0.0, 0.0, 0.0, 0.0)",0.06632913423961855,-0.7091797525169173,2.911460067117798,"(0.0, 0.0, 0.0, 0.0, 0.0, 0.0)",-0.5017475327577147,0.7894214258858812,2.9490232625869344,"(0.0, 0.0, 0.0, 0.0, 0.0, 0.0)",-0.06675089596581112,False,,,,,False,,,,
50,Close,,,"(0.010001644182078712, 0.16005595153396976, 0.045940321410535084)","(-0.0011271805217326655, 1.767785898679914e-05, -1.508889111938428e-08)",,"[-0.026750000193715096, 0.05299999937415123, 0.03999999910593033]","[0.0, -0.0, 0.7089389671526269]","[-0.07362406700849533, 0.10765182226896286, 0.03999999910593033]","[0.0, 0.0, -0.08164554069303018]","[0.026750000193715096, 0.05299999937415123, 0.03999999910593033]","[0.0, 0.0, -0.7091797033714331]","[0.0736372321844101, 0.10764053463935852, 0.03999999910593033]","[0.0, -0.0, 0.08024167743029369]",0.6980449925661297,-2.6145331350967917,"(0.0, 0.0, 0.0, 0.0, 0.0, 0.0)",0.4504252929298086,-0.8015268519725993,-2.6261845399708146,"(0.0, 0.0, 0.0, 0.0, 0.0, 0.0)",0.059761147909024356,-0.6982617772652256,2.6203140604060167,"(0.0, 0.0, 0.0, 0.0, 0.0, 0.0)",-0.4516689022418484,0.8004801661036254,2.6540976522586175,"(0.0, 0.0, 0.0, 0.0, 0.0, 0.0)",-0.06014157277442886,False,,,,,False,,,,
51,Close,,,"(0.009998458164918766, 0.16005543218265145, 0.046184544665354044)","(-0.001116587313714928, -4.731063982249702e-05, 3.3486629919706074e-09)",,"[-0.026750000193715096, 0.05299999937415123, 0.03999999910593033]","[0.0, -0.0, 0.6980450466292163]","[-0.07302592694759369, 0.10815921425819397, 0.03999999910593033]","[0.0, 0.0, -0.1034818592301779]","[0.026750000193715096, 0.05299999937415123, 0.03999999910593033]","[0.0, 0.0, -0.6982617371246688]","[0.07303788512945175, 0.10814917832612991, 0.03999999910593033]","[0.0, -0.0, 0.10221840210156648]",0.6882404933095168,-2.3530798215871136,"(0.0, 0.0, 0.0, 0.0, 0.0, 0.0)",0.40545980991383274,-0.8113749570468809,-2.3635452178275753,"(0.0, 0.0, 0.0, 0.0, 0.0, 0.0)",0.0538375991228723,-0.688435599538703,2.358282654365416,"(0.0, 0.0, 0.0, 0.0, 0.0, 0.0)",-0.4065798463491374,0.810432944800545,2.3886668872606847,"(0.0, 0.0, 0.0, 0.0, 0.0, 0.0)",-0.0541806611811555,False,,,,,False,,,,
52,Close,,,"(0.0099979269032565, 0.16005188637635104, 0.04640949954916324)","(-0.0010442772263960227, -5.814874739306873e-05, 7.787963860925158e-09)",,"[-0.026750000193715096, 0.05299999937415123, 0.03999999910593033]","[0.0, -0.0, 0.688240548987758]","[-0.07248289883136749, 0.10861026495695114, 0.03999999910593033]","[0.0, 0.0, -0.12313446206189271]","[0.026750000193715096, 0.05299999937415123, 0.03999999910593033]","[0.0, 0.0, -0.6884356086136862]","[0.07249374687671661, 0.10860133916139603, 0.03999999910593033]","[0.0, -0.0, 0.1219973374555316]",0.679416393078237,-2.117784055507141,"(0.0, 0.0, 0.0, 0.0, 0.0, 0.0)",0.3649762140031281,-0.8202374613421928,-2.12700103087486,"(0.0, 0.0, 0.0, 0.0, 0.0, 0.0)",0.04851286211734207,-0.6795919883598663,2.1224666829208143,"(0.0, 0.0, 0.0, 0.0, 0.0, 0.0)",-0.36598488497268467,0.8193896503204905,2.149609324786922,"(0.0, 0.0, 0.0, 0.0, 0.0, 0.0)",-0.04882227338805697,False,,,,,False,,,,
53,Close,,,"(0.009997966950406065, 0.16004795201914346, 0.046616050094935475)","(-0.0009640430328522325, -5.7324486097668704e-05, 4.2980615420070005e-09)",,"[-0.026750000193715096, 0.05299999937415123, 0.03999999910593033]","[0.0, -0.0, 0.6794163791618646]","[-0.07199041545391083, 0.10901165008544922, 0.03999999910593033]","[0.0, 0.0, -0.1408210743259801]","[0.026750000193715096, 0.05299999937415123, 0.03999999910593033]","[0.0, 0.0, -0.6795920181483843]","[0.07200025022029877, 0.1090037003159523, 0.03999999910593033]","[0.0, -0.0, 0.13979766167419433]",0.6714747537704133,-1.9059934338776885,"(0.0, 0.0, 0.0, 0.0, 0.0, 0.0)",0.3285291326313333,-0.8282143561304102,-1.914454749172182,"(0.0, 0.0, 0.0, 0.0, 0.0, 0.0)",0.043663125146434535,-0.6716327895238797,1.9102077206367922,"(0.0, 0.0, 0.0, 0.0, 0.0, 0.0)",-0.3294374536237565,0.8274513303019508,1.934803195550486,"(0.0, 0.0, 0.0, 0.0, 0.0, 0.0)",-0.043941831288343336,False,,,,,False,,,,
54,Close,,,"(0.009998107600018924, 0.16004411888380865, 0.0468059782297436)","(-0.0008858309445970004, -5.447527859797503e-05, 4.128601528647624e-08)",,"[-0.026750000193715096, 0.05299999937415123, 0.03999999910593033]","[0.0, -0.0, 0.6714747449539094]","[-0.07154417037963867, 0.10936915874481201, 0.03999999910593033]","[0.0, 0.0, -0.15673960659097733]","[0.026750000193715096, 0.05299999937415123, 0.03999999910593033]","[0.0, 0.0, -0.6716327690441329]","[0.07155308127403259, 0.10936208069324493, 0.03999999910593033]","[0.0, -0.0, 0.15581855230220754]",0.664327278393372,-1.7153940904899205,"(0.0, 0.0, 0.0, 0.0, 0.0, 0.0)",0.2957170811345372,-0.8353934979980445,-1.7229940482322428,"(0.0, 0.0, 0.0, 0.0, 0.0, 0.0)",0.03934112702889199,-0.6644695105714917,1.7191869485731137,"(0.0, 0.0, 0.0, 0.0, 0.0, 0.0)",-0.2965349881453131,0.8347067784412298,1.7413075534269409,"(0.0, 0.0, 0.0, 0.0, 0.0, 0.0)",-0.039592428071821256,False,,,,,False,,,,
55,Close,,,"(0.009998248644105466, 0.16004048002584464, 0.0469807018618576)","(-0.0008115684428503489, -5.1596750749095254e-05, 7.881188886077776e-08)",,"[-0.026750000193715096, 0.05299999937415123, 0.03999999910593033]","[0.0, -0.0, 0.6643273336690038]","[-0.07114013284444809, 0.10968788713216782, 0.03999999910593033]","[0.0, 0.0, -0.17106622141763456]","[0.026750000193715096, 0.05299999937415123, 0.03999999910593033]","[0.0, 0.0, -0.6644694779113771]","[0.07114819437265396, 0.10968156903982162, 0.03999999910593033]","[0.0, -0.0, 0.17023725548976373]",0.6578945505540348,-1.543854681440929,"(0.0, 0.0, 0.0, 0.0, 0.0, 0.0)",0.2661784897251144,-0.8418546682622772,-1.5506808634158242,"(0.0, 0.0, 0.0, 0.0, 0.0, 0.0)",0.03542959308904228,-0.6580225595143425,1.547268253715802,"(0.0, 0.0, 0.0, 0.0, 0.0, 0.0)",-0.26691494494593054,0.8412366239853526,1.567162930589489,"(0.0, 0.0, 0.0, 0.0, 0.0, 0.0)",-0.035656056287006674,False,,,,,False,,,,
56,Close,,,"(0.009998390752654573, 0.16003702894197389, 0.04714144752999396)","(-0.0007411380797103218, -4.869650481896534e-05, 1.1687517768299383e-07)",,"[-0.026750000193715096, 0.05299999937415123, 0.03999999910593033]","[0.0, -0.0, 0.6578945475257985]","[-0.07077455520629883, 0.1099722608923912, 0.03999999910593033]","[0.0, 0.0, -0.18396012465064338]","[0.026750000193715096, 0.05299999937415123, 0.03999999910593033]","[0.0, 0.0, -0.6580225896942233]","[0.07078184932470322, 0.10996662080287933, 0.03999999910593033]","[0.0, -0.0, 0.18321406389742323]",0.6521050954986313,-1.3894692132968354,"(0.0, 0.0, 0.0, 0.0, 0.0, 0.0)",0.23958744527110798,-0.8476696697618468,-1.395600359896693,"(0.0, 0.0, 0.0, 0.0, 0.0, 0.0)",0.031904902566438624,-0.6522203035629083,1.392541428344221,"(0.0, 0.0, 0.0, 0.0, 0.0, 0.0)",-0.24025052935853647,0.8471134329078756,1.410434141405507,"(0.0, 0.0, 0.0, 0.0, 0.0, 0.0)",-0.032108956045352514,False,,,,,False,,,,
57,Close,,,"(0.009998534235924597, 0.16003375955333046, 0.04728933347451534)","(-0.0006744157946989166, -4.576820860538318e-05, 1.554405829918684e-07)",,"[-0.026750000193715096, 0.05299999937415123, 0.03999999910593033]","[0.0, -0.0, 0.6521051450040646]","[-0.07044398784637451, 0.11022617667913437, 0.03999999910593033]","[0.0, 0.0, -0.19556454293122102]","[0.026750000193715096, 0.05299999937415123, 0.03999999910593033]","[0.0, 0.0, -0.6522203497730787]","[0.07045057415962219, 0.11022114753723145, 0.03999999910593033]","[0.0, -0.0, 0.19489313608724637]",0.6468945859487681,-1.250522291967151,"(0.0, 0.0, 0.0, 0.0, 0.0, 0.0)",0.2156503992603495,-0.8529031244958994,-1.2560291361726517,"(0.0, 0.0, 0.0, 0.0, 0.0, 0.0)",0.02872919688306315,-0.6469982732066174,1.253287285509799,"(0.0, 0.0, 0.0, 0.0, 0.0, 0.0)",-0.2162473971085442,0.8524025140258721,1.2693794683191757,"(0.0, 0.0, 0.0, 0.0, 0.0, 0.0)",-0.02891303657535659,False,,,,,False,,,,
58,Close,,,"(0.009998679410322496, 0.16003066597344334, 0.0474253884764576)","(-0.0006112814540129935, -4.2805404436077314e-05, 1.9447426774393396e-07)",,"[-0.026750000193715096, 0.05299999937415123, 0.03999999910593033]","[0.0, -0.0, 0.6468945636476681]","[-0.07014521211385727, 0.11045306921005249, 0.03999999910593033]","[0.0, 0.0, -0.20600854729134555]","[0.026750000193715096, 0.05299999937415123, 0.03999999910593033]","[0.0, 0.0, -0.6469982503054421]","[0.07015117257833481, 0.11044856905937195, 0.03999999910593033]","[0.0, -0.0, 0.20540423443750838]",0.6422051273538913,-1.125470062770436,"(0.0, 0.0, 0.0, 0.0, 0.0, 0.0)",0.1941029233168818,-0.8576131917611358,-1.1304161436567226,"(0.0, 0.0, 0.0, 0.0, 0.0, 0.0)",0.025868240883426936,-0.6422984458859556,1.1279585569588184,"(0.0, 0.0, 0.0, 0.0, 0.0, 0.0)",-0.19464040126091972,0.8571626447690798,1.1424313783698345,"(0.0, 0.0, 0.0, 0.0, 0.0, 0.0)",-0.026033851694478666,False,,,,,False,,,,
59,Move,,,"(0.009998826598722164, 0.16002774252192944, 0.04755055901421763)","(-0.0005516191299448554, -3.980150267197137e-05, 2.339437659612592e-07)","[0.0, 0.0, 0.0]","[-0.026750000193715096, 0.05299999937415123, 0.03999999910593033]","[0.0, -0.0, 0.6422051137296667]","[-0.0698753148317337, 0.11065594106912613, 0.03999999910593033]","[0.0, 0.0, -0.2154080556264429]","[0.026750000193715096, 0.05299999937415123, 0.03999999910593033]","[0.0, 0.0, -0.6422983956794274]","[0.06988069415092468, 0.1106519103050232, 0.03999999910593033]","[0.0, -0.0, 0.21486417441436167]",0.6379846146185022,-1.0129230564933929,"(0.0, 0.0, 0.0, 0.0, 0.0, 0.0)",0.17470684718642912,-0.8618522144704561,-1.0173654502368856,"(0.0, 0.0, 0.0, 0.0, 0.0, 0.0)",0.023291096758263134,-0.6380686012973601,1.0151627012629356,"(0.0, 0.0, 0.0, 0.0, 0.0, 0.0)",-0.1751907229705418,0.8614467243673204,1.02817910357775,"(0.0, 0.0, 0.0, 0.0, 0.0, 0.0)",-0.023440272040621463,False,,,,,True,"(0.04276013174954747, 0.17974174897294792, 0.02399995643463635)","(-0.9999999990838299, -1.9447426661030803e-07, -4.2805404423670755e-05)",0.0013234533115717422,0.0
60,Move,,,"(0.008699259039732246, 0.1597652061907072, 0.04782485533738502)","(0.0040480273580015685, 0.009650479713711625, 0.017575803187450934)","[-0.0012995675589899183, -0.00026253633122225173, 0.00027429632316738894]","[-0.026750000193715096, 0.05299999937415123, 0.03999999910593033]","[0.0, -0.0, 0.6379846501970732]","[-0.06963159143924713, 0.1108374372124672, 0.03999999910593033]","[0.0, 0.0, -0.22386762157269943]","[0.026750000193715096, 0.05299999937415123, 0.03999999910593033]","[0.0, 0.0, -0.638068602671057]","[0.06963644921779633, 0.11083383113145828, 0.03999999910593033]","[0.0, -0.0, 0.22337816170537766]",0.6141590059460926,-5.718146081378296,"(0.0, 0.0, 0.0, 0.0, 0.0, 0.0)",-6.715100343954984,-0.8614283121995241,0.10173654502368734,"(0.0, 0.0, 0.0, 0.0, 0.0, 0.0)",-0.3723637437215536,-0.6186765363685498,4.654095582914465,"(0.0, 0.0, 0.0, 0.0, 0.0, 0.0)",16.91452213543579,0.8602423878670417,-0.28904076006690205,"(0.0, 0.0, 0.0, 0.0, 0.0, 0.0)",7.026754130549747,False,,,,,True,"(0.041928616181162004, 0.17969877893574898, 0.023999959438538117)","(-0.9999999992078928, -2.3394376620903917e-07, -3.980150265941498e-05)",0.0004918567139684023,94.17969713248019
61,Move,,,"(0.006953428279101256, 0.15936555806379668, 0.04799883027777207)","(0.0036027003309908674, 0.011726089522938334, 0.045571805054608026)","[-0.0030453983196209082, -0.000662184458132764, 0.0004482712635544353]","[-0.026750000193715096, 0.05299999937415123, 0.03999999910593033]","[0.0, -0.0, 0.6141590305095613]","[-0.06824154406785965, 0.11184260249137878, 0.03999999910593033]","[0.0, 0.0, -0.24726930604170874]","[0.026750000193715096, 0.05299999937415123, 0.03999999910593033]","[0.0, 0.0, -0.6186765449450942]","[0.06850694119930267, 0.11165456473827362, 0.03999999910593033]","[0.0, -0.0, 0.24156588090171732]",0.5923752537221402,-5.228100533748595,"(0.0, 0.0, 0.0, 0.0, 0.0, 0.0)",0.6968351830029371,-0.8614707024266173,-0.010173654502368734,"(0.0, 0.0, 0.0, 0.0, 0.0, 0.0)",0.03860943376531379,-0.6008618977467228,4.275513269238477,"(0.0, 0.0, 0.0, 0.0, 0.0, 0.0)",3.1840553339598543,0.8603207379647874,0.018804023458970476,"(0.0, 0.0, 0.0, 0.0, 0.0, 0.0)",2.2071937117843152,False,,,,,True,"(0.03955126028332891, 0.18000420521160232, 0.023999959438538117)","(-0.9999999992078928, -2.3394376620903917e-07, -3.980150265941498e-05)",-4.69285261207243e-06,0.0
62,Move,,,"(0.005232479171843643, 0.15895611509417099, 0.04805192961782931)","(0.0015613319654504138, 0.011710638263295036, 0.07400765980182708)","[-0.004766347426878521, -0.0010716274277584592, 0.0005013706036116755]","[-0.026750000193715096, 0.05299999937415123, 0.03999999910593033]","[0.0, -0.0, 0.5923752994005711]","[-0.0669499859213829, 0.1127324104309082, 0.03999999910593033]","[0.0, 0.0, -0.2690954538189607]","[0.026750000193715096, 0.05299999937415123, 0.03999999910593033]","[0.0, 0.0, -0.6008619062673114]","[0.0674554631114006, 0.11238910257816315, 0.03999999910593033]","[0.0, -0.0, 0.2594588653702835]",0.5711748754471921,-5.088090785987531,"(0.0, 0.0, 0.0, 0.0, 0.0, 0.0)",0.20179723839696584,-0.8614666854136499,0.0009640831121563087,"(0.0, 0.0, 0.0, 0.0, 0.0, 0.0)",0.015124512099487388,-0.5830478441846109,4.27537285490686,"(0.0, 0.0, 0.0, 0.0, 0.0, 0.0)",-0.00040728805220429705,0.8603129289032243,-0.001874174775147154,"(0.0, 0.0, 0.0, 0.0, 0.0, 0.0)",-0.0017677334094061982,False,,,,,True,"(0.03728150083157586, 0.18020972647077313, 0.023999959438538117)","(-0.9999999992078928, -2.3394376620903917e-07, -3.980150265941498e-05)",0.00010136561290409651,0.0
63,Move,,,"(0.003536438132730313, 0.15853702184869162, 0.04798413986117641)","(-0.002178499075898401, 0.009685758062407228, 0.10285468498251224)","[-0.006462388465991851, -0.0014907206732378275, 0.0004335808469587768]","[-0.026750000193715096, 0.05299999937415123, 0.03999999910593033]","[0.0, -0.0, 0.5711748797881039]","[-0.06567469984292984, 0.1135711818933487, 0.03999999910593033]","[0.0, 0.0, -0.2902918330000066]","[0.026750000193715096, 0.05299999937415123, 0.03999999910593033]","[0.0, 0.0, -0.5830479010023177]","[0.06639109551906586, 0.11310476809740067, 0.03999999910593033]","[0.0, -0.0, 0.2772650915613622]",0.5507922484404775,-4.891830481611522,"(0.0, 0.0, 0.0, 0.0, 0.0, 0.0)",0.282294284049585,-0.8614673765775518,-0.00016587933645189224,"(0.0, 0.0, 0.0, 0.0, 0.0, 0.0)",0.019719768305812027,-0.565275293151566,4.265412247930778,"(0.0, 0.0, 0.0, 0.0, 0.0, 0.0)",-0.012306804327906049,0.8603137161198487,0.00018893198985979812,"(0.0, 0.0, 0.0, 0.0, 0.0, 0.0)",-0.0004299034376783175,False,,,,,True,"(0.035014354147368115, 0.18037738642755824, 0.023999959438538117)","(-0.9999999992078928, -2.3394376620903917e-07, -3.980150265941498e-05)",0.0001657852207818292,0.0
64,Move,,,"(0.0033070809685918903, 0.15939336139403074, 0.0480245948749005)","(-0.003221721649284341, 0.008758192496794307, 0.10007245081902345)","[-0.006691745630130274, -0.0006343811278987088, 0.00047403586068286985]","[-0.026750000193715096, 0.05299999937415123, 0.03999999910593033]","[0.0, -0.0, 0.5507922756468575]","[-0.06443209946155548, 0.11435192823410034, 0.03999999910593033]","[0.0, 0.0, -0.31067510738133]","[0.026750000193715096, 0.05299999937415123, 0.03999999910593033]","[0.0, 0.0, -0.5652752430676895]","[0.06531667709350586, 0.11379976570606232, 0.03999999910593033]","[0.0, -0.0, 0.2950384296353975]",0.5330621314256022,-4.255228083570051,"(0.0, 0.0, 0.0, 0.0, 0.0, 0.0)",-63.6841566907319,-0.833899768100212,6.616226034561552,"(0.0, 0.0, 0.0, 0.0, 0.0, 0.0)",-32.0033096547166,-0.5494184347075574,3.805646026562078,"(0.0, 0.0, 0.0, 0.0, 0.0, 0.0)",54.08522476914028,0.834294882877888,-6.244519978070589,"(0.0, 0.0, 0.0, 0.0, 0.0, 0.0)",25.974823871813367,True,"(-0.030827226021807298, 0.18072875671023755, 0.023990313633420805)","(0.9946684597633704, 0.10266861339458756, -0.009685606619977753)",0.00023266339136997558,510.2877732171601,True,"(0.03274929454054999, 0.18050411530517568, 0.023999959438538117)","(-0.9999999992078928, -2.3394376620903917e-07, -3.980150265941498e-05)",0.00018643181396489492,418.4587664295024
65,Move,"(0.0, 0.0, 0.0)","(0.0, -0.0, 0.0)","(0.0031969503873777684, 0.16028143882127593, 0.048054583489053525)","(-0.004372781608329888, 0.007939463136719069, 0.09861198334618497)","[-0.006801876211344396, 0.00025369629934648974, 0.0005040244748358916]","[-0.026750000193715096, 0.05299999937415123, 0.03999999910593033]","[0.0, -0.0, 0.5330621158171134]","[-0.06333845853805542, 0.11501035839319229, 0.03999999910593033]","[0.0, 0.0, -0.30083767855036603]","[0.026750000193715096, 0.05299999937415123, 0.03999999910593033]","[0.0, 0.0, -0.549418426545043]","[0.0643477737903595, 0.11440364271402359, 0.03999999910593033]","[0.0, -0.0, 0.2848764361199625]",0.5161701590322703,-4.054073374399667,"(0.0, 0.0, 0.0, 0.0, 0.0, 0.0)",-68.88180562685734,-0.8061093417891989,6.669702314643141,"(0.0, 0.0, 0.0, 0.0, 0.0, 0.0)",-35.756361121383094,-0.5337544439677235,3.7593577775601132,"(0.0, 0.0, 0.0, 0.0, 0.0, 0.0)",68.77952387616044,0.8075007011486295,-6.430603615022057,"(0.0, 0.0, 0.0, 0.0, 0.0, 0.0)",33.85011913137436,True,"(-0.030386831991674287, 0.18170201039644102, 0.02399124115951112)","(0.9949587688124035, 0.09990167360330966, -0.008758080529661552)",-0.0003521033588324185,534.8399967547618,True,"(0.03245991098360225, 0.1814354915724969, 0.023999959438538117)","(-0.9999999992078928, -2.3394376620903917e-07, -3.980150265941498e-05)",3.895377007335016e-05,524.277520594291
66,Move,"(0.0006329113924050633, 0.0, 0.0006329113924050633)","(0.0, -0.0, 0.0)","(0.003103231430513846, 0.16109440397195374, 0.048059086996620294)","(-0.004816457762876065, 0.004152668738523914, 0.09477766741003538)","[-0.006895595168208318, 0.0010666614500242921, 0.0005085279824026609]","[-0.026750000193715096, 0.05299999937415123, 0.03999999910593033]","[0.0, -0.0, 0.5161702079325045]","[-0.062285806983709335, 0.11561953276395798, 0.03999999910593033]","[0.0, 0.0, -0.28993919682770425]","[0.026750000193715096, 0.05299999937415123, 0.03999999910593033]","[0.0, 0.0, -0.5337544427276155]","[0.0633813738822937, 0.11498501896858215, 0.03999999910593033]","[0.0, -0.0, 0.27374624928461355]",0.5166144337824271,0.10662594003765413,"(0.0, 0.0, 0.0, 0.0, 0.0, 0.0)",5.0099850593155235,-0.8088825038537306,-0.6655588954876208,"(0.0, 0.0, 0.0, 0.0, 0.0, 0.0)",-0.47721716603763553,-0.5367630675167633,-0.7220696517695289,"(0.0, 0.0, 0.0, 0.0, 0.0, 0.0)",-5.770589790420478,0.8101801193215553,0.6430603615022044,"(0.0, 0.0, 0.0, 0.0, 0.0, 0.0)",0.2689174556793983,True,"(-0.03006166347399304, 0.18265404950541297, 0.023992059860314583)","(0.9951104129424696, 0.09844913561342714, -0.007939379726199769)",-0.0007346128178897825,2.032966651424181,True,"(0.032241548852435555, 0.18236762460912842, 0.023999959438538117)","(-0.9999999992078928, -2.3394376620903917e-07, -3.980150265941498e-05)",-0.00012424112725224057,0.0
67,Move,"(0.0012658227848101268, 0.0, 0.0012658227848101268)","(0.0, -0.0, 0.0)","(0.002993347935349499, 0.16186085925702084, 0.047989709404105955)","(-0.004599915065034015, -0.001120024916714355, 0.09007714569220765)","[-0.007005478663372665, 0.0018331167350914002, 0.0004391503898883223]","[-0.026750000193715096, 0.05299999937415123, 0.03999999910593033]","[0.0, -0.0, 0.5166145167686849]","[-0.06231362372636795, 0.1156037449836731, 0.03999999910593033]","[0.0, 0.0, -0.29226808746388727]","[0.026750000193715096, 0.05299999937415123, 0.03999999910593033]","[0.0, 0.0, -0.5367630711600129]","[0.06356769800186157, 0.11487452685832977, 0.03999999910593033]","[0.0, -0.0, 0.27341709946321935]",0.5152990953092202,-0.315681233569657,"(0.0, 0.0, 0.0, 0.0, 0.0, 0.0)",-0.5550889519709283,-0.8086064896751191,0.06624340286676256,"(0.0, 0.0, 0.0, 0.0, 0.0, 0.0)",0.02231746939576405,-0.5381572325464963,-0.3345996071359192,"(0.0, 0.0, 0.0, 0.0, 0.0, 0.0)",0.4889087176538847,0.8099121775042627,-0.0643060361502199,"(0.0, 0.0, 0.0, 0.0, 0.0, 0.0)",-0.033208316680056645,True,"(-0.029933285562671302, 0.18256153119103405, 0.023995846583237473)","(0.9955033743714912, 0.09463502024329482, -0.004152656803312201)",-0.0006805043496028978,0.13694895942395088,True,"(0.032450056763315, 0.18226738195973757, 0.023999959438538117)","(-0.9999999992078928, -2.3394376620903917e-07, -3.980150265941498e-05)",9.451939916559619e-07,0.0
68,Move,"(0.00189873417721519, 0.0, 0.00189873417721519)","(0.0, -0.0, 0.0)","(0.0031075821799967413, 0.16240693660991162, 0.04805947089611357)","(-0.003909149211287029, -0.001039913777195872, 0.08781440748810228)","[-0.006891244418725424, 0.0023791940879821782, 0.000508911881895939]","[-0.026750000193715096, 0.05299999937415123, 0.03999999910593033]","[0.0, -0.0, 0.515299086390783]","[-0.06223125010728836, 0.1156504675745964, 0.03999999910593033]","[0.0, 0.0, -0.29330740092939656]","[0.026750000193715096, 0.05299999937415123, 0.03999999910593033]","[0.0, 0.0, -0.5381572487939661]","[0.06365393102169037, 0.11482313275337219, 0.03999999910593033]","[0.0, -0.0, 0.2717549656128184]",0.5138260299606128,-0.35353568366580074,"(0.0, 0.0, 0.0, 0.0, 0.0, 0.0)",-2.35361622495531,-0.8082119539518453,0.09468857358570754,"(0.0, 0.0, 0.0, 0.0, 0.0, 0.0)",-1.2712567492312468,-0.5396447607338202,-0.35700676495772143,"(0.0, 0.0, 0.0, 0.0, 0.0, 0.0)",0.23803869676134295,0.809587989397052,-0.07780514573057488,"(0.0, 0.0, 0.0, 0.0, 0.0, 0.0)",0.1619605081989516,True,"(-0.029781336355326177, 0.182574565394808, 0.023995846583237473)","(0.9955033743714912, 0.09463502024329482, -0.004152656803312201)",-0.0006260905936778575,14.127199564445746,True,"(0.032736777478553414, 0.18113077207619865, 0.05600415341676252)","(-0.9955033743714903, -0.0946350202433038, 0.004152656803305648)",-7.426427659287079e-05,2.216393656396859
69,Move,"(0.002531645569620253, 0.0, 0.002531645569620253)","(0.0, -0.0, 0.0)","(0.0032372431936113478, 0.16287310627904142, 0.04809432088824993)","(-0.0022895699340879394, -0.0009535600263831636, 0.0848969073260172)","[-0.006761583405110816, 0.002845363757111974, 0.0005437618740322947]","[-0.026750000193715096, 0.05299999937415123, 0.03999999910593033]","[0.0, -0.0, 0.513825999185146]","[-0.06213892251253128, 0.11570266634225845, 0.03999999910593033]","[0.0, 0.0, -0.2943859057472175]","[0.026750000193715096, 0.05299999937415123, 0.03999999910593033]","[0.0, 0.0, -0.5396447230256975]","[0.06374584883451462, 0.11476816982030869, 0.03999999910593033]","[0.0, -0.0, 0.26994321663361676]",0.512338106140707,-0.357101716777406,"(0.0, 0.0, 0.0, 0.0, 0.0, 0.0)",-0.42869466911582726,-0.8081642043758387,0.011459898241592978,"(0.0, 0.0, 0.0, 0.0, 0.0, 0.0)",-0.23876113109997002,-0.5414066684737567,-0.42285785758477257,"(0.0, 0.0, 0.0, 0.0, 0.0, 0.0)",0.010653705608760097,0.8095272682967501,-0.014573064072442604,"(0.0, 0.0, 0.0, 0.0, 0.0, 0.0)",0.06057549679385232,True,"(-0.029616404237066574, 0.1825869015549944, 0.056001040673548996)","(0.9961462533730517, 0.0877015420078688, 0.001039913589771717)",-0.0006171962207401969,3.157996834602405,True,"(0.032948881571813034, 0.18113171231767877, 0.05600415341676252)","(-0.9955033743714903, -0.0946350202433038, 0.004152656803305648)",-6.710391609019173e-05,0.8135577535980643
70,Move,"(0.0031645569620253164, 0.0, 0.0031645569620253164)","(0.0, -0.0, 0.0)","(0.003390274580081534, 0.16329354568772417, 0.04803664724115629)","(-0.0002692363561775654, 0.0015449071786745115, 0.08335610845047699)","[-0.006608552018640631, 0.003265803165794723, 0.00048608822693865794]","[-0.026750000193715096, 0.05299999937415123, 0.03999999910593033]","[0.0, -0.0, 0.5123381216203984]","[-0.06204558536410332, 0.11575525254011154, 0.03999999910593033]","[0.0, 0.0, -0.2958261384427586]","[0.026750000193715096, 0.05299999937415123, 0.03999999910593033]","[0.0, 0.0, -0.541406693060999]","[0.0638546273112297, 0.11470289528369904, 0.03999999910593033]","[0.0, -0.0, 0.2681206052041675]",0.5108104349123548,-0.36664109480451823,"(0.0, 0.0, 0.0, 0.0, 0.0, 0.0)",-0.2288884371647174,-0.8081648323791052,-0.0001507207839726698,"(0.0, 0.0, 0.0, 0.0, 0.0, 0.0)",-0.12055959830592487,-0.5433237099799648,-0.4600899614899401,"(0.0, 0.0, 0.0, 0.0, 0.0, 0.0)",-0.05250006012954229,0.8095333404067804,0.0014573064072447295,"(0.0, 0.0, 0.0, 0.0, 0.0, 0.0)",-0.0022117243546283557,True,"(-0.029426650671844592, 0.182591108803712, 0.056000954319841104)","(0.9963979685356342, 0.08479492332453138, 0.0009535598818755757)",-0.0005702885644738866,1.6279366547367224,True,"(0.033178253771599935, 0.18112702054413754, 0.0239990456801589)","(-0.9963979685356339, -0.08479492332453471, -0.0009535598818778171)",-7.897500733223235e-05,0.0
71,Move,"(0.00379746835443038, 0.0, 0.00379746835443038)","(0.0, -0.0, 0.0)","(0.003540529455172254, 0.16361579637192647, 0.04800911438788768)","(0.0031618470628001286, 0.0014257367141056673, 0.08026788956729482)","[-0.00645829714354991, 0.003588053849997025, 0.0004585553736700457]","[-0.026750000193715096, 0.05299999937415123, 0.03999999910593033]","[0.0, -0.0, 0.5108104696187835]","[-0.061949677765369415, 0.11580909788608551, 0.03999999910593033]","[0.0, 0.0, -0.2973544228451759]","[0.026750000193715096, 0.05299999937415123, 0.03999999910593033]","[0.0, 0.0, -0.5433236985361763]","[0.0639728456735611, 0.11463164538145065, 0.03999999910593033]","[0.0, -0.0, 0.2662096408647863]",0.5092389038636073,-0.377167451699412,"(0.0, 0.0, 0.0, 0.0, 0.0, 0.0)",-0.35956321877042674,-0.8081482040239313,0.003990805241742371,"(0.0, 0.0, 0.0, 0.0, 0.0, 0.0)",-0.1922000735690901,-0.545400052743339,-0.4983222632098121,"(0.0, 0.0, 0.0, 0.0, 0.0, 0.0)",-0.055792672870145214,0.8095327331957773,-0.00014573064072553876,"(0.0, 0.0, 0.0, 0.0, 0.0, 0.0)",-0.0041466812960886945,True,"(-0.029228633075336144, 0.18259502607693312, 0.056000954319841104)","(0.9963979685356342, 0.08479492332453138, 0.0009535598818755757)",-0.0005252573865047038,0.9243715849871392,True,"(0.03342346293513608, 0.18111427638801356, 0.0239990456801589)","(-0.9963979685356339, -0.08479492332453471, -0.0009535598818778171)",1.2338683014817267e-05,0.0
72,Move,"(0.004430379746835442, 0.0, 0.004430379746835442)","(0.0, -0.0, 0.0)","(0.0036737616600252946, 0.16382380533300164, 0.0480875311799079)","(0.0029061239284436267, 0.0013127646341453394, 0.07574956099568472)","[-0.00632506493869687, 0.0037960628110721983, 0.0005369721656902637]","[-0.026750000193715096, 0.05299999937415123, 0.03999999910593033]","[0.0, -0.0, 0.5092389652771653]","[-0.06185092777013779, 0.1158643364906311, 0.03999999910593033]","[0.0, 0.0, -0.2989093265543913]","[0.026750000193715096, 0.05299999937415123, 0.03999999910593033]","[0.0, 0.0, -0.5454000679100025]","[0.0641007274389267, 0.11455422639846802, 0.03999999910593033]","[0.0, -0.0, 0.2641327309231564]",0.507618682495217,-0.3888531284136478,"(0.0, 0.0, 0.0, 0.0, 0.0, 0.0)",-0.486211381384256,-0.8081218782108448,0.006318195140761623,"(0.0, 0.0, 0.0, 0.0, 0.0, 0.0)",-0.2590803921876713,-0.5476263907656975,-0.5343211253660504,"(0.0, 0.0, 0.0, 0.0, 0.0, 0.0)",-0.05237830782510288,0.8095327939168776,1.457306407282033e-05,"(0.0, 0.0, 0.0, 0.0, 0.0, 0.0)",-0.003733144308540444,True,"(-0.02902607717940473, 0.18259930712561692, 0.056000954319841104)","(0.9963979685356342, 0.08479492332453138, 0.0009535598818755757)",-0.00048186187097287345,2.062869000790404,True,"(0.03368949791677195, 0.18110016230455686, 0.0239990456801589)","(-0.9963979685356339, -0.08479492332453471, -0.0009535598818778171)",4.7635366334160774e-05,0.0
73,Move,"(0.005063291139240506, 0.0, 0.005063291139240506)","(0.0, -0.0, 0.0)","(0.0037914425562555697, 0.16400991744635396, 0.048141969332627196)","(0.0026794095181939953, 0.0006234876007952148, 0.07029901598519599)","[-0.006207384042466594, 0.003982174924424514, 0.0005914103184095632]","[-0.026750000193715096, 0.05299999937415123, 0.03999999910593033]","[0.0, -0.0, 0.5076187276280435]","[-0.06174902617931366, 0.11592112481594086, 0.03999999910593033]","[0.0, 0.0, -0.3005031526244421]","[0.026750000193715096, 0.05299999937415123, 0.03999999910593033]","[0.0, 0.0, -0.5476264682313181]","[0.06423767656087875, 0.11447092145681381, 0.03999999910593033]","[0.0, -0.0, 0.2619064805107716]",0.5059378645346351,-0.40339631053966174,"(0.0, 0.0, 0.0, 0.0, 0.0, 0.0)",-0.4353600425756421,-0.8081120824644509,0.0023509791345483503,"(0.0, 0.0, 0.0, 0.0, 0.0, 0.0)",-0.23181710075171907,-0.549996050739019,-0.56871839359715,"(0.0, 0.0, 0.0, 0.0, 0.0, 0.0)",-0.05008201223833569,0.8095327878447676,-1.4573064062162189e-06,"(0.0, 0.0, 0.0, 0.0, 0.0, 0.0)",-0.003586455601419928,True,"(-0.028817850178389552, 0.182603691729318, 0.056000954319841104)","(0.9963979685356342, 0.08479492332453138, 0.0009535598818755757)",-0.0004380934799098433,3.146162833141314,True,"(0.033974670700254776, 0.1810843933423651, 0.0239990456801589)","(-0.9963979685356339, -0.08479492332453471, -0.0009535598818778171)",0.00010699725382977601,0.0
74,Move,"(0.00569620253164557, 0.0, 0.00569620253164557)","(0.0, -0.0, 0.0)","(0.0038772715277630167, 0.16419718334172315, 0.048154994375431116)","(0.002470423437267029, -0.0012302764554458418, 0.064537137984321)","[-0.006121555070959147, 0.004169440819793702, 0.0006044353612134831]","[-0.026750000193715096, 0.05299999937415123, 0.03999999910593033]","[0.0, -0.0, 0.5059378396887989]","[-0.061643216758966446, 0.115979865193367, 0.03999999910593033]","[0.0, 0.0, -0.30217426355862415]","[0.026750000193715096, 0.05299999937415123, 0.03999999910593033]","[0.0, 0.0, -0.5499959804299995]","[0.06438323855400085, 0.11438191682100296, 0.03999999910593033]","[0.0, -0.0, 0.25953672843763115]",0.5041714258605987,-0.4239452817687195,"(0.0, 0.0, 0.0, 0.0, 0.0, 0.0)",-0.26752556119952803,-0.8081119763310873,2.547200726105668e-05,"(0.0, 0.0, 0.0, 0.0, 0.0, 0.0)",-0.13434685500268317,-0.5525019696572886,-0.6014205403847095,"(0.0, 0.0, 0.0, 0.0, 0.0, 0.0)",-0.04762945803616731,0.8095327884519785,1.4573064088807541e-07,"(0.0, 0.0, 0.0, 0.0, 0.0, 0.0)",-0.0034099151768901175,True,"(-0.02860004613994198, 0.18259908112284884, 0.02399937575248039)","(0.9975298477400851, 0.07024111424874212, -0.0006234875603906632)",-0.00044629948501390495,1.8103584244534572,True,"(0.034278166996933424, 0.18106691391297475, 0.0239990456801589)","(-0.9963979685356339, -0.08479492332453471, -0.0009535598818778171)",0.0001743596716853355,0.0
75,Move,"(0.006329113924050633, 0.0, 0.006329113924050633)","(0.0, -0.0, 0.0)","(0.004056755600775467, 0.16431650792523786, 0.048221579921092037)","(0.0018100005537791356, -0.001601950926352886, 0.06023074506830323)","[-0.005942070997946697, 0.004288765403308414, 0.0006710209068744033]","[-0.026750000193715096, 0.05299999937415123, 0.03999999910593033]","[0.0, -0.0, 0.5041714661350752]","[-0.061531912535429, 0.116041399538517, 0.03999999910593033]","[0.0, 0.0, -0.30394056878636644]","[0.026750000193715096, 0.05299999937415123, 0.03999999910593033]","[0.0, 0.0, -0.5525019914709101]","[0.0645369365811348, 0.11428741365671158, 0.03999999910593033]","[0.0, -0.0, 0.25703084211745014]",0.502317666979997,-0.4449021313443927,"(0.0, 0.0, 0.0, 0.0, 0.0, 0.0)",-1.3668477465155833,-0.8080715600166053,0.009699915475684304,"(0.0, 0.0, 0.0, 0.0, 0.0, 0.0)",-0.7436726062492629,-0.555148058772303,-0.6350613876034573,"(0.0, 0.0, 0.0, 0.0, 0.0, 0.0)",-0.0490022261943734,0.8095327883912574,-1.4573062756539912e-08,"(0.0, 0.0, 0.0, 0.0, 0.0, 0.0)",-0.0035087677707649474,True,"(-0.028371121607943514, 0.18260215043935035, 0.02399937575248039)","(0.9975298477400851, 0.07024111424874212, -0.0006234875603906632)",-0.0004108139595341511,3.0825000452786715,True,"(0.03458095289670644, 0.18133310052484447, 0.023998769023009837)","(-0.9979189894083941, -0.06446841974320429, -0.001230217030942173)",0.00027815507026235836,0.0
76,Move,"(0.006962025316455696, 0.0, 0.006962025316455696)","(0.0, -0.0, 0.0)","(0.004249459125399458, 0.164435802740935, 0.048210997884572566)","(-0.0006993785154107351, -0.0014756130359927845, 0.05605738152150411)","[-0.005749367473322707, 0.004408060219005555, 0.0006604388703549333]","[-0.026750000193715096, 0.05299999937415123, 0.03999999910593033]","[0.0, -0.0, 0.5023176135002632]","[-0.061414990574121475, 0.11610577255487442, 0.03999999910593033]","[0.0, 0.0, -0.30575391609676283]","[0.026750000193715096, 0.05299999937415123, 0.03999999910593033]","[0.0, 0.0, -0.5551480813014368]","[0.06469897925853729, 0.11418721079826355, 0.03999999910593033]","[0.0, -0.0, 0.254384751454041]",0.5003641437045275,-0.4688455861126839,"(0.0, 0.0, 0.0, 0.0, 0.0, 0.0)",-0.2954137601868807,-0.808059292739151,0.0029441465890190574,"(0.0, 0.0, 0.0, 0.0, 0.0, 0.0)",-0.14596381327684496,-0.5579397453576128,-0.6700047804743584,"(0.0, 0.0, 0.0, 0.0, 0.0, 0.0)",-0.050903404730332294,0.8095327883973296,1.4573062756539912e-09,"(0.0, 0.0, 0.0, 0.0, 0.0, 0.0)",-0.00364526189266896,True,"(-0.02813355550097376, 0.18260627808966345, 0.02399937575248039)","(0.9975298477400851, 0.07024111424874212, -0.0006234875603906632)",-0.0003611289276656283,0.7494210704008651,True,"(0.03492041135314407, 0.18131348475196177, 0.023998397279983034)","(-0.998185069670814, -0.06019967118054476, -0.0016019600577396231)",0.0003549664149864359,0.0
77,Move,"(0.00759493670886076, 0.0, 0.00759493670886076)","(0.0, -0.0, 0.0)","(0.004503064860966741, 0.16454576331839793, 0.048273327131497575)","(-0.0023483782402377506, 0.00034042957968175133, 0.05272364214718677)","[-0.005495761737755424, 0.004518020796468486, 0.0007227681172799413]","[-0.026750000193715096, 0.05299999937415123, 0.03999999910593033]","[0.0, -0.0, 0.5003641389374367]","[-0.0612916462123394, 0.11617337167263031, 0.03999999910593033]","[0.0, 0.0, -0.3076951313513602]","[0.026750000193715096, 0.05299999937415123, 0.03999999910593033]","[0.0, 0.0, -0.5579397719690325]","[0.06486964225769043, 0.11408103257417679, 0.03999999910593033]","[0.0, -0.0, 0.2515930713475054]",0.49832534882476015,-0.4893107711441679,"(0.0, 0.0, 0.0, 0.0, 0.0, 0.0)",-1.3523812079046855,-0.8080177146216575,0.00997874819843877,"(0.0, 0.0, 0.0, 0.0, 0.0, 0.0)",-0.7037664459639584,-0.5608424149748272,-0.696640708131465,"(0.0, 0.0, 0.0, 0.0, 0.0, 0.0)",-0.038853591515817056,0.8095327883967224,-1.4573142692597685e-10,"(0.0, 0.0, 0.0, 0.0, 0.0, 0.0)",-0.0027843008017724084,True,"(-0.02788117912466468, 0.1826091434511678, 0.02399937575248039)","(0.9975298477400851, 0.07024111424874212, -0.0006234875603906632)",-0.0003279069014150891,10.142266415696984,True,"(0.03523125013828472, 0.18210908302289702, 0.023998523627540288)","(-0.9984281093915902, -0.05602796573571862, -0.0014756125004848914)",0.0004505606431103063,0.0
78,Move,"(0.008227848101265822, 0.0, 0.008227848101265822)","(0.0, -0.0, 0.0)","(0.004748172900583385, 0.1646332166622194, 0.04833065904980432)","(-0.0021621111791202824, 0.000313027441010107, 0.05025283595929898)","[-0.0052506536981387795, 0.004605474140289945, 0.0007801000355866852]","[-0.026750000193715096, 0.05299999937415123, 0.03999999910593033]","[0.0, -0.0, 0.49832538014979]","[-0.06116277724504471, 0.11624366044998169, 0.03999999910593033]","[0.0, 0.0, -0.309692360328773]","[0.026750000193715096, 0.05299999937415123, 0.03999999910593033]","[0.0, 0.0, -0.5608425186411474]","[0.0650467798113823, 0.11397013068199158, 0.03999999910593033]","[0.0, -0.0, 0.24869036794784918]",0.496196568419638,-0.5109072972293172,"(0.0, 0.0, 0.0, 0.0, 0.0, 0.0)",-0.6330609587088893,-0.8079932945511343,0.005860816925558809,"(0.0, 0.0, 0.0, 0.0, 0.0, 0.0)",-0.32925038703138615,-0.5638539557071897,-0.722769775766988,"(0.0, 0.0, 0.0, 0.0, 0.0, 0.0)",-0.03812599507239495,0.8095327883967831,1.4572343332019955e-11,"(0.0, 0.0, 0.0, 0.0, 0.0, 0.0)",-0.0027327766193807786,True,"(-0.02761910932582945, 0.18260253462832018, 0.02399965881046768)","(0.9986103728501748, 0.05269921577917924, -0.00034042957310369737)",-0.0003193049164905803,4.6068506246210745,True,"(0.03560597489534287, 0.1820839208870721, 0.023998523627540288)","(-0.9984281093915902, -0.05602796573571862, -0.0014756125004848914)",0.0005552519803886817,0.0
79,Move,"(0.008860759493670885, 0.0, 0.008860759493670885)","(0.0, -0.0, 0.0)","(0.005000358935684029, 0.1646949963219005, 0.048383398770911794)","(-0.0019911227660460145, 0.0002877871626365064, 0.047657281882907354)","[-0.004998467663038135, 0.004667253799971044, 0.0008328397566941606]","[-0.026750000193715096, 0.05299999937415123, 0.03999999910593033]","[0.0, -0.0, 0.4961965674741534]","[-0.06102806702256203, 0.1163167729973793, 0.03999999910593033]","[0.0, 0.0, -0.3117967249501613]","[0.026750000193715096, 0.05299999937415123, 0.03999999910593033]","[0.0, 0.0, -0.5638539040791727]","[0.06523022055625916, 0.11385452002286911, 0.03999999910593033]","[0.0, -0.0, 0.24567883877077318]",0.49398959622660193,-0.5296733263286488,"(0.0, 0.0, 0.0, 0.0, 0.0, 0.0)",-0.7402870933145378,-0.8079595274351434,0.008104107837825784,"(0.0, 0.0, 0.0, 0.0, 0.0, 0.0)",-0.38824851414714423,-0.5669607048034453,-0.7456197831013602,"(0.0, 0.0, 0.0, 0.0, 0.0, 0.0)",-0.033373712954105156,0.809532788396777,-1.4575007867279055e-12,"(0.0, 0.0, 0.0, 0.0, 0.0, 0.0)",-0.0023934874803738988,True,"(-0.027344812496518017, 0.18260454769699258, 0.023999686212604884)","(0.9987375430095877, 0.05023168518968804, -0.00031302743589512735)",-0.00029487721751909294,5.4665512857836545,True,"(0.03599467563431648, 0.18205666544329502, 0.023998523627540288)","(-0.9984281093915902, -0.05602796573571862, -0.0014756125004848914)",0.0006525533594583387,0.0
80,Move,"(0.00949367088607595, 0.0, 0.00949367088607595)","(0.0, -0.0, 0.0)","(0.005259417604289557, 0.164738290812044, 0.04843191924334994)","(-0.0018338413422428542, 0.0002646247368327143, 0.04490079727426558)","[-0.004739408994432607, 0.004710548290114552, 0.000881360229132308]","[-0.026750000193715096, 0.05299999937415123, 0.03999999910593033]","[0.0, -0.0, 0.49398963972544735]","[-0.060888245701789856, 0.11639226973056793, 0.03999999910593033]","[0.0, 0.0, -0.3139699008048141]","[0.026750000193715096, 0.05299999937415123, 0.03999999910593033]","[0.0, 0.0, -0.5669607721803418]","[0.06541909277439117, 0.11373467743396759, 0.03999999910593033]","[0.0, -0.0, 0.24257209528242057]",0.49170409458353115,-0.5485203943369936,"(0.0, 0.0, 0.0, 0.0, 0.0, 0.0)",-0.743340092929927,-0.8079286773898647,0.0074040108668966854,"(0.0, 0.0, 0.0, 0.0, 0.0, 0.0)",-0.38988411185709054,-0.5701583776839196,-0.7674414913138508,"(0.0, 0.0, 0.0, 0.0, 0.0, 0.0)",-0.03188804987559249,0.8095327883967776,1.4654943925052066e-13,"(0.0, 0.0, 0.0, 0.0, 0.0, 0.0)",-0.0022877206995866144,True,"(-0.02706099328074643, 0.1826062652175175, 0.02399971145288212)","(0.9988645652961401, 0.047639241957701826, -0.00028778715866516246)",-0.0002723480361517794,5.487118185730306,True,"(0.03639557705380667, 0.1820273217819599, 0.023998523627540288)","(-0.9984281093915902, -0.05602796573571862, -0.0014756125004848914)",0.0007545759601991141,0.0
81,Move,"(0.010126582278481011, 0.0, 0.010126582278481011)","(0.0, -0.0, 0.0)","(0.005525592520272177, 0.1647680412294346, 0.04847655783500253)","(-0.001689172866818997, 0.00024336698664811796, 0.04199216043973039)","[-0.004473234078449987, 0.004740298707505142, 0.0009259988207848957]","[-0.026750000193715096, 0.05299999937415123, 0.03999999910593033]","[0.0, -0.0, 0.4917041040686082]","[-0.06074327230453491, 0.11647012829780579, 0.03999999910593033]","[0.0, 0.0, -0.3162246043668439]","[0.026750000193715096, 0.05299999937415123, 0.03999999910593033]","[0.0, 0.0, -0.5701584143476446]","[0.06561310589313507, 0.11361071467399597, 0.03999999910593033]","[0.0, -0.0, 0.2393743863372379]",0.48933704935043876,-0.5680908559421757,"(0.0, 0.0, 0.0, 0.0, 0.0, 0.0)",-0.7447898202424511,-0.8078984157052843,0.0072628042993066215,"(0.0, 0.0, 0.0, 0.0, 0.0, 0.0)",-0.39055133142258774,-0.5734425645737112,-0.7882048535499857,"(0.0, 0.0, 0.0, 0.0, 0.0, 0.0)",-0.030358490362187802,0.8095327883967776,-1.3322676295501878e-14,"(0.0, 0.0, 0.0, 0.0, 0.0, 0.0)",-0.00217880785836942,True,"(-0.02676679506738073, 0.18260718437777537, 0.02399973461530704)","(0.9989920935705584, 0.04488570994495885, -0.00026462473374049667)",-0.00025159018381716564,5.490442787811686,True,"(0.03680811420487432, 0.1819958187755248, 0.023998523627540288)","(-0.9984281093915902, -0.05602796573571862, -0.0014756125004848914)",0.0008600212230206779,0.0
82,Move,"(0.010759493670886076, 0.0, 0.010759493670886076)","(0.0, -0.0, 0.0)","(0.005802381653768939, 0.1647795280969851, 0.04851756772793733)","(-0.0015602862248594949, 0.00021946908347010889, 0.03914120933227801)","[-0.004196444944953226, 0.00475178557505565, 0.0009670087137196998]","[-0.026750000193715096, 0.05299999937415123, 0.03999999910593033]","[0.0, -0.0, 0.4893370953653188]","[-0.06059294193983078, 0.11655041575431824, 0.03999999910593033]","[0.0, 0.0, -0.31856134737355235]","[0.026750000193715096, 0.05299999937415123, 0.03999999910593033]","[0.0, 0.0, -0.5734425618397986]","[0.06581195443868637, 0.1134827584028244, 0.03999999910593033]","[0.0, -0.0, 0.2360902116131252]",0.4868874818291632,-0.5878962051061356,"(0.0, 0.0, 0.0, 0.0, 0.0, 0.0)",-0.7701045337676322,-0.8078569864076731,0.009943031426687168,"(0.0, 0.0, 0.0, 0.0, 0.0, 0.0)",-0.4025533129601278,-0.5768096795656029,-0.808107598054007,"(0.0, 0.0, 0.0, 0.0, 0.0, 0.0)",-0.029115695182859242,0.8095327883967776,0.0,"(0.0, 0.0, 0.0, 0.0, 0.0, 0.0)",-0.0020903894805897136,True,"(-0.02646198405873519, 0.18260732259206636, 0.023999755873056538)","(0.9991184291927722, 0.04197981919778595, -0.00024336698424562835)",-0.00023246948224205153,5.686448482084652,True,"(0.037231705577393095, 0.18196209044178518, 0.023998523627540288)","(-0.9984281093915902, -0.05602796573571862, -0.0014756125004848914)",0.0009679584713364232,0.0
83,Move,"(0.01139240506329114, 0.0, 0.01139240506329114)","(0.0, -0.0, 0.0)","(0.006088168335452617, 0.16477757565229323, 0.048555299614800665)","(-0.0014414510608520834, 0.00019776157777676718, 0.03620378669731531)","[-0.003910658263269548, 0.004749833130363784, 0.0010047406005830317]","[-0.026750000193715096, 0.05299999937415123, 0.03999999910593033]","[0.0, -0.0, 0.4868875115431727]","[-0.060437168926000595, 0.11663312464952469, 0.03999999910593033]","[0.0, 0.0, -0.3209695105591943]","[0.026750000193715096, 0.05299999937415123, 0.03999999910593033]","[0.0, 0.0, -0.5768096718329665]","[0.06601538509130478, 0.11335089057683945, 0.03999999910593033]","[0.0, -0.0, 0.23272313968398273]",0.48435340936363663,-0.6081773917263777,"(0.0, 0.0, 0.0, 0.0, 0.0, 0.0)",-0.7638700776885203,-0.807819018800256,0.009112225780126364,"(0.0, 0.0, 0.0, 0.0, 0.0, 0.0)",-0.3987810316809021,-0.5802565110564069,-0.8272395577929316,"(0.0, 0.0, 0.0, 0.0, 0.0, 0.0)",-0.028003082349561025,0.8095327883967776,0.0,"(0.0, 0.0, 0.0, 0.0, 0.0, 0.0)",-0.002011272164878221,True,"(-0.02614721916982398, 0.1826072064265652, 0.023999779770959073)","(0.9992340565931574, 0.03913121487642214, -0.000219469081709433)",-0.00021487046622437823,5.631123924906987,True,"(0.03766587552707393, 0.1819260663496865, 0.023998523627540288)","(-0.9984281093915902, -0.05602796573571862, -0.0014756125004848914)",0.0010778360508538647,0.0
84,Move,"(0.012025316455696204, 0.0, 0.012025316455696204)","(0.0, -0.0, 0.0)","(0.006395016122251422, 0.16476042549411468, 0.048515377103287474)","(0.0008087897524018716, -0.0001351861620985426, 0.033887530855410776)","[-0.003603810476470742, 0.004732682972185237, 0.000964818089069841]","[-0.026750000193715096, 0.05299999937415123, 0.03999999910593033]","[0.0, -0.0, 0.48435344054389556]","[-0.06027580797672272, 0.11671828478574753, 0.03999999910593033]","[0.0, 0.0, -0.32346560655965245]","[0.026750000193715096, 0.05299999937415123, 0.03999999910593033]","[0.0, 0.0, -0.5802564408447478]","[0.06622317433357239, 0.11321518570184708, 0.03999999910593033]","[0.0, -0.0, 0.22927629175906689]",0.48173357480394513,-0.6287602943259545,"(0.0, 0.0, 0.0, 0.0, 0.0, 0.0)",-0.5257626379850305,-0.8077860777443241,0.007905853423643243,"(0.0, 0.0, 0.0, 0.0, 0.0, 0.0)",-0.27792539874167205,-0.5837776339449686,-0.8450694932548136,"(0.0, 0.0, 0.0, 0.0, 0.0, 0.0)",-0.02611902147326938,0.8095327883967776,0.0,"(0.0, 0.0, 0.0, 0.0, 0.0, 0.0)",-0.0018769878282995458,True,"(-0.02582127292351194, 0.18260612997858702, 0.023999801478464287)","(0.999344694951405, 0.036195877705093714, -0.00019776157649670044)",-0.00019864556091055244,0.9895762511478227,True,"(0.03811019622885148, 0.1818876753788675, 0.023998523627540288)","(-0.9984281093915902, -0.05602796573571862, -0.0014756125004848914)",0.0011884684791737972,0.0
85,Move,"(0.012658227848101266, 0.0, 0.012658227848101266)","(0.0, -0.0, 0.0)","(0.006722053262260402, 0.16471833432805252, 0.04855329673621715)","(0.0017258676562521289, 0.000860784248988961, 0.030639996611043514)","[-0.0032767733364617623, 0.004690591806123079, 0.0010027377219995193]","[-0.026750000193715096, 0.05299999937415123, 0.03999999910593033]","[0.0, -0.0, 0.48173354775714977]","[-0.06010876223444939, 0.11680590361356735, 0.03999999910593033]","[0.0, 0.0, -0.3260524884606017]","[0.026750000193715096, 0.05299999937415123, 0.03999999910593033]","[0.0, 0.0, -0.5837776025582182]","[0.06643494963645935, 0.11307582259178162, 0.03999999910593033]","[0.0, -0.0, 0.22575517019661165]",0.47902792315496484,-0.6493563957552633,"(0.0, 0.0, 0.0, 0.0, 0.0, 0.0)",-1.1659668257332358,-0.8077739286038751,0.002915793707761508,"(0.0, 0.0, 0.0, 0.0, 0.0, 0.0)",-0.5919833205983632,-0.5873692329047742,-0.8619837503533433,"(0.0, 0.0, 0.0, 0.0, 0.0, 0.0)",-0.02479545814314103,0.8095327883967776,0.0,"(0.0, 0.0, 0.0, 0.0, 0.0, 0.0)",-0.001782760167922271,True,"(-0.025483897333661458, 0.18260439270768644, 0.023999801478464287)","(0.999344694951405, 0.036195877705093714, -0.00019776157649670044)",-0.00017738221022062754,8.737556341699598,True,"(0.03859902146519685, 0.18074821870619695, 0.023999864053879084)","(-0.9994258634393217, -0.03388104504391257, -0.00013518616168962296)",0.001286884734093888,0.0
86,Move,"(0.013291139240506327, 0.0, 0.013291139240506327)","(0.0, -0.0, 0.0)","(0.007023521364401658, 0.16469882129522362, 0.04858813330334677)","(0.0015847319095810815, 0.0007904836536384283, 0.0269680160028081)","[-0.0029753052343205067, 0.004671078773294174, 0.0010375742891291367]","[-0.026750000193715096, 0.05299999937415123, 0.03999999910593033]","[0.0, -0.0, 0.4790279992373957]","[-0.059936005622148514, 0.11689592152833939, 0.03999999910593033]","[0.0, 0.0, -0.32874605454372224]","[0.026750000193715096, 0.05299999937415123, 0.03999999910593033]","[0.0, 0.0, -0.5873692286093737]","[0.06665046513080597, 0.11293290555477142, 0.03999999910593033]","[0.0, -0.0, 0.22216354694478918]",0.47624363369184036,-0.6682294711498747,"(0.0, 0.0, 0.0, 0.0, 0.0, 0.0)",-0.42037936803499243,-0.807762025131231,0.002856833434592542,"(0.0, 0.0, 0.0, 0.0, 0.0, 0.0)",-0.21700242782729492,-0.5910245413171182,-0.8772740189625666,"(0.0, 0.0, 0.0, 0.0, 0.0, 0.0)",-0.02244332311948549,0.8095327883967776,0.0,"(0.0, 0.0, 0.0, 0.0, 0.0, 0.0)",-0.0016149742055881176,True,"(-0.025134027942326345, 0.18260063223989575, 0.0239991384558981)","(0.9995302617253001, 0.03063519130041151, -0.0008607841426835807)",-0.00016484635938631467,2.9139706722488086,True,"(0.03905776442455149, 0.18070483791602718, 0.023999864053879084)","(-0.9994258634393217, -0.03388104504391257, -0.00013518616168962296)",0.0013946342761762005,0.0
87,Move,"(0.013924050632911392, 0.0, 0.013924050632911392)","(0.0, -0.0, 0.0)","(0.0073334263174517, 0.16467260344987153, 0.048620049488648925)","(0.001451120383955897, 0.0007243953001839871, 0.02328131307571273)","[-0.0026654002812704644, 0.004644860927942085, 0.0010694904744312922]","[-0.026750000193715096, 0.05299999937415123, 0.03999999910593033]","[0.0, -0.0, 0.47624367384609295]","[-0.05975797027349472, 0.11698807775974274, 0.03999999910593033]","[0.0, 0.0, -0.3315184110879014]","[0.026750000193715096, 0.05299999937415123, 0.03999999910593033]","[0.0, 0.0, -0.5910245372229435]","[0.06686926633119583, 0.1127866581082344, 0.03999999910593033]","[0.0, -0.0, 0.21850826150650904]",0.4733753632374783,-0.6883849090468914,"(0.0, 0.0, 0.0, 0.0, 0.0, 0.0)",-0.7377167850603966,-0.8077332695492209,0.006901339682416781,"(0.0, 0.0, 0.0, 0.0, 0.0, 0.0)",-0.390268896826801,-0.5947389308931168,-0.8914534982396612,"(0.0, 0.0, 0.0, 0.0, 0.0, 0.0)",-0.020835729372899268,0.8095327883967776,0.0,"(0.0, 0.0, 0.0, 0.0, 0.0, 0.0)",-0.0015003933439714807,True,"(-0.02477394523789045, 0.18259514774382696, 0.023999208756469464)","(0.9996360727759577, 0.02696473884137755, -0.0007904835713169007)",-0.00015311236710159373,5.379193074067466,False,,,,
88,Move,"(0.013924050632911392, 0.0, 0.013924050632911392)","(0.0, -0.0, 0.0)","(0.007640553824955673, 0.16466810482679967, 0.048599887537782)","(-0.00030398708205109777, 0.000662404521387977, 0.018710849474479447)","[-0.0023582727737664917, 0.004640362304870221, 0.0010493285235643676]","[-0.026750000193715096, 0.05299999937415123, 0.03999999910593033]","[0.0, -0.0, 0.47337535509005846]","[-0.05957430228590965, 0.11708249151706696, 0.03999999910593033]","[0.0, 0.0, -0.33435791206317705]","[0.026750000193715096, 0.05299999937415123, 0.03999999910593033]","[0.0, 0.0, -0.5947389637613394]","[0.06709106266498566, 0.1126372292637825, 0.03999999910593033]","[0.0, -0.0, 0.21479385800224945]",0.47041718308594055,-0.7099632363690651,"(0.0, 0.0, 0.0, 0.0, 0.0, 0.0)",-0.31941016332795885,-0.8077316926955379,0.0003784448839081354,"(0.0, 0.0, 0.0, 0.0, 0.0, 0.0)",-0.15655298948761776,-0.5985185479985728,-0.9071081053094484,"(0.0, 0.0, 0.0, 0.0, 0.0, 0.0)",-0.02298194878062839,0.8095327883967776,0.0,"(0.0, 0.0, 0.0, 0.0, 0.0, 0.0)",-0.0016541982037100048,True,"(-0.024404103502956333, 0.1825891112218409, 0.02399927484480396)","(0.9997287401684021, 0.023279203870414322, -0.0007243952368200416)",-0.00014299660137926878,2.2051645058396,False,,,,
89,Move,"(0.013924050632911392, 0.0, 0.013924050632911392)","(0.0, -0.0, 0.0)","(0.00967974979127125, 0.16431686634381293, 0.0486749745887508)","(-0.0033046060213469414, -0.00413079363898077, -0.013306567150271224)","[-0.0003190768074509149, 0.004289123821883484, 0.0011244155745331677]","[-0.026750000193715096, 0.05299999937415123, 0.03999999910593033]","[0.0, -0.0, 0.47041716876863027]","[-0.05938458815217018, 0.11717930436134338, 0.03999999910593033]","[0.0, 0.0, -0.3373144900031372]","[0.026750000193715096, 0.05299999937415123, 0.03999999910593033]","[0.0, 0.0, -0.5985185727315715]","[0.06731618195772171, 0.11248432844877243, 0.03999999910593033]","[0.0, -0.0, 0.21101423525657903]",0.4501569612875155,-4.8624532316220215,"(0.0, 0.0, 0.0, 0.0, 0.0, 0.0)",-19.203022707099137,-0.8073546724554017,0.0904848576326903,"(0.0, 0.0, 0.0, 0.0, 0.0, 0.0)",-7.735109029636363,-0.5781667873100734,4.884422565239866,"(0.0, 0.0, 0.0, 0.0, 0.0, 0.0)",8.407710269372641,0.8095327883967776,0.0,"(0.0, 0.0, 0.0, 0.0, 0.0, 0.0)",0.6011599266229923,True,"(-0.024020837979610965, 0.18258004685377036, 0.023999336835567837)","(0.9998247378114116, 0.018709753623612296, -0.0006624044729482533)",-0.00013258087316625646,51.902189299783515,False,,,,
90,Move,"(0.013924050632911392, 0.0, 0.013924050632911392)","(0.0, -0.0, 0.0)","(0.009608056927004383, 0.16504241935542133, 0.04845240339350388)","(0.009399360312529121, -0.004148345706276732, -0.012483129301585993)","[-0.00039076967171778124, 0.005014676833491882, 0.0009018443792862471]","[-0.026750000193715096, 0.05299999937415123, 0.03999999910593033]","[0.0, -0.0, 0.4501569945459661]","[-0.05807769298553467, 0.11782727390527725, 0.03999999910593033]","[0.0, 0.0, -0.35719770627076813]","[0.026750000193715096, 0.05299999937415123, 0.03999999910593033]","[0.0, 0.0, -0.5781667619380169]","[0.06609725207090378, 0.11329754441976547, 0.03999999910593033]","[0.0, -0.0, 0.23136601027944032]",0.4337687838099301,-3.933162594620491,"(0.0, 0.0, 0.0, 0.0, 0.0, 0.0)",-57.81803092003061,-0.777859999486485,7.0787215125400165,"(0.0, 0.0, 0.0, 0.0, 0.0, 0.0)",-27.983379366004048,-0.5623281763652798,3.8012666267504853,"(0.0, 0.0, 0.0, 0.0, 0.0, 0.0)",73.45990532455836,0.7781884064018236,-7.5226516787889395,"(0.0, 0.0, 0.0, 0.0, 0.0, 0.0)",38.465428468677054,True,"(-0.02142064204116994, 0.18251198837816834, 0.023999336835567837)","(0.9998247378114116, 0.018709753623612296, -0.0006624044729482533)",2.5761088062453376e-05,442.1422580700651,True,"(0.03784028611819387, 0.18196026217021494, 0.02399586855908814)","(-0.9999029379810696, 0.013306060941961876, -0.004130781891387503)",-0.0036159051918039343,585.4631049821411
91,Move,"(0.014556962025316457, 0.0, 0.014556962025316457)","(0.0, -0.0, 0.0)","(0.009605640878960564, 0.1660035211828965, 0.048465917437607586)","(0.008887052351681453, -0.004089929924659452, -0.010861832331282696)","[-0.00039318571976160004, 0.005975778660967046, 0.0009153584233899531]","[-0.026750000193715096, 0.05299999937415123, 0.03999999910593033]","[0.0, -0.0, 0.43376878176201544]","[-0.057011134922504425, 0.11833195388317108, 0.03999999910593033]","[0.0, 0.0, -0.34409121092842265]","[0.026750000193715096, 0.05299999937415123, 0.03999999910593033]","[0.0, 0.0, -0.5623281547291287]","[0.06513732671737671, 0.1139131635427475, 0.03999999910593033]","[0.0, -0.0, 0.21586023215065583]",0.4172409037723537,-3.966691209018348,"(0.0, 0.0, 0.0, 0.0, 0.0, 0.0)",-74.85914721674936,-0.7494674663974089,6.814207941378267,"(0.0, 0.0, 0.0, 0.0, 0.0, 0.0)",-36.44517739901857,-0.5471490926836219,3.6429800835978954,"(0.0, 0.0, 0.0, 0.0, 0.0, 0.0)",74.16896516595727,0.7475455991392149,-7.354273743026097,"(0.0, 0.0, 0.0, 0.0, 0.0, 0.0)",38.84346132672309,True,"(-0.021204995992880026, 0.18349154003412999, 0.023999336835567837)","(0.9998247378114116, 0.018709753623612296, -0.0006624044729482533)",-0.00027308260400584936,545.2237056127877,True,"(0.03794804695282475, 0.18298942791985903, 0.02399585099149451)","(-0.9999134830498713, 0.012482697692807422, -0.0041483338082969065)",-0.003424942985091294,570.5408833586633
92,Move,"(0.01518987341772152, 0.0, 0.01518987341772152)","(0.0, -0.0, 0.0)","(0.009915919090175114, 0.16681459986245453, 0.048411143718841955)","(0.005159213676102914, -0.003555828517178012, -0.013200365638986198)","[-8.290750854705008e-05, 0.006786857340525088, 0.0008605847046243217]","[-0.026750000193715096, 0.05299999937415123, 0.03999999910593033]","[0.0, -0.0, 0.4172409754849372]","[-0.055927250534296036, 0.11882315576076508, 0.03999999910593033]","[0.0, 0.0, -0.3322265906310803]","[0.026750000193715096, 0.05299999937415123, 0.03999999910593033]","[0.0, 0.0, -0.5471490434390721]","[0.06420833617448807, 0.11448880285024643, 0.03999999910593033]","[0.0, -0.0, 0.2003965281615292]",0.4161917731579528,-0.25179134745621523,"(0.0, 0.0, 0.0, 0.0, 0.0, 0.0)",1.4007503041683187,-0.7517267465449522,-0.5422272354103761,"(0.0, 0.0, 0.0, 0.0, 0.0, 0.0)",-2.1686613764198954,-0.552978278921165,-1.3990046970103434,"(0.0, 0.0, 0.0, 0.0, 0.0, 0.0)",-5.752755565058774,0.7500390211908432,0.5984212923907792,"(0.0, 0.0, 0.0, 0.0, 0.0, 0.0)",0.7353985438822177,True,"(-0.02089671134665027, 0.18440297770441674, 0.023999336835567837)","(0.9998247378114116, 0.018709753623612296, -0.0006624044729482533)",-0.0006164803153377625,14.49376172992841,True,"(0.03809010704575822, 0.18396016329912562, 0.023995909390746986)","(-0.9999326476208, 0.010861527909914376, -0.004089918522266008)",-0.0032495693342777933,5.748337083092791
