OSUrobotics/InHand-Manipulation/AnalyseData/Data/Trial Data/Better/new_hand_human_sub1_2v2_c_n_1_kpNone_kdNone_dp1_step1_save_data.csv
,Phase,human_cube_pos,human_cube_orn,Cube_Pos,Cube_Orn,Cube_pos_in_start_pos,b'l_prox_pin'_link_pos,b'l_prox_pin'_link_orn,b'l_distal_pin'_link_pos,b'l_distal_pin'_link_orn,b'r_prox_pin'_link_pos,b'r_prox_pin'_link_orn,b'r_distal_pin'_link_pos,b'r_distal_pin'_link_orn,b'l_prox_pin'_joint_angle,b'l_prox_pin'_joint_vel,b'l_prox_pin'_joint_react_forces,b'l_prox_pin'_joint_motor_torque,b'l_distal_pin'_joint_angle,b'l_distal_pin'_joint_vel,b'l_distal_pin'_joint_react_forces,b'l_distal_pin'_joint_motor_torque,b'r_prox_pin'_joint_angle,b'r_prox_pin'_joint_vel,b'r_prox_pin'_joint_react_forces,b'r_prox_pin'_joint_motor_torque,b'r_distal_pin'_joint_angle,b'r_distal_pin'_joint_vel,b'r_distal_pin'_joint_react_forces,b'r_distal_pin'_joint_motor_torque,in_contact_l,contact_point_l_dist,contact_normal_l_dist,contact_distance_l_dist,contact_norm_force_l_dist,in_contact_r,contact_point_r_dist,contact_normal_r_dist,contact_distance_r_dist,contact_norm_force_r_dist
0,Open,,,,,,"[-0.026750000193715096, 0.05299999937415123, 0.03999999910593033]","[0.0, -0.0, 0.0]","[-0.026750000193715096, 0.125, 0.03999999910593033]","[0.0, -0.0, 0.0]","[0.026750000193715096, 0.05299999937415123, 0.03999999910593033]","[0.0, -0.0, 0.0]","[0.026750000193715096, 0.125, 0.03999999910593033]","[0.0, -0.0, 0.0]",0.0028636982559538428,0.6872875814289223,"(0.0, 0.0, 0.0, 0.0, 0.0, 0.0)",-74.42376671286476,0.025717978913313098,6.172314939195144,"(0.0, 0.0, 0.0, 0.0, 0.0, 0.0)",-28.347758017338414,-0.0028861714462846827,-0.6926811471083238,"(0.0, 0.0, 0.0, 0.0, 0.0, 0.0)",77.31812537484876,-0.025998027583603027,-6.239526620064726,"(0.0, 0.0, 0.0, 0.0, 0.0, 0.0)",29.325432325549183,False,,,,,False,,,,
1,Open,,,,,,"[-0.026750000193715096, 0.05299999937415123, 0.03999999910593033]","[0.0, -0.0, 0.0028636982488144678]","[-0.026956185698509216, 0.12499970197677612, 0.03999999910593033]","[0.0, -0.0, 0.028581675581217755]","[0.026750000193715096, 0.05299999937415123, 0.03999999910593033]","[0.0, 0.0, -0.0028861714423951343]","[0.026957804337143898, 0.12499970197677612, 0.03999999910593033]","[0.0, 0.0, -0.028884201286240394]",0.1595773284303585,37.61127124185712,"(0.0, 0.0, 0.0, 0.0, 0.0, 0.0)",53.472225824972774,0.02314589095046895,-0.6173011110825959,"(0.0, 0.0, 0.0, 0.0, 0.0, 0.0)",3.3014509125464437,-0.15959755430165623,-37.61073188528917,"(0.0, 0.0, 0.0, 0.0, 0.0, 0.0)",-53.45543824447724,-0.023397935520559333,0.6240220951304867,"(0.0, 0.0, 0.0, 0.0, 0.0, 0.0)",-3.2927232380167535,False,,,,,False,,,,
2,Open,,,,,,"[-0.026750000193715096, 0.05299999937415123, 0.03999999910593033]","[0.0, -0.0, 0.15957730699277592]","[-0.03819086775183678, 0.1240852028131485, 0.03999999910593033]","[0.0, -0.0, 0.1827232399786182]","[0.026750000193715096, 0.05299999937415123, 0.03999999910593033]","[0.0, 0.0, -0.15959754249378824]","[0.03819230571389198, 0.12408497184515, 0.03999999910593033]","[0.0, 0.0, -0.1829954723320542]",0.30061959558732265,33.8501441176714,"(0.0, 0.0, 0.0, 0.0, 0.0, 0.0)",-5.433290843096747,0.020831748867960086,-0.555394099802127,"(0.0, 0.0, 0.0, 0.0, 0.0, 0.0)",-0.37949999689540415,-0.30063779887149056,-33.849658696760244,"(0.0, 0.0, 0.0, 0.0, 0.0, 0.0)",5.433149501288634,-0.02105858889910766,0.5614431891484022,"(0.0, 0.0, 0.0, 0.0, 0.0, 0.0)",0.37943043762158307,False,,,,,False,,,,
3,Open,,,,,,"[-0.026750000193715096, 0.05299999937415123, 0.03999999910593033]","[0.0, -0.0, 0.30061964608852465]","[-0.048070069402456284, 0.12177103012800217, 0.03999999910593033]","[0.0, -0.0, 0.3214513597309629]","[0.026750000193715096, 0.05299999937415123, 0.03999999910593033]","[0.0, 0.0, -0.30063782483534385]","[0.04807132109999657, 0.12177064269781113, 0.03999999910593033]","[0.0, 0.0, -0.32169639446592324]",0.4275576360285904,30.465129705904268,"(0.0, 0.0, 0.0, 0.0, 0.0, 0.0)",-4.896562760502833,0.018748978964657985,-0.49986477679250463,"(0.0, 0.0, 0.0, 0.0, 0.0, 0.0)",-0.3438186216350169,-0.4275740189843415,-30.464692827084228,"(0.0, 0.0, 0.0, 0.0, 0.0, 0.0)",4.8964345239877005,-0.018953134917884834,0.505308955493478,"(0.0, 0.0, 0.0, 0.0, 0.0, 0.0)",0.34375511365495653,False,,,,,False,,,,
4,Open,,,,,,"[-0.026750000193715096, 0.05299999937415123, 0.03999999910593033]","[0.0, -0.0, 0.42755761853039154]","[-0.056604765355587006, 0.1185186430811882, 0.03999999910593033]","[0.0, -0.0, 0.4463066270391506]","[0.026750000193715096, 0.05299999937415123, 0.03999999910593033]","[0.0, 0.0, -0.42757404208311445]","[0.05660583823919296, 0.1185181587934494, 0.03999999910593033]","[0.0, 0.0, -0.4465272228574986]",0.5418018724257314,27.418616735313837,"(0.0, 0.0, 0.0, 0.0, 0.0, 0.0)",-4.412236817968903,0.016874447698417276,-0.44988750389777044,"(0.0, 0.0, 0.0, 0.0, 0.0, 0.0)",-0.3112578673856835,-0.5418166170859073,-27.418223544375806,"(0.0, 0.0, 0.0, 0.0, 0.0, 0.0)",4.412120589674461,-0.017058187988154127,0.4547872631353701,"(0.0, 0.0, 0.0, 0.0, 0.0, 0.0)",0.31119999541872967,False,,,,,False,,,,
5,Open,,,,,,"[-0.026750000193715096, 0.05299999937415123, 0.03999999910593033]","[0.0, -0.0, 0.5418019400761332]","[-0.06387900561094284, 0.11468822509050369, 0.03999999910593033]","[0.0, -0.0, 0.5586763123738882]","[0.026750000193715096, 0.05299999937415123, 0.03999999910593033]","[0.0, 0.0, -0.5418166677071254]","[0.06387991458177567, 0.11468767374753952, 0.03999999910593033]","[0.0, 0.0, -0.5588748551425957]",0.6446216851831583,24.67675506178245,"(0.0, 0.0, 0.0, 0.0, 0.0, 0.0)",-3.975330693632137,0.015187334633278446,-0.4049071356333192,"(0.0, 0.0, 0.0, 0.0, 0.0, 0.0)",-0.2816071653694913,-0.6446349553773166,-24.67640118993823,"(0.0, 0.0, 0.0, 0.0, 0.0, 0.0)",3.975225427671302,-0.01535270083200906,0.409316917474816,"(0.0, 0.0, 0.0, 0.0, 0.0, 0.0)",0.28155450162657786,False,,,,,False,,,,
6,Open,,,,,,"[-0.026750000193715096, 0.05299999937415123, 0.03999999910593033]","[0.0, -0.0, 0.6446216983098856]","[-0.07001452147960663, 0.11055155843496323, 0.03999999910593033]","[0.0, -0.0, 0.6598089287160823]","[0.026750000193715096, 0.05299999937415123, 0.03999999910593033]","[0.0, 0.0, -0.644634967879878]","[0.07001528143882751, 0.11055097728967667, 0.03999999910593033]","[0.0, 0.0, -0.6599877329949964]",0.7371595166648425,22.209079555604205,"(0.0, 0.0, 0.0, 0.0, 0.0, 0.0)",-3.5812948349547464,0.013668901111545678,-0.3644240452158641,"(0.0, 0.0, 0.0, 0.0, 0.0, 0.0)",-0.25464125660078457,-0.737171459839585,-22.20876107094441,"(0.0, 0.0, 0.0, 0.0, 0.0, 0.0)",3.5811995605906057,-0.01381773063402154,0.3683928475170044,"(0.0, 0.0, 0.0, 0.0, 0.0, 0.0)",0.2545933902665499,False,,,,,False,,,,
7,Open,,,,,,"[-0.026750000193715096, 0.05299999937415123, 0.03999999910593033]","[0.0, -0.0, 0.7371595400859692]","[-0.07514750957489014, 0.10630742460489273, 0.03999999910593033]","[0.0, -0.0, 0.7508283868993905]","[0.026750000193715096, 0.05299999937415123, 0.03999999910593033]","[0.0, 0.0, -0.7371714711336782]","[0.07514814287424088, 0.10630684345960617, 0.03999999910593033]","[0.0, 0.0, -0.750989167509555]",0.8204435649983582,19.988171600043785,"(0.0, 0.0, 0.0, 0.0, 0.0, 0.0)",-3.2259980823944012,0.01230228208777883,-0.32798856570404317,"(0.0, 0.0, 0.0, 0.0, 0.0, 0.0)",-0.23014491551259536,-0.8204543138556265,-19.987884963849964,"(0.0, 0.0, 0.0, 0.0, 0.0, 0.0)",3.225911902119173,-0.012436228606816148,0.33156048652929415,"(0.0, 0.0, 0.0, 0.0, 0.0, 0.0)",0.23010145595163894,False,,,,,False,,,,
8,Open,,,,,,"[-0.026750000193715096, 0.05299999937415123, 0.03999999910593033]","[0.0, -0.0, 0.8204435774406766]","[-0.07941428571939468, 0.1020965725183487, 0.03999999910593033]","[0.0, -0.0, 0.8327459142786269]","[0.026750000193715096, 0.05299999937415123, 0.03999999910593033]","[0.0, 0.0, -0.8204543695347751]","[0.07941480726003647, 0.10209600627422333, 0.03999999910593033]","[0.0, 0.0, -0.8328905496331522]",0.8953992084985224,17.9893544400394,"(0.0, 0.0, 0.0, 0.0, 0.0, 0.0)",-2.905692777507757,0.011072298781000885,-0.2951959936267068,"(0.0, 0.0, 0.0, 0.0, 0.0, 0.0)",-0.20791432075989408,-0.8954088824700639,-17.989096467464968,"(0.0, 0.0, 0.0, 0.0, 0.0, 0.0)",2.9056148642503405,-0.011192850601700187,0.29841072122783063,"(0.0, 0.0, 0.0, 0.0, 0.0, 0.0)",0.20787489947010138,False,,,,,False,,,,
9,Open,,,,,,"[-0.026750000193715096, 0.05299999937415123, 0.03999999910593033]","[0.0, -0.0, 0.8953992050914552]","[-0.08294302970170975, 0.09801492840051651, 0.03999999910593033]","[0.0, -0.0, 0.9064715399310761]","[0.026750000193715096, 0.05299999937415123, 0.03999999910593033]","[0.0, 0.0, -0.8954089117450801]","[0.08294346183538437, 0.09801438450813293, 0.03999999910593033]","[0.0, 0.0, -0.9066016844299951]",0.9628592876486701,16.190418996035465,"(0.0, 0.0, 0.0, 0.0, 0.0, 0.0)",-2.616982039675733,0.009965290062605858,-0.26568209241480656,"(0.0, 0.0, 0.0, 0.0, 0.0, 0.0)",-0.18775783729375353,-0.9628679942230576,-16.190186820718473,"(0.0, 0.0, 0.0, 0.0, 0.0, 0.0)",2.6169116334278195,-0.010073786659150813,0.26857534621184953,"(0.0, 0.0, 0.0, 0.0, 0.0, 0.0)",0.187722108909745,False,,,,,False,,,,
10,Open,,,,,,"[-0.026750000193715096, 0.05299999937415123, 0.03999999910593033]","[0.0, -0.0, 0.9628592963772022]","[-0.08584962040185928, 0.09412462264299393, 0.03999999910593033]","[0.0, -0.0, 0.9728246761305416]","[0.026750000193715096, 0.05299999937415123, 0.03999999910593033]","[0.0, 0.0, -0.9628681466677605]","[0.08584997802972794, 0.09412410855293274, 0.03999999910593033]","[0.0, 0.0, -0.9729417790417357]",1.0235733588838032,14.57137709643192,"(0.0, 0.0, 0.0, 0.0, 0.0, 0.0)",-2.356789246056587,0.008968960705874744,-0.23911904561546746,"(0.0, 0.0, 0.0, 0.0, 0.0, 0.0)",-0.16949635495257384,-1.0235811948007518,-14.571168138646623,"(0.0, 0.0, 0.0, 0.0, 0.0, 0.0)",2.3567256501387286,-0.009066607604651448,0.24172297307984775,"(0.0, 0.0, 0.0, 0.0, 0.0, 0.0)",0.16946399753760524,False,,,,,False,,,,
11,Open,,,,,,"[-0.026750000193715096, 0.05299999937415123, 0.03999999910593033]","[0.0, -0.0, 1.0235732790301837]","[-0.08823604136705399, 0.09046287834644318, 0.03999999910593033]","[0.0, -0.0, 1.0325423083164225]","[0.026750000193715096, 0.05299999937415123, 0.03999999910593033]","[0.0, 0.0, -1.0235812274279317]","[0.08823633193969727, 0.09046239405870438, 0.03999999910593033]","[0.0, 0.0, -1.0326479037372749]",1.078216022995423,13.114239386788727,"(0.0, 0.0, 0.0, 0.0, 0.0, 0.0)",-2.1223296975724493,0.008072244810550301,-0.215211814877866,"(0.0, 0.0, 0.0, 0.0, 0.0, 0.0)",-0.1529632973210469,-1.0782230753206767,-13.114051324781958,"(0.0, 0.0, 0.0, 0.0, 0.0, 0.0)",2.122272274708909,-0.008160126984954354,0.21755534872730237,"(0.0, 0.0, 0.0, 0.0, 0.0, 0.0)",0.15293401213466845,False,,,,,False,,,,
12,Open,,,,,,"[-0.026750000193715096, 0.05299999937415123, 0.03999999910593033]","[0.0, -0.0, 1.078215882979514]","[-0.09019032120704651, 0.08704887330532074, 0.03999999910593033]","[0.0, -0.0, 1.0862882926740116]","[0.026750000193715096, 0.05299999937415123, 0.03999999910593033]","[0.0, 0.0, -1.078222977413882]","[0.09019055962562561, 0.08704842627048492, 0.03999999910593033]","[0.0, 0.0, -1.0863833790205233]",1.1273944206958806,11.802815448109852,"(0.0, 0.0, 0.0, 0.0, 0.0, 0.0)",-1.9110844168611731,0.007265182884681461,-0.19369486220852175,"(0.0, 0.0, 0.0, 0.0, 0.0, 0.0)",-0.13800439004610457,-1.127400767788609,-11.802646192303762,"(0.0, 0.0, 0.0, 0.0, 0.0, 0.0)",1.9110325851897776,-0.007344276810443619,0.19580404188257655,"(0.0, 0.0, 0.0, 0.0, 0.0, 0.0)",0.13797790093405082,False,,,,,False,,,,
13,Open,,,,,,"[-0.026750000193715096, 0.05299999937415123, 0.03999999910593033]","[0.0, -0.0, 1.1273943743462997]","[-0.0917874127626419, 0.08388907462358475, 0.03999999910593033]","[0.0, -0.0, 1.1346596248576977]","[0.026750000193715096, 0.05299999937415123, 0.03999999910593033]","[0.0, 0.0, -1.127400718904607]","[0.09178761392831802, 0.08388865739107132, 0.03999999910593033]","[0.0, 0.0, -1.134745111288055]",1.1716549786262926,10.622533903298867,"(0.0, 0.0, 0.0, 0.0, 0.0, 0.0)",-1.7207759982695574,0.00653881121780902,-0.17432920004938585,"(0.0, 0.0, 0.0, 0.0, 0.0, 0.0)",-0.12447725819906867,-1.1716606910097482,-10.622381573073383,"(0.0, 0.0, 0.0, 0.0, 0.0, 0.0)",1.7207292273800263,-0.006609995722787257,0.17622746103752684,"(0.0, 0.0, 0.0, 0.0, 0.0, 0.0)",0.12445331071934837,False,,,,,False,,,,
14,Open,,,,,,"[-0.026750000193715096, 0.05299999937415123, 0.03999999910593033]","[0.0, -0.0, 1.17165497759142]","[-0.09309044480323792, 0.08098116517066956, 0.03999999910593033]","[0.0, -0.0, 1.1781937273122836]","[0.026750000193715096, 0.05299999937415123, 0.03999999910593033]","[0.0, 0.0, -1.1716605985979762]","[0.09309060126543045, 0.08098078519105911, 0.03999999910593033]","[0.0, 0.0, -1.178270796658152]",1.2114894807636634,9.56028051296898,"(0.0, 0.0, 0.0, 0.0, 0.0, 0.0)",-1.549346412635057,0.005885062316220725,-0.15689973638119079,"(0.0, 0.0, 0.0, 0.0, 0.0, 0.0)",-0.11225090666269867,-1.2114946219087734,-9.560143415766044,"(0.0, 0.0, 0.0, 0.0, 0.0, 0.0)",1.5493042197033076,-0.00594912834521185,0.1586081706180975,"(0.0, 0.0, 0.0, 0.0, 0.0, 0.0)",0.11222926703597672,False,,,,,False,,,,
15,Open,,,,,,"[-0.026750000193715096, 0.05299999937415123, 0.03999999910593033]","[0.0, -0.0, 1.2114893406881728]","[-0.09415213763713837, 0.07831703126430511, 0.03999999910593033]","[0.0, -0.0, 1.2173745989650702]","[0.026750000193715096, 0.05299999937415123, 0.03999999910593033]","[0.0, 0.0, -1.2114945655338818]","[0.09415226429700851, 0.07831668108701706, 0.03999999910593033]","[0.0, 0.0, -1.2174436451143456]",1.247340532687297,8.604252461672083,"(0.0, 0.0, 0.0, 0.0, 0.0, 0.0)",-1.3949366588174594,0.00529667529397997,-0.14121288533778104,"(0.0, 0.0, 0.0, 0.0, 0.0, 0.0)",-0.1012051251161189,-1.2473451597178962,-8.604129074189437,"(0.0, 0.0, 0.0, 0.0, 0.0, 0.0)",1.394898604883462,-0.005354334697048719,0.1427504755591516,"(0.0, 0.0, 0.0, 0.0, 0.0, 0.0)",0.1011855790679586,False,,,,,False,,,,
16,Open,,,,,,"[-0.026750000193715096, 0.05299999937415123, 0.03999999910593033]","[0.0, -0.0, 1.2473405247091465]","[-0.09501627087593079, 0.07588484138250351, 0.03999999910593033]","[0.0, -0.0, 1.2526371614229614]","[0.026750000193715096, 0.05299999937415123, 0.03999999910593033]","[0.0, 0.0, -1.2473450561350814]","[0.09501637518405914, 0.07588452845811844, 0.03999999910593033]","[0.0, 0.0, -1.252699591080442]",1.2796064794185673,7.743827215504874,"(0.0, 0.0, 0.0, 0.0, 0.0, 0.0)",-1.2558681481324276,0.004767115224099335,-0.12709441677135241,"(0.0, 0.0, 0.0, 0.0, 0.0, 0.0)",-0.09122984935698081,-1.2796106437461066,-7.743716166770495,"(0.0, 0.0, 0.0, 0.0, 0.0, 0.0)",1.2558338345532607,-0.004819008666073119,0.128478247434144,"(0.0, 0.0, 0.0, 0.0, 0.0, 0.0)",0.09121220090323832,False,,,,,False,,,,
17,Open,,,,,,"[-0.026750000193715096, 0.05299999937415123, 0.03999999910593033]","[0.0, -0.0, 1.279606409124563]","[-0.09571900963783264, 0.0736706405878067, 0.03999999910593033]","[0.0, -0.0, 1.2843736758198352]","[0.026750000193715096, 0.05299999937415123, 0.03999999910593033]","[0.0, 0.0, -1.2796106525936015]","[0.0957190990447998, 0.07367035001516342, 0.03999999910593033]","[0.0, 0.0, -1.2844295613342638]",1.3086458314767107,6.969444493954387,"(0.0, 0.0, 0.0, 0.0, 0.0, 0.0)",-1.1305941221975622,0.00429170208951155,-0.1140991523010686,"(0.0, 0.0, 0.0, 0.0, 0.0, 0.0)",-0.082192919359827,-1.3086495793714958,-6.969344550093446,"(0.0, 0.0, 0.0, 0.0, 0.0, 0.0)",1.1305631934145834,-0.004338405935744441,0.11534465527888274,"(0.0, 0.0, 0.0, 0.0, 0.0, 0.0)",0.08217699569254354,False,,,,,False,,,,
18,Open,,,,,,"[-0.026750000193715096, 0.05299999937415123, 0.03999999910593033]","[0.0, -0.0, 1.308645825919811]","[-0.09629011154174805, 0.0716593861579895, 0.03999999910593033]","[0.0, -0.0, 1.3129373548657892]","[0.026750000193715096, 0.05299999937415123, 0.03999999910593033]","[0.0, 0.0, -1.308649569130343]","[0.09629017859697342, 0.07165912538766861, 0.03999999910593033]","[0.0, 0.0, -1.3129881167123505]",1.3347812483290395,6.272500044558946,"(0.0, 0.0, 0.0, 0.0, 0.0, 0.0)",-1.0178482622338179,0.003863702481573626,-0.10271990590510163,"(0.0, 0.0, 0.0, 0.0, 0.0, 0.0)",-0.07410352518858664,-1.3347846214343462,-6.272410095084102,"(0.0, 0.0, 0.0, 0.0, 0.0, 0.0)",1.0178203769740246,-0.0039057357160976183,0.10384085271523745,"(0.0, 0.0, 0.0, 0.0, 0.0, 0.0)",0.0740891498002037,False,,,,,False,,,,
19,Open,,,,,,"[-0.026750000193715096, 0.05299999937415123, 0.03999999910593033]","[0.0, -0.0, 1.3347813147466918]","[-0.09675397723913193, 0.06983575969934464, 0.03999999910593033]","[0.0, -0.0, 1.3386449621367835]","[0.026750000193715096, 0.05299999937415123, 0.03999999910593033]","[0.0, 0.0, -1.3347844615433213]","[0.0967540368437767, 0.06983552873134613, 0.03999999910593033]","[0.0, 0.0, -1.3386905382854437]",1.3583031234961356,5.645250040103052,"(0.0, 0.0, 0.0, 0.0, 0.0, 0.0)",-0.9162890978823036,0.0034783869891320215,-0.09247571818598516,"(0.0, 0.0, 0.0, 0.0, 0.0, 0.0)",-0.06677007440367574,-1.3583061592909116,-5.645169085575695,"(0.0, 0.0, 0.0, 0.0, 0.0, 0.0)",0.9162639666346021,-0.003516216695348753,0.09348456497972772,"(0.0, 0.0, 0.0, 0.0, 0.0, 0.0)",0.06675710630673855,False,,,,,False,,,,
20,Open,,,,,,"[-0.026750000193715096, 0.05299999937415123, 0.03999999910593033]","[0.0, -0.0, 1.3583030429358363]","[-0.09713058918714523, 0.06818463653326035, 0.03999999910593033]","[0.0, -0.0, 1.3617816714487538]","[0.026750000193715096, 0.05299999937415123, 0.03999999910593033]","[0.0, 0.0, -1.358306171033049]","[0.09713063389062881, 0.06818442046642303, 0.03999999910593033]","[0.0, 0.0, -1.361822351334537]",1.379472811146522,5.0807250360927485,"(0.0, 0.0, 0.0, 0.0, 0.0, 0.0)",-0.8248429295126702,0.003131498553648039,-0.08325322451615583,"(0.0, 0.0, 0.0, 0.0, 0.0, 0.0)",-0.06015531267018523,-1.3794755433618204,-5.080652177018124,"(0.0, 0.0, 0.0, 0.0, 0.0, 0.0)",0.8248202834423316,-0.003165545104486833,0.08416118180686077,"(0.0, 0.0, 0.0, 0.0, 0.0, 0.0)",0.06014361689139186,False,,,,,False,,,,
21,Open,,,,,,"[-0.026750000193715096, 0.05299999937415123, 0.03999999910593033]","[0.0, -0.0, 1.3794728975130914]","[-0.09743624925613403, 0.06669140607118607, 0.03999999910593033]","[0.0, -0.0, 1.382604304378769]","[0.026750000193715096, 0.05299999937415123, 0.03999999910593033]","[0.0, 0.0, -1.379475506721758]","[0.09743628650903702, 0.06669121235609055, 0.03999999910593033]","[0.0, 0.0, -1.3826409668082853]",1.3985255300318697,4.572652532483473,"(0.0, 0.0, 0.0, 0.0, 0.0, 0.0)",-0.7425066286387145,0.0028192047313806493,-0.07495051734417352,"(0.0, 0.0, 0.0, 0.0, 0.0, 0.0)",-0.054190171953983096,-1.3985279890256384,-4.57258695931631,"(0.0, 0.0, 0.0, 0.0, 0.0, 0.0)",0.7424862245436853,-0.0028498464605416357,0.07576767454684734,"(0.0, 0.0, 0.0, 0.0, 0.0, 0.0)",0.0541796259205944,False,,,,,False,,,,
22,Open,,,,,,"[-0.026750000193715096, 0.05299999937415123, 0.03999999910593033]","[0.0, -0.0, 1.398525454133583]","[-0.09768425673246384, 0.0653422400355339, 0.03999999910593033]","[0.0, -0.0, 1.4013447262228373]","[0.026750000193715096, 0.05299999937415123, 0.03999999910593033]","[0.0, 0.0, -1.3985280648022782]","[0.09768428653478622, 0.06534206122159958, 0.03999999910593033]","[0.0, 0.0, -1.4013779844801912]",1.4156729770286829,4.1153872792351285,"(0.0, 0.0, 0.0, 0.0, 0.0, 0.0)",-0.6683758137814145,0.002538055332395241,-0.06747585575649792,"(0.0, 0.0, 0.0, 0.0, 0.0, 0.0)",-0.04881194552870251,-1.4156751901230746,-4.115328263384682,"(0.0, 0.0, 0.0, 0.0, 0.0, 0.0)",0.6683574317692884,-0.002565632738451909,0.06821129330153437,"(0.0, 0.0, 0.0, 0.0, 0.0, 0.0)",0.0488024380394442,False,,,,,False,,,,
23,Open,,,,,,"[-0.026750000193715096, 0.05299999937415123, 0.03999999910593033]","[0.0, -0.0, 1.4156730334745993]","[-0.09788545966148376, 0.06412414461374283, 0.03999999910593033]","[0.0, -0.0, 1.418211036917125]","[0.026750000193715096, 0.05299999937415123, 0.03999999910593033]","[0.0, 0.0, -1.4156752315845986]","[0.09788548201322556, 0.0641239807009697, 0.03999999910593033]","[0.0, 0.0, -1.418240879504808]",1.4311056793258146,3.703848551311612,"(0.0, 0.0, 0.0, 0.0, 0.0, 0.0)",-0.6016352863054336,0.002284944287465684,-0.060746650783093666,"(0.0, 0.0, 0.0, 0.0, 0.0, 0.0)",-0.04396376851645251,-1.431107671110767,-3.7037954370462103,"(0.0, 0.0, 0.0, 0.0, 0.0, 0.0)",0.6016187276545472,-0.0023097638175418747,0.061408541018408244,"(0.0, 0.0, 0.0, 0.0, 0.0, 0.0)",0.043955198772734246,False,,,,,False,,,,
24,Open,,,,,,"[-0.026750000193715096, 0.05299999937415123, 0.03999999910593033]","[0.0, -0.0, 1.4311058207082674]","[-0.09804865717887878, 0.06302504986524582, 0.03999999910593033]","[0.0, -0.0, 1.433390691262394]","[0.026750000193715096, 0.05299999937415123, 0.03999999910593033]","[0.0, 0.0, -1.4311075924426346]","[0.09804867953062057, 0.06302490830421448, 0.03999999910593033]","[0.0, 0.0, -1.433417470845748]",1.4449951113932331,3.333463696180452,"(0.0, 0.0, 0.0, 0.0, 0.0, 0.0)",-0.5415503506795546,0.0020570753203455715,-0.05468855210882702,"(0.0, 0.0, 0.0, 0.0, 0.0, 0.0)",-0.039594115216637325,-1.4449969039996904,-3.3334158933415914,"(0.0, 0.0, 0.0, 0.0, 0.0, 0.0)",0.541535435877482,-0.002079412775410495,0.055284250111531166,"(0.0, 0.0, 0.0, 0.0, 0.0, 0.0)",0.03958639191865308,False,,,,,False,,,,
25,Open,,,,,,"[-0.026750000193715096, 0.05299999937415123, 0.03999999910593033]","[0.0, -0.0, 1.444995076522675]","[-0.09818101674318314, 0.062033817172050476, 0.03999999910593033]","[0.0, -0.0, 1.4470522962768402]","[0.026750000193715096, 0.05299999937415123, 0.03999999910593033]","[0.0, 0.0, -1.4449971061677662]","[0.09818103164434433, 0.06203368678689003, 0.03999999910593033]","[0.0, 0.0, -1.4470761943538692]",1.45749560025391,3.0001173265624064,"(0.0, 0.0, 0.0, 0.0, 0.0, 0.0)",-0.4874589573784058,0.001851931045420989,-0.04923462598189979,"(0.0, 0.0, 0.0, 0.0, 0.0, 0.0)",-0.03565633120497695,-1.4574972135997213,-3.000074304007432,"(0.0, 0.0, 0.0, 0.0, 0.0, 0.0)",0.4874455243270462,-0.0018720346450414762,0.04977075128856451,"(0.0, 0.0, 0.0, 0.0, 0.0, 0.0)",0.03564937171228022,False,,,,,False,,,,
26,Open,,,,,,"[-0.026750000193715096, 0.05299999937415123, 0.03999999910593033]","[0.0, -0.0, 1.4574954921785264]","[-0.09828835725784302, 0.061140209436416626, 0.03999999910593033]","[0.0, -0.0, 1.4593474823067423]","[0.026750000193715096, 0.05299999937415123, 0.03999999910593033]","[0.0, 0.0, -1.4574971848934346]","[0.09828837215900421, 0.061140093952417374, 0.03999999910593033]","[0.0, 0.0, -1.4593694397653831]",1.4687460402285188,2.700105593906164,"(0.0, 0.0, 0.0, 0.0, 0.0, 0.0)",-0.4387645947805427,0.0016672451487475934,-0.044324615201614966,"(0.0, 0.0, 0.0, 0.0, 0.0, 0.0)",-0.032108199676446195,-1.4687474922397492,-2.70006687360669,"(0.0, 0.0, 0.0, 0.0, 0.0, 0.0)",0.4387524971567325,-0.0016853382893528596,0.04480712536526797,"(0.0, 0.0, 0.0, 0.0, 0.0, 0.0)",0.03210192923147444,False,,,,,False,,,,
27,Open,,,,,,"[-0.026750000193715096, 0.05299999937415123, 0.03999999910593033]","[0.0, -0.0, 1.4687462228928074]","[-0.09837540984153748, 0.06033487245440483, 0.03999999910593033]","[0.0, -0.0, 1.4704133245237396]","[0.026750000193715096, 0.05299999937415123, 0.03999999910593033]","[0.0, 0.0, -1.4687474899518769]","[0.09837542474269867, 0.060334768146276474, 0.03999999910593033]","[0.0, 0.0, -1.4704329951986796]",1.478871436205667,2.430095034515549,"(0.0, 0.0, 0.0, 0.0, 0.0, 0.0)",-0.394929862139441,0.0015009773446580906,-0.03990427298148066,"(0.0, 0.0, 0.0, 0.0, 0.0, 0.0)",-0.028911540991871522,-1.4788727430157742,-2.430060186246021,"(0.0, 0.0, 0.0, 0.0, 0.0, 0.0)",0.39491896790015035,-0.001517261081966714,0.04033852977267494,"(0.0, 0.0, 0.0, 0.0, 0.0, 0.0)",0.02890589200411927,False,,,,,False,,,,
28,Open,,,,,,"[-0.026750000193715096, 0.05299999937415123, 0.03999999910593033]","[0.0, -0.0, 1.4788714352834713]","[-0.09844600409269333, 0.05960927531123161, 0.03999999910593033]","[0.0, -0.0, 1.480372508787761]","[0.026750000193715096, 0.05299999937415123, 0.03999999910593033]","[0.0, 0.0, -1.4788727099725336]","[0.09844601899385452, 0.05960918217897415, 0.03999999910593033]","[0.0, 0.0, -1.4803900544382056]",1.4879842925851003,2.1870855310639947,"(0.0, 0.0, 0.0, 0.0, 0.0, 0.0)",-0.3554706611703565,0.001351290830885638,-0.035924763305388616,"(0.0, 0.0, 0.0, 0.0, 0.0, 0.0)",-0.026031844038894282,-1.487985468714197,-2.1870541676214206,"(0.0, 0.0, 0.0, 0.0, 0.0, 0.0)",0.3554608511915877,-0.001365946114079445,0.03631559229294455,"(0.0, 0.0, 0.0, 0.0, 0.0, 0.0)",0.026026755426892093,False,,,,,False,,,,
29,Close,,,"(3.819349109750643e-09, 0.16999994350316286, 7.914305593764796e-05)","(1.5700606283751846, 1.2357610516186277e-06, -4.058049624060407e-09)",,"[-0.026750000193715096, 0.05299999937415123, 0.03999999910593033]","[0.0, -0.0, 1.4879842849605203]","[-0.09850326180458069, 0.05895565450191498, 0.03999999910593033]","[0.0, -0.0, 1.4893357278409396]","[0.026750000193715096, 0.05299999937415123, 0.03999999910593033]","[0.0, 0.0, -1.4879853833286059]","[0.09850326925516129, 0.05895556882023811, 0.03999999910593033]","[0.0, 0.0, -1.4893513332680077]",1.4961858633265903,1.9683769779575933,"(0.0, 0.0, 0.0, 0.0, 0.0, 0.0)",-0.31995094896823073,0.0012165319928285922,-0.03234212113369103,"(0.0, 0.0, 0.0, 0.0, 0.0, 0.0)",-0.02343792779000599,-1.4961869218427772,-1.9683487508592754,"(0.0, 0.0, 0.0, 0.0, 0.0, 0.0)",0.31994211580738524,-0.0012297216752996233,0.03269386530715718,"(0.0, 0.0, 0.0, 0.0, 0.0, 0.0)",0.02343334437795369,False,,,,,False,,,,
30,Close,,,"(1.09441459674075e-09, 0.16999988769159868, 0.0001519632082907279)","(1.5701173533571526, -2.5467641220651055e-06, -4.573996600559749e-08)",,"[-0.026750000193715096, 0.05299999937415123, 0.03999999910593033]","[0.0, -0.0, 1.4961860174198076]","[-0.09854969382286072, 0.05836696922779083, 0.03999999910593033]","[0.0, -0.0, 1.4974025341106605]","[0.026750000193715096, 0.05299999937415123, 0.03999999910593033]","[0.0, 0.0, -1.4961870219527165]","[0.09854969382286072, 0.05836689472198486, 0.03999999910593033]","[0.0, 0.0, -1.4974167044724178]",1.4065672769939312,-21.50846071983817,"(0.0, 0.0, 0.0, 0.0, 0.0, 0.0)",-36.83524610171859,-0.08890468746940376,-21.629092670935766,"(0.0, 0.0, 0.0, 0.0, 0.0, 0.0)",-4.936581214831643,-1.4065682296584996,21.508486124226657,"(0.0, 0.0, 0.0, 0.0, 0.0, 0.0)",36.83523814678565,0.0888928167555427,21.629409223402156,"(0.0, 0.0, 0.0, 0.0, 0.0, 0.0)",4.936577085092772,False,,,,,False,,,,
31,Close,,,"(3.541182821644653e-08, 0.1699998011443987, 0.00021906657187154062)","(1.570205104748116, 3.3042409171564205e-05, -8.114212850492596e-08)",,"[-0.026750000193715096, 0.05299999937415123, 0.03999999910593033]","[0.0, -0.0, 1.4065674382065954]","[-0.0977812185883522, 0.06477140635251999, 0.03999999910593033]","[0.0, -0.0, 1.3176625934179576]","[0.026750000193715096, 0.05299999937415123, 0.03999999910593033]","[0.0, 0.0, -1.4065680331882469]","[0.0977812260389328, 0.06477133929729462, 0.03999999910593033]","[0.0, 0.0, -1.3176753491400532]",1.3259105492945382,-19.357614647854348,"(0.0, 0.0, 0.0, 0.0, 0.0, 0.0)",3.3395407019063446,-0.17001473426920377,-19.466411231952,"(0.0, 0.0, 0.0, 0.0, 0.0, 0.0)",0.4376834422569755,-1.3259114066926496,19.35763751180399,"(0.0, 0.0, 0.0, 0.0, 0.0, 0.0)",-3.3395473112045253,0.1700040506304986,19.466696129989415,"(0.0, 0.0, 0.0, 0.0, 0.0, 0.0)",-0.43768664266468643,False,,,,,False,,,,
32,Close,,,"(3.361538948490201e-08, 0.16999974452330968, 0.00028077538773600935)","(1.5702911774727688, 7.027968338074274e-05, -7.017997684986258e-06)",,"[-0.026750000193715096, 0.05299999937415123, 0.03999999910593033]","[0.0, -0.0, 1.325910602539969]","[-0.09660188108682632, 0.07045608013868332, 0.03999999910593033]","[0.0, -0.0, 1.1558959321658662]","[0.026750000193715096, 0.05299999937415123, 0.03999999910593033]","[0.0, 0.0, -1.3259115331240872]","[0.09660189598798752, 0.07045602053403854, 0.03999999910593033]","[0.0, 0.0, -1.1559073716167563]",1.2533194943650845,-17.42185318306892,"(0.0, 0.0, 0.0, 0.0, 0.0, 0.0)",3.0100864599566086,-0.2430137284658432,-17.519758607193467,"(0.0, 0.0, 0.0, 0.0, 0.0, 0.0)",0.39699812510351973,-1.2533202660233846,17.42187376062359,"(0.0, 0.0, 0.0, 0.0, 0.0, 0.0)",-3.0100924602349655,0.24300411319445853,17.52001501535039,"(0.0, 0.0, 0.0, 0.0, 0.0, 0.0)",-0.39700105403357716,False,,,,,False,,,,
33,Close,,,"(1.2478111664315067e-07, 0.16999960627903704, 0.000337513976604643)","(1.5703757790333803, 0.0001088681261817636, -5.122611399447184e-06)",,"[-0.026750000193715096, 0.05299999937415123, 0.03999999910593033]","[0.0, -0.0, 1.2533194489161892]","[-0.0951518788933754, 0.07547627389431, 0.03999999910593033]","[0.0, -0.0, 1.0103057011386807]","[0.026750000193715096, 0.05299999937415123, 0.03999999910593033]","[0.0, 0.0, -1.2533201846969224]","[0.09515189379453659, 0.07547622174024582, 0.03999999910593033]","[0.0, 0.0, -1.010316110149499]",1.1879875449285762,-15.679667864762028,"(0.0, 0.0, 0.0, 0.0, 0.0, 0.0)",2.712712783767229,-0.30871235561933186,-15.767670516837281,"(0.0, 0.0, 0.0, 0.0, 0.0, 0.0)",0.3597856734528228,-1.1879882394210461,15.679686384561233,"(0.0, 0.0, 0.0, 0.0, 0.0, 0.0)",-2.712718226071338,0.30870370187508567,15.767901283350515,"(0.0, 0.0, 0.0, 0.0, 0.0, 0.0)",-0.35978834883250516,False,,,,,False,,,,
34,Close,,,"(1.2869376016944667e-07, 0.16999954011037416, 0.00038973303114976833)","(1.5704582297133343, 0.0001496263682483943, -9.931543136061158e-06)",,"[-0.026750000193715096, 0.05299999937415123, 0.03999999910593033]","[0.0, -0.0, 1.1879876003522736]","[-0.09353857487440109, 0.07989397644996643, 0.03999999910593033]","[0.0, -0.0, 0.8792752425767008]","[0.026750000193715096, 0.05299999937415123, 0.03999999910593033]","[0.0, 0.0, -1.1879882623869136]","[0.09353859722614288, 0.07989392429590225, 0.03999999910593033]","[0.0, 0.0, -0.8792844680170303]",1.1291887904356523,-14.1117010783017,"(0.0, 0.0, 0.0, 0.0, 0.0, 0.0)",2.44436472036771,-0.36784112005739866,-14.190903465136039,"(0.0, 0.0, 0.0, 0.0, 0.0, 0.0)",0.3258007578595482,-1.1291894154788755,14.111717746120975,"(0.0, 0.0, 0.0, 0.0, 0.0, 0.0)",-2.444369652349295,0.3678333316875771,14.191111154997946,"(0.0, 0.0, 0.0, 0.0, 0.0, 0.0)",-0.32580319741325486,False,,,,,False,,,,
35,Close,,,"(2.2147778895778094e-07, 0.169999403724105, 0.00043775502472391954)","(1.5705392813318275, 0.0001916771605813282, -8.19762937926826e-06)",,"[-0.026750000193715096, 0.05299999937415123, 0.03999999910593033]","[0.0, -0.0, 1.1291888000608494]","[-0.09184273332357407, 0.08377231657505035, 0.03999999910593033]","[0.0, -0.0, 0.7613476921786614]","[0.026750000193715096, 0.05299999937415123, 0.03999999910593033]","[0.0, 0.0, -1.1291894580384154]","[0.09184275567531586, 0.08377227932214737, 0.03999999910593033]","[0.0, 0.0, -0.7613561373098183]",1.0762699113920273,-12.700530970470014,"(0.0, 0.0, 0.0, 0.0, 0.0, 0.0)",2.202305891359772,-0.4210570080516588,-12.77181311862243,"(0.0, 0.0, 0.0, 0.0, 0.0, 0.0)",0.2948453788489373,-1.0762704739309281,12.700545971507374,"(0.0, 0.0, 0.0, 0.0, 0.0, 0.0)",-2.2023103576802145,0.4210499985188194,12.77200003949815,"(0.0, 0.0, 0.0, 0.0, 0.0, 0.0)",-0.2948476002056522,False,,,,,False,,,,
36,Close,,,"(2.1912693722736075e-07, 0.16999934361709654, 0.000481956449276018)","(1.5706184388641253, 0.00023565575873296478, -1.2845786801691941e-05)",,"[-0.026750000193715096, 0.05299999937415123, 0.03999999910593033]","[0.0, -0.0, 1.0762698553554748]","[-0.09012393653392792, 0.08717226982116699, 0.03999999910593033]","[0.0, -0.0, 0.6552128934948661]","[0.026750000193715096, 0.05299999937415123, 0.03999999910593033]","[0.0, 0.0, -1.0762704893583]","[0.09012395888566971, 0.08717223256826401, 0.03999999910593033]","[0.0, 0.0, -0.6552204147476549]",1.0286429202528247,-11.430477873408655,"(0.0, 0.0, 0.0, 0.0, 0.0, 0.0)",1.9840011930578276,-0.46895130724721834,-11.494631806934295,"(0.0, 0.0, 0.0, 0.0, 0.0, 0.0)",0.26667684533441977,-1.0286434265378352,11.430491374342276,"(0.0, 0.0, 0.0, 0.0, 0.0, 0.0)",-1.984005235051249,0.4689449986676629,11.494800035722442,"(0.0, 0.0, 0.0, 0.0, 0.0, 0.0)",-0.26667886541975433,False,,,,,False,,,,
37,Close,,,"(3.1131510586280866e-07, 0.1699992121070205, 0.0005226007520893923)","(1.5706964879884222, 0.0002806415891397876, -1.1307759452448239e-05)",,"[-0.026750000193715096, 0.05299999937415123, 0.03999999910593033]","[0.0, -0.0, 1.0286429345076582]","[-0.0884251669049263, 0.09015069156885147, 0.03999999910593033]","[0.0, -0.0, 0.5596916647508587]","[0.026750000193715096, 0.05299999937415123, 0.03999999910593033]","[0.0, 0.0, -1.0286435120859125]","[0.08842518925666809, 0.09015065431594849, 0.03999999910593033]","[0.0, 0.0, -0.5596984028120249]",0.9857786282275423,-10.287430086067793,"(0.0, 0.0, 0.0, 0.0, 0.0, 0.0)",1.787161045327472,-0.5120561765231523,-10.345168626224153,"(0.0, 0.0, 0.0, 0.0, 0.0, 0.0)",0.24107512437447856,-0.9857790838840517,10.28744223690805,"(0.0, 0.0, 0.0, 0.0, 0.0, 0.0)",-1.787164701188607,0.5120504988015524,10.345320032133483,"(0.0, 0.0, 0.0, 0.0, 0.0, 0.0)",-0.24107695935135354,False,,,,,False,,,,
38,Close,,,"(3.0991842655903425e-07, 0.169999153087261, 0.0005600347082356065)","(1.570772558536085, 0.00032764712563817383, -1.5390013302753274e-05)",,"[-0.026750000193715096, 0.05299999937415123, 0.03999999910593033]","[0.0, -0.0, 0.9857786218799983]","[-0.08677656948566437, 0.09275941550731659, 0.03999999910593033]","[0.0, -0.0, 0.4737224893055005]","[0.026750000193715096, 0.05299999937415123, 0.03999999910593033]","[0.0, 0.0, -0.9857791586690391]","[0.08677658438682556, 0.0927593931555748, 0.03999999910593033]","[0.0, 0.0, -0.47372859204714834]",0.9472007654041954,-9.258687077603232,"(0.0, 0.0, 0.0, 0.0, 0.0, 0.0)",1.6097085175776904,-0.550850558870837,-9.310651763444346,"(0.0, 0.0, 0.0, 0.0, 0.0, 0.0)",0.21783104241587867,-0.9472011754950539,9.258698013359455,"(0.0, 0.0, 0.0, 0.0, 0.0, 0.0)",-1.609711822487034,0.5508454489213972,9.310788028762744,"(0.0, 0.0, 0.0, 0.0, 0.0, 0.0)",-0.21783270758412676,False,,,,,False,,,,
39,Close,,,"(4.0106165104263135e-07, 0.169999026405202, 0.0005944331352702725)","(1.570848092729261, 0.0003750986118602944, -1.4060502423520339e-05)",,"[-0.026750000193715096, 0.05299999937415123, 0.03999999910593033]","[0.0, -0.0, 0.9472008140782049]","[-0.08519845455884933, 0.09504495561122894, 0.03999999910593033]","[0.0, -0.0, 0.39635019782230363]","[0.026750000193715096, 0.05299999937415123, 0.03999999910593033]","[0.0, 0.0, -0.9472011867132297]","[0.08519846946001053, 0.09504493325948715, 0.03999999910593033]","[0.0, 0.0, -0.3963557154153113]",0.9124806888632406,-8.332818369829143,"(0.0, 0.0, 0.0, 0.0, 0.0, 0.0)",1.4497611633824499,-0.5857655029837533,-8.379586587099913,"(0.0, 0.0, 0.0, 0.0, 0.0, 0.0)",0.19674731686213875,-0.9124810579450133,8.332828212009746,"(0.0, 0.0, 0.0, 0.0, 0.0, 0.0)",-1.4497641496546352,0.5857609040292575,8.379709225886469,"(0.0, 0.0, 0.0, 0.0, 0.0, 0.0)",-0.1967488266016999,False,,,,,False,,,,
40,Close,,,"(3.70657372146465e-07, 0.16999903038777142, 0.0006260749884053443)","(1.5708440552876382, 0.00034508120830118214, -1.4055585689260766e-05)",,"[-0.026750000193715096, 0.05299999937415123, 0.03999999910593033]","[0.0, -0.0, 0.9124807402838544]","[-0.08370371162891388, 0.09704854339361191, 0.03999999910593033]","[0.0, -0.0, 0.32671521193417863]","[0.026750000193715096, 0.05299999937415123, 0.03999999910593033]","[0.0, 0.0, -0.9124811663733811]","[0.08370373398065567, 0.09704852104187012, 0.03999999910593033]","[0.0, 0.0, -0.32672018954414506]",0.8812326199769166,-7.499536532717775,"(0.0, 0.0, 0.0, 0.0, 0.0, 0.0)",1.3056085801322186,-0.6171891619197363,-7.541678144635914,"(0.0, 0.0, 0.0, 0.0, 0.0, 0.0)",0.17763358199117588,-0.881232952150512,7.499545390680321,"(0.0, 0.0, 0.0, 0.0, 0.0, 0.0)",-1.305611277336412,0.617185022862301,7.541788519930457,"(0.0, 0.0, 0.0, 0.0, 0.0, 0.0)",-0.17763494969582577,False,,,,,False,,,,
41,Close,,,"(3.427044292909036e-07, 0.1699990340506735, 0.0006551854712062516)","(1.5708403346470328, 0.0003174583455114455, -1.4051356821419932e-05)",,"[-0.026750000193715096, 0.05299999937415123, 0.03999999910593033]","[0.0, -0.0, 0.8812326035131218]","[-0.08229970186948776, 0.09880644828081131, 0.03999999910593033]","[0.0, -0.0, 0.26404346611112495]","[0.026750000193715096, 0.05299999937415123, 0.03999999910593033]","[0.0, 0.0, -0.8812328730718287]","[0.08229971677064896, 0.09880642592906952, 0.03999999910593033]","[0.0, 0.0, -0.2640479150919315]",0.8531093579792249,-6.749582879446001,"(0.0, 0.0, 0.0, 0.0, 0.0, 0.0)",1.1757252455852583,-0.6454704345862542,-6.78750543996429,"(0.0, 0.0, 0.0, 0.0, 0.0, 0.0)",0.16033509317806058,-0.8531096569354608,6.7495908516122896,"(0.0, 0.0, 0.0, 0.0, 0.0, 0.0)",-1.1757276808922346,0.645466709436021,6.787604777692787,"(0.0, 0.0, 0.0, 0.0, 0.0, 0.0)",-0.16033633143309114,False,,,,,False,,,,
42,Close,,,"(3.170084497545684e-07, 0.16999903740907119, 0.0006819671107693073)","(1.570836911771951, 0.00029204530032808255, -1.4047683015968837e-05)",,"[-0.026750000193715096, 0.05299999937415123, 0.03999999910593033]","[0.0, -0.0, 0.8531093567174074]","[-0.08098968118429184, 0.10035036504268646, 0.03999999910593033]","[0.0, -0.0, 0.2076389231904772]","[0.026750000193715096, 0.05299999937415123, 0.03999999910593033]","[0.0, 0.0, -0.8531096230941355]","[0.08098969608545303, 0.10035035014152527, 0.03999999910593033]","[0.0, 0.0, -0.2076429742570099]",0.8277984221813024,-6.0746245915014,"(0.0, 0.0, 0.0, 0.0, 0.0, 0.0)",1.0586966037970245,-0.6709235615380169,-6.1087504684230565,"(0.0, 0.0, 0.0, 0.0, 0.0, 0.0)",0.14467321668423558,-0.8277986912419147,6.074631766451059,"(0.0, 0.0, 0.0, 0.0, 0.0, 0.0)",-1.0586988018726124,0.6709202089041267,6.108839872345364,"(0.0, 0.0, 0.0, 0.0, 0.0, 0.0)",-0.14467433700617466,False,,,,,False,,,,
43,Close,,,"(2.93385406087929e-07, 0.16999904048782613, 0.0007066062149797113)","(1.5708337628331848, 0.0002686652895538331, -1.4044478861914954e-05)",,"[-0.026750000193715096, 0.05299999937415123, 0.03999999910593033]","[0.0, -0.0, 0.8277984323872327]","[-0.07977395504713058, 0.10170790553092957, 0.03999999910593033]","[0.0, -0.0, 0.15687485461046338]","[0.026750000193715096, 0.05299999937415123, 0.03999999910593033]","[0.0, 0.0, -0.8277987052452376]","[0.07977396249771118, 0.10170789808034897, 0.03999999910593033]","[0.0, 0.0, -0.15687847762667875]",0.8050185799631722,-5.467162132351259,"(0.0, 0.0, 0.0, 0.0, 0.0, 0.0)",0.9532674830029981,-0.6938313591081322,-5.497871416827678,"(0.0, 0.0, 0.0, 0.0, 0.0, 0.0)",0.1305069121449798,-0.8050188221177232,5.467168589805953,"(0.0, 0.0, 0.0, 0.0, 0.0, 0.0)",-0.9532694663734236,0.6938283417388244,5.49795188032743,"(0.0, 0.0, 0.0, 0.0, 0.0, 0.0)",-0.13050792520753388,False,,,,,False,,,,
44,Close,,,"(2.716665250887489e-07, 0.16999904330973556, 0.0007292741870466809)","(1.5708308659078907, 0.0002471556717650467, -1.4041672069322908e-05)",,"[-0.026750000193715096, 0.05299999937415123, 0.03999999910593033]","[0.0, -0.0, 0.8050185839979388]","[-0.07865073531866074, 0.10290304571390152, 0.03999999910593033]","[0.0, -0.0, 0.11118723016400785]","[0.026750000193715096, 0.05299999937415123, 0.03999999910593033]","[0.0, 0.0, -0.8050187952188965]","[0.07865074276924133, 0.10290303081274033, 0.03999999910593033]","[0.0, 0.0, -0.11119048022217565]",0.784516721966855,-4.920445919116134,"(0.0, 0.0, 0.0, 0.0, 0.0, 0.0)",0.8582975670224743,-0.7144483618360385,-4.948080654697517,"(0.0, 0.0, 0.0, 0.0, 0.0, 0.0)",0.11770004006048959,-0.784516939905951,4.92045173082536,"(0.0, 0.0, 0.0, 0.0, 0.0, 0.0)",-0.8582993561887614,0.7144456462047399,4.948153071819748,"(0.0, 0.0, 0.0, 0.0, 0.0, 0.0)",-0.11770095568272418,False,,,,,False,,,,
45,Close,,,"(2.51696986958339e-07, 0.1699990458957082, 0.0007501287178850499)","(1.5708282008276007, 0.000227366816649173, -1.4039201474218165e-05)",,"[-0.026750000193715096, 0.05299999937415123, 0.03999999910593033]","[0.0, -0.0, 0.7845167193080385]","[-0.07761679589748383, 0.10395654290914536, 0.03999999910593033]","[0.0, -0.0, 0.07006835685702544]","[0.026750000193715096, 0.05299999937415123, 0.03999999910593033]","[0.0, 0.0, -0.7845169946958266]","[0.07761680334806442, 0.10395653545856476, 0.03999999910593033]","[0.0, 0.0, -0.0700712989357174]",0.7660650497701694,-4.42840132720452,"(0.0, 0.0, 0.0, 0.0, 0.0, 0.0)",0.7727568402429666,-0.7330036506599046,-4.453269317727849,"(0.0, 0.0, 0.0, 0.0, 0.0, 0.0)",0.106127525293464,-0.7660652459153559,4.428406557742824,"(0.0, 0.0, 0.0, 0.0, 0.0, 0.0)",-0.7727584538402424,0.7330012065927102,4.453334493112861,"(0.0, 0.0, 0.0, 0.0, 0.0, 0.0)",-0.10612835248484857,False,,,,,False,,,,
46,Close,,,"(2.3333473952068603e-07, 0.16999904826492518, 0.0007693148831029557)","(1.5708257490378412, 0.00020916106414766092, -1.403701531280991e-05)",,"[-0.026750000193715096, 0.05299999937415123, 0.03999999910593033]","[0.0, -0.0, 0.7660649977175382]","[-0.07666795700788498, 0.10488639771938324, 0.03999999910593033]","[0.0, -0.0, 0.03306140223906952]","[0.026750000193715096, 0.05299999937415123, 0.03999999910593033]","[0.0, 0.0, -0.7660653079646047]","[0.07666796445846558, 0.10488638281822205, 0.03999999910593033]","[0.0, 0.0, -0.033064041138401834]",0.7494585447931524,-3.985561194484066,"(0.0, 0.0, 0.0, 0.0, 0.0, 0.0)",0.6957152666369016,-0.7497033982890566,-4.007939430996486,"(0.0, 0.0, 0.0, 0.0, 0.0, 0.0)",0.09567473522853766,-0.7494587213238203,3.985565901968542,"(0.0, 0.0, 0.0, 0.0, 0.0, 0.0)",-0.6957167215859875,0.7497011986294615,4.007998088820328,"(0.0, 0.0, 0.0, 0.0, 0.0, 0.0)",-0.09567548223716564,False,,,,,False,,,,
47,Close,,,"(2.1644941757498085e-07, 0.1699990504349868, 0.0007869661522299996)","(1.5708234934689855, 0.0001924117668631307, -1.4035069780186692e-05)",,"[-0.026750000193715096, 0.05299999937415123, 0.03999999910593033]","[0.0, -0.0, 0.7494586090384826]","[-0.07579945772886276, 0.10570816695690155, 0.03999999910593033]","[0.0, 0.0, -0.000244853492999894]","[0.026750000193715096, 0.05299999937415123, 0.03999999910593033]","[0.0, 0.0, -0.7494587081400255]","[0.07579946517944336, 0.10570815205574036, 0.03999999910593033]","[0.0, -0.0, 0.00024247731079752444]",0.7345126903138371,-3.587005075035659,"(0.0, 0.0, 0.0, 0.0, 0.0, 0.0)",0.626333365984163,-0.764733160038395,-3.6071428198412123,"(0.0, 0.0, 0.0, 0.0, 0.0, 0.0)",0.08623682787405348,-0.7345128491914382,3.587009311771688,"(0.0, 0.0, 0.0, 0.0, 0.0, 0.0)",-0.6263346776346612,0.7647311803455538,3.607195611862134,"(0.0, 0.0, 0.0, 0.0, 0.0, 0.0)",-0.08623750223625977,False,,,,,False,,,,
48,Close,,,"(1.9902478529523268e-07, 0.16999905216510106, 0.0008031506134026157)","(1.5708213694672628, 0.00017518801369688713, -1.4031269556480368e-05)",,"[-0.026750000193715096, 0.05299999937415123, 0.03999999910593033]","[0.0, -0.0, 0.7345126628086843]","[-0.07500623911619186, 0.10643533617258072, 0.03999999910593033]","[0.0, 0.0, -0.03022046980229406]","[0.026750000193715096, 0.05299999937415123, 0.03999999910593033]","[0.0, 0.0, -0.7345128981556924]","[0.07500624656677246, 0.10643532872200012, 0.03999999910593033]","[0.0, -0.0, 0.03021832986745902]",0.7210614212824534,-3.228304567532092,"(0.0, 0.0, 0.0, 0.0, 0.0, 0.0)",0.5638237707840803,-0.7782610712626786,-3.246698693828069,"(0.0, 0.0, 0.0, 0.0, 0.0, 0.0)",0.07768823801248652,-0.7210615642722944,3.2283083805945183,"(0.0, 0.0, 0.0, 0.0, 0.0, 0.0)",-0.5638249528147553,0.7782592895487316,3.2467462087626835,"(0.0, 0.0, 0.0, 0.0, 0.0, 0.0)",-0.07768884636877696,False,,,,,False,,,,
49,Close,,,"(1.829952775457341e-07, 0.16999905372445717, 0.0008180403399689366)","(1.5708194143492393, 0.00015934185659229473, -1.4027683329641553e-05)",,"[-0.026750000193715096, 0.05299999937415123, 0.03999999910593033]","[0.0, -0.0, 0.7210614193238458]","[-0.07428312301635742, 0.10707958787679672, 0.03999999910593033]","[0.0, 0.0, -0.05719964992344959]","[0.026750000193715096, 0.05299999937415123, 0.03999999910593033]","[0.0, 0.0, -0.7210615729227128]","[0.07428313046693802, 0.10707958042621613, 0.03999999910593033]","[0.0, -0.0, 0.05719773186848648]",0.7089552791542081,-2.905474110778883,"(0.0, 0.0, 0.0, 0.0, 0.0, 0.0)",0.5075985242705942,-0.7904360705014085,-2.921999817295172,"(0.0, 0.0, 0.0, 0.0, 0.0, 0.0)",0.07003713951344083,-0.7089554078450649,2.905477542535066,"(0.0, 0.0, 0.0, 0.0, 0.0, 0.0)",-0.5075995897946305,0.7904344669675306,2.9220425805117625,"(0.0, 0.0, 0.0, 0.0, 0.0, 0.0)",-0.07003768863744474,False,,,,,False,,,,
50,Close,,,"(1.682467379846132e-07, 0.1699990551245469, 0.0008317388481303276)","(1.570817615731277, 0.00014476218910829968, -1.4024269510216624e-05)",,"[-0.026750000193715096, 0.05299999937415123, 0.03999999910593033]","[0.0, -0.0, 0.7089552779168017]","[-0.07362496107816696, 0.10765105485916138, 0.03999999910593033]","[0.0, 0.0, -0.08148078223376223]","[0.026750000193715096, 0.05299999937415123, 0.03999999910593033]","[0.0, 0.0, -0.7089554724698194]","[0.07362496852874756, 0.10765104740858078, 0.03999999910593033]","[0.0, -0.0, 0.0814790502780401]",0.6980597512387873,-2.6149266997009946,"(0.0, 0.0, 0.0, 0.0, 0.0, 0.0)",0.45693917814201784,-0.8013934602632394,-2.6297735428394082,"(0.0, 0.0, 0.0, 0.0, 0.0, 0.0)",0.06310201359777694,-0.6980598670605584,2.614929788281559,"(0.0, 0.0, 0.0, 0.0, 0.0, 0.0)",-0.45694013827892466,0.8013920170905735,2.6298120295302843,"(0.0, 0.0, 0.0, 0.0, 0.0, 0.0)",-0.06310250889925509,False,,,,,False,,,,
51,Close,,,"(1.546756367802499e-07, 0.16999905637827734, 0.0008443414385910609)","(1.5708159610857961, 0.00013134778772512943, -1.402100024143693e-05)",,"[-0.026750000193715096, 0.05299999937415123, 0.03999999910593033]","[0.0, -0.0, 0.6980597686270504]","[-0.07302673906087875, 0.10815852880477905, 0.03999999910593033]","[0.0, 0.0, -0.10333370902653251]","[0.026750000193715096, 0.05299999937415123, 0.03999999910593033]","[0.0, 0.0, -0.6980598246378259]","[0.07302674651145935, 0.10815852135419846, 0.03999999910593033]","[0.0, -0.0, 0.10333215264877679]",0.6882537761149086,-2.3534340297308955,"(0.0, 0.0, 0.0, 0.0, 0.0, 0.0)",0.41132662822933225,-0.8112550122446371,-2.3667724755354502,"(0.0, 0.0, 0.0, 0.0, 0.0, 0.0)",0.056847326346645,-0.6882538803545026,2.353436809453404,"(0.0, 0.0, 0.0, 0.0, 0.0, 0.0)",-0.4113274932960819,0.8112537133962935,2.3668071133728046,"(0.0, 0.0, 0.0, 0.0, 0.0, 0.0)",-0.0568477730004364,False,,,,,False,,,,
52,Close,,,"(1.4218689550358636e-07, 0.1699990574974972, 0.0008559357877458743)","(1.5708144388885392, 0.00011900551991941484, -1.4017852050493115e-05)",,"[-0.026750000193715096, 0.05299999937415123, 0.03999999910593033]","[0.0, -0.0, 0.6882538042795985]","[-0.07248363643884659, 0.10860966145992279, 0.03999999910593033]","[0.0, 0.0, -0.12300123728040792]","[0.026750000193715096, 0.05299999937415123, 0.03999999910593033]","[0.0, 0.0, -0.688253900607872]","[0.07248364388942719, 0.1086096540093422, 0.03999999910593033]","[0.0, -0.0, 0.12299984676553348]",0.6794283985034177,-2.118090626757806,"(0.0, 0.0, 0.0, 0.0, 0.0, 0.0)",0.3702598465395096,-0.8201303199370257,-2.1300738461732434,"(0.0, 0.0, 0.0, 0.0, 0.0, 0.0)",0.051207533272865695,-0.6794284923190523,2.1180931285080637,"(0.0, 0.0, 0.0, 0.0, 0.0, 0.0)",-0.37026062586363284,0.8201291509798778,2.130105020060234,"(0.0, 0.0, 0.0, 0.0, 0.0, 0.0)",-0.051207935975855504,False,,,,,False,,,,
53,Close,,,"(1.3069318416839e-07, 0.16999905849308636, 0.0008666025576372722)","(1.5708130385376784, 0.00010764969663878531, -1.401480516953977e-05)",,"[-0.026750000193715096, 0.05299999937415123, 0.03999999910593033]","[0.0, -0.0, 0.6794284238724229]","[-0.07199108600616455, 0.10901110619306564, 0.03999999910593033]","[0.0, 0.0, -0.14070193198542613]","[0.026750000193715096, 0.05299999937415123, 0.03999999910593033]","[0.0, 0.0, -0.6794284800706577]","[0.07199109345674515, 0.10901109874248505, 0.03999999910593033]","[0.0, -0.0, 0.1407006814892172]",0.6714855586530759,-1.9062815640820263,"(0.0, 0.0, 0.0, 0.0, 0.0, 0.0)",0.33328720146674756,-0.82811801654313,-1.9170471854650495,"(0.0, 0.0, 0.0, 0.0, 0.0, 0.0)",0.0461231568532664,-0.6714856430871471,1.9062838156572566,"(0.0, 0.0, 0.0, 0.0, 0.0, 0.0)",-0.33328790347714454,0.8281169644874314,1.917075241812861,"(0.0, 0.0, 0.0, 0.0, 0.0, 0.0)",-0.04612351986457081,False,,,,,False,,,,
54,Close,,,"(1.201142787701026e-07, 0.1699990593750365, 0.0008764159571233717)","(1.5708117502799854, 9.720147739875066e-05, -1.4011842957469135e-05)",,"[-0.026750000193715096, 0.05299999937415123, 0.03999999910593033]","[0.0, -0.0, 0.6714856028191667]","[-0.07154478132724762, 0.10936867445707321, 0.03999999910593033]","[0.0, 0.0, -0.1566324602805662]","[0.026750000193715096, 0.05299999937415123, 0.03999999910593033]","[0.0, 0.0, -0.6714856028191667]","[0.07154478132724762, 0.10936867445707321, 0.03999999910593033]","[0.0, -0.0, 0.15663130155257995]",0.6643370027877683,-1.7156534076738226,"(0.0, 0.0, 0.0, 0.0, 0.0, 0.0)",0.30000166468946887,-0.8353068710937589,-1.7253250921509458,"(0.0, 0.0, 0.0, 0.0, 0.0, 0.0)",0.041540284771796165,-0.6643370787784324,1.7156554340915304,"(0.0, 0.0, 0.0, 0.0, 0.0, 0.0)",-0.3000022969997827,0.8353059242487986,1.725350342728124,"(0.0, 0.0, 0.0, 0.0, 0.0, 0.0)",-0.041540611950472935,False,,,,,False,,,,
55,Close,,,"(1.1037647424359984e-07, 0.16999906015252483, 0.0008854442581506275)","(1.5708105651429114, 8.758832292823178e-05, -1.4008951415989527e-05)",,"[-0.026750000193715096, 0.05299999937415123, 0.03999999910593033]","[0.0, -0.0, 0.6643370606126838]","[-0.07114068418741226, 0.1096874549984932, 0.03999999910593033]","[0.0, 0.0, -0.17096987637179278]","[0.026750000193715096, 0.05299999937415123, 0.03999999910593033]","[0.0, 0.0, -0.6643370606126838]","[0.07114069163799286, 0.1096874475479126, 0.03999999910593033]","[0.0, -0.0, 0.17096884643662202]",0.6579033025089914,-1.5440880669064398,"(0.0, 0.0, 0.0, 0.0, 0.0, 0.0)",0.2700364572532802,-0.8417767749452665,-1.5527769243618206,"(0.0, 0.0, 0.0, 0.0, 0.0, 0.0)",0.03741008611729049,-0.6579033709005891,1.5440898906823783,"(0.0, 0.0, 0.0, 0.0, 0.0, 0.0)",-0.27003702673818186,0.8417759227894597,1.5527996497586782,"(0.0, 0.0, 0.0, 0.0, 0.0, 0.0)",-0.03741038095743008,False,,,,,False,,,,
56,Close,,,"(1.0141204673652616e-07, 0.16999906083398159, 0.0008937502707232629)","(1.570809474872104, 7.87434915574051e-05, -1.4006118772737545e-05)",,"[-0.026750000193715096, 0.05299999937415123, 0.03999999910593033]","[0.0, -0.0, 0.6579033304946226]","[-0.07077505439519882, 0.10997187346220016, 0.03999999910593033]","[0.0, 0.0, -0.18387348897538708]","[0.026750000193715096, 0.05299999937415123, 0.03999999910593033]","[0.0, 0.0, -0.6579033304946226]","[0.07077506184577942, 0.10997187346220016, 0.03999999910593033]","[0.0, -0.0, 0.1838725619548152]",0.6521129722580923,-1.3896792602157946,"(0.0, 0.0, 0.0, 0.0, 0.0, 0.0)",0.24306111081870946,-0.8475996296201711,-1.3974851219770965,"(0.0, 0.0, 0.0, 0.0, 0.0, 0.0)",0.033688362136148925,-0.6521130338105302,1.38968090161414,"(0.0, 0.0, 0.0, 0.0, 0.0, 0.0)",-0.24306162368353448,0.8475988626841415,1.3975055747236533,"(0.0, 0.0, 0.0, 0.0, 0.0, 0.0)",-0.03368862779939208,False,,,,,False,,,,
57,Close,,,"(9.31587620256511e-08, 0.16999906142715163, 0.0009013917798737923)","(1.570808471873919, 7.060557585400826e-05, -1.4003335136779464e-05)",,"[-0.026750000193715096, 0.05299999937415123, 0.03999999910593033]","[0.0, -0.0, 0.6521129301518677]","[-0.07044443488121033, 0.11022583395242691, 0.03999999910593033]","[0.0, 0.0, -0.19548665573955404]","[0.026750000193715096, 0.05299999937415123, 0.03999999910593033]","[0.0, 0.0, -0.6521129866161153]","[0.07044444233179092, 0.11022583395242691, 0.03999999910593033]","[0.0, -0.0, 0.19548582525750646]",0.646901675032283,-1.2507113341942153,"(0.0, 0.0, 0.0, 0.0, 0.0, 0.0)",0.2187779064062842,-0.8528401458571484,-1.2577238968745574,"(0.0, 0.0, 0.0, 0.0, 0.0, 0.0)",0.03033513071724496,-0.6469017304294772,1.2507128114527255,"(0.0, 0.0, 0.0, 0.0, 0.0, 0.0)",-0.2187783682505172,0.8528394556185027,1.2577423042466835,"(0.0, 0.0, 0.0, 0.0, 0.0, 0.0)",-0.03033537006280305,False,,,,,False,,,,
58,Close,,,"(8.555942447331213e-08, 0.16999906193915107, 0.000908421947674647)","(1.5708075491625393, 6.311807629477444e-05, -1.4000592203169427e-05)",,"[-0.026750000193715096, 0.05299999937415123, 0.03999999910593033]","[0.0, -0.0, 0.6469017074975589]","[-0.0701456218957901, 0.11045276373624802, 0.03999999910593033]","[0.0, 0.0, -0.20593848593871938]","[0.026750000193715096, 0.05299999937415123, 0.03999999910593033]","[0.0, 0.0, -0.6469017640113621]","[0.0701456293463707, 0.11045276373624802, 0.03999999910593033]","[0.0, -0.0, 0.2059377054983325]",0.6422115075290548,-1.1256402007747932,"(0.0, 0.0, 0.0, 0.0, 0.0, 0.0)",0.19691865600140895,-0.8575565627499749,-1.1319400542783593,"(0.0, 0.0, 0.0, 0.0, 0.0, 0.0)",0.027314243362735774,-0.6422115573865295,1.1256415303074527,"(0.0, 0.0, 0.0, 0.0, 0.0, 0.0)",-0.19691907187647334,0.8575559415385998,1.1319566208232932,"(0.0, 0.0, 0.0, 0.0, 0.0, 0.0)",-0.027314458975022625,False,,,,,False,,,,
59,Move,,,"(7.856146500561274e-08, 0.16999906237651882, 0.0009148896830877347)","(1.5708067003113224, 5.6229009009845055e-05, -1.399788300299107e-05)","[0.0, 0.0, 0.0]","[-0.026750000193715096, 0.05299999937415123, 0.03999999910593033]","[0.0, -0.0, 0.6422115222668433]","[-0.06987567991018295, 0.11065566539764404, 0.03999999910593033]","[0.0, 0.0, -0.21534502689171695]","[0.026750000193715096, 0.05299999937415123, 0.03999999910593033]","[0.0, 0.0, -0.6422115222668433]","[0.06987568736076355, 0.11065565794706345, 0.03999999910593033]","[0.0, -0.0, 0.2153443918565048]",0.6379903567761492,-1.0130761806973148,"(0.0, 0.0, 0.0, 0.0, 0.0, 0.0)",0.17724179525373857,-0.861801294967015,-1.0187357320896053,"(0.0, 0.0, 0.0, 0.0, 0.0, 0.0)",0.024593033118920006,-0.6379904016478766,1.0130773772767077,"(0.0, 0.0, 0.0, 0.0, 0.0, 0.0)",-0.1772421697155535,0.8618007358798453,1.0187506418989196,"(0.0, 0.0, 0.0, 0.0, 0.0, 0.0)",-0.024593227332916724,False,,,,,False,,,,
60,Move,,,"(7.401516452493873e-08, 0.16999906300717518, 0.0009208949427311885)","(1.5708059692049072, 5.171406878091127e-05, -1.3997173418156156e-05)","[-4.546300480674002e-09, 6.306563604674409e-10, 6.005259643453772e-06]","[-0.026750000193715096, 0.05299999937415123, 0.03999999910593033]","[0.0, -0.0, 0.6379903239810443]","[-0.06963192671537399, 0.1108371913433075, 0.03999999910593033]","[0.0, 0.0, -0.2238109552587812]","[0.026750000193715096, 0.05299999937415123, 0.03999999910593033]","[0.0, 0.0, -0.6379904179642307]","[0.06963192671537399, 0.1108371838927269, 0.03999999910593033]","[0.0, -0.0, 0.22381033482023305]",0.615110639462399,-5.491132155300077,"(0.0, 0.0, 0.0, 0.0, 0.0, 0.0)",-6.452665348763696,-0.8613763884842398,0.10197755586604229,"(0.0, 0.0, 0.0, 0.0, 0.0, 0.0)",-0.36782542138199165,-0.6151107211023208,5.491123330933392,"(0.0, 0.0, 0.0, 0.0, 0.0, 0.0)",6.4526488408560905,0.8613758231880564,-0.10197904602934349,"(0.0, 0.0, 0.0, 0.0, 0.0, 0.0)",0.36782252911949487,False,,,,,False,,,,
61,Move,,,"(6.525734425186348e-05, 0.17034549853437667, 0.001059997142676121)","(1.5643418998519334, 0.00019756355969089426, -0.0007979474479338168)","[6.517878278685787e-05, 0.00034643615785784343, 0.00014510745958838623]","[-0.026750000193715096, 0.05299999937415123, 0.03999999910593033]","[0.0, -0.0, 0.6151107619663475]","[-0.06829752027988434, 0.1118030920624733, 0.03999999910593033]","[0.0, 0.0, -0.24626574387408112]","[0.026750000193715096, 0.05299999937415123, 0.03999999910593033]","[0.0, 0.0, -0.6151107619663475]","[0.06829752773046494, 0.1118030920624733, 0.03999999910593033]","[0.0, -0.0, 0.24626510812228053]",0.59557520589455,-4.68850405628373,"(0.0, 0.0, 0.0, 0.0, 0.0, 0.0)",-45.004877301260535,-0.841587039207075,4.749443826519566,"(0.0, 0.0, 0.0, 0.0, 0.0, 0.0)",-23.059879711313982,-0.5955448471476087,4.6958097491309045,"(0.0, 0.0, 0.0, 0.0, 0.0, 0.0)",43.2331221848827,0.8422035798107438,-4.601338410555013,"(0.0, 0.0, 0.0, 0.0, 0.0, 0.0)",22.069611273367745,True,"(-0.03288698015965098, 0.18306432161630465, 0.039999948285931244)","(0.9999999985648672, -1.399717339714095e-05, -5.171406875791205e-05)",0.0009292587523792685,356.63318049990795,True,"(0.032887031061809374, 0.18306436848012048, 0.04000005171406876)","(-0.9999999985648671, 1.3997173395198976e-05, 5.171406875668148e-05)",0.0009247539911204204,342.7710504396539
62,Move,"(-0.0031000000000000003, 0.0, -0.0002)","(0.0, 0.02079385270826044, 0.0)","(0.00016176697229314485, 0.17076934431250207, 0.001298992481510786)","(1.553459115144406, 0.0004787126916021603, -0.0016283617000435679)","[0.00016168841082813925, 0.0007702819359832469, 0.0003841027984230513]","[-0.026750000193715096, 0.05299999937415123, 0.03999999910593033]","[0.0, -0.0, 0.5955751094143519]","[-0.06714092195034027, 0.11260347068309784, 0.03999999910593033]","[0.0, 0.0, -0.24601185159459507]","[0.026750000193715096, 0.05299999937415123, 0.03999999910593033]","[0.0, 0.0, -0.5955448282145998]","[0.06713911145925522, 0.11260469257831573, 0.03999999910593033]","[0.0, -0.0, 0.24665872904210193]",0.5770970782178444,-4.434750642409365,"(0.0, 0.0, 0.0, 0.0, 0.0, 0.0)",-74.21698749878065,-0.811850997818181,7.136649933334551,"(0.0, 0.0, 0.0, 0.0, 0.0, 0.0)",-37.92588619525253,-0.5770027641966642,4.450099908226674,"(0.0, 0.0, 0.0, 0.0, 0.0, 0.0)",71.59541053355323,0.8135423707664626,-6.878690170627483,"(0.0, 0.0, 0.0, 0.0, 0.0, 0.0)",36.485404729774935,True,"(-0.03174847742362094, 0.1838726496858637, 0.03999980243644159)","(0.9999996621242782, -0.0007979473476813144, -0.0001975635584110712)",-0.00012778812911608492,569.3446982775357,True,"(0.031700570614753176, 0.18385320841010633, 0.0400001975635584)","(-0.9999996621242783, 0.0007979473476767542, 0.0001975635584049517)",-0.0003431682129125587,549.2893233704585
63,Move,"(0.0048, 0.0, 0.0011)","(0.0, 0.02079385270826044, 0.0)","(0.00015700621334275227, 0.17106756225708933, 0.0015614539619265202)","(1.5455637352712437, -0.0006982113331855948, -0.0014217867785218958)","[0.00015692765187774667, 0.001068499880570506, 0.0006465642788387855]","[-0.026750000193715096, 0.05299999937415123, 0.03999999910593033]","[0.0, -0.0, 0.5770971029289548]","[-0.06603273004293442, 0.11333960294723511, 0.03999999910593033]","[0.0, 0.0, -0.23475391897699402]","[0.026750000193715096, 0.05299999937415123, 0.03999999910593033]","[0.0, 0.0, -0.5770027543990871]","[0.06602703779935837, 0.11334330588579178, 0.03999999910593033]","[0.0, -0.0, 0.23653961426052006]",0.5799796292642971,0.6918122511486553,"(0.0, 0.0, 0.0, 0.0, 0.0, 0.0)",6.66592691509427,-0.8148246019570704,-0.7136649933334551,"(0.0, 0.0, 0.0, 0.0, 0.0, 0.0)",-0.2981363738525078,-0.5786482632672718,-0.394919776945831,"(0.0, 0.0, 0.0, 0.0, 0.0, 0.0)",-5.507454535142607,0.8163877251118599,0.682885042895327,"(0.0, 0.0, 0.0, 0.0, 0.0, 0.0)",0.7571289146062957,True,"(-0.03144479909141533, 0.18499061278782541, 0.039999521287326686)","(0.9999985596366134, -0.0016283607938474471, -0.0004787126733201028)",-0.00031179486038545077,0.0,True,"(0.0313112124765586, 0.1849374824167095, 0.040000478712673315)","(-0.9999985596366132, 0.0016283607938671909, 0.0004787126733090728)",-0.0008521962835819142,5.920093495981533
64,Move,"(0.004200000000000001, 0.0, 0.0009000000000000001)","(0.0, 0.02528982086139784, 0.0)","(0.00023027206452176055, 0.17128607246458294, 0.0017646574098940874)","(1.5395423338028704, -0.0006387226097598026, -0.001634044321468562)","[0.00023019350305675495, 0.0012870100880641167, 0.0008497677268063527]","[-0.026750000193715096, 0.05299999937415123, 0.03999999910593033]","[0.0, -0.0, 0.5799796640830619]","[-0.06620649993419647, 0.11322611570358276, 0.03999999910593033]","[0.0, 0.0, -0.23484497432556833]","[0.026750000193715096, 0.05299999937415123, 0.03999999910593033]","[0.0, 0.0, -0.5786483363125]","[0.0661262795329094, 0.1132785901427269, 0.03999999910593033]","[0.0, -0.0, 0.23773948183061241]",0.5793074863283093,-0.16131430463708407,"(0.0, 0.0, 0.0, 0.0, 0.0, 0.0)",-1.8853221723184264,-0.8144713340744224,0.08478429183550806,"(0.0, 0.0, 0.0, 0.0, 0.0, 0.0)",-0.4326682190688144,-0.5802476117760992,-0.38384364211855804,"(0.0, 0.0, 0.0, 0.0, 0.0, 0.0)",-0.06609740249620545,0.8161031896773201,-0.06828850428953359,"(0.0, 0.0, 0.0, 0.0, 0.0, 0.0)",-0.08105240248459943,True,"(-0.031612043383213564, 0.1848742757848828, 0.040000698211276456)","(0.9999987455120718, -0.001421785952949818, 0.0006982112764590479)",-0.00019819796855687145,5.497774111063837,True,"(0.03132457751387017, 0.18483205821218177, 0.03999930178872356)","(-0.9999987455120718, 0.0014217859529426487, -0.0006982112764429997)",-0.0007851994157982436,0.0
65,Move,"(0.0029, 0.0, 0.0009000000000000001)","(0.0, 0.021265091606298914, 0.0)","(0.0003125750710326138, 0.17144072441240052, 0.001914589003245394)","(1.535199001730636, -0.0005823052876981124, -0.0018785212261381923)","[0.0003124965095676082, 0.0014416620358816967, 0.0009996993201576592]","[-0.026750000193715096, 0.05299999937415123, 0.03999999910593033]","[0.0, -0.0, 0.5793075318064045]","[-0.06616600602865219, 0.11325262486934662, 0.03999999910593033]","[0.0, 0.0, -0.23516384354640074]","[0.026750000193715096, 0.05299999937415123, 0.03999999910593033]","[0.0, 0.0, -0.5802476716680455]","[0.06622263789176941, 0.11321553587913513, 0.03999999910593033]","[0.0, -0.0, 0.23585556734978963]",0.5787490361721257,-0.13402803748406994,"(0.0, 0.0, 0.0, 0.0, 0.0, 0.0)",-0.19839246675783362,-0.8144738060543691,-0.0005932751872292225,"(0.0, 0.0, 0.0, 0.0, 0.0, 0.0)",-0.14185537162155104,-0.5814264053055801,-0.28291044707542756,"(0.0, 0.0, 0.0, 0.0, 0.0, 0.0)",0.15632137649565164,0.816131643220774,0.006828850428954425,"(0.0, 0.0, 0.0, 0.0, 0.0, 0.0)",0.01926995245973428,True,"(-0.031548708644337245, 0.18488985425069773, 0.04000063872256633)","(0.9999984609668681, -0.0016340432609807335, 0.0006387225663282934)",-0.00018326040498481644,1.7479008825022382,True,"(0.03155578952219301, 0.18483276848702979, 0.03999936127743369)","(-0.999998460966868, 0.0016340432609823691, -0.0006387225663097048)",-0.0006322444612855637,0.0
66,Move,"(0.0024, 0.0, 0.0009000000000000001)","(0.0, 0.021750293138353336, 0.0)","(0.0003784625082583641, 0.17153591042077018, 0.002014262133901494)","(1.5324418445398202, -0.0005273127665623449, -0.001512551246179974)","[0.0003783839467933585, 0.00153684804425136, 0.001099372450813759]","[-0.026750000193715096, 0.05299999937415123, 0.03999999910593033]","[0.0, -0.0, 0.5787490220380201]","[-0.06613235175609589, 0.11327462643384933, 0.03999999910593033]","[0.0, 0.0, -0.23572476680668447]","[0.026750000193715096, 0.05299999937415123, 0.03999999910593033]","[0.0, 0.0, -0.5814264052629236]","[0.06629358977079391, 0.11316896975040436, 0.03999999910593033]","[0.0, -0.0, 0.23470521253063634]",0.5786195612402945,-0.031073983639500632,"(0.0, 0.0, 0.0, 0.0, 0.0, 0.0)",0.15119827157193103,-0.8144737379928174,1.633477240653848e-05,"(0.0, 0.0, 0.0, 0.0, 0.0, 0.0)",0.011340022573460819,-0.5824053441567588,-0.23494532428289622,"(0.0, 0.0, 0.0, 0.0, 0.0, 0.0)",0.0695299407131439,0.816128786929232,-0.0006855099700840304,"(0.0, 0.0, 0.0, 0.0, 0.0, 0.0)",0.004423938960430972,True,"(-0.031474876273339863, 0.18489274429621, 0.0400005823052548)","(0.9999980660401003, -0.0018785198028255488, 0.0005823052547974075)",-0.00016951710835851703,0.0,True,"(0.03170914870400007, 0.18482512197922688, 0.039999417694745215)","(-0.9999980660401001, 0.0018785198028219965, -0.0005823052547896063)",-0.0005664521355309845,0.0
67,Move,"(0.0029, 0.0, 0.0011)","(0.0, 0.013110913340981403, 0.0)","(0.00042832090932279636, 0.17157134013987746, 0.002064008748304562)","(1.5312717480946505, -0.00046673405085206443, -0.0005489136507941132)","[0.00042824234785779076, 0.0015722777633586371, 0.0011491190652168273]","[-0.026750000193715096, 0.05299999937415123, 0.03999999910593033]","[0.0, -0.0, 0.5786195056113855]","[-0.06612455099821091, 0.11327972263097763, 0.03999999910593033]","[0.0, 0.0, -0.23585419116678955]","[0.026750000193715096, 0.05299999937415123, 0.03999999910593033]","[0.0, 0.0, -0.5824052516712632]","[0.0663524717092514, 0.11313022673130035, 0.03999999910593033]","[0.0, -0.0, 0.23372344912647566]",0.5786116388062488,-0.0019013841709769608,"(0.0, 0.0, 0.0, 0.0, 0.0, 0.0)",0.04280612278991758,-0.8144744206116026,-0.00016382850843449885,"(0.0, 0.0, 0.0, 0.0, 0.0, 0.0)",0.0031748121781782846,-0.5833336628226485,-0.2227964798135238,"(0.0, 0.0, 0.0, 0.0, 0.0, 0.0)",0.01785224697709646,0.8161287745356522,-2.9744591276311934e-06,"(0.0, 0.0, 0.0, 0.0, 0.0, 0.0)",0.001400042205508571,True,"(-0.03145780340135078, 0.18489385267915281, 0.040000527312742125)","(0.9999987170653674, -0.0015125504591484585, 0.000527312742121476)",-0.00012360020297804385,0.0,True,"(0.031838396830935416, 0.1848189549322825, 0.03999947268725788)","(-0.9999987170653672, 0.0015125504591673147, -0.0005273127421230791)",-0.0005001664166807542,0.0
68,Move,"(0.0047, 0.0, 0.0012)","(0.0, 0.008604473212332044, 0.0)","(0.0004687672391001977, 0.17157017181916423, 0.0020631844353155727)","(1.5317007363609478, -0.00041324307111370226, 0.0007484132833185929)","[0.0004686886776351921, 0.0015711094426454075, 0.001148294752227838]","[-0.026750000193715096, 0.05299999937415123, 0.03999999910593033]","[0.0, -0.0, 0.5786116722556034]","[-0.0661240741610527, 0.1132800355553627, 0.03999999910593033]","[0.0, 0.0, -0.23586275438188925]","[0.026750000193715096, 0.05299999937415123, 0.03999999910593033]","[0.0, 0.0, -0.5833336865910859]","[0.06640827655792236, 0.11309343576431274, 0.03999999910593033]","[0.0, -0.0, 0.23279510598140674]",0.578579731332385,-0.007657793727288364,"(0.0, 0.0, 0.0, 0.0, 0.0, 0.0)",-0.008429346488237103,-0.8144742230602037,4.74123357449928e-05,"(0.0, 0.0, 0.0, 0.0, 0.0, 0.0)",-0.000607372407291862,-0.5843943548472836,-0.2545660859124377,"(0.0, 0.0, 0.0, 0.0, 0.0, 0.0)",-0.04668401055585744,0.8161295133152063,0.00017730709298322616,"(0.0, 0.0, 0.0, 0.0, 0.0, 0.0)",-0.0034647940756215296,True,"(-0.03145670855948528, 0.18489483854963765, 0.0400004667340339)","(0.9999997404265872, -0.000548913563438074, 0.0004667340338957204)",-8.537078355683529e-05,0.0,True,"(0.0319607626476828, 0.18481228294098034, 0.039999533265966086)","(-0.999999740426587, 0.0005489135634352428, -0.00046673403391219673)",-0.00041712796811408233,0.0
69,Move,"(0.007200000000000001, 0.0, 0.0011)","(0.0, 0.017205455766160106, 0.0)","(0.0005203804125803543, 0.17156245836309864, 0.002018348134027499)","(1.5335496783722236, -0.0003365186362293528, 0.0015058355551439352)","[0.0005203018511153487, 0.001563395986579813, 0.0011034584509397641]","[-0.026750000193715096, 0.05299999937415123, 0.03999999910593033]","[0.0, -0.0, 0.5785796899846154]","[-0.0661221444606781, 0.11328128725290298, 0.03999999910593033]","[0.0, 0.0, -0.23589449872100837]","[0.026750000193715096, 0.05299999937415123, 0.03999999910593033]","[0.0, 0.0, -0.5843944127034687]","[0.06647199392318726, 0.11305133998394012, 0.03999999910593033]","[0.0, -0.0, 0.23173518900121343]",0.5782176858894075,-0.08689090631462268,"(0.0, 0.0, 0.0, 0.0, 0.0, 0.0)",-0.6000666941445101,-0.8143823926153225,0.022039306771486505,"(0.0, 0.0, 0.0, 0.0, 0.0, 0.0)",-0.24145278406627968,-0.5858279675712135,-0.3440670537431467,"(0.0, 0.0, 0.0, 0.0, 0.0, 0.0)",-0.13149941473938334,0.8161294394372509,-1.7730709298113823e-05,"(0.0, 0.0, 0.0, 0.0, 0.0, 0.0)",-0.009829780410886174,True,"(-0.031452514361327115, 0.18489632454734067, 0.04000041324305936)","(0.9999996345538991, 0.0007484131495589499, 0.00041324305936192855)",-6.43800182918744e-05,3.6589754342768748,True,"(0.03210051787842991, 0.1848042991066797, 0.03999958675694064)","(-0.999999634553899, -0.00074841314954346, -0.00041324305935939087)",-0.0003026785593100363,0.0
70,Move,"(0.009800000000000001, 0.0, 0.0016)","(0.0, 0.01676912345316152, 0.0)","(0.0006244114430659552, 0.1715717816069137, 0.0019430334124363308)","(1.5367701424802895, 0.00015439989641215435, 0.001438554262450177)","[0.0006243328816009496, 0.00157271923039487, 0.001028143729348596]","[-0.026750000193715096, 0.05299999937415123, 0.03999999910593033]","[0.0, -0.0, 0.5782176985230517]","[-0.06610032171010971, 0.1132955402135849, 0.03999999910593033]","[0.0, 0.0, -0.23616472067810385]","[0.026750000193715096, 0.05299999937415123, 0.03999999910593033]","[0.0, 0.0, -0.5858280115751536]","[0.06655804067850113, 0.11299432814121246, 0.03999999910593033]","[0.0, -0.0, 0.230301501752986]",0.5772999853880995,-0.22024812031392493,"(0.0, 0.0, 0.0, 0.0, 0.0, 0.0)",-1.088733843400913,-0.8143659194947624,0.003953548934425663,"(0.0, 0.0, 0.0, 0.0, 0.0, 0.0)",-0.44526263628277457,-0.5877543078077124,-0.46232165675974196,"(0.0, 0.0, 0.0, 0.0, 0.0, 0.0)",-0.17371897897403346,0.8161294468250464,1.7730709300778358e-06,"(0.0, 0.0, 0.0, 0.0, 0.0, 0.0)",-0.012958142001465008,True,"(-0.03141133801522166, 0.18490223187028418, 0.040000336518629886)","(0.9999988096075231, 0.0015058349007912313, 0.0003365186298796186)",-6.118791546313562e-05,6.704723179145881,True,"(0.03228947481046471, 0.1847943045173125, 0.03999966348137012)","(-0.9999988096075233, -0.001505834900780667, -0.00033651862988206963)",-0.00015823621264487013,0.0
71,Move,"(0.0128, 0.0, 0.0023)","(0.0, 0.029272662214448894, 0.0)","(0.0007696191161140526, 0.17159580803587135, 0.0018327376716140691)","(1.5413686941747256, 0.0009185300049555799, 0.0009272210285654609)","[0.000769540554649047, 0.0015967456593525275, 0.0009178479885263344]","[-0.026750000193715096, 0.05299999937415123, 0.03999999910593033]","[0.0, -0.0, 0.5773000849529739]","[-0.06604497134685516, 0.1133316308259964, 0.03999999910593033]","[0.0, 0.0, -0.2370659490248148]","[0.026750000193715096, 0.05299999937415123, 0.03999999910593033]","[0.0, 0.0, -0.5877542625704265]","[0.06667353957891464, 0.11291753500699997, 0.03999999910593033]","[0.0, -0.0, 0.228375139561991]",0.5759470424369534,-0.32470630827506763,"(0.0, 0.0, 0.0, 0.0, 0.0, 0.0)",-0.9415038141025484,-0.8143531017835033,0.0030762507021881783,"(0.0, 0.0, 0.0, 0.0, 0.0, 0.0)",-0.3929385295366194,-0.5902256105089945,-0.5931126483076898,"(0.0, 0.0, 0.0, 0.0, 0.0, 0.0)",-0.192162165855607,0.8161294460862668,-1.7730709167551595e-07,"(0.0, 0.0, 0.0, 0.0, 0.0, 0.0)",-0.014337438517277146,True,"(-0.031291469197773654, 0.18490786049358107, 0.0399998456001042)","(0.9999989533613437, 0.0014385537491396878, -0.0001543998957964673)",-5.74606507805913e-05,5.932631020090839,True,"(0.0325433454179571, 0.1847815297773412, 0.04000015439989581)","(-0.9999989533613438, -0.0014385537491338998, 0.00015439989580862226)",-2.7971704238944613e-05,0.0
72,Move,"(0.0143, 0.0, 0.0024)","(0.0, 0.04689525167183564, 0.0)","(0.0009642753046887851, 0.17163861505876435, 0.0016913576576785326)","(1.5473471880145893, 0.002082910101377527, -0.0001803862979436892)","[0.0009641967432237795, 0.0016395526822455264, 0.0007764679745907979]","[-0.026750000193715096, 0.05299999937415123, 0.03999999910593033]","[0.0, -0.0, 0.5759470695937059]","[-0.06596331298351288, 0.11338473856449127, 0.03999999910593033]","[0.0, 0.0, -0.23840604768817583]","[0.026750000193715096, 0.05299999937415123, 0.03999999910593033]","[0.0, 0.0, -0.5902256015609472]","[0.06682149320840836, 0.11281868815422058, 0.03999999910593033]","[0.0, -0.0, 0.22590383864495045]",0.574039728439948,-0.4577553592812974,"(0.0, 0.0, 0.0, 0.0, 0.0, 0.0)",-1.0620121230559547,-0.8143394818566277,0.0032687824501232378,"(0.0, 0.0, 0.0, 0.0, 0.0, 0.0)",-0.43221464400116955,-0.5933614134474815,-0.7525927052368767,"(0.0, 0.0, 0.0, 0.0, 0.0, 0.0)",-0.23432470114208082,0.8161294461601447,1.77307102333657e-08,"(0.0, 0.0, 0.0, 0.0, 0.0, 0.0)",-0.017484280947691173,True,"(-0.031113918963468615, 0.18491515960158136, 0.0399990814701242)","(0.9999991482821389, 0.0009272205045614724, -0.000918529875796235)",-5.3781313827297915e-05,6.523421171514002,True,"(0.03286899980569597, 0.18476485032042644, 0.040000918529875786)","(-0.9999991482821388, -0.0009272205045568831, 0.000918529875791184)",0.00011650615279381891,0.0
73,Move,"(0.0162, 0.0, 0.0033)","(0.0, 0.06007597818289681, 0.0)","(0.001192423469819601, 0.1716936859924299, 0.0015121046310704442)","(1.5547077176430637, 0.00342748831219653, -0.0014736006627989768)","[0.0011923449083545952, 0.0016946236159110784, 0.0005972149479827095]","[-0.026750000193715096, 0.05299999937415123, 0.03999999910593033]","[0.0, -0.0, 0.5740398077575023]","[-0.06584806740283966, 0.11345941573381424, 0.03999999910593033]","[0.0, 0.0, -0.24029975326933378]","[0.026750000193715096, 0.05299999937415123, 0.03999999910593033]","[0.0, 0.0, -0.593361406974955]","[0.06700887531042099, 0.11269273608922958, 0.03999999910593033]","[0.0, -0.0, 0.22276808231929743]",0.5718071921197712,-0.5358087168424317,"(0.0, 0.0, 0.0, 0.0, 0.0, 0.0)",-0.8331915549179856,-0.8143304493606205,0.0021677990417305576,"(0.0, 0.0, 0.0, 0.0, 0.0, 0.0)",-0.35810674393365743,-0.5967286914929993,-0.8081467309242711,"(0.0, 0.0, 0.0, 0.0, 0.0, 0.0)",-0.08178258292867269,0.816129446152757,-1.7730696910689403e-09,"(0.0, 0.0, 0.0, 0.0, 0.0, 0.0)",-0.006108634110476711,True,"(-0.030863282180013843, 0.18492450560017987, 0.039997917091404746)","(0.9999978144739661, -0.0001803859056650344, -0.0020829085952521072)",-5.032561473664273e-05,5.4099338971161455,True,"(0.03328215696796118, 0.18474298634011732, 0.04000208290859526)","(-0.9999978144739661, 0.0001803859056695408, 0.0020829085952593644)",0.00027565026012257187,0.0
74,Move,"(0.0181, 0.0, 0.0054)","(0.0, 0.06476916854150959, 0.0)","(0.0014521110417427415, 0.17175878552652318, 0.0012944196342333633)","(1.5634599247964815, 0.00494268910493478, -0.0028774490155619586)","[0.0014520324802777358, 0.0017597231500043609, 0.0003795299511456286]","[-0.026750000193715096, 0.05299999937415123, 0.03999999910593033]","[0.0, -0.0, 0.5718071482549728]","[-0.06571298837661743, 0.11354655772447586, 0.03999999910593033]","[0.0, 0.0, -0.2425232563799256]","[0.026750000193715096, 0.05299999937415123, 0.03999999910593033]","[0.0, 0.0, -0.5967286677428121]","[0.0672096461057663, 0.1125568374991417, 0.03999999910593033]","[0.0, -0.0, 0.21940078799605528]",0.5692711849415629,-0.6086417227699856,"(0.0, 0.0, 0.0, 0.0, 0.0, 0.0)",-0.8047012362227558,-0.8143223044962481,0.0019547674493820277,"(0.0, 0.0, 0.0, 0.0, 0.0, 0.0)",-0.34937752346708156,-0.6005318924375466,-0.9127682266913366,"(0.0, 0.0, 0.0, 0.0, 0.0, 0.0)",-0.15384543504571183,0.8161294461534957,1.773061697463163e-10,"(0.0, 0.0, 0.0, 0.0, 0.0, 0.0)",-0.011485343492014284,True,"(-0.03056939262710126, 0.18493460760272823, 0.03999657251839864)","(0.9999930404248025, -0.0014735914738018133, -0.0034274816013664575)",-4.6987625795222157e-05,5.2549188458434175,True,"(0.033725732860503566, 0.18471816984817696, 0.04000342748160136)","(-0.9999930404248025, 0.0014735914737965174, 0.003427481601359544)",0.0004219627146472468,0.0
75,Move,"(0.02, 0.0, 0.0074)","(0.0, 0.0695007561436662, 0.0)","(0.0017293371816403122, 0.1718280158262179, 0.001031639425085457)","(1.5735996234568568, 0.006405529282750401, -0.004065931185098209)","[0.0017292586201753065, 0.0018289534496990778, 0.00011674974199772236]","[-0.026750000193715096, 0.05299999937415123, 0.03999999910593033]","[0.0, -0.0, 0.569271191489191]","[-0.06555932015180588, 0.11364517360925674, 0.03999999910593033]","[0.0, 0.0, -0.245051138788744]","[0.026750000193715096, 0.05299999937415123, 0.03999999910593033]","[0.0, 0.0, -0.6005317711730029]","[0.0674358606338501, 0.1124025285243988, 0.03999999910593033]","[0.0, -0.0, 0.21559756346175335]",0.5666341892491822,-0.6328789661713657,"(0.0, 0.0, 0.0, 0.0, 0.0, 0.0)",-0.6045057824085514,-0.81431634775077,0.0014296189147456582,"(0.0, 0.0, 0.0, 0.0, 0.0, 0.0)",-0.28394992998179,-0.6049029894266466,-1.0490632773839863,"(0.0, 0.0, 0.0, 0.0, 0.0, 0.0)",-0.20038606026961708,0.8161294461534219,-1.77298176140539e-11,"(0.0, 0.0, 0.0, 0.0, 0.0, 0.0)",-0.01495958633145818,True,"(-0.030235376786558382, 0.18494528107203217, 0.03999505733102017)","(0.9999836451340807, -0.002877409896648397, -0.00494266897982948)",-4.380221086602496e-05,4.285612271359599,True,"(0.03422662842999233, 0.18468828785519995, 0.04000494266897984)","(-0.9999836451340803, 0.0028774098966424812, 0.0049426689798371)",0.0005854453972751306,0.0
76,Move,"(0.0228, 0.0, 0.0083)","(0.0, 0.056189129938705444, 0.0)","(0.0020596312760226814, 0.17199333705187092, 0.001102952985242826)","(1.5769579522604262, 0.004742761152414993, -0.011569476533662892)","[0.0020595527145576757, 0.001994274675352098, 0.00018806330215509134]","[-0.026750000193715096, 0.05299999937415123, 0.03999999910593033]","[0.0, -0.0, 0.5666341339550466]","[-0.06539925932884216, 0.11374729871749878, 0.03999999910593033]","[0.0, 0.0, -0.24768216336307583]","[0.026750000193715096, 0.05299999937415123, 0.03999999910593033]","[0.0, 0.0, -0.6049030026954494]","[0.06769512593746185, 0.11222412437200546, 0.03999999910593033]","[0.0, -0.0, 0.21122645220911437]",0.5638619196506873,-0.6653447036387764,"(0.0, 0.0, 0.0, 0.0, 0.0, 0.0)",-2.2304571545505354,-0.8142258853652256,0.021710972530665902,"(0.0, 0.0, 0.0, 0.0, 0.0, 0.0)",-1.2962538051803991,-0.6097924419423253,-1.1734686037628919,"(0.0, 0.0, 0.0, 0.0, 0.0, 0.0)",-0.1829759630571343,0.8161294461534292,1.7719159473017498e-12,"(0.0, 0.0, 0.0, 0.0, 0.0, 0.0)",-0.013664733090013727,True,"(-0.02988785148916899, 0.18495566731817575, 0.03999359451452117)","(0.9999712189502148, -0.0040658365685538895, -0.006405485478836716)",-4.077537080507115e-05,16.662461162111708,True,"(0.03480216774529081, 0.18465116628543127, 0.04000640548547884)","(-0.9999712189502147, 0.004065836568549563, 0.0064054854788363185)",0.0008100903719847826,0.0
77,Move,"(0.0254, 0.0, 0.0083)","(0.0, 0.04296127953784044, 0.0)","(0.002430827841552955, 0.17216011168928555, 0.0011360367518718256)","(1.578855862145033, 0.0033479957023335796, -0.019844104142179513)","[0.002430749280087949, 0.0021610493127667274, 0.00022114706878409093]","[-0.026750000193715096, 0.05299999937415123, 0.03999999910593033]","[0.0, -0.0, 0.5638618624066898]","[-0.06523070484399796, 0.11385421454906464, 0.03999999910593033]","[0.0, 0.0, -0.2503639912332475]","[0.026750000193715096, 0.05299999937415123, 0.03999999910593033]","[0.0, 0.0, -0.6097924265544903]","[0.0679842084646225, 0.11202321946620941, 0.03999999910593033]","[0.0, -0.0, 0.2063370047093008]",0.5606785938397907,-0.7639981946152015,"(0.0, 0.0, 0.0, 0.0, 0.0, 0.0)",-0.8316420463196038,-0.8141780648561439,0.011476922179599986,"(0.0, 0.0, 0.0, 0.0, 0.0, 0.0)",-0.4318239169811266,-0.6151920588142404,-1.2959080492596355,"(0.0, 0.0, 0.0, 0.0, 0.0, 0.0)",-0.1801344014318306,0.8161294461534284,-1.758593271006248e-13,"(0.0, 0.0, 0.0, 0.0, 0.0, 0.0)",-0.013456738076958472,True,"(-0.029528491000307668, 0.18496226766858082, 0.039995257256627996)","(0.9999218282350005, -0.01156908831677787, -0.004742743372006489)",-3.9851289738245056e-05,5.23942087545299,True,"(0.035445788614377964, 0.1846128360861456, 0.040004742743372)","(-0.9999218282350006, 0.011569088316774502, 0.0047427433719945435)",0.0010930509903537369,0.0
78,Move,"(0.027100000000000003, 0.0, 0.008)","(0.0, 0.04296127953784044, 0.0)","(0.002827166630914289, 0.17229843086271154, 0.001148640925161863)","(1.578998464419538, 0.00307996293678372, -0.027961417413825553)","[0.0028270880694492833, 0.002299368486192721, 0.00023375124207412824]","[-0.026750000193715096, 0.05299999937415123, 0.03999999910593033]","[0.0, -0.0, 0.5606785912285366]","[-0.06503679603338242, 0.11397640407085419, 0.03999999910593033]","[0.0, 0.0, -0.25349944541182323]","[0.026750000193715096, 0.05299999937415123, 0.03999999910593033]","[0.0, 0.0, -0.6151920616284403]","[0.06830231100320816, 0.1117997094988823, 0.03999999910593033]","[0.0, -0.0, 0.20093739236347893]",0.5570219572394712,-0.8775927840766735,"(0.0, 0.0, 0.0, 0.0, 0.0, 0.0)",-0.698506901970151,-0.8141389857060574,0.009378996020757386,"(0.0, 0.0, 0.0, 0.0, 0.0, 0.0)",-0.3392304685781122,-0.6209998124420069,-1.3938608706639437,"(0.0, 0.0, 0.0, 0.0, 0.0, 0.0)",-0.14422698048886856,0.8161294461534285,1.865174681370263e-14,"(0.0, 0.0, 0.0, 0.0, 0.0, 0.0)",-0.010782594612787202,True,"(-0.029111876880669713, 0.1849670235012161, 0.039996652010552323)","(0.999797508797623, -0.01984269056163926, -0.0033479894476756192)",-3.9453068812819006e-05,4.06655736220537,True,"(0.03615636455940259, 0.18456683835154652, 0.040003347989447685)","(-0.9997975087976234, 0.019842690561630974, 0.0033479894476838665)",0.0013823982186629217,0.0
79,Move,"(0.028399999999999998, 0.0, 0.0086)","(0.0, 0.04296127953784044, 0.0)","(0.003265737632355868, 0.17245337105444947, 0.0011211943020393808)","(1.577891355810454, 0.0028045976560801965, -0.03701829419957813)","[0.0032656590708908624, 0.0024543086779306444, 0.00020630461895164605]","[-0.026750000193715096, 0.05299999937415123, 0.03999999910593033]","[0.0, -0.0, 0.5570219969765974]","[-0.06481356918811798, 0.11411599069833755, 0.03999999910593033]","[0.0, 0.0, -0.25711704644871053]","[0.026750000193715096, 0.05299999937415123, 0.03999999910593033]","[0.0, 0.0, -0.6209999349867491]","[0.06864310055971146, 0.11155739426612854, 0.03999999910593033]","[0.0, -0.0, 0.19512966302935028]",0.5530076667980086,-0.9634297059510188,"(0.0, 0.0, 0.0, 0.0, 0.0, 0.0)",-0.8110010797654765,-0.8141204896158599,0.004439061647385453,"(0.0, 0.0, 0.0, 0.0, 0.0, 0.0)",-0.42794533530454726,-0.6270019980981023,-1.4405245574629,"(0.0, 0.0, 0.0, 0.0, 0.0, 0.0)",-0.06895797648463527,0.8161294461534285,-2.6645352591003757e-15,"(0.0, 0.0, 0.0, 0.0, 0.0, 0.0)",-0.005171749371650074,True,"(-0.028632190667299495, 0.18497169347593745, 0.03999692004193273)","(0.9996043638091889, -0.027957641387111386, -0.003079958067267034)",-3.91227488430159e-05,5.2382169709234985,True,"(0.03692037045131694, 0.18451229868263153, 0.040003079958067275)","(-0.9996043638091889, 0.027957641387114852, 0.00307995806727528)",0.0016585751469219566,0.0
80,Move,"(0.0287, 0.0, 0.009300000000000001)","(0.0, 0.05152386484812462, 0.0)","(0.00372907354951286, 0.1726304714990327, 0.0010467639303096592)","(1.5755422967264805, 0.0022876410977281025, -0.046873720578289445)","[0.0037289949880478543, 0.002631409122513889, 0.0001318742472219245]","[-0.026750000193715096, 0.05299999937415123, 0.03999999910593033]","[0.0, -0.0, 0.5530076582577288]","[-0.0645679235458374, 0.11426829546689987, 0.03999999910593033]","[0.0, 0.0, -0.26111286507671166]","[0.026750000193715096, 0.05299999937415123, 0.03999999910593033]","[0.0, 0.0, -0.6270020065920221]","[0.06899381428956985, 0.1113048866391182, 0.03999999910593033]","[0.0, -0.0, 0.18912747875124877]",0.5488558137759055,-0.9964447253047345,"(0.0, 0.0, 0.0, 0.0, 0.0, 0.0)",-0.5684276984884149,-0.8141090552455945,0.002744248863694809,"(0.0, 0.0, 0.0, 0.0, 0.0, 0.0)",-0.3166210055394033,-0.6332660050755481,-1.503361674586995,"(0.0, 0.0, 0.0, 0.0, 0.0, 0.0)",-0.09272341579599956,0.8161294461534285,0.0,"(0.0, 0.0, 0.0, 0.0, 0.0, 0.0)",-0.006946410563558411,True,"(-0.028103885779968085, 0.18497380217031162, 0.039997195406020654)","(0.9993109710012859, -0.03700969452829844, -0.0028045939793466786)",-3.9581627068027345e-05,3.9756545320748065,False,,,,
81,Move,"(0.0287, 0.0, 0.009300000000000001)","(0.0, 0.05152386484812462, 0.0)","(0.004205371140844635, 0.17283318991686605, 0.0009191738002580058)","(1.571952079613917, 0.0013268055705932303, -0.05741029056748909)","[0.00420529257937963, 0.002834127540347231, 4.284117170271114e-06]","[-0.026750000193715096, 0.05299999937415123, 0.03999999910593033]","[0.0, -0.0, 0.5488558305944279]","[-0.06431322544813156, 0.11442478746175766, 0.03999999910593033]","[0.0, 0.0, -0.265253226854686]","[0.026750000193715096, 0.05299999937415123, 0.03999999910593033]","[0.0, 0.0, -0.6332659496824451]","[0.0693582072854042, 0.11103913187980652, 0.03999999910593033]","[0.0, -0.0, 0.18286344528157308]",0.5447395156098304,-0.9879115598580405,"(0.0, 0.0, 0.0, 0.0, 0.0, 0.0)",-0.39656083023602545,-0.8141012173763595,0.0018810886163817934,"(0.0, 0.0, 0.0, 0.0, 0.0, 0.0)",-0.24243771607688241,-0.6396040488495682,-1.5211305057648365,"(0.0, 0.0, 0.0, 0.0, 0.0, 0.0)",-0.02657565532513504,0.8161294461534285,0.0,"(0.0, 0.0, 0.0, 0.0, 0.0, 0.0)",-0.0020148301140170844,True,"(-0.027556996748685732, 0.1849729966039657, 0.03999771236089759)","(0.9988990145128572, -0.046856435124533524, -0.0022876391024146247)",-4.0941960372184243e-05,3.1273861053240375,False,,,,
82,Move,"(0.0287, 0.0, 0.009300000000000001)","(0.0, 0.05152386484812462, 0.0)","(0.0062010812249382544, 0.1729025800941168, 0.0010370679726149053)","(1.5606704850404847, 0.015689995659699696, -0.08531353327096156)","[0.006201002663473249, 0.0029035177175979754, 0.0001221782895271706]","[-0.026750000193715096, 0.05299999937415123, 0.03999999910593033]","[0.0, -0.0, 0.5447395692822963]","[-0.06406006217002869, 0.11457888782024384, 0.03999999910593033]","[0.0, 0.0, -0.26936172251603085]","[0.026750000193715096, 0.05299999937415123, 0.03999999910593033]","[0.0, 0.0, -0.6396039986345685]","[0.06972520053386688, 0.1107679158449173, 0.03999999910593033]","[0.0, -0.0, 0.17652538323812358]",0.5228951079059828,-5.242657848923413,"(0.0, 0.0, 0.0, 0.0, 0.0, 0.0)",-20.135563118603454,-0.8135843735296088,0.12404252322017581,"(0.0, 0.0, 0.0, 0.0, 0.0, 0.0)",-8.682518316528604,-0.6163574023400846,5.579195162276064,"(0.0, 0.0, 0.0, 0.0, 0.0, 0.0)",10.424764488153444,0.8161294461534285,0.0,"(0.0, 0.0, 0.0, 0.0, 0.0, 0.0)",0.7775931998515282,True,"(-0.02701464947404522, 0.1849690719846943, 0.0399986731948187)","(0.998351603097115, -0.05737870843293174, -0.0013268051813013018)",-4.32494381546706e-05,106.49545403164254,False,,,,
83,Move,"(0.0287, 0.0, 0.009300000000000001)","(0.0, 0.05152386484812462, 0.0)","(0.006272896167131809, 0.17336293748645934, 0.0013381361282140277)","(1.5452465824527994, 0.011147949388542758, -0.08932943912876919)","[0.006272817605666804, 0.0033638751099405173, 0.000423246445126293]","[-0.026750000193715096, 0.05299999937415123, 0.03999999910593033]","[0.0, -0.0, 0.5228950961901614]","[-0.0627061128616333, 0.11537914723157883, 0.03999999910593033]","[0.0, 0.0, -0.2906892625255949]","[0.026750000193715096, 0.05299999937415123, 0.03999999910593033]","[0.0, 0.0, -0.6163574544239826]","[0.06837080419063568, 0.1117512434720993, 0.03999999910593033]","[0.0, -0.0, 0.19977205361277675]",0.5049792723690574,-4.2998005288621135,"(0.0, 0.0, 0.0, 0.0, 0.0, 0.0)",-65.83072135420338,-0.78156805280465,7.683916973990088,"(0.0, 0.0, 0.0, 0.0, 0.0, 0.0)",-34.69085277566513,-0.5981278576286362,4.3750907307476306,"(0.0, 0.0, 0.0, 0.0, 0.0, 0.0)",75.99351378011607,0.7860608088563967,-7.2164729512876375,"(0.0, 0.0, 0.0, 0.0, 0.0, 0.0)",40.00134986035084,True,"(-0.024167988373490094, 0.18496329499579953, 0.0399986731948187)","(0.998351603097115, -0.05737870843293174, -0.0013268051813013018)",-2.2479558475672357e-05,514.4456430055056,True,"(0.03633443386443578, 0.1845151659257751, 0.042160560231215886)","(-0.9962403694845353, 0.08519959181662988, 0.01568935191765672)",-0.003574525336321024,593.7043980853757
84,Move,"(0.030100000000000002, 0.0, 0.010199999999999999)","(0.0, 0.05152386484812462, 0.0)","(0.006326936925324919, 0.17379226017781466, 0.0016340339213176366)","(1.53013614623747, 0.006927813356094314, -0.09376901044520813)","[0.006326858363859914, 0.0037931978012958334, 0.0007191442382299019]","[-0.026750000193715096, 0.05299999937415123, 0.03999999910593033]","[0.0, -0.0, 0.5049793033070372]","[-0.06158282980322838, 0.11601328104734421, 0.03999999910593033]","[0.0, 0.0, -0.2765888119027812]","[0.026750000193715096, 0.05299999937415123, 0.03999999910593033]","[0.0, 0.0, -0.5981278538581761]","[0.06729293614625931, 0.11250016838312149, 0.03999999910593033]","[0.0, -0.0, 0.18793293078752102]",0.48695533677486214,-4.325744542606852,"(0.0, 0.0, 0.0, 0.0, 0.0, 0.0)",-81.44708487489557,-0.749504315267917,7.695297008815907,"(0.0, 0.0, 0.0, 0.0, 0.0, 0.0)",-43.26956230346812,-0.5805164273715147,4.226743261709175,"(0.0, 0.0, 0.0, 0.0, 0.0, 0.0)",75.61923681335934,0.7568549315629949,-7.009410550416446,"(0.0, 0.0, 0.0, 0.0, 0.0, 0.0)",39.36465730111436,True,"(-0.024029672088776315, 0.18613390439898364, 0.0399986731948187)","(0.998351603097115, -0.05737870843293174, -0.0013268051813013018)",-0.0001625232096761054,610.8684842232125,True,"(0.03612025307738355, 0.18563826369914183, 0.042160560231215886)","(-0.9962403694845353, 0.08519959181662988, 0.01568935191765672)",-0.003782116845689077,564.2657972513222
85,Move,"(0.0319, 0.0, 0.0108)","(0.0, 0.04296127953784044, 0.0)","(0.006866517922503271, 0.17402420023118254, 0.001990799723022656)","(1.5211297458408934, 0.007308369782552232, -0.09696189622734709)","[0.0068664393610382655, 0.004025137854663713, 0.0010759100399349215]","[-0.026750000193715096, 0.05299999937415123, 0.03999999910593033]","[0.0, -0.0, 0.48695531126636465]","[-0.06044148653745651, 0.11663083732128143, 0.03999999910593033]","[0.0, 0.0, -0.26254897996496035]","[0.026750000193715096, 0.05299999937415123, 0.03999999910593033]","[0.0, 0.0, -0.580516398735745]","[0.06623882055282593, 0.11320492625236511, 0.03999999910593033]","[0.0, -0.0, 0.17633849757097372]",0.4845564310165751,-0.575737381988894,"(0.0, 0.0, 0.0, 0.0, 0.0, 0.0)",-0.6174447276703687,-0.7523955439388544,-0.693894881024983,"(0.0, 0.0, 0.0, 0.0, 0.0, 0.0)",-3.592550115187253,-0.5899677767849757,-2.268323859230648,"(0.0, 0.0, 0.0, 0.0, 0.0, 0.0)",-8.690720127276212,0.7597755192923351,0.7009410550416444,"(0.0, 0.0, 0.0, 0.0, 0.0, 0.0)",0.13291189757432856,True,"(-0.023879613127016308, 0.18722871730401353, 0.03999307224206004)","(0.9955830148773813, -0.09362941128507248, -0.006927757939954448)",-0.00036308131584758947,39.36603512927989,True,"(0.03591620886758679, 0.18669952472694812, 0.042160560231215886)","(-0.9962403694845353, 0.08519959181662988, 0.01568935191765672)",-0.003985001386935454,0.0
86,Move,"(0.0339, 0.0, 0.0108)","(0.0, 0.02580120233223217, 0.0)","(0.007450928236944682, 0.17422080346872404, 0.0022796289716907766)","(1.5139884737613363, 0.007528963222504478, -0.09901728651952922)","[0.007450849675479676, 0.004221741092205217, 0.0013647392886030419]","[-0.026750000193715096, 0.05299999937415123, 0.03999999910593033]","[0.0, -0.0, 0.48455640718663623]","[-0.060288745909929276, 0.11671148240566254, 0.03999999910593033]","[0.0, 0.0, -0.26783913703021256]","[0.026750000193715096, 0.05299999937415123, 0.03999999910593033]","[0.0, 0.0, -0.5899677892203027]","[0.06680606305599213, 0.11282902210950851, 0.03999999910593033]","[0.0, -0.0, 0.16980772745314124]",0.4801588560995675,-1.0554179800818193,"(0.0, 0.0, 0.0, 0.0, 0.0, 0.0)",-1.46748823167292,-0.7520597717586477,0.08058532324960999,"(0.0, 0.0, 0.0, 0.0, 0.0, 0.0)",-0.46628256394261314,-0.5974097152395701,-1.7860652291026664,"(0.0, 0.0, 0.0, 0.0, 0.0, 0.0)",0.6228802695311071,0.7594834605194011,-0.0700941055041655,"(0.0, 0.0, 0.0, 0.0, 0.0, 0.0)",-0.03170170700268592,True,"(-0.023353710499963834, 0.1871170400548665, 0.03999269169527671)","(0.9952762965392872, -0.09680744924391202, -0.007308304723290551)",-0.000337308330611601,6.410477295246625,True,"(0.036964073409360185, 0.18652007971555698, 0.042160560231215886)","(-0.9962403694845353, 0.08519959181662988, 0.01568935191765672)",-0.003507345873939556,0.0
87,Move,"(0.0365, 0.0, 0.0108)","(0.0, 0.008604473212332044, 0.0)","(0.008100424110110364, 0.17437679542706133, 0.002503611677036022)","(1.5088451366441675, 0.00781600977135355, -0.09994959402417264)","[0.008100345548645358, 0.004377733050542509, 0.0015887219939482874]","[-0.026750000193715096, 0.05299999937415123, 0.03999999910593033]","[0.0, -0.0, 0.480158869764516]","[-0.06000824645161629, 0.1168583482503891, 0.03999999910593033]","[0.0, 0.0, -0.27190092763060575]","[0.026750000193715096, 0.05299999937415123, 0.03999999910593033]","[0.0, 0.0, -0.5974096780186933]","[0.06725019961595535, 0.11252927035093307, 0.03999999910593033]","[0.0, -0.0, 0.1620737270758495]",0.47547469850012547,-1.1241978238660826,"(0.0, 0.0, 0.0, 0.0, 0.0, 0.0)",-1.1520478955014257,-0.7520345943467901,0.006042578845813579,"(0.0, 0.0, 0.0, 0.0, 0.0, 0.0)",-0.6255769524844795,-0.6049117126647179,-1.8004793820354612,"(0.0, 0.0, 0.0, 0.0, 0.0, 0.0)",-0.013329030136115739,0.7595126663966945,0.007009410550416817,"(0.0, 0.0, 0.0, 0.0, 0.0, 0.0)",0.0067692785808032814,True,"(-0.022787344356996843, 0.1871153059745681, 0.039992471107907546)","(0.9950735887738001, -0.0988527627772243, -0.007528892092458305)",-0.0003120996441227094,7.874363498535092,True,"(0.037979017248500044, 0.18644892265127316, 0.042160560231215886)","(-0.9962403694845353, 0.08519959181662988, 0.01568935191765672)",-0.0030966835926635717,0.0
88,Move,"(0.037899999999999996, 0.0, 0.0111)","(0.0, 0.004461061568097505, 0.0)","(0.008796802775730186, 0.17449807962950803, 0.002660825867218872)","(1.5055727121097167, 0.007962790196004474, -0.09975308091882557)","[0.00879672421426518, 0.004499017252989207, 0.0017459361841311374]","[-0.026750000193715096, 0.05299999937415123, 0.03999999910593033]","[0.0, -0.0, 0.4754746976104604]","[-0.05970875918865204, 0.11701343953609467, 0.03999999910593033]","[0.0, 0.0, -0.27655990300525]","[0.026750000193715096, 0.05299999937415123, 0.03999999910593033]","[0.0, 0.0, -0.6049117142396166]","[0.06769564002752304, 0.11222376674413681, 0.03999999910593033]","[0.0, -0.0, 0.1546009538915818]",0.470512196548504,-1.1910004683891506,"(0.0, 0.0, 0.0, 0.0, 0.0, 0.0)",-0.975637253467641,-0.7519870559963383,0.011409204108439049,"(0.0, 0.0, 0.0, 0.0, 0.0, 0.0)",-0.5173387367492435,-0.6128879283718676,-1.91429176971591,"(0.0, 0.0, 0.0, 0.0, 0.0, 0.0)",-0.16856229361365363,0.7595097458089651,-0.0007009410550411497,"(0.0, 0.0, 0.0, 0.0, 0.0, 0.0)",-0.013401232082431004,True,"(-0.022160560822663294, 0.18709992587330798, 0.03999218406980842)","(0.994978803809249, -0.09978021449945147, -0.007815930191572796)",-0.00028843584844509177,6.621489968605334,True,"(0.038977660120543704, 0.18636008944799123, 0.042160560231215886)","(-0.9962403694845353, 0.08519959181662988, 0.01568935191765672)",-0.0027545528722568895,0.0
89,Move,"(0.0394, 0.0, 0.0114)","(0.0, 0.004461061568097505, 0.0)","(0.009523661819676222, 0.1745889265183822, 0.002749512137395662)","(1.5040627109742297, 0.007789262650822253, -0.09843485028303275)","[0.009523583258211217, 0.004589864141863381, 0.0018346224543079274]","[-0.026750000193715096, 0.05299999937415123, 0.03999999910593033]","[0.0, -0.0, 0.47051220724673903]","[-0.05939068645238876, 0.11717620491981506, 0.03999999910593033]","[0.0, 0.0, -0.28147484773279097]","[0.026750000193715096, 0.05299999937415123, 0.03999999910593033]","[0.0, 0.0, -0.6128880015000918]","[0.06816671788692474, 0.11189529299736023, 0.03999999910593033]","[0.0, -0.0, 0.14662181264617016]",0.46545923338671763,-1.2127111588287265,"(0.0, 0.0, 0.0, 0.0, 0.0, 0.0)",-0.7588238079392754,-0.7519500383846075,0.00888422681538431,"(0.0, 0.0, 0.0, 0.0, 0.0, 0.0)",-0.42361660136048646,-0.6210448352845607,-1.9576576590463486,"(0.0, 0.0, 0.0, 0.0, 0.0, 0.0)",-0.0642488746814102,0.7595100378677381,7.009410550384843e-05,"(0.0, 0.0, 0.0, 0.0, 0.0, 0.0)",-0.004767099839399916,True,"(-0.02149795099211617, 0.1870823857841448, 0.03999203729395189)","(0.9949972404763662, -0.09958457087725747, -0.007962706048115293)",-0.000266342597653784,5.472474586097399,True,"(0.04002087239996882, 0.18632577319276328, 0.04000796324827752)","(-0.9949972404763441, 0.09958457087747932, 0.007962706048106465)",-0.002367376140887793,0.0
90,Move,"(0.043000000000000003, 0.0, 0.0117)","(0.0, 0.0044209189953016365, 0.0)","(0.010286897053671933, 0.17464965446389288, 0.0027705742898318053)","(1.504322629366861, 0.007320472763899707, -0.0961151772647882)","[0.010286818492206928, 0.004650592087374061, 0.0018556846067440706]","[-0.026750000193715096, 0.05299999937415123, 0.03999999910593033]","[0.0, -0.0, 0.465459239136063]","[-0.05906599387526512, 0.1173403188586235, 0.03999999910593033]","[0.0, 0.0, -0.2864908213692441]","[0.026750000193715096, 0.05299999937415123, 0.03999999910593033]","[0.0, 0.0, -0.6210448529151832]","[0.06864573806524277, 0.11155550926923752, 0.03999999910593033]","[0.0, -0.0, 0.1384652265821002]",0.46024175667708384,-1.252194410312116,"(0.0, 0.0, 0.0, 0.0, 0.0, 0.0)",-0.844427098225925,-0.7519027059634117,0.0113597810870061,"(0.0, 0.0, 0.0, 0.0, 0.0, 0.0)",-0.4530160385423093,-0.6294039690899353,-2.00619211328992,"(0.0, 0.0, 0.0, 0.0, 0.0, 0.0)",-0.0719499843976931,0.7595100086618608,-7.009410550651296e-06,"(0.0, 0.0, 0.0, 0.0, 0.0, 0.0)",-0.0054298679247163535,True,"(-0.02082244443652672, 0.18706185264025693, 0.03999221081611475)","(0.9951290114288887, -0.09827298319968024, -0.007789183885248902)",-0.0002458665817124449,5.909709512887881,True,"(0.041106945754996994, 0.18620365697720714, 0.040007789183885374)","(-0.9951290114288994, 0.09827298319956268, 0.00778918388537106)",-0.001962182850958506,0.0
91,Move,"(0.0445, 0.0, 0.0115)","(0.0, 0.01301142957361773, 0.0)","(0.011118267374704628, 0.1747187565431975, 0.002758302545531392)","(1.5059232969808103, 0.007227084322497288, -0.09452246781109959)","[0.011118188813239623, 0.004719694166678667, 0.0018434128624436573]","[-0.026750000193715096, 0.05299999937415123, 0.03999999910593033]","[0.0, -0.0, 0.46024178758920675]","[-0.0587298609316349, 0.11750805377960205, 0.03999999910593033]","[0.0, 0.0, -0.2916609733266272]","[0.026750000193715096, 0.05299999937415123, 0.03999999910593033]","[0.0, 0.0, -0.6294040354708482]","[0.06913373619318008, 0.11120325326919556, 0.03999999910593033]","[0.0, -0.0, 0.1301060523908864]",0.4543471953322574,-1.4146947227583353,"(0.0, 0.0, 0.0, 0.0, 0.0, 0.0)",-1.2940500596464584,-0.7518403241172771,0.014971643072309838,"(0.0, 0.0, 0.0, 0.0, 0.0, 0.0)",-0.5295489753035374,-0.6383654514076199,-2.150755756244288,"(0.0, 0.0, 0.0, 0.0, 0.0, 0.0)",-0.21296026015838188,0.7595100115824486,7.009410545322226e-07,"(0.0, 0.0, 0.0, 0.0, 0.0, 0.0)",-0.01594258073838305,True,"(-0.02012560414685014, 0.18703838037734713, 0.03999267959261913)","(0.9953578203423691, -0.09596468683357562, -0.007320407380875543)",-0.00022731710572741848,7.790461308869432,True,"(0.042218815526246206, 0.18606837053506364, 0.04000732040738088)","(-0.9953578203423689, 0.09596468683357673, 0.007320407380871899)",-0.001544696081499251,0.0
92,Move,"(0.0469, 0.0, 0.0107)","(0.0, 0.03446676206838401, 0.0)","(0.011980393344240505, 0.1747840506709915, 0.0027056096350656657)","(1.5089166323186125, 0.007314624756523816, -0.09271240313486899)","[0.0119803147827755, 0.004784988294472686, 0.001790719951977931]","[-0.026750000193715096, 0.05299999937415123, 0.03999999910593033]","[0.0, -0.0, 0.45434724494992146]","[-0.05834905803203583, 0.11769543588161469, 0.03999999910593033]","[0.0, 0.0, -0.2974931386182433]","[0.026750000193715096, 0.05299999937415123, 0.03999999910593033]","[0.0, 0.0, -0.6383655076530317]","[0.06965361535549164, 0.11082109808921814, 0.03999999910593033]","[0.0, -0.0, 0.12114455993663426]",0.4482073653936011,-1.4735591852775165,"(0.0, 0.0, 0.0, 0.0, 0.0, 0.0)",-0.7680638767450763,-0.7518346644517667,0.00135831972248103,"(0.0, 0.0, 0.0, 0.0, 0.0, 0.0)",-0.35150981565872386,-0.6473777640084948,-2.16295502420998,"(0.0, 0.0, 0.0, 0.0, 0.0, 0.0)",-0.018680177520391857,0.7595100112903898,-7.009410651903636e-08,"(0.0, 0.0, 0.0, 0.0, 0.0, 0.0)",-0.0014599087384688835,True,"(-0.019339220721225174, 0.18700682647191452, 0.039992772978590004)","(0.9955100779168098, -0.0943793140873916, -0.007227021410000236)",-0.00021042891491178514,5.033060949874144,True,"(0.04340961586449061, 0.18591390431582788, 0.04000722702140999)","(-0.995510077916811, 0.09437931408738191, 0.007227021409989034)",-0.0011394254802492103,0.0
