OSUrobotics/InHand-Manipulation/AnalyseData/Data/Trial Data/Better/new_hand_human_sub1_2v2_b_n_1_kpNone_kdNone_dp1_step1_save_data.csv
,Phase,human_cube_pos,human_cube_orn,Cube_Pos,Cube_Orn,Cube_pos_in_start_pos,b'l_prox_pin'_link_pos,b'l_prox_pin'_link_orn,b'l_distal_pin'_link_pos,b'l_distal_pin'_link_orn,b'r_prox_pin'_link_pos,b'r_prox_pin'_link_orn,b'r_distal_pin'_link_pos,b'r_distal_pin'_link_orn,b'l_prox_pin'_joint_angle,b'l_prox_pin'_joint_vel,b'l_prox_pin'_joint_react_forces,b'l_prox_pin'_joint_motor_torque,b'l_distal_pin'_joint_angle,b'l_distal_pin'_joint_vel,b'l_distal_pin'_joint_react_forces,b'l_distal_pin'_joint_motor_torque,b'r_prox_pin'_joint_angle,b'r_prox_pin'_joint_vel,b'r_prox_pin'_joint_react_forces,b'r_prox_pin'_joint_motor_torque,b'r_distal_pin'_joint_angle,b'r_distal_pin'_joint_vel,b'r_distal_pin'_joint_react_forces,b'r_distal_pin'_joint_motor_torque,in_contact_l,contact_point_l_dist,contact_normal_l_dist,contact_distance_l_dist,contact_norm_force_l_dist,in_contact_r,contact_point_r_dist,contact_normal_r_dist,contact_distance_r_dist,contact_norm_force_r_dist
0,Open,,,,,,"[-0.026750000193715096, 0.05299999937415123, 0.03999999910593033]","[0.0, -0.0, 0.0]","[-0.026750000193715096, 0.125, 0.03999999910593033]","[0.0, -0.0, 0.0]","[0.026750000193715096, 0.05299999937415123, 0.03999999910593033]","[0.0, -0.0, 0.0]","[0.026750000193715096, 0.125, 0.03999999910593033]","[0.0, -0.0, 0.0]",0.0,0.0,"(0.0, 0.0, 0.0, 0.0, 0.0, 0.0)",1.3400621000080305e-17,5.883223478113402e-32,1.4119736347472167e-29,"(0.0, 0.0, 0.0, 0.0, 0.0, 0.0)",1.0542555313129702e-18,-0.008068665190486622,-1.9364796457167894,"(0.0, 0.0, 0.0, 0.0, 0.0, 0.0)",193.26378306879909,-0.0700246186727924,-16.805908481470176,"(0.0, 0.0, 0.0, 0.0, 0.0, 0.0)",71.94009191575694,False,,,,,False,,,,
1,Open,,,,,,"[-0.026750000193715096, 0.05299999937415123, 0.03999999910593033]","[0.0, -0.0, 0.0]","[-0.026750000193715096, 0.125, 0.03999999910593033]","[0.0, -0.0, 5.883223447970011e-32]","[0.026750000193715096, 0.05299999937415123, 0.03999999910593033]","[0.0, 0.0, -0.008068665592501188]","[0.02733093686401844, 0.12499765306711197, 0.03999999910593033]","[0.0, 0.0, -0.0780932845685428]",0.157,37.68,"(0.0, 0.0, 0.0, 0.0, 0.0, 0.0)",54.702693795169004,5.294901130302062e-32,-1.4119736347472162e-30,"(0.0, 0.0, 0.0, 0.0, 0.0, 0.0)",3.9113724975844915,-0.1670280316324969,-38.150247946082466,"(0.0, 0.0, 0.0, 0.0, 0.0, 0.0)",-25.93345404555236,-0.0659493391739072,0.9780670797324476,"(0.0, 0.0, 0.0, 0.0, 0.0, 0.0)",-6.754749483880455,False,,,,,False,,,,
2,Open,,,,,,"[-0.026750000193715096, 0.05299999937415123, 0.03999999910593033]","[0.0, -0.0, 0.1569999988554567]","[-0.03800761699676514, 0.12411445379257202, 0.03999999910593033]","[0.0, -0.0, 0.1569999988554567]","[0.026750000193715096, 0.05299999937415123, 0.03999999910593033]","[0.0, 0.0, -0.16702801712980753]","[0.038720179349184036, 0.1239979937672615, 0.03999999910593033]","[0.0, 0.0, -0.23297739431320727]",0.29829999999999995,33.91199999999999,"(0.0, 0.0, 0.0, 0.0, 0.0, 0.0)",-5.390828189440958,5.294901130302062e-32,0.0,"(0.0, 0.0, 0.0, 0.0, 0.0, 0.0)",-0.3659219356209609,-0.3122944613104081,-34.863943122698686,"(0.0, 0.0, 0.0, 0.0, 0.0, 0.0)",95.8006544774165,-0.06705867534034729,-0.2662406799456205,"(0.0, 0.0, 0.0, 0.0, 0.0, 0.0)",9.049911776264722,False,,,,,False,,,,
3,Open,,,,,,"[-0.026750000193715096, 0.05299999937415123, 0.03999999910593033]","[0.0, -0.0, 0.29830000998707634]","[-0.04791048914194107, 0.12182030081748962, 0.03999999910593033]","[0.0, -0.0, 0.29830000998707634]","[0.026750000193715096, 0.05299999937415123, 0.03999999910593033]","[0.0, 0.0, -0.3122944642903269]","[0.048871491104364395, 0.12151744216680527, 0.03999999910593033]","[0.0, 0.0, -0.3793531994353912]",0.42546999999999996,30.5208,"(0.0, 0.0, 0.0, 0.0, 0.0, 0.0)",-4.858074537215091,5.294901130302062e-32,0.0,"(0.0, 0.0, 0.0, 0.0, 0.0, 0.0)",-0.33154044974508506,-0.44292449566296654,-31.35120824461403,"(0.0, 0.0, 0.0, 0.0, 0.0, 0.0)",100.88457241511576,-0.08373770380977785,-4.0029668326633345,"(0.0, 0.0, 0.0, 0.0, 0.0, 0.0)",24.077304806401806,False,,,,,False,,,,
4,Open,,,,,,"[-0.026750000193715096, 0.05299999937415123, 0.03999999910593033]","[0.0, -0.0, 0.4254700097131474]","[-0.056467924267053604, 0.11858082562685013, 0.03999999910593033]","[0.0, -0.0, 0.4254700097131474]","[0.026750000193715096, 0.05299999937415123, 0.03999999910593033]","[0.0, 0.0, -0.4429245237535421]","[0.057608019560575485, 0.1180521547794342, 0.03999999910593033]","[0.0, 0.0, -0.5266622746639338]",0.5399229999999999,27.46872,"(0.0, 0.0, 0.0, 0.0, 0.0, 0.0)",-4.377393708535371,5.294901130302062e-32,0.0,"(0.0, 0.0, 0.0, 0.0, 0.0, 0.0)",-0.30017707799641646,-0.5623038734984663,-28.651050680519948,"(0.0, 0.0, 0.0, 0.0, 0.0, 0.0)",144.45470973647488,-0.10456727132876567,-4.999096204557077,"(0.0, 0.0, 0.0, 0.0, 0.0, 0.0)",33.97911746732963,False,,,,,False,,,,
5,Open,,,,,,"[-0.026750000193715096, 0.05299999937415123, 0.03999999910593033]","[0.0, -0.0, 0.5399230359738098]","[-0.06376303732395172, 0.11475787311792374, 0.03999999910593033]","[0.0, -0.0, 0.5399230359738098]","[0.026750000193715096, 0.05299999937415123, 0.03999999910593033]","[0.0, 0.0, -0.5623038790270362]","[0.06513584405183792, 0.11391409486532211, 0.03999999910593033]","[0.0, 0.0, -0.6668711870723439]",0.6429307,24.721848,"(0.0, 0.0, 0.0, 0.0, 0.0, 0.0)",-3.943806903965684,5.294901130302062e-32,0.0,"(0.0, 0.0, 0.0, 0.0, 0.0, 0.0)",-0.2716098155097054,-0.6673401099248648,-25.208696742335626,"(0.0, 0.0, 0.0, 0.0, 0.0, 0.0)",94.97739775913854,-0.11755295807544866,-3.116564819203918,"(0.0, 0.0, 0.0, 0.0, 0.0, 0.0)",25.79194570087013,False,,,,,False,,,,
6,Open,,,,,,"[-0.026750000193715096, 0.05299999937415123, 0.03999999910593033]","[0.0, -0.0, 0.6429307111289271]","[-0.06991713494062424, 0.11062463372945786, 0.03999999910593033]","[0.0, -0.0, 0.6429307111289271]","[0.026750000193715096, 0.05299999937415123, 0.03999999910593033]","[0.0, 0.0, -0.6673401753977319]","[0.07131072133779526, 0.10955388844013214, 0.03999999910593033]","[0.0, 0.0, -0.7848931559948581]",0.73563763,22.249663200000004,"(0.0, 0.0, 0.0, 0.0, 0.0, 0.0)",-3.552789792259023,5.294901130302062e-32,0.0,"(0.0, 0.0, 0.0, 0.0, 0.0, 0.0)",-0.24562369466220793,-0.7579917869736262,-21.756402491702737,"(0.0, 0.0, 0.0, 0.0, 0.0, 0.0)",34.46450837185191,-0.10794166402774508,2.3067105714488583,"(0.0, 0.0, 0.0, 0.0, 0.0, 0.0)",8.765009015475858,False,,,,,False,,,,
7,Open,,,,,,"[-0.026750000193715096, 0.05299999937415123, 0.03999999910593033]","[0.0, -0.0, 0.7356376306875043]","[-0.07506632059812546, 0.10638101398944855, 0.03999999910593033]","[0.0, -0.0, 0.7356376306875043]","[0.026750000193715096, 0.05299999937415123, 0.03999999910593033]","[0.0, 0.0, -0.757991847340814]","[0.076247438788414, 0.10528770089149475, 0.03999999910593033]","[0.0, 0.0, -0.8659334873334429]",0.8190738670000001,20.024696880000004,"(0.0, 0.0, 0.0, 0.0, 0.0, 0.0)",-3.2002295086701533,2.3293280891773424e-07,5.5903874140256216e-05,"(0.0, 0.0, 0.0, 0.0, 0.0, 0.0)",-0.22200715926400075,-0.8391926082762636,-19.488197112632974,"(0.0, 0.0, 0.0, 0.0, 0.0, 0.0)",3.295349739497939,-0.09714776835574307,2.590534961280482,"(0.0, 0.0, 0.0, 0.0, 0.0, 0.0)",0.25803221970863044,False,,,,,False,,,,
8,Open,,,,,,"[-0.026750000193715096, 0.05299999937415123, 0.03999999910593033]","[0.0, -0.0, 0.8190738875671263]","[-0.07934698462486267, 0.10216865688562393, 0.03999999910593033]","[0.0, -0.0, 0.8190741465287105]","[0.026750000193715096, 0.05299999937415123, 0.03999999910593033]","[0.0, 0.0, -0.839192558822362]","[0.08032548427581787, 0.10110059380531311, 0.03999999910593033]","[0.0, 0.0, -0.9363403253067936]",0.8941664803,18.022227192,"(0.0, 0.0, 0.0, 0.0, 0.0, 0.0)",-2.8824197251771095,4.2009445145371055e-07,4.4918794208634316e-05,"(0.0, 0.0, 0.0, 0.0, 0.0, 0.0)",-0.2005835928406654,-0.9122733474486373,-17.539377401369673,"(0.0, 0.0, 0.0, 0.0, 0.0, 0.0)",2.7804978356880783,-0.0874331700712747,2.33150358827241,"(0.0, 0.0, 0.0, 0.0, 0.0, 0.0)",0.17017621517521792,False,,,,,False,,,,
9,Open,,,,,,"[-0.026750000193715096, 0.05299999937415123, 0.03999999910593033]","[0.0, -0.0, 0.894166469119967]","[-0.08288749307394028, 0.09808415919542313, 0.03999999910593033]","[0.0, -0.0, 0.894166894674561]","[0.026750000193715096, 0.05299999937415123, 0.03999999910593033]","[0.0, 0.0, -0.9122733503889549]","[0.08369457721710205, 0.09706035256385803, 0.03999999910593033]","[0.0, 0.0, -0.9997066729229968]",0.96174983227,16.220004472800003,"(0.0, 0.0, 0.0, 0.0, 0.0, 0.0)",-2.5959652512206968,5.681494863714967e-07,3.553320838026869e-05,"(0.0, 0.0, 0.0, 0.0, 0.0, 0.0)",-0.18114955764248034,-0.9780460127037736,-15.785439661232708,"(0.0, 0.0, 0.0, 0.0, 0.0, 0.0)",2.503992476159733,-0.0786900142246732,2.098357403184359,"(0.0, 0.0, 0.0, 0.0, 0.0, 0.0)",0.15360133560797545,False,,,,,False,,,,
10,Open,,,,,,"[-0.026750000193715096, 0.05299999937415123, 0.03999999910593033]","[0.0, -0.0, 0.9617498658906226]","[-0.08580395579338074, 0.09419016540050507, 0.03999999910593033]","[0.0, -0.0, 0.9617504517765805]","[0.026750000193715096, 0.05299999937415123, 0.03999999910593033]","[0.0, 0.0, -0.9780460255881384]","[0.08646733313798904, 0.09322238713502884, 0.03999999910593033]","[0.0, 0.0, -1.0567360258914282]",1.022574849043,14.598004025520002,"(0.0, 0.0, 0.0, 0.0, 0.0, 0.0)",-2.337816594086846,6.829231533297027e-07,2.7545680069969436e-05,"(0.0, 0.0, 0.0, 0.0, 0.0, 0.0)",-0.16354029854134106,-1.0372414114333963,-14.206895695109438,"(0.0, 0.0, 0.0, 0.0, 0.0, 0.0)",2.2548456713339484,-0.07082115822448021,1.8885254400463192,"(0.0, 0.0, 0.0, 0.0, 0.0, 0.0)",0.13860128234430863,False,,,,,False,,,,
11,Open,,,,,,"[-0.026750000193715096, 0.05299999937415123, 0.03999999910593033]","[0.0, -0.0, 1.0225748785172661]","[-0.08819860219955444, 0.09052424877882004, 0.03999999910593033]","[0.0, -0.0, 1.0225755149967983]","[0.026750000193715096, 0.05299999937415123, 0.03999999910593033]","[0.0, 0.0, -1.037241417801626]","[0.08874232321977615, 0.08961901068687439, 0.03999999910593033]","[0.0, 0.0, -1.1080626941470386]",1.0773173641387,13.138203622968001,"(0.0, 0.0, 0.0, 0.0, 0.0, 0.0)",-2.105207702642618,7.694903593429899e-07,2.0776129443188934e-05,"(0.0, 0.0, 0.0, 0.0, 0.0, 0.0)",-0.14759587787833617,-1.0905172702900567,-12.78620612559849,"(0.0, 0.0, 0.0, 0.0, 0.0, 0.0)",2.0303755786213302,-0.06373917358809339,1.6996763127328351,"(0.0, 0.0, 0.0, 0.0, 0.0, 0.0)",0.1250328149112744,False,,,,,False,,,,
12,Open,,,,,,"[-0.026750000193715096, 0.05299999937415123, 0.03999999910593033]","[0.0, -0.0, 1.0773173786594632]","[-0.09015969932079315, 0.08710587024688721, 0.03999999910593033]","[0.0, -0.0, 1.0773182784199262]","[0.026750000193715096, 0.05299999937415123, 0.03999999910593033]","[0.0, 0.0, -1.090517334189526]","[0.09060435742139816, 0.0862659215927124, 0.03999999910593033]","[0.0, 0.0, -1.1542564269670996]",1.1265856277248298,11.824383260671203,"(0.0, 0.0, 0.0, 0.0, 0.0, 0.0)",-1.895636869852492,8.322629993378343e-07,1.5065433598762668e-05,"(0.0, 0.0, 0.0, 0.0, 0.0, 0.0)",-0.13316806895824274,-1.138465543261051,-11.50758551303864,"(0.0, 0.0, 0.0, 0.0, 0.0, 0.0)",1.828159741200242,-0.05736537454460671,1.5297117704368035,"(0.0, 0.0, 0.0, 0.0, 0.0, 0.0)",0.11276577482950233,False,,,,,False,,,,
13,Open,,,,,,"[-0.026750000193715096, 0.05299999937415123, 0.03999999910593033]","[0.0, -0.0, 1.126585512342968]","[-0.09176240861415863, 0.08394166082143784, 0.03999999910593033]","[0.0, -0.0, 1.1265864725026016]","[0.026750000193715096, 0.05299999937415123, 0.03999999910593033]","[0.0, 0.0, -1.13846552283997]","[0.09212540090084076, 0.08316715806722641, 0.03999999910593033]","[0.0, 0.0, -1.1958309904194953]",1.1709270649523469,10.641944934604087,"(0.0, 0.0, 0.0, 0.0, 0.0, 0.0)",-1.7068426281171958,8.750681698751778e-07,1.0273240928962424e-05,"(0.0, 0.0, 0.0, 0.0, 0.0, 0.0)",-0.12011999884119333,-1.181618988934946,-10.356826961734775,"(0.0, 0.0, 0.0, 0.0, 0.0, 0.0)",1.6460093571929852,-0.051628943774705546,1.376743384776279,"(0.0, 0.0, 0.0, 0.0, 0.0, 0.0)",0.10168054944364863,False,,,,,False,,,,
14,Open,,,,,,"[-0.026750000193715096, 0.05299999937415123, 0.03999999910593033]","[0.0, -0.0, 1.170927100750299]","[-0.09307006001472473, 0.08102945238351822, 0.03999999910593033]","[0.0, -0.0, 1.1709279927689973]","[0.026750000193715096, 0.05299999937415123, 0.03999999910593033]","[0.0, 0.0, -1.181618964677462]","[0.09336595237255096, 0.08031877130270004, 0.03999999910593033]","[0.0, 0.0, -1.233247876832181]",1.2108343584571122,9.577750441143678,"(0.0, 0.0, 0.0, 0.0, 0.0, 0.0)",-1.5367816122769582,9.012180617793662e-07,6.275974057005224e-06,"(0.0, 0.0, 0.0, 0.0, 0.0, 0.0)",-0.1083256720668905,-1.2204570900414513,-9.3211442655613,"(0.0, 0.0, 0.0, 0.0, 0.0, 0.0)",1.4819475463743526,-0.046466145575958295,1.239071567699341,"(0.0, 0.0, 0.0, 0.0, 0.0, 0.0)",0.09166748660725833,False,,,,,False,,,,
15,Open,,,,,,"[-0.026750000193715096, 0.05299999937415123, 0.03999999910593033]","[0.0, -0.0, 1.2108343955497323]","[-0.09413553774356842, 0.07836118340492249, 0.03999999910593033]","[0.0, -0.0, 1.210835255049739]","[0.026750000193715096, 0.05299999937415123, 0.03999999910593033]","[0.0, 0.0, -1.2204571829136446]","[0.09437645971775055, 0.07771158218383789, 0.03999999910593033]","[0.0, 0.0, -1.2669233179031547]",1.2467509226114009,8.619975397029307,"(0.0, 0.0, 0.0, 0.0, 0.0, 0.0)",-1.3836082777937824,9.135722823677317e-07,2.9650129412077397e-06,"(0.0, 0.0, 0.0, 0.0, 0.0, 0.0)",-0.09766941677677543,-1.2554113810373062,-8.38902983900517,"(0.0, 0.0, 0.0, 0.0, 0.0, 0.0)",1.334189480132575,-0.04181961771093252,1.1151666876061868,"(0.0, 0.0, 0.0, 0.0, 0.0, 0.0)",0.08262627878010878,False,,,,,False,,,,
16,Open,,,,,,"[-0.026750000193715096, 0.05299999937415123, 0.03999999910593033]","[0.0, -0.0, 1.2467510110527222]","[-0.09500277042388916, 0.07592508941888809, 0.03999999910593033]","[0.0, -0.0, 1.246751870145374]","[0.026750000193715096, 0.05299999937415123, 0.03999999910593033]","[0.0, 0.0, -1.255411348379259]","[0.09519875049591064, 0.0753331333398819, 0.03999999910593033]","[0.0, 0.0, -1.2972309672073006]",1.2790758303502607,7.757977857326381,"(0.0, 0.0, 0.0, 0.0, 0.0, 0.0)",-1.2456264712746363,2.1141758111398655e-06,0.0002881448469053121,"(0.0, 0.0, 0.0, 0.0, 0.0, 0.0)",-0.088015399348708,-1.2868702429335757,-7.5501268551046525,"(0.0, 0.0, 0.0, 0.0, 0.0, 0.0)",1.2010989712673745,-0.037638748630864464,1.0034085792163332,"(0.0, 0.0, 0.0, 0.0, 0.0, 0.0)",0.07444006052486639,False,,,,,False,,,,
17,Open,,,,,,"[-0.026750000193715096, 0.05299999937415123, 0.03999999910593033]","[0.0, -0.0, 1.2790758758817962]","[-0.09570803493261337, 0.0737072303891182, 0.03999999910593033]","[0.0, -0.0, 1.2790780932516201]","[0.026750000193715096, 0.05299999937415123, 0.03999999910593033]","[0.0, 0.0, -1.2868702529032277]","[0.0958673357963562, 0.07316911965608597, 0.03999999910593033]","[0.0, 0.0, -1.3245087793274308]",1.3081682532711112,6.982181501004109,"(0.0, 0.0, 0.0, 0.0, 0.0, 0.0)",-1.12145472366965,1.9027582300258812e-06,-5.0740219467356254e-05,"(0.0, 0.0, 0.0, 0.0, 0.0, 0.0)",-0.07939114715284208,-1.315183223212741,-6.795115266999686,"(0.0, 0.0, 0.0, 0.0, 0.0, 0.0)",1.0813262344929835,-0.033874873767778015,0.9033299671407473,"(0.0, 0.0, 0.0, 0.0, 0.0, 0.0)",0.06713055017345074,False,,,,,False,,,,
18,Open,,,,,,"[-0.026750000193715096, 0.05299999937415123, 0.03999999910593033]","[0.0, -0.0, 1.3081682459906412]","[-0.09628119319677353, 0.07169260084629059, 0.03999999910593033]","[0.0, -0.0, 1.3081702011658356]","[0.026750000193715096, 0.05299999937415123, 0.03999999910593033]","[0.0, 0.0, -1.3151833180210462]","[0.0964106097817421, 0.07120437920093536, 0.03999999910593033]","[0.0, 0.0, -1.349058153261439]",1.334351427944,6.283961921493333,"(0.0, 0.0, 0.0, 0.0, 0.0, 0.0)",-1.0095234585863413,2.7618377923566443e-06,0.00020617909495938315,"(0.0, 0.0, 0.0, 0.0, 0.0, 0.0)",-0.07148780084672787,-1.3406649008914668,-6.11560264289422,"(0.0, 0.0, 0.0, 0.0, 0.0, 0.0)",0.9733796231570812,-0.030488273507324658,0.8127840625088054,"(0.0, 0.0, 0.0, 0.0, 0.0, 0.0)",0.060435192896783604,False,,,,,False,,,,
19,Open,,,,,,"[-0.026750000193715096, 0.05299999937415123, 0.03999999910593033]","[0.0, -0.0, 1.334351465706577]","[-0.09674673527479172, 0.06986585259437561, 0.03999999910593033]","[0.0, -0.0, 1.33435435145599]","[0.026750000193715096, 0.05299999937415123, 0.03999999910593033]","[0.0, 0.0, -1.3406650641721125]","[0.09685182571411133, 0.06942359358072281, 0.03999999910593033]","[0.0, 0.0, -1.3711530696282732]",1.3579162851496,5.655565729344001,"(0.0, 0.0, 0.0, 0.0, 0.0, 0.0)",-0.9088150211252332,3.4316066113876724e-06,0.0001607445165674468,"(0.0, 0.0, 0.0, 0.0, 0.0, 0.0)",-0.06444344013525093,-1.3635984108023202,-5.504042378604797,"(0.0, 0.0, 0.0, 0.0, 0.0, 0.0)",0.8762522980402716,-0.02744024570882781,0.7315266716392431,"(0.0, 0.0, 0.0, 0.0, 0.0, 0.0)",0.05446985052483407,False,,,,,False,,,,
20,Open,,,,,,"[-0.026750000193715096, 0.05299999937415123, 0.03999999910593033]","[0.0, -0.0, 1.3579163939939654]","[-0.09712471067905426, 0.0682118609547615, 0.03999999910593033]","[0.0, -0.0, 1.3579197824809437]","[0.026750000193715096, 0.05299999937415123, 0.03999999910593033]","[0.0, 0.0, -1.3635984874387626]","[0.09721000492572784, 0.06781173497438431, 0.03999999910593033]","[0.0, 0.0, -1.3910385869420074]",1.37912465663464,5.090009156409601,"(0.0, 0.0, 0.0, 0.0, 0.0, 0.0)",-0.8181093185961676,3.940702417530038e-06,0.0001221829934741677,"(0.0, 0.0, 0.0, 0.0, 0.0, 0.0)",-0.05806034967263589,-1.3842385697220883,-4.953638140744317,"(0.0, 0.0, 0.0, 0.0, 0.0, 0.0)",0.7887791417834831,-0.024696941374704916,0.6583930401894944,"(0.0, 0.0, 0.0, 0.0, 0.0, 0.0)",0.04906644857689494,False,,,,,False,,,,
21,Open,,,,,,"[-0.026750000193715096, 0.05299999937415123, 0.03999999910593033]","[0.0, -0.0, 1.3791247702213432]","[-0.0974314734339714, 0.0667160153388977, 0.03999999910593033]","[0.0, -0.0, 1.3791284782568445]","[0.026750000193715096, 0.05299999937415123, 0.03999999910593033]","[0.0, 0.0, -1.3842387704807777]","[0.09750068932771683, 0.06635437905788422, 0.03999999910593033]","[0.0, 0.0, -1.408935619520831]",1.398212190971176,4.581008240768642,"(0.0, 0.0, 0.0, 0.0, 0.0, 0.0)",-0.7364407507487188,4.314390796743166e-06,8.968521101115077e-05,"(0.0, 0.0, 0.0, 0.0, 0.0, 0.0)",-0.05230389643117988,-1.4028147127498793,-4.458274326669883,"(0.0, 0.0, 0.0, 0.0, 0.0, 0.0)",0.7100243788118592,-0.02222789596809768,0.5925708975857369,"(0.0, 0.0, 0.0, 0.0, 0.0, 0.0)",0.04419507766734469,False,,,,,False,,,,
22,Open,,,,,,"[-0.026750000193715096, 0.05299999937415123, 0.03999999910593033]","[0.0, -0.0, 1.3982120672717784]","[-0.09768038988113403, 0.06536446511745453, 0.03999999910593033]","[0.0, -0.0, 1.3982164487645397]","[0.026750000193715096, 0.05299999937415123, 0.03999999910593033]","[0.0, 0.0, -1.4028147367436141]","[0.09773654490709305, 0.06503787636756897, 0.03999999910593033]","[0.0, 0.0, -1.4250426427007885]",1.4153909718740585,4.122907416691778,"(0.0, 0.0, 0.0, 0.0, 0.0, 0.0)",-0.6629119687698639,4.574523674952359e-06,6.243189077020624e-05,"(0.0, 0.0, 0.0, 0.0, 0.0, 0.0)",-0.04711364623212332,-1.4195332414748913,-4.012446894002898,"(0.0, 0.0, 0.0, 0.0, 0.0, 0.0)",0.6391216750959775,-0.02000569064819732,0.5333292767760867,"(0.0, 0.0, 0.0, 0.0, 0.0, 0.0)",0.039804123486470444,False,,,,,False,,,,
23,Open,,,,,,"[-0.026750000193715096, 0.05299999937415123, 0.03999999910593033]","[0.0, -0.0, 1.415391158105469]","[-0.09788231551647186, 0.06414420157670975, 0.03999999910593033]","[0.0, -0.0, 1.415395709317307]","[0.026750000193715096, 0.05299999937415123, 0.03999999910593033]","[0.0, 0.0, -1.419533200978404]","[0.09792786836624146, 0.06384945660829544, 0.03999999910593033]","[0.0, 0.0, -1.4395389386881268]",1.4308518746866525,3.7106166750225977,"(0.0, 0.0, 0.0, 0.0, 0.0, 0.0)",-0.5967141397561109,4.7399630338636504e-06,3.9705446138709865e-05,"(0.0, 0.0, 0.0, 0.0, 0.0, 0.0)",-0.042434775014060074,-1.4345799173274023,-3.611202204602609,"(0.0, 0.0, 0.0, 0.0, 0.0, 0.0)",0.5752902758042565,-0.018005647771851804,0.4800102903229233,"(0.0, 0.0, 0.0, 0.0, 0.0, 0.0)",0.0358468230863414,False,,,,,False,,,,
24,Open,,,,,,"[-0.026750000193715096, 0.05299999937415123, 0.03999999910593033]","[0.0, -0.0, 1.4308518944899675]","[-0.09804610908031464, 0.06304314732551575, 0.03999999910593033]","[0.0, -0.0, 1.4308566269594332]","[0.026750000193715096, 0.05299999937415123, 0.03999999910593033]","[0.0, 0.0, -1.4345798203875788]","[0.09808305650949478, 0.06277728080749512, 0.03999999910593033]","[0.0, 0.0, -1.4525855975984745]",1.4447666872179874,3.339555007520341,"(0.0, 0.0, 0.0, 0.0, 0.0, 0.0)",-0.5371183361845069,4.8269553674989e-06,2.0878160072459843e-05,"(0.0, 0.0, 0.0, 0.0, 0.0, 0.0)",-0.03821759960562203,-1.448121925594662,-3.2500819841423465,"(0.0, 0.0, 0.0, 0.0, 0.0, 0.0)",0.5178266556878065,-0.016205556838873442,0.4320218239148067,"(0.0, 0.0, 0.0, 0.0, 0.0, 0.0)",0.0322808466635012,False,,,,,False,,,,
25,Open,,,,,,"[-0.026750000193715096, 0.05299999937415123, 0.03999999910593033]","[0.0, -0.0, 1.4447668540021588]","[-0.09817895293235779, 0.06205013021826744, 0.03999999910593033]","[0.0, -0.0, 1.4447715863131299]","[0.026750000193715096, 0.05299999937415123, 0.03999999910593033]","[0.0, 0.0, -1.448121993206969]","[0.09820891171693802, 0.06181041896343231, 0.03999999910593033]","[0.0, 0.0, -1.46432761016298]",1.4572900184961886,3.005599506768304,"(0.0, 0.0, 0.0, 0.0, 0.0, 0.0)",-0.483467731204937,4.849462099751187e-06,5.401615740548756e-06,"(0.0, 0.0, 0.0, 0.0, 0.0, 0.0)",-0.03441712855198442,-1.4603097330351957,-2.925073785728113,"(0.0, 0.0, 0.0, 0.0, 0.0, 0.0)",0.4660969568661882,-0.014585427836986846,0.38883096045278315,"(0.0, 0.0, 0.0, 0.0, 0.0, 0.0)",0.029067900465992856,False,,,,,False,,,,
26,Open,,,,,,"[-0.026750000193715096, 0.05299999937415123, 0.03999999910593033]","[0.0, -0.0, 1.4572900807517244]","[-0.0982866883277893, 0.061154916882514954, 0.03999999910593033]","[0.0, -0.0, 1.4572948921008348]","[0.026750000193715096, 0.05299999937415123, 0.03999999910593033]","[0.0, 0.0, -1.4603097470714805]","[0.09831098467111588, 0.06093886122107506, 0.03999999910593033]","[0.0, 0.0, -1.4748951413427742]",1.4685610166465697,2.705039556091476,"(0.0, 0.0, 0.0, 0.0, 0.0, 0.0)",-0.43517053908893033,4.819450845044722e-06,-7.202701129551542e-06,"(0.0, 0.0, 0.0, 0.0, 0.0, 0.0)",-0.030992645518402973,-1.471278759731676,-2.632566407155304,"(0.0, 0.0, 0.0, 0.0, 0.0, 0.0)",0.4195301522878829,-0.013127269246907155,0.3499580616191257,"(0.0, 0.0, 0.0, 0.0, 0.0, 0.0)",0.02617336062226555,False,,,,,False,,,,
27,Open,,,,,,"[-0.026750000193715096, 0.05299999937415123, 0.03999999910593033]","[0.0, -0.0, 1.4685611215819594]","[-0.09837405383586884, 0.06034812703728676, 0.03999999910593033]","[0.0, -0.0, 1.468565853091142]","[0.026750000193715096, 0.05299999937415123, 0.03999999910593033]","[0.0, 0.0, -1.4712788457263521]","[0.0983937606215477, 0.06015344336628914, 0.03999999910593033]","[0.0, 0.0, -1.4844061039497418]",1.4787049149819127,2.434535600482329,"(0.0, 0.0, 0.0, 0.0, 0.0, 0.0)",-0.39169363303347604,4.747151892642784e-06,-1.7351748576465223e-05,"(0.0, 0.0, 0.0, 0.0, 0.0, 0.0)",-0.02790732436186781,-1.4811508837585086,-2.3693097664397755,"(0.0, 0.0, 0.0, 0.0, 0.0, 0.0)",0.37761186810531283,-0.011814888241968555,0.3149714411852639,"(0.0, 0.0, 0.0, 0.0, 0.0, 0.0)",0.023565936472848985,False,,,,,False,,,,
28,Open,,,,,,"[-0.026750000193715096, 0.05299999937415123, 0.03999999910593033]","[0.0, -0.0, 1.4787049625213984]","[-0.09844490885734558, 0.059621214866638184, 0.03999999910593033]","[0.0, -0.0, 1.4787095898811649]","[0.026750000193715096, 0.05299999937415123, 0.03999999910593033]","[0.0, 0.0, -1.4811508165812142]","[0.09846089035272598, 0.059445831924676895, 0.03999999910593033]","[0.0, 0.0, -1.492965762433775]",1.4878344234837215,2.191082040434097,"(0.0, 0.0, 0.0, 0.0, 0.0, 0.0)",-0.35255677801820895,4.641283838470101e-06,-2.5408333001444004e-05,"(0.0, 0.0, 0.0, 0.0, 0.0, 0.0)",-0.02512787460267613,-1.4900357953826577,-2.132378789795796,"(0.0, 0.0, 0.0, 0.0, 0.0, 0.0)",0.33987880377374147,-0.010633710863257649,0.2834825708906175,"(0.0, 0.0, 0.0, 0.0, 0.0, 0.0)",0.021217361806457186,False,,,,,False,,,,
29,Close,,,"(0.010000165031897679, 0.16000264050809818, 0.003919197399597577)","(-5.388791991209616e-05, 3.3679978815229247e-06, -9.074720008653711e-11)",,"[-0.026750000193715096, 0.05299999937415123, 0.03999999910593033]","[0.0, -0.0, 1.487834617901085]","[-0.09850236773490906, 0.05896640568971634, 0.03999999910593033]","[0.0, -0.0, 1.4878390921106803]","[0.026750000193715096, 0.05299999937415123, 0.03999999910593033]","[0.0, 0.0, -1.4900358577435544]","[0.09851532429456711, 0.05880843847990036, 0.03999999910593033]","[0.0, 0.0, -1.5006695807985118]",1.4960509811353493,1.9719738363906854,"(0.0, 0.0, 0.0, 0.0, 0.0, 0.0)",-0.3173274216127963,4.509251873886308e-06,-3.168767150011037e-05,"(0.0, 0.0, 0.0, 0.0, 0.0, 0.0)",-0.022624215793833224,-1.498032215844392,-1.9191409108162163,"(0.0, 0.0, 0.0, 0.0, 0.0, 0.0)",0.30591369390909257,-0.00957062017308593,0.2551417656412126,"(0.0, 0.0, 0.0, 0.0, 0.0, 0.0)",0.019102112305110365,False,,,,,False,,,,
30,Close,,,"(0.010000330010418335, 0.1600052801621647, 0.0076635160840755065)","(-0.00010776674212266888, 6.7354271463595154e-06, -3.629275205618536e-10)",,"[-0.026750000193715096, 0.05299999937415123, 0.03999999910593033]","[0.0, -0.0, 1.4960509653323988]","[-0.09854896366596222, 0.058376654982566833, 0.03999999910593033]","[0.0, -0.0, 1.4960555203126162]","[0.026750000193715096, 0.05299999937415123, 0.03999999910593033]","[0.0, 0.0, -1.4980320325532246]","[0.09855947643518448, 0.05823439359664917, 0.03999999910593033]","[0.0, 0.0, -1.5076028800413472]",1.4064458830218143,-21.505223547248388,"(0.0, 0.0, 0.0, 0.0, 0.0, 0.0)",-36.32500847077206,-0.08999559064729075,-21.600023975799512,"(0.0, 0.0, 0.0, 0.0, 0.0, 0.0)",-4.679136399120495,-1.4082289942599528,21.552773180265405,"(0.0, 0.0, 0.0, 0.0, 0.0, 0.0)",36.31473208701179,0.08138609105625041,21.82961069504072,"(0.0, 0.0, 0.0, 0.0, 0.0, 0.0)",4.675963213372079,False,,,,,False,,,,
31,Close,,,"(0.010000494936733278, 0.16000791898094055, 0.011233038807318392)","(-0.00016163646818851668, 1.0102287881965475e-05, -8.164490687548302e-10)",,"[-0.026750000193715096, 0.05299999937415123, 0.03999999910593033]","[0.0, -0.0, 1.4064459844712927]","[-0.0977797880768776, 0.06478003412485123, 0.03999999910593033]","[0.0, -0.0, 1.316450240076391]","[0.026750000193715096, 0.05299999937415123, 0.03999999910593033]","[0.0, 0.0, -1.4082291009672807]","[0.09780067950487137, 0.06465335935354233, 0.03999999910593033]","[0.0, 0.0, -1.3268428349863826]",1.325801294719633,-19.354701192523546,"(0.0, 0.0, 0.0, 0.0, 0.0, 0.0)",3.2936342521930255,-0.17099646652613912,-19.44021021092361,"(0.0, 0.0, 0.0, 0.0, 0.0, 0.0)",0.4145426679866387,-1.3274060948339577,19.39749586223887,"(0.0, 0.0, 0.0, 0.0, 0.0, 0.0)",-3.3024243844052092,0.16324791947241268,19.646838819878944,"(0.0, 0.0, 0.0, 0.0, 0.0, 0.0)",-0.41699994760359754,False,,,,,False,,,,
32,Close,,,"(0.010000659812012168, 0.16001055698314023, 0.0146278458391823)","(-0.0002154970996661642, 1.346858017578936e-05, -1.4512199879406586e-09)",,"[-0.026750000193715096, 0.05299999937415123, 0.03999999910593033]","[0.0, -0.0, 1.3258013857525741]","[-0.09659997373819351, 0.07046370953321457, 0.03999999910593033]","[0.0, -0.0, 1.1548048042561467]","[0.026750000193715096, 0.05299999937415123, 0.03999999910593033]","[0.0, 0.0, -1.3274060658778382]","[0.09662791341543198, 0.07035159319639206, 0.03999999910593033]","[0.0, 0.0, -1.1641581075845935]",1.2532211652476697,-17.41923107327119,"(0.0, 0.0, 0.0, 0.0, 0.0, 0.0)",2.9685258329366073,-0.24389721437960032,-17.496179484830687,"(0.0, 0.0, 0.0, 0.0, 0.0, 0.0)",0.3760018756193849,-1.2546654853505619,17.457746276014984,"(0.0, 0.0, 0.0, 0.0, 0.0, 0.0)",-2.976480273609718,0.2369235243908578,17.682145180426822,"(0.0, 0.0, 0.0, 0.0, 0.0, 0.0)",-0.3782508099482112,False,,,,,False,,,,
33,Close,,,"(0.010000824637423049, 0.16001319418745247, 0.017848014970055004)","(-0.00026934863811186216, 1.6834304115272585e-05, -2.2671484573282825e-09)",,"[-0.026750000193715096, 0.05299999937415123, 0.03999999910593033]","[0.0, -0.0, 1.2532212515508983]","[-0.09514966607093811, 0.07548300176858902, 0.03999999910593033]","[0.0, -0.0, 1.0093239867956962]","[0.026750000193715096, 0.05299999937415123, 0.03999999910593033]","[0.0, 0.0, -1.254665405963893]","[0.09518206864595413, 0.07538418471813202, 0.03999999910593033]","[0.0, 0.0, -1.0177419933055243]",1.1878990487229026,-15.677307965944074,"(0.0, 0.0, 0.0, 0.0, 0.0, 0.0)",2.675103284419244,-0.30950785045582774,-15.746552658294572,"(0.0, 0.0, 0.0, 0.0, 0.0, 0.0)",0.34074508229325023,-1.1891989368155058,15.711971648413485,"(0.0, 0.0, 0.0, 0.0, 0.0, 0.0)",-2.6822973218910153,0.30323153162132754,15.913921735312746,"(0.0, 0.0, 0.0, 0.0, 0.0, 0.0)",-0.34279935345822066,False,,,,,False,,,,
34,Close,,,"(0.010000989414132393, 0.1600158306125408, 0.020893621515273818)","(-0.00032319108508158773, 2.0199459787849396e-05, -3.2641426920478403e-09)",,"[-0.026750000193715096, 0.05299999937415123, 0.03999999910593033]","[0.0, -0.0, 1.1878990574339587]","[-0.09353619813919067, 0.07989988476037979, 0.03999999910593033]","[0.0, -0.0, 0.8783912846834516]","[0.026750000193715096, 0.05299999937415123, 0.03999999910593033]","[0.0, 0.0, -1.1891990098250689]","[0.09357111155986786, 0.07981304824352264, 0.03999999910593033]","[0.0, 0.0, -0.8859674697633095]",1.1291091438506125,-14.109577169349663,"(0.0, 0.0, 0.0, 0.0, 0.0, 0.0)",2.4103712722760626,-0.36855738916456426,-14.17188929009676,"(0.0, 0.0, 0.0, 0.0, 0.0, 0.0)",0.3085687115248564,-1.1302790431339553,14.140774483572143,"(0.0, 0.0, 0.0, 0.0, 0.0, 0.0)",-2.4168742890236286,0.36290870417903687,14.322521413850238,"(0.0, 0.0, 0.0, 0.0, 0.0, 0.0)",-0.31044204201279674,False,,,,,False,,,,
35,Close,,,"(0.010001154143305145, 0.16001846627704427, 0.023764738319401603)","(-0.00037702444213104407, 2.3564047280946926e-05, -4.4421109431381166e-09)",,"[-0.026750000193715096, 0.05299999937415123, 0.03999999910593033]","[0.0, -0.0, 1.1291090274464952]","[-0.09184028208255768, 0.08377750217914581, 0.03999999910593033]","[0.0, -0.0, 0.7605517150898052]","[0.026750000193715096, 0.05299999937415123, 0.03999999910593033]","[0.0, 0.0, -1.130279133319625]","[0.09187624603509903, 0.08370133489370346, 0.03999999910593033]","[0.0, 0.0, -0.7673703325611945]",1.0761982294655512,-12.698619452414698,"(0.0, 0.0, 0.0, 0.0, 0.0, 0.0)",2.1715845710489208,-0.42170194324014043,-12.754692978138287,"(0.0, 0.0, 0.0, 0.0, 0.0, 0.0)",0.27924932151422227,-1.07725113882056,12.72669703521493,"(0.0, 0.0, 0.0, 0.0, 0.0, 0.0)",-2.177460276301377,0.41661812854294633,12.890261847338277,"(0.0, 0.0, 0.0, 0.0, 0.0, 0.0)",-0.2809551529003472,False,,,,,False,,,,
36,Close,,,"(0.010001318826104761, 0.16002110119957821, 0.02646143576036139)","(-0.0004308487108156613, 2.692806668198511e-05, -5.800961497533997e-09)",,"[-0.026750000193715096, 0.05299999937415123, 0.03999999910593033]","[0.0, -0.0, 1.076198055145404]","[-0.09012148529291153, 0.08717681467533112, 0.03999999910593033]","[0.0, -0.0, 0.6544962762796218]","[0.026750000193715096, 0.05299999937415123, 0.03999999910593033]","[0.0, 0.0, -1.0772510781061955]","[0.09015743434429169, 0.08711007237434387, 0.03999999910593033]","[0.0, 0.0, -0.6606329452337051]",1.028578406518996,-11.428757507173229,"(0.0, 0.0, 0.0, 0.0, 0.0, 0.0)",1.9562489498726314,-0.46953201391559385,-11.479216962108818,"(0.0, 0.0, 0.0, 0.0, 0.0, 0.0)",0.2525697399559188,-1.0295260249385039,11.454027331693439,"(0.0, 0.0, 0.0, 0.0, 0.0, 0.0)",-1.961555706583625,0.46495658231577774,11.601228905479532,"(0.0, 0.0, 0.0, 0.0, 0.0, 0.0)",-0.25412105363877113,False,,,,,False,,,,
37,Close,,,"(0.010001483463693249, 0.1600237353987347, 0.0289837817534302)","(-0.0004846638926905951, 3.0291518078376737e-05, -7.3406026780539124e-09)",,"[-0.026750000193715096, 0.05299999937415123, 0.03999999910593033]","[0.0, -0.0, 1.028578444789276]","[-0.08842276781797409, 0.09015467017889023, 0.03999999910593033]","[0.0, -0.0, 0.5590464126725148]","[0.026750000193715096, 0.05299999937415123, 0.03999999910593033]","[0.0, 0.0, -1.029526007298545]","[0.08845794945955276, 0.09009620547294617, 0.03999999910593033]","[0.0, 0.0, -0.564569399435659]",0.9857205658670964,-10.285881756455906,"(0.0, 0.0, 0.0, 0.0, 0.0, 0.0)",1.7621005438122825,-0.5125790520819234,-10.331289159919107,"(0.0, 0.0, 0.0, 0.0, 0.0, 0.0)",0.22832149176550065,-0.9865734224446535,10.308624598524094,"(0.0, 0.0, 0.0, 0.0, 0.0, 0.0)",-1.766891708603882,0.508461165120635,10.441099873165749,"(0.0, 0.0, 0.0, 0.0, 0.0, 0.0)",-0.22973068702752517,False,,,,,False,,,,
38,Close,,,"(0.010001648057231211, 0.16002636889308344, 0.03133184175509247)","(-0.0005384699893107284, 3.3654401557527444e-05, -9.06094284338731e-09)",,"[-0.026750000193715096, 0.05299999937415123, 0.03999999910593033]","[0.0, -0.0, 0.9857205423734198]","[-0.08677425980567932, 0.09276290237903595, 0.03999999910593033]","[0.0, -0.0, 0.47314147483112123]","[0.026750000193715096, 0.05299999937415123, 0.03999999910593033]","[0.0, 0.0, -0.9865734261287252]","[0.08680814504623413, 0.09271169453859329, 0.03999999910593033]","[0.0, 0.0, -0.4781122693565934]",0.9471485092803869,-9.257293580810316,"(0.0, 0.0, 0.0, 0.0, 0.0, 0.0)",1.587086438141582,-0.5513213633331018,-9.29815470028281,"(0.0, 0.0, 0.0, 0.0, 0.0, 0.0)",0.206306403170868,-0.9479160802001881,9.277762138671687,"(0.0, 0.0, 0.0, 0.0, 0.0, 0.0)",-1.5914107042435905,0.5476152664096928,9.396984309373877,"(0.0, 0.0, 0.0, 0.0, 0.0, 0.0)",-0.2075852193448244,False,,,,,False,,,,
39,Close,,,"(0.01000181260787789, 0.16002900170117218, 0.03350567876675359)","(-0.00059226700223067, 3.7016717206835695e-05, -1.0961890388082131e-08)",,"[-0.026750000193715096, 0.05299999937415123, 0.03999999910593033]","[0.0, -0.0, 0.9471486716739237]","[-0.08519625663757324, 0.09504801034927368, 0.03999999910593033]","[0.0, -0.0, 0.39582717163487297]","[0.026750000193715096, 0.05299999937415123, 0.03999999910593033]","[0.0, 0.0, -0.9479160840165974]","[0.08522851020097733, 0.09500313550233841, 0.03999999910593033]","[0.0, 0.0, -0.4003008647547732]",0.9124336583523481,-8.331564222729286,"(0.0, 0.0, 0.0, 0.0, 0.0, 0.0)",1.4293465062267445,-0.5861894225076075,-8.368334201881392,"(0.0, 0.0, 0.0, 0.0, 0.0, 0.0)",0.18633757536892917,-0.9131244721801693,8.349985924804516,"(0.0, 0.0, 0.0, 0.0, 0.0, 0.0)",-1.433248242084051,0.5828539364930729,8.45728082001123,"(0.0, 0.0, 0.0, 0.0, 0.0, 0.0)",-0.18749704763631705,False,,,,,False,,,,
40,Close,,,"(0.010001977116791199, 0.1600316338415276, 0.035505353338314005)","(-0.0006460549330047555, 4.037846511369274e-05, -1.3043353742532214e-08)",,"[-0.026750000193715096, 0.05299999937415123, 0.03999999910593033]","[0.0, -0.0, 0.9124336635104583]","[-0.08370164036750793, 0.0970512256026268, 0.03999999910593033]","[0.0, -0.0, 0.3262442150321584]","[0.026750000193715096, 0.05299999937415123, 0.03999999910593033]","[0.0, 0.0, -0.9131245532476111]","[0.08373206108808517, 0.09701187163591385, 0.03999999910593033]","[0.0, 0.0, -0.3302705841133475]",0.8811902925171133,-7.498407800456356,"(0.0, 0.0, 0.0, 0.0, 0.0, 0.0)",1.2871965063691413,-0.6175706567763247,-7.531496224492115,"(0.0, 0.0, 0.0, 0.0, 0.0, 0.0)",0.16823988009592084,-0.8818120249621524,7.514987332324067,"(0.0, 0.0, 0.0, 0.0, 0.0, 0.0)",-1.2907160846573733,0.6145687204653795,7.61154815335357,"(0.0, 0.0, 0.0, 0.0, 0.0, 0.0)",-0.16929032064296096,False,,,,,False,,,,
41,Close,,,"(0.010002141585127773, 0.16003426533265583, 0.03733092357160428)","(-0.0006998337831870475, 4.3739645365482716e-05, -1.5305241372964883e-08)",,"[-0.026750000193715096, 0.05299999937415123, 0.03999999910593033]","[0.0, -0.0, 0.8811903688816151]","[-0.08229776471853256, 0.09880879521369934, 0.03999999910593033]","[0.0, -0.0, 0.2636196251065186]","[0.026750000193715096, 0.05299999937415123, 0.03999999910593033]","[0.0, 0.0, -0.8818121535754343]","[0.08232623338699341, 0.098774254322052, 0.03999999910593033]","[0.0, 0.0, -0.26724331826119446]",0.853071263265402,-6.7485670204107215,"(0.0, 0.0, 0.0, 0.0, 0.0, 0.0)",1.1591124175888132,-0.6458137504217961,-6.77834247491313,"(0.0, 0.0, 0.0, 0.0, 0.0, 0.0)",0.1518500972569631,-0.8536308224659371,6.763488599091658,"(0.0, 0.0, 0.0, 0.0, 0.0, 0.0)",-1.1622865309865396,0.643112008739745,6.850389185847702,"(0.0, 0.0, 0.0, 0.0, 0.0, 0.0)",-0.15280109527428076,False,,,,,False,,,,
42,Close,,,"(0.010002306014043007, 0.16003689619304312, 0.038982445123681576)","(-0.0007536035543313348, 4.7100258049582536e-05, -1.7747461781428295e-08)",,"[-0.026750000193715096, 0.05299999937415123, 0.03999999910593033]","[0.0, -0.0, 0.8530713239495782]","[-0.08098787814378738, 0.10035242885351181, 0.03999999910593033]","[0.0, -0.0, 0.2072574956851119]","[0.026750000193715096, 0.05299999937415123, 0.03999999910593033]","[0.0, 0.0, -0.8536307856313979]","[0.08101436495780945, 0.10032207518815994, 0.03999999910593033]","[0.0, 0.0, -0.21051882644475053]",0.8277641369388617,-6.073710318369648,"(0.0, 0.0, 0.0, 0.0, 0.0, 0.0)",1.043715976216214,-0.6712325191394197,-6.100504492229669,"(0.0, 0.0, 0.0, 0.0, 0.0, 0.0)",0.1370167890019201,-0.8282677402193435,6.0871397391824935,"(0.0, 0.0, 0.0, 0.0, 0.0, 0.0)",-1.0465779375227178,0.6688009525283538,6.165346509266115,"(0.0, 0.0, 0.0, 0.0, 0.0, 0.0)",-0.1378772244212715,False,,,,,False,,,,
43,Close,,,"(0.010002470404691093, 0.16003952644115657, 0.04045997120998789)","(-0.0008073642479911328, 5.0460303253361964e-05, -2.0369923505779015e-08)",,"[-0.026750000193715096, 0.05299999937415123, 0.03999999910593033]","[0.0, -0.0, 0.8277641182932235]","[-0.07977228611707687, 0.10170972347259521, 0.03999999910593033]","[0.0, -0.0, 0.1565316389415725]","[0.026750000193715096, 0.05299999937415123, 0.03999999910593033]","[0.0, 0.0, -0.8282677342123946]","[0.07979680597782135, 0.10168302059173584, 0.03999999910593033]","[0.0, 0.0, -0.1594667900835625]",0.8049877232449756,-5.4663392865326825,"(0.0, 0.0, 0.0, 0.0, 0.0, 0.0)",0.9397613626777375,-0.6941093969081942,-5.49045066450586,"(0.0, 0.0, 0.0, 0.0, 0.0, 0.0)",0.12359998406321729,-0.8054409661974091,5.478425765264244,"(0.0, 0.0, 0.0, 0.0, 0.0, 0.0)",-0.9423413878167864,0.6919209877745929,5.54880845909737,"(0.0, 0.0, 0.0, 0.0, 0.0, 0.0)",-0.12437805104754245,False,,,,,False,,,,
44,Close,,,"(0.010002634758225062, 0.1600421560954447, 0.041763552607370504)","(-0.000861115865719684, 5.381978106418352e-05, -2.3172535119669436e-08)",,"[-0.026750000193715096, 0.05299999937415123, 0.03999999910593033]","[0.0, -0.0, 0.8049877164750058]","[-0.07864919304847717, 0.10290464758872986, 0.03999999910593033]","[0.0, -0.0, 0.11087832859978779]","[0.026750000193715096, 0.05299999937415123, 0.03999999910593033]","[0.0, 0.0, -0.805440964305088]","[0.07867180556058884, 0.10288111865520477, 0.03999999910593033]","[0.0, 0.0, -0.11351997099607207]",0.784488950920478,-4.919705357879415,"(0.0, 0.0, 0.0, 0.0, 0.0, 0.0)",0.8461229797239068,-0.7146985741739192,-4.941402543774016,"(0.0, 0.0, 0.0, 0.0, 0.0, 0.0)",0.11147072977230046,-0.7848968695776682,4.93058318873782,"(0.0, 0.0, 0.0, 0.0, 0.0, 0.0)",-0.8484484528940599,0.7127290066915236,4.993924540063379,"(0.0, 0.0, 0.0, 0.0, 0.0, 0.0)",-0.1121739668696123,False,,,,,False,,,,
45,Close,,,"(0.010002799075796832, 0.16004478517433812, 0.04289323765696492)","(-0.0009148584090699577, 5.7178691569402595e-05, -2.615520523253533e-08)",,"[-0.026750000193715096, 0.05299999937415123, 0.03999999910593033]","[0.0, -0.0, 0.7844889896573499]","[-0.07761538028717041, 0.10395795851945877, 0.03999999910593033]","[0.0, -0.0, 0.06979037514545033]","[0.026750000193715096, 0.05299999937415123, 0.03999999910593033]","[0.0, 0.0, -0.7848969068252226]","[0.07763615995645523, 0.10393720120191574, 0.03999999910593033]","[0.0, 0.0, -0.07216786709232846]",0.7660400558284302,-4.427734822091471,"(0.0, 0.0, 0.0, 0.0, 0.0, 0.0)",0.7617842585328375,-0.7332288222135146,-4.44725952950288,"(0.0, 0.0, 0.0, 0.0, 0.0, 0.0)",0.10051055612556806,-0.7664071826199014,4.437524869864038,"(0.0, 0.0, 0.0, 0.0, 0.0, 0.0)",-0.7638799793048979,0.7314562121459494,4.494529309062177,"(0.0, 0.0, 0.0, 0.0, 0.0, 0.0)",-0.10114588070786824,False,,,,,False,,,,
46,Close,,,"(0.010002963358557236, 0.16004741369625017, 0.04384907226694074)","(-0.0009685918795946493, 6.053703485636736e-05, -2.9317842489583264e-08)",,"[-0.026750000193715096, 0.05299999937415123, 0.03999999910593033]","[0.0, -0.0, 0.7660400058439011]","[-0.07666666060686111, 0.10488764196634293, 0.03999999910593033]","[0.0, -0.0, 0.0328112365488731]","[0.026750000193715096, 0.05299999937415123, 0.03999999910593033]","[0.0, 0.0, -0.7664072421942376]","[0.07668570429086685, 0.1048693135380745, 0.03999999910593033]","[0.0, 0.0, -0.03495097036229706]",0.7494360502455871,-3.984961339882325,"(0.0, 0.0, 0.0, 0.0, 0.0, 0.0)",0.6858274268188955,-0.7499060350622873,-4.002531083705426,"(0.0, 0.0, 0.0, 0.0, 0.0, 0.0)",0.09061088591719418,-0.7497664643579113,3.9937723828776335,"(0.0, 0.0, 0.0, 0.0, 0.0, 0.0)",-0.6877158393779155,0.7483106866034595,4.045073869802414,"(0.0, 0.0, 0.0, 0.0, 0.0, 0.0)",-0.09118463108881669,False,,,,,False,,,,
47,Close,,,"(0.010003127607656072, 0.16005004167957756, 0.04463109991511072)","(-0.0010223162788461832, 6.389481101241881e-05, -3.266035557177819e-08)",,"[-0.026750000193715096, 0.05299999937415123, 0.03999999910593033]","[0.0, -0.0, 0.7494360616149593]","[-0.07579827308654785, 0.1057092696428299, 0.03999999910593033]","[0.0, 0.0, -0.00046998485639781964]","[0.026750000193715096, 0.05299999937415123, 0.03999999910593033]","[0.0, 0.0, -0.7497665229086657]","[0.07581568509340286, 0.10569305717945099, 0.03999999910593033]","[0.0, 0.0, -0.0014557777936095985]",0.7344924452210284,-3.5864652058940925,"(0.0, 0.0, 0.0, 0.0, 0.0, 0.0)",0.6173964503690262,-0.7649166300024903,-3.602542785648727,"(0.0, 0.0, 0.0, 0.0, 0.0, 0.0)",0.08164469448201127,-0.7347898179221202,3.594395144589871,"(0.0, 0.0, 0.0, 0.0, 0.0, 0.0)",-0.61909767957405,0.7634808239898891,3.6408329727431203,"(0.0, 0.0, 0.0, 0.0, 0.0, 0.0)",-0.08216247127692902,False,,,,,False,,,,
48,Close,,,"(0.010003291824242136, 0.16005266914270105, 0.04523936165140331)","(-0.0010760316083767074, 6.725202012489063e-05, -3.618265319583079e-08)",,"[-0.026750000193715096, 0.05299999937415123, 0.03999999910593033]","[0.0, -0.0, 0.7344924171356654]","[-0.07500515878200531, 0.10643631219863892, 0.03999999910593033]","[0.0, 0.0, -0.03042418292779103]","[0.026750000193715096, 0.05299999937415123, 0.03999999910593033]","[0.0, 0.0, -0.7347898072320369]","[0.07502105087041855, 0.10642196238040924, 0.03999999910593033]","[0.0, -0.0, 0.028691003185096618]",0.7210432006989256,-3.227818685304683,"(0.0, 0.0, 0.0, 0.0, 0.0, 0.0)",0.5558325671900768,-0.77842604750784,-3.2422602012839143,"(0.0, 0.0, 0.0, 0.0, 0.0, 0.0)",0.07360992294062317,-0.7213108361299082,3.234955630130884,"(0.0, 0.0, 0.0, 0.0, 0.0, 0.0)",-0.5573653507703412,0.7771338289584356,3.2767211924511668,"(0.0, 0.0, 0.0, 0.0, 0.0, 0.0)",-0.07407739542501454,False,,,,,False,,,,
49,Close,,,"(0.010003456009463264, 0.16005529610398603, 0.04567389610019914)","(-0.0011297378697381003, 7.060866228110946e-05, -3.988464411418517e-08)",,"[-0.026750000193715096, 0.05299999937415123, 0.03999999910593033]","[0.0, -0.0, 0.7210432248946826]","[-0.07428213953971863, 0.10708045959472656, 0.03999999910593033]","[0.0, 0.0, -0.05738284539856889]","[0.026750000193715096, 0.05299999937415123, 0.03999999910593033]","[0.0, 0.0, -0.7213108742429458]","[0.07429660856723785, 0.10706773400306702, 0.03999999910593033]","[0.0, -0.0, 0.0558229905847104]",0.708938880629033,-2.905036816774215,"(0.0, 0.0, 0.0, 0.0, 0.0, 0.0)",0.5003668258645501,-0.7905844163893876,-2.9180085315714246,"(0.0, 0.0, 0.0, 0.0, 0.0, 0.0)",0.06632913423961855,-0.7091797525169173,2.911460067117798,"(0.0, 0.0, 0.0, 0.0, 0.0, 0.0)",-0.5017475327577147,0.7894214258858812,2.9490232625869344,"(0.0, 0.0, 0.0, 0.0, 0.0, 0.0)",-0.06675089596581112,False,,,,,False,,,,
50,Close,,,"(0.010001644182078712, 0.16005595153396976, 0.045940321410535084)","(-0.0011271805217326655, 1.767785898679914e-05, -1.508889111938428e-08)",,"[-0.026750000193715096, 0.05299999937415123, 0.03999999910593033]","[0.0, -0.0, 0.7089389671526269]","[-0.07362406700849533, 0.10765182226896286, 0.03999999910593033]","[0.0, 0.0, -0.08164554069303018]","[0.026750000193715096, 0.05299999937415123, 0.03999999910593033]","[0.0, 0.0, -0.7091797033714331]","[0.0736372321844101, 0.10764053463935852, 0.03999999910593033]","[0.0, -0.0, 0.08024167743029369]",0.6980449925661297,-2.6145331350967917,"(0.0, 0.0, 0.0, 0.0, 0.0, 0.0)",0.4504252929298086,-0.8015268519725993,-2.6261845399708146,"(0.0, 0.0, 0.0, 0.0, 0.0, 0.0)",0.059761147909024356,-0.6982617772652256,2.6203140604060167,"(0.0, 0.0, 0.0, 0.0, 0.0, 0.0)",-0.4516689022418484,0.8004801661036254,2.6540976522586175,"(0.0, 0.0, 0.0, 0.0, 0.0, 0.0)",-0.06014157277442886,False,,,,,False,,,,
51,Close,,,"(0.009998458164918766, 0.16005543218265145, 0.046184544665354044)","(-0.001116587313714928, -4.731063982249702e-05, 3.3486629919706074e-09)",,"[-0.026750000193715096, 0.05299999937415123, 0.03999999910593033]","[0.0, -0.0, 0.6980450466292163]","[-0.07302592694759369, 0.10815921425819397, 0.03999999910593033]","[0.0, 0.0, -0.1034818592301779]","[0.026750000193715096, 0.05299999937415123, 0.03999999910593033]","[0.0, 0.0, -0.6982617371246688]","[0.07303788512945175, 0.10814917832612991, 0.03999999910593033]","[0.0, -0.0, 0.10221840210156648]",0.6882404933095168,-2.3530798215871136,"(0.0, 0.0, 0.0, 0.0, 0.0, 0.0)",0.40545980991383274,-0.8113749570468809,-2.3635452178275753,"(0.0, 0.0, 0.0, 0.0, 0.0, 0.0)",0.0538375991228723,-0.688435599538703,2.358282654365416,"(0.0, 0.0, 0.0, 0.0, 0.0, 0.0)",-0.4065798463491374,0.810432944800545,2.3886668872606847,"(0.0, 0.0, 0.0, 0.0, 0.0, 0.0)",-0.0541806611811555,False,,,,,False,,,,
52,Close,,,"(0.0099979269032565, 0.16005188637635104, 0.04640949954916324)","(-0.0010442772263960227, -5.814874739306873e-05, 7.787963860925158e-09)",,"[-0.026750000193715096, 0.05299999937415123, 0.03999999910593033]","[0.0, -0.0, 0.688240548987758]","[-0.07248289883136749, 0.10861026495695114, 0.03999999910593033]","[0.0, 0.0, -0.12313446206189271]","[0.026750000193715096, 0.05299999937415123, 0.03999999910593033]","[0.0, 0.0, -0.6884356086136862]","[0.07249374687671661, 0.10860133916139603, 0.03999999910593033]","[0.0, -0.0, 0.1219973374555316]",0.679416393078237,-2.117784055507141,"(0.0, 0.0, 0.0, 0.0, 0.0, 0.0)",0.3649762140031281,-0.8202374613421928,-2.12700103087486,"(0.0, 0.0, 0.0, 0.0, 0.0, 0.0)",0.04851286211734207,-0.6795919883598663,2.1224666829208143,"(0.0, 0.0, 0.0, 0.0, 0.0, 0.0)",-0.36598488497268467,0.8193896503204905,2.149609324786922,"(0.0, 0.0, 0.0, 0.0, 0.0, 0.0)",-0.04882227338805697,False,,,,,False,,,,
53,Close,,,"(0.009997966950406065, 0.16004795201914346, 0.046616050094935475)","(-0.0009640430328522325, -5.7324486097668704e-05, 4.2980615420070005e-09)",,"[-0.026750000193715096, 0.05299999937415123, 0.03999999910593033]","[0.0, -0.0, 0.6794163791618646]","[-0.07199041545391083, 0.10901165008544922, 0.03999999910593033]","[0.0, 0.0, -0.1408210743259801]","[0.026750000193715096, 0.05299999937415123, 0.03999999910593033]","[0.0, 0.0, -0.6795920181483843]","[0.07200025022029877, 0.1090037003159523, 0.03999999910593033]","[0.0, -0.0, 0.13979766167419433]",0.6714747537704133,-1.9059934338776885,"(0.0, 0.0, 0.0, 0.0, 0.0, 0.0)",0.3285291326313333,-0.8282143561304102,-1.914454749172182,"(0.0, 0.0, 0.0, 0.0, 0.0, 0.0)",0.043663125146434535,-0.6716327895238797,1.9102077206367922,"(0.0, 0.0, 0.0, 0.0, 0.0, 0.0)",-0.3294374536237565,0.8274513303019508,1.934803195550486,"(0.0, 0.0, 0.0, 0.0, 0.0, 0.0)",-0.043941831288343336,False,,,,,False,,,,
54,Close,,,"(0.009998107600018924, 0.16004411888380865, 0.0468059782297436)","(-0.0008858309445970004, -5.447527859797503e-05, 4.128601528647624e-08)",,"[-0.026750000193715096, 0.05299999937415123, 0.03999999910593033]","[0.0, -0.0, 0.6714747449539094]","[-0.07154417037963867, 0.10936915874481201, 0.03999999910593033]","[0.0, 0.0, -0.15673960659097733]","[0.026750000193715096, 0.05299999937415123, 0.03999999910593033]","[0.0, 0.0, -0.6716327690441329]","[0.07155308127403259, 0.10936208069324493, 0.03999999910593033]","[0.0, -0.0, 0.15581855230220754]",0.664327278393372,-1.7153940904899205,"(0.0, 0.0, 0.0, 0.0, 0.0, 0.0)",0.2957170811345372,-0.8353934979980445,-1.7229940482322428,"(0.0, 0.0, 0.0, 0.0, 0.0, 0.0)",0.03934112702889199,-0.6644695105714917,1.7191869485731137,"(0.0, 0.0, 0.0, 0.0, 0.0, 0.0)",-0.2965349881453131,0.8347067784412298,1.7413075534269409,"(0.0, 0.0, 0.0, 0.0, 0.0, 0.0)",-0.039592428071821256,False,,,,,False,,,,
55,Close,,,"(0.009998248644105466, 0.16004048002584464, 0.0469807018618576)","(-0.0008115684428503489, -5.1596750749095254e-05, 7.881188886077776e-08)",,"[-0.026750000193715096, 0.05299999937415123, 0.03999999910593033]","[0.0, -0.0, 0.6643273336690038]","[-0.07114013284444809, 0.10968788713216782, 0.03999999910593033]","[0.0, 0.0, -0.17106622141763456]","[0.026750000193715096, 0.05299999937415123, 0.03999999910593033]","[0.0, 0.0, -0.6644694779113771]","[0.07114819437265396, 0.10968156903982162, 0.03999999910593033]","[0.0, -0.0, 0.17023725548976373]",0.6578945505540348,-1.543854681440929,"(0.0, 0.0, 0.0, 0.0, 0.0, 0.0)",0.2661784897251144,-0.8418546682622772,-1.5506808634158242,"(0.0, 0.0, 0.0, 0.0, 0.0, 0.0)",0.03542959308904228,-0.6580225595143425,1.547268253715802,"(0.0, 0.0, 0.0, 0.0, 0.0, 0.0)",-0.26691494494593054,0.8412366239853526,1.567162930589489,"(0.0, 0.0, 0.0, 0.0, 0.0, 0.0)",-0.035656056287006674,False,,,,,False,,,,
56,Close,,,"(0.009998390752654573, 0.16003702894197389, 0.04714144752999396)","(-0.0007411380797103218, -4.869650481896534e-05, 1.1687517768299383e-07)",,"[-0.026750000193715096, 0.05299999937415123, 0.03999999910593033]","[0.0, -0.0, 0.6578945475257985]","[-0.07077455520629883, 0.1099722608923912, 0.03999999910593033]","[0.0, 0.0, -0.18396012465064338]","[0.026750000193715096, 0.05299999937415123, 0.03999999910593033]","[0.0, 0.0, -0.6580225896942233]","[0.07078184932470322, 0.10996662080287933, 0.03999999910593033]","[0.0, -0.0, 0.18321406389742323]",0.6521050954986313,-1.3894692132968354,"(0.0, 0.0, 0.0, 0.0, 0.0, 0.0)",0.23958744527110798,-0.8476696697618468,-1.395600359896693,"(0.0, 0.0, 0.0, 0.0, 0.0, 0.0)",0.031904902566438624,-0.6522203035629083,1.392541428344221,"(0.0, 0.0, 0.0, 0.0, 0.0, 0.0)",-0.24025052935853647,0.8471134329078756,1.410434141405507,"(0.0, 0.0, 0.0, 0.0, 0.0, 0.0)",-0.032108956045352514,False,,,,,False,,,,
57,Close,,,"(0.009998534235924597, 0.16003375955333046, 0.04728933347451534)","(-0.0006744157946989166, -4.576820860538318e-05, 1.554405829918684e-07)",,"[-0.026750000193715096, 0.05299999937415123, 0.03999999910593033]","[0.0, -0.0, 0.6521051450040646]","[-0.07044398784637451, 0.11022617667913437, 0.03999999910593033]","[0.0, 0.0, -0.19556454293122102]","[0.026750000193715096, 0.05299999937415123, 0.03999999910593033]","[0.0, 0.0, -0.6522203497730787]","[0.07045057415962219, 0.11022114753723145, 0.03999999910593033]","[0.0, -0.0, 0.19489313608724637]",0.6468945859487681,-1.250522291967151,"(0.0, 0.0, 0.0, 0.0, 0.0, 0.0)",0.2156503992603495,-0.8529031244958994,-1.2560291361726517,"(0.0, 0.0, 0.0, 0.0, 0.0, 0.0)",0.02872919688306315,-0.6469982732066174,1.253287285509799,"(0.0, 0.0, 0.0, 0.0, 0.0, 0.0)",-0.2162473971085442,0.8524025140258721,1.2693794683191757,"(0.0, 0.0, 0.0, 0.0, 0.0, 0.0)",-0.02891303657535659,False,,,,,False,,,,
58,Close,,,"(0.009998679410322496, 0.16003066597344334, 0.0474253884764576)","(-0.0006112814540129935, -4.2805404436077314e-05, 1.9447426774393396e-07)",,"[-0.026750000193715096, 0.05299999937415123, 0.03999999910593033]","[0.0, -0.0, 0.6468945636476681]","[-0.07014521211385727, 0.11045306921005249, 0.03999999910593033]","[0.0, 0.0, -0.20600854729134555]","[0.026750000193715096, 0.05299999937415123, 0.03999999910593033]","[0.0, 0.0, -0.6469982503054421]","[0.07015117257833481, 0.11044856905937195, 0.03999999910593033]","[0.0, -0.0, 0.20540423443750838]",0.6422051273538913,-1.125470062770436,"(0.0, 0.0, 0.0, 0.0, 0.0, 0.0)",0.1941029233168818,-0.8576131917611358,-1.1304161436567226,"(0.0, 0.0, 0.0, 0.0, 0.0, 0.0)",0.025868240883426936,-0.6422984458859556,1.1279585569588184,"(0.0, 0.0, 0.0, 0.0, 0.0, 0.0)",-0.19464040126091972,0.8571626447690798,1.1424313783698345,"(0.0, 0.0, 0.0, 0.0, 0.0, 0.0)",-0.026033851694478666,False,,,,,False,,,,
59,Move,,,"(0.009998826598722164, 0.16002774252192944, 0.04755055901421763)","(-0.0005516191299448554, -3.980150267197137e-05, 2.339437659612592e-07)","[0.0, 0.0, 0.0]","[-0.026750000193715096, 0.05299999937415123, 0.03999999910593033]","[0.0, -0.0, 0.6422051137296667]","[-0.0698753148317337, 0.11065594106912613, 0.03999999910593033]","[0.0, 0.0, -0.2154080556264429]","[0.026750000193715096, 0.05299999937415123, 0.03999999910593033]","[0.0, 0.0, -0.6422983956794274]","[0.06988069415092468, 0.1106519103050232, 0.03999999910593033]","[0.0, -0.0, 0.21486417441436167]",0.6379846146185022,-1.0129230564933929,"(0.0, 0.0, 0.0, 0.0, 0.0, 0.0)",0.17470684718642912,-0.8618522144704561,-1.0173654502368856,"(0.0, 0.0, 0.0, 0.0, 0.0, 0.0)",0.023291096758263134,-0.6380686012973601,1.0151627012629356,"(0.0, 0.0, 0.0, 0.0, 0.0, 0.0)",-0.1751907229705418,0.8614467243673204,1.02817910357775,"(0.0, 0.0, 0.0, 0.0, 0.0, 0.0)",-0.023440272040621463,False,,,,,True,"(0.04276013174954747, 0.17974174897294792, 0.02399995643463635)","(-0.9999999990838299, -1.9447426661030803e-07, -4.2805404423670755e-05)",0.0013234533115717422,0.0
60,Move,,,"(0.008699259039732246, 0.1597652061907072, 0.04782485533738502)","(0.0040480273580015685, 0.009650479713711625, 0.017575803187450934)","[-0.0012995675589899183, -0.00026253633122225173, 0.00027429632316738894]","[-0.026750000193715096, 0.05299999937415123, 0.03999999910593033]","[0.0, -0.0, 0.6379846501970732]","[-0.06963159143924713, 0.1108374372124672, 0.03999999910593033]","[0.0, 0.0, -0.22386762157269943]","[0.026750000193715096, 0.05299999937415123, 0.03999999910593033]","[0.0, 0.0, -0.638068602671057]","[0.06963644921779633, 0.11083383113145828, 0.03999999910593033]","[0.0, -0.0, 0.22337816170537766]",0.6141590059460926,-5.718146081378296,"(0.0, 0.0, 0.0, 0.0, 0.0, 0.0)",-6.715100343954984,-0.8614283121995241,0.10173654502368734,"(0.0, 0.0, 0.0, 0.0, 0.0, 0.0)",-0.3723637437215536,-0.6186765363685498,4.654095582914465,"(0.0, 0.0, 0.0, 0.0, 0.0, 0.0)",16.91452213543579,0.8602423878670417,-0.28904076006690205,"(0.0, 0.0, 0.0, 0.0, 0.0, 0.0)",7.026754130549747,False,,,,,True,"(0.041928616181162004, 0.17969877893574898, 0.023999959438538117)","(-0.9999999992078928, -2.3394376620903917e-07, -3.980150265941498e-05)",0.0004918567139684023,94.17969713248019
61,Move,,,"(0.006953428279101256, 0.15936555806379668, 0.04799883027777207)","(0.0036027003309908674, 0.011726089522938334, 0.045571805054608026)","[-0.0030453983196209082, -0.000662184458132764, 0.0004482712635544353]","[-0.026750000193715096, 0.05299999937415123, 0.03999999910593033]","[0.0, -0.0, 0.6141590305095613]","[-0.06824154406785965, 0.11184260249137878, 0.03999999910593033]","[0.0, 0.0, -0.24726930604170874]","[0.026750000193715096, 0.05299999937415123, 0.03999999910593033]","[0.0, 0.0, -0.6186765449450942]","[0.06850694119930267, 0.11165456473827362, 0.03999999910593033]","[0.0, -0.0, 0.24156588090171732]",0.5923752537221402,-5.228100533748595,"(0.0, 0.0, 0.0, 0.0, 0.0, 0.0)",0.6968351830029371,-0.8614707024266173,-0.010173654502368734,"(0.0, 0.0, 0.0, 0.0, 0.0, 0.0)",0.03860943376531379,-0.6008618977467228,4.275513269238477,"(0.0, 0.0, 0.0, 0.0, 0.0, 0.0)",3.1840553339598543,0.8603207379647874,0.018804023458970476,"(0.0, 0.0, 0.0, 0.0, 0.0, 0.0)",2.2071937117843152,False,,,,,True,"(0.03955126028332891, 0.18000420521160232, 0.023999959438538117)","(-0.9999999992078928, -2.3394376620903917e-07, -3.980150265941498e-05)",-4.69285261207243e-06,0.0
62,Move,,,"(0.005232479171843643, 0.15895611509417099, 0.04805192961782931)","(0.0015613319654504138, 0.011710638263295036, 0.07400765980182708)","[-0.004766347426878521, -0.0010716274277584592, 0.0005013706036116755]","[-0.026750000193715096, 0.05299999937415123, 0.03999999910593033]","[0.0, -0.0, 0.5923752994005711]","[-0.0669499859213829, 0.1127324104309082, 0.03999999910593033]","[0.0, 0.0, -0.2690954538189607]","[0.026750000193715096, 0.05299999937415123, 0.03999999910593033]","[0.0, 0.0, -0.6008619062673114]","[0.0674554631114006, 0.11238910257816315, 0.03999999910593033]","[0.0, -0.0, 0.2594588653702835]",0.5711748754471921,-5.088090785987531,"(0.0, 0.0, 0.0, 0.0, 0.0, 0.0)",0.20179723839696584,-0.8614666854136499,0.0009640831121563087,"(0.0, 0.0, 0.0, 0.0, 0.0, 0.0)",0.015124512099487388,-0.5830478441846109,4.27537285490686,"(0.0, 0.0, 0.0, 0.0, 0.0, 0.0)",-0.00040728805220429705,0.8603129289032243,-0.001874174775147154,"(0.0, 0.0, 0.0, 0.0, 0.0, 0.0)",-0.0017677334094061982,False,,,,,True,"(0.03728150083157586, 0.18020972647077313, 0.023999959438538117)","(-0.9999999992078928, -2.3394376620903917e-07, -3.980150265941498e-05)",0.00010136561290409651,0.0
63,Move,,,"(0.003536438132730313, 0.15853702184869162, 0.04798413986117641)","(-0.002178499075898401, 0.009685758062407228, 0.10285468498251224)","[-0.006462388465991851, -0.0014907206732378275, 0.0004335808469587768]","[-0.026750000193715096, 0.05299999937415123, 0.03999999910593033]","[0.0, -0.0, 0.5711748797881039]","[-0.06567469984292984, 0.1135711818933487, 0.03999999910593033]","[0.0, 0.0, -0.2902918330000066]","[0.026750000193715096, 0.05299999937415123, 0.03999999910593033]","[0.0, 0.0, -0.5830479010023177]","[0.06639109551906586, 0.11310476809740067, 0.03999999910593033]","[0.0, -0.0, 0.2772650915613622]",0.5507922484404775,-4.891830481611522,"(0.0, 0.0, 0.0, 0.0, 0.0, 0.0)",0.282294284049585,-0.8614673765775518,-0.00016587933645189224,"(0.0, 0.0, 0.0, 0.0, 0.0, 0.0)",0.019719768305812027,-0.565275293151566,4.265412247930778,"(0.0, 0.0, 0.0, 0.0, 0.0, 0.0)",-0.012306804327906049,0.8603137161198487,0.00018893198985979812,"(0.0, 0.0, 0.0, 0.0, 0.0, 0.0)",-0.0004299034376783175,False,,,,,True,"(0.035014354147368115, 0.18037738642755824, 0.023999959438538117)","(-0.9999999992078928, -2.3394376620903917e-07, -3.980150265941498e-05)",0.0001657852207818292,0.0
64,Move,,,"(0.0033070809685918903, 0.15939336139403074, 0.0480245948749005)","(-0.003221721649284341, 0.008758192496794307, 0.10007245081902345)","[-0.006691745630130274, -0.0006343811278987088, 0.00047403586068286985]","[-0.026750000193715096, 0.05299999937415123, 0.03999999910593033]","[0.0, -0.0, 0.5507922756468575]","[-0.06443209946155548, 0.11435192823410034, 0.03999999910593033]","[0.0, 0.0, -0.31067510738133]","[0.026750000193715096, 0.05299999937415123, 0.03999999910593033]","[0.0, 0.0, -0.5652752430676895]","[0.06531667709350586, 0.11379976570606232, 0.03999999910593033]","[0.0, -0.0, 0.2950384296353975]",0.5330621314256022,-4.255228083570051,"(0.0, 0.0, 0.0, 0.0, 0.0, 0.0)",-63.6841566907319,-0.833899768100212,6.616226034561552,"(0.0, 0.0, 0.0, 0.0, 0.0, 0.0)",-32.0033096547166,-0.5494184347075574,3.805646026562078,"(0.0, 0.0, 0.0, 0.0, 0.0, 0.0)",54.08522476914028,0.834294882877888,-6.244519978070589,"(0.0, 0.0, 0.0, 0.0, 0.0, 0.0)",25.974823871813367,True,"(-0.030827226021807298, 0.18072875671023755, 0.023990313633420805)","(0.9946684597633704, 0.10266861339458756, -0.009685606619977753)",0.00023266339136997558,510.2877732171601,True,"(0.03274929454054999, 0.18050411530517568, 0.023999959438538117)","(-0.9999999992078928, -2.3394376620903917e-07, -3.980150265941498e-05)",0.00018643181396489492,418.4587664295024
65,Move,"(0.0005, 0.0, 0.0007)","(0.0, 0.025778513051956248, 0.0)","(0.0031969503873777684, 0.16028143882127593, 0.048054583489053525)","(-0.004372781608329888, 0.007939463136719069, 0.09861198334618497)","[-0.006801876211344396, 0.00025369629934648974, 0.0005040244748358916]","[-0.026750000193715096, 0.05299999937415123, 0.03999999910593033]","[0.0, -0.0, 0.5330621158171134]","[-0.06333845853805542, 0.11501035839319229, 0.03999999910593033]","[0.0, 0.0, -0.30083767855036603]","[0.026750000193715096, 0.05299999937415123, 0.03999999910593033]","[0.0, 0.0, -0.549418426545043]","[0.0643477737903595, 0.11440364271402359, 0.03999999910593033]","[0.0, -0.0, 0.2848764361199625]",0.5161701590322703,-4.054073374399667,"(0.0, 0.0, 0.0, 0.0, 0.0, 0.0)",-68.88180562685734,-0.8061093417891989,6.669702314643141,"(0.0, 0.0, 0.0, 0.0, 0.0, 0.0)",-35.756361121383094,-0.5337544439677235,3.7593577775601132,"(0.0, 0.0, 0.0, 0.0, 0.0, 0.0)",68.77952387616044,0.8075007011486295,-6.430603615022057,"(0.0, 0.0, 0.0, 0.0, 0.0, 0.0)",33.85011913137436,True,"(-0.030386831991674287, 0.18170201039644102, 0.02399124115951112)","(0.9949587688124035, 0.09990167360330966, -0.008758080529661552)",-0.0003521033588324185,534.8399967547618,True,"(0.03245991098360225, 0.1814354915724969, 0.023999959438538117)","(-0.9999999992078928, -2.3394376620903917e-07, -3.980150265941498e-05)",3.895377007335016e-05,524.277520594291
66,Move,"(0.001, 0.0, 0.0011)","(0.0, 0.0516163672984803, 0.0)","(0.003108695406138384, 0.1610945508936292, 0.04805812678083755)","(-0.004828010823501846, 0.004108809683365304, 0.09470004463214214)","[-0.00689013119258378, 0.0010668083716997567, 0.0005075677666199138]","[-0.026750000193715096, 0.05299999937415123, 0.03999999910593033]","[0.0, -0.0, 0.5161702079325045]","[-0.062285806983709335, 0.11561953276395798, 0.03999999910593033]","[0.0, 0.0, -0.28993919682770425]","[0.026750000193715096, 0.05299999937415123, 0.03999999910593033]","[0.0, 0.0, -0.5337544427276155]","[0.0633813738822937, 0.11498501896858215, 0.03999999910593033]","[0.0, -0.0, 0.27374624928461355]",0.5165483076617828,0.09075567108301463,"(0.0, 0.0, 0.0, 0.0, 0.0, 0.0)",4.941132490544583,-0.8088817640743351,-0.6653813484326871,"(0.0, 0.0, 0.0, 0.0, 0.0, 0.0)",-0.5041226212955479,-0.5368254997550173,-0.7370533889505002,"(0.0, 0.0, 0.0, 0.0, 0.0, 0.0)",-5.792342730625309,0.8101801193215553,0.6430603615022044,"(0.0, 0.0, 0.0, 0.0, 0.0, 0.0)",0.2673620688025222,True,"(-0.03006166347399304, 0.18265404950541297, 0.023992059860314583)","(0.9951104129424696, 0.09844913561342714, -0.007939379726199769)",-0.0007346128178897825,2.3810970900123642,True,"(0.032241548852435555, 0.18236762460912842, 0.023999959438538117)","(-0.9999999992078928, -2.3394376620903917e-07, -3.980150265941498e-05)",-0.00012424112725224057,0.0
67,Move,"(0.0016, 0.0, 0.0018000000000000002)","(0.0, 0.06885498432042829, 0.0)","(0.0030014840402641362, 0.1618611024757341, 0.0479883143410258)","(-0.004610130483913527, -0.001176541743054283, 0.0899810815434268)","[-0.006997342558458028, 0.001833359953804653, 0.0004377553268081688]","[-0.026750000193715096, 0.05299999937415123, 0.03999999910593033]","[0.0, -0.0, 0.5165483587034116]","[-0.06230948492884636, 0.11560609191656113, 0.03999999910593033]","[0.0, 0.0, -0.2923334700138636]","[0.026750000193715096, 0.05299999937415123, 0.03999999910593033]","[0.0, 0.0, -0.5368254531883636]","[0.06357156485319138, 0.11487222462892532, 0.03999999910593033]","[0.0, -0.0, 0.273354607838706]",0.5152378660865385,-0.3145059780586301,"(0.0, 0.0, 0.0, 0.0, 0.0, 0.0)",-0.5123864225646099,-0.8086053896796357,0.06632985472785002,"(0.0, 0.0, 0.0, 0.0, 0.0, 0.0)",0.03387144265432666,-0.538188426382908,-0.32710239069378494,"(0.0, 0.0, 0.0, 0.0, 0.0, 0.0)",0.5215415209355082,0.8099121776698779,-0.06430599640258772,"(0.0, 0.0, 0.0, 0.0, 0.0, 0.0)",-0.030874981183713967,True,"(-0.029924766349210173, 0.18256175319929402, 0.023995890441918438)","(0.9955108975635751, 0.09455776335211644, -0.004108798122344876)",-0.000680586441084778,0.0,True,"(0.03245812720418998, 0.18226702584050775, 0.023999959438538117)","(-0.9999999992078928, -2.3394376620903917e-07, -3.980150265941498e-05)",7.466943648685092e-07,0.0
68,Move,"(0.0055, 0.0, 0.0027)","(0.0, 0.09471203718872429, 0.0)","(0.0031114764558759825, 0.16240200157599238, 0.04805945414904389)","(-0.003928429933695105, -0.001125682603170783, 0.08783432897356849)","[-0.0068873501428461815, 0.0023742590540629382, 0.0005088951348262566]","[-0.026750000193715096, 0.05299999937415123, 0.03999999910593033]","[0.0, -0.0, 0.5152378734714449]","[-0.062227413058280945, 0.11565263569355011, 0.03999999910593033]","[0.0, 0.0, -0.2933675248374302]","[0.026750000193715096, 0.05299999937415123, 0.03999999910593033]","[0.0, 0.0, -0.5381884269264651]","[0.06365585327148438, 0.11482198536396027, 0.03999999910593033]","[0.0, -0.0, 0.27172376412981203]",0.5137902782355593,-0.3474210842350088,"(0.0, 0.0, 0.0, 0.0, 0.0, 0.0)",-2.3616642044225924,-0.8081472342004598,0.10995731500222194,"(0.0, 0.0, 0.0, 0.0, 0.0, 0.0)",-1.2780546861451596,-0.5396004726893018,-0.3388911135345134,"(0.0, 0.0, 0.0, 0.0, 0.0, 0.0)",0.32250364200457865,0.8095386388923728,-0.08964930660122344,"(0.0, 0.0, 0.0, 0.0, 0.0, 0.0)",0.20453662564708014,True,"(-0.029773474888867883, 0.18257477429177027, 0.023995890441918438)","(0.9955108975635751, 0.09455776335211644, -0.004108798122344876)",-0.000622170820163145,14.240440483875032,True,"(0.03274077276278242, 0.18113060036600193, 0.056004109558081556)","(-0.9955108975635759, -0.09455776335210704, 0.004108798122339033)",-7.956428618813673e-05,2.7884579031877665
69,Move,"(0.0063, 0.0, 0.0035)","(0.0, 0.12912818470880047, 0.0)","(0.003299661419092851, 0.16285392122398543, 0.04808667044378902)","(-0.0020577678675664365, -0.001029510686929938, 0.08364862717697387)","[-0.006699165179629313, 0.0028261787020559814, 0.0005361114295713842]","[-0.026750000193715096, 0.05299999937415123, 0.03999999910593033]","[0.0, -0.0, 0.5137902610503322]","[-0.062136679887771606, 0.11570393294095993, 0.03999999910593033]","[0.0, 0.0, -0.29435696348830426]","[0.026750000193715096, 0.05299999937415123, 0.03999999910593033]","[0.0, 0.0, -0.5396005018041153]","[0.06374311447143555, 0.11476980894804001, 0.03999999910593033]","[0.0, -0.0, 0.26993818866452335]",0.5115938282936082,-0.5271479860682604,"(0.0, 0.0, 0.0, 0.0, 0.0, 0.0)",-1.3104068967677847,-0.808020801768629,0.03034378363937125,"(0.0, 0.0, 0.0, 0.0, 0.0, 0.0)",-0.6040234225435845,-0.5419414010907806,-0.5618228163549042,"(0.0, 0.0, 0.0, 0.0, 0.0, 0.0)",-0.1439032030662042,0.8093956537731929,-0.03431642860316731,"(0.0, 0.0, 0.0, 0.0, 0.0, 0.0)",0.08865019162238941,True,"(-0.029616099302895403, 0.18258909979524474, 0.05600112644232466)","(0.9961444135180886, 0.08772137855685595, 0.001125682365435698)",-0.0006153882210622831,7.925643746289851,True,"(0.03294648034194611, 0.18113352174922892, 0.056004109558081556)","(-0.9955108975635759, -0.09455776335210704, 0.004108798122339033)",-7.162421373115912e-05,1.4187875128928473
70,Move,"(0.0073, 0.0, 0.0034)","(0.0, 0.14231763786612162, 0.0)","(0.003511698377450529, 0.16326252917585385, 0.04801655059172213)","(0.00025476121973567605, 0.001594007984239174, 0.08077973124479544)","[-0.0064871282212716356, 0.003234786653924404, 0.00046599157750449455]","[-0.026750000193715096, 0.05299999937415123, 0.03999999910593033]","[0.0, -0.0, 0.511593867149921]","[-0.061998870223760605, 0.1157815009355545, 0.03999999910593033]","[0.0, 0.0, -0.29642696126155516]","[0.026750000193715096, 0.05299999937415123, 0.03999999910593033]","[0.0, 0.0, -0.5419414378903948]","[0.06388761103153229, 0.11468303948640823, 0.03999999910593033]","[0.0, -0.0, 0.26745431140612347]",0.509389003157327,-0.5291580327074902,"(0.0, 0.0, 0.0, 0.0, 0.0, 0.0)",-0.2636125083357392,-0.8080289858540474,-0.0019641805004185185,"(0.0, 0.0, 0.0, 0.0, 0.0, 0.0)",-0.14621378269347643,-0.5442936170794834,-0.5645318372886665,"(0.0, 0.0, 0.0, 0.0, 0.0, 0.0)",-0.00016729184112525568,0.8094099522851109,0.0034316428603169413,"(0.0, 0.0, 0.0, 0.0, 0.0, 0.0)",0.003620766620478516,True,"(-0.029339725210730125, 0.18259710403782056, 0.056001030270464304)","(0.996502964988016, 0.08355106748697247, 0.0010295105050797584)",-0.000569466460104277,1.958719459968943,True,"(0.03325546263455906, 0.1811281769241297, 0.023998969729535705)","(-0.996502964988016, -0.08355106748697394, -0.001029510505073242)",-8.392033569190333e-05,0.0
71,Move,"(0.0075, 0.0, 0.0038)","(0.0, 0.15092211107845369, 0.0)","(0.003738952122881014, 0.1635336112438373, 0.04809390028395582)","(-0.0017396277154073285, 0.0034679182369271528, 0.07566259038597854)","[-0.00625987447584115, 0.003505868721907862, 0.0005433412697381859]","[-0.026750000193715096, 0.05299999937415123, 0.03999999910593033]","[0.0, -0.0, 0.5093890292298958]","[-0.06186036020517349, 0.11585906893014908, 0.03999999910593033]","[0.0, 0.0, -0.2986399705024976]","[0.026750000193715096, 0.05299999937415123, 0.03999999910593033]","[0.0, 0.0, -0.544293630229685]","[0.06403259932994843, 0.11459551751613617, 0.03999999910593033]","[0.0, -0.0, 0.26511633436339294]",0.5070912163266651,-0.5514688393588572,"(0.0, 0.0, 0.0, 0.0, 0.0, 0.0)",-1.668440232061597,-0.8076221832971788,0.09763261364844379,"(0.0, 0.0, 0.0, 0.0, 0.0, 0.0)",-0.8914226283468069,-0.5468482266996133,-0.6131063088311839,"(0.0, 0.0, 0.0, 0.0, 0.0, 0.0)",0.5049729167215604,0.809065704282064,-0.08261952073125907,"(0.0, 0.0, 0.0, 0.0, 0.0, 0.0)",0.3422868702540113,True,"(-0.029053433962177008, 0.18260223042988688, 0.056001030270464304)","(0.996502964988016, 0.08355106748697247, 0.0010295105050797584)",-0.0005243880448919274,0.0,True,"(0.033555878414845114, 0.18111208445870824, 0.023998969729535705)","(-0.996502964988016, -0.08355106748697394, -0.001029510505073242)",-1.3064502452301796e-05,0.0
72,Move,"(0.008400000000000001, 0.0, 0.0039)","(0.0, 0.13830861657429064, 0.0)","(0.003956410831004987, 0.16376323609049123, 0.04816542372939921)","(-0.0016031556642549696, 0.00318703488893511, 0.07124530302203091)","[-0.006042415767717178, 0.0037354935685617874, 0.0006148647151815734]","[-0.026750000193715096, 0.05299999937415123, 0.03999999910593033]","[0.0, -0.0, 0.5070912584636796]","[-0.061715833842754364, 0.11593957990407944, 0.03999999910593033]","[0.0, 0.0, -0.3005309747965142]","[0.026750000193715096, 0.05299999937415123, 0.03999999910593033]","[0.0, 0.0, -0.5468482618092315]","[0.06418982893228531, 0.11450007557868958, 0.03999999910593033]","[0.0, -0.0, 0.26221751298736135]",0.5048300779031432,-0.5426732216452667,"(0.0, 0.0, 0.0, 0.0, 0.0, 0.0)",-0.5342602978409294,-0.8076466525414346,-0.005872618621397083,"(0.0, 0.0, 0.0, 0.0, 0.0, 0.0)",-0.30593818558845404,-0.549411931068554,-0.6152890485457682,"(0.0, 0.0, 0.0, 0.0, 0.0, 0.0)",0.006094848146964429,0.8091001290823687,0.0082619520731253,"(0.0, 0.0, 0.0, 0.0, 0.0, 0.0)",0.009186961382425007,True,"(-0.028782753122685023, 0.182620583865024, 0.056001030270464304)","(0.996502964988016, 0.08355106748697247, 0.0010295105050797584)",-0.00041593846822323246,0.09589489030531428,True,"(0.03390605893283745, 0.1811047091586088, 0.023998969729535705)","(-0.996502964988016, -0.08355106748697394, -0.001029510505073242)",5.2161424333711944e-05,0.0
73,Move,"(0.0096, 0.0, 0.0057)","(0.0, 0.09068730793362537, 0.0)","(0.004155538051842318, 0.16396573526647507, 0.048216493468519236)","(-0.0014720422658124086, 0.002439803451999975, 0.06567397095001068)","[-0.005843288546879846, 0.003937992744545621, 0.0006659344543016033]","[-0.026750000193715096, 0.05299999937415123, 0.03999999910593033]","[0.0, -0.0, 0.504830111196957]","[-0.06157342717051506, 0.11601848155260086, 0.03999999910593033]","[0.0, 0.0, -0.30281659714860687]","[0.026750000193715096, 0.05299999937415123, 0.03999999910593033]","[0.0, 0.0, -0.5494118602916399]","[0.06434737890958786, 0.11440388858318329, 0.03999999910593033]","[0.0, -0.0, 0.2596882158483424]",0.5024502843880738,-0.5711504436166438,"(0.0, 0.0, 0.0, 0.0, 0.0, 0.0)",-0.46680661182464783,-0.8076347284547134,0.0028617808130840874,"(0.0, 0.0, 0.0, 0.0, 0.0, 0.0)",-0.23866578066781416,-0.552213381054876,-0.6723479967173017,"(0.0, 0.0, 0.0, 0.0, 0.0, 0.0)",-0.08394717503886655,0.8090966866023382,-0.00082619520731253,"(0.0, 0.0, 0.0, 0.0, 0.0, 0.0)",-0.006883276533236295,True,"(-0.028488028295708387, 0.18262403928402995, 0.056001030270464304)","(0.996502964988016, 0.08355106748697247, 0.0010295105050797584)",-0.0003758863028027976,3.2401480352756016,True,"(0.03423216216013067, 0.18108490549939982, 0.023998969729535705)","(-0.996502964988016, -0.08355106748697394, -0.001029510505073242)",6.464819063989288e-05,0.0
74,Move,"(0.010400000000000001, 0.0, 0.0077)","(0.0, 0.047026151365735215, 0.0)","(0.004335027661955967, 0.16415779664754554, 0.04822339526424583)","(-0.0013480657713349949, 0.00043109511252986405, 0.059474929480044444)","[-0.005663798936766198, 0.004130054125616095, 0.0006728362500281956]","[-0.026750000193715096, 0.05299999937415123, 0.03999999910593033]","[0.0, -0.0, 0.5024502388174101]","[-0.06142335757613182, 0.11610117554664612, 0.03999999910593033]","[0.0, 0.0, -0.3051844431667494]","[0.026750000193715096, 0.05299999937415123, 0.03999999910593033]","[0.0, 0.0, -0.552213387743084]","[0.0645192489027977, 0.11429832130670547, 0.03999999910593033]","[0.0, -0.0, 0.25688335034213716]",0.49987400452568487,-0.6183071669733514,"(0.0, 0.0, 0.0, 0.0, 0.0, 0.0)",-0.3902342009161674,-0.8076345277474501,4.81697431734757e-05,"(0.0, 0.0, 0.0, 0.0, 0.0, 0.0)",-0.1839376529418682,-0.555397976708879,-0.7643029569607086,"(0.0, 0.0, 0.0, 0.0, 0.0, 0.0)",-0.13358822040327564,0.8090970308503413,8.261952073151946e-05,"(0.0, 0.0, 0.0, 0.0, 0.0, 0.0)",-0.009470531951624426,True,"(-0.02817969365841272, 0.18261901021529559, 0.023997559439009324)","(0.9978412698630316, 0.06562657639294758, -0.002439801031457393)",-0.0004548113784014143,2.4508803000929476,True,"(0.03459118562488349, 0.18106354503823824, 0.023998969729535705)","(-0.996502964988016, -0.08355106748697394, -0.001029510505073242)",0.00010215095611754494,0.0
75,Move,"(0.0112, 0.0, 0.010199999999999999)","(0.0, 0.007517133088339578, 0.0)","(0.004491749470634742, 0.1643485243944511, 0.048189102059223714)","(-0.0012292848247406174, -0.0027468917097075887, 0.05262701598241288)","[-0.005507077128087423, 0.004320781872521662, 0.0006385430450060806]","[-0.026750000193715096, 0.05299999937415123, 0.03999999910593033]","[0.0, -0.0, 0.49987406469137324]","[-0.06126067787408829, 0.11619029194116592, 0.03999999910593033]","[0.0, 0.0, -0.3077605141405187]","[0.026750000193715096, 0.05299999937415123, 0.03999999910593033]","[0.0, 0.0, -0.5553979339949819]","[0.06471426784992218, 0.11417772620916367, 0.03999999910593033]","[0.0, -0.0, 0.25369910296655257]",0.49716019058197186,-0.6513153464911258,"(0.0, 0.0, 0.0, 0.0, 0.0, 0.0)",-0.34541015417691256,-0.8076331722913799,0.00032530945687174115,"(0.0, 0.0, 0.0, 0.0, 0.0, 0.0)",-0.16536225714921388,-0.5588269519963054,-0.8229540689823373,"(0.0, 0.0, 0.0, 0.0, 0.0, 0.0)",-0.08537122187703455,0.809096996425541,-8.261952074484213e-06,"(0.0, 0.0, 0.0, 0.0, 0.0, 0.0)",-0.006121038688391509,True,"(-0.027845542993897056, 0.18261865407789968, 0.02399956814494162)","(0.9982317949071499, 0.05943986703775184, -0.0004310950991641505)",-0.00042108497313336405,2.2754674219546227,True,"(0.03499895276677094, 0.18103791445810527, 0.023998969729535705)","(-0.996502964988016, -0.08355106748697394, -0.001029510505073242)",0.00016944836714122725,0.0
76,Move,"(0.0121, 0.0, 0.012400000000000001)","(0.0, 0.005235987755982988, 0.0)","(0.004768221499619503, 0.16447208274582173, 0.04825325280528761)","(-0.0008872148368509408, -0.0027603516284177287, 0.04632127213975389)","[-0.005230605099102661, 0.004444340223892285, 0.0007026937910699776]","[-0.026750000193715096, 0.05299999937415123, 0.03999999910593033]","[0.0, -0.0, 0.4971601395259617]","[-0.06108906492590904, 0.11628371477127075, 0.03999999910593033]","[0.0, 0.0, -0.3104729744558276]","[0.026750000193715096, 0.05299999937415123, 0.03999999910593033]","[0.0, 0.0, -0.5588269182977023]","[0.06492382287979126, 0.11404719203710556, 0.03999999910593033]","[0.0, -0.0, 0.25027004030918565]",0.49427615165553046,-0.6921693423459324,"(0.0, 0.0, 0.0, 0.0, 0.0, 0.0)",-1.8920662218530506,-0.8075882100607108,0.01079093536056843,"(0.0, 0.0, 0.0, 0.0, 0.0, 0.0)",-1.015055923452902,-0.5624834181031685,-0.8775518656471489,"(0.0, 0.0, 0.0, 0.0, 0.0, 0.0)",-0.07949516929959823,0.8090969998680211,8.261952082477819e-07,"(0.0, 0.0, 0.0, 0.0, 0.0, 0.0)",-0.005692536246688577,True,"(-0.027493868398159933, 0.18262119540443617, 0.02399956814494162)","(0.9982317949071499, 0.05943986703775184, -0.0004310950991641505)",-0.00038726830870245175,10.528482918360114,True,"(0.035375343163781214, 0.18211649546362257, 0.023997252351785472)","(-0.9986117506959578, -0.05260252823645475, -0.002746888255303067)",0.0002719073618865354,0.0
77,Move,"(0.013800000000000002, 0.0, 0.013800000000000002)","(0.0, 0.008066911802717793, 0.0)","(0.005063630159185698, 0.1645960963090598, 0.048312301130378536)","(-0.0008105422721827123, -0.0025375794414444854, 0.03999155822465699)","[-0.0049351964395364665, 0.004568353787130358, 0.0007617421161609031]","[-0.026750000193715096, 0.05299999937415123, 0.03999999910593033]","[0.0, -0.0, 0.49427613411461196]","[-0.060906410217285156, 0.11638248711824417, 0.03999999910593033]","[0.0, 0.0, -0.31331206430151753]","[0.026750000193715096, 0.05299999937415123, 0.03999999910593033]","[0.0, 0.0, -0.5624834520634254]","[0.0651467815041542, 0.11390720307826996, 0.03999999910593033]","[0.0, -0.0, 0.24661361645752142]",0.49124521491684836,-0.7274248172837094,"(0.0, 0.0, 0.0, 0.0, 0.0, 0.0)",-0.7600013992134895,-0.8075836536746073,0.0010935326648511857,"(0.0, 0.0, 0.0, 0.0, 0.0, 0.0)",-0.39599251374318334,-0.5663176026817666,-0.9202042988635303,"(0.0, 0.0, 0.0, 0.0, 0.0, 0.0)",-0.06217209553943952,0.8090969995237731,-8.26195218905923e-08,"(0.0, 0.0, 0.0, 0.0, 0.0, 0.0)",-0.004456135943904085,True,"(-0.027123011595953976, 0.18262432071724838, 0.02399956814494162)","(0.9982317949071499, 0.05943986703775184, -0.0004310950991641505)",-0.00034368593261923595,2.9518503069314637,True,"(0.035847268165203325, 0.18208674029738464, 0.02399723889191779)","(-0.9989235560057375, -0.0463045325545155, -0.0027603481229854974)",0.00035727515816513626,0.0
78,Move,"(0.0152, 0.0, 0.0151)","(0.0, 0.01672374489260967, 0.0)","(0.005396944818853011, 0.16471021497996544, 0.048366537853913316)","(-0.0011211493368333933, -0.0019615158440149825, 0.033725137854747005)","[-0.004601881779869153, 0.004682472458035991, 0.000815978839695683]","[-0.026750000193715096, 0.05299999937415123, 0.03999999910593033]","[0.0, -0.0, 0.4912452336832764]","[-0.06071414425969124, 0.11648572236299515, 0.03999999910593033]","[0.0, 0.0, -0.3163384213439415]","[0.026750000193715096, 0.05299999937415123, 0.03999999910593033]","[0.0, 0.0, -0.5663175426179207]","[0.0653800293803215, 0.11375953257083893, 0.03999999910593033]","[0.0, -0.0, 0.2427794118427804]",0.4879024713708533,-0.8022584510388163,"(0.0, 0.0, 0.0, 0.0, 0.0, 0.0)",-0.9577412366129711,-0.8075535426933049,0.0072266355125732845,"(0.0, 0.0, 0.0, 0.0, 0.0, 0.0)",-0.4741804790662234,-0.5704639095511012,-0.9951136486403022,"(0.0, 0.0, 0.0, 0.0, 0.0, 0.0)",-0.1090157340014107,0.8090969995581979,8.261951123258678e-09,"(0.0, 0.0, 0.0, 0.0, 0.0, 0.0)",-0.007806526048584954,True,"(-0.026730428724039842, 0.18262501073220122, 0.02399956814494162)","(0.9982317949071499, 0.05943986703775184, -0.0004310950991641505)",-0.00030672339914540803,6.115077325487484,True,"(0.036342039021734544, 0.18205340431196548, 0.023997461663322704)","(-0.9991972271276591, -0.039980770437763095, -0.002537576718070869)",0.00045255516177008327,0.0
79,Move,"(0.0167, 0.0, 0.016399999999999998)","(0.0, 0.008066911802717793, 0.0)","(0.005762488635048517, 0.16481827293443738, 0.0484164422441868)","(-0.0017527440359487406, -0.001089363114994118, 0.027535178455545678)","[-0.004236337963673648, 0.004790530412507932, 0.0008658832299691666]","[-0.026750000193715096, 0.05299999937415123, 0.03999999910593033]","[0.0, -0.0, 0.48790251476706437]","[-0.060501739382743835, 0.11659890413284302, 0.03999999910593033]","[0.0, 0.0, -0.3196510862508917]","[0.026750000193715096, 0.05299999937415123, 0.03999999910593033]","[0.0, 0.0, -0.5704639145019521]","[0.06563162058591843, 0.11359883844852448, 0.03999999910593033]","[0.0, -0.0, 0.23863307666037512]",0.48434216609152647,-0.8544732670384365,"(0.0, 0.0, 0.0, 0.0, 0.0, 0.0)",-0.8888379536812815,-0.8075278016452552,0.006177851531951993,"(0.0, 0.0, 0.0, 0.0, 0.0, 0.0)",-0.45087702443128,-0.5748265643613538,-1.0470371544606472,"(0.0, 0.0, 0.0, 0.0, 0.0, 0.0)",-0.07567081732073098,0.8090969995547554,-8.261951123245126e-10,"(0.0, 0.0, 0.0, 0.0, 0.0, 0.0)",-0.005424269065107722,True,"(-0.02629911457499657, 0.18262525100503657, 0.02399956814494162)","(0.9982317949071499, 0.05943986703775184, -0.0004310950991641505)",-0.0002800219474984586,6.200810465663984,True,"(0.036876975022012926, 0.18201464233523496, 0.023998037725454596)","(-0.9994294387604928, -0.03371868027392089, -0.0019615145861776404)",0.0005607521071335507,0.0
80,Move,"(0.0177, 0.0, 0.0181)","(0.0, 0.022591541837814602, 0.0)","(0.006152552696301518, 0.16494668639805285, 0.04846227448427187)","(-0.003066368728966028, 0.0004426271527772246, 0.021239316484991454)","[-0.0038462739024206468, 0.004918943876123405, 0.000911715470054239]","[-0.026750000193715096, 0.05299999937415123, 0.03999999910593033]","[0.0, -0.0, 0.48434216473402797]","[-0.06027509272098541, 0.11671866476535797, 0.03999999910593033]","[0.0, 0.0, -0.32318561026066217]","[0.026750000193715096, 0.05299999937415123, 0.03999999910593033]","[0.0, 0.0, -0.5748266076650895]","[0.06589562445878983, 0.11342863738536835, 0.03999999910593033]","[0.0, -0.0, 0.23427044639519176]",0.4805069079848512,-0.9204619456020674,"(0.0, 0.0, 0.0, 0.0, 0.0, 0.0)",-0.787957948035165,-0.8075104376283263,0.004167364062919418,"(0.0, 0.0, 0.0, 0.0, 0.0, 0.0)",-0.3931466109069564,-0.5794552633755833,-1.110887763415069,"(0.0, 0.0, 0.0, 0.0, 0.0, 0.0)",-0.09300404247290348,0.8090969995550997,8.261924477892535e-11,"(0.0, 0.0, 0.0, 0.0, 0.0, 0.0)",-0.006665093824240773,True,"(-0.025838718928765422, 0.18260720671831399, 0.05600109012285876)","(0.9996203377940093, 0.027531682786642506, 0.0010893628995353797)",-0.00034581203226127766,5.2992124236622615,True,"(0.03743966990736218, 0.1819710607537521, 0.02399890987714124)","(-0.999620337794009, -0.02753168278664382, -0.0010893628995335208)",0.0006738001072370609,0.0
81,Move,"(0.018000000000000002, 0.0, 0.0202)","(0.0, 0.053339007270198704, 0.0)","(0.0065704647430925404, 0.16506439699501949, 0.048504434533886316)","(-0.002824183522878833, 0.0004069724236769583, 0.014963426215424418)","[-0.003428361855629624, 0.005036654473090041, 0.000953875519668683]","[-0.026750000193715096, 0.05299999937415123, 0.03999999910593033]","[0.0, -0.0, 0.4805069221705019]","[-0.06003046780824661, 0.11684677004814148, 0.03999999910593033]","[0.0, 0.0, -0.3270035559816358]","[0.026750000193715096, 0.05299999937415123, 0.03999999910593033]","[0.0, 0.0, -0.5794553061385725]","[0.06617490947246552, 0.11324679851531982, 0.03999999910593033]","[0.0, -0.0, 0.22964177767107552]",0.4765606834696188,-0.9470938836557742,"(0.0, 0.0, 0.0, 0.0, 0.0, 0.0)",-0.9121218736527716,-0.8074982783038005,0.0029182378861951058,"(0.0, 0.0, 0.0, 0.0, 0.0, 0.0)",-0.49300578554961527,-0.584183593534461,-1.1347992381306569,"(0.0, 0.0, 0.0, 0.0, 0.0, 0.0)",-0.03504387955603979,0.8090969995550653,-8.26272386557532e-12,"(0.0, 0.0, 0.0, 0.0, 0.0, 0.0)",-0.002522700455828991,True,"(-0.02534279155250145, 0.1826033608478022, 0.05600109012285876)","(0.9996203377940093, 0.027531682786642506, 0.0010893628995353797)",-0.0003181561867550593,3.916444917875885,True,"(0.038036521485349195, 0.1819202000752175, 0.02399890987714124)","(-0.999620337794009, -0.02753168278664382, -0.0010893628995335208)",0.0008114201249470068,0.0
82,Move,"(0.018600000000000002, 0.0, 0.0222)","(0.0, 0.07058286027990268, 0.0)","(0.0069780773768148615, 0.16517492428250716, 0.04854314842244445)","(-0.0026046882387166263, 0.0003734544690103332, 0.008603484555934678)","[-0.003020749221907303, 0.005147181760577713, 0.0009925894082268155]","[-0.026750000193715096, 0.05299999937415123, 0.03999999910593033]","[0.0, -0.0, 0.47656064835215267]","[-0.059778258204460144, 0.11697760969400406, 0.03999999910593033]","[0.0, 0.0, -0.3309375981598269]","[0.026750000193715096, 0.05299999937415123, 0.03999999910593033]","[0.0, 0.0, -0.5841835875061712]","[0.06645933538675308, 0.11305970698595047, 0.03999999910593033]","[0.0, -0.0, 0.22491342934373484]",0.4726768535653313,-0.9321191770289939,"(0.0, 0.0, 0.0, 0.0, 0.0, 0.0)",-0.5267336557022284,-0.8074632762855571,0.008400484378418633,"(0.0, 0.0, 0.0, 0.0, 0.0, 0.0)",-0.3063662217819902,-0.5888345050008775,-1.1162187519399644,"(0.0, 0.0, 0.0, 0.0, 0.0, 0.0)",0.02663622936749884,0.8090969995550688,8.260059574261708e-13,"(0.0, 0.0, 0.0, 0.0, 0.0, 0.0)",0.0018868349632744257,True,"(-0.024832157764713148, 0.1825972234925194, 0.05600109012285876)","(0.9996203377940093, 0.027531682786642506, 0.0010893628995353797)",-0.0002886982898470879,1.6770801958383796,True,"(0.03864597031731698, 0.18186539273553304, 0.02399890987714124)","(-0.999620337794009, -0.02753168278664382, -0.0010893628995335208)",0.0008970660996300561,0.0
83,Move,"(0.0195, 0.0, 0.023899999999999998)","(0.0, 0.06569593837431856, 0.0)","(0.00740265252674356, 0.16526781980661026, 0.04850403340335423)","(-0.00024589624435657984, 2.949775925561193e-05, 0.003045610572638645)","[-0.002596174071978604, 0.005240077284680816, 0.0009534743891365938]","[-0.026750000193715096, 0.05299999937415123, 0.03999999910593033]","[0.0, -0.0, 0.47267689092973436]","[-0.05952953174710274, 0.1171054020524025, 0.03999999910593033]","[0.0, 0.0, -0.3347864405240098]","[0.026750000193715096, 0.05299999937415123, 0.03999999910593033]","[0.0, 0.0, -0.5888345396536243]","[0.06673824042081833, 0.11287437379360199, 0.03999999910593033]","[0.0, -0.0, 0.22026248156330222]",0.46874263792987986,-0.9442117525083499,"(0.0, 0.0, 0.0, 0.0, 0.0, 0.0)",-0.5005061761356894,-0.8074674789261688,-0.0010086337467981252,"(0.0, 0.0, 0.0, 0.0, 0.0, 0.0)",-0.2738535670151366,-0.5935083119731387,-1.1217136733426871,"(0.0, 0.0, 0.0, 0.0, 0.0, 0.0)",-0.008309157815779143,0.8090969995550684,-8.260056592705733e-14,"(0.0, 0.0, 0.0, 0.0, 0.0, 0.0)",-0.0006112677199464416,True,"(-0.024331131995086644, 0.18259002956356146, 0.05600109012285876)","(0.9996203377940093, 0.027531682786642506, 0.0010893628995353797)",-0.00025726168278472156,3.005698156155384,True,"(0.039245181028792146, 0.18180867209055196, 0.02399890987714124)","(-0.999620337794009, -0.02753168278664382, -0.0010893628995335208)",0.0009828414268378406,0.0
84,Move,"(0.0206, 0.0, 0.0253)","(0.0, 0.052286573731246115, 0.0)","(0.007856380383041197, 0.16533595428643091, 0.04839547950082605)","(0.004149725053895185, -0.0004343462716237408, -0.002177343256268503)","[-0.002142446215680967, 0.005308211764501469, 0.0008449204866084192]","[-0.026750000193715096, 0.05299999937415123, 0.03999999910593033]","[0.0, -0.0, 0.46874264098334134]","[-0.05927707254886627, 0.11723386496305466, 0.03999999910593033]","[0.0, 0.0, -0.3387248824150705]","[0.026750000193715096, 0.05299999937415123, 0.03999999910593033]","[0.0, 0.0, -0.5935083606832916]","[0.06701764464378357, 0.11268682777881622, 0.03999999910593033]","[0.0, -0.0, 0.21558869057368354]",0.46466890615192646,-0.9776956267088087,"(0.0, 0.0, 0.0, 0.0, 0.0, 0.0)",-0.6187928370687324,-0.8074602939162246,0.0017244023865794797,"(0.0, 0.0, 0.0, 0.0, 0.0, 0.0)",-0.32108446109096406,-0.5983186929158536,-1.1544914262515806,"(0.0, 0.0, 0.0, 0.0, 0.0, 0.0)",-0.047919492915954494,0.8090969995550684,7.993605777301127e-15,"(0.0, 0.0, 0.0, 0.0, 0.0, 0.0)",-0.003443669934612514,True,"(-0.02382104228549988, 0.18257936133205, 0.05600109012285876)","(0.9996203377940093, 0.027531682786642506, 0.0010893628995353797)",-0.00023548361020091476,2.590481327277402,True,"(0.03984706923160739, 0.18174886536282994, 0.02399890987714124)","(-0.999620337794009, -0.02753168278664382, -0.0010893628995335208)",0.0010595232622343852,0.0
85,Move,"(0.0214, 0.0, 0.0265)","(0.0, 0.038950512916757454, 0.0)","(0.00836876821469965, 0.16533053113415588, 0.048442821858354246)","(0.005478892128336456, 0.0012742731512231814, -0.007649133010512941)","[-0.0016300583840225136, 0.005302788612226439, 0.0008922628441366126]","[-0.026750000193715096, 0.05299999937415123, 0.03999999910593033]","[0.0, -0.0, 0.46466891290620643]","[-0.05901513248682022, 0.11736583709716797, 0.03999999910593033]","[0.0, 0.0, -0.342791372808309]","[0.026750000193715096, 0.05299999937415123, 0.03999999910593033]","[0.0, 0.0, -0.5983186689502998]","[0.06730429083108902, 0.11249243468046188, 0.03999999910593033]","[0.0, -0.0, 0.2107783246713955]",0.4604086207115501,-1.0224685056903353,"(0.0, 0.0, 0.0, 0.0, 0.0, 0.0)",-1.7333432008196301,-0.8074686615910985,-0.002008241969738458,"(0.0, 0.0, 0.0, 0.0, 0.0, 0.0)",-0.8954928260581784,-0.6033093971366029,-1.1977690129798448,"(0.0, 0.0, 0.0, 0.0, 0.0, 0.0)",-0.06317446317047234,0.8090969995550684,0.0,"(0.0, 0.0, 0.0, 0.0, 0.0, 0.0)",-0.00453546308982225,True,"(-0.023293633444520775, 0.18255766076297397, 0.04212515078441191)","(0.9999953618814628, 0.003045607676851545, -2.2123319390544274e-05)",-0.0002453986499452063,4.308972076258683,True,"(0.0404662400984325, 0.18169059448502559, 0.02399956489378281)","(-0.9999975352609921, 0.002177341330485593, -0.000434346257965409)",0.001126573336484905,0.0
86,Move,"(0.0218, 0.0, 0.027600000000000003)","(0.0, 0.034222415973104825, 0.0)","(0.008840835951775138, 0.16535998838935753, 0.04848659715253906)","(0.0050389041091952825, 0.0011705988559813953, -0.013984397623513587)","[-0.0011579906469470266, 0.005332245867428087, 0.0009360381383214239]","[-0.026750000193715096, 0.05299999937415123, 0.03999999910593033]","[0.0, -0.0, 0.460408602542691]","[-0.05874062329530716, 0.11750271171331406, 0.03999999910593033]","[0.0, 0.0, -0.34706004461299217]","[0.026750000193715096, 0.05299999937415123, 0.03999999910593033]","[0.0, 0.0, -0.6033094587654535]","[0.06760068982839584, 0.11228929460048676, 0.03999999910593033]","[0.0, -0.0, 0.20578759121733842]",0.4560457251071892,-1.047094945046611,"(0.0, 0.0, 0.0, 0.0, 0.0, 0.0)",-0.2879875281756309,-0.8074549110317771,0.003300134237148215,"(0.0, 0.0, 0.0, 0.0, 0.0, 0.0)",-0.1445278968739405,-0.6083993039808032,-1.2215776426080796,"(0.0, 0.0, 0.0, 0.0, 0.0, 0.0)",-0.03492552906052025,0.8090969995550684,0.0,"(0.0, 0.0, 0.0, 0.0, 0.0, 0.0)",-0.002516997913471137,True,"(-0.02274116964053822, 0.1825414587338876, 0.04212515078441191)","(0.9999953618814628, 0.003045607676851545, -2.2123319390544274e-05)",-0.00019935776613367936,0.0,True,"(0.04110832330965103, 0.18162053841856934, 0.02399956489378281)","(-0.9999975352609921, 0.002177341330485593, -0.000434346257965409)",0.0012085202977544008,0.0
87,Move,"(0.0225, 0.0, 0.0285)","(0.0, 0.034222415973104825, 0.0)","(0.009305365559169434, 0.1654028261486411, 0.0484702867686446)","(0.0027599549714217185, 0.0010689880171977505, -0.02091151559431207)","[-0.0006934610395527303, 0.0053750836267116575, 0.0009197277544269675]","[-0.026750000193715096, 0.05299999937415123, 0.03999999910593033]","[0.0, -0.0, 0.4560457326578393]","[-0.058458901941776276, 0.11764167249202728, 0.03999999910593033]","[0.0, 0.0, -0.3514092167705466]","[0.026750000193715096, 0.05299999937415123, 0.03999999910593033]","[0.0, 0.0, -0.6083994019636351]","[0.06790193915367126, 0.11208060383796692, 0.03999999910593033]","[0.0, -0.0, 0.2006977163491839]",0.45167580935337925,-1.04877978091439,"(0.0, 0.0, 0.0, 0.0, 0.0, 0.0)",-0.247154174388387,-0.8074510995026537,0.0009147669896176916,"(0.0, 0.0, 0.0, 0.0, 0.0, 0.0)",-0.13638735193694865,-0.6134659671841354,-1.2159991687997305,"(0.0, 0.0, 0.0, 0.0, 0.0, 0.0)",0.00772917238704723,0.8090969995550684,0.0,"(0.0, 0.0, 0.0, 0.0, 0.0, 0.0)",0.0005321219747505108,True,"(-0.022176925880714828, 0.18252323468492626, 0.04212515078441191)","(0.9999953618814628, 0.003045607676851545, -2.2123319390544274e-05)",-0.00017759924383674565,0.0,True,"(0.04176280105047006, 0.18154579011374175, 0.02399956489378281)","(-0.9999975352609921, 0.002177341330485593, -0.000434346257965409)",0.0012861993940688407,0.0
88,Move,"(0.0229, 0.0, 0.0293)","(0.0, 0.034222415973104825, 0.0)","(0.009773117980458462, 0.1654636745886958, 0.04839879859910558)","(-0.0011924821081229916, 0.0009684324805337004, -0.02846477038403324)","[-0.0002257086182637022, 0.005435932066766347, 0.0008482395848879443]","[-0.026750000193715096, 0.05299999937415123, 0.03999999910593033]","[0.0, -0.0, 0.45167582436757214]","[-0.05817612260580063, 0.11777961999177933, 0.03999999910593033]","[0.0, 0.0, -0.35577527834889666]","[0.026750000193715096, 0.05299999937415123, 0.03999999910593033]","[0.0, 0.0, -0.6134659867772028]","[0.06820075213909149, 0.11187134683132172, 0.03999999910593033]","[0.0, -0.0, 0.19563104296571912]",0.4472133293548804,-1.0709951996397298,"(0.0, 0.0, 0.0, 0.0, 0.0, 0.0)",-0.3327199692414381,-0.8074457999722482,0.0012718872973298493,"(0.0, 0.0, 0.0, 0.0, 0.0, 0.0)",-0.16337283363635546,-0.6185818420117043,-1.2278099586165414,"(0.0, 0.0, 0.0, 0.0, 0.0, 0.0)",-0.017514015650875164,0.8090969995550684,0.0,"(0.0, 0.0, 0.0, 0.0, 0.0, 0.0)",-0.0012726388126359232,True,"(-0.021611212413980854, 0.18250215347209733, 0.04212515078441191)","(0.9999953618814628, 0.003045607676851545, -2.2123319390544274e-05)",-0.00015315318244640838,0.0,True,"(0.042413903791632214, 0.18146807568167914, 0.02399956489378281)","(-0.9999975352609921, 0.002177341330485593, -0.000434346257965409)",0.001361060202741342,0.0
89,Move,"(0.024100000000000003, 0.0, 0.030100000000000002)","(0.0, 0.025689501260104535, 0.0)","(0.010272980121465092, 0.16549175300064575, 0.048446251045199604)","(-0.0014611224610730196, 0.000526743289183039, -0.03365779826064714)","[0.000274153522742928, 0.005464010478716308, 0.0008956920309819705]","[-0.026750000193715096, 0.05299999937415123, 0.03999999910593033]","[0.0, -0.0, 0.44721336099491027]","[-0.05788673087954521, 0.11791921406984329, 0.03999999910593033]","[0.0, 0.0, -0.3602324801257821]","[0.026750000193715096, 0.05299999937415123, 0.03999999910593033]","[0.0, 0.0, -0.6185818044595202]","[0.06850138306617737, 0.11165852099657059, 0.03999999910593033]","[0.0, -0.0, 0.19051514584856336]",0.4427308937255412,-1.0757845510414041,"(0.0, 0.0, 0.0, 0.0, 0.0, 0.0)",-1.3700074328201388,-0.8074226028662906,0.005567305429806041,"(0.0, 0.0, 0.0, 0.0, 0.0, 0.0)",-0.7641625828942202,-0.6236809562549734,-1.223787418384597,"(0.0, 0.0, 0.0, 0.0, 0.0, 0.0)",0.00546805059185373,0.8090969995550684,0.0,"(0.0, 0.0, 0.0, 0.0, 0.0, 0.0)",0.0003702363581538477,True,"(-0.0210337068599208, 0.18247812768284366, 0.04212515078441191)","(0.9999953618814628, 0.003045607676851545, -2.2123319390544274e-05)",-0.00012478230885129506,7.741878035458635,True,"(0.04307107623192693, 0.18139228262571755, 0.05600096919228838)","(-0.9995944370359318, 0.028460913296000413, 0.0009684323291594019)",0.001386748816936439,0.0
90,Move,"(0.0252, 0.0, 0.0308)","(0.0, 0.017139133254584316, 0.0)","(0.010789258431802206, 0.1655198191620616, 0.04846881400147811)","(-0.0013416728289132585, -0.0002033514141254519, -0.03955160041112925)","[0.0007904318330800419, 0.005492076640132154, 0.000918254987260475]","[-0.026750000193715096, 0.05299999937415123, 0.03999999910593033]","[0.0, -0.0, 0.4427309045854431]","[-0.057595424354076385, 0.11805813014507294, 0.03999999910593033]","[0.0, 0.0, -0.36469171566966674]","[0.026750000193715096, 0.05299999937415123, 0.03999999910593033]","[0.0, 0.0, -0.6236809652204861]","[0.0687999501824379, 0.1114448606967926, 0.03999999910593033]","[0.0, -0.0, 0.18541604461967934]",0.43801311269756144,-1.132267446715145,"(0.0, 0.0, 0.0, 0.0, 0.0, 0.0)",-0.7422391598332674,-0.8074040120573155,0.004461794154028776,"(0.0, 0.0, 0.0, 0.0, 0.0, 0.0)",-0.37742346831007445,-0.628947940283942,-1.2640761669524405,"(0.0, 0.0, 0.0, 0.0, 0.0, 0.0)",-0.05886028761488717,0.8090969995550684,0.0,"(0.0, 0.0, 0.0, 0.0, 0.0, 0.0)",-0.004229256882420603,True,"(-0.02045490986669185, 0.18245090958579777, 0.05600043510621719)","(0.9999975352609919, -0.0021773413304817073, 0.00043434625796255773)",-0.00011150101563161658,5.037940038364646,False,,,,
91,Move,"(0.0252, 0.0, 0.0308)","(0.0, 0.017139133254584316, 0.0)","(0.011341912503364127, 0.1655239226003933, 0.048510484048764374)","(-0.0012339428448563759, -0.00018702491363994342, -0.04536051549622417)","[0.0013430859046419628, 0.005496180078463864, 0.0009599250345467408]","[-0.026750000193715096, 0.05299999937415123, 0.03999999910593033]","[0.0, -0.0, 0.43801313194744734]","[-0.05728815123438835, 0.11820292472839355, 0.03999999910593033]","[0.0, 0.0, -0.3693908956683508]","[0.026750000193715096, 0.05299999937415123, 0.03999999910593033]","[0.0, 0.0, -0.6289479621861643]","[0.06910718977451324, 0.11122257262468338, 0.03999999910593033]","[0.0, -0.0, 0.18014907229617752]",0.4331200128123977,-1.1743439724392997,"(0.0, 0.0, 0.0, 0.0, 0.0, 0.0)",-1.084045359861559,-0.8073577474378424,0.011103508673548463,"(0.0, 0.0, 0.0, 0.0, 0.0, 0.0)",-0.5782722322393423,-0.6343317517403952,-1.2921147495487977,"(0.0, 0.0, 0.0, 0.0, 0.0, 0.0)",-0.04109057712664594,0.8090969995550684,0.0,"(0.0, 0.0, 0.0, 0.0, 0.0, 0.0)",-0.002960059513833591,True,"(-0.019845776551033353, 0.18241089162110258, 0.02399947249677597)","(0.9994334911280657, -0.033651439094035326, -0.0005267432648144666)",-0.0001516238008504846,6.8740341787248065,False,,,,
92,Move,"(0.0252, 0.0, 0.0308)","(0.0, 0.017139133254584316, 0.0)","(0.013648750211670968, 0.16497220684267255, 0.0486186361162811)","(0.0009671491068404897, -0.004564252427803899, -0.06504596859390863)","[0.003649923612948804, 0.004944464320743108, 0.0010680771020634694]","[-0.026750000193715096, 0.05299999937415123, 0.03999999910593033]","[0.0, -0.0, 0.43312002150697265]","[-0.05696874111890793, 0.11835157126188278, 0.03999999910593033]","[0.0, 0.0, -0.3742377069554887]","[0.026750000193715096, 0.05299999937415123, 0.03999999910593033]","[0.0, 0.0, -0.6343317765088694]","[0.06942003965377808, 0.11099369078874588, 0.03999999910593033]","[0.0, -0.0, 0.17476524466443272]",0.41299808543602845,-4.829262570328618,"(0.0, 0.0, 0.0, 0.0, 0.0, 0.0)",-19.637272344445268,-0.8070553596321967,0.07257307335497856,"(0.0, 0.0, 0.0, 0.0, 0.0, 0.0)",-8.547196183747058,-0.6137064447469982,4.950073678415283,"(0.0, 0.0, 0.0, 0.0, 0.0, 0.0)",9.061826588183788,0.8090969995550684,0.0,"(0.0, 0.0, 0.0, 0.0, 0.0, 0.0)",0.6479191464805046,True,"(-0.019215603396619305, 0.18237730620178022, 0.02399947249677597)","(0.9994334911280657, -0.033651439094035326, -0.0005267432648144666)",-0.00013674341224222748,61.21498831040998,False,,,,
93,Move,"(0.0252, 0.0, 0.0308)","(0.0, 0.017139133254584316, 0.0)","(0.013772850225910472, 0.1659085496261803, 0.048618418710649834)","(0.0015497865930828702, -0.004497514257338748, -0.0599529076104072)","[0.003774023627188308, 0.005880807104250846, 0.001067859696432201]","[-0.026750000193715096, 0.05299999937415123, 0.03999999910593033]","[0.0, -0.0, 0.4129980954438187]","[-0.05564771220088005, 0.11894635856151581, 0.03999999910593033]","[0.0, 0.0, -0.3940572863322209]","[0.026750000193715096, 0.05299999937415123, 0.03999999910593033]","[0.0, 0.0, -0.6137063336571731]","[0.06821490824222565, 0.11186137795448303, 0.03999999910593033]","[0.0, -0.0, 0.1953905543322629]",0.39664761348909955,-3.924113267262939,"(0.0, 0.0, 0.0, 0.0, 0.0, 0.0)",-57.18384751884316,-0.7815629856231407,6.118169762173421,"(0.0, 0.0, 0.0, 0.0, 0.0, 0.0)",-26.156409903021515,-0.5978325332968487,3.8097387480358798,"(0.0, 0.0, 0.0, 0.0, 0.0, 0.0)",72.98835103737379,0.7762527421824957,-7.882621769417438,"(0.0, 0.0, 0.0, 0.0, 0.0, 0.0)",38.50132770853414,True,"(-0.0166331123364579, 0.18221131925113904, 0.02399947249677597)","(0.9994334911280657, -0.033651439094035326, -0.0005267432648144666)",3.608132371322167e-05,454.04212788580975,True,"(0.04244676780834428, 0.18151174038461082, 0.0239954350150626)","(-0.9978748626074708, 0.06499943323259776, -0.004564236580430889)",-0.0038876286645473913,583.2711367146062
