OSUrobotics/InHand-Manipulation/AnalyseData/Data/expected/new_hand_expected_exp_2v2_h_none_1_kpNone_kdNone_dp1_step1_save_data.csv
,Phase,human_cube_pos,human_cube_orn,Cube_Pos,Cube_Orn,Cube_pos_in_start_pos,b'l_prox_pin'_link_pos,b'l_prox_pin'_link_orn,b'l_distal_pin'_link_pos,b'l_distal_pin'_link_orn,b'r_prox_pin'_link_pos,b'r_prox_pin'_link_orn,b'r_distal_pin'_link_pos,b'r_distal_pin'_link_orn,b'l_prox_pin'_joint_angle,b'l_prox_pin'_joint_vel,b'l_prox_pin'_joint_react_forces,b'l_prox_pin'_joint_motor_torque,b'l_distal_pin'_joint_angle,b'l_distal_pin'_joint_vel,b'l_distal_pin'_joint_react_forces,b'l_distal_pin'_joint_motor_torque,b'r_prox_pin'_joint_angle,b'r_prox_pin'_joint_vel,b'r_prox_pin'_joint_react_forces,b'r_prox_pin'_joint_motor_torque,b'r_distal_pin'_joint_angle,b'r_distal_pin'_joint_vel,b'r_distal_pin'_joint_react_forces,b'r_distal_pin'_joint_motor_torque,in_contact_l,contact_point_l_dist,contact_normal_l_dist,contact_distance_l_dist,contact_norm_force_l_dist,in_contact_r,contact_point_r_dist,contact_normal_r_dist,contact_distance_r_dist,contact_norm_force_r_dist
0,Open,,,,,,"[-0.026750000193715096, 0.05299999937415123, 0.03999999910593033]","[0.0, -0.0, 0.0]","[-0.026750000193715096, 0.125, 0.03999999910593033]","[0.0, -0.0, 0.0]","[0.026750000193715096, 0.05299999937415123, 0.03999999910593033]","[0.0, -0.0, 0.0]","[0.026750000193715096, 0.125, 0.03999999910593033]","[0.0, -0.0, 0.0]",0.0028636982559538428,0.6872875814289223,"(0.0, 0.0, 0.0, 0.0, 0.0, 0.0)",-74.42376671286476,0.025717978913313098,6.172314939195144,"(0.0, 0.0, 0.0, 0.0, 0.0, 0.0)",-28.347758017338414,-0.0028861714462846827,-0.6926811471083238,"(0.0, 0.0, 0.0, 0.0, 0.0, 0.0)",77.31812537484876,-0.025998027583603027,-6.239526620064726,"(0.0, 0.0, 0.0, 0.0, 0.0, 0.0)",29.325432325549183,False,,,,,False,,,,
1,Open,,,,,,"[-0.026750000193715096, 0.05299999937415123, 0.03999999910593033]","[0.0, -0.0, 0.0028636982488144678]","[-0.026956185698509216, 0.12499970197677612, 0.03999999910593033]","[0.0, -0.0, 0.028581675581217755]","[0.026750000193715096, 0.05299999937415123, 0.03999999910593033]","[0.0, 0.0, -0.0028861714423951343]","[0.026957804337143898, 0.12499970197677612, 0.03999999910593033]","[0.0, 0.0, -0.028884201286240394]",0.1595773284303585,37.61127124185712,"(0.0, 0.0, 0.0, 0.0, 0.0, 0.0)",53.472225824972774,0.02314589095046895,-0.6173011110825959,"(0.0, 0.0, 0.0, 0.0, 0.0, 0.0)",3.3014509125464437,-0.15959755430165623,-37.61073188528917,"(0.0, 0.0, 0.0, 0.0, 0.0, 0.0)",-53.45543824447724,-0.023397935520559333,0.6240220951304867,"(0.0, 0.0, 0.0, 0.0, 0.0, 0.0)",-3.2927232380167535,False,,,,,False,,,,
2,Open,,,,,,"[-0.026750000193715096, 0.05299999937415123, 0.03999999910593033]","[0.0, -0.0, 0.15957730699277592]","[-0.03819086775183678, 0.1240852028131485, 0.03999999910593033]","[0.0, -0.0, 0.1827232399786182]","[0.026750000193715096, 0.05299999937415123, 0.03999999910593033]","[0.0, 0.0, -0.15959754249378824]","[0.03819230571389198, 0.12408497184515, 0.03999999910593033]","[0.0, 0.0, -0.1829954723320542]",0.30061959558732265,33.8501441176714,"(0.0, 0.0, 0.0, 0.0, 0.0, 0.0)",-5.433290843096747,0.020831748867960086,-0.555394099802127,"(0.0, 0.0, 0.0, 0.0, 0.0, 0.0)",-0.37949999689540415,-0.30063779887149056,-33.849658696760244,"(0.0, 0.0, 0.0, 0.0, 0.0, 0.0)",5.433149501288634,-0.02105858889910766,0.5614431891484022,"(0.0, 0.0, 0.0, 0.0, 0.0, 0.0)",0.37943043762158307,False,,,,,False,,,,
3,Open,,,,,,"[-0.026750000193715096, 0.05299999937415123, 0.03999999910593033]","[0.0, -0.0, 0.30061964608852465]","[-0.048070069402456284, 0.12177103012800217, 0.03999999910593033]","[0.0, -0.0, 0.3214513597309629]","[0.026750000193715096, 0.05299999937415123, 0.03999999910593033]","[0.0, 0.0, -0.30063782483534385]","[0.04807132109999657, 0.12177064269781113, 0.03999999910593033]","[0.0, 0.0, -0.32169639446592324]",0.4275576360285904,30.465129705904268,"(0.0, 0.0, 0.0, 0.0, 0.0, 0.0)",-4.896562760502833,0.018748978964657985,-0.49986477679250463,"(0.0, 0.0, 0.0, 0.0, 0.0, 0.0)",-0.3438186216350169,-0.4275740189843415,-30.464692827084228,"(0.0, 0.0, 0.0, 0.0, 0.0, 0.0)",4.8964345239877005,-0.018953134917884834,0.505308955493478,"(0.0, 0.0, 0.0, 0.0, 0.0, 0.0)",0.34375511365495653,False,,,,,False,,,,
4,Open,,,,,,"[-0.026750000193715096, 0.05299999937415123, 0.03999999910593033]","[0.0, -0.0, 0.42755761853039154]","[-0.056604765355587006, 0.1185186430811882, 0.03999999910593033]","[0.0, -0.0, 0.4463066270391506]","[0.026750000193715096, 0.05299999937415123, 0.03999999910593033]","[0.0, 0.0, -0.42757404208311445]","[0.05660583823919296, 0.1185181587934494, 0.03999999910593033]","[0.0, 0.0, -0.4465272228574986]",0.5418018724257314,27.418616735313837,"(0.0, 0.0, 0.0, 0.0, 0.0, 0.0)",-4.412236817968903,0.016874447698417276,-0.44988750389777044,"(0.0, 0.0, 0.0, 0.0, 0.0, 0.0)",-0.3112578673856835,-0.5418166170859073,-27.418223544375806,"(0.0, 0.0, 0.0, 0.0, 0.0, 0.0)",4.412120589674461,-0.017058187988154127,0.4547872631353701,"(0.0, 0.0, 0.0, 0.0, 0.0, 0.0)",0.31119999541872967,False,,,,,False,,,,
5,Open,,,,,,"[-0.026750000193715096, 0.05299999937415123, 0.03999999910593033]","[0.0, -0.0, 0.5418019400761332]","[-0.06387900561094284, 0.11468822509050369, 0.03999999910593033]","[0.0, -0.0, 0.5586763123738882]","[0.026750000193715096, 0.05299999937415123, 0.03999999910593033]","[0.0, 0.0, -0.5418166677071254]","[0.06387991458177567, 0.11468767374753952, 0.03999999910593033]","[0.0, 0.0, -0.5588748551425957]",0.6446216851831583,24.67675506178245,"(0.0, 0.0, 0.0, 0.0, 0.0, 0.0)",-3.975330693632137,0.015187334633278446,-0.4049071356333192,"(0.0, 0.0, 0.0, 0.0, 0.0, 0.0)",-0.2816071653694913,-0.6446349553773166,-24.67640118993823,"(0.0, 0.0, 0.0, 0.0, 0.0, 0.0)",3.975225427671302,-0.01535270083200906,0.409316917474816,"(0.0, 0.0, 0.0, 0.0, 0.0, 0.0)",0.28155450162657786,False,,,,,False,,,,
6,Open,,,,,,"[-0.026750000193715096, 0.05299999937415123, 0.03999999910593033]","[0.0, -0.0, 0.6446216983098856]","[-0.07001452147960663, 0.11055155843496323, 0.03999999910593033]","[0.0, -0.0, 0.6598089287160823]","[0.026750000193715096, 0.05299999937415123, 0.03999999910593033]","[0.0, 0.0, -0.644634967879878]","[0.07001528143882751, 0.11055097728967667, 0.03999999910593033]","[0.0, 0.0, -0.6599877329949964]",0.7371595166648425,22.209079555604205,"(0.0, 0.0, 0.0, 0.0, 0.0, 0.0)",-3.5812948349547464,0.013668901111545678,-0.3644240452158641,"(0.0, 0.0, 0.0, 0.0, 0.0, 0.0)",-0.25464125660078457,-0.737171459839585,-22.20876107094441,"(0.0, 0.0, 0.0, 0.0, 0.0, 0.0)",3.5811995605906057,-0.01381773063402154,0.3683928475170044,"(0.0, 0.0, 0.0, 0.0, 0.0, 0.0)",0.2545933902665499,False,,,,,False,,,,
7,Open,,,,,,"[-0.026750000193715096, 0.05299999937415123, 0.03999999910593033]","[0.0, -0.0, 0.7371595400859692]","[-0.07514750957489014, 0.10630742460489273, 0.03999999910593033]","[0.0, -0.0, 0.7508283868993905]","[0.026750000193715096, 0.05299999937415123, 0.03999999910593033]","[0.0, 0.0, -0.7371714711336782]","[0.07514814287424088, 0.10630684345960617, 0.03999999910593033]","[0.0, 0.0, -0.750989167509555]",0.8204435649983582,19.988171600043785,"(0.0, 0.0, 0.0, 0.0, 0.0, 0.0)",-3.2259980823944012,0.01230228208777883,-0.32798856570404317,"(0.0, 0.0, 0.0, 0.0, 0.0, 0.0)",-0.23014491551259536,-0.8204543138556265,-19.987884963849964,"(0.0, 0.0, 0.0, 0.0, 0.0, 0.0)",3.225911902119173,-0.012436228606816148,0.33156048652929415,"(0.0, 0.0, 0.0, 0.0, 0.0, 0.0)",0.23010145595163894,False,,,,,False,,,,
8,Open,,,,,,"[-0.026750000193715096, 0.05299999937415123, 0.03999999910593033]","[0.0, -0.0, 0.8204435774406766]","[-0.07941428571939468, 0.1020965725183487, 0.03999999910593033]","[0.0, -0.0, 0.8327459142786269]","[0.026750000193715096, 0.05299999937415123, 0.03999999910593033]","[0.0, 0.0, -0.8204543695347751]","[0.07941480726003647, 0.10209600627422333, 0.03999999910593033]","[0.0, 0.0, -0.8328905496331522]",0.8953992084985224,17.9893544400394,"(0.0, 0.0, 0.0, 0.0, 0.0, 0.0)",-2.905692777507757,0.011072298781000885,-0.2951959936267068,"(0.0, 0.0, 0.0, 0.0, 0.0, 0.0)",-0.20791432075989408,-0.8954088824700639,-17.989096467464968,"(0.0, 0.0, 0.0, 0.0, 0.0, 0.0)",2.9056148642503405,-0.011192850601700187,0.29841072122783063,"(0.0, 0.0, 0.0, 0.0, 0.0, 0.0)",0.20787489947010138,False,,,,,False,,,,
9,Open,,,,,,"[-0.026750000193715096, 0.05299999937415123, 0.03999999910593033]","[0.0, -0.0, 0.8953992050914552]","[-0.08294302970170975, 0.09801492840051651, 0.03999999910593033]","[0.0, -0.0, 0.9064715399310761]","[0.026750000193715096, 0.05299999937415123, 0.03999999910593033]","[0.0, 0.0, -0.8954089117450801]","[0.08294346183538437, 0.09801438450813293, 0.03999999910593033]","[0.0, 0.0, -0.9066016844299951]",0.9628592876486701,16.190418996035465,"(0.0, 0.0, 0.0, 0.0, 0.0, 0.0)",-2.616982039675733,0.009965290062605858,-0.26568209241480656,"(0.0, 0.0, 0.0, 0.0, 0.0, 0.0)",-0.18775783729375353,-0.9628679942230576,-16.190186820718473,"(0.0, 0.0, 0.0, 0.0, 0.0, 0.0)",2.6169116334278195,-0.010073786659150813,0.26857534621184953,"(0.0, 0.0, 0.0, 0.0, 0.0, 0.0)",0.187722108909745,False,,,,,False,,,,
10,Open,,,,,,"[-0.026750000193715096, 0.05299999937415123, 0.03999999910593033]","[0.0, -0.0, 0.9628592963772022]","[-0.08584962040185928, 0.09412462264299393, 0.03999999910593033]","[0.0, -0.0, 0.9728246761305416]","[0.026750000193715096, 0.05299999937415123, 0.03999999910593033]","[0.0, 0.0, -0.9628681466677605]","[0.08584997802972794, 0.09412410855293274, 0.03999999910593033]","[0.0, 0.0, -0.9729417790417357]",1.0235733588838032,14.57137709643192,"(0.0, 0.0, 0.0, 0.0, 0.0, 0.0)",-2.356789246056587,0.008968960705874744,-0.23911904561546746,"(0.0, 0.0, 0.0, 0.0, 0.0, 0.0)",-0.16949635495257384,-1.0235811948007518,-14.571168138646623,"(0.0, 0.0, 0.0, 0.0, 0.0, 0.0)",2.3567256501387286,-0.009066607604651448,0.24172297307984775,"(0.0, 0.0, 0.0, 0.0, 0.0, 0.0)",0.16946399753760524,False,,,,,False,,,,
11,Open,,,,,,"[-0.026750000193715096, 0.05299999937415123, 0.03999999910593033]","[0.0, -0.0, 1.0235732790301837]","[-0.08823604136705399, 0.09046287834644318, 0.03999999910593033]","[0.0, -0.0, 1.0325423083164225]","[0.026750000193715096, 0.05299999937415123, 0.03999999910593033]","[0.0, 0.0, -1.0235812274279317]","[0.08823633193969727, 0.09046239405870438, 0.03999999910593033]","[0.0, 0.0, -1.0326479037372749]",1.078216022995423,13.114239386788727,"(0.0, 0.0, 0.0, 0.0, 0.0, 0.0)",-2.1223296975724493,0.008072244810550301,-0.215211814877866,"(0.0, 0.0, 0.0, 0.0, 0.0, 0.0)",-0.1529632973210469,-1.0782230753206767,-13.114051324781958,"(0.0, 0.0, 0.0, 0.0, 0.0, 0.0)",2.122272274708909,-0.008160126984954354,0.21755534872730237,"(0.0, 0.0, 0.0, 0.0, 0.0, 0.0)",0.15293401213466845,False,,,,,False,,,,
12,Open,,,,,,"[-0.026750000193715096, 0.05299999937415123, 0.03999999910593033]","[0.0, -0.0, 1.078215882979514]","[-0.09019032120704651, 0.08704887330532074, 0.03999999910593033]","[0.0, -0.0, 1.0862882926740116]","[0.026750000193715096, 0.05299999937415123, 0.03999999910593033]","[0.0, 0.0, -1.078222977413882]","[0.09019055962562561, 0.08704842627048492, 0.03999999910593033]","[0.0, 0.0, -1.0863833790205233]",1.1273944206958806,11.802815448109852,"(0.0, 0.0, 0.0, 0.0, 0.0, 0.0)",-1.9110844168611731,0.007265182884681461,-0.19369486220852175,"(0.0, 0.0, 0.0, 0.0, 0.0, 0.0)",-0.13800439004610457,-1.127400767788609,-11.802646192303762,"(0.0, 0.0, 0.0, 0.0, 0.0, 0.0)",1.9110325851897776,-0.007344276810443619,0.19580404188257655,"(0.0, 0.0, 0.0, 0.0, 0.0, 0.0)",0.13797790093405082,False,,,,,False,,,,
13,Open,,,,,,"[-0.026750000193715096, 0.05299999937415123, 0.03999999910593033]","[0.0, -0.0, 1.1273943743462997]","[-0.0917874127626419, 0.08388907462358475, 0.03999999910593033]","[0.0, -0.0, 1.1346596248576977]","[0.026750000193715096, 0.05299999937415123, 0.03999999910593033]","[0.0, 0.0, -1.127400718904607]","[0.09178761392831802, 0.08388865739107132, 0.03999999910593033]","[0.0, 0.0, -1.134745111288055]",1.1716549786262926,10.622533903298867,"(0.0, 0.0, 0.0, 0.0, 0.0, 0.0)",-1.7207759982695574,0.00653881121780902,-0.17432920004938585,"(0.0, 0.0, 0.0, 0.0, 0.0, 0.0)",-0.12447725819906867,-1.1716606910097482,-10.622381573073383,"(0.0, 0.0, 0.0, 0.0, 0.0, 0.0)",1.7207292273800263,-0.006609995722787257,0.17622746103752684,"(0.0, 0.0, 0.0, 0.0, 0.0, 0.0)",0.12445331071934837,False,,,,,False,,,,
14,Open,,,,,,"[-0.026750000193715096, 0.05299999937415123, 0.03999999910593033]","[0.0, -0.0, 1.17165497759142]","[-0.09309044480323792, 0.08098116517066956, 0.03999999910593033]","[0.0, -0.0, 1.1781937273122836]","[0.026750000193715096, 0.05299999937415123, 0.03999999910593033]","[0.0, 0.0, -1.1716605985979762]","[0.09309060126543045, 0.08098078519105911, 0.03999999910593033]","[0.0, 0.0, -1.178270796658152]",1.2114894807636634,9.56028051296898,"(0.0, 0.0, 0.0, 0.0, 0.0, 0.0)",-1.549346412635057,0.005885062316220725,-0.15689973638119079,"(0.0, 0.0, 0.0, 0.0, 0.0, 0.0)",-0.11225090666269867,-1.2114946219087734,-9.560143415766044,"(0.0, 0.0, 0.0, 0.0, 0.0, 0.0)",1.5493042197033076,-0.00594912834521185,0.1586081706180975,"(0.0, 0.0, 0.0, 0.0, 0.0, 0.0)",0.11222926703597672,False,,,,,False,,,,
15,Open,,,,,,"[-0.026750000193715096, 0.05299999937415123, 0.03999999910593033]","[0.0, -0.0, 1.2114893406881728]","[-0.09415213763713837, 0.07831703126430511, 0.03999999910593033]","[0.0, -0.0, 1.2173745989650702]","[0.026750000193715096, 0.05299999937415123, 0.03999999910593033]","[0.0, 0.0, -1.2114945655338818]","[0.09415226429700851, 0.07831668108701706, 0.03999999910593033]","[0.0, 0.0, -1.2174436451143456]",1.247340532687297,8.604252461672083,"(0.0, 0.0, 0.0, 0.0, 0.0, 0.0)",-1.3949366588174594,0.00529667529397997,-0.14121288533778104,"(0.0, 0.0, 0.0, 0.0, 0.0, 0.0)",-0.1012051251161189,-1.2473451597178962,-8.604129074189437,"(0.0, 0.0, 0.0, 0.0, 0.0, 0.0)",1.394898604883462,-0.005354334697048719,0.1427504755591516,"(0.0, 0.0, 0.0, 0.0, 0.0, 0.0)",0.1011855790679586,False,,,,,False,,,,
16,Open,,,,,,"[-0.026750000193715096, 0.05299999937415123, 0.03999999910593033]","[0.0, -0.0, 1.2473405247091465]","[-0.09501627087593079, 0.07588484138250351, 0.03999999910593033]","[0.0, -0.0, 1.2526371614229614]","[0.026750000193715096, 0.05299999937415123, 0.03999999910593033]","[0.0, 0.0, -1.2473450561350814]","[0.09501637518405914, 0.07588452845811844, 0.03999999910593033]","[0.0, 0.0, -1.252699591080442]",1.2796064794185673,7.743827215504874,"(0.0, 0.0, 0.0, 0.0, 0.0, 0.0)",-1.2558681481324276,0.004767115224099335,-0.12709441677135241,"(0.0, 0.0, 0.0, 0.0, 0.0, 0.0)",-0.09122984935698081,-1.2796106437461066,-7.743716166770495,"(0.0, 0.0, 0.0, 0.0, 0.0, 0.0)",1.2558338345532607,-0.004819008666073119,0.128478247434144,"(0.0, 0.0, 0.0, 0.0, 0.0, 0.0)",0.09121220090323832,False,,,,,False,,,,
17,Open,,,,,,"[-0.026750000193715096, 0.05299999937415123, 0.03999999910593033]","[0.0, -0.0, 1.279606409124563]","[-0.09571900963783264, 0.0736706405878067, 0.03999999910593033]","[0.0, -0.0, 1.2843736758198352]","[0.026750000193715096, 0.05299999937415123, 0.03999999910593033]","[0.0, 0.0, -1.2796106525936015]","[0.0957190990447998, 0.07367035001516342, 0.03999999910593033]","[0.0, 0.0, -1.2844295613342638]",1.3086458314767107,6.969444493954387,"(0.0, 0.0, 0.0, 0.0, 0.0, 0.0)",-1.1305941221975622,0.00429170208951155,-0.1140991523010686,"(0.0, 0.0, 0.0, 0.0, 0.0, 0.0)",-0.082192919359827,-1.3086495793714958,-6.969344550093446,"(0.0, 0.0, 0.0, 0.0, 0.0, 0.0)",1.1305631934145834,-0.004338405935744441,0.11534465527888274,"(0.0, 0.0, 0.0, 0.0, 0.0, 0.0)",0.08217699569254354,False,,,,,False,,,,
18,Open,,,,,,"[-0.026750000193715096, 0.05299999937415123, 0.03999999910593033]","[0.0, -0.0, 1.308645825919811]","[-0.09629011154174805, 0.0716593861579895, 0.03999999910593033]","[0.0, -0.0, 1.3129373548657892]","[0.026750000193715096, 0.05299999937415123, 0.03999999910593033]","[0.0, 0.0, -1.308649569130343]","[0.09629017859697342, 0.07165912538766861, 0.03999999910593033]","[0.0, 0.0, -1.3129881167123505]",1.3347812483290395,6.272500044558946,"(0.0, 0.0, 0.0, 0.0, 0.0, 0.0)",-1.0178482622338179,0.003863702481573626,-0.10271990590510163,"(0.0, 0.0, 0.0, 0.0, 0.0, 0.0)",-0.07410352518858664,-1.3347846214343462,-6.272410095084102,"(0.0, 0.0, 0.0, 0.0, 0.0, 0.0)",1.0178203769740246,-0.0039057357160976183,0.10384085271523745,"(0.0, 0.0, 0.0, 0.0, 0.0, 0.0)",0.0740891498002037,False,,,,,False,,,,
19,Open,,,,,,"[-0.026750000193715096, 0.05299999937415123, 0.03999999910593033]","[0.0, -0.0, 1.3347813147466918]","[-0.09675397723913193, 0.06983575969934464, 0.03999999910593033]","[0.0, -0.0, 1.3386449621367835]","[0.026750000193715096, 0.05299999937415123, 0.03999999910593033]","[0.0, 0.0, -1.3347844615433213]","[0.0967540368437767, 0.06983552873134613, 0.03999999910593033]","[0.0, 0.0, -1.3386905382854437]",1.3583031234961356,5.645250040103052,"(0.0, 0.0, 0.0, 0.0, 0.0, 0.0)",-0.9162890978823036,0.0034783869891320215,-0.09247571818598516,"(0.0, 0.0, 0.0, 0.0, 0.0, 0.0)",-0.06677007440367574,-1.3583061592909116,-5.645169085575695,"(0.0, 0.0, 0.0, 0.0, 0.0, 0.0)",0.9162639666346021,-0.003516216695348753,0.09348456497972772,"(0.0, 0.0, 0.0, 0.0, 0.0, 0.0)",0.06675710630673855,False,,,,,False,,,,
20,Open,,,,,,"[-0.026750000193715096, 0.05299999937415123, 0.03999999910593033]","[0.0, -0.0, 1.3583030429358363]","[-0.09713058918714523, 0.06818463653326035, 0.03999999910593033]","[0.0, -0.0, 1.3617816714487538]","[0.026750000193715096, 0.05299999937415123, 0.03999999910593033]","[0.0, 0.0, -1.358306171033049]","[0.09713063389062881, 0.06818442046642303, 0.03999999910593033]","[0.0, 0.0, -1.361822351334537]",1.379472811146522,5.0807250360927485,"(0.0, 0.0, 0.0, 0.0, 0.0, 0.0)",-0.8248429295126702,0.003131498553648039,-0.08325322451615583,"(0.0, 0.0, 0.0, 0.0, 0.0, 0.0)",-0.06015531267018523,-1.3794755433618204,-5.080652177018124,"(0.0, 0.0, 0.0, 0.0, 0.0, 0.0)",0.8248202834423316,-0.003165545104486833,0.08416118180686077,"(0.0, 0.0, 0.0, 0.0, 0.0, 0.0)",0.06014361689139186,False,,,,,False,,,,
21,Open,,,,,,"[-0.026750000193715096, 0.05299999937415123, 0.03999999910593033]","[0.0, -0.0, 1.3794728975130914]","[-0.09743624925613403, 0.06669140607118607, 0.03999999910593033]","[0.0, -0.0, 1.382604304378769]","[0.026750000193715096, 0.05299999937415123, 0.03999999910593033]","[0.0, 0.0, -1.379475506721758]","[0.09743628650903702, 0.06669121235609055, 0.03999999910593033]","[0.0, 0.0, -1.3826409668082853]",1.3985255300318697,4.572652532483473,"(0.0, 0.0, 0.0, 0.0, 0.0, 0.0)",-0.7425066286387145,0.0028192047313806493,-0.07495051734417352,"(0.0, 0.0, 0.0, 0.0, 0.0, 0.0)",-0.054190171953983096,-1.3985279890256384,-4.57258695931631,"(0.0, 0.0, 0.0, 0.0, 0.0, 0.0)",0.7424862245436853,-0.0028498464605416357,0.07576767454684734,"(0.0, 0.0, 0.0, 0.0, 0.0, 0.0)",0.0541796259205944,False,,,,,False,,,,
22,Open,,,,,,"[-0.026750000193715096, 0.05299999937415123, 0.03999999910593033]","[0.0, -0.0, 1.398525454133583]","[-0.09768425673246384, 0.0653422400355339, 0.03999999910593033]","[0.0, -0.0, 1.4013447262228373]","[0.026750000193715096, 0.05299999937415123, 0.03999999910593033]","[0.0, 0.0, -1.3985280648022782]","[0.09768428653478622, 0.06534206122159958, 0.03999999910593033]","[0.0, 0.0, -1.4013779844801912]",1.4156729770286829,4.1153872792351285,"(0.0, 0.0, 0.0, 0.0, 0.0, 0.0)",-0.6683758137814145,0.002538055332395241,-0.06747585575649792,"(0.0, 0.0, 0.0, 0.0, 0.0, 0.0)",-0.04881194552870251,-1.4156751901230746,-4.115328263384682,"(0.0, 0.0, 0.0, 0.0, 0.0, 0.0)",0.6683574317692884,-0.002565632738451909,0.06821129330153437,"(0.0, 0.0, 0.0, 0.0, 0.0, 0.0)",0.0488024380394442,False,,,,,False,,,,
23,Open,,,,,,"[-0.026750000193715096, 0.05299999937415123, 0.03999999910593033]","[0.0, -0.0, 1.4156730334745993]","[-0.09788545966148376, 0.06412414461374283, 0.03999999910593033]","[0.0, -0.0, 1.418211036917125]","[0.026750000193715096, 0.05299999937415123, 0.03999999910593033]","[0.0, 0.0, -1.4156752315845986]","[0.09788548201322556, 0.0641239807009697, 0.03999999910593033]","[0.0, 0.0, -1.418240879504808]",1.4311056793258146,3.703848551311612,"(0.0, 0.0, 0.0, 0.0, 0.0, 0.0)",-0.6016352863054336,0.002284944287465684,-0.060746650783093666,"(0.0, 0.0, 0.0, 0.0, 0.0, 0.0)",-0.04396376851645251,-1.431107671110767,-3.7037954370462103,"(0.0, 0.0, 0.0, 0.0, 0.0, 0.0)",0.6016187276545472,-0.0023097638175418747,0.061408541018408244,"(0.0, 0.0, 0.0, 0.0, 0.0, 0.0)",0.043955198772734246,False,,,,,False,,,,
24,Open,,,,,,"[-0.026750000193715096, 0.05299999937415123, 0.03999999910593033]","[0.0, -0.0, 1.4311058207082674]","[-0.09804865717887878, 0.06302504986524582, 0.03999999910593033]","[0.0, -0.0, 1.433390691262394]","[0.026750000193715096, 0.05299999937415123, 0.03999999910593033]","[0.0, 0.0, -1.4311075924426346]","[0.09804867953062057, 0.06302490830421448, 0.03999999910593033]","[0.0, 0.0, -1.433417470845748]",1.4449951113932331,3.333463696180452,"(0.0, 0.0, 0.0, 0.0, 0.0, 0.0)",-0.5415503506795546,0.0020570753203455715,-0.05468855210882702,"(0.0, 0.0, 0.0, 0.0, 0.0, 0.0)",-0.039594115216637325,-1.4449969039996904,-3.3334158933415914,"(0.0, 0.0, 0.0, 0.0, 0.0, 0.0)",0.541535435877482,-0.002079412775410495,0.055284250111531166,"(0.0, 0.0, 0.0, 0.0, 0.0, 0.0)",0.03958639191865308,False,,,,,False,,,,
25,Open,,,,,,"[-0.026750000193715096, 0.05299999937415123, 0.03999999910593033]","[0.0, -0.0, 1.444995076522675]","[-0.09818101674318314, 0.062033817172050476, 0.03999999910593033]","[0.0, -0.0, 1.4470522962768402]","[0.026750000193715096, 0.05299999937415123, 0.03999999910593033]","[0.0, 0.0, -1.4449971061677662]","[0.09818103164434433, 0.06203368678689003, 0.03999999910593033]","[0.0, 0.0, -1.4470761943538692]",1.45749560025391,3.0001173265624064,"(0.0, 0.0, 0.0, 0.0, 0.0, 0.0)",-0.4874589573784058,0.001851931045420989,-0.04923462598189979,"(0.0, 0.0, 0.0, 0.0, 0.0, 0.0)",-0.03565633120497695,-1.4574972135997213,-3.000074304007432,"(0.0, 0.0, 0.0, 0.0, 0.0, 0.0)",0.4874455243270462,-0.0018720346450414762,0.04977075128856451,"(0.0, 0.0, 0.0, 0.0, 0.0, 0.0)",0.03564937171228022,False,,,,,False,,,,
26,Open,,,,,,"[-0.026750000193715096, 0.05299999937415123, 0.03999999910593033]","[0.0, -0.0, 1.4574954921785264]","[-0.09828835725784302, 0.061140209436416626, 0.03999999910593033]","[0.0, -0.0, 1.4593474823067423]","[0.026750000193715096, 0.05299999937415123, 0.03999999910593033]","[0.0, 0.0, -1.4574971848934346]","[0.09828837215900421, 0.061140093952417374, 0.03999999910593033]","[0.0, 0.0, -1.4593694397653831]",1.4687460402285188,2.700105593906164,"(0.0, 0.0, 0.0, 0.0, 0.0, 0.0)",-0.4387645947805427,0.0016672451487475934,-0.044324615201614966,"(0.0, 0.0, 0.0, 0.0, 0.0, 0.0)",-0.032108199676446195,-1.4687474922397492,-2.70006687360669,"(0.0, 0.0, 0.0, 0.0, 0.0, 0.0)",0.4387524971567325,-0.0016853382893528596,0.04480712536526797,"(0.0, 0.0, 0.0, 0.0, 0.0, 0.0)",0.03210192923147444,False,,,,,False,,,,
27,Open,,,,,,"[-0.026750000193715096, 0.05299999937415123, 0.03999999910593033]","[0.0, -0.0, 1.4687462228928074]","[-0.09837540984153748, 0.06033487245440483, 0.03999999910593033]","[0.0, -0.0, 1.4704133245237396]","[0.026750000193715096, 0.05299999937415123, 0.03999999910593033]","[0.0, 0.0, -1.4687474899518769]","[0.09837542474269867, 0.060334768146276474, 0.03999999910593033]","[0.0, 0.0, -1.4704329951986796]",1.478871436205667,2.430095034515549,"(0.0, 0.0, 0.0, 0.0, 0.0, 0.0)",-0.394929862139441,0.0015009773446580906,-0.03990427298148066,"(0.0, 0.0, 0.0, 0.0, 0.0, 0.0)",-0.028911540991871522,-1.4788727430157742,-2.430060186246021,"(0.0, 0.0, 0.0, 0.0, 0.0, 0.0)",0.39491896790015035,-0.001517261081966714,0.04033852977267494,"(0.0, 0.0, 0.0, 0.0, 0.0, 0.0)",0.02890589200411927,False,,,,,False,,,,
28,Open,,,,,,"[-0.026750000193715096, 0.05299999937415123, 0.03999999910593033]","[0.0, -0.0, 1.4788714352834713]","[-0.09844600409269333, 0.05960927531123161, 0.03999999910593033]","[0.0, -0.0, 1.480372508787761]","[0.026750000193715096, 0.05299999937415123, 0.03999999910593033]","[0.0, 0.0, -1.4788727099725336]","[0.09844601899385452, 0.05960918217897415, 0.03999999910593033]","[0.0, 0.0, -1.4803900544382056]",1.4879842925851003,2.1870855310639947,"(0.0, 0.0, 0.0, 0.0, 0.0, 0.0)",-0.3554706611703565,0.001351290830885638,-0.035924763305388616,"(0.0, 0.0, 0.0, 0.0, 0.0, 0.0)",-0.026031844038894282,-1.487985468714197,-2.1870541676214206,"(0.0, 0.0, 0.0, 0.0, 0.0, 0.0)",0.3554608511915877,-0.001365946114079445,0.03631559229294455,"(0.0, 0.0, 0.0, 0.0, 0.0, 0.0)",0.026026755426892093,False,,,,,False,,,,
29,Close,,,"(3.819349109750643e-09, 0.16999994350316286, 7.914305593764796e-05)","(1.5700606283751846, 1.2357610516186277e-06, -4.058049624060407e-09)",,"[-0.026750000193715096, 0.05299999937415123, 0.03999999910593033]","[0.0, -0.0, 1.4879842849605203]","[-0.09850326180458069, 0.05895565450191498, 0.03999999910593033]","[0.0, -0.0, 1.4893357278409396]","[0.026750000193715096, 0.05299999937415123, 0.03999999910593033]","[0.0, 0.0, -1.4879853833286059]","[0.09850326925516129, 0.05895556882023811, 0.03999999910593033]","[0.0, 0.0, -1.4893513332680077]",1.4961858633265903,1.9683769779575933,"(0.0, 0.0, 0.0, 0.0, 0.0, 0.0)",-0.31995094896823073,0.0012165319928285922,-0.03234212113369103,"(0.0, 0.0, 0.0, 0.0, 0.0, 0.0)",-0.02343792779000599,-1.4961869218427772,-1.9683487508592754,"(0.0, 0.0, 0.0, 0.0, 0.0, 0.0)",0.31994211580738524,-0.0012297216752996233,0.03269386530715718,"(0.0, 0.0, 0.0, 0.0, 0.0, 0.0)",0.02343334437795369,False,,,,,False,,,,
30,Close,,,"(1.09441459674075e-09, 0.16999988769159868, 0.0001519632082907279)","(1.5701173533571526, -2.5467641220651055e-06, -4.573996600559749e-08)",,"[-0.026750000193715096, 0.05299999937415123, 0.03999999910593033]","[0.0, -0.0, 1.4961860174198076]","[-0.09854969382286072, 0.05836696922779083, 0.03999999910593033]","[0.0, -0.0, 1.4974025341106605]","[0.026750000193715096, 0.05299999937415123, 0.03999999910593033]","[0.0, 0.0, -1.4961870219527165]","[0.09854969382286072, 0.05836689472198486, 0.03999999910593033]","[0.0, 0.0, -1.4974167044724178]",1.4065672769939312,-21.50846071983817,"(0.0, 0.0, 0.0, 0.0, 0.0, 0.0)",-36.83524610171859,-0.08890468746940376,-21.629092670935766,"(0.0, 0.0, 0.0, 0.0, 0.0, 0.0)",-4.936581214831643,-1.4065682296584996,21.508486124226657,"(0.0, 0.0, 0.0, 0.0, 0.0, 0.0)",36.83523814678565,0.0888928167555427,21.629409223402156,"(0.0, 0.0, 0.0, 0.0, 0.0, 0.0)",4.936577085092772,False,,,,,False,,,,
31,Close,,,"(3.541182821644653e-08, 0.1699998011443987, 0.00021906657187154062)","(1.570205104748116, 3.3042409171564205e-05, -8.114212850492596e-08)",,"[-0.026750000193715096, 0.05299999937415123, 0.03999999910593033]","[0.0, -0.0, 1.4065674382065954]","[-0.0977812185883522, 0.06477140635251999, 0.03999999910593033]","[0.0, -0.0, 1.3176625934179576]","[0.026750000193715096, 0.05299999937415123, 0.03999999910593033]","[0.0, 0.0, -1.4065680331882469]","[0.0977812260389328, 0.06477133929729462, 0.03999999910593033]","[0.0, 0.0, -1.3176753491400532]",1.3259105492945382,-19.357614647854348,"(0.0, 0.0, 0.0, 0.0, 0.0, 0.0)",3.3395407019063446,-0.17001473426920377,-19.466411231952,"(0.0, 0.0, 0.0, 0.0, 0.0, 0.0)",0.4376834422569755,-1.3259114066926496,19.35763751180399,"(0.0, 0.0, 0.0, 0.0, 0.0, 0.0)",-3.3395473112045253,0.1700040506304986,19.466696129989415,"(0.0, 0.0, 0.0, 0.0, 0.0, 0.0)",-0.43768664266468643,False,,,,,False,,,,
32,Close,,,"(3.361538948490201e-08, 0.16999974452330968, 0.00028077538773600935)","(1.5702911774727688, 7.027968338074274e-05, -7.017997684986258e-06)",,"[-0.026750000193715096, 0.05299999937415123, 0.03999999910593033]","[0.0, -0.0, 1.325910602539969]","[-0.09660188108682632, 0.07045608013868332, 0.03999999910593033]","[0.0, -0.0, 1.1558959321658662]","[0.026750000193715096, 0.05299999937415123, 0.03999999910593033]","[0.0, 0.0, -1.3259115331240872]","[0.09660189598798752, 0.07045602053403854, 0.03999999910593033]","[0.0, 0.0, -1.1559073716167563]",1.2533194943650845,-17.42185318306892,"(0.0, 0.0, 0.0, 0.0, 0.0, 0.0)",3.0100864599566086,-0.2430137284658432,-17.519758607193467,"(0.0, 0.0, 0.0, 0.0, 0.0, 0.0)",0.39699812510351973,-1.2533202660233846,17.42187376062359,"(0.0, 0.0, 0.0, 0.0, 0.0, 0.0)",-3.0100924602349655,0.24300411319445853,17.52001501535039,"(0.0, 0.0, 0.0, 0.0, 0.0, 0.0)",-0.39700105403357716,False,,,,,False,,,,
33,Close,,,"(1.2478111664315067e-07, 0.16999960627903704, 0.000337513976604643)","(1.5703757790333803, 0.0001088681261817636, -5.122611399447184e-06)",,"[-0.026750000193715096, 0.05299999937415123, 0.03999999910593033]","[0.0, -0.0, 1.2533194489161892]","[-0.0951518788933754, 0.07547627389431, 0.03999999910593033]","[0.0, -0.0, 1.0103057011386807]","[0.026750000193715096, 0.05299999937415123, 0.03999999910593033]","[0.0, 0.0, -1.2533201846969224]","[0.09515189379453659, 0.07547622174024582, 0.03999999910593033]","[0.0, 0.0, -1.010316110149499]",1.1879875449285762,-15.679667864762028,"(0.0, 0.0, 0.0, 0.0, 0.0, 0.0)",2.712712783767229,-0.30871235561933186,-15.767670516837281,"(0.0, 0.0, 0.0, 0.0, 0.0, 0.0)",0.3597856734528228,-1.1879882394210461,15.679686384561233,"(0.0, 0.0, 0.0, 0.0, 0.0, 0.0)",-2.712718226071338,0.30870370187508567,15.767901283350515,"(0.0, 0.0, 0.0, 0.0, 0.0, 0.0)",-0.35978834883250516,False,,,,,False,,,,
34,Close,,,"(1.2869376016944667e-07, 0.16999954011037416, 0.00038973303114976833)","(1.5704582297133343, 0.0001496263682483943, -9.931543136061158e-06)",,"[-0.026750000193715096, 0.05299999937415123, 0.03999999910593033]","[0.0, -0.0, 1.1879876003522736]","[-0.09353857487440109, 0.07989397644996643, 0.03999999910593033]","[0.0, -0.0, 0.8792752425767008]","[0.026750000193715096, 0.05299999937415123, 0.03999999910593033]","[0.0, 0.0, -1.1879882623869136]","[0.09353859722614288, 0.07989392429590225, 0.03999999910593033]","[0.0, 0.0, -0.8792844680170303]",1.1291887904356523,-14.1117010783017,"(0.0, 0.0, 0.0, 0.0, 0.0, 0.0)",2.44436472036771,-0.36784112005739866,-14.190903465136039,"(0.0, 0.0, 0.0, 0.0, 0.0, 0.0)",0.3258007578595482,-1.1291894154788755,14.111717746120975,"(0.0, 0.0, 0.0, 0.0, 0.0, 0.0)",-2.444369652349295,0.3678333316875771,14.191111154997946,"(0.0, 0.0, 0.0, 0.0, 0.0, 0.0)",-0.32580319741325486,False,,,,,False,,,,
35,Close,,,"(2.2147778895778094e-07, 0.169999403724105, 0.00043775502472391954)","(1.5705392813318275, 0.0001916771605813282, -8.19762937926826e-06)",,"[-0.026750000193715096, 0.05299999937415123, 0.03999999910593033]","[0.0, -0.0, 1.1291888000608494]","[-0.09184273332357407, 0.08377231657505035, 0.03999999910593033]","[0.0, -0.0, 0.7613476921786614]","[0.026750000193715096, 0.05299999937415123, 0.03999999910593033]","[0.0, 0.0, -1.1291894580384154]","[0.09184275567531586, 0.08377227932214737, 0.03999999910593033]","[0.0, 0.0, -0.7613561373098183]",1.0762699113920273,-12.700530970470014,"(0.0, 0.0, 0.0, 0.0, 0.0, 0.0)",2.202305891359772,-0.4210570080516588,-12.77181311862243,"(0.0, 0.0, 0.0, 0.0, 0.0, 0.0)",0.2948453788489373,-1.0762704739309281,12.700545971507374,"(0.0, 0.0, 0.0, 0.0, 0.0, 0.0)",-2.2023103576802145,0.4210499985188194,12.77200003949815,"(0.0, 0.0, 0.0, 0.0, 0.0, 0.0)",-0.2948476002056522,False,,,,,False,,,,
36,Close,,,"(2.1912693722736075e-07, 0.16999934361709654, 0.000481956449276018)","(1.5706184388641253, 0.00023565575873296478, -1.2845786801691941e-05)",,"[-0.026750000193715096, 0.05299999937415123, 0.03999999910593033]","[0.0, -0.0, 1.0762698553554748]","[-0.09012393653392792, 0.08717226982116699, 0.03999999910593033]","[0.0, -0.0, 0.6552128934948661]","[0.026750000193715096, 0.05299999937415123, 0.03999999910593033]","[0.0, 0.0, -1.0762704893583]","[0.09012395888566971, 0.08717223256826401, 0.03999999910593033]","[0.0, 0.0, -0.6552204147476549]",1.0286429202528247,-11.430477873408655,"(0.0, 0.0, 0.0, 0.0, 0.0, 0.0)",1.9840011930578276,-0.46895130724721834,-11.494631806934295,"(0.0, 0.0, 0.0, 0.0, 0.0, 0.0)",0.26667684533441977,-1.0286434265378352,11.430491374342276,"(0.0, 0.0, 0.0, 0.0, 0.0, 0.0)",-1.984005235051249,0.4689449986676629,11.494800035722442,"(0.0, 0.0, 0.0, 0.0, 0.0, 0.0)",-0.26667886541975433,False,,,,,False,,,,
37,Close,,,"(3.1131510586280866e-07, 0.1699992121070205, 0.0005226007520893923)","(1.5706964879884222, 0.0002806415891397876, -1.1307759452448239e-05)",,"[-0.026750000193715096, 0.05299999937415123, 0.03999999910593033]","[0.0, -0.0, 1.0286429345076582]","[-0.0884251669049263, 0.09015069156885147, 0.03999999910593033]","[0.0, -0.0, 0.5596916647508587]","[0.026750000193715096, 0.05299999937415123, 0.03999999910593033]","[0.0, 0.0, -1.0286435120859125]","[0.08842518925666809, 0.09015065431594849, 0.03999999910593033]","[0.0, 0.0, -0.5596984028120249]",0.9857786282275423,-10.287430086067793,"(0.0, 0.0, 0.0, 0.0, 0.0, 0.0)",1.787161045327472,-0.5120561765231523,-10.345168626224153,"(0.0, 0.0, 0.0, 0.0, 0.0, 0.0)",0.24107512437447856,-0.9857790838840517,10.28744223690805,"(0.0, 0.0, 0.0, 0.0, 0.0, 0.0)",-1.787164701188607,0.5120504988015524,10.345320032133483,"(0.0, 0.0, 0.0, 0.0, 0.0, 0.0)",-0.24107695935135354,False,,,,,False,,,,
38,Close,,,"(3.0991842655903425e-07, 0.169999153087261, 0.0005600347082356065)","(1.570772558536085, 0.00032764712563817383, -1.5390013302753274e-05)",,"[-0.026750000193715096, 0.05299999937415123, 0.03999999910593033]","[0.0, -0.0, 0.9857786218799983]","[-0.08677656948566437, 0.09275941550731659, 0.03999999910593033]","[0.0, -0.0, 0.4737224893055005]","[0.026750000193715096, 0.05299999937415123, 0.03999999910593033]","[0.0, 0.0, -0.9857791586690391]","[0.08677658438682556, 0.0927593931555748, 0.03999999910593033]","[0.0, 0.0, -0.47372859204714834]",0.9472007654041954,-9.258687077603232,"(0.0, 0.0, 0.0, 0.0, 0.0, 0.0)",1.6097085175776904,-0.550850558870837,-9.310651763444346,"(0.0, 0.0, 0.0, 0.0, 0.0, 0.0)",0.21783104241587867,-0.9472011754950539,9.258698013359455,"(0.0, 0.0, 0.0, 0.0, 0.0, 0.0)",-1.609711822487034,0.5508454489213972,9.310788028762744,"(0.0, 0.0, 0.0, 0.0, 0.0, 0.0)",-0.21783270758412676,False,,,,,False,,,,
39,Close,,,"(4.0106165104263135e-07, 0.169999026405202, 0.0005944331352702725)","(1.570848092729261, 0.0003750986118602944, -1.4060502423520339e-05)",,"[-0.026750000193715096, 0.05299999937415123, 0.03999999910593033]","[0.0, -0.0, 0.9472008140782049]","[-0.08519845455884933, 0.09504495561122894, 0.03999999910593033]","[0.0, -0.0, 0.39635019782230363]","[0.026750000193715096, 0.05299999937415123, 0.03999999910593033]","[0.0, 0.0, -0.9472011867132297]","[0.08519846946001053, 0.09504493325948715, 0.03999999910593033]","[0.0, 0.0, -0.3963557154153113]",0.9124806888632406,-8.332818369829143,"(0.0, 0.0, 0.0, 0.0, 0.0, 0.0)",1.4497611633824499,-0.5857655029837533,-8.379586587099913,"(0.0, 0.0, 0.0, 0.0, 0.0, 0.0)",0.19674731686213875,-0.9124810579450133,8.332828212009746,"(0.0, 0.0, 0.0, 0.0, 0.0, 0.0)",-1.4497641496546352,0.5857609040292575,8.379709225886469,"(0.0, 0.0, 0.0, 0.0, 0.0, 0.0)",-0.1967488266016999,False,,,,,False,,,,
40,Close,,,"(3.70657372146465e-07, 0.16999903038777142, 0.0006260749884053443)","(1.5708440552876382, 0.00034508120830118214, -1.4055585689260766e-05)",,"[-0.026750000193715096, 0.05299999937415123, 0.03999999910593033]","[0.0, -0.0, 0.9124807402838544]","[-0.08370371162891388, 0.09704854339361191, 0.03999999910593033]","[0.0, -0.0, 0.32671521193417863]","[0.026750000193715096, 0.05299999937415123, 0.03999999910593033]","[0.0, 0.0, -0.9124811663733811]","[0.08370373398065567, 0.09704852104187012, 0.03999999910593033]","[0.0, 0.0, -0.32672018954414506]",0.8812326199769166,-7.499536532717775,"(0.0, 0.0, 0.0, 0.0, 0.0, 0.0)",1.3056085801322186,-0.6171891619197363,-7.541678144635914,"(0.0, 0.0, 0.0, 0.0, 0.0, 0.0)",0.17763358199117588,-0.881232952150512,7.499545390680321,"(0.0, 0.0, 0.0, 0.0, 0.0, 0.0)",-1.305611277336412,0.617185022862301,7.541788519930457,"(0.0, 0.0, 0.0, 0.0, 0.0, 0.0)",-0.17763494969582577,False,,,,,False,,,,
41,Close,,,"(3.427044292909036e-07, 0.1699990340506735, 0.0006551854712062516)","(1.5708403346470328, 0.0003174583455114455, -1.4051356821419932e-05)",,"[-0.026750000193715096, 0.05299999937415123, 0.03999999910593033]","[0.0, -0.0, 0.8812326035131218]","[-0.08229970186948776, 0.09880644828081131, 0.03999999910593033]","[0.0, -0.0, 0.26404346611112495]","[0.026750000193715096, 0.05299999937415123, 0.03999999910593033]","[0.0, 0.0, -0.8812328730718287]","[0.08229971677064896, 0.09880642592906952, 0.03999999910593033]","[0.0, 0.0, -0.2640479150919315]",0.8531093579792249,-6.749582879446001,"(0.0, 0.0, 0.0, 0.0, 0.0, 0.0)",1.1757252455852583,-0.6454704345862542,-6.78750543996429,"(0.0, 0.0, 0.0, 0.0, 0.0, 0.0)",0.16033509317806058,-0.8531096569354608,6.7495908516122896,"(0.0, 0.0, 0.0, 0.0, 0.0, 0.0)",-1.1757276808922346,0.645466709436021,6.787604777692787,"(0.0, 0.0, 0.0, 0.0, 0.0, 0.0)",-0.16033633143309114,False,,,,,False,,,,
42,Close,,,"(3.170084497545684e-07, 0.16999903740907119, 0.0006819671107693073)","(1.570836911771951, 0.00029204530032808255, -1.4047683015968837e-05)",,"[-0.026750000193715096, 0.05299999937415123, 0.03999999910593033]","[0.0, -0.0, 0.8531093567174074]","[-0.08098968118429184, 0.10035036504268646, 0.03999999910593033]","[0.0, -0.0, 0.2076389231904772]","[0.026750000193715096, 0.05299999937415123, 0.03999999910593033]","[0.0, 0.0, -0.8531096230941355]","[0.08098969608545303, 0.10035035014152527, 0.03999999910593033]","[0.0, 0.0, -0.2076429742570099]",0.8277984221813024,-6.0746245915014,"(0.0, 0.0, 0.0, 0.0, 0.0, 0.0)",1.0586966037970245,-0.6709235615380169,-6.1087504684230565,"(0.0, 0.0, 0.0, 0.0, 0.0, 0.0)",0.14467321668423558,-0.8277986912419147,6.074631766451059,"(0.0, 0.0, 0.0, 0.0, 0.0, 0.0)",-1.0586988018726124,0.6709202089041267,6.108839872345364,"(0.0, 0.0, 0.0, 0.0, 0.0, 0.0)",-0.14467433700617466,False,,,,,False,,,,
43,Close,,,"(2.93385406087929e-07, 0.16999904048782613, 0.0007066062149797113)","(1.5708337628331848, 0.0002686652895538331, -1.4044478861914954e-05)",,"[-0.026750000193715096, 0.05299999937415123, 0.03999999910593033]","[0.0, -0.0, 0.8277984323872327]","[-0.07977395504713058, 0.10170790553092957, 0.03999999910593033]","[0.0, -0.0, 0.15687485461046338]","[0.026750000193715096, 0.05299999937415123, 0.03999999910593033]","[0.0, 0.0, -0.8277987052452376]","[0.07977396249771118, 0.10170789808034897, 0.03999999910593033]","[0.0, 0.0, -0.15687847762667875]",0.8050185799631722,-5.467162132351259,"(0.0, 0.0, 0.0, 0.0, 0.0, 0.0)",0.9532674830029981,-0.6938313591081322,-5.497871416827678,"(0.0, 0.0, 0.0, 0.0, 0.0, 0.0)",0.1305069121449798,-0.8050188221177232,5.467168589805953,"(0.0, 0.0, 0.0, 0.0, 0.0, 0.0)",-0.9532694663734236,0.6938283417388244,5.49795188032743,"(0.0, 0.0, 0.0, 0.0, 0.0, 0.0)",-0.13050792520753388,False,,,,,False,,,,
44,Close,,,"(2.716665250887489e-07, 0.16999904330973556, 0.0007292741870466809)","(1.5708308659078907, 0.0002471556717650467, -1.4041672069322908e-05)",,"[-0.026750000193715096, 0.05299999937415123, 0.03999999910593033]","[0.0, -0.0, 0.8050185839979388]","[-0.07865073531866074, 0.10290304571390152, 0.03999999910593033]","[0.0, -0.0, 0.11118723016400785]","[0.026750000193715096, 0.05299999937415123, 0.03999999910593033]","[0.0, 0.0, -0.8050187952188965]","[0.07865074276924133, 0.10290303081274033, 0.03999999910593033]","[0.0, 0.0, -0.11119048022217565]",0.784516721966855,-4.920445919116134,"(0.0, 0.0, 0.0, 0.0, 0.0, 0.0)",0.8582975670224743,-0.7144483618360385,-4.948080654697517,"(0.0, 0.0, 0.0, 0.0, 0.0, 0.0)",0.11770004006048959,-0.784516939905951,4.92045173082536,"(0.0, 0.0, 0.0, 0.0, 0.0, 0.0)",-0.8582993561887614,0.7144456462047399,4.948153071819748,"(0.0, 0.0, 0.0, 0.0, 0.0, 0.0)",-0.11770095568272418,False,,,,,False,,,,
45,Close,,,"(2.51696986958339e-07, 0.1699990458957082, 0.0007501287178850499)","(1.5708282008276007, 0.000227366816649173, -1.4039201474218165e-05)",,"[-0.026750000193715096, 0.05299999937415123, 0.03999999910593033]","[0.0, -0.0, 0.7845167193080385]","[-0.07761679589748383, 0.10395654290914536, 0.03999999910593033]","[0.0, -0.0, 0.07006835685702544]","[0.026750000193715096, 0.05299999937415123, 0.03999999910593033]","[0.0, 0.0, -0.7845169946958266]","[0.07761680334806442, 0.10395653545856476, 0.03999999910593033]","[0.0, 0.0, -0.0700712989357174]",0.7660650497701694,-4.42840132720452,"(0.0, 0.0, 0.0, 0.0, 0.0, 0.0)",0.7727568402429666,-0.7330036506599046,-4.453269317727849,"(0.0, 0.0, 0.0, 0.0, 0.0, 0.0)",0.106127525293464,-0.7660652459153559,4.428406557742824,"(0.0, 0.0, 0.0, 0.0, 0.0, 0.0)",-0.7727584538402424,0.7330012065927102,4.453334493112861,"(0.0, 0.0, 0.0, 0.0, 0.0, 0.0)",-0.10612835248484857,False,,,,,False,,,,
46,Close,,,"(2.3333473952068603e-07, 0.16999904826492518, 0.0007693148831029557)","(1.5708257490378412, 0.00020916106414766092, -1.403701531280991e-05)",,"[-0.026750000193715096, 0.05299999937415123, 0.03999999910593033]","[0.0, -0.0, 0.7660649977175382]","[-0.07666795700788498, 0.10488639771938324, 0.03999999910593033]","[0.0, -0.0, 0.03306140223906952]","[0.026750000193715096, 0.05299999937415123, 0.03999999910593033]","[0.0, 0.0, -0.7660653079646047]","[0.07666796445846558, 0.10488638281822205, 0.03999999910593033]","[0.0, 0.0, -0.033064041138401834]",0.7494585447931524,-3.985561194484066,"(0.0, 0.0, 0.0, 0.0, 0.0, 0.0)",0.6957152666369016,-0.7497033982890566,-4.007939430996486,"(0.0, 0.0, 0.0, 0.0, 0.0, 0.0)",0.09567473522853766,-0.7494587213238203,3.985565901968542,"(0.0, 0.0, 0.0, 0.0, 0.0, 0.0)",-0.6957167215859875,0.7497011986294615,4.007998088820328,"(0.0, 0.0, 0.0, 0.0, 0.0, 0.0)",-0.09567548223716564,False,,,,,False,,,,
47,Close,,,"(2.1644941757498085e-07, 0.1699990504349868, 0.0007869661522299996)","(1.5708234934689855, 0.0001924117668631307, -1.4035069780186692e-05)",,"[-0.026750000193715096, 0.05299999937415123, 0.03999999910593033]","[0.0, -0.0, 0.7494586090384826]","[-0.07579945772886276, 0.10570816695690155, 0.03999999910593033]","[0.0, 0.0, -0.000244853492999894]","[0.026750000193715096, 0.05299999937415123, 0.03999999910593033]","[0.0, 0.0, -0.7494587081400255]","[0.07579946517944336, 0.10570815205574036, 0.03999999910593033]","[0.0, -0.0, 0.00024247731079752444]",0.7345126903138371,-3.587005075035659,"(0.0, 0.0, 0.0, 0.0, 0.0, 0.0)",0.626333365984163,-0.764733160038395,-3.6071428198412123,"(0.0, 0.0, 0.0, 0.0, 0.0, 0.0)",0.08623682787405348,-0.7345128491914382,3.587009311771688,"(0.0, 0.0, 0.0, 0.0, 0.0, 0.0)",-0.6263346776346612,0.7647311803455538,3.607195611862134,"(0.0, 0.0, 0.0, 0.0, 0.0, 0.0)",-0.08623750223625977,False,,,,,False,,,,
48,Close,,,"(1.9902478529523268e-07, 0.16999905216510106, 0.0008031506134026157)","(1.5708213694672628, 0.00017518801369688713, -1.4031269556480368e-05)",,"[-0.026750000193715096, 0.05299999937415123, 0.03999999910593033]","[0.0, -0.0, 0.7345126628086843]","[-0.07500623911619186, 0.10643533617258072, 0.03999999910593033]","[0.0, 0.0, -0.03022046980229406]","[0.026750000193715096, 0.05299999937415123, 0.03999999910593033]","[0.0, 0.0, -0.7345128981556924]","[0.07500624656677246, 0.10643532872200012, 0.03999999910593033]","[0.0, -0.0, 0.03021832986745902]",0.7210614212824534,-3.228304567532092,"(0.0, 0.0, 0.0, 0.0, 0.0, 0.0)",0.5638237707840803,-0.7782610712626786,-3.246698693828069,"(0.0, 0.0, 0.0, 0.0, 0.0, 0.0)",0.07768823801248652,-0.7210615642722944,3.2283083805945183,"(0.0, 0.0, 0.0, 0.0, 0.0, 0.0)",-0.5638249528147553,0.7782592895487316,3.2467462087626835,"(0.0, 0.0, 0.0, 0.0, 0.0, 0.0)",-0.07768884636877696,False,,,,,False,,,,
49,Close,,,"(1.829952775457341e-07, 0.16999905372445717, 0.0008180403399689366)","(1.5708194143492393, 0.00015934185659229473, -1.4027683329641553e-05)",,"[-0.026750000193715096, 0.05299999937415123, 0.03999999910593033]","[0.0, -0.0, 0.7210614193238458]","[-0.07428312301635742, 0.10707958787679672, 0.03999999910593033]","[0.0, 0.0, -0.05719964992344959]","[0.026750000193715096, 0.05299999937415123, 0.03999999910593033]","[0.0, 0.0, -0.7210615729227128]","[0.07428313046693802, 0.10707958042621613, 0.03999999910593033]","[0.0, -0.0, 0.05719773186848648]",0.7089552791542081,-2.905474110778883,"(0.0, 0.0, 0.0, 0.0, 0.0, 0.0)",0.5075985242705942,-0.7904360705014085,-2.921999817295172,"(0.0, 0.0, 0.0, 0.0, 0.0, 0.0)",0.07003713951344083,-0.7089554078450649,2.905477542535066,"(0.0, 0.0, 0.0, 0.0, 0.0, 0.0)",-0.5075995897946305,0.7904344669675306,2.9220425805117625,"(0.0, 0.0, 0.0, 0.0, 0.0, 0.0)",-0.07003768863744474,False,,,,,False,,,,
50,Close,,,"(1.682467379846132e-07, 0.1699990551245469, 0.0008317388481303276)","(1.570817615731277, 0.00014476218910829968, -1.4024269510216624e-05)",,"[-0.026750000193715096, 0.05299999937415123, 0.03999999910593033]","[0.0, -0.0, 0.7089552779168017]","[-0.07362496107816696, 0.10765105485916138, 0.03999999910593033]","[0.0, 0.0, -0.08148078223376223]","[0.026750000193715096, 0.05299999937415123, 0.03999999910593033]","[0.0, 0.0, -0.7089554724698194]","[0.07362496852874756, 0.10765104740858078, 0.03999999910593033]","[0.0, -0.0, 0.0814790502780401]",0.6980597512387873,-2.6149266997009946,"(0.0, 0.0, 0.0, 0.0, 0.0, 0.0)",0.45693917814201784,-0.8013934602632394,-2.6297735428394082,"(0.0, 0.0, 0.0, 0.0, 0.0, 0.0)",0.06310201359777694,-0.6980598670605584,2.614929788281559,"(0.0, 0.0, 0.0, 0.0, 0.0, 0.0)",-0.45694013827892466,0.8013920170905735,2.6298120295302843,"(0.0, 0.0, 0.0, 0.0, 0.0, 0.0)",-0.06310250889925509,False,,,,,False,,,,
51,Close,,,"(1.546756367802499e-07, 0.16999905637827734, 0.0008443414385910609)","(1.5708159610857961, 0.00013134778772512943, -1.402100024143693e-05)",,"[-0.026750000193715096, 0.05299999937415123, 0.03999999910593033]","[0.0, -0.0, 0.6980597686270504]","[-0.07302673906087875, 0.10815852880477905, 0.03999999910593033]","[0.0, 0.0, -0.10333370902653251]","[0.026750000193715096, 0.05299999937415123, 0.03999999910593033]","[0.0, 0.0, -0.6980598246378259]","[0.07302674651145935, 0.10815852135419846, 0.03999999910593033]","[0.0, -0.0, 0.10333215264877679]",0.6882537761149086,-2.3534340297308955,"(0.0, 0.0, 0.0, 0.0, 0.0, 0.0)",0.41132662822933225,-0.8112550122446371,-2.3667724755354502,"(0.0, 0.0, 0.0, 0.0, 0.0, 0.0)",0.056847326346645,-0.6882538803545026,2.353436809453404,"(0.0, 0.0, 0.0, 0.0, 0.0, 0.0)",-0.4113274932960819,0.8112537133962935,2.3668071133728046,"(0.0, 0.0, 0.0, 0.0, 0.0, 0.0)",-0.0568477730004364,False,,,,,False,,,,
52,Close,,,"(1.4218689550358636e-07, 0.1699990574974972, 0.0008559357877458743)","(1.5708144388885392, 0.00011900551991941484, -1.4017852050493115e-05)",,"[-0.026750000193715096, 0.05299999937415123, 0.03999999910593033]","[0.0, -0.0, 0.6882538042795985]","[-0.07248363643884659, 0.10860966145992279, 0.03999999910593033]","[0.0, 0.0, -0.12300123728040792]","[0.026750000193715096, 0.05299999937415123, 0.03999999910593033]","[0.0, 0.0, -0.688253900607872]","[0.07248364388942719, 0.1086096540093422, 0.03999999910593033]","[0.0, -0.0, 0.12299984676553348]",0.6794283985034177,-2.118090626757806,"(0.0, 0.0, 0.0, 0.0, 0.0, 0.0)",0.3702598465395096,-0.8201303199370257,-2.1300738461732434,"(0.0, 0.0, 0.0, 0.0, 0.0, 0.0)",0.051207533272865695,-0.6794284923190523,2.1180931285080637,"(0.0, 0.0, 0.0, 0.0, 0.0, 0.0)",-0.37026062586363284,0.8201291509798778,2.130105020060234,"(0.0, 0.0, 0.0, 0.0, 0.0, 0.0)",-0.051207935975855504,False,,,,,False,,,,
53,Close,,,"(1.3069318416839e-07, 0.16999905849308636, 0.0008666025576372722)","(1.5708130385376784, 0.00010764969663878531, -1.401480516953977e-05)",,"[-0.026750000193715096, 0.05299999937415123, 0.03999999910593033]","[0.0, -0.0, 0.6794284238724229]","[-0.07199108600616455, 0.10901110619306564, 0.03999999910593033]","[0.0, 0.0, -0.14070193198542613]","[0.026750000193715096, 0.05299999937415123, 0.03999999910593033]","[0.0, 0.0, -0.6794284800706577]","[0.07199109345674515, 0.10901109874248505, 0.03999999910593033]","[0.0, -0.0, 0.1407006814892172]",0.6714855586530759,-1.9062815640820263,"(0.0, 0.0, 0.0, 0.0, 0.0, 0.0)",0.33328720146674756,-0.82811801654313,-1.9170471854650495,"(0.0, 0.0, 0.0, 0.0, 0.0, 0.0)",0.0461231568532664,-0.6714856430871471,1.9062838156572566,"(0.0, 0.0, 0.0, 0.0, 0.0, 0.0)",-0.33328790347714454,0.8281169644874314,1.917075241812861,"(0.0, 0.0, 0.0, 0.0, 0.0, 0.0)",-0.04612351986457081,False,,,,,False,,,,
54,Close,,,"(1.201142787701026e-07, 0.1699990593750365, 0.0008764159571233717)","(1.5708117502799854, 9.720147739875066e-05, -1.4011842957469135e-05)",,"[-0.026750000193715096, 0.05299999937415123, 0.03999999910593033]","[0.0, -0.0, 0.6714856028191667]","[-0.07154478132724762, 0.10936867445707321, 0.03999999910593033]","[0.0, 0.0, -0.1566324602805662]","[0.026750000193715096, 0.05299999937415123, 0.03999999910593033]","[0.0, 0.0, -0.6714856028191667]","[0.07154478132724762, 0.10936867445707321, 0.03999999910593033]","[0.0, -0.0, 0.15663130155257995]",0.6643370027877683,-1.7156534076738226,"(0.0, 0.0, 0.0, 0.0, 0.0, 0.0)",0.30000166468946887,-0.8353068710937589,-1.7253250921509458,"(0.0, 0.0, 0.0, 0.0, 0.0, 0.0)",0.041540284771796165,-0.6643370787784324,1.7156554340915304,"(0.0, 0.0, 0.0, 0.0, 0.0, 0.0)",-0.3000022969997827,0.8353059242487986,1.725350342728124,"(0.0, 0.0, 0.0, 0.0, 0.0, 0.0)",-0.041540611950472935,False,,,,,False,,,,
55,Close,,,"(1.1037647424359984e-07, 0.16999906015252483, 0.0008854442581506275)","(1.5708105651429114, 8.758832292823178e-05, -1.4008951415989527e-05)",,"[-0.026750000193715096, 0.05299999937415123, 0.03999999910593033]","[0.0, -0.0, 0.6643370606126838]","[-0.07114068418741226, 0.1096874549984932, 0.03999999910593033]","[0.0, 0.0, -0.17096987637179278]","[0.026750000193715096, 0.05299999937415123, 0.03999999910593033]","[0.0, 0.0, -0.6643370606126838]","[0.07114069163799286, 0.1096874475479126, 0.03999999910593033]","[0.0, -0.0, 0.17096884643662202]",0.6579033025089914,-1.5440880669064398,"(0.0, 0.0, 0.0, 0.0, 0.0, 0.0)",0.2700364572532802,-0.8417767749452665,-1.5527769243618206,"(0.0, 0.0, 0.0, 0.0, 0.0, 0.0)",0.03741008611729049,-0.6579033709005891,1.5440898906823783,"(0.0, 0.0, 0.0, 0.0, 0.0, 0.0)",-0.27003702673818186,0.8417759227894597,1.5527996497586782,"(0.0, 0.0, 0.0, 0.0, 0.0, 0.0)",-0.03741038095743008,False,,,,,False,,,,
56,Close,,,"(1.0141204673652616e-07, 0.16999906083398159, 0.0008937502707232629)","(1.570809474872104, 7.87434915574051e-05, -1.4006118772737545e-05)",,"[-0.026750000193715096, 0.05299999937415123, 0.03999999910593033]","[0.0, -0.0, 0.6579033304946226]","[-0.07077505439519882, 0.10997187346220016, 0.03999999910593033]","[0.0, 0.0, -0.18387348897538708]","[0.026750000193715096, 0.05299999937415123, 0.03999999910593033]","[0.0, 0.0, -0.6579033304946226]","[0.07077506184577942, 0.10997187346220016, 0.03999999910593033]","[0.0, -0.0, 0.1838725619548152]",0.6521129722580923,-1.3896792602157946,"(0.0, 0.0, 0.0, 0.0, 0.0, 0.0)",0.24306111081870946,-0.8475996296201711,-1.3974851219770965,"(0.0, 0.0, 0.0, 0.0, 0.0, 0.0)",0.033688362136148925,-0.6521130338105302,1.38968090161414,"(0.0, 0.0, 0.0, 0.0, 0.0, 0.0)",-0.24306162368353448,0.8475988626841415,1.3975055747236533,"(0.0, 0.0, 0.0, 0.0, 0.0, 0.0)",-0.03368862779939208,False,,,,,False,,,,
57,Close,,,"(9.31587620256511e-08, 0.16999906142715163, 0.0009013917798737923)","(1.570808471873919, 7.060557585400826e-05, -1.4003335136779464e-05)",,"[-0.026750000193715096, 0.05299999937415123, 0.03999999910593033]","[0.0, -0.0, 0.6521129301518677]","[-0.07044443488121033, 0.11022583395242691, 0.03999999910593033]","[0.0, 0.0, -0.19548665573955404]","[0.026750000193715096, 0.05299999937415123, 0.03999999910593033]","[0.0, 0.0, -0.6521129866161153]","[0.07044444233179092, 0.11022583395242691, 0.03999999910593033]","[0.0, -0.0, 0.19548582525750646]",0.646901675032283,-1.2507113341942153,"(0.0, 0.0, 0.0, 0.0, 0.0, 0.0)",0.2187779064062842,-0.8528401458571484,-1.2577238968745574,"(0.0, 0.0, 0.0, 0.0, 0.0, 0.0)",0.03033513071724496,-0.6469017304294772,1.2507128114527255,"(0.0, 0.0, 0.0, 0.0, 0.0, 0.0)",-0.2187783682505172,0.8528394556185027,1.2577423042466835,"(0.0, 0.0, 0.0, 0.0, 0.0, 0.0)",-0.03033537006280305,False,,,,,False,,,,
58,Close,,,"(8.555942447331213e-08, 0.16999906193915107, 0.000908421947674647)","(1.5708075491625393, 6.311807629477444e-05, -1.4000592203169427e-05)",,"[-0.026750000193715096, 0.05299999937415123, 0.03999999910593033]","[0.0, -0.0, 0.6469017074975589]","[-0.0701456218957901, 0.11045276373624802, 0.03999999910593033]","[0.0, 0.0, -0.20593848593871938]","[0.026750000193715096, 0.05299999937415123, 0.03999999910593033]","[0.0, 0.0, -0.6469017640113621]","[0.0701456293463707, 0.11045276373624802, 0.03999999910593033]","[0.0, -0.0, 0.2059377054983325]",0.6422115075290548,-1.1256402007747932,"(0.0, 0.0, 0.0, 0.0, 0.0, 0.0)",0.19691865600140895,-0.8575565627499749,-1.1319400542783593,"(0.0, 0.0, 0.0, 0.0, 0.0, 0.0)",0.027314243362735774,-0.6422115573865295,1.1256415303074527,"(0.0, 0.0, 0.0, 0.0, 0.0, 0.0)",-0.19691907187647334,0.8575559415385998,1.1319566208232932,"(0.0, 0.0, 0.0, 0.0, 0.0, 0.0)",-0.027314458975022625,False,,,,,False,,,,
59,Move,,,"(7.856146500561274e-08, 0.16999906237651882, 0.0009148896830877347)","(1.5708067003113224, 5.6229009009845055e-05, -1.399788300299107e-05)","[0.0, 0.0, 0.0]","[-0.026750000193715096, 0.05299999937415123, 0.03999999910593033]","[0.0, -0.0, 0.6422115222668433]","[-0.06987567991018295, 0.11065566539764404, 0.03999999910593033]","[0.0, 0.0, -0.21534502689171695]","[0.026750000193715096, 0.05299999937415123, 0.03999999910593033]","[0.0, 0.0, -0.6422115222668433]","[0.06987568736076355, 0.11065565794706345, 0.03999999910593033]","[0.0, -0.0, 0.2153443918565048]",0.6379903567761492,-1.0130761806973148,"(0.0, 0.0, 0.0, 0.0, 0.0, 0.0)",0.17724179525373857,-0.861801294967015,-1.0187357320896053,"(0.0, 0.0, 0.0, 0.0, 0.0, 0.0)",0.024593033118920006,-0.6379904016478766,1.0130773772767077,"(0.0, 0.0, 0.0, 0.0, 0.0, 0.0)",-0.1772421697155535,0.8618007358798453,1.0187506418989196,"(0.0, 0.0, 0.0, 0.0, 0.0, 0.0)",-0.024593227332916724,False,,,,,False,,,,
60,Move,,,"(7.401516452493873e-08, 0.16999906300717518, 0.0009208949427311885)","(1.5708059692049072, 5.171406878091127e-05, -1.3997173418156156e-05)","[-4.546300480674002e-09, 6.306563604674409e-10, 6.005259643453772e-06]","[-0.026750000193715096, 0.05299999937415123, 0.03999999910593033]","[0.0, -0.0, 0.6379903239810443]","[-0.06963192671537399, 0.1108371913433075, 0.03999999910593033]","[0.0, 0.0, -0.2238109552587812]","[0.026750000193715096, 0.05299999937415123, 0.03999999910593033]","[0.0, 0.0, -0.6379904179642307]","[0.06963192671537399, 0.1108371838927269, 0.03999999910593033]","[0.0, -0.0, 0.22381033482023305]",0.615110639462399,-5.491132155300077,"(0.0, 0.0, 0.0, 0.0, 0.0, 0.0)",-6.452665348763696,-0.8613763884842398,0.10197755586604229,"(0.0, 0.0, 0.0, 0.0, 0.0, 0.0)",-0.36782542138199165,-0.6151107211023208,5.491123330933392,"(0.0, 0.0, 0.0, 0.0, 0.0, 0.0)",6.4526488408560905,0.8613758231880564,-0.10197904602934349,"(0.0, 0.0, 0.0, 0.0, 0.0, 0.0)",0.36782252911949487,False,,,,,False,,,,
61,Move,,,"(6.525734425186348e-05, 0.17034549853437667, 0.001059997142676121)","(1.5643418998519334, 0.00019756355969089426, -0.0007979474479338168)","[6.517878278685787e-05, 0.00034643615785784343, 0.00014510745958838623]","[-0.026750000193715096, 0.05299999937415123, 0.03999999910593033]","[0.0, -0.0, 0.6151107619663475]","[-0.06829752027988434, 0.1118030920624733, 0.03999999910593033]","[0.0, 0.0, -0.24626574387408112]","[0.026750000193715096, 0.05299999937415123, 0.03999999910593033]","[0.0, 0.0, -0.6151107619663475]","[0.06829752773046494, 0.1118030920624733, 0.03999999910593033]","[0.0, -0.0, 0.24626510812228053]",0.59557520589455,-4.68850405628373,"(0.0, 0.0, 0.0, 0.0, 0.0, 0.0)",-45.004877301260535,-0.841587039207075,4.749443826519566,"(0.0, 0.0, 0.0, 0.0, 0.0, 0.0)",-23.059879711313982,-0.5955448471476087,4.6958097491309045,"(0.0, 0.0, 0.0, 0.0, 0.0, 0.0)",43.2331221848827,0.8422035798107438,-4.601338410555013,"(0.0, 0.0, 0.0, 0.0, 0.0, 0.0)",22.069611273367745,True,"(-0.03288698015965098, 0.18306432161630465, 0.039999948285931244)","(0.9999999985648672, -1.399717339714095e-05, -5.171406875791205e-05)",0.0009292587523792685,356.63318049990795,True,"(0.032887031061809374, 0.18306436848012048, 0.04000005171406876)","(-0.9999999985648671, 1.3997173395198976e-05, 5.171406875668148e-05)",0.0009247539911204204,342.7710504396539
62,Move,"(0.0, 0.0, 0.0)","(0.0, -0.0, 0.0)","(0.00016176697229314485, 0.17076934431250207, 0.001298992481510786)","(1.553459115144406, 0.0004787126916021603, -0.0016283617000435679)","[0.00016168841082813925, 0.0007702819359832469, 0.0003841027984230513]","[-0.026750000193715096, 0.05299999937415123, 0.03999999910593033]","[0.0, -0.0, 0.5955751094143519]","[-0.06714092195034027, 0.11260347068309784, 0.03999999910593033]","[0.0, 0.0, -0.24601185159459507]","[0.026750000193715096, 0.05299999937415123, 0.03999999910593033]","[0.0, 0.0, -0.5955448282145998]","[0.06713911145925522, 0.11260469257831573, 0.03999999910593033]","[0.0, -0.0, 0.24665872904210193]",0.5770970782178444,-4.434750642409365,"(0.0, 0.0, 0.0, 0.0, 0.0, 0.0)",-74.21698749878065,-0.811850997818181,7.136649933334551,"(0.0, 0.0, 0.0, 0.0, 0.0, 0.0)",-37.92588619525253,-0.5770027641966642,4.450099908226674,"(0.0, 0.0, 0.0, 0.0, 0.0, 0.0)",71.59541053355323,0.8135423707664626,-6.878690170627483,"(0.0, 0.0, 0.0, 0.0, 0.0, 0.0)",36.485404729774935,True,"(-0.03174847742362094, 0.1838726496858637, 0.03999980243644159)","(0.9999996621242782, -0.0007979473476813144, -0.0001975635584110712)",-0.00012778812911608492,569.3446982775357,True,"(0.031700570614753176, 0.18385320841010633, 0.0400001975635584)","(-0.9999996621242783, 0.0007979473476767542, 0.0001975635584049517)",-0.0003431682129125587,549.2893233704585
63,Move,"(-0.00063291139240506, 0.0, 0.00063291139240506)","(0.0, -0.0, 0.0)","(0.00020568050408397375, 0.17108007690663649, 0.0015665957858292871)","(1.5453980212159237, 0.00011151380297923225, -0.0017071234802152205)","[0.00020560194261896815, 0.0010810145301176632, 0.0006517061027415524]","[-0.026750000193715096, 0.05299999937415123, 0.03999999910593033]","[0.0, -0.0, 0.5770971029289548]","[-0.06603273004293442, 0.11333960294723511, 0.03999999910593033]","[0.0, 0.0, -0.23475391897699402]","[0.026750000193715096, 0.05299999937415123, 0.03999999910593033]","[0.0, 0.0, -0.5770027543990871]","[0.06602703779935837, 0.11334330588579178, 0.03999999910593033]","[0.0, -0.0, 0.23653961426052006]",0.579404895675538,0.5538761898464655,"(0.0, 0.0, 0.0, 0.0, 0.0, 0.0)",6.4633983195225495,-0.8148246019570704,-0.7136649933334551,"(0.0, 0.0, 0.0, 0.0, 0.0, 0.0)",-0.3132438216507522,-0.5792909153140746,-0.5491562681785016,"(0.0, 0.0, 0.0, 0.0, 0.0, 0.0)",-6.16852739973914,0.8163981315451861,0.6853825868936365,"(0.0, 0.0, 0.0, 0.0, 0.0, 0.0)",0.4843271556067679,True,"(-0.03144479909141533, 0.18499061278782541, 0.039999521287326686)","(0.9999985596366134, -0.0016283607938474471, -0.0004787126733201028)",-0.00031179486038545077,0.0,True,"(0.0313112124765586, 0.1849374824167095, 0.040000478712673315)","(-0.9999985596366132, 0.0016283607938671909, 0.0004787126733090728)",-0.0008521962835819142,2.606367117194445
64,Move,"(-0.00126582278481012, 0.0, 0.00126582278481012)","(0.0, -0.0, 0.0)","(0.00022497095126165192, 0.17132446138425714, 0.0017814182183907201)","(1.5389929495124148, -0.0005690170737388097, -0.0014794838585472016)","[0.00022489238979664632, 0.0013253990077383149, 0.0008665285353029854]","[-0.026750000193715096, 0.05299999937415123, 0.03999999910593033]","[0.0, -0.0, 0.579404963823502]","[-0.06617187708616257, 0.1132487803697586, 0.03999999910593033]","[0.0, 0.0, -0.23541970778940716]","[0.026750000193715096, 0.05299999937415123, 0.03999999910593033]","[0.0, 0.0, -0.5792908612503161]","[0.0661650076508522, 0.11325327306985855, 0.03999999910593033]","[0.0, -0.0, 0.23710723316040327]",0.5799786549498643,0.13770222583832048,"(0.0, 0.0, 0.0, 0.0, 0.0, 0.0)",-0.5249463466894377,-0.8145272415431815,0.0713664993333446,"(0.0, 0.0, 0.0, 0.0, 0.0, 0.0)",0.0403957397704233,-0.5795251735847871,-0.05622198497098896,"(0.0, 0.0, 0.0, 0.0, 0.0, 0.0)",0.8146204119164709,0.8161091117998417,-0.06936473888266492,"(0.0, 0.0, 0.0, 0.0, 0.0, 0.0)",0.07352237804490877,True,"(-0.03153624923514486, 0.18487733778001617, 0.039999888486197246)","(0.9999985366474105, -0.001707122640433851, -0.00011151380275540046)",-0.00019027644015300206,0.0,True,"(0.031408552968427136, 0.18482838253269274, 0.04000011151380275)","(-0.9999985366474103, 0.0017071226404405677, 0.0001115138027507468)",-0.000784928296535469,1.324356787740902
65,Move,"(-0.00189873417721519, 0.0, 0.00189873417721519)","(0.0, -0.0, 0.0)","(0.00020870813894849547, 0.17150117206337853, 0.001939808219645615)","(1.534397120943626, -0.0005438439465408303, 0.0002728133082815345)","[0.00020862957748348987, 0.0015021096868597095, 0.0010249185365578803]","[-0.026750000193715096, 0.05299999937415123, 0.03999999910593033]","[0.0, -0.0, 0.5799785678218053]","[-0.0662064403295517, 0.11322615295648575, 0.03999999910593033]","[0.0, 0.0, -0.23454859369958822]","[0.026750000193715096, 0.05299999937415123, 0.03999999910593033]","[0.0, 0.0, -0.579525231085111]","[0.06617911905050278, 0.11324404180049896, 0.03999999910593033]","[0.0, -0.0, 0.23658394442610992]",0.5806586797993306,0.16320596387191436,"(0.0, 0.0, 0.0, 0.0, 0.0, 0.0)",0.028884983664497595,-0.8145569775845704,-0.007136649933334738,"(0.0, 0.0, 0.0, 0.0, 0.0, 0.0)",-0.005800146517975064,-0.579614297059876,-0.021389634021348435,"(0.0, 0.0, 0.0, 0.0, 0.0, 0.0)",0.5760937905392914,0.8160293799104938,-0.019135653443476536,"(0.0, 0.0, 0.0, 0.0, 0.0, 0.0)",0.31850256005800703,True,"(-0.03163322212153211, 0.18488421031292357, 0.04000056901704304)","(0.9999987436739223, -0.0014794830793033987, 0.0005690170430445544)",-0.00010353206934092582,0.0,True,"(0.03146012391478377, 0.18483657416021065, 0.039999430982956975)","(-0.9999987436739223, 0.001479483079279369, -0.0005690170430264958)",-0.0007231297083996135,3.9654865744081023
66,Move,"(-0.00253164556962025, 0.0, 0.00253164556962025)","(0.0, -0.0, 0.0)","(0.00019567085059819938, 0.1716168494356611, 0.0020459191349942417)","(1.5314257182807696, -0.0004992495093651641, 0.0017120693927740681)","[0.00019559228913319378, 0.0016177870591422838, 0.001131029451906507]","[-0.026750000193715096, 0.05299999937415123, 0.03999999910593033]","[0.0, -0.0, 0.5806586465866594]","[-0.0662473812699318, 0.11319930851459503, 0.03999999910593033]","[0.0, 0.0, -0.23389829959434216]","[0.026750000193715096, 0.05299999937415123, 0.03999999910593033]","[0.0, 0.0, -0.5796143047395873]","[0.06618449091911316, 0.11324052512645721, 0.03999999910593033]","[0.0, -0.0, 0.236415083290228]",0.5816557707454656,0.2393018270724037,"(0.0, 0.0, 0.0, 0.0, 0.0, 0.0)",0.11263090843789252,-0.8145540039804314,0.0007136649933334738,"(0.0, 0.0, 0.0, 0.0, 0.0, 0.0)",0.009197499119320093,-0.5797733498901827,-0.0381726792736118,"(0.0, 0.0, 0.0, 0.0, 0.0, 0.0)",0.08932921906464533,0.8160151345864834,-0.0034188777625061804,"(0.0, 0.0, 0.0, 0.0, 0.0, 0.0)",0.06674389095591791,True,"(-0.031720773694911275, 0.18488093446200565, 0.04000054384391973)","(0.9999998149033398, 0.00027281326455048466, 0.0005438439197305352)",-5.487254127018732e-05,0.0,True,"(0.03147758085945758, 0.184837000177563, 0.039999456156080256)","(-0.9999998149033397, -0.000272813264556212, -0.0005438439197419132)",-0.0006667955571148765,0.8572701291766639
67,Move,"(-0.00316455696202531, 0.0, 0.00316455696202531)","(0.0, -0.0, 0.0)","(0.00018233009670932783, 0.17167430900957825, 0.0020992642437606085)","(1.530132504449988, -0.00046970089965383605, 0.0026245481887278116)","[0.00018225153524432223, 0.0016752466330594296, 0.0011843745606728738]","[-0.026750000193715096, 0.05299999937415123, 0.03999999910593033]","[0.0, -0.0, 0.5816557737443411]","[-0.06630738824605942, 0.1131598949432373, 0.03999999910593033]","[0.0, 0.0, -0.23289821214541753]","[0.026750000193715096, 0.05299999937415123, 0.03999999910593033]","[0.0, 0.0, -0.5797733484257824]","[0.0661940723657608, 0.1132342517375946, 0.03999999910593033]","[0.0, -0.0, 0.23624174228718037]",0.5828982455413875,0.29819395102125057,"(0.0, 0.0, 0.0, 0.0, 0.0, 0.0)",0.08644565051114486,-0.8145543013408453,-7.136649933414674e-05,"(0.0, 0.0, 0.0, 0.0, 0.0, 0.0)",0.006369612448122126,-0.5799281216413307,-0.03714522027550696,"(0.0, 0.0, 0.0, 0.0, 0.0, 0.0)",0.21918457898712407,0.8159634600192722,-0.012401896130685477,"(0.0, 0.0, 0.0, 0.0, 0.0, 0.0)",0.1289239304576245,True,"(-0.03185248237531638, 0.1848764542385965, 0.04000049924948861)","(0.999998409784704, 0.001712068343011074, 0.0004992494886104763)",4.645291933323371e-05,0.0,True,"(0.03149957128209638, 0.1848351282633477, 0.03999950075051138)","(-0.9999984097847041, -0.0017120683430037994, -0.0004992494886170546)",-0.0006145696342808788,1.669975986735355
68,Move,"(-0.00379746835443038, 0.0, 0.00379746835443038)","(0.0, -0.0, 0.0)","(0.00016437067781045072, 0.17168835764760818, 0.002099526274229195)","(1.5305307050240136, -0.00045467208812366086, 0.0028089253363195476)","[0.00016429211634544512, 0.0016892952710893527, 0.0011846365911414602]","[-0.026750000193715096, 0.05299999937415123, 0.03999999910593033]","[0.0, -0.0, 0.5828983114327645]","[-0.06638210266828537, 0.11311069875955582, 0.03999999910593033]","[0.0, 0.0, -0.23165603644358385]","[0.026750000193715096, 0.05299999937415123, 0.03999999910593033]","[0.0, 0.0, -0.5799280651359108]","[0.06620339304208755, 0.11322814971208572, 0.03999999910593033]","[0.0, -0.0, 0.23603531033613173]",0.5843725957581867,0.353844052031814,"(0.0, 0.0, 0.0, 0.0, 0.0, 0.0)",0.0817960808805745,-0.8145542716048039,7.136649932348846e-06,"(0.0, 0.0, 0.0, 0.0, 0.0, 0.0)",0.00611074000345687,-0.580065813609008,-0.03304607224256916,"(0.0, 0.0, 0.0, 0.0, 0.0, 0.0)",0.41067917823519073,0.8158762546859184,-0.020929280004921114,"(0.0, 0.0, 0.0, 0.0, 0.0, 0.0)",0.22386366042596664,True,"(-0.03201630929291145, 0.18486967282647487, 0.04000046970088239)","(0.999996445566294, 0.0026245448861197656, 0.0004697008823841288)",0.00018609169863808075,0.0,True,"(0.03152367814316573, 0.18483506481736428, 0.03999953029911763)","(-0.9999964455662937, -0.0026245448861273108, -0.00046970088236444093)",-0.0005664197603066602,3.0811622927345623
69,Move,"(-0.004430379746835441, 0.0, 0.004430379746835441)","(0.0, -0.0, 0.0)","(0.00014232787859841064, 0.17169015140236993, 0.002054846457075243)","(1.5323742769945157, -0.00046025092644211225, 0.0027577873266961496)","[0.00014224931713340504, 0.0016910890258511058, 0.0011399567739875083]","[-0.026750000193715096, 0.05299999937415123, 0.03999999910593033]","[0.0, -0.0, 0.5843725926236729]","[-0.0664706826210022, 0.11305220425128937, 0.03999999910593033]","[0.0, 0.0, -0.2301816718531658]","[0.026750000193715096, 0.05299999937415123, 0.03999999910593033]","[0.0, 0.0, -0.5800658828084065]","[0.06621168553829193, 0.11322271078824997, 0.03999999910593033]","[0.0, -0.0, 0.2358104232749705]",0.5860633085705311,0.4057710749626792,"(0.0, 0.0, 0.0, 0.0, 0.0, 0.0)",0.0763356241289219,-0.814554274578408,-7.13664993767793e-07,"(0.0, 0.0, 0.0, 0.0, 0.0, 0.0)",0.005695192513362516,-0.5801719343612435,-0.025468980536516816,"(0.0, 0.0, 0.0, 0.0, 0.0, 0.0)",0.4584056227151796,0.8158060485859336,-0.016849463996354553,"(0.0, 0.0, 0.0, 0.0, 0.0, 0.0)",0.2232040918482129,True,"(-0.03221072325230697, 0.18486047614584378, 0.04000045467207245)","(0.9999959516088771, 0.0028089213522246846, 0.0004546720724488997)",0.0003607317357274146,0.0,True,"(0.03154807683959425, 0.18483702012153713, 0.03999954532792754)","(-0.9999959516088771, -0.0028089213522329037, -0.00045467207246576216)",-0.0005222544415289612,3.367179943213833
70,Move,"(-0.0050632911392405, 0.0, 0.0050632911392405)","(0.0, -0.0, 0.0)","(0.00011820570958652863, 0.1716833532819157, 0.0019644036194767086)","(1.5356708684051084, -0.0004729890681313033, 0.0025117618851711937)","[0.00011812714812152301, 0.0016842909053968735, 0.001049513936388974]","[-0.026750000193715096, 0.05299999937415123, 0.03999999910593033]","[0.0, -0.0, 0.5860633404850325]","[-0.0665721595287323, 0.11298496276140213, 0.03999999910593033]","[0.0, 0.0, -0.22849097702487006]","[0.026750000193715096, 0.05299999937415123, 0.03999999910593033]","[0.0, 0.0, -0.5801719918042595]","[0.06621807813644409, 0.1132185235619545, 0.03999999910593033]","[0.0, -0.0, 0.23563411103415385]",0.587954594169889,0.4539085438459001,"(0.0, 0.0, 0.0, 0.0, 0.0, 0.0)",0.07078721727784888,-0.8145542742810477,7.13664993767793e-08,"(0.0, 0.0, 0.0, 0.0, 0.0, 0.0)",0.005282755039789187,-0.5802392037404276,-0.016144651004178733,"(0.0, 0.0, 0.0, 0.0, 0.0, 0.0)",0.44814771477888565,0.8157160083941201,-0.02160964603525463,"(0.0, 0.0, 0.0, 0.0, 0.0, 0.0)",0.21824782477139745,True,"(-0.03243364700599635, 0.18484931323578563, 0.04000046025091019)","(0.9999960913918875, 0.002757783538931074, 0.0004602509101927096)",0.0005620937459175283,0.0,True,"(0.03156709590103848, 0.18483881790211504, 0.039999539749089805)","(-0.9999960913918875, -0.002757783538937077, -0.00046025091019424993)",-0.0004816287377874202,3.2794980989169327
71,Move,"(-0.00569620253164556, 0.0, 0.00569620253164556)","(0.0, -0.0, 0.0)","(8.974897902064448e-05, 0.1716712145601122, 0.0018280740039003467)","(1.5404221104300126, -0.0004864957443029921, 0.002158529364980901)","[8.967041755563887e-05, 0.0016721521835933728, 0.000913184320812612]","[-0.026750000193715096, 0.05299999937415123, 0.03999999910593033]","[0.0, -0.0, 0.5879546861536593]","[-0.06668553501367569, 0.11290954053401947, 0.03999999910593033]","[0.0, 0.0, -0.2265996729243233]","[0.026750000193715096, 0.05299999937415123, 0.03999999910593033]","[0.0, 0.0, -0.580239211071958]","[0.06622213125228882, 0.113215871155262, 0.03999999910593033]","[0.0, -0.0, 0.23547679755051595]",0.5900379333979978,0.5000014147461131,"(0.0, 0.0, 0.0, 0.0, 0.0, 0.0)",0.06779902632723474,-0.8145542743107836,-7.136648605410301e-09,"(0.0, 0.0, 0.0, 0.0, 0.0, 0.0)",0.005060360000970923,-0.5802598561343105,-0.004956574531899122,"(0.0, 0.0, 0.0, 0.0, 0.0, 0.0)",0.45986949083423023,0.8156252169425424,-0.021789948378641934,"(0.0, 0.0, 0.0, 0.0, 0.0, 0.0)",0.22410749223581947,True,"(-0.032682993774537934, 0.18483619074568053, 0.040000472989050496)","(0.9999967336688003, 0.002511758963112538, 0.00047298905049804763)",0.0007900657540367633,0.0,True,"(0.03158241343988101, 0.1848417015332565, 0.03999952701094951)","(-0.9999967336688002, -0.002511758963115636, -0.00047298905048842366)",-0.00044485343495121517,3.3443590289633023
72,Move,"(-0.006329113924050631, 0.0, 0.006329113924050631)","(0.0, -0.0, 0.0)","(5.52006610947995e-05, 0.17165519867373819, 0.0016458423361708843)","(1.5466266336086147, -0.0004967767060266078, 0.001718938428982708)","[5.512209962979389e-05, 0.0016561362972193627, 0.0007309526530831496]","[-0.026750000193715096, 0.05299999937415123, 0.03999999910593033]","[0.0, -0.0, 0.5900379192144084]","[-0.06681026518344879, 0.11282620579004288, 0.03999999910593033]","[0.0, 0.0, -0.22451631952128107]","[0.026750000193715096, 0.05299999937415123, 0.03999999910593033]","[0.0, 0.0, -0.5802598549152138]","[0.0662233754992485, 0.11321505904197693, 0.03999999910593033]","[0.0, -0.0, 0.2353653532762656]",0.5923050227550062,0.5441014456820215,"(0.0, 0.0, 0.0, 0.0, 0.0, 0.0)",0.06488656943184318,-0.81455427430781,7.136637947269264e-10,"(0.0, 0.0, 0.0, 0.0, 0.0, 0.0)",0.004843747643487365,-0.5802265831166437,0.007985524240060233,"(0.0, 0.0, 0.0, 0.0, 0.0, 0.0)",0.4728465002526692,0.8155401008631228,-0.020427859060710502,"(0.0, 0.0, 0.0, 0.0, 0.0, 0.0)",0.23013580203042433,True,"(-0.032957631984734836, 0.18482110765361914, 0.04000048649572511)","(0.9999975520376183, 0.0021585274333568607, 0.00048649572510939943)",0.0010403457557467348,0.0,True,"(0.03159163896180382, 0.18484498805275434, 0.039999513504274886)","(-0.9999975520376182, -0.0021585274333542057, -0.00048649572511186165)",-0.00041118012781624644,3.422088190297698
73,Move,"(-0.006962025316455691, 0.0, 0.006962025316455691)","(0.0, -0.0, 0.0)","(1.3249998754290027e-05, 0.17163619458033, 0.0014177747297025645)","(1.5542825105925067, -0.0005023654260049323, 0.001190354137923655)","[1.3171437289284415e-05, 0.0016371322038111757, 0.0005028850466148298]","[-0.026750000193715096, 0.05299999937415123, 0.03999999910593033]","[0.0, -0.0, 0.5923049957851719]","[-0.06694579124450684, 0.11273523420095444, 0.03999999910593033]","[0.0, 0.0, -0.2222492822346589]","[0.026750000193715096, 0.05299999937415123, 0.03999999910593033]","[0.0, 0.0, -0.5802265138009357]","[0.06622137129306793, 0.11321637034416199, 0.03999999910593033]","[0.0, -0.0, 0.2353135416321312]",0.5947473600829114,0.5861609586972526,"(0.0, 0.0, 0.0, 0.0, 0.0, 0.0)",0.061903718495615434,-0.8145542743081073,-7.136691237974446e-11,"(0.0, 0.0, 0.0, 0.0, 0.0, 0.0)",0.0046219044844872026,-0.5801328682553138,0.02249156671915771,"(0.0, 0.0, 0.0, 0.0, 0.0, 0.0)",0.4852236288061992,0.8154620632942912,-0.018729016519586746,"(0.0, 0.0, 0.0, 0.0, 0.0, 0.0)",0.23569474307440172,True,"(-0.03325645769587714, 0.1848039889830428, 0.0400004967766856)","(0.9999983992323396, 0.0017189373703738646, 0.0004967766855939399)",0.0013099501988178392,0.0,True,"(0.03159334822827539, 0.18484848448356794, 0.0399995032233144)","(-0.9999983992323394, -0.0017189373703823826, -0.0004967766855991643)",-0.0003801704702944828,3.498230521833413
74,Move,"(-0.00759493670886076, 0.0, 0.00759493670886076)","(0.0, -0.0, 0.0)","(-3.727910436942142e-05, 0.1716149729878381, 0.0011439745028847626)","(1.563387292171212, -0.0005024651883152532, 0.0005641646277334856)","[-3.735766583442703e-05, 0.0016159106113192712, 0.00022908481979702785]","[-0.026750000193715096, 0.05299999937415123, 0.03999999910593033]","[0.0, -0.0, 0.5947473907368569]","[-0.06709156185388565, 0.11263688653707504, 0.03999999910593033]","[0.0, 0.0, -0.21980693165953677]","[0.026750000193715096, 0.05299999937415123, 0.03999999910593033]","[0.0, 0.0, -0.5801328847035647]","[0.06621572375297546, 0.11322006583213806, 0.03999999910593033]","[0.0, -0.0, 0.23532919998814447]",0.597355923363684,0.6260551873854244,"(0.0, 0.0, 0.0, 0.0, 0.0, 0.0)",0.05873725546277314,-0.8145542743080776,7.135625423870806e-12,"(0.0, 0.0, 0.0, 0.0, 0.0, 0.0)",0.004386387335574615,-0.5799723411884178,0.038526496055056064,"(0.0, 0.0, 0.0, 0.0, 0.0, 0.0)",0.4975593490396949,0.8153909599640468,-0.01706479925865442,"(0.0, 0.0, 0.0, 0.0, 0.0, 0.0)",0.24109205219623414,True,"(-0.033578339825713906, 0.1847847340188334, 0.040000502365404866)","(0.9999991653431783, 0.001190353706603951, 0.0005023654048704592)",0.0015965285579908365,0.0,True,"(0.031586581099747685, 0.18485218465148742, 0.039999497634595114)","(-0.9999991653431783, -0.00119035370660144, -0.0005023654048854621)",-0.0003515806150680055,3.5746876767800413
75,Move,"(-0.00822784810126582, 0.0, 0.00822784810126582)","(0.0, -0.0, 0.0)","(-9.229418610155748e-05, 0.17165847534211456, 0.0009624259679142492)","(1.569938175066125, 2.7145775422948845e-05, 0.0022278773036103847)","[-9.23727475665631e-05, 0.0016594129655957413, 4.753628482651452e-05]","[-0.026750000193715096, 0.05299999937415123, 0.03999999910593033]","[0.0, -0.0, 0.5973559300466648]","[-0.06724699586629868, 0.11253144592046738, 0.03999999910593033]","[0.0, 0.0, -0.21719836914311333]","[0.026750000193715096, 0.05299999937415123, 0.03999999910593033]","[0.0, 0.0, -0.5799723790075528]","[0.06620606034994125, 0.11322639882564545, 0.03999999910593033]","[0.0, -0.0, 0.2354186275318433]",0.6001210154414361,0.663622098660511,"(0.0, 0.0, 0.0, 0.0, 0.0, 0.0)",0.055332395690218375,-0.8145542743080806,-7.140954494389007e-13,"(0.0, 0.0, 0.0, 0.0, 0.0, 0.0)",0.0041330988901610455,-0.5797344083786595,0.05710387434198663,"(0.0, 0.0, 0.0, 0.0, 0.0, 0.0)",0.7957383250757424,0.8153866806675861,-0.0010270311505493068,"(0.0, 0.0, 0.0, 0.0, 0.0, 0.0)",0.40185236672255625,False,,,,,True,"(0.03157050750764616, 0.18485613785163302, 0.039999497534832826)","(-0.9999997146235305, -0.000564164526586048, -0.0005024651671749892)",-0.00032522785450107936,5.795579847987349
76,Move,"(-0.00822784810126582, 0.0, 0.00822784810126582)","(0.0, -0.0, 0.0)","(-0.00019563183073420477, 0.17176002064076729, 0.0009704404022170334)","(1.5725452462854916, 0.0023626491136245586, 0.005618591012478533)","[-0.00019571039219921037, 0.0017609582642484634, 5.5550719129298667e-05]","[-0.026750000193715096, 0.05299999937415123, 0.03999999910593033]","[0.0, -0.0, 0.6001209853834854]","[-0.06741145253181458, 0.1124192476272583, 0.03999999910593033]","[0.0, 0.0, -0.21443327433951317]","[0.026750000193715096, 0.05299999937415123, 0.03999999910593033]","[0.0, 0.0, -0.579734526944662]","[0.06619172543287277, 0.11323578655719757, 0.03999999910593033]","[0.0, -0.0, 0.2356522382882178]",0.6030321609511399,0.6986749223288946,"(0.0, 0.0, 0.0, 0.0, 0.0, 0.0)",0.051652740326668306,-0.8145542743080803,7.194245199571014e-14,"(0.0, 0.0, 0.0, 0.0, 0.0, 0.0)",0.0038593135858377495,-0.5794208103699788,0.07526352208337093,"(0.0, 0.0, 0.0, 0.0, 0.0, 0.0)",1.0417478692307411,0.8152632970807118,-0.029612060849836218,"(0.0, 0.0, 0.0, 0.0, 0.0, 0.0)",0.5979721545988413,False,,,,,True,"(0.03153944299764126, 0.18485599930675214, 0.04000002714577542)","(-0.9999975179139409, -0.00222787545979778, 2.714577542087051e-05)",-0.00029999778391538766,7.769751240592901
77,Move,"(-0.00822784810126582, 0.0, 0.00822784810126582)","(0.0, -0.0, 0.0)","(-0.002091640165270255, 0.17189730483099838, 0.0012161064870066201)","(1.5649050546597976, -0.012871164314447566, 0.036251468112098076)","[-0.0020917187267352607, 0.0018982424544795595, 0.00030121680391888544]","[-0.026750000193715096, 0.05299999937415123, 0.03999999910593033]","[0.0, -0.0, 0.6030321767881383]","[-0.06758425384759903, 0.11230061948299408, 0.03999999910593033]","[0.0, 0.0, -0.21152215316935516]","[0.026750000193715096, 0.05299999937415123, 0.03999999910593033]","[0.0, 0.0, -0.5794209258633124]","[0.06617283821105957, 0.11324815452098846, 0.03999999910593033]","[0.0, -0.0, 0.2358424947055749]",0.5802147810318841,-5.476171180621382,"(0.0, 0.0, 0.0, 0.0, 0.0, 0.0)",-9.066199174545112,-0.8145542743080803,-7.993605777301127e-15,"(0.0, 0.0, 0.0, 0.0, 0.0, 0.0)",-0.6762783856118094,-0.5573867486812865,5.288174805286174,"(0.0, 0.0, 0.0, 0.0, 0.0, 0.0)",23.68583620765439,0.8147812721370319,-0.11568598648317097,"(0.0, 0.0, 0.0, 0.0, 0.0, 0.0)",9.820574952537179,False,,,,,True,"(0.031506944316506844, 0.18485857207546422, 0.040002362646915535)","(-0.9999814247489771, -0.005618545769006579, 0.0023626469155334957)",-0.00027663576480486485,122.20175665336106
78,Move,"(-0.00822784810126582, 0.0, 0.00822784810126582)","(0.0, -0.0, 0.0)","(-0.0018898200538833437, 0.17239230325312174, 0.0014773439219652928)","(1.5510315371763452, -0.009225165524304076, 0.041403191442148296)","[-0.0018898986153483494, 0.00239324087660292, 0.0005624542388775581]","[-0.026750000193715096, 0.05299999937415123, 0.03999999910593033]","[0.0, -0.0, 0.5802147874649192]","[-0.06622065603733063, 0.113216832280159, 0.03999999910593033]","[0.0, 0.0, -0.23433945458527705]","[0.026750000193715096, 0.05299999937415123, 0.03999999910593033]","[0.0, 0.0, -0.5573867342686386]","[0.06483586132526398, 0.11410210281610489, 0.03999999910593033]","[0.0, -0.0, 0.25739453876514673]",0.5621954710334492,-4.324634399624359,"(0.0, 0.0, 0.0, 0.0, 0.0, 0.0)",-78.70378484948398,-0.7837103955539092,7.402530901001062,"(0.0, 0.0, 0.0, 0.0, 0.0, 0.0)",-40.63059327076095,-0.5395218849927788,4.28756728524185,"(0.0, 0.0, 0.0, 0.0, 0.0, 0.0)",61.01023991098228,0.7836431047189505,-7.4731601803395336,"(0.0, 0.0, 0.0, 0.0, 0.0, 0.0)",32.927829527504336,True,"(-0.031663164856218035, 0.18491963051162932, 0.04001287578459983)","(0.9992602096164416, 0.03624052641341243, 0.01287080893276595)",-0.0033816329698330544,613.2444108061691,True,"(0.028634790473395712, 0.18494882908283616, 0.040002362646915535)","(-0.9999814247489771, -0.005618545769006579, 0.0023626469155334957)",-0.00023491834968809096,475.9962622462082
79,Move,"(-0.008860759493670881, 0.0, 0.008860759493670881)","(0.0, -0.0, 0.0)","(-0.0017093867729378897, 0.1728063337118064, 0.0017525693187843815)","(1.5360929992639403, -0.005189498825388801, 0.04672529452939997)","[-0.0017094653344028954, 0.0028072713352875756, 0.0008376796356966468]","[-0.026750000193715096, 0.05299999937415123, 0.03999999910593033]","[0.0, -0.0, 0.5621955844769668]","[-0.06512924283742905, 0.1139182522892952, 0.03999999910593033]","[0.0, 0.0, -0.22151492397035402]","[0.026750000193715096, 0.05299999937415123, 0.03999999910593033]","[0.0, 0.0, -0.5395219244534374]","[0.06373826414346695, 0.11477271467447281, 0.03999999910593033]","[0.0, -0.0, 0.24412123926076318]",0.5447768746319015,-4.180463136371449,"(0.0, 0.0, 0.0, 0.0, 0.0, 0.0)",-78.92367127337826,-0.7537196094342502,7.197788668718158,"(0.0, 0.0, 0.0, 0.0, 0.0, 0.0)",-40.42607192065281,-0.5215408087833207,4.315458290269931,"(0.0, 0.0, 0.0, 0.0, 0.0, 0.0)",76.96585386825545,0.752900326162634,-7.378266853515951,"(0.0, 0.0, 0.0, 0.0, 0.0, 0.0)",41.485504798626714,True,"(-0.0314937366943565, 0.1860506637837923, 0.0400092250346607)","(0.9991004952309369, 0.04138960213061163, 0.009225034675605938)",-0.0033034834600106366,593.1988641382196,True,"(0.028481521861672437, 0.18606620151894013, 0.0399907749653244)","(-0.9991004952309369, -0.04138960213061563, -0.009225034675605318)",-0.0006947314944725667,577.6617692722162
80,Move,"(-0.009493670886075951, 0.0, 0.009493670886075951)","(0.0, -0.0, 0.0)","(-0.0017576852389517054, 0.173081130815554, 0.0020586282728697067)","(1.5254416086251992, -0.0031800366429318287, 0.05182990665269121)","[-0.001757763800416711, 0.0030820684390351905, 0.001143738589781972]","[-0.026750000193715096, 0.05299999937415123, 0.03999999910593033]","[0.0, -0.0, 0.5447768543967999]","[-0.06406236439943314, 0.11457749456167221, 0.03999999910593033]","[0.0, 0.0, -0.20894273134884367]","[0.026750000193715096, 0.05299999937415123, 0.03999999910593033]","[0.0, 0.0, -0.5215408026230292]","[0.0626216009259224, 0.11542778462171555, 0.03999999910593033]","[0.0, -0.0, 0.23135954824648794]",0.5501208228760577,1.2825475785974971,"(0.0, 0.0, 0.0, 0.0, 0.0, 0.0)",7.152731101119178,-0.7567186880462161,-0.7197788668718159,"(0.0, 0.0, 0.0, 0.0, 0.0, 0.0)",-0.268614078625803,-0.5236189507490796,-0.4987540717821606,"(0.0, 0.0, 0.0, 0.0, 0.0, 0.0)",-3.569210638360018,0.7558017553747279,0.6963430109025408,"(0.0, 0.0, 0.0, 0.0, 0.0, 0.0)",1.9485560186980189,True,"(-0.03133596052965834, 0.18711982433639474, 0.040005189408057994)","(0.9988951212968864, 0.04670766524861344, 0.005189475532474969)",-0.0032332199670625085,0.0,True,"(0.028278187119349707, 0.18714731564495393, 0.03999481052446755)","(-0.9988951212969386, -0.04670766524749689, -0.005189475532450043)",-0.001137266969746735,19.79278950115491
81,Move,"(-0.010126582278481011, 0.0, 0.010126582278481011)","(0.0, -0.0, 0.0)","(-0.001857682594011773, 0.1733081488435, 0.002302013924747686)","(1.5167776620127247, -0.0012437610218422029, 0.05604128286735221)","[-0.0018577611554767787, 0.003309086466981165, 0.0013871242416599512]","[-0.026750000193715096, 0.05299999937415123, 0.03999999910593033]","[0.0, -0.0, 0.550120821636328]","[-0.06439089775085449, 0.1143772155046463, 0.03999999910593033]","[0.0, 0.0, -0.20659784642701454]","[0.026750000193715096, 0.05299999937415123, 0.03999999910593033]","[0.0, 0.0, -0.5236189906568631]","[0.06275125592947006, 0.11535310000181198, 0.03999999910593033]","[0.0, -0.0, 0.23218280979323702]",0.5536182896002915,0.8393920138160986,"(0.0, 0.0, 0.0, 0.0, 0.0, 0.0)",-0.5635962881454952,-0.7564187801850195,0.07197788668718186,"(0.0, 0.0, 0.0, 0.0, 0.0, 0.0)",0.03819660105603867,-0.5235583083566429,0.014554174184811974,"(0.0, 0.0, 0.0, 0.0, 0.0, 0.0)",1.5171441850459721,0.7554692272494431,-0.07980675006837024,"(0.0, 0.0, 0.0, 0.0, 0.0, 0.0)",0.48972906085045925,True,"(-0.03183481602758946, 0.18699884712425974, 0.04000317996461016)","(0.9986520815230026, 0.05180644236783988, 0.003180031283199443)",-0.0027651021496853776,0.0,True,"(0.0283490134816497, 0.18704005940176224, 0.039996819968716825)","(-0.998652081523065, -0.051806442366636896, -0.003180031283178946)",-0.0010500747779430353,6.441116403196815
82,Move,"(-0.01075949367088607, 0.0, 0.01075949367088607)","(0.0, -0.0, 0.0)","(-0.002006392091208721, 0.17348973558732833, 0.00248444918621513)","(1.510096468476883, 0.0005768930816183158, 0.05916343999377945)","[-0.002006470652673727, 0.0034906732108095084, 0.001569559503127395]","[-0.026750000193715096, 0.05299999937415123, 0.03999999910593033]","[0.0, -0.0, 0.5536182781842187]","[-0.06460533291101456, 0.11424519866704941, 0.03999999910593033]","[0.0, 0.0, -0.20280048938926146]","[0.026750000193715096, 0.05299999937415123, 0.03999999910593033]","[0.0, 0.0, -0.5235582654928881]","[0.06274747848510742, 0.11535528302192688, 0.03999999910593033]","[0.0, -0.0, 0.23191091265870847]",0.5572221472817419,0.8649258435480975,"(0.0, 0.0, 0.0, 0.0, 0.0, 0.0)",0.029064926829847352,-0.7564487709711392,-0.007197788668718452,"(0.0, 0.0, 0.0, 0.0, 0.0, 0.0)",-0.005843325287910871,-0.5233235969013951,0.05633074925947831,"(0.0, 0.0, 0.0, 0.0, 0.0, 0.0)",0.8965638378085142,0.7554607888735547,-0.002025210213214529,"(0.0, 0.0, 0.0, 0.0, 0.0, 0.0)",0.5207997738345385,True,"(-0.03232527447830286, 0.18699033980510094, 0.04000124436620177)","(0.9984293259882148, 0.056011910037396494, 0.0012437607011595896)",-0.002353516429801608,0.0,True,"(0.028364960910226347, 0.1870471163304178, 0.03999875623929881)","(-0.9984293259882269, -0.05601191003717918, -0.0012437607011810783)",-0.0009683940677278727,6.284686380552842
83,Move,"(-0.01139240506329113, 0.0, 0.01139240506329113)","(0.0, -0.0, 0.0)","(-0.0021155804615050904, 0.1736062765716419, 0.0026554214303964267)","(1.5055561332617702, 0.0005284578249313568, 0.05846513116296444)","[-0.002115659022970096, 0.003607214195123082, 0.001740531747308692]","[-0.026750000193715096, 0.05299999937415123, 0.03999999910593033]","[0.0, -0.0, 0.5572220952432551]","[-0.06482580304145813, 0.1141083762049675, 0.03999999910593033]","[0.0, 0.0, -0.19922665248137217]","[0.026750000193715096, 0.05299999937415123, 0.03999999910593033]","[0.0, 0.0, -0.5233236083476576]","[0.06273283809423447, 0.11536373198032379, 0.03999999910593033]","[0.0, -0.0, 0.23213717702448028]",0.5611628898875894,0.9457782254034086,"(0.0, 0.0, 0.0, 0.0, 0.0, 0.0)",0.11983142418262836,-0.7564457718925272,0.0007197788668715788,"(0.0, 0.0, 0.0, 0.0, 0.0, 0.0)",0.00975161580209667,-0.5231314232406292,0.04612167858381504,"(0.0, 0.0, 0.0, 0.0, 0.0, 0.0)",0.10184280162714977,0.7554536681740845,-0.0017089678728390441,"(0.0, 0.0, 0.0, 0.0, 0.0, 0.0)",0.06744438274152803,True,"(-0.03280590675310415, 0.1869679656205264, 0.039999423106949435)","(0.9982501880207091, 0.05912892110488022, -0.000576893050566191)",-0.001989688959159025,0.0,True,"(0.028334269806430987, 0.1870448908651453, 0.04000057689304963)","(-0.9982501880206834, -0.05912892110532411, 0.0005768930496240975)",-0.0008925688311199913,0.8818270960050819
84,Move,"(-0.0120253164556962, 0.0, 0.0120253164556962)","(0.0, -0.0, 0.0)","(-0.0022193391508120463, 0.17367397445381935, 0.0027719310725208067)","(1.5026955572521363, 0.00048316547409558205, 0.05741762387681821)","[-0.002219417712277052, 0.0036749120773005295, 0.001857041389433072]","[-0.026750000193715096, 0.05299999937415123, 0.03999999910593033]","[0.0, -0.0, 0.5611629550275917]","[-0.06506632268428802, 0.11395785212516785, 0.03999999910593033]","[0.0, 0.0, -0.1952828697628456]","[0.026750000193715096, 0.05299999937415123, 0.03999999910593033]","[0.0, 0.0, -0.5231314579925116]","[0.06272085756063461, 0.11537064611911774, 0.03999999910593033]","[0.0, -0.0, 0.23232227649271567]",0.5653499031957163,1.004883193950442,"(0.0, 0.0, 0.0, 0.0, 0.0, 0.0)",0.08697410491727026,-0.7564460718003884,-7.197788668822369e-05,"(0.0, 0.0, 0.0, 0.0, 0.0, 0.0)",0.006420385493846444,-0.5229282886011147,0.048752313483488255,"(0.0, 0.0, 0.0, 0.0, 0.0, 0.0)",0.32760628687160087,0.7554145340903128,-0.009392180105220008,"(0.0, 0.0, 0.0, 0.0, 0.0, 0.0)",0.18753040579459002,True,"(-0.03333372849765667, 0.1869385223867618, 0.03999947154219962)","(0.9982912615973637, 0.058431821387811056, -0.0005284578003831596)",-0.0015544874526278317,0.0,True,"(0.028308968221073483, 0.18704631971089195, 0.04000052845780035)","(-0.9982912615973639, -0.05843182138780966, 0.000528457800343939)",-0.0008218472138746398,2.4458057995859277
85,Move,"(-0.012658227848101262, 0.0, 0.012658227848101262)","(0.0, -0.0, 0.0)","(-0.00231693673652168, 0.1737068779613473, 0.002834203245272665)","(1.5015168538926145, 0.00044248920281049774, 0.0562575025358915)","[-0.0023170152979866856, 0.0037078155848284666, 0.0019193135621849303]","[-0.026750000193715096, 0.05299999937415123, 0.03999999910593033]","[0.0, -0.0, 0.5653498965526084]","[-0.06532121449708939, 0.1137968897819519, 0.03999999910593033]","[0.0, 0.0, -0.19109617328875633]","[0.026750000193715096, 0.05299999937415123, 0.03999999910593033]","[0.0, 0.0, -0.5229283190489932]","[0.06270818412303925, 0.11537795513868332, 0.03999999910593033]","[0.0, -0.0, 0.23248624440208668]",0.5697519430027044,1.0564895536771466,"(0.0, 0.0, 0.0, 0.0, 0.0, 0.0)",0.0760798950975931,-0.7564460418096023,7.197788669088823e-06,"(0.0, 0.0, 0.0, 0.0, 0.0, 0.0)",0.0056976307521958034,-0.5227259496132106,0.04856135709699069,"(0.0, 0.0, 0.0, 0.0, 0.0, 0.0)",0.36193307752705445,0.7553736872494027,-0.009803241818412143,"(0.0, 0.0, 0.0, 0.0, 0.0, 0.0)",0.20479710832116926,True,"(-0.033894135529008704, 0.18690454805854692, 0.0399995168345447)","(0.9983519445182286, 0.0573860734657338, -0.0004831654552977286)",-0.001078668217839761,0.0,True,"(0.028284473173595018, 0.18704919028570405, 0.04000048316545531)","(-0.998351944518228, -0.05738607346574495, 0.0004831654553099144)",-0.0007568952714631812,2.719402082920835
86,Move,"(-0.01329113924050632, 0.0, 0.01329113924050632)","(0.0, -0.0, 0.0)","(-0.002408337051996881, 0.17372108843115897, 0.0028453499562333035)","(1.501926021350792, 0.0004061738701087609, 0.05522680023596678)","[-0.002408415613461887, 0.003722026054640143, 0.0019304602731455688]","[-0.026750000193715096, 0.05299999937415123, 0.03999999910593033]","[0.0, -0.0, 0.5697519867412727]","[-0.06558846682310104, 0.11362650990486145, 0.03999999910593033]","[0.0, 0.0, -0.18669408624676664]","[0.026750000193715096, 0.05299999937415123, 0.03999999910593033]","[0.0, 0.0, -0.5227259942964265]","[0.06269556283950806, 0.11538522690534592, 0.03999999910593033]","[0.0, -0.0, 0.23264772873803458]",0.5743598986989601,1.1059093671013773,"(0.0, 0.0, 0.0, 0.0, 0.0, 0.0)",0.07287809159811887,-0.7564460448086809,-7.197788658430682e-07,"(0.0, 0.0, 0.0, 0.0, 0.0, 0.0)",0.005451498641530803,-0.5225120754689483,0.05132979462295637,"(0.0, 0.0, 0.0, 0.0, 0.0, 0.0)",0.3998418601293588,0.755328981701444,-0.010729331510064739,"(0.0, 0.0, 0.0, 0.0, 0.0, 0.0)",0.2053838355475318,True,"(-0.03448319154202902, 0.1868662504365449, 0.039999557510811634)","(0.9984178662764569, 0.056227826770072944, -0.00044248918836991007)",-0.00056811334825527,0.0,True,"(0.028260201850504083, 0.18705222412973976, 0.04000044248918838)","(-0.9984178662764561, -0.05622782677008559, 0.0004424891883771483)",-0.0006973035703777106,2.9357580484214703
87,Move,"(-0.01392405063291139, 0.0, 0.01392405063291139)","(0.0, -0.0, 0.0)","(-0.0024966616722003243, 0.17372507581412477, 0.0028104459938693388)","(1.503766566350238, 0.0003717206514825209, 0.05438550711566363)","[-0.00249674023366533, 0.0037260134376059517, 0.001895556310781604]","[-0.026750000193715096, 0.05299999937415123, 0.03999999910593033]","[0.0, -0.0, 0.5743598390989213]","[-0.06586742401123047, 0.11344689875841141, 0.03999999910593033]","[0.0, 0.0, -0.18208615344772924]","[0.026750000193715096, 0.05299999937415123, 0.03999999910593033]","[0.0, 0.0, -0.5225120395122869]","[0.06268221884965897, 0.11539291590452194, 0.03999999910593033]","[0.0, -0.0, 0.2328169006401428]",0.5791642969970372,1.1530555915385163,"(0.0, 0.0, 0.0, 0.0, 0.0, 0.0)",0.06955846343348858,-0.7564460445087731,7.197788765012092e-08,"(0.0, 0.0, 0.0, 0.0, 0.0, 0.0)",0.005206290089523289,-0.5222743642679085,0.057050688249538434,"(0.0, 0.0, 0.0, 0.0, 0.0, 0.0)",0.41152391669526245,0.7552947444214174,-0.008216947206373887,"(0.0, 0.0, 0.0, 0.0, 0.0, 0.0)",0.1985083179491022,True,"(-0.03509962965672067, 0.18682356591121613, 0.039999593826141065)","(0.9984753054696327, 0.05519872634508909, -0.00040617385893423365)",-2.669980533782347e-05,0.0,True,"(0.02823466816347648, 0.18705528212276112, 0.04000040617385894)","(-0.9984753054696328, -0.05519872634508824, 0.0004061738589419991)",-0.0006427760997013408,2.967199207262146
88,Move,"(-0.01455696202531645, 0.0, 0.01455696202531645)","(0.0, -0.0, 0.0)","(-0.0025845754966216067, 0.17371973116708522, 0.002729482897420314)","(1.5070418359383537, 0.0003404190174247105, 0.05358396569822647)","[-0.0025846540580866124, 0.0037206687905664004, 0.0018145932143325792]","[-0.026750000193715096, 0.05299999937415123, 0.03999999910593033]","[0.0, -0.0, 0.5791643018898727]","[-0.06615737825632095, 0.11325826495885849, 0.03999999910593033]","[0.0, 0.0, -0.177281737737429]","[0.026750000193715096, 0.05299999937415123, 0.03999999910593033]","[0.0, 0.0, -0.5222743224975249]","[0.06266738474369049, 0.11540145426988602, 0.03999999910593033]","[0.0, -0.0, 0.23302040832958393]",0.5841587322348709,1.1986644570800946,"(0.0, 0.0, 0.0, 0.0, 0.0, 0.0)",0.06731820213814409,-0.7564460445387639,-7.197789031465618e-09,"(0.0, 0.0, 0.0, 0.0, 0.0, 0.0)",0.0050406202208451946,-0.5220032345959092,0.06507112127983392,"(0.0, 0.0, 0.0, 0.0, 0.0, 0.0)",0.43157619967466093,0.7552594074199865,-0.008480880343405276,"(0.0, 0.0, 0.0, 0.0, 0.0, 0.0)",0.2115318116493501,True,"(-0.03574214973624871, 0.18677627021012472, 0.039999628279357075)","(0.9985214038060835, 0.054358697233209546, -0.0003717206429236607)",0.0005407102851960531,0.0,True,"(0.028205197593562728, 0.18705785438079756, 0.04000037172064292)","(-0.9985214038060822, -0.05435869723323298, 0.0003717206429212172)",-0.0005926073649923403,3.1017862373716567
89,Move,"(-0.01518987341772152, 0.0, 0.01518987341772152)","(0.0, -0.0, 0.0)","(-0.0026741941021337905, 0.17370640290262285, 0.0026025026770400677)","(1.5117535755078984, 0.00031214065443349235, 0.05276163349709115)","[-0.0026742726635987962, 0.003707340526104025, 0.001687612993952333]","[-0.026750000193715096, 0.05299999937415123, 0.03999999910593033]","[0.0, -0.0, 0.5841587757138849]","[-0.0664578452706337, 0.11306069791316986, 0.03999999910593033]","[0.0, 0.0, -0.1722873012547212]","[0.026750000193715096, 0.05299999937415123, 0.03999999910593033]","[0.0, 0.0, -0.5220032594609794]","[0.06265046447515488, 0.1154111921787262, 0.03999999910593033]","[0.0, -0.0, 0.23325616495565407]",0.5893377412745158,1.242962169514768,"(0.0, 0.0, 0.0, 0.0, 0.0, 0.0)",0.0654098422832993,-0.7564460445357648,7.197789031465618e-10,"(0.0, 0.0, 0.0, 0.0, 0.0, 0.0)",0.004899816185140711,-0.5216906085209385,0.07503025799297727,"(0.0, 0.0, 0.0, 0.0, 0.0, 0.0)",0.4510506216488099,0.7552226845553132,-0.008813487521601816,"(0.0, 0.0, 0.0, 0.0, 0.0, 0.0)",0.2218544637401694,True,"(-0.036409844517973966, 0.18672390448182163, 0.03999965958098916)","(0.9985646649188895, 0.05355832419263221, -0.0003404190108430518)",0.0011329249837502412,0.0,True,"(0.028171326185788756, 0.1870604982483795, 0.040000340419010856)","(-0.9985646649188894, -0.053558324192633594, 0.00034041901085281464)",-0.0005464211111390558,3.228456080430681
90,Move,"(-0.01582278481012658, 0.0, 0.01582278481012658)","(0.0, -0.0, 0.0)","(-0.00276717020162068, 0.17368622922970622, 0.002429574028865972)","(1.5179022658502197, 0.0002865202013445715, 0.0518883979851208)","[-0.0027672487630856857, 0.0036871668531874013, 0.0015146843457782373]","[-0.026750000193715096, 0.05299999937415123, 0.03999999910593033]","[0.0, -0.0, 0.5893377878330225]","[-0.06676836311817169, 0.1128542423248291, 0.03999999910593033]","[0.0, 0.0, -0.16710829458946938]","[0.026750000193715096, 0.05299999937415123, 0.03999999910593033]","[0.0, 0.0, -0.5216906188764838]","[0.06263095140457153, 0.11542241275310516, 0.03999999910593033]","[0.0, -0.0, 0.2335320819885172]",0.5946945833070612,1.285642087810884,"(0.0, 0.0, 0.0, 0.0, 0.0, 0.0)",0.06305096356879332,-0.7564460445360647,-7.197709095407845e-11,"(0.0, 0.0, 0.0, 0.0, 0.0, 0.0)",0.004725409281398486,-0.5213294968536929,0.08666680013896096,"(0.0, 0.0, 0.0, 0.0, 0.0, 0.0)",0.46649818204143356,0.7551847354572384,-0.009107783537928337,"(0.0, 0.0, 0.0, 0.0, 0.0, 0.0)",0.22943239264409662,True,"(-0.037101934699907343, 0.1866660909037523, 0.039999687859350645)","(0.9986083792325711, 0.05273715478400885, -0.0003121406493638886)",0.001748047159800439,0.0,True,"(0.02813198757558283, 0.1870632996623518, 0.04000031214064936)","(-0.9986083792325716, -0.05273715478399806, 0.00031214064936055884)",-0.0005039566779310024,3.326460151392207
91,Move,"(-0.01645569620253164, 0.0, 0.01645569620253164)","(0.0, -0.0, 0.0)","(-0.0028649246223617425, 0.173660179375824, 0.0022107727918150195)","(1.5254876005141966, 0.0002630979811582383, 0.05094591273358711)","[-0.002865003183826748, 0.003661116999305186, 0.0012958831087272848]","[-0.026750000193715096, 0.05299999937415123, 0.03999999910593033]","[0.0, -0.0, 0.594694580588692]","[-0.06708841770887375, 0.11263901740312576, 0.03999999910593033]","[0.0, 0.0, -0.16175146808314728]","[0.026750000193715096, 0.05299999937415123, 0.03999999910593033]","[0.0, 0.0, -0.5213294550108378]","[0.06260840594768524, 0.11543536186218262, 0.03999999910593033]","[0.0, -0.0, 0.23385524029003257]",0.6002217882832183,1.326529194277711,"(0.0, 0.0, 0.0, 0.0, 0.0, 0.0)",0.06043470280577268,-0.7564460445360347,7.196909734830115e-12,"(0.0, 0.0, 0.0, 0.0, 0.0, 0.0)",0.004531800739687788,-0.5209134557303532,0.09984986960154227,"(0.0, 0.0, 0.0, 0.0, 0.0, 0.0)",0.47990670414363074,0.7551457907725154,-0.009346724333516541,"(0.0, 0.0, 0.0, 0.0, 0.0, 0.0)",0.2356813599481198,False,,,,,True,"(0.028086231150261716, 0.18706629485784612, 0.04000028652019743)","(-0.9986540581022127, -0.05186511488620049, 0.00028652019743218433)",-0.00046493084943928194,3.4101304265451335
92,Move,"(-0.01645569620253164, 0.0, 0.01645569620253164)","(0.0, -0.0, 0.0)","(-0.002968770547964637, 0.17362914471099214, 0.0019461818308835741)","(1.5345086561025776, 0.00024132884439524285, 0.049919818034439636)","[-0.002968849109429643, 0.003630082334473317, 0.0010312921477958394]","[-0.026750000193715096, 0.05299999937415123, 0.03999999910593033]","[0.0, -0.0, 0.6002217899381049]","[-0.0674174353480339, 0.11241514980792999, 0.03999999910593033]","[0.0, 0.0, -0.1562242574601229]","[0.026750000193715096, 0.05299999937415123, 0.03999999910593033]","[0.0, 0.0, -0.5209134980637937]","[0.06258243322372437, 0.11545027792453766, 0.03999999910593033]","[0.0, -0.0, 0.23423235613239002]",0.6059111998308517,1.3654587714320252,"(0.0, 0.0, 0.0, 0.0, 0.0, 0.0)",0.05757609364956613,-0.7564460445360377,-7.194245199571014e-13,"(0.0, 0.0, 0.0, 0.0, 0.0, 0.0)",0.004320098302914724,-0.5204362850718476,0.11452095804133344,"(0.0, 0.0, 0.0, 0.0, 0.0, 0.0)",0.49250245111983604,0.7551060385960113,-0.009540522360988018,"(0.0, 0.0, 0.0, 0.0, 0.0, 0.0)",0.24134596357931642,False,,,,,True,"(0.02803317498086061, 0.187069502568159, 0.040000263097978134)","(-0.9987025030877072, -0.05092387559683456, 0.0002630979781333874)",-0.0004290774067989531,3.4881177048878076
