OSUrobotics/InHand-Manipulation/AnalyseData/Data/expected/new_hand_expected_exp_2v2_b_none_1_kpNone_kdNone_dp1_step1_save_data.csv
,Phase,human_cube_pos,human_cube_orn,Cube_Pos,Cube_Orn,Cube_pos_in_start_pos,b'l_prox_pin'_link_pos,b'l_prox_pin'_link_orn,b'l_distal_pin'_link_pos,b'l_distal_pin'_link_orn,b'r_prox_pin'_link_pos,b'r_prox_pin'_link_orn,b'r_distal_pin'_link_pos,b'r_distal_pin'_link_orn,b'l_prox_pin'_joint_angle,b'l_prox_pin'_joint_vel,b'l_prox_pin'_joint_react_forces,b'l_prox_pin'_joint_motor_torque,b'l_distal_pin'_joint_angle,b'l_distal_pin'_joint_vel,b'l_distal_pin'_joint_react_forces,b'l_distal_pin'_joint_motor_torque,b'r_prox_pin'_joint_angle,b'r_prox_pin'_joint_vel,b'r_prox_pin'_joint_react_forces,b'r_prox_pin'_joint_motor_torque,b'r_distal_pin'_joint_angle,b'r_distal_pin'_joint_vel,b'r_distal_pin'_joint_react_forces,b'r_distal_pin'_joint_motor_torque,in_contact_l,contact_point_l_dist,contact_normal_l_dist,contact_distance_l_dist,contact_norm_force_l_dist,in_contact_r,contact_point_r_dist,contact_normal_r_dist,contact_distance_r_dist,contact_norm_force_r_dist
0,Open,,,,,,"[-0.026750000193715096, 0.05299999937415123, 0.03999999910593033]","[0.0, -0.0, 0.0]","[-0.026750000193715096, 0.125, 0.03999999910593033]","[0.0, -0.0, 0.0]","[0.026750000193715096, 0.05299999937415123, 0.03999999910593033]","[0.0, -0.0, 0.0]","[0.026750000193715096, 0.125, 0.03999999910593033]","[0.0, -0.0, 0.0]",0.0028636982559538428,0.6872875814289223,"(0.0, 0.0, 0.0, 0.0, 0.0, 0.0)",-74.42376671286476,0.025717978913313098,6.172314939195144,"(0.0, 0.0, 0.0, 0.0, 0.0, 0.0)",-28.347758017338414,-0.0028861714462846827,-0.6926811471083238,"(0.0, 0.0, 0.0, 0.0, 0.0, 0.0)",77.31812537484876,-0.025998027583603027,-6.239526620064726,"(0.0, 0.0, 0.0, 0.0, 0.0, 0.0)",29.325432325549183,False,,,,,False,,,,
1,Open,,,,,,"[-0.026750000193715096, 0.05299999937415123, 0.03999999910593033]","[0.0, -0.0, 0.0028636982488144678]","[-0.026956185698509216, 0.12499970197677612, 0.03999999910593033]","[0.0, -0.0, 0.028581675581217755]","[0.026750000193715096, 0.05299999937415123, 0.03999999910593033]","[0.0, 0.0, -0.0028861714423951343]","[0.026957804337143898, 0.12499970197677612, 0.03999999910593033]","[0.0, 0.0, -0.028884201286240394]",0.1595773284303585,37.61127124185712,"(0.0, 0.0, 0.0, 0.0, 0.0, 0.0)",53.472225824972774,0.02314589095046895,-0.6173011110825959,"(0.0, 0.0, 0.0, 0.0, 0.0, 0.0)",3.3014509125464437,-0.15959755430165623,-37.61073188528917,"(0.0, 0.0, 0.0, 0.0, 0.0, 0.0)",-53.45543824447724,-0.023397935520559333,0.6240220951304867,"(0.0, 0.0, 0.0, 0.0, 0.0, 0.0)",-3.2927232380167535,False,,,,,False,,,,
2,Open,,,,,,"[-0.026750000193715096, 0.05299999937415123, 0.03999999910593033]","[0.0, -0.0, 0.15957730699277592]","[-0.03819086775183678, 0.1240852028131485, 0.03999999910593033]","[0.0, -0.0, 0.1827232399786182]","[0.026750000193715096, 0.05299999937415123, 0.03999999910593033]","[0.0, 0.0, -0.15959754249378824]","[0.03819230571389198, 0.12408497184515, 0.03999999910593033]","[0.0, 0.0, -0.1829954723320542]",0.30061959558732265,33.8501441176714,"(0.0, 0.0, 0.0, 0.0, 0.0, 0.0)",-5.433290843096747,0.020831748867960086,-0.555394099802127,"(0.0, 0.0, 0.0, 0.0, 0.0, 0.0)",-0.37949999689540415,-0.30063779887149056,-33.849658696760244,"(0.0, 0.0, 0.0, 0.0, 0.0, 0.0)",5.433149501288634,-0.02105858889910766,0.5614431891484022,"(0.0, 0.0, 0.0, 0.0, 0.0, 0.0)",0.37943043762158307,False,,,,,False,,,,
3,Open,,,,,,"[-0.026750000193715096, 0.05299999937415123, 0.03999999910593033]","[0.0, -0.0, 0.30061964608852465]","[-0.048070069402456284, 0.12177103012800217, 0.03999999910593033]","[0.0, -0.0, 0.3214513597309629]","[0.026750000193715096, 0.05299999937415123, 0.03999999910593033]","[0.0, 0.0, -0.30063782483534385]","[0.04807132109999657, 0.12177064269781113, 0.03999999910593033]","[0.0, 0.0, -0.32169639446592324]",0.4275576360285904,30.465129705904268,"(0.0, 0.0, 0.0, 0.0, 0.0, 0.0)",-4.896562760502833,0.018748978964657985,-0.49986477679250463,"(0.0, 0.0, 0.0, 0.0, 0.0, 0.0)",-0.3438186216350169,-0.4275740189843415,-30.464692827084228,"(0.0, 0.0, 0.0, 0.0, 0.0, 0.0)",4.8964345239877005,-0.018953134917884834,0.505308955493478,"(0.0, 0.0, 0.0, 0.0, 0.0, 0.0)",0.34375511365495653,False,,,,,False,,,,
4,Open,,,,,,"[-0.026750000193715096, 0.05299999937415123, 0.03999999910593033]","[0.0, -0.0, 0.42755761853039154]","[-0.056604765355587006, 0.1185186430811882, 0.03999999910593033]","[0.0, -0.0, 0.4463066270391506]","[0.026750000193715096, 0.05299999937415123, 0.03999999910593033]","[0.0, 0.0, -0.42757404208311445]","[0.05660583823919296, 0.1185181587934494, 0.03999999910593033]","[0.0, 0.0, -0.4465272228574986]",0.5418018724257314,27.418616735313837,"(0.0, 0.0, 0.0, 0.0, 0.0, 0.0)",-4.412236817968903,0.016874447698417276,-0.44988750389777044,"(0.0, 0.0, 0.0, 0.0, 0.0, 0.0)",-0.3112578673856835,-0.5418166170859073,-27.418223544375806,"(0.0, 0.0, 0.0, 0.0, 0.0, 0.0)",4.412120589674461,-0.017058187988154127,0.4547872631353701,"(0.0, 0.0, 0.0, 0.0, 0.0, 0.0)",0.31119999541872967,False,,,,,False,,,,
5,Open,,,,,,"[-0.026750000193715096, 0.05299999937415123, 0.03999999910593033]","[0.0, -0.0, 0.5418019400761332]","[-0.06387900561094284, 0.11468822509050369, 0.03999999910593033]","[0.0, -0.0, 0.5586763123738882]","[0.026750000193715096, 0.05299999937415123, 0.03999999910593033]","[0.0, 0.0, -0.5418166677071254]","[0.06387991458177567, 0.11468767374753952, 0.03999999910593033]","[0.0, 0.0, -0.5588748551425957]",0.6446216851831583,24.67675506178245,"(0.0, 0.0, 0.0, 0.0, 0.0, 0.0)",-3.975330693632137,0.015187334633278446,-0.4049071356333192,"(0.0, 0.0, 0.0, 0.0, 0.0, 0.0)",-0.2816071653694913,-0.6446349553773166,-24.67640118993823,"(0.0, 0.0, 0.0, 0.0, 0.0, 0.0)",3.975225427671302,-0.01535270083200906,0.409316917474816,"(0.0, 0.0, 0.0, 0.0, 0.0, 0.0)",0.28155450162657786,False,,,,,False,,,,
6,Open,,,,,,"[-0.026750000193715096, 0.05299999937415123, 0.03999999910593033]","[0.0, -0.0, 0.6446216983098856]","[-0.07001452147960663, 0.11055155843496323, 0.03999999910593033]","[0.0, -0.0, 0.6598089287160823]","[0.026750000193715096, 0.05299999937415123, 0.03999999910593033]","[0.0, 0.0, -0.644634967879878]","[0.07001528143882751, 0.11055097728967667, 0.03999999910593033]","[0.0, 0.0, -0.6599877329949964]",0.7371595166648425,22.209079555604205,"(0.0, 0.0, 0.0, 0.0, 0.0, 0.0)",-3.5812948349547464,0.013668901111545678,-0.3644240452158641,"(0.0, 0.0, 0.0, 0.0, 0.0, 0.0)",-0.25464125660078457,-0.737171459839585,-22.20876107094441,"(0.0, 0.0, 0.0, 0.0, 0.0, 0.0)",3.5811995605906057,-0.01381773063402154,0.3683928475170044,"(0.0, 0.0, 0.0, 0.0, 0.0, 0.0)",0.2545933902665499,False,,,,,False,,,,
7,Open,,,,,,"[-0.026750000193715096, 0.05299999937415123, 0.03999999910593033]","[0.0, -0.0, 0.7371595400859692]","[-0.07514750957489014, 0.10630742460489273, 0.03999999910593033]","[0.0, -0.0, 0.7508283868993905]","[0.026750000193715096, 0.05299999937415123, 0.03999999910593033]","[0.0, 0.0, -0.7371714711336782]","[0.07514814287424088, 0.10630684345960617, 0.03999999910593033]","[0.0, 0.0, -0.750989167509555]",0.8204435649983582,19.988171600043785,"(0.0, 0.0, 0.0, 0.0, 0.0, 0.0)",-3.2259980823944012,0.01230228208777883,-0.32798856570404317,"(0.0, 0.0, 0.0, 0.0, 0.0, 0.0)",-0.23014491551259536,-0.8204543138556265,-19.987884963849964,"(0.0, 0.0, 0.0, 0.0, 0.0, 0.0)",3.225911902119173,-0.012436228606816148,0.33156048652929415,"(0.0, 0.0, 0.0, 0.0, 0.0, 0.0)",0.23010145595163894,False,,,,,False,,,,
8,Open,,,,,,"[-0.026750000193715096, 0.05299999937415123, 0.03999999910593033]","[0.0, -0.0, 0.8204435774406766]","[-0.07941428571939468, 0.1020965725183487, 0.03999999910593033]","[0.0, -0.0, 0.8327459142786269]","[0.026750000193715096, 0.05299999937415123, 0.03999999910593033]","[0.0, 0.0, -0.8204543695347751]","[0.07941480726003647, 0.10209600627422333, 0.03999999910593033]","[0.0, 0.0, -0.8328905496331522]",0.8953992084985224,17.9893544400394,"(0.0, 0.0, 0.0, 0.0, 0.0, 0.0)",-2.905692777507757,0.011072298781000885,-0.2951959936267068,"(0.0, 0.0, 0.0, 0.0, 0.0, 0.0)",-0.20791432075989408,-0.8954088824700639,-17.989096467464968,"(0.0, 0.0, 0.0, 0.0, 0.0, 0.0)",2.9056148642503405,-0.011192850601700187,0.29841072122783063,"(0.0, 0.0, 0.0, 0.0, 0.0, 0.0)",0.20787489947010138,False,,,,,False,,,,
9,Open,,,,,,"[-0.026750000193715096, 0.05299999937415123, 0.03999999910593033]","[0.0, -0.0, 0.8953992050914552]","[-0.08294302970170975, 0.09801492840051651, 0.03999999910593033]","[0.0, -0.0, 0.9064715399310761]","[0.026750000193715096, 0.05299999937415123, 0.03999999910593033]","[0.0, 0.0, -0.8954089117450801]","[0.08294346183538437, 0.09801438450813293, 0.03999999910593033]","[0.0, 0.0, -0.9066016844299951]",0.9628592876486701,16.190418996035465,"(0.0, 0.0, 0.0, 0.0, 0.0, 0.0)",-2.616982039675733,0.009965290062605858,-0.26568209241480656,"(0.0, 0.0, 0.0, 0.0, 0.0, 0.0)",-0.18775783729375353,-0.9628679942230576,-16.190186820718473,"(0.0, 0.0, 0.0, 0.0, 0.0, 0.0)",2.6169116334278195,-0.010073786659150813,0.26857534621184953,"(0.0, 0.0, 0.0, 0.0, 0.0, 0.0)",0.187722108909745,False,,,,,False,,,,
10,Open,,,,,,"[-0.026750000193715096, 0.05299999937415123, 0.03999999910593033]","[0.0, -0.0, 0.9628592963772022]","[-0.08584962040185928, 0.09412462264299393, 0.03999999910593033]","[0.0, -0.0, 0.9728246761305416]","[0.026750000193715096, 0.05299999937415123, 0.03999999910593033]","[0.0, 0.0, -0.9628681466677605]","[0.08584997802972794, 0.09412410855293274, 0.03999999910593033]","[0.0, 0.0, -0.9729417790417357]",1.0235733588838032,14.57137709643192,"(0.0, 0.0, 0.0, 0.0, 0.0, 0.0)",-2.356789246056587,0.008968960705874744,-0.23911904561546746,"(0.0, 0.0, 0.0, 0.0, 0.0, 0.0)",-0.16949635495257384,-1.0235811948007518,-14.571168138646623,"(0.0, 0.0, 0.0, 0.0, 0.0, 0.0)",2.3567256501387286,-0.009066607604651448,0.24172297307984775,"(0.0, 0.0, 0.0, 0.0, 0.0, 0.0)",0.16946399753760524,False,,,,,False,,,,
11,Open,,,,,,"[-0.026750000193715096, 0.05299999937415123, 0.03999999910593033]","[0.0, -0.0, 1.0235732790301837]","[-0.08823604136705399, 0.09046287834644318, 0.03999999910593033]","[0.0, -0.0, 1.0325423083164225]","[0.026750000193715096, 0.05299999937415123, 0.03999999910593033]","[0.0, 0.0, -1.0235812274279317]","[0.08823633193969727, 0.09046239405870438, 0.03999999910593033]","[0.0, 0.0, -1.0326479037372749]",1.078216022995423,13.114239386788727,"(0.0, 0.0, 0.0, 0.0, 0.0, 0.0)",-2.1223296975724493,0.008072244810550301,-0.215211814877866,"(0.0, 0.0, 0.0, 0.0, 0.0, 0.0)",-0.1529632973210469,-1.0782230753206767,-13.114051324781958,"(0.0, 0.0, 0.0, 0.0, 0.0, 0.0)",2.122272274708909,-0.008160126984954354,0.21755534872730237,"(0.0, 0.0, 0.0, 0.0, 0.0, 0.0)",0.15293401213466845,False,,,,,False,,,,
12,Open,,,,,,"[-0.026750000193715096, 0.05299999937415123, 0.03999999910593033]","[0.0, -0.0, 1.078215882979514]","[-0.09019032120704651, 0.08704887330532074, 0.03999999910593033]","[0.0, -0.0, 1.0862882926740116]","[0.026750000193715096, 0.05299999937415123, 0.03999999910593033]","[0.0, 0.0, -1.078222977413882]","[0.09019055962562561, 0.08704842627048492, 0.03999999910593033]","[0.0, 0.0, -1.0863833790205233]",1.1273944206958806,11.802815448109852,"(0.0, 0.0, 0.0, 0.0, 0.0, 0.0)",-1.9110844168611731,0.007265182884681461,-0.19369486220852175,"(0.0, 0.0, 0.0, 0.0, 0.0, 0.0)",-0.13800439004610457,-1.127400767788609,-11.802646192303762,"(0.0, 0.0, 0.0, 0.0, 0.0, 0.0)",1.9110325851897776,-0.007344276810443619,0.19580404188257655,"(0.0, 0.0, 0.0, 0.0, 0.0, 0.0)",0.13797790093405082,False,,,,,False,,,,
13,Open,,,,,,"[-0.026750000193715096, 0.05299999937415123, 0.03999999910593033]","[0.0, -0.0, 1.1273943743462997]","[-0.0917874127626419, 0.08388907462358475, 0.03999999910593033]","[0.0, -0.0, 1.1346596248576977]","[0.026750000193715096, 0.05299999937415123, 0.03999999910593033]","[0.0, 0.0, -1.127400718904607]","[0.09178761392831802, 0.08388865739107132, 0.03999999910593033]","[0.0, 0.0, -1.134745111288055]",1.1716549786262926,10.622533903298867,"(0.0, 0.0, 0.0, 0.0, 0.0, 0.0)",-1.7207759982695574,0.00653881121780902,-0.17432920004938585,"(0.0, 0.0, 0.0, 0.0, 0.0, 0.0)",-0.12447725819906867,-1.1716606910097482,-10.622381573073383,"(0.0, 0.0, 0.0, 0.0, 0.0, 0.0)",1.7207292273800263,-0.006609995722787257,0.17622746103752684,"(0.0, 0.0, 0.0, 0.0, 0.0, 0.0)",0.12445331071934837,False,,,,,False,,,,
14,Open,,,,,,"[-0.026750000193715096, 0.05299999937415123, 0.03999999910593033]","[0.0, -0.0, 1.17165497759142]","[-0.09309044480323792, 0.08098116517066956, 0.03999999910593033]","[0.0, -0.0, 1.1781937273122836]","[0.026750000193715096, 0.05299999937415123, 0.03999999910593033]","[0.0, 0.0, -1.1716605985979762]","[0.09309060126543045, 0.08098078519105911, 0.03999999910593033]","[0.0, 0.0, -1.178270796658152]",1.2114894807636634,9.56028051296898,"(0.0, 0.0, 0.0, 0.0, 0.0, 0.0)",-1.549346412635057,0.005885062316220725,-0.15689973638119079,"(0.0, 0.0, 0.0, 0.0, 0.0, 0.0)",-0.11225090666269867,-1.2114946219087734,-9.560143415766044,"(0.0, 0.0, 0.0, 0.0, 0.0, 0.0)",1.5493042197033076,-0.00594912834521185,0.1586081706180975,"(0.0, 0.0, 0.0, 0.0, 0.0, 0.0)",0.11222926703597672,False,,,,,False,,,,
15,Open,,,,,,"[-0.026750000193715096, 0.05299999937415123, 0.03999999910593033]","[0.0, -0.0, 1.2114893406881728]","[-0.09415213763713837, 0.07831703126430511, 0.03999999910593033]","[0.0, -0.0, 1.2173745989650702]","[0.026750000193715096, 0.05299999937415123, 0.03999999910593033]","[0.0, 0.0, -1.2114945655338818]","[0.09415226429700851, 0.07831668108701706, 0.03999999910593033]","[0.0, 0.0, -1.2174436451143456]",1.247340532687297,8.604252461672083,"(0.0, 0.0, 0.0, 0.0, 0.0, 0.0)",-1.3949366588174594,0.00529667529397997,-0.14121288533778104,"(0.0, 0.0, 0.0, 0.0, 0.0, 0.0)",-0.1012051251161189,-1.2473451597178962,-8.604129074189437,"(0.0, 0.0, 0.0, 0.0, 0.0, 0.0)",1.394898604883462,-0.005354334697048719,0.1427504755591516,"(0.0, 0.0, 0.0, 0.0, 0.0, 0.0)",0.1011855790679586,False,,,,,False,,,,
16,Open,,,,,,"[-0.026750000193715096, 0.05299999937415123, 0.03999999910593033]","[0.0, -0.0, 1.2473405247091465]","[-0.09501627087593079, 0.07588484138250351, 0.03999999910593033]","[0.0, -0.0, 1.2526371614229614]","[0.026750000193715096, 0.05299999937415123, 0.03999999910593033]","[0.0, 0.0, -1.2473450561350814]","[0.09501637518405914, 0.07588452845811844, 0.03999999910593033]","[0.0, 0.0, -1.252699591080442]",1.2796064794185673,7.743827215504874,"(0.0, 0.0, 0.0, 0.0, 0.0, 0.0)",-1.2558681481324276,0.004767115224099335,-0.12709441677135241,"(0.0, 0.0, 0.0, 0.0, 0.0, 0.0)",-0.09122984935698081,-1.2796106437461066,-7.743716166770495,"(0.0, 0.0, 0.0, 0.0, 0.0, 0.0)",1.2558338345532607,-0.004819008666073119,0.128478247434144,"(0.0, 0.0, 0.0, 0.0, 0.0, 0.0)",0.09121220090323832,False,,,,,False,,,,
17,Open,,,,,,"[-0.026750000193715096, 0.05299999937415123, 0.03999999910593033]","[0.0, -0.0, 1.279606409124563]","[-0.09571900963783264, 0.0736706405878067, 0.03999999910593033]","[0.0, -0.0, 1.2843736758198352]","[0.026750000193715096, 0.05299999937415123, 0.03999999910593033]","[0.0, 0.0, -1.2796106525936015]","[0.0957190990447998, 0.07367035001516342, 0.03999999910593033]","[0.0, 0.0, -1.2844295613342638]",1.3086458314767107,6.969444493954387,"(0.0, 0.0, 0.0, 0.0, 0.0, 0.0)",-1.1305941221975622,0.00429170208951155,-0.1140991523010686,"(0.0, 0.0, 0.0, 0.0, 0.0, 0.0)",-0.082192919359827,-1.3086495793714958,-6.969344550093446,"(0.0, 0.0, 0.0, 0.0, 0.0, 0.0)",1.1305631934145834,-0.004338405935744441,0.11534465527888274,"(0.0, 0.0, 0.0, 0.0, 0.0, 0.0)",0.08217699569254354,False,,,,,False,,,,
18,Open,,,,,,"[-0.026750000193715096, 0.05299999937415123, 0.03999999910593033]","[0.0, -0.0, 1.308645825919811]","[-0.09629011154174805, 0.0716593861579895, 0.03999999910593033]","[0.0, -0.0, 1.3129373548657892]","[0.026750000193715096, 0.05299999937415123, 0.03999999910593033]","[0.0, 0.0, -1.308649569130343]","[0.09629017859697342, 0.07165912538766861, 0.03999999910593033]","[0.0, 0.0, -1.3129881167123505]",1.3347812483290395,6.272500044558946,"(0.0, 0.0, 0.0, 0.0, 0.0, 0.0)",-1.0178482622338179,0.003863702481573626,-0.10271990590510163,"(0.0, 0.0, 0.0, 0.0, 0.0, 0.0)",-0.07410352518858664,-1.3347846214343462,-6.272410095084102,"(0.0, 0.0, 0.0, 0.0, 0.0, 0.0)",1.0178203769740246,-0.0039057357160976183,0.10384085271523745,"(0.0, 0.0, 0.0, 0.0, 0.0, 0.0)",0.0740891498002037,False,,,,,False,,,,
19,Open,,,,,,"[-0.026750000193715096, 0.05299999937415123, 0.03999999910593033]","[0.0, -0.0, 1.3347813147466918]","[-0.09675397723913193, 0.06983575969934464, 0.03999999910593033]","[0.0, -0.0, 1.3386449621367835]","[0.026750000193715096, 0.05299999937415123, 0.03999999910593033]","[0.0, 0.0, -1.3347844615433213]","[0.0967540368437767, 0.06983552873134613, 0.03999999910593033]","[0.0, 0.0, -1.3386905382854437]",1.3583031234961356,5.645250040103052,"(0.0, 0.0, 0.0, 0.0, 0.0, 0.0)",-0.9162890978823036,0.0034783869891320215,-0.09247571818598516,"(0.0, 0.0, 0.0, 0.0, 0.0, 0.0)",-0.06677007440367574,-1.3583061592909116,-5.645169085575695,"(0.0, 0.0, 0.0, 0.0, 0.0, 0.0)",0.9162639666346021,-0.003516216695348753,0.09348456497972772,"(0.0, 0.0, 0.0, 0.0, 0.0, 0.0)",0.06675710630673855,False,,,,,False,,,,
20,Open,,,,,,"[-0.026750000193715096, 0.05299999937415123, 0.03999999910593033]","[0.0, -0.0, 1.3583030429358363]","[-0.09713058918714523, 0.06818463653326035, 0.03999999910593033]","[0.0, -0.0, 1.3617816714487538]","[0.026750000193715096, 0.05299999937415123, 0.03999999910593033]","[0.0, 0.0, -1.358306171033049]","[0.09713063389062881, 0.06818442046642303, 0.03999999910593033]","[0.0, 0.0, -1.361822351334537]",1.379472811146522,5.0807250360927485,"(0.0, 0.0, 0.0, 0.0, 0.0, 0.0)",-0.8248429295126702,0.003131498553648039,-0.08325322451615583,"(0.0, 0.0, 0.0, 0.0, 0.0, 0.0)",-0.06015531267018523,-1.3794755433618204,-5.080652177018124,"(0.0, 0.0, 0.0, 0.0, 0.0, 0.0)",0.8248202834423316,-0.003165545104486833,0.08416118180686077,"(0.0, 0.0, 0.0, 0.0, 0.0, 0.0)",0.06014361689139186,False,,,,,False,,,,
21,Open,,,,,,"[-0.026750000193715096, 0.05299999937415123, 0.03999999910593033]","[0.0, -0.0, 1.3794728975130914]","[-0.09743624925613403, 0.06669140607118607, 0.03999999910593033]","[0.0, -0.0, 1.382604304378769]","[0.026750000193715096, 0.05299999937415123, 0.03999999910593033]","[0.0, 0.0, -1.379475506721758]","[0.09743628650903702, 0.06669121235609055, 0.03999999910593033]","[0.0, 0.0, -1.3826409668082853]",1.3985255300318697,4.572652532483473,"(0.0, 0.0, 0.0, 0.0, 0.0, 0.0)",-0.7425066286387145,0.0028192047313806493,-0.07495051734417352,"(0.0, 0.0, 0.0, 0.0, 0.0, 0.0)",-0.054190171953983096,-1.3985279890256384,-4.57258695931631,"(0.0, 0.0, 0.0, 0.0, 0.0, 0.0)",0.7424862245436853,-0.0028498464605416357,0.07576767454684734,"(0.0, 0.0, 0.0, 0.0, 0.0, 0.0)",0.0541796259205944,False,,,,,False,,,,
22,Open,,,,,,"[-0.026750000193715096, 0.05299999937415123, 0.03999999910593033]","[0.0, -0.0, 1.398525454133583]","[-0.09768425673246384, 0.0653422400355339, 0.03999999910593033]","[0.0, -0.0, 1.4013447262228373]","[0.026750000193715096, 0.05299999937415123, 0.03999999910593033]","[0.0, 0.0, -1.3985280648022782]","[0.09768428653478622, 0.06534206122159958, 0.03999999910593033]","[0.0, 0.0, -1.4013779844801912]",1.4156729770286829,4.1153872792351285,"(0.0, 0.0, 0.0, 0.0, 0.0, 0.0)",-0.6683758137814145,0.002538055332395241,-0.06747585575649792,"(0.0, 0.0, 0.0, 0.0, 0.0, 0.0)",-0.04881194552870251,-1.4156751901230746,-4.115328263384682,"(0.0, 0.0, 0.0, 0.0, 0.0, 0.0)",0.6683574317692884,-0.002565632738451909,0.06821129330153437,"(0.0, 0.0, 0.0, 0.0, 0.0, 0.0)",0.0488024380394442,False,,,,,False,,,,
23,Open,,,,,,"[-0.026750000193715096, 0.05299999937415123, 0.03999999910593033]","[0.0, -0.0, 1.4156730334745993]","[-0.09788545966148376, 0.06412414461374283, 0.03999999910593033]","[0.0, -0.0, 1.418211036917125]","[0.026750000193715096, 0.05299999937415123, 0.03999999910593033]","[0.0, 0.0, -1.4156752315845986]","[0.09788548201322556, 0.0641239807009697, 0.03999999910593033]","[0.0, 0.0, -1.418240879504808]",1.4311056793258146,3.703848551311612,"(0.0, 0.0, 0.0, 0.0, 0.0, 0.0)",-0.6016352863054336,0.002284944287465684,-0.060746650783093666,"(0.0, 0.0, 0.0, 0.0, 0.0, 0.0)",-0.04396376851645251,-1.431107671110767,-3.7037954370462103,"(0.0, 0.0, 0.0, 0.0, 0.0, 0.0)",0.6016187276545472,-0.0023097638175418747,0.061408541018408244,"(0.0, 0.0, 0.0, 0.0, 0.0, 0.0)",0.043955198772734246,False,,,,,False,,,,
24,Open,,,,,,"[-0.026750000193715096, 0.05299999937415123, 0.03999999910593033]","[0.0, -0.0, 1.4311058207082674]","[-0.09804865717887878, 0.06302504986524582, 0.03999999910593033]","[0.0, -0.0, 1.433390691262394]","[0.026750000193715096, 0.05299999937415123, 0.03999999910593033]","[0.0, 0.0, -1.4311075924426346]","[0.09804867953062057, 0.06302490830421448, 0.03999999910593033]","[0.0, 0.0, -1.433417470845748]",1.4449951113932331,3.333463696180452,"(0.0, 0.0, 0.0, 0.0, 0.0, 0.0)",-0.5415503506795546,0.0020570753203455715,-0.05468855210882702,"(0.0, 0.0, 0.0, 0.0, 0.0, 0.0)",-0.039594115216637325,-1.4449969039996904,-3.3334158933415914,"(0.0, 0.0, 0.0, 0.0, 0.0, 0.0)",0.541535435877482,-0.002079412775410495,0.055284250111531166,"(0.0, 0.0, 0.0, 0.0, 0.0, 0.0)",0.03958639191865308,False,,,,,False,,,,
25,Open,,,,,,"[-0.026750000193715096, 0.05299999937415123, 0.03999999910593033]","[0.0, -0.0, 1.444995076522675]","[-0.09818101674318314, 0.062033817172050476, 0.03999999910593033]","[0.0, -0.0, 1.4470522962768402]","[0.026750000193715096, 0.05299999937415123, 0.03999999910593033]","[0.0, 0.0, -1.4449971061677662]","[0.09818103164434433, 0.06203368678689003, 0.03999999910593033]","[0.0, 0.0, -1.4470761943538692]",1.45749560025391,3.0001173265624064,"(0.0, 0.0, 0.0, 0.0, 0.0, 0.0)",-0.4874589573784058,0.001851931045420989,-0.04923462598189979,"(0.0, 0.0, 0.0, 0.0, 0.0, 0.0)",-0.03565633120497695,-1.4574972135997213,-3.000074304007432,"(0.0, 0.0, 0.0, 0.0, 0.0, 0.0)",0.4874455243270462,-0.0018720346450414762,0.04977075128856451,"(0.0, 0.0, 0.0, 0.0, 0.0, 0.0)",0.03564937171228022,False,,,,,False,,,,
26,Open,,,,,,"[-0.026750000193715096, 0.05299999937415123, 0.03999999910593033]","[0.0, -0.0, 1.4574954921785264]","[-0.09828835725784302, 0.061140209436416626, 0.03999999910593033]","[0.0, -0.0, 1.4593474823067423]","[0.026750000193715096, 0.05299999937415123, 0.03999999910593033]","[0.0, 0.0, -1.4574971848934346]","[0.09828837215900421, 0.061140093952417374, 0.03999999910593033]","[0.0, 0.0, -1.4593694397653831]",1.4687460402285188,2.700105593906164,"(0.0, 0.0, 0.0, 0.0, 0.0, 0.0)",-0.4387645947805427,0.0016672451487475934,-0.044324615201614966,"(0.0, 0.0, 0.0, 0.0, 0.0, 0.0)",-0.032108199676446195,-1.4687474922397492,-2.70006687360669,"(0.0, 0.0, 0.0, 0.0, 0.0, 0.0)",0.4387524971567325,-0.0016853382893528596,0.04480712536526797,"(0.0, 0.0, 0.0, 0.0, 0.0, 0.0)",0.03210192923147444,False,,,,,False,,,,
27,Open,,,,,,"[-0.026750000193715096, 0.05299999937415123, 0.03999999910593033]","[0.0, -0.0, 1.4687462228928074]","[-0.09837540984153748, 0.06033487245440483, 0.03999999910593033]","[0.0, -0.0, 1.4704133245237396]","[0.026750000193715096, 0.05299999937415123, 0.03999999910593033]","[0.0, 0.0, -1.4687474899518769]","[0.09837542474269867, 0.060334768146276474, 0.03999999910593033]","[0.0, 0.0, -1.4704329951986796]",1.478871436205667,2.430095034515549,"(0.0, 0.0, 0.0, 0.0, 0.0, 0.0)",-0.394929862139441,0.0015009773446580906,-0.03990427298148066,"(0.0, 0.0, 0.0, 0.0, 0.0, 0.0)",-0.028911540991871522,-1.4788727430157742,-2.430060186246021,"(0.0, 0.0, 0.0, 0.0, 0.0, 0.0)",0.39491896790015035,-0.001517261081966714,0.04033852977267494,"(0.0, 0.0, 0.0, 0.0, 0.0, 0.0)",0.02890589200411927,False,,,,,False,,,,
28,Open,,,,,,"[-0.026750000193715096, 0.05299999937415123, 0.03999999910593033]","[0.0, -0.0, 1.4788714352834713]","[-0.09844600409269333, 0.05960927531123161, 0.03999999910593033]","[0.0, -0.0, 1.480372508787761]","[0.026750000193715096, 0.05299999937415123, 0.03999999910593033]","[0.0, 0.0, -1.4788727099725336]","[0.09844601899385452, 0.05960918217897415, 0.03999999910593033]","[0.0, 0.0, -1.4803900544382056]",1.4879842925851003,2.1870855310639947,"(0.0, 0.0, 0.0, 0.0, 0.0, 0.0)",-0.3554706611703565,0.001351290830885638,-0.035924763305388616,"(0.0, 0.0, 0.0, 0.0, 0.0, 0.0)",-0.026031844038894282,-1.487985468714197,-2.1870541676214206,"(0.0, 0.0, 0.0, 0.0, 0.0, 0.0)",0.3554608511915877,-0.001365946114079445,0.03631559229294455,"(0.0, 0.0, 0.0, 0.0, 0.0, 0.0)",0.026026755426892093,False,,,,,False,,,,
29,Close,,,"(3.819349109750643e-09, 0.16999994350316286, 7.914305593764796e-05)","(1.5700606283751846, 1.2357610516186277e-06, -4.058049624060407e-09)",,"[-0.026750000193715096, 0.05299999937415123, 0.03999999910593033]","[0.0, -0.0, 1.4879842849605203]","[-0.09850326180458069, 0.05895565450191498, 0.03999999910593033]","[0.0, -0.0, 1.4893357278409396]","[0.026750000193715096, 0.05299999937415123, 0.03999999910593033]","[0.0, 0.0, -1.4879853833286059]","[0.09850326925516129, 0.05895556882023811, 0.03999999910593033]","[0.0, 0.0, -1.4893513332680077]",1.4961858633265903,1.9683769779575933,"(0.0, 0.0, 0.0, 0.0, 0.0, 0.0)",-0.31995094896823073,0.0012165319928285922,-0.03234212113369103,"(0.0, 0.0, 0.0, 0.0, 0.0, 0.0)",-0.02343792779000599,-1.4961869218427772,-1.9683487508592754,"(0.0, 0.0, 0.0, 0.0, 0.0, 0.0)",0.31994211580738524,-0.0012297216752996233,0.03269386530715718,"(0.0, 0.0, 0.0, 0.0, 0.0, 0.0)",0.02343334437795369,False,,,,,False,,,,
30,Close,,,"(1.09441459674075e-09, 0.16999988769159868, 0.0001519632082907279)","(1.5701173533571526, -2.5467641220651055e-06, -4.573996600559749e-08)",,"[-0.026750000193715096, 0.05299999937415123, 0.03999999910593033]","[0.0, -0.0, 1.4961860174198076]","[-0.09854969382286072, 0.05836696922779083, 0.03999999910593033]","[0.0, -0.0, 1.4974025341106605]","[0.026750000193715096, 0.05299999937415123, 0.03999999910593033]","[0.0, 0.0, -1.4961870219527165]","[0.09854969382286072, 0.05836689472198486, 0.03999999910593033]","[0.0, 0.0, -1.4974167044724178]",1.4065672769939312,-21.50846071983817,"(0.0, 0.0, 0.0, 0.0, 0.0, 0.0)",-36.83524610171859,-0.08890468746940376,-21.629092670935766,"(0.0, 0.0, 0.0, 0.0, 0.0, 0.0)",-4.936581214831643,-1.4065682296584996,21.508486124226657,"(0.0, 0.0, 0.0, 0.0, 0.0, 0.0)",36.83523814678565,0.0888928167555427,21.629409223402156,"(0.0, 0.0, 0.0, 0.0, 0.0, 0.0)",4.936577085092772,False,,,,,False,,,,
31,Close,,,"(3.541182821644653e-08, 0.1699998011443987, 0.00021906657187154062)","(1.570205104748116, 3.3042409171564205e-05, -8.114212850492596e-08)",,"[-0.026750000193715096, 0.05299999937415123, 0.03999999910593033]","[0.0, -0.0, 1.4065674382065954]","[-0.0977812185883522, 0.06477140635251999, 0.03999999910593033]","[0.0, -0.0, 1.3176625934179576]","[0.026750000193715096, 0.05299999937415123, 0.03999999910593033]","[0.0, 0.0, -1.4065680331882469]","[0.0977812260389328, 0.06477133929729462, 0.03999999910593033]","[0.0, 0.0, -1.3176753491400532]",1.3259105492945382,-19.357614647854348,"(0.0, 0.0, 0.0, 0.0, 0.0, 0.0)",3.3395407019063446,-0.17001473426920377,-19.466411231952,"(0.0, 0.0, 0.0, 0.0, 0.0, 0.0)",0.4376834422569755,-1.3259114066926496,19.35763751180399,"(0.0, 0.0, 0.0, 0.0, 0.0, 0.0)",-3.3395473112045253,0.1700040506304986,19.466696129989415,"(0.0, 0.0, 0.0, 0.0, 0.0, 0.0)",-0.43768664266468643,False,,,,,False,,,,
32,Close,,,"(3.361538948490201e-08, 0.16999974452330968, 0.00028077538773600935)","(1.5702911774727688, 7.027968338074274e-05, -7.017997684986258e-06)",,"[-0.026750000193715096, 0.05299999937415123, 0.03999999910593033]","[0.0, -0.0, 1.325910602539969]","[-0.09660188108682632, 0.07045608013868332, 0.03999999910593033]","[0.0, -0.0, 1.1558959321658662]","[0.026750000193715096, 0.05299999937415123, 0.03999999910593033]","[0.0, 0.0, -1.3259115331240872]","[0.09660189598798752, 0.07045602053403854, 0.03999999910593033]","[0.0, 0.0, -1.1559073716167563]",1.2533194943650845,-17.42185318306892,"(0.0, 0.0, 0.0, 0.0, 0.0, 0.0)",3.0100864599566086,-0.2430137284658432,-17.519758607193467,"(0.0, 0.0, 0.0, 0.0, 0.0, 0.0)",0.39699812510351973,-1.2533202660233846,17.42187376062359,"(0.0, 0.0, 0.0, 0.0, 0.0, 0.0)",-3.0100924602349655,0.24300411319445853,17.52001501535039,"(0.0, 0.0, 0.0, 0.0, 0.0, 0.0)",-0.39700105403357716,False,,,,,False,,,,
33,Close,,,"(1.2478111664315067e-07, 0.16999960627903704, 0.000337513976604643)","(1.5703757790333803, 0.0001088681261817636, -5.122611399447184e-06)",,"[-0.026750000193715096, 0.05299999937415123, 0.03999999910593033]","[0.0, -0.0, 1.2533194489161892]","[-0.0951518788933754, 0.07547627389431, 0.03999999910593033]","[0.0, -0.0, 1.0103057011386807]","[0.026750000193715096, 0.05299999937415123, 0.03999999910593033]","[0.0, 0.0, -1.2533201846969224]","[0.09515189379453659, 0.07547622174024582, 0.03999999910593033]","[0.0, 0.0, -1.010316110149499]",1.1879875449285762,-15.679667864762028,"(0.0, 0.0, 0.0, 0.0, 0.0, 0.0)",2.712712783767229,-0.30871235561933186,-15.767670516837281,"(0.0, 0.0, 0.0, 0.0, 0.0, 0.0)",0.3597856734528228,-1.1879882394210461,15.679686384561233,"(0.0, 0.0, 0.0, 0.0, 0.0, 0.0)",-2.712718226071338,0.30870370187508567,15.767901283350515,"(0.0, 0.0, 0.0, 0.0, 0.0, 0.0)",-0.35978834883250516,False,,,,,False,,,,
34,Close,,,"(1.2869376016944667e-07, 0.16999954011037416, 0.00038973303114976833)","(1.5704582297133343, 0.0001496263682483943, -9.931543136061158e-06)",,"[-0.026750000193715096, 0.05299999937415123, 0.03999999910593033]","[0.0, -0.0, 1.1879876003522736]","[-0.09353857487440109, 0.07989397644996643, 0.03999999910593033]","[0.0, -0.0, 0.8792752425767008]","[0.026750000193715096, 0.05299999937415123, 0.03999999910593033]","[0.0, 0.0, -1.1879882623869136]","[0.09353859722614288, 0.07989392429590225, 0.03999999910593033]","[0.0, 0.0, -0.8792844680170303]",1.1291887904356523,-14.1117010783017,"(0.0, 0.0, 0.0, 0.0, 0.0, 0.0)",2.44436472036771,-0.36784112005739866,-14.190903465136039,"(0.0, 0.0, 0.0, 0.0, 0.0, 0.0)",0.3258007578595482,-1.1291894154788755,14.111717746120975,"(0.0, 0.0, 0.0, 0.0, 0.0, 0.0)",-2.444369652349295,0.3678333316875771,14.191111154997946,"(0.0, 0.0, 0.0, 0.0, 0.0, 0.0)",-0.32580319741325486,False,,,,,False,,,,
35,Close,,,"(2.2147778895778094e-07, 0.169999403724105, 0.00043775502472391954)","(1.5705392813318275, 0.0001916771605813282, -8.19762937926826e-06)",,"[-0.026750000193715096, 0.05299999937415123, 0.03999999910593033]","[0.0, -0.0, 1.1291888000608494]","[-0.09184273332357407, 0.08377231657505035, 0.03999999910593033]","[0.0, -0.0, 0.7613476921786614]","[0.026750000193715096, 0.05299999937415123, 0.03999999910593033]","[0.0, 0.0, -1.1291894580384154]","[0.09184275567531586, 0.08377227932214737, 0.03999999910593033]","[0.0, 0.0, -0.7613561373098183]",1.0762699113920273,-12.700530970470014,"(0.0, 0.0, 0.0, 0.0, 0.0, 0.0)",2.202305891359772,-0.4210570080516588,-12.77181311862243,"(0.0, 0.0, 0.0, 0.0, 0.0, 0.0)",0.2948453788489373,-1.0762704739309281,12.700545971507374,"(0.0, 0.0, 0.0, 0.0, 0.0, 0.0)",-2.2023103576802145,0.4210499985188194,12.77200003949815,"(0.0, 0.0, 0.0, 0.0, 0.0, 0.0)",-0.2948476002056522,False,,,,,False,,,,
36,Close,,,"(2.1912693722736075e-07, 0.16999934361709654, 0.000481956449276018)","(1.5706184388641253, 0.00023565575873296478, -1.2845786801691941e-05)",,"[-0.026750000193715096, 0.05299999937415123, 0.03999999910593033]","[0.0, -0.0, 1.0762698553554748]","[-0.09012393653392792, 0.08717226982116699, 0.03999999910593033]","[0.0, -0.0, 0.6552128934948661]","[0.026750000193715096, 0.05299999937415123, 0.03999999910593033]","[0.0, 0.0, -1.0762704893583]","[0.09012395888566971, 0.08717223256826401, 0.03999999910593033]","[0.0, 0.0, -0.6552204147476549]",1.0286429202528247,-11.430477873408655,"(0.0, 0.0, 0.0, 0.0, 0.0, 0.0)",1.9840011930578276,-0.46895130724721834,-11.494631806934295,"(0.0, 0.0, 0.0, 0.0, 0.0, 0.0)",0.26667684533441977,-1.0286434265378352,11.430491374342276,"(0.0, 0.0, 0.0, 0.0, 0.0, 0.0)",-1.984005235051249,0.4689449986676629,11.494800035722442,"(0.0, 0.0, 0.0, 0.0, 0.0, 0.0)",-0.26667886541975433,False,,,,,False,,,,
37,Close,,,"(3.1131510586280866e-07, 0.1699992121070205, 0.0005226007520893923)","(1.5706964879884222, 0.0002806415891397876, -1.1307759452448239e-05)",,"[-0.026750000193715096, 0.05299999937415123, 0.03999999910593033]","[0.0, -0.0, 1.0286429345076582]","[-0.0884251669049263, 0.09015069156885147, 0.03999999910593033]","[0.0, -0.0, 0.5596916647508587]","[0.026750000193715096, 0.05299999937415123, 0.03999999910593033]","[0.0, 0.0, -1.0286435120859125]","[0.08842518925666809, 0.09015065431594849, 0.03999999910593033]","[0.0, 0.0, -0.5596984028120249]",0.9857786282275423,-10.287430086067793,"(0.0, 0.0, 0.0, 0.0, 0.0, 0.0)",1.787161045327472,-0.5120561765231523,-10.345168626224153,"(0.0, 0.0, 0.0, 0.0, 0.0, 0.0)",0.24107512437447856,-0.9857790838840517,10.28744223690805,"(0.0, 0.0, 0.0, 0.0, 0.0, 0.0)",-1.787164701188607,0.5120504988015524,10.345320032133483,"(0.0, 0.0, 0.0, 0.0, 0.0, 0.0)",-0.24107695935135354,False,,,,,False,,,,
38,Close,,,"(3.0991842655903425e-07, 0.169999153087261, 0.0005600347082356065)","(1.570772558536085, 0.00032764712563817383, -1.5390013302753274e-05)",,"[-0.026750000193715096, 0.05299999937415123, 0.03999999910593033]","[0.0, -0.0, 0.9857786218799983]","[-0.08677656948566437, 0.09275941550731659, 0.03999999910593033]","[0.0, -0.0, 0.4737224893055005]","[0.026750000193715096, 0.05299999937415123, 0.03999999910593033]","[0.0, 0.0, -0.9857791586690391]","[0.08677658438682556, 0.0927593931555748, 0.03999999910593033]","[0.0, 0.0, -0.47372859204714834]",0.9472007654041954,-9.258687077603232,"(0.0, 0.0, 0.0, 0.0, 0.0, 0.0)",1.6097085175776904,-0.550850558870837,-9.310651763444346,"(0.0, 0.0, 0.0, 0.0, 0.0, 0.0)",0.21783104241587867,-0.9472011754950539,9.258698013359455,"(0.0, 0.0, 0.0, 0.0, 0.0, 0.0)",-1.609711822487034,0.5508454489213972,9.310788028762744,"(0.0, 0.0, 0.0, 0.0, 0.0, 0.0)",-0.21783270758412676,False,,,,,False,,,,
39,Close,,,"(4.0106165104263135e-07, 0.169999026405202, 0.0005944331352702725)","(1.570848092729261, 0.0003750986118602944, -1.4060502423520339e-05)",,"[-0.026750000193715096, 0.05299999937415123, 0.03999999910593033]","[0.0, -0.0, 0.9472008140782049]","[-0.08519845455884933, 0.09504495561122894, 0.03999999910593033]","[0.0, -0.0, 0.39635019782230363]","[0.026750000193715096, 0.05299999937415123, 0.03999999910593033]","[0.0, 0.0, -0.9472011867132297]","[0.08519846946001053, 0.09504493325948715, 0.03999999910593033]","[0.0, 0.0, -0.3963557154153113]",0.9124806888632406,-8.332818369829143,"(0.0, 0.0, 0.0, 0.0, 0.0, 0.0)",1.4497611633824499,-0.5857655029837533,-8.379586587099913,"(0.0, 0.0, 0.0, 0.0, 0.0, 0.0)",0.19674731686213875,-0.9124810579450133,8.332828212009746,"(0.0, 0.0, 0.0, 0.0, 0.0, 0.0)",-1.4497641496546352,0.5857609040292575,8.379709225886469,"(0.0, 0.0, 0.0, 0.0, 0.0, 0.0)",-0.1967488266016999,False,,,,,False,,,,
40,Close,,,"(3.70657372146465e-07, 0.16999903038777142, 0.0006260749884053443)","(1.5708440552876382, 0.00034508120830118214, -1.4055585689260766e-05)",,"[-0.026750000193715096, 0.05299999937415123, 0.03999999910593033]","[0.0, -0.0, 0.9124807402838544]","[-0.08370371162891388, 0.09704854339361191, 0.03999999910593033]","[0.0, -0.0, 0.32671521193417863]","[0.026750000193715096, 0.05299999937415123, 0.03999999910593033]","[0.0, 0.0, -0.9124811663733811]","[0.08370373398065567, 0.09704852104187012, 0.03999999910593033]","[0.0, 0.0, -0.32672018954414506]",0.8812326199769166,-7.499536532717775,"(0.0, 0.0, 0.0, 0.0, 0.0, 0.0)",1.3056085801322186,-0.6171891619197363,-7.541678144635914,"(0.0, 0.0, 0.0, 0.0, 0.0, 0.0)",0.17763358199117588,-0.881232952150512,7.499545390680321,"(0.0, 0.0, 0.0, 0.0, 0.0, 0.0)",-1.305611277336412,0.617185022862301,7.541788519930457,"(0.0, 0.0, 0.0, 0.0, 0.0, 0.0)",-0.17763494969582577,False,,,,,False,,,,
41,Close,,,"(3.427044292909036e-07, 0.1699990340506735, 0.0006551854712062516)","(1.5708403346470328, 0.0003174583455114455, -1.4051356821419932e-05)",,"[-0.026750000193715096, 0.05299999937415123, 0.03999999910593033]","[0.0, -0.0, 0.8812326035131218]","[-0.08229970186948776, 0.09880644828081131, 0.03999999910593033]","[0.0, -0.0, 0.26404346611112495]","[0.026750000193715096, 0.05299999937415123, 0.03999999910593033]","[0.0, 0.0, -0.8812328730718287]","[0.08229971677064896, 0.09880642592906952, 0.03999999910593033]","[0.0, 0.0, -0.2640479150919315]",0.8531093579792249,-6.749582879446001,"(0.0, 0.0, 0.0, 0.0, 0.0, 0.0)",1.1757252455852583,-0.6454704345862542,-6.78750543996429,"(0.0, 0.0, 0.0, 0.0, 0.0, 0.0)",0.16033509317806058,-0.8531096569354608,6.7495908516122896,"(0.0, 0.0, 0.0, 0.0, 0.0, 0.0)",-1.1757276808922346,0.645466709436021,6.787604777692787,"(0.0, 0.0, 0.0, 0.0, 0.0, 0.0)",-0.16033633143309114,False,,,,,False,,,,
42,Close,,,"(3.170084497545684e-07, 0.16999903740907119, 0.0006819671107693073)","(1.570836911771951, 0.00029204530032808255, -1.4047683015968837e-05)",,"[-0.026750000193715096, 0.05299999937415123, 0.03999999910593033]","[0.0, -0.0, 0.8531093567174074]","[-0.08098968118429184, 0.10035036504268646, 0.03999999910593033]","[0.0, -0.0, 0.2076389231904772]","[0.026750000193715096, 0.05299999937415123, 0.03999999910593033]","[0.0, 0.0, -0.8531096230941355]","[0.08098969608545303, 0.10035035014152527, 0.03999999910593033]","[0.0, 0.0, -0.2076429742570099]",0.8277984221813024,-6.0746245915014,"(0.0, 0.0, 0.0, 0.0, 0.0, 0.0)",1.0586966037970245,-0.6709235615380169,-6.1087504684230565,"(0.0, 0.0, 0.0, 0.0, 0.0, 0.0)",0.14467321668423558,-0.8277986912419147,6.074631766451059,"(0.0, 0.0, 0.0, 0.0, 0.0, 0.0)",-1.0586988018726124,0.6709202089041267,6.108839872345364,"(0.0, 0.0, 0.0, 0.0, 0.0, 0.0)",-0.14467433700617466,False,,,,,False,,,,
43,Close,,,"(2.93385406087929e-07, 0.16999904048782613, 0.0007066062149797113)","(1.5708337628331848, 0.0002686652895538331, -1.4044478861914954e-05)",,"[-0.026750000193715096, 0.05299999937415123, 0.03999999910593033]","[0.0, -0.0, 0.8277984323872327]","[-0.07977395504713058, 0.10170790553092957, 0.03999999910593033]","[0.0, -0.0, 0.15687485461046338]","[0.026750000193715096, 0.05299999937415123, 0.03999999910593033]","[0.0, 0.0, -0.8277987052452376]","[0.07977396249771118, 0.10170789808034897, 0.03999999910593033]","[0.0, 0.0, -0.15687847762667875]",0.8050185799631722,-5.467162132351259,"(0.0, 0.0, 0.0, 0.0, 0.0, 0.0)",0.9532674830029981,-0.6938313591081322,-5.497871416827678,"(0.0, 0.0, 0.0, 0.0, 0.0, 0.0)",0.1305069121449798,-0.8050188221177232,5.467168589805953,"(0.0, 0.0, 0.0, 0.0, 0.0, 0.0)",-0.9532694663734236,0.6938283417388244,5.49795188032743,"(0.0, 0.0, 0.0, 0.0, 0.0, 0.0)",-0.13050792520753388,False,,,,,False,,,,
44,Close,,,"(2.716665250887489e-07, 0.16999904330973556, 0.0007292741870466809)","(1.5708308659078907, 0.0002471556717650467, -1.4041672069322908e-05)",,"[-0.026750000193715096, 0.05299999937415123, 0.03999999910593033]","[0.0, -0.0, 0.8050185839979388]","[-0.07865073531866074, 0.10290304571390152, 0.03999999910593033]","[0.0, -0.0, 0.11118723016400785]","[0.026750000193715096, 0.05299999937415123, 0.03999999910593033]","[0.0, 0.0, -0.8050187952188965]","[0.07865074276924133, 0.10290303081274033, 0.03999999910593033]","[0.0, 0.0, -0.11119048022217565]",0.784516721966855,-4.920445919116134,"(0.0, 0.0, 0.0, 0.0, 0.0, 0.0)",0.8582975670224743,-0.7144483618360385,-4.948080654697517,"(0.0, 0.0, 0.0, 0.0, 0.0, 0.0)",0.11770004006048959,-0.784516939905951,4.92045173082536,"(0.0, 0.0, 0.0, 0.0, 0.0, 0.0)",-0.8582993561887614,0.7144456462047399,4.948153071819748,"(0.0, 0.0, 0.0, 0.0, 0.0, 0.0)",-0.11770095568272418,False,,,,,False,,,,
45,Close,,,"(2.51696986958339e-07, 0.1699990458957082, 0.0007501287178850499)","(1.5708282008276007, 0.000227366816649173, -1.4039201474218165e-05)",,"[-0.026750000193715096, 0.05299999937415123, 0.03999999910593033]","[0.0, -0.0, 0.7845167193080385]","[-0.07761679589748383, 0.10395654290914536, 0.03999999910593033]","[0.0, -0.0, 0.07006835685702544]","[0.026750000193715096, 0.05299999937415123, 0.03999999910593033]","[0.0, 0.0, -0.7845169946958266]","[0.07761680334806442, 0.10395653545856476, 0.03999999910593033]","[0.0, 0.0, -0.0700712989357174]",0.7660650497701694,-4.42840132720452,"(0.0, 0.0, 0.0, 0.0, 0.0, 0.0)",0.7727568402429666,-0.7330036506599046,-4.453269317727849,"(0.0, 0.0, 0.0, 0.0, 0.0, 0.0)",0.106127525293464,-0.7660652459153559,4.428406557742824,"(0.0, 0.0, 0.0, 0.0, 0.0, 0.0)",-0.7727584538402424,0.7330012065927102,4.453334493112861,"(0.0, 0.0, 0.0, 0.0, 0.0, 0.0)",-0.10612835248484857,False,,,,,False,,,,
46,Close,,,"(2.3333473952068603e-07, 0.16999904826492518, 0.0007693148831029557)","(1.5708257490378412, 0.00020916106414766092, -1.403701531280991e-05)",,"[-0.026750000193715096, 0.05299999937415123, 0.03999999910593033]","[0.0, -0.0, 0.7660649977175382]","[-0.07666795700788498, 0.10488639771938324, 0.03999999910593033]","[0.0, -0.0, 0.03306140223906952]","[0.026750000193715096, 0.05299999937415123, 0.03999999910593033]","[0.0, 0.0, -0.7660653079646047]","[0.07666796445846558, 0.10488638281822205, 0.03999999910593033]","[0.0, 0.0, -0.033064041138401834]",0.7494585447931524,-3.985561194484066,"(0.0, 0.0, 0.0, 0.0, 0.0, 0.0)",0.6957152666369016,-0.7497033982890566,-4.007939430996486,"(0.0, 0.0, 0.0, 0.0, 0.0, 0.0)",0.09567473522853766,-0.7494587213238203,3.985565901968542,"(0.0, 0.0, 0.0, 0.0, 0.0, 0.0)",-0.6957167215859875,0.7497011986294615,4.007998088820328,"(0.0, 0.0, 0.0, 0.0, 0.0, 0.0)",-0.09567548223716564,False,,,,,False,,,,
47,Close,,,"(2.1644941757498085e-07, 0.1699990504349868, 0.0007869661522299996)","(1.5708234934689855, 0.0001924117668631307, -1.4035069780186692e-05)",,"[-0.026750000193715096, 0.05299999937415123, 0.03999999910593033]","[0.0, -0.0, 0.7494586090384826]","[-0.07579945772886276, 0.10570816695690155, 0.03999999910593033]","[0.0, 0.0, -0.000244853492999894]","[0.026750000193715096, 0.05299999937415123, 0.03999999910593033]","[0.0, 0.0, -0.7494587081400255]","[0.07579946517944336, 0.10570815205574036, 0.03999999910593033]","[0.0, -0.0, 0.00024247731079752444]",0.7345126903138371,-3.587005075035659,"(0.0, 0.0, 0.0, 0.0, 0.0, 0.0)",0.626333365984163,-0.764733160038395,-3.6071428198412123,"(0.0, 0.0, 0.0, 0.0, 0.0, 0.0)",0.08623682787405348,-0.7345128491914382,3.587009311771688,"(0.0, 0.0, 0.0, 0.0, 0.0, 0.0)",-0.6263346776346612,0.7647311803455538,3.607195611862134,"(0.0, 0.0, 0.0, 0.0, 0.0, 0.0)",-0.08623750223625977,False,,,,,False,,,,
48,Close,,,"(1.9902478529523268e-07, 0.16999905216510106, 0.0008031506134026157)","(1.5708213694672628, 0.00017518801369688713, -1.4031269556480368e-05)",,"[-0.026750000193715096, 0.05299999937415123, 0.03999999910593033]","[0.0, -0.0, 0.7345126628086843]","[-0.07500623911619186, 0.10643533617258072, 0.03999999910593033]","[0.0, 0.0, -0.03022046980229406]","[0.026750000193715096, 0.05299999937415123, 0.03999999910593033]","[0.0, 0.0, -0.7345128981556924]","[0.07500624656677246, 0.10643532872200012, 0.03999999910593033]","[0.0, -0.0, 0.03021832986745902]",0.7210614212824534,-3.228304567532092,"(0.0, 0.0, 0.0, 0.0, 0.0, 0.0)",0.5638237707840803,-0.7782610712626786,-3.246698693828069,"(0.0, 0.0, 0.0, 0.0, 0.0, 0.0)",0.07768823801248652,-0.7210615642722944,3.2283083805945183,"(0.0, 0.0, 0.0, 0.0, 0.0, 0.0)",-0.5638249528147553,0.7782592895487316,3.2467462087626835,"(0.0, 0.0, 0.0, 0.0, 0.0, 0.0)",-0.07768884636877696,False,,,,,False,,,,
49,Close,,,"(1.829952775457341e-07, 0.16999905372445717, 0.0008180403399689366)","(1.5708194143492393, 0.00015934185659229473, -1.4027683329641553e-05)",,"[-0.026750000193715096, 0.05299999937415123, 0.03999999910593033]","[0.0, -0.0, 0.7210614193238458]","[-0.07428312301635742, 0.10707958787679672, 0.03999999910593033]","[0.0, 0.0, -0.05719964992344959]","[0.026750000193715096, 0.05299999937415123, 0.03999999910593033]","[0.0, 0.0, -0.7210615729227128]","[0.07428313046693802, 0.10707958042621613, 0.03999999910593033]","[0.0, -0.0, 0.05719773186848648]",0.7089552791542081,-2.905474110778883,"(0.0, 0.0, 0.0, 0.0, 0.0, 0.0)",0.5075985242705942,-0.7904360705014085,-2.921999817295172,"(0.0, 0.0, 0.0, 0.0, 0.0, 0.0)",0.07003713951344083,-0.7089554078450649,2.905477542535066,"(0.0, 0.0, 0.0, 0.0, 0.0, 0.0)",-0.5075995897946305,0.7904344669675306,2.9220425805117625,"(0.0, 0.0, 0.0, 0.0, 0.0, 0.0)",-0.07003768863744474,False,,,,,False,,,,
50,Close,,,"(1.682467379846132e-07, 0.1699990551245469, 0.0008317388481303276)","(1.570817615731277, 0.00014476218910829968, -1.4024269510216624e-05)",,"[-0.026750000193715096, 0.05299999937415123, 0.03999999910593033]","[0.0, -0.0, 0.7089552779168017]","[-0.07362496107816696, 0.10765105485916138, 0.03999999910593033]","[0.0, 0.0, -0.08148078223376223]","[0.026750000193715096, 0.05299999937415123, 0.03999999910593033]","[0.0, 0.0, -0.7089554724698194]","[0.07362496852874756, 0.10765104740858078, 0.03999999910593033]","[0.0, -0.0, 0.0814790502780401]",0.6980597512387873,-2.6149266997009946,"(0.0, 0.0, 0.0, 0.0, 0.0, 0.0)",0.45693917814201784,-0.8013934602632394,-2.6297735428394082,"(0.0, 0.0, 0.0, 0.0, 0.0, 0.0)",0.06310201359777694,-0.6980598670605584,2.614929788281559,"(0.0, 0.0, 0.0, 0.0, 0.0, 0.0)",-0.45694013827892466,0.8013920170905735,2.6298120295302843,"(0.0, 0.0, 0.0, 0.0, 0.0, 0.0)",-0.06310250889925509,False,,,,,False,,,,
51,Close,,,"(1.546756367802499e-07, 0.16999905637827734, 0.0008443414385910609)","(1.5708159610857961, 0.00013134778772512943, -1.402100024143693e-05)",,"[-0.026750000193715096, 0.05299999937415123, 0.03999999910593033]","[0.0, -0.0, 0.6980597686270504]","[-0.07302673906087875, 0.10815852880477905, 0.03999999910593033]","[0.0, 0.0, -0.10333370902653251]","[0.026750000193715096, 0.05299999937415123, 0.03999999910593033]","[0.0, 0.0, -0.6980598246378259]","[0.07302674651145935, 0.10815852135419846, 0.03999999910593033]","[0.0, -0.0, 0.10333215264877679]",0.6882537761149086,-2.3534340297308955,"(0.0, 0.0, 0.0, 0.0, 0.0, 0.0)",0.41132662822933225,-0.8112550122446371,-2.3667724755354502,"(0.0, 0.0, 0.0, 0.0, 0.0, 0.0)",0.056847326346645,-0.6882538803545026,2.353436809453404,"(0.0, 0.0, 0.0, 0.0, 0.0, 0.0)",-0.4113274932960819,0.8112537133962935,2.3668071133728046,"(0.0, 0.0, 0.0, 0.0, 0.0, 0.0)",-0.0568477730004364,False,,,,,False,,,,
52,Close,,,"(1.4218689550358636e-07, 0.1699990574974972, 0.0008559357877458743)","(1.5708144388885392, 0.00011900551991941484, -1.4017852050493115e-05)",,"[-0.026750000193715096, 0.05299999937415123, 0.03999999910593033]","[0.0, -0.0, 0.6882538042795985]","[-0.07248363643884659, 0.10860966145992279, 0.03999999910593033]","[0.0, 0.0, -0.12300123728040792]","[0.026750000193715096, 0.05299999937415123, 0.03999999910593033]","[0.0, 0.0, -0.688253900607872]","[0.07248364388942719, 0.1086096540093422, 0.03999999910593033]","[0.0, -0.0, 0.12299984676553348]",0.6794283985034177,-2.118090626757806,"(0.0, 0.0, 0.0, 0.0, 0.0, 0.0)",0.3702598465395096,-0.8201303199370257,-2.1300738461732434,"(0.0, 0.0, 0.0, 0.0, 0.0, 0.0)",0.051207533272865695,-0.6794284923190523,2.1180931285080637,"(0.0, 0.0, 0.0, 0.0, 0.0, 0.0)",-0.37026062586363284,0.8201291509798778,2.130105020060234,"(0.0, 0.0, 0.0, 0.0, 0.0, 0.0)",-0.051207935975855504,False,,,,,False,,,,
53,Close,,,"(1.3069318416839e-07, 0.16999905849308636, 0.0008666025576372722)","(1.5708130385376784, 0.00010764969663878531, -1.401480516953977e-05)",,"[-0.026750000193715096, 0.05299999937415123, 0.03999999910593033]","[0.0, -0.0, 0.6794284238724229]","[-0.07199108600616455, 0.10901110619306564, 0.03999999910593033]","[0.0, 0.0, -0.14070193198542613]","[0.026750000193715096, 0.05299999937415123, 0.03999999910593033]","[0.0, 0.0, -0.6794284800706577]","[0.07199109345674515, 0.10901109874248505, 0.03999999910593033]","[0.0, -0.0, 0.1407006814892172]",0.6714855586530759,-1.9062815640820263,"(0.0, 0.0, 0.0, 0.0, 0.0, 0.0)",0.33328720146674756,-0.82811801654313,-1.9170471854650495,"(0.0, 0.0, 0.0, 0.0, 0.0, 0.0)",0.0461231568532664,-0.6714856430871471,1.9062838156572566,"(0.0, 0.0, 0.0, 0.0, 0.0, 0.0)",-0.33328790347714454,0.8281169644874314,1.917075241812861,"(0.0, 0.0, 0.0, 0.0, 0.0, 0.0)",-0.04612351986457081,False,,,,,False,,,,
54,Close,,,"(1.215342031497702e-07, 0.16999905927800155, 0.0008764534202702959)","(1.5708119364092452, 9.859596912707159e-05, -1.4012453624748191e-05)",,"[-0.026750000193715096, 0.05299999937415123, 0.03999999910593033]","[0.0, -0.0, 0.6714856028191667]","[-0.07154478132724762, 0.10936867445707321, 0.03999999910593033]","[0.0, 0.0, -0.1566324602805662]","[0.026750000193715096, 0.05299999937415123, 0.03999999910593033]","[0.0, 0.0, -0.6714856028191667]","[0.07154478132724762, 0.10936867445707321, 0.03999999910593033]","[0.0, -0.0, 0.15663130155257995]",0.6643369538387205,-1.7156651554452944,"(0.0, 0.0, 0.0, 0.0, 0.0, 0.0)",0.30000166468946887,-0.835306214888817,-1.7251676029648806,"(0.0, 0.0, 0.0, 0.0, 0.0, 0.0)",0.04155624710095235,-0.6643370787784324,1.7156554340915304,"(0.0, 0.0, 0.0, 0.0, 0.0, 0.0)",-0.30001025714826124,0.8353056214203683,1.725277663904859,"(0.0, 0.0, 0.0, 0.0, 0.0, 0.0)",-0.04154857209895147,False,,,,,False,,,,
55,Close,,,"(1.1310432827558917e-07, 0.16999905997329942, 0.0008855161998528755)","(1.570810922840692, 9.026647704129323e-05, -1.4010159230611716e-05)",,"[-0.026750000193715096, 0.05299999937415123, 0.03999999910593033]","[0.0, -0.0, 0.6643369653927717]","[-0.07114068418741226, 0.1096874549984932, 0.03999999910593033]","[0.0, 0.0, -0.17096925747695302]","[0.026750000193715096, 0.05299999937415123, 0.03999999910593033]","[0.0, 0.0, -0.6643370606126838]","[0.07114069163799286, 0.1096874475479126, 0.03999999910593033]","[0.0, -0.0, 0.17096853465491932]",0.6579032143932824,-1.5440974669051448,"(0.0, 0.0, 0.0, 0.0, 0.0, 0.0)",0.2700364814690639,-0.8417755933999352,-1.5526508426683936,"(0.0, 0.0, 0.0, 0.0, 0.0, 0.0)",0.03740692432000459,-0.6579033709005891,1.5440898906823783,"(0.0, 0.0, 0.0, 0.0, 0.0, 0.0)",-0.2700354542486171,0.8417753773527313,1.5527414237671282,"(0.0, 0.0, 0.0, 0.0, 0.0, 0.0)",-0.037408808467865214,False,,,,,False,,,,
56,Close,,,"(1.0534481131775603e-07, 0.16999906058673234, 0.0008938539489688948)","(1.5708099904555657, 8.260318251294116e-05, -1.4007914286402944e-05)",,"[-0.026750000193715096, 0.05299999937415123, 0.03999999910593033]","[0.0, -0.0, 0.6579032740858894]","[-0.07077505439519882, 0.10997187346220016, 0.03999999910593033]","[0.0, 0.0, -0.18387239873428046]","[0.026750000193715096, 0.05299999937415123, 0.03999999910593033]","[0.0, 0.0, -0.6579033304946226]","[0.07077506184577942, 0.10997187346220016, 0.03999999910593033]","[0.0, -0.0, 0.18387202777851067]",0.6521128532756494,-1.389686668231925,"(0.0, 0.0, 0.0, 0.0, 0.0, 0.0)",0.24306112150784998,-0.8475980340599417,-1.3973857584015548,"(0.0, 0.0, 0.0, 0.0, 0.0, 0.0)",0.03368566932792868,-0.6521130338105302,1.38968090161414,"(0.0, 0.0, 0.0, 0.0, 0.0, 0.0)",-0.24306028341686647,0.8475981259178405,1.397459655626195,"(0.0, 0.0, 0.0, 0.0, 0.0, 0.0)",-0.03368728753272403,False,,,,,False,,,,
57,Close,,,"(9.820171876492548e-08, 0.169999061124901, 0.0009015246707123422)","(1.5708091327513556, 7.555280280189103e-05, -1.4005710920094714e-05)",,"[-0.026750000193715096, 0.05299999937415123, 0.03999999910593033]","[0.0, -0.0, 0.6521128355037231]","[-0.07044442743062973, 0.11022584140300751, 0.03999999910593033]","[0.0, 0.0, -0.19548521722596446]","[0.026750000193715096, 0.05299999937415123, 0.03999999910593033]","[0.0, 0.0, -0.6521129866161153]","[0.07044444233179092, 0.11022583395242691, 0.03999999910593033]","[0.0, -0.0, 0.19548511661245857]",0.6469015322190658,-1.250717053580079,"(0.0, 0.0, 0.0, 0.0, 0.0, 0.0)",0.21877791378282216,-0.8528382306539476,-1.2576471825613993,"(0.0, 0.0, 0.0, 0.0, 0.0, 0.0)",0.03033284603923922,-0.6469017304294772,1.2507128114527255,"(0.0, 0.0, 0.0, 0.0, 0.0, 0.0)",-0.2187772302982403,0.8528385710234629,1.2577068253493975,"(0.0, 0.0, 0.0, 0.0, 0.0, 0.0)",-0.030334232110526133,False,,,,,False,,,,
58,Close,,,"(9.162547949802433e-08, 0.16999906159387068, 0.0009085817278725591)","(1.5708083437464324, 6.906631667183302e-05, -1.4003542491909545e-05)",,"[-0.026750000193715096, 0.05299999937415123, 0.03999999910593033]","[0.0, -0.0, 0.6469016509837546]","[-0.0701456144452095, 0.11045277118682861, 0.03999999910593033]","[0.0, 0.0, -0.2059367124085215]","[0.026750000193715096, 0.05299999937415123, 0.03999999910593033]","[0.0, 0.0, -0.6469017640113621]","[0.0701456293463707, 0.11045276373624802, 0.03999999910593033]","[0.0, -0.0, 0.20593683098641472]",0.6422113468260227,-1.1256444943303587,"(0.0, 0.0, 0.0, 0.0, 0.0, 0.0)",0.1969186609398246,-0.8575544075885528,-1.1318824643052583,"(0.0, 0.0, 0.0, 0.0, 0.0, 0.0)",0.02731231273085754,-0.6422115573865295,1.1256415303074527,"(0.0, 0.0, 0.0, 0.0, 0.0, 0.0)",-0.19691810960830958,0.8575549458706943,1.1319299633355024,"(0.0, 0.0, 0.0, 0.0, 0.0, 0.0)",-0.027313496706858925,False,,,,,False,,,,
59,Move,,,"(8.557052840066834e-08, 0.1699990619992151, 0.0009150742141671545)","(1.5708076179382604, 6.309862361988846e-05, -1.4001403399814189e-05)","[0.0, 0.0, 0.0]","[-0.026750000193715096, 0.05299999937415123, 0.03999999910593033]","[0.0, -0.0, 0.6422114091507015]","[-0.06987567245960236, 0.11065567284822464, 0.03999999910593033]","[0.0, 0.0, -0.21534307533736577]","[0.026750000193715096, 0.05299999937415123, 0.03999999910593033]","[0.0, 0.0, -0.6422115222668433]","[0.06987568736076355, 0.11065565794706345, 0.03999999910593033]","[0.0, -0.0, 0.21534338444542536]",0.6379901831772326,-1.0130792757096139,"(0.0, 0.0, 0.0, 0.0, 0.0, 0.0)",0.17724179841622537,-0.8617989668296976,-1.0186942178747322,"(0.0, 0.0, 0.0, 0.0, 0.0, 0.0)",0.024591409057424463,-0.6379904016478766,1.0130773772767077,"(0.0, 0.0, 0.0, 0.0, 0.0, 0.0)",-0.17724135971732996,0.8617996600559851,1.0187314044697888,"(0.0, 0.0, 0.0, 0.0, 0.0, 0.0)",-0.024592417334693178,False,,,,,False,,,,
60,Move,,,"(8.054506805437972e-08, 0.1699990628700707, 0.0009210687379857038)","(1.5708067351820603, 5.808618887691449e-05, -1.4001220365250062e-05)","[-5.025460346288623e-09, 8.708555820913233e-10, 5.9945238185493514e-06]","[-0.026750000193715096, 0.05299999937415123, 0.03999999910593033]","[0.0, -0.0, 0.6379901734002175]","[-0.0696319192647934, 0.11083719879388809, 0.03999999910593033]","[0.0, 0.0, -0.22380882590426476]","[0.026750000193715096, 0.05299999937415123, 0.03999999910593033]","[0.0, 0.0, -0.6379904179642307]","[0.06963192671537399, 0.1108371838927269, 0.03999999910593033]","[0.0, -0.0, 0.2238092686472912]",0.615110501757626,-5.491123540705553,"(0.0, 0.0, 0.0, 0.0, 0.0, 0.0)",-6.452664543389378,-0.8613745109055831,0.10186942178747405,"(0.0, 0.0, 0.0, 0.0, 0.0, 0.0)",-0.36784052556618174,-0.6151107224706415,5.491123002536415,"(0.0, 0.0, 0.0, 0.0, 0.0, 0.0)",6.4526471605668725,0.8613746216960798,-0.10200920637725197,"(0.0, 0.0, 0.0, 0.0, 0.0, 0.0)",0.36782129504091793,False,,,,,False,,,,
61,Move,,,"(5.940516591103607e-05, 0.1703437568138908, 0.0010500314119228893)","(1.5643298895424282, 0.00027661234296314, -0.0009352889979274993)","[5.93195953826354e-05, 0.0003446948146756945, 0.00013495719775573486]","[-0.026750000193715096, 0.05299999937415123, 0.03999999910593033]","[0.0, -0.0, 0.6151104986470308]","[-0.06829751282930374, 0.1118030995130539, 0.03999999910593033]","[0.0, 0.0, -0.246263999143583]","[0.026750000193715096, 0.05299999937415123, 0.03999999910593033]","[0.0, 0.0, -0.6151107619663475]","[0.06829752773046494, 0.1118030846118927, 0.03999999910593033]","[0.0, -0.0, 0.24626389562518983]",0.5956161966004214,-4.6786332377291195,"(0.0, 0.0, 0.0, 0.0, 0.0, 0.0)",-45.064123679320666,-0.8418493909048784,4.686028800169141,"(0.0, 0.0, 0.0, 0.0, 0.0, 0.0)",-23.09655702027168,-0.5970579806926201,4.332658026725147,"(0.0, 0.0, 0.0, 0.0, 0.0, 0.0)",42.81663647838769,0.8440986232586009,-4.146239624994961,"(0.0, 0.0, 0.0, 0.0, 0.0, 0.0)",22.129947981443944,True,"(-0.03288709604816328, 0.18306438720344026, 0.039999941913811156)","(0.9999999982149803, -1.4001220345169743e-05, -5.808618884556765e-05)",0.0009296302190382324,357.13993029637425,True,"(0.03288711685999342, 0.18306440981828198, 0.040000058086188846)","(-0.9999999982149801, 1.4001220341052645e-05, 5.808618884399239e-05)",0.000924584187083999,343.301164957619
62,Move,"(0.0, 0.0, 0.0)","(0.0, -0.0, 0.0)","(0.00014460171890130693, 0.17076455883108094, 0.0012739309026423024)","(1.5535163150922624, 0.0006279799994541093, -0.0020205715892699957)","[0.00014451614837290627, 0.0007654968318658306, 0.00035885668847514794]","[-0.026750000193715096, 0.05299999937415123, 0.03999999910593033]","[0.0, -0.0, 0.5956163067144957]","[-0.06714336574077606, 0.11260181665420532, 0.03999999910593033]","[0.0, 0.0, -0.24623319958102435]","[0.026750000193715096, 0.05299999937415123, 0.03999999910593033]","[0.0, 0.0, -0.5970580003918642]","[0.0672292560338974, 0.1125435158610344, 0.03999999910593033]","[0.0, -0.0, 0.24704068336969465]",0.577182948693683,-4.423979497617204,"(0.0, 0.0, 0.0, 0.0, 0.0, 0.0)",-74.28507796533965,-0.8123582418985011,7.077875761530552,"(0.0, 0.0, 0.0, 0.0, 0.0, 0.0)",-37.97320429558692,-0.5807549349819161,3.9127309705689393,"(0.0, 0.0, 0.0, 0.0, 0.0, 0.0)",71.3563896210588,0.817931126854409,-6.280199137006037,"(0.0, 0.0, 0.0, 0.0, 0.0, 0.0)",36.48748188054305,True,"(-0.03173514516522488, 0.18386324175030183, 0.03999972338766057)","(0.9999995243600999, -0.0009352888258010219, -0.0002766123394325278)",-0.00014204539179249497,569.9397358110091,True,"(0.03176350664849115, 0.18377900580476123, 0.04000027661233945)","(-0.9999995243600999, 0.0009352888257851527, 0.0002766123394454282)",-0.00027925274263562884,549.572017612836
63,Move,"(0.00063291139240506, 0.0, 0.00063291139240506)","(0.0, -0.0, 0.0)","(0.00017990016896545654, 0.1710677448844613, 0.0015373226600282738)","(1.5456515976189584, 0.0003735384001243378, -0.002372510930709496)","[0.0001798145984370559, 0.0010686828852461971, 0.0006222484458611193]","[-0.026750000193715096, 0.05299999937415123, 0.03999999910593033]","[0.0, -0.0, 0.5771829340639897]","[-0.06603790819644928, 0.1133362278342247, 0.03999999910593033]","[0.0, 0.0, -0.23517530244307636]","[0.026750000193715096, 0.05299999937415123, 0.03999999910593033]","[0.0, 0.0, -0.5807550274215715]","[0.0662531778216362, 0.1131955087184906, 0.03999999910593033]","[0.0, -0.0, 0.23717618215156402]",0.5794843832226216,0.5523442869452602,"(0.0, 0.0, 0.0, 0.0, 0.0, 0.0)",6.452415097847196,-0.8153073567991389,-0.7077875761530548,"(0.0, 0.0, 0.0, 0.0, 0.0, 0.0)",-0.3075159167056045,-0.5827919476328107,-0.488883036214697,"(0.0, 0.0, 0.0, 0.0, 0.0, 0.0)",-5.387934382820081,0.8205364541818962,0.625278558596924,"(0.0, 0.0, 0.0, 0.0, 0.0, 0.0)",0.4630870079210165,True,"(-0.03141979158577567, 0.18497268770173292, 0.03999937202004182)","(0.99999776146689, -0.002020569815935573, -0.0006279799581775791)",-0.0003426492248127266,0.0,True,"(0.031491786709972186, 0.18476859853698757, 0.04000062797995818)","(-0.9999977614668899, 0.002020569815959169, 0.000627979958185903)",-0.0006655000989636259,2.4227409319750435
64,Move,"(0.00126582278481012, 0.0, 0.00126582278481012)","(0.0, -0.0, 0.0)","(0.00021083515776750748, 0.1713096273924798, 0.00174986096350252)","(1.5393761038797185, 0.00012153502247176053, -0.0025510951019648447)","[0.00021074958723910683, 0.0013105653932646844, 0.0008347867493353655]","[-0.026750000193715096, 0.05299999937415123, 0.03999999910593033]","[0.0, -0.0, 0.579484411495221]","[-0.06617666780948639, 0.1132456511259079, 0.03999999910593033]","[0.0, 0.0, -0.23582296243149675]","[0.026750000193715096, 0.05299999937415123, 0.03999999910593033]","[0.0, 0.0, -0.5827919168412239]","[0.0663757175207138, 0.11311491578817368, 0.03999999910593033]","[0.0, -0.0, 0.23774450851966034]",0.57977867565161,0.07063018295720452,"(0.0, 0.0, 0.0, 0.0, 0.0, 0.0)",-0.6218994355422417,-0.8150129586424854,0.07065555759686426,"(0.0, 0.0, 0.0, 0.0, 0.0, 0.0)",0.03249596990014973,-0.5832880393759053,-0.11906201834270025,"(0.0, 0.0, 0.0, 0.0, 0.0, 0.0)",0.4675774961940247,0.8202768782248315,-0.06229822969552168,"(0.0, 0.0, 0.0, 0.0, 0.0, 0.0)",-0.0347993729488671,True,"(-0.03151215615252611, 0.18485996868264187, 0.03999962646160857)","(0.9999971158319909, -0.002372508539446597, -0.0003735383914344108)",-0.00022094495667190095,0.0,True,"(0.031573654883167254, 0.18466915851632545, 0.040000373538391434)","(-0.9999971158319911, 0.0023725085394516116, 0.00037353839142976845)",-0.000612971915587173,0.0
65,Move,"(0.00189873417721519, 0.0, 0.00189873417721519)","(0.0, -0.0, 0.0)","(0.00023740711119307496, 0.1714900835757431, 0.001911824687561356)","(1.5346862947952216, -0.00012457600653892204, -0.0025585866123413307)","[0.0002373215406646743, 0.001491021576528001, 0.0009967504733942017]","[-0.026750000193715096, 0.05299999937415123, 0.03999999910593033]","[0.0, -0.0, 0.5797787035276549]","[-0.06619439274072647, 0.11323404312133789, 0.03999999910593033]","[0.0, 0.0, -0.2352342855566528]","[0.026750000193715096, 0.05299999937415123, 0.03999999910593033]","[0.0, 0.0, -0.5832880138790534]","[0.0664055347442627, 0.1130952462553978, 0.03999999910593033]","[0.0, -0.0, 0.23698885269206002]",0.5799286461127915,0.03599291068355548,"(0.0, 0.0, 0.0, 0.0, 0.0, 0.0)",-0.05934536354735902,-0.815042204188655,-0.00701893108072342,"(0.0, 0.0, 0.0, 0.0, 0.0, 0.0)",-0.012298002738216521,-0.5839046141143465,-0.14797793722586672,"(0.0, 0.0, 0.0, 0.0, 0.0, 0.0)",-0.034984250752503554,0.8203027673758774,0.006213396250997871,"(0.0, 0.0, 0.0, 0.0, 0.0, 0.0)",0.004332809024567386,True,"(-0.03157205056427616, 0.184867990091515, 0.03999987846497783)","(0.9999967385732984, -0.0025510923160018736, -0.0001215350221716496)",-0.0001379797726650717,0.0,True,"(0.031657551980503844, 0.1846751944091389, 0.040000121535022186)","(-0.9999967385732984, 0.002551092315994591, 0.00012153502218283826)",-0.0005521304687882332,0.0
66,Move,"(0.00253164556962025, 0.0, 0.00253164556962025)","(0.0, -0.0, 0.0)","(0.0002609749391074704, 0.17160860081661078, 0.0020241349840262103)","(1.531588635465656, -0.00013943290690311106, -0.0021098045915753033)","[0.00026088936857906976, 0.0016095388173956726, 0.0011090607698590557]","[-0.026750000193715096, 0.05299999937415123, 0.03999999910593033]","[0.0, -0.0, 0.579928613267543]","[-0.06620342284440994, 0.11322812736034393, 0.03999999910593033]","[0.0, 0.0, -0.23511358409080613]","[0.026750000193715096, 0.05299999937415123, 0.03999999910593033]","[0.0, 0.0, -0.5839045841636419]","[0.0664425790309906, 0.1130707859992981, 0.03999999910593033]","[0.0, -0.0, 0.2363981678768651]",0.5801542261028013,0.05413919760235597,"(0.0, 0.0, 0.0, 0.0, 0.0, 0.0)",0.027498083309749063,-0.8150392829716752,0.000701092075178416,"(0.0, 0.0, 0.0, 0.0, 0.0, 0.0)",0.002833551959303772,-0.5848292336155297,-0.2219086802839838,"(0.0, 0.0, 0.0, 0.0, 0.0, 0.0)",-0.1093364544780317,0.8203001888834328,-0.0006188381866890488,"(0.0, 0.0, 0.0, 0.0, 0.0, 0.0)",-0.008848520161780362,True,"(-0.03158973202251625, 0.18486612496165616, 0.04000012457600623)","(0.9999967190594939, -0.00255858380091747, 0.00012457600622460562)",-0.00010348564349476702,0.0,True,"(0.03173688329248207, 0.1846706618389934, 0.039999875423993775)","(-0.9999967190594938, 0.0025585838009142725, -0.00012457600622400224)",-0.0004896051121848372,0.0
67,Move,"(0.00316455696202531, 0.0, 0.00316455696202531)","(0.0, -0.0, 0.0)","(0.00028236979779694134, 0.17166571378928586, 0.002085662852724477)","(1.5300646604764032, -0.0001287246000695627, -0.0015503172238393198)","[0.0002822842272685407, 0.00166665179007075, 0.0011705886385573222]","[-0.026750000193715096, 0.05299999937415123, 0.03999999910593033]","[0.0, -0.0, 0.5801542710267656]","[-0.06621701270341873, 0.11321922391653061, 0.03999999910593033]","[0.0, 0.0, -0.23488507384960053]","[0.026750000193715096, 0.05299999937415123, 0.03999999910593033]","[0.0, 0.0, -0.5848291715657936]","[0.06649810075759888, 0.11303406208753586, 0.03999999910593033]","[0.0, -0.0, 0.23547098750176254]",0.5803808917690044,0.05439975988875645,"(0.0, 0.0, 0.0, 0.0, 0.0, 0.0)",0.00031155104343820776,-0.8150395742269326,-6.990126179481893e-05,"(0.0, 0.0, 0.0, 0.0, 0.0, 0.0)",-5.484900090542049e-05,-0.5859954765718296,-0.27989830951197886,"(0.0, 0.0, 0.0, 0.0, 0.0, 0.0)",-0.08512467512758454,0.8203005459228402,8.568945775699541e-05,"(0.0, 0.0, 0.0, 0.0, 0.0, 0.0)",-0.006279117008467002,True,"(-0.03161968706431791, 0.1848653512067406, 0.04000013943290646)","(0.9999977646423721, -0.0021098030058486774, 0.00013943290645381472)",-5.673442289126464e-05,0.0,True,"(0.031858807259886684, 0.18466470792897047, 0.039999860567093544)","(-0.9999977646423721, 0.0021098030058492212, -0.00013943290645234202)",-0.0003844882486947271,0.0
68,Move,"(0.00379746835443038, 0.0, 0.00379746835443038)","(0.0, -0.0, 0.0)","(0.00030180947180418296, 0.1716655188172941, 0.002097040322520804)","(1.5301246366804067, -0.00011739834742507869, -0.0009232065453854968)","[0.0003017239012757823, 0.001666456818079004, 0.0011819661083536494]","[-0.026750000193715096, 0.05299999937415123, 0.03999999910593033]","[0.0, -0.0, 0.580380830679014]","[-0.0662306621670723, 0.1132102757692337, 0.03999999910593033]","[0.0, 0.0, -0.23465872420401473]","[0.026750000193715096, 0.05299999937415123, 0.03999999910593033]","[0.0, 0.0, -0.58599549366062]","[0.06656809151172638, 0.11298765987157822, 0.03999999910593033]","[0.0, -0.0, 0.23430509108057973]",0.5805977794227383,0.05205303689612784,"(0.0, 0.0, 0.0, 0.0, 0.0, 0.0)",-0.003422378981298664,-0.8150394926977734,1.9566998220675087e-05,"(0.0, 0.0, 0.0, 0.0, 0.0, 0.0)",-0.0002461802080304656,-0.587387271209912,-0.3340307131397626,"(0.0, 0.0, 0.0, 0.0, 0.0, 0.0)",-0.07953128940414778,0.8203017688222287,0.0002934958532388673,"(0.0, 0.0, 0.0, 0.0, 0.0, 0.0)",-0.005912628737516967,True,"(-0.0316495548437052, 0.18486456706897636, 0.04000012872459971)","(0.999998789973492, -0.001550316589967059, 0.00012872459971415335)",-1.2531308988579017e-05,0.0,True,"(0.03201232703485968, 0.1846569225739825, 0.039999871275400306)","(-0.999998789973492, 0.0015503165899589915, -0.00012872459970118968)",-0.00024534034100738014,0.0
69,Move,"(0.004430379746835441, 0.0, 0.004430379746835441)","(0.0, -0.0, 0.0)","(0.0003211921610828092, 0.17166169538479786, 0.0020571996164585153)","(1.5318060457602884, -0.0001080209142644172, -0.0002969722618239055)","[0.00032110659055440853, 0.0016626333855827569, 0.0011421254022913607]","[-0.026750000193715096, 0.05299999937415123, 0.03999999910593033]","[0.0, -0.0, 0.5805977874894578]","[-0.0662437155842781, 0.11320171505212784, 0.03999999910593033]","[0.0, 0.0, -0.23444173288125236]","[0.026750000193715096, 0.05299999937415123, 0.03999999910593033]","[0.0, 0.0, -0.5873872351982352]","[0.06665154546499252, 0.11293218284845352, 0.03999999910593033]","[0.0, -0.0, 0.2329145068169324]",0.5807908759291176,0.046343161531044785,"(0.0, 0.0, 0.0, 0.0, 0.0, 0.0)",-0.008369678942545778,-0.8150393681825976,2.988364221268666e-05,"(0.0, 0.0, 0.0, 0.0, 0.0, 0.0)",-0.0006232441579858817,-0.5889910841064897,-0.3849150951786466,"(0.0, 0.0, 0.0, 0.0, 0.0, 0.0)",-0.07480413338840251,0.8203028354676682,0.00025599490548338397,"(0.0, 0.0, 0.0, 0.0, 0.0, 0.0)",-0.005585344740404362,True,"(-0.03167815990318345, 0.184863914273887, 0.04000011739834715)","(0.9999995669536845, -0.0009232064078811917, 0.00011739834714634679)",2.7691422057396044e-05,0.0,True,"(0.032195469675151585, 0.18464741116746597, 0.039999882601652846)","(-0.9999995669536846, 0.0009232064078710134, -0.00011739834715468212)",-7.388803203344666e-05,0.0
70,Move,"(0.0050632911392405, 0.0, 0.0050632911392405)","(0.0, -0.0, 0.0)","(0.00034056075342786155, 0.171654400726571, 0.001966226982275676)","(1.535109952625577, -0.00010091744551250073, 0.00032902231507951244)","[0.0003404751828994609, 0.001655338727355904, 0.0010511527681085213]","[-0.026750000193715096, 0.05299999937415123, 0.03999999910593033]","[0.0, -0.0, 0.5807907664539965]","[-0.06625533849000931, 0.11319408565759659, 0.03999999910593033]","[0.0, 0.0, -0.23424848715024651]","[0.026750000193715096, 0.05299999937415123, 0.03999999910593033]","[0.0, 0.0, -0.5889911177635709]","[0.06674761325120926, 0.11286811530590057, 0.03999999910593033]","[0.0, -0.0, 0.23131177126802133]",0.5809455520250274,0.03712226301836008,"(0.0, 0.0, 0.0, 0.0, 0.0, 0.0)",-0.01352536192999987,-0.8150391662773117,4.8457268625034895e-05,"(0.0, 0.0, 0.0, 0.0, 0.0, 0.0)",-0.0010069989226512168,-0.5907930151026591,-0.43246343908066637,"(0.0, 0.0, 0.0, 0.0, 0.0, 0.0)",-0.0699177960187064,0.8203038397757698,0.00024103394438377955,"(0.0, 0.0, 0.0, 0.0, 0.0, 0.0)",-0.00521909376697059,True,"(-0.03170363097277536, 0.1848633975204877, 0.040000108020914055)","(0.9999999500694794, -0.00029697225573058433, 0.00010802091405541689)",6.464425767623491e-05,0.0,True,"(0.032406520696285204, 0.18463624273641577, 0.03999989197908595)","(-0.9999999500694796, 0.000296972255721304, -0.00010802091405023016)",0.00012557326810110338,0.0
71,Move,"(0.00569620253164556, 0.0, 0.00569620253164556)","(0.0, -0.0, 0.0)","(0.00035992241403289595, 0.17164404003240308, 0.0018241712832590632)","(1.5400371859778785, -9.778913241684749e-05, 0.0009545872065229377)","[0.0003598368435044953, 0.0016449780331879715, 0.0009090970690919087]","[-0.026750000193715096, 0.05299999937415123, 0.03999999910593033]","[0.0, -0.0, 0.5809456084516309]","[-0.06626465171575546, 0.11318797618150711, 0.03999999910593033]","[0.0, 0.0, -0.2340936293982091]","[0.026750000193715096, 0.05299999937415123, 0.03999999910593033]","[0.0, 0.0, -0.5907930667324172]","[0.06685542315244675, 0.11279594153165817, 0.03999999910593033]","[0.0, -0.0, 0.22951082625665797]",0.5810548768599338,0.026237960377549108,"(0.0, 0.0, 0.0, 0.0, 0.0, 0.0)",-0.015971209832676532,-0.8150389330335849,5.597849443322531e-05,"(0.0, 0.0, 0.0, 0.0, 0.0, 0.0)",-0.0011905757967878257,-0.5927865052787169,-0.4784376422538558,"(0.0, 0.0, 0.0, 0.0, 0.0, 0.0)",-0.06761934441523415,0.8203048137742686,0.00023375963970959053,"(0.0, 0.0, 0.0, 0.0, 0.0, 0.0)",-0.005047421583084798,True,"(-0.03172404154374167, 0.18486310782529564, 0.04000010091744535)","(0.9999999407799934, 0.00032902230746732205, 0.00010091744534932972)",9.641696884052954e-05,0.0,True,"(0.032643636524166554, 0.18462337509467286, 0.039999899082554656)","(-0.9999999407799935, -0.0003290223074679994, -0.00010091744534362401)",0.000351180011866949,0.0
72,Move,"(0.006329113924050631, 0.0, 0.006329113924050631)","(0.0, -0.0, 0.0)","(0.0003792470044809675, 0.17163128430386462, 0.0016310692074987052)","(1.5465885970719735, -9.831038147206692e-05, 0.0015780386788297723)","[0.00037916143395256684, 0.0016322223046495166, 0.0007159949933315508]","[-0.026750000193715096, 0.05299999937415123, 0.03999999910593033]","[0.0, -0.0, 0.5810548460403602]","[-0.06627123057842255, 0.1131836548447609, 0.03999999910593033]","[0.0, 0.0, -0.2339840612328733]","[0.026750000193715096, 0.05299999937415123, 0.03999999910593033]","[0.0, 0.0, -0.592786471607577]","[0.06697455048561096, 0.11271587759256363, 0.03999999910593033]","[0.0, -0.0, 0.2275183114698721]",0.5811109967354035,0.01346877011270298,"(0.0, 0.0, 0.0, 0.0, 0.0, 0.0)",-0.018741201065062826,-0.8150386589869623,6.577118943962376e-05,"(0.0, 0.0, 0.0, 0.0, 0.0, 0.0)",-0.0013969804877602212,-0.594964060051623,-0.5226131454974502,"(0.0, 0.0, 0.0, 0.0, 0.0, 0.0)",-0.06499200702443388,0.8203057492556399,0.00022451552912775474,"(0.0, 0.0, 0.0, 0.0, 0.0, 0.0)",-0.004852238230506702,True,"(-0.03173847450426947, 0.18486308731224807, 0.040000097789132265)","(0.9999995396003122, 0.0009545870569774231, 9.778913226487122e-05)",0.00012203102926440153,0.0,True,"(0.03290594359052576, 0.18460871339730128, 0.039999902210867744)","(-0.9999995396003121, -0.0009545870569775415, -9.778913225675699e-05)",0.0006021160845270727,0.0
73,Move,"(0.006962025316455691, 0.0, 0.006962025316455691)","(0.0, -0.0, 0.0)","(0.00039848039891913025, 0.1716170437369339, 0.0013869315505960263)","(1.55476472197996, -0.00010120079677437585, 0.002197187049054968)","[0.0003983948283907296, 0.0016179817377187933, 0.00047185733642887185]","[-0.026750000193715096, 0.05299999937415123, 0.03999999910593033]","[0.0, -0.0, 0.5811109893566972]","[-0.06627460569143295, 0.11318143457174301, 0.03999999910593033]","[0.0, 0.0, -0.23392766535158832]","[0.026750000193715096, 0.05299999937415123, 0.03999999910593033]","[0.0, 0.0, -0.5949640654711105]","[0.06710448861122131, 0.11262813955545425, 0.03999999910593033]","[0.0, -0.0, 0.22534164886209618]",0.5811056924998835,-0.0012730165247916148,"(0.0, 0.0, 0.0, 0.0, 0.0, 0.0)",-0.021640643384678342,-0.8150383429859032,7.584025419282764e-05,"(0.0, 0.0, 0.0, 0.0, 0.0, 0.0)",-0.0016132410345732436,-0.5973178159080637,-0.5649014055457648,"(0.0, 0.0, 0.0, 0.0, 0.0, 0.0)",-0.06223416383836841,0.8203066449396974,0.00021496417379986195,"(0.0, 0.0, 0.0, 0.0, 0.0, 0.0)",-0.004647185150581954,True,"(-0.03174589501460055, 0.18486338367157787, 0.040000098310381316)","(0.9999987500647629, 0.0015780380162658176, 9.831038131303377e-05)",0.00014044984623476467,0.0,True,"(0.03319244712593966, 0.1845921646823635, 0.039999901689618686)","(-0.9999987500647628, -0.0015780380162669996, -9.831038131176444e-05)",0.0008773847348162283,0.0
74,Move,"(0.00759493670886076, 0.0, 0.00759493670886076)","(0.0, -0.0, 0.0)","(0.0004175600316254677, 0.17160246969840331, 0.0010917571429456898)","(1.5645657933203376, -0.00010504591882687722, 0.002809882085660479)","[0.00041747446109706703, 0.0016034076991882085, 0.00017668292877853536]","[-0.026750000193715096, 0.05299999937415123, 0.03999999910593033]","[0.0, -0.0, 0.5811056913495563]","[-0.06627429276704788, 0.11318164318799973, 0.03999999910593033]","[0.0, 0.0, -0.23393266397966903]","[0.026750000193715096, 0.05299999937415123, 0.03999999910593033]","[0.0, 0.0, -0.5973178485281038]","[0.06724472343921661, 0.11253299564123154, 0.03999999910593033]","[0.0, -0.0, 0.2229888422232931]",0.5810304010762104,-0.018069941681564394,"(0.0, 0.0, 0.0, 0.0, 0.0, 0.0)",-0.02466172901246874,-0.8150379832184418,8.634419074274965e-05,"(0.0, 0.0, 0.0, 0.0, 0.0, 0.0)",-0.001838554747018678,-0.5998394962290994,-0.6052032770485737,"(0.0, 0.0, 0.0, 0.0, 0.0, 0.0)",-0.059330401876252534,0.8203074986475339,0.00020488988075970227,"(0.0, 0.0, 0.0, 0.0, 0.0, 0.0)",-0.0044312946643204525,True,"(-0.031745219408461235, 0.18486404521583544, 0.040000101200796605)","(0.9999975810647186, 0.0021971852699302057, 0.00010120079660403293)",0.00015060906502186764,0.0,True,"(0.0335021024077167, 0.18457363399823645, 0.0399998987992034)","(-0.9999975810647186, -0.0021971852699387263, -0.00010120079660396997)",0.001175918436812985,0.0
75,Move,"(0.00822784810126582, 0.0, 0.00822784810126582)","(0.0, -0.0, 0.0)","(0.0004199962831640461, 0.17159504980970322, 0.0009494815924695174)","(1.5718692307153703, 0.002382737432887282, 0.002812185299353568)","[0.00041991071263564544, 0.0015959878104881142, 3.440737830236293e-05]","[-0.026750000193715096, 0.05299999937415123, 0.03999999910593033]","[0.0, -0.0, 0.5810304683825016]","[-0.06626975536346436, 0.1131846234202385, 0.03999999910593033]","[0.0, 0.0, -0.23400760137400342]","[0.026750000193715096, 0.05299999937415123, 0.03999999910593033]","[0.0, 0.0, -0.5998395281398184]","[0.06739471852779388, 0.11243069171905518, 0.03999999910593033]","[0.0, -0.0, 0.22046799688572022]",0.5808761134116702,-0.03702903948963954,"(0.0, 0.0, 0.0, 0.0, 0.0, 0.0)",-0.02785121510711303,-0.815037986237218,-7.245062872124596e-07,"(0.0, 0.0, 0.0, 0.0, 0.0, 0.0)",-0.0020863656601044873,-0.6025203147990409,-0.6433964567859656,"(0.0, 0.0, 0.0, 0.0, 0.0, 0.0)",-0.05626840984409996,0.8203074799988473,-4.475684794697063e-06,"(0.0, 0.0, 0.0, 0.0, 0.0, 0.0)",-0.004223764152300013,True,"(-0.0317353186468077, 0.18486512098821736, 0.04000010504591863)","(0.9999960467666291, 0.002809878372609099, 0.00010504591862871492)",0.0001513987816486238,0.0,True,"(0.033833809553489615, 0.18455302687369243, 0.03999989495408137)","(-0.9999960467666291, -0.0028098783726166906, -0.00010504591863379944)",0.001496594862449511,0.0
76,Move,"(0.008860759493670881, 0.0, 0.008860759493670881)","(0.0, -0.0, 0.0)","(0.00042019743903834824, 0.17159289889915688, 0.0010216841239755583)","(1.574008626453092, 0.0021944110508801294, 0.0028077355965845253)","[0.0004201118685099476, 0.0015938368999417751, 0.00010660990980840377]","[-0.026750000193715096, 0.05299999937415123, 0.03999999910593033]","[0.0, -0.0, 0.5808762316048703]","[-0.06626047194004059, 0.11319071799516678, 0.03999999910593033]","[0.0, 0.0, -0.23416186803012937]","[0.026750000193715096, 0.05299999937415123, 0.03999999910593033]","[0.0, 0.0, -0.6025202742258542]","[0.06755389273166656, 0.11232151091098785, 0.03999999910593033]","[0.0, -0.0, 0.21778717698656602]",0.5806332909781394,-0.05827738404739433,"(0.0, 0.0, 0.0, 0.0, 0.0, 0.0)",-0.031207539911760274,-0.8150379859353404,7.245062949578956e-08,"(0.0, 0.0, 0.0, 0.0, 0.0, 0.0)",-0.0023278387340387842,-0.6053508353144599,-0.6793249237005672,"(0.0, 0.0, 0.0, 0.0, 0.0, 0.0)",-0.05293155811749837,0.820307481863716,4.4756847827898805e-07,"(0.0, 0.0, 0.0, 0.0, 0.0, 0.0)",-0.003953827627695952,True,"(-0.03171497647092726, 0.1848660450729398, 0.039997617264821754)","(0.999993207103258, 0.002812173609724802, -0.0023827351782482334)",0.00023047629961622898,0.0,True,"(0.03418646159924636, 0.18453088126016953, 0.040002382735178255)","(-0.9999932071032579, -0.002812173609726688, 0.002382735178247427)",0.0017495618376488083,0.0
77,Move,"(0.009493670886075951, 0.0, 0.009493670886075951)","(0.0, -0.0, 0.0)","(0.0004201596655616532, 0.17159233947678834, 0.001042919622364028)","(1.5745164472966273, 0.0020218665043548537, 0.0028063556284483085)","[0.0004200740950332525, 0.001593277477573235, 0.00012784540819687346]","[-0.026750000193715096, 0.05299999937415123, 0.03999999910593033]","[0.0, -0.0, 0.580633298089813]","[-0.06624585390090942, 0.11320030689239502, 0.03999999910593033]","[0.0, 0.0, -0.23440467682879831]","[0.026750000193715096, 0.05299999937415123, 0.03999999910593033]","[0.0, 0.0, -0.6053508948696691]","[0.0677216425538063, 0.11220578104257584, 0.03999999910593033]","[0.0, -0.0, 0.21495664747779164]",0.5803321033477137,-0.07228503130216923,"(0.0, 0.0, 0.0, 0.0, 0.0, 0.0)",-0.020581579138948987,-0.8150379859655281,-7.245063216031306e-09,"(0.0, 0.0, 0.0, 0.0, 0.0, 0.0)",-0.001535322163131842,-0.608330636478059,-0.715152279263793,"(0.0, 0.0, 0.0, 0.0, 0.0, 0.0)",-0.052794968231745766,0.8203074816772292,-4.475684889371223e-08,"(0.0, 0.0, 0.0, 0.0, 0.0, 0.0)",-0.003944869685041115,True,"(-0.03168295652241418, 0.1848674851755398, 0.0399978055907103)","(0.999993650603526, 0.0028077251472843965, -0.0021944092897062304)",0.00019120911033447164,0.0,False,,,,
78,Move,"(0.009493670886075951, 0.0, 0.009493670886075951)","(0.0, -0.0, 0.0)","(0.00042001244560026295, 0.17159358876381015, 0.0010131577089240679)","(1.5733937774375293, 0.0018606426004791662, 0.002805387667411627)","[0.0004199268750718623, 0.001594526764595039, 9.808349475691339e-05]","[-0.026750000193715096, 0.05299999937415123, 0.03999999910593033]","[0.0, -0.0, 0.5803320976963957]","[-0.06622771918773651, 0.1132122054696083, 0.03999999910593033]","[0.0, 0.0, -0.2347058776296484]","[0.026750000193715096, 0.05299999937415123, 0.03999999910593033]","[0.0, 0.0, -0.6083307055913083]","[0.06789788603782654, 0.11208342760801315, 0.03999999910593033]","[0.0, -0.0, 0.2119768612173639]",0.5799752759730157,-0.0856385699275305,"(0.0, 0.0, 0.0, 0.0, 0.0, 0.0)",-0.019624679175018818,-0.8150379859625093,7.245057886945118e-10,"(0.0, 0.0, 0.0, 0.0, 0.0, 0.0)",-0.001463960394814202,-0.6115138196960923,-0.763963972327999,"(0.0, 0.0, 0.0, 0.0, 0.0, 0.0)",-0.0718709160264717,0.8203074816958779,4.4756838235842245e-09,"(0.0, 0.0, 0.0, 0.0, 0.0, 0.0)",-0.005368486005944882,True,"(-0.031643239874392895, 0.18486926474577903, 0.039997978134873186)","(0.9999940182232921, 0.0028063462087107344, -0.002021865126807038)",0.00014471078050451412,0.0,False,,,,
79,Move,"(0.009493670886075951, 0.0, 0.009493670886075951)","(0.0, -0.0, 0.0)","(0.0022467207515679665, 0.17170586722870862, 0.001476141491705388)","(1.5722895313298992, 0.017412090420421324, -0.02124365274790039)","[0.002246635181039566, 0.0017068052294935132, 0.0005610672775382336]","[-0.026750000193715096, 0.05299999937415123, 0.03999999910593033]","[0.0, -0.0, 0.5799752679800176]","[-0.06620623171329498, 0.11322628706693649, 0.03999999910593033]","[0.0, 0.0, -0.23506271871947942]","[0.026750000193715096, 0.05299999937415123, 0.03999999910593033]","[0.0, 0.0, -0.6115138242259702]","[0.06808574497699738, 0.11195214837789536, 0.03999999910593033]","[0.0, -0.0, 0.2087936446751429]",0.5578837973055016,-5.3019548802033825,"(0.0, 0.0, 0.0, 0.0, 0.0, 0.0)",-25.883254528855225,-0.814243212396412,0.1907456558633564,"(0.0, 0.0, 0.0, 0.0, 0.0, 0.0)",-10.716291875436935,-0.5885594257133131,5.509054555867021,"(0.0, 0.0, 0.0, 0.0, 0.0, 0.0)",9.210322695632174,0.820307481694013,-4.475673165416083e-10,"(0.0, 0.0, 0.0, 0.0, 0.0, 0.0)",0.6870277854684179,True,"(-0.03159618562257478, 0.18487135825093756, 0.039998139358473114)","(0.9999943339144661, 0.00280537913148118, -0.001860641526889013)",9.130537122800005e-05,138.64914634380534,False,,,,
80,Move,"(0.009493670886075951, 0.0, 0.009493670886075951)","(0.0, -0.0, 0.0)","(0.0022687812672113976, 0.17230361858970664, 0.0016840419028191405)","(1.5609650050508193, 0.015505554728881456, -0.025871835715331633)","[0.002268695696682997, 0.00230455659049153, 0.000768967688651986]","[-0.026750000193715096, 0.05299999937415123, 0.03999999910593033]","[0.0, -0.0, 0.5578837623979402]","[-0.06486622989177704, 0.11408316344022751, 0.03999999910593033]","[0.0, 0.0, -0.2563594446209635]","[0.026750000193715096, 0.05299999937415123, 0.03999999910593033]","[0.0, 0.0, -0.5885594519173472]","[0.06672176718711853, 0.11288537085056305, 0.03999999910593033]","[0.0, -0.0, 0.2317480528305213]",0.5400466386563313,-4.280918075800889,"(0.0, 0.0, 0.0, 0.0, 0.0, 0.0)",-63.87707245045639,-0.7827753195390591,7.552294285764686,"(0.0, 0.0, 0.0, 0.0, 0.0, 0.0)",-34.00993749971491,-0.5703029657983085,4.381550379601106,"(0.0, 0.0, 0.0, 0.0, 0.0, 0.0)",75.45820828863533,0.7907216615034275,-7.100596845740527,"(0.0, 0.0, 0.0, 0.0, 0.0, 0.0)",39.333070413660096,True,"(-0.02873833828929513, 0.1849749673205271, 0.039998139358473114)","(0.9999943339144661, 0.00280537913148118, -0.001860641526889013)",-1.854575901000806e-07,498.8978542498936,True,"(0.032374304011904206, 0.1845558100290919, 0.04216228247526549)","(-0.9996228096820678, 0.021238834921721645, 0.01741121059823883)",-0.002825092544134017,588.3170891041068
81,Move,"(0.010126582278481011, 0.0, 0.010126582278481011)","(0.0, -0.0, 0.0)","(0.0022826280854635903, 0.1728352160845317, 0.0018988959054316553)","(1.549370503485202, 0.013619511783008832, -0.031218809212846955)","[0.00228254251493519, 0.0028361540853165945, 0.0009838216912645007]","[-0.026750000193715096, 0.05299999937415123, 0.03999999910593033]","[0.0, -0.0, 0.5400467341553157]","[-0.06377067416906357, 0.11475329846143723, 0.03999999910593033]","[0.0, 0.0, -0.24272866591339734]","[0.026750000193715096, 0.05299999937415123, 0.03999999910593033]","[0.0, 0.0, -0.5703030057804926]","[0.06562186777591705, 0.11360509693622589, 0.03999999910593033]","[0.0, -0.0, 0.22041868287800936]",0.5220977239862464,-4.307739520820367,"(0.0, 0.0, 0.0, 0.0, 0.0, 0.0)",-79.17560296349136,-0.7512686766648401,7.561594289812558,"(0.0, 0.0, 0.0, 0.0, 0.0, 0.0)",-42.62496414326822,-0.552645694125478,4.237745201479325,"(0.0, 0.0, 0.0, 0.0, 0.0, 0.0)",75.23256533508999,0.7620388348018307,-6.883878408383227,"(0.0, 0.0, 0.0, 0.0, 0.0, 0.0)",38.617648941653954,True,"(-0.02861241603269314, 0.18613094824796045, 0.039998139358473114)","(0.9999943339144661, 0.00280537913148118, -0.001860641526889013)",-0.0001046696226299203,593.2021468153123,True,"(0.032088348715308246, 0.18565336264314408, 0.04216037570385292)","(-0.9995451742493657, 0.025865839911992847, 0.015504933423016372)",-0.00312687965117721,565.438136687367
82,Move,"(0.01075949367088607, 0.0, 0.01075949367088607)","(0.0, -0.0, 0.0)","(0.0022977034380619573, 0.17329098635795556, 0.002101037754792455)","(1.5400924175318103, 0.01037879595226799, -0.03732235773532926)","[0.0022976178675335568, 0.0032919243587404556, 0.0011859635406253006]","[-0.026750000193715096, 0.05299999937415123, 0.03999999910593033]","[0.0, -0.0, 0.5220976989553425]","[-0.06265636533498764, 0.115407794713974, 0.03999999910593033]","[0.0, 0.0, -0.22917099615019287]","[0.026750000193715096, 0.05299999937415123, 0.03999999910593033]","[0.0, 0.0, -0.5526457532895386]","[0.06454574316740036, 0.11428198218345642, 0.03999999910593033]","[0.0, -0.0, 0.20939315809025388]",0.524206775181385,0.5061722868332525,"(0.0, 0.0, 0.0, 0.0, 0.0, 0.0)",5.739050220621583,-0.7543956850419492,-0.7504820105061976,"(0.0, 0.0, 0.0, 0.0, 0.0, 0.0)",-0.6370349546304293,-0.5582364386515822,-1.3417786862650125,"(0.0, 0.0, 0.0, 0.0, 0.0, 0.0)",-7.361549517082979,0.7649071174719904,0.6883878408383239,"(0.0, 0.0, 0.0, 0.0, 0.0, 0.0)",0.21807899800618039,True,"(-0.02846902799887032, 0.18725553791666089, 0.039998139358473114)","(0.9999943339144661, 0.00280537913148118, -0.001860641526889013)",-0.000217474054505548,0.0,True,"(0.03180839750255336, 0.1866899176406083, 0.04215848292125293)","(-0.9994200336262677, 0.03121084353182569, 0.013619090736976347)",-0.003432069615917234,0.0
83,Move,"(0.01139240506329113, 0.0, 0.01139240506329113)","(0.0, -0.0, 0.0)","(0.0023470350427901064, 0.17369313162956396, 0.002240977736335795)","(1.5325615110459645, 0.00692093528038121, -0.043490378900552365)","[0.002346949472261706, 0.0036940696303488507, 0.0013259035221686406]","[-0.026750000193715096, 0.05299999937415123, 0.03999999910593033]","[0.0, -0.0, 0.5242068683605232]","[-0.06278790533542633, 0.11533193290233612, 0.03999999910593033]","[0.0, 0.0, -0.23018892990399575]","[0.026750000193715096, 0.05299999937415123, 0.03999999910593033]","[0.0, 0.0, -0.5582364971230468]","[0.06488776206970215, 0.11406972259283066, 0.03999999910593033]","[0.0, -0.0, 0.20667068408729994]",0.5242518946902776,0.010828682134202627,"(0.0, 0.0, 0.0, 0.0, 0.0, 0.0)",-1.2327394480961893,-0.7540586542687719,0.08088738556255104,"(0.0, 0.0, 0.0, 0.0, 0.0, 0.0)",-0.3266102104085715,-0.5618706484679412,-0.8722103559261658,"(0.0, 0.0, 0.0, 0.0, 0.0, 0.0)",0.6061371355997981,0.7646202892049744,-0.06883878408383293,"(0.0, 0.0, 0.0, 0.0, 0.0, 0.0)",-0.03152549630825465,True,"(-0.028552567695614428, 0.1869957222006287, 0.03784475061108567)","(0.9992497799382336, -0.03731168390384956, -0.01037860962032178)",-0.0002505557335560664,4.510589016058288,True,"(0.03234766587165589, 0.18656651239219735, 0.04215848292125293)","(-0.9994200336262677, 0.03121084353182569, 0.013619090736976347)",-0.0028477247288936514,0.0
84,Move,"(0.0120253164556962, 0.0, 0.0120253164556962)","(0.0, -0.0, 0.0)","(0.00244905782651613, 0.17404237601523712, 0.0023281149822889265)","(1.5269618787614265, 0.003733655998310543, -0.04932638117595322)","[0.0024489722559877295, 0.004043314016022009, 0.0014130407681217719]","[-0.026750000193715096, 0.05299999937415123, 0.03999999910593033]","[0.0, -0.0, 0.5242520050444174]","[-0.06279071420431137, 0.1153303012251854, 0.03999999910593033]","[0.0, 0.0, -0.2298067678942368]","[0.026750000193715096, 0.05299999937415123, 0.03999999910593033]","[0.0, 0.0, -0.5618706613104552]","[0.06510945409536362, 0.11393071711063385, 0.03999999910593033]","[0.0, -0.0, 0.20274966125921115]",0.5241125315688246,-0.033447149148704294,"(0.0, 0.0, 0.0, 0.0, 0.0, 0.0)",-0.868634089401754,-0.7540648495772887,-0.0014868740440228956,"(0.0, 0.0, 0.0, 0.0, 0.0, 0.0)",-0.49693511125522344,-0.565660854537689,-0.9096494567394783,"(0.0, 0.0, 0.0, 0.0, 0.0, 0.0)",-0.04693426413580537,0.764648972031676,0.006883878408383559,"(0.0, 0.0, 0.0, 0.0, 0.0, 0.0)",0.004159663808178201,True,"(-0.028582768882729412, 0.18700717393506142, 0.03784475061108567)","(0.9992497799382336, -0.03731168390384956, -0.01037860962032178)",-0.00022944297453416878,2.341115686536354,True,"(0.032853865806736667, 0.1865545421086218, 0.04215848292125293)","(-0.9994200336262677, 0.03121084353182569, 0.013619090736976347)",-0.002331749124266449,0.0
85,Move,"(0.012658227848101262, 0.0, 0.012658227848101262)","(0.0, -0.0, 0.0)","(0.002564034757765311, 0.17435527355703345, 0.0023550832482978914)","(1.523011577801198, 0.00029118692777149757, -0.05458225954885397)","[0.0025639491872369107, 0.004356211557818346, 0.0014400090341307368]","[-0.026750000193715096, 0.05299999937415123, 0.03999999910593033]","[0.0, -0.0, 0.5241125707974372]","[-0.06278202682733536, 0.11533532291650772, 0.03999999910593033]","[0.0, 0.0, -0.22995232868308313]","[0.026750000193715096, 0.05299999937415123, 0.03999999910593033]","[0.0, 0.0, -0.5656608375645993]","[0.06534011662006378, 0.11378488689661026, 0.03999999910593033]","[0.0, -0.0, 0.1989881390212071]",0.5240013857160123,-0.026675004674963865,"(0.0, 0.0, 0.0, 0.0, 0.0, 0.0)",-0.4598907745099089,-0.7540501583310919,0.0035258990872393424,"(0.0, 0.0, 0.0, 0.0, 0.0, 0.0)",-0.28211928942486464,-0.569841975325911,-1.0034689891732702,"(0.0, 0.0, 0.0, 0.0, 0.0, 0.0)",-0.13884809568662676,0.7646461037490059,-0.0006883878408396882,"(0.0, 0.0, 0.0, 0.0, 0.0, 0.0)",-0.011136293372282863,True,"(-0.02856364917680522, 0.1870072160620539, 0.03784475061108567)","(0.9992497799382336, -0.03731168390384956, -0.01037860962032178)",-0.00019330165993701874,0.0,True,"(0.033357933452839335, 0.18652953064671468, 0.04215848292125293)","(-0.9994200336262677, 0.03121084353182569, 0.013619090736976347)",-0.001879738392249997,0.0
86,Move,"(0.01329113924050632, 0.0, 0.01329113924050632)","(0.0, -0.0, 0.0)","(0.0026956428091517255, 0.1746344638013381, 0.002326389094275792)","(1.5207092915648022, -0.0032667245447511204, -0.05926409720514901)","[0.002695557238623325, 0.00463540180212299, 0.0014113148801086373]","[-0.026750000193715096, 0.05299999937415123, 0.03999999910593033]","[0.0, -0.0, 0.5240014140303546]","[-0.06277509778738022, 0.11533933132886887, 0.03999999910593033]","[0.0, 0.0, -0.2300487676057018]","[0.026750000193715096, 0.05299999937415123, 0.03999999910593033]","[0.0, 0.0, -0.5698420326865953]","[0.06559392809867859, 0.1136230081319809, 0.03999999910593033]","[0.0, -0.0, 0.19480413065264404]",0.5238597108240036,-0.03400197408207574,"(0.0, 0.0, 0.0, 0.0, 0.0, 0.0)",-0.5182573487650332,-0.7540384781396274,0.0028032459514657814,"(0.0, 0.0, 0.0, 0.0, 0.0, 0.0)",-0.30216268396354934,-0.5743180732675821,-1.074263506001085,"(0.0, 0.0, 0.0, 0.0, 0.0, 0.0)",-0.10416139973229345,0.7646463905772729,6.883878408370236e-05,"(0.0, 0.0, 0.0, 0.0, 0.0, 0.0)",-0.007707570874871395,True,"(-0.028526166982876397, 0.18709465891460844, 0.03999970881307634)","(0.99851071592652, -0.05455515915185144, -0.00029118692366199474)",-0.00021013877204312047,3.8354567075142367,True,"(0.03389603299864842, 0.18661450923092504, 0.04000029118692368)","(-0.9985107159265201, 0.05455515915185142, 0.00029118692367529616)",-0.0013544295394272276,0.0
87,Move,"(0.01392405063291139, 0.0, 0.01392405063291139)","(0.0, -0.0, 0.0)","(0.002789900717199547, 0.17480883879483472, 0.002346521271362366)","(1.521247830434605, -0.0036420315062385238, -0.05812494925322235)","[0.0027898151466711463, 0.004809776795619614, 0.0014314470571952114]","[-0.026750000193715096, 0.05299999937415123, 0.03999999910593033]","[0.0, -0.0, 0.5238597219719847]","[-0.06276626884937286, 0.11534443497657776, 0.03999999910593033]","[0.0, 0.0, -0.23017875797077123]","[0.026750000193715096, 0.05299999937415123, 0.03999999910593033]","[0.0, 0.0, -0.5743181394821399]","[0.06586489081382751, 0.11344853043556213, 0.03999999910593033]","[0.0, -0.0, 0.1903283365280012]",0.5236798014115505,-0.0431782589887506,"(0.0, 0.0, 0.0, 0.0, 0.0, 0.0)",-0.013825919011215968,-0.7540398941845267,-0.0003398507758243831,"(0.0, 0.0, 0.0, 0.0, 0.0, 0.0)",-0.0013498676092443384,-0.5790781294420863,-1.1424134818809977,"(0.0, 0.0, 0.0, 0.0, 0.0, 0.0)",-0.10039467680413836,0.7646463619436867,-6.872060682396118e-06,"(0.0, 0.0, 0.0, 0.0, 0.0, 0.0)",-0.007513090583053647,True,"(-0.02850827172508595, 0.18709076521914983, 0.04000326671873463)","(0.9982390709495405, -0.05922909570900906, 0.0032667187346236636)",-0.00019633682727636723,0.0,True,"(0.03449402753359233, 0.18658138083729248, 0.039996733281265386)","(-0.9982390709495408, 0.059229095709006155, -0.0032667187346161297)",-0.0008021558372141397,0.0
88,Move,"(0.01455696202531645, 0.0, 0.01455696202531645)","(0.0, -0.0, 0.0)","(0.0028764261467368072, 0.17492954518013035, 0.002301447917542947)","(1.5231637719562456, -0.0033532068370262288, -0.05582097585312281)","[0.0028763405762084067, 0.0049304831809152405, 0.0013863737033757923]","[-0.026750000193715096, 0.05299999937415123, 0.03999999910593033]","[0.0, -0.0, 0.5236798618263613]","[-0.0627550557255745, 0.11535090953111649, 0.03999999910593033]","[0.0, 0.0, -0.23036008724806536]","[0.026750000193715096, 0.05299999937415123, 0.03999999910593033]","[0.0, 0.0, -0.5790781743363428]","[0.0661521852016449, 0.11326166242361069, 0.03999999910593033]","[0.0, -0.0, 0.18556826295896967]",0.5234576017094928,-0.053327928493816394,"(0.0, 0.0, 0.0, 0.0, 0.0, 0.0)",-0.01487789827716472,-0.754039966667853,-1.7395998314706854e-05,"(0.0, 0.0, 0.0, 0.0, 0.0, 0.0)",-0.0010771546988365224,-0.5841075978731916,-1.2070724234652637,"(0.0, 0.0, 0.0, 0.0, 0.0, 0.0)",-0.09528410413378231,0.7646463732000448,2.7015259234773755e-06,"(0.0, 0.0, 0.0, 0.0, 0.0, 0.0)",-0.007125400239010015,True,"(-0.028483969633815685, 0.18709234911015682, 0.04000364202345468)","(0.9983045996914853, -0.05809184021855916, 0.003642023454682715)",-0.00016272696566157384,0.0,True,"(0.03512943560246941, 0.18653711823992822, 0.0399963579765453)","(-0.9983045996914859, 0.05809184021855122, -0.003642023454694175)",-0.00021948850815008917,0.0
89,Move,"(0.01518987341772152, 0.0, 0.01518987341772152)","(0.0, -0.0, 0.0)","(0.002954410939963093, 0.17499068874134416, 0.0022063902214063567)","(1.5266591589700864, -0.003089817015591829, -0.05343845461813862)","[0.0029543253694346923, 0.004991626742129052, 0.0012913160072392021]","[-0.026750000193715096, 0.05299999937415123, 0.03999999910593033]","[0.0, -0.0, 0.5234575791781222]","[-0.06274119764566422, 0.11535891145467758, 0.03999999910593033]","[0.0, 0.0, -0.23058237626053474]","[0.026750000193715096, 0.05299999937415123, 0.03999999910593033]","[0.0, 0.0, -0.5841075766389091]","[0.06645476818084717, 0.11306272447109222, 0.03999999910593033]","[0.0, -0.0, 0.18053878612260202]",0.5232215692223503,-0.05664779691420563,"(0.0, 0.0, 0.0, 0.0, 0.0, 0.0)",-0.004896109401620625,-0.7540403593929355,-9.425401978839467e-05,"(0.0, 0.0, 0.0, 0.0, 0.0, 0.0)",-0.00037305220117318474,-0.5893463137849498,-1.2572918188219961,"(0.0, 0.0, 0.0, 0.0, 0.0, 0.0)",-0.07410779153544861,0.7646463786106439,1.2985437843466533e-06,"(0.0, 0.0, 0.0, 0.0, 0.0, 0.0)",-0.005549063877021986,True,"(-0.02845402397395476, 0.1870952506591404, 0.04000335320055313)","(0.9984368006051679, -0.05579167718725423, 0.003353200553128049)",-0.00012620174556631644,0.0,True,"(0.035800509687619206, 0.18648596468430792, 0.03999664679944688)","(-0.9984368006051682, 0.055791677187249415, -0.0033532005531178286)",0.00039426497995841896,0.0
90,Move,"(0.01582278481012658, 0.0, 0.01582278481012658)","(0.0, -0.0, 0.0)","(0.0030103647607540086, 0.17502849608989812, 0.0020604790896654383)","(1.5317637109838866, -0.0028467375794236855, -0.051731852139798404)","[0.003010279190225608, 0.005029434090683016, 0.0011454048754982837]","[-0.026750000193715096, 0.05299999937415123, 0.03999999910593033]","[0.0, -0.0, 0.5232215936752227]","[-0.0627264752984047, 0.11536740511655807, 0.03999999910593033]","[0.0, 0.0, -0.23081882948747684]","[0.026750000193715096, 0.05299999937415123, 0.03999999910593033]","[0.0, 0.0, -0.5893463165451107]","[0.06676887720823288, 0.11285389959812164, 0.03999999910593033]","[0.0, -0.0, 0.17530008101261144]",0.5229671614474296,-0.061057865980953537,"(0.0, 0.0, 0.0, 0.0, 0.0, 0.0)",-0.006485095302561452,-0.7540405943231149,-5.638324305585503e-05,"(0.0, 0.0, 0.0, 0.0, 0.0, 0.0)",-0.00047995959049512775,-0.5947804015987446,-1.3041810753107275,"(0.0, 0.0, 0.0, 0.0, 0.0, 0.0)",-0.0692369810228912,0.7646463781035827,-1.216946797019539e-07,"(0.0, 0.0, 0.0, 0.0, 0.0, 0.0)",-0.0051875082045905125,True,"(-0.028422200765047867, 0.1870982506184793, 0.040003089812099206)","(0.9985677388700819, -0.053412769532046024, 0.003089812099198658)",-9.841327267004757e-05,0.0,True,"(0.03649924003269339, 0.1864291113489265, 0.0399969101879008)","(-0.9985677388700822, 0.05341276953204086, -0.0030898120991975347)",0.0010425927244087213,0.0
91,Move,"(0.01645569620253164, 0.0, 0.01645569620253164)","(0.0, -0.0, 0.0)","(0.0030550339596110126, 0.1750373986052536, 0.0018659177593860182)","(1.5384068296029396, -0.0026189075258659417, -0.05081564120572221)","[0.003054948389082612, 0.0050383366060385015, 0.0009508435452188637]","[-0.026750000193715096, 0.05299999937415123, 0.03999999910593033]","[0.0, -0.0, 0.5229671821739927]","[-0.06271060556173325, 0.1153765544295311, 0.03999999910593033]","[0.0, 0.0, -0.23107342761003938]","[0.026750000193715096, 0.05299999937415123, 0.03999999910593033]","[0.0, 0.0, -0.5947803669766624]","[0.06709353625774384, 0.1126355528831482, 0.03999999910593033]","[0.0, -0.0, 0.16986596814806632]",0.5226792674357618,-0.06909456280028282,"(0.0, 0.0, 0.0, 0.0, 0.0, 0.0)",-0.18810111492507697,-0.7540175965765218,0.005519459182338566,"(0.0, 0.0, 0.0, 0.0, 0.0, 0.0)",-0.09094921493237546,-0.6003976229337681,-1.3481331204056326,"(0.0, 0.0, 0.0, 0.0, 0.0, 0.0)",-0.06494191956107531,0.7646463781542888,1.2169468099898495e-08,"(0.0, 0.0, 0.0, 0.0, 0.0, 0.0)",-0.004868688341616391,True,"(-0.028387964169782696, 0.18710062211038947, 0.04000284673373447)","(0.9986581595916183, -0.05170857170843896, 0.0028467337344721616)",-8.758122869288588e-05,1.3110091910782196,True,"(0.03722376265333973, 0.18636703368059282, 0.039997153266265524)","(-0.9986581595916179, 0.0517085717084511, -0.0028467337344725307)",0.001729185810079479,0.0
92,Move,"(0.0170886075949367, 0.0, 0.0170886075949367)","(0.0, -0.0, 0.0)","(0.003099713102664382, 0.17502684822187817, 0.0016248634943392777)","(1.5465198877674902, -0.0024045752119627958, -0.05027839283917905)","[0.0030996275321359813, 0.005027786222663061, 0.0007097892801721232]","[-0.026750000193715096, 0.05299999937415123, 0.03999999910593033]","[0.0, -0.0, 0.5226792947953782]","[-0.06269264966249466, 0.11538690328598022, 0.03999999910593033]","[0.0, 0.0, -0.23133833092326608]","[0.026750000193715096, 0.05299999937415123, 0.03999999910593033]","[0.0, 0.0, -0.6003976136253417]","[0.06742788106203079, 0.11240799725055695, 0.03999999910593033]","[0.0, -0.0, 0.16424874412539162]",0.5223391893900293,-0.08161873097577806,"(0.0, 0.0, 0.0, 0.0, 0.0, 0.0)",-0.39333451953831766,-0.7539688052022632,0.011709929822070489,"(0.0, 0.0, 0.0, 0.0, 0.0, 0.0)",-0.19334628617743874,-0.6061941357159806,-1.3911630677310036,"(0.0, 0.0, 0.0, 0.0, 0.0, 0.0)",-0.063604889586848,0.7646463781492182,-1.2169465435363236e-09,"(0.0, 0.0, 0.0, 0.0, 0.0, 0.0)",-0.004770641978422644,True,"(-0.02835094529900794, 0.18710305742298056, 0.040002618904532154)","(0.9987057382003983, -0.05079360023318771, 0.0026189045321555584)",-8.168561832835507e-05,2.784167690977602,False,,,,
