OSUrobotics/InHand-Manipulation/AnalyseData/Data/Trial Data/Even Better/new_hand_human_sub1_2v2_g_n_1_kpNone_kdNone_dp3_step2_save_data.csv
,Phase,human_cube_pos,human_cube_orn,Cube_Pos,Cube_Orn,Cube_pos_in_start_pos,b'l_prox_pin'_link_pos,b'l_prox_pin'_link_orn,b'l_distal_pin'_link_pos,b'l_distal_pin'_link_orn,b'r_prox_pin'_link_pos,b'r_prox_pin'_link_orn,b'r_distal_pin'_link_pos,b'r_distal_pin'_link_orn,b'l_prox_pin'_joint_angle,b'l_prox_pin'_joint_vel,b'l_prox_pin'_joint_react_forces,b'l_prox_pin'_joint_motor_torque,b'l_distal_pin'_joint_angle,b'l_distal_pin'_joint_vel,b'l_distal_pin'_joint_react_forces,b'l_distal_pin'_joint_motor_torque,b'r_prox_pin'_joint_angle,b'r_prox_pin'_joint_vel,b'r_prox_pin'_joint_react_forces,b'r_prox_pin'_joint_motor_torque,b'r_distal_pin'_joint_angle,b'r_distal_pin'_joint_vel,b'r_distal_pin'_joint_react_forces,b'r_distal_pin'_joint_motor_torque,in_contact_l,contact_point_l_dist,contact_normal_l_dist,contact_distance_l_dist,contact_norm_force_l_dist,in_contact_r,contact_point_r_dist,contact_normal_r_dist,contact_distance_r_dist,contact_norm_force_r_dist
0,Open,,,,,,"[-0.026750000193715096, 0.05299999937415123, 0.03999999910593033]","[0.0, -0.0, 0.0]","[-0.026750000193715096, 0.125, 0.03999999910593033]","[0.0, -0.0, 5.883223447970011e-32]","[0.026750000193715096, 0.05299999937415123, 0.03999999910593033]","[0.0, 0.0, -0.008068665592501188]","[0.02733093686401844, 0.12499765306711197, 0.03999999910593033]","[0.0, 0.0, -0.0780932845685428]",0.157,37.68,"(0.0, 0.0, 0.0, 0.0, 0.0, 0.0)",54.702693795169004,5.294901130302062e-32,-1.4119736347472162e-30,"(0.0, 0.0, 0.0, 0.0, 0.0, 0.0)",3.9113724975844915,-0.1670280316324969,-38.150247946082466,"(0.0, 0.0, 0.0, 0.0, 0.0, 0.0)",-25.93345404555236,-0.0659493391739072,0.9780670797324476,"(0.0, 0.0, 0.0, 0.0, 0.0, 0.0)",-6.754749483880455,False,,,,,False,,,,
1,Open,,,,,,"[-0.026750000193715096, 0.05299999937415123, 0.03999999910593033]","[0.0, -0.0, 0.29830000998707634]","[-0.04791048914194107, 0.12182030081748962, 0.03999999910593033]","[0.0, -0.0, 0.29830000998707634]","[0.026750000193715096, 0.05299999937415123, 0.03999999910593033]","[0.0, 0.0, -0.3122944642903269]","[0.048871491104364395, 0.12151744216680527, 0.03999999910593033]","[0.0, 0.0, -0.3793531994353912]",0.42546999999999996,30.5208,"(0.0, 0.0, 0.0, 0.0, 0.0, 0.0)",-4.858074537215091,5.294901130302062e-32,0.0,"(0.0, 0.0, 0.0, 0.0, 0.0, 0.0)",-0.33154044974508506,-0.44292449566296654,-31.35120824461403,"(0.0, 0.0, 0.0, 0.0, 0.0, 0.0)",100.88457241511576,-0.08373770380977785,-4.0029668326633345,"(0.0, 0.0, 0.0, 0.0, 0.0, 0.0)",24.077304806401806,False,,,,,False,,,,
2,Open,,,,,,"[-0.026750000193715096, 0.05299999937415123, 0.03999999910593033]","[0.0, -0.0, 0.5399230359738098]","[-0.06376303732395172, 0.11475787311792374, 0.03999999910593033]","[0.0, -0.0, 0.5399230359738098]","[0.026750000193715096, 0.05299999937415123, 0.03999999910593033]","[0.0, 0.0, -0.5623038790270362]","[0.06513584405183792, 0.11391409486532211, 0.03999999910593033]","[0.0, 0.0, -0.6668711870723439]",0.6429307,24.721848,"(0.0, 0.0, 0.0, 0.0, 0.0, 0.0)",-3.943806903965684,5.294901130302062e-32,0.0,"(0.0, 0.0, 0.0, 0.0, 0.0, 0.0)",-0.2716098155097054,-0.6673401099248648,-25.208696742335626,"(0.0, 0.0, 0.0, 0.0, 0.0, 0.0)",94.97739775913854,-0.11755295807544866,-3.116564819203918,"(0.0, 0.0, 0.0, 0.0, 0.0, 0.0)",25.79194570087013,False,,,,,False,,,,
3,Open,,,,,,"[-0.026750000193715096, 0.05299999937415123, 0.03999999910593033]","[0.0, -0.0, 0.7356376306875043]","[-0.07506632059812546, 0.10638101398944855, 0.03999999910593033]","[0.0, -0.0, 0.7356376306875043]","[0.026750000193715096, 0.05299999937415123, 0.03999999910593033]","[0.0, 0.0, -0.757991847340814]","[0.076247438788414, 0.10528770089149475, 0.03999999910593033]","[0.0, 0.0, -0.8659334873334429]",0.8190738670000001,20.024696880000004,"(0.0, 0.0, 0.0, 0.0, 0.0, 0.0)",-3.2002295086701533,2.3293280891773424e-07,5.5903874140256216e-05,"(0.0, 0.0, 0.0, 0.0, 0.0, 0.0)",-0.22200715926400075,-0.8391926082762636,-19.488197112632974,"(0.0, 0.0, 0.0, 0.0, 0.0, 0.0)",3.295349739497939,-0.09714776835574307,2.590534961280482,"(0.0, 0.0, 0.0, 0.0, 0.0, 0.0)",0.25803221970863044,False,,,,,False,,,,
4,Open,,,,,,"[-0.026750000193715096, 0.05299999937415123, 0.03999999910593033]","[0.0, -0.0, 0.894166469119967]","[-0.08288749307394028, 0.09808415919542313, 0.03999999910593033]","[0.0, -0.0, 0.894166894674561]","[0.026750000193715096, 0.05299999937415123, 0.03999999910593033]","[0.0, 0.0, -0.9122733503889549]","[0.08369457721710205, 0.09706035256385803, 0.03999999910593033]","[0.0, 0.0, -0.9997066729229968]",0.96174983227,16.220004472800003,"(0.0, 0.0, 0.0, 0.0, 0.0, 0.0)",-2.5959652512206968,5.681494863714967e-07,3.553320838026869e-05,"(0.0, 0.0, 0.0, 0.0, 0.0, 0.0)",-0.18114955764248034,-0.9780460127037736,-15.785439661232708,"(0.0, 0.0, 0.0, 0.0, 0.0, 0.0)",2.503992476159733,-0.0786900142246732,2.098357403184359,"(0.0, 0.0, 0.0, 0.0, 0.0, 0.0)",0.15360133560797545,False,,,,,False,,,,
5,Open,,,,,,"[-0.026750000193715096, 0.05299999937415123, 0.03999999910593033]","[0.0, -0.0, 1.0225748785172661]","[-0.08819860219955444, 0.09052424877882004, 0.03999999910593033]","[0.0, -0.0, 1.0225755149967983]","[0.026750000193715096, 0.05299999937415123, 0.03999999910593033]","[0.0, 0.0, -1.037241417801626]","[0.08874232321977615, 0.08961901068687439, 0.03999999910593033]","[0.0, 0.0, -1.1080626941470386]",1.0773173641387,13.138203622968001,"(0.0, 0.0, 0.0, 0.0, 0.0, 0.0)",-2.105207702642618,7.694903593429899e-07,2.0776129443188934e-05,"(0.0, 0.0, 0.0, 0.0, 0.0, 0.0)",-0.14759587787833617,-1.0905172702900567,-12.78620612559849,"(0.0, 0.0, 0.0, 0.0, 0.0, 0.0)",2.0303755786213302,-0.06373917358809339,1.6996763127328351,"(0.0, 0.0, 0.0, 0.0, 0.0, 0.0)",0.1250328149112744,False,,,,,False,,,,
6,Open,,,,,,"[-0.026750000193715096, 0.05299999937415123, 0.03999999910593033]","[0.0, -0.0, 1.126585512342968]","[-0.09176240861415863, 0.08394166082143784, 0.03999999910593033]","[0.0, -0.0, 1.1265864725026016]","[0.026750000193715096, 0.05299999937415123, 0.03999999910593033]","[0.0, 0.0, -1.13846552283997]","[0.09212540090084076, 0.08316715806722641, 0.03999999910593033]","[0.0, 0.0, -1.1958309904194953]",1.1709270649523469,10.641944934604087,"(0.0, 0.0, 0.0, 0.0, 0.0, 0.0)",-1.7068426281171958,8.750681698751778e-07,1.0273240928962424e-05,"(0.0, 0.0, 0.0, 0.0, 0.0, 0.0)",-0.12011999884119333,-1.181618988934946,-10.356826961734775,"(0.0, 0.0, 0.0, 0.0, 0.0, 0.0)",1.6460093571929852,-0.051628943774705546,1.376743384776279,"(0.0, 0.0, 0.0, 0.0, 0.0, 0.0)",0.10168054944364863,False,,,,,False,,,,
7,Open,,,,,,"[-0.026750000193715096, 0.05299999937415123, 0.03999999910593033]","[0.0, -0.0, 1.2108343955497323]","[-0.09413553774356842, 0.07836118340492249, 0.03999999910593033]","[0.0, -0.0, 1.210835255049739]","[0.026750000193715096, 0.05299999937415123, 0.03999999910593033]","[0.0, 0.0, -1.2204571829136446]","[0.09437645971775055, 0.07771158218383789, 0.03999999910593033]","[0.0, 0.0, -1.2669233179031547]",1.2467509226114009,8.619975397029307,"(0.0, 0.0, 0.0, 0.0, 0.0, 0.0)",-1.3836082777937824,9.135722823677317e-07,2.9650129412077397e-06,"(0.0, 0.0, 0.0, 0.0, 0.0, 0.0)",-0.09766941677677543,-1.2554113810373062,-8.38902983900517,"(0.0, 0.0, 0.0, 0.0, 0.0, 0.0)",1.334189480132575,-0.04181961771093252,1.1151666876061868,"(0.0, 0.0, 0.0, 0.0, 0.0, 0.0)",0.08262627878010878,False,,,,,False,,,,
8,Open,,,,,,"[-0.026750000193715096, 0.05299999937415123, 0.03999999910593033]","[0.0, -0.0, 1.2790758758817962]","[-0.09570803493261337, 0.0737072303891182, 0.03999999910593033]","[0.0, -0.0, 1.2790780932516201]","[0.026750000193715096, 0.05299999937415123, 0.03999999910593033]","[0.0, 0.0, -1.2868702529032277]","[0.0958673357963562, 0.07316911965608597, 0.03999999910593033]","[0.0, 0.0, -1.3245087793274308]",1.3081682532711112,6.982181501004109,"(0.0, 0.0, 0.0, 0.0, 0.0, 0.0)",-1.12145472366965,1.9027582300258812e-06,-5.0740219467356254e-05,"(0.0, 0.0, 0.0, 0.0, 0.0, 0.0)",-0.07939114715284208,-1.315183223212741,-6.795115266999686,"(0.0, 0.0, 0.0, 0.0, 0.0, 0.0)",1.0813262344929835,-0.033874873767778015,0.9033299671407473,"(0.0, 0.0, 0.0, 0.0, 0.0, 0.0)",0.06713055017345074,False,,,,,False,,,,
9,Open,,,,,,"[-0.026750000193715096, 0.05299999937415123, 0.03999999910593033]","[0.0, -0.0, 1.334351465706577]","[-0.09674673527479172, 0.06986585259437561, 0.03999999910593033]","[0.0, -0.0, 1.33435435145599]","[0.026750000193715096, 0.05299999937415123, 0.03999999910593033]","[0.0, 0.0, -1.3406650641721125]","[0.09685182571411133, 0.06942359358072281, 0.03999999910593033]","[0.0, 0.0, -1.3711530696282732]",1.3579162851496,5.655565729344001,"(0.0, 0.0, 0.0, 0.0, 0.0, 0.0)",-0.9088150211252332,3.4316066113876724e-06,0.0001607445165674468,"(0.0, 0.0, 0.0, 0.0, 0.0, 0.0)",-0.06444344013525093,-1.3635984108023202,-5.504042378604797,"(0.0, 0.0, 0.0, 0.0, 0.0, 0.0)",0.8762522980402716,-0.02744024570882781,0.7315266716392431,"(0.0, 0.0, 0.0, 0.0, 0.0, 0.0)",0.05446985052483407,False,,,,,False,,,,
10,Open,,,,,,"[-0.026750000193715096, 0.05299999937415123, 0.03999999910593033]","[0.0, -0.0, 1.3791247702213432]","[-0.0974314734339714, 0.0667160153388977, 0.03999999910593033]","[0.0, -0.0, 1.3791284782568445]","[0.026750000193715096, 0.05299999937415123, 0.03999999910593033]","[0.0, 0.0, -1.3842387704807777]","[0.09750068932771683, 0.06635437905788422, 0.03999999910593033]","[0.0, 0.0, -1.408935619520831]",1.398212190971176,4.581008240768642,"(0.0, 0.0, 0.0, 0.0, 0.0, 0.0)",-0.7364407507487188,4.314390796743166e-06,8.968521101115077e-05,"(0.0, 0.0, 0.0, 0.0, 0.0, 0.0)",-0.05230389643117988,-1.4028147127498793,-4.458274326669883,"(0.0, 0.0, 0.0, 0.0, 0.0, 0.0)",0.7100243788118592,-0.02222789596809768,0.5925708975857369,"(0.0, 0.0, 0.0, 0.0, 0.0, 0.0)",0.04419507766734469,False,,,,,False,,,,
11,Open,,,,,,"[-0.026750000193715096, 0.05299999937415123, 0.03999999910593033]","[0.0, -0.0, 1.415391158105469]","[-0.09788231551647186, 0.06414420157670975, 0.03999999910593033]","[0.0, -0.0, 1.415395709317307]","[0.026750000193715096, 0.05299999937415123, 0.03999999910593033]","[0.0, 0.0, -1.419533200978404]","[0.09792786836624146, 0.06384945660829544, 0.03999999910593033]","[0.0, 0.0, -1.4395389386881268]",1.4308518746866525,3.7106166750225977,"(0.0, 0.0, 0.0, 0.0, 0.0, 0.0)",-0.5967141397561109,4.7399630338636504e-06,3.9705446138709865e-05,"(0.0, 0.0, 0.0, 0.0, 0.0, 0.0)",-0.042434775014060074,-1.4345799173274023,-3.611202204602609,"(0.0, 0.0, 0.0, 0.0, 0.0, 0.0)",0.5752902758042565,-0.018005647771851804,0.4800102903229233,"(0.0, 0.0, 0.0, 0.0, 0.0, 0.0)",0.0358468230863414,False,,,,,False,,,,
12,Open,,,,,,"[-0.026750000193715096, 0.05299999937415123, 0.03999999910593033]","[0.0, -0.0, 1.4447668540021588]","[-0.09817895293235779, 0.06205013021826744, 0.03999999910593033]","[0.0, -0.0, 1.4447715863131299]","[0.026750000193715096, 0.05299999937415123, 0.03999999910593033]","[0.0, 0.0, -1.448121993206969]","[0.09820891171693802, 0.06181041896343231, 0.03999999910593033]","[0.0, 0.0, -1.46432761016298]",1.4572900184961886,3.005599506768304,"(0.0, 0.0, 0.0, 0.0, 0.0, 0.0)",-0.483467731204937,4.849462099751187e-06,5.401615740548756e-06,"(0.0, 0.0, 0.0, 0.0, 0.0, 0.0)",-0.03441712855198442,-1.4603097330351957,-2.925073785728113,"(0.0, 0.0, 0.0, 0.0, 0.0, 0.0)",0.4660969568661882,-0.014585427836986846,0.38883096045278315,"(0.0, 0.0, 0.0, 0.0, 0.0, 0.0)",0.029067900465992856,False,,,,,False,,,,
13,Open,,,,,,"[-0.026750000193715096, 0.05299999937415123, 0.03999999910593033]","[0.0, -0.0, 1.4685611215819594]","[-0.09837405383586884, 0.06034812703728676, 0.03999999910593033]","[0.0, -0.0, 1.468565853091142]","[0.026750000193715096, 0.05299999937415123, 0.03999999910593033]","[0.0, 0.0, -1.4712788457263521]","[0.0983937606215477, 0.06015344336628914, 0.03999999910593033]","[0.0, 0.0, -1.4844061039497418]",1.4787049149819127,2.434535600482329,"(0.0, 0.0, 0.0, 0.0, 0.0, 0.0)",-0.39169363303347604,4.747151892642784e-06,-1.7351748576465223e-05,"(0.0, 0.0, 0.0, 0.0, 0.0, 0.0)",-0.02790732436186781,-1.4811508837585086,-2.3693097664397755,"(0.0, 0.0, 0.0, 0.0, 0.0, 0.0)",0.37761186810531283,-0.011814888241968555,0.3149714411852639,"(0.0, 0.0, 0.0, 0.0, 0.0, 0.0)",0.023565936472848985,False,,,,,False,,,,
14,Open,,,,,,"[-0.026750000193715096, 0.05299999937415123, 0.03999999910593033]","[0.0, -0.0, 1.487834617901085]","[-0.09850236773490906, 0.05896640568971634, 0.03999999910593033]","[0.0, -0.0, 1.4878390921106803]","[0.026750000193715096, 0.05299999937415123, 0.03999999910593033]","[0.0, 0.0, -1.4900358577435544]","[0.09851532429456711, 0.05880843847990036, 0.03999999910593033]","[0.0, 0.0, -1.5006695807985118]",1.4960509811353493,1.9719738363906854,"(0.0, 0.0, 0.0, 0.0, 0.0, 0.0)",-0.3173274216127963,4.509251873886308e-06,-3.168767150011037e-05,"(0.0, 0.0, 0.0, 0.0, 0.0, 0.0)",-0.022624215793833224,-1.498032215844392,-1.9191409108162163,"(0.0, 0.0, 0.0, 0.0, 0.0, 0.0)",0.30591369390909257,-0.00957062017308593,0.2551417656412126,"(0.0, 0.0, 0.0, 0.0, 0.0, 0.0)",0.019102112305110365,False,,,,,False,,,,
15,Close,,,"(0.010000330010418335, 0.1600052801621647, 0.0076635160840755065)","(-0.00010776674212266888, 6.7354271463595154e-06, -3.629275205618536e-10)",,"[-0.026750000193715096, 0.05299999937415123, 0.03999999910593033]","[0.0, -0.0, 1.5034457455162191]","[-0.09858676046133041, 0.05784556642174721, 0.03999999910593033]","[0.0, -0.0, 1.5034503818793725]","[0.026750000193715096, 0.05299999937415123, 0.03999999910593033]","[0.0, 0.0, -1.5052288706440118]","[0.09859529137611389, 0.057717464864254, 0.03999999910593033]","[0.0, 0.0, -1.5138427586332608]",1.413101294719633,-21.682701192523552,"(0.0, 0.0, 0.0, 0.0, 0.0, 0.0)",-36.2964633864193,-0.08999572753671375,-21.600020366059084,"(0.0, 0.0, 0.0, 0.0, 0.0, 0.0)",-4.677104715743802,-1.4147060948339576,21.72549586223887,"(0.0, 0.0, 0.0, 0.0, 0.0, 0.0)",36.28721231316116,0.08224721981037424,21.806647295928226,"(0.0, 0.0, 0.0, 0.0, 0.0, 0.0)",4.674247117033191,False,,,,,False,,,,
16,Close,,,"(0.010000659812012168, 0.16001055698314023, 0.0146278458391823)","(-0.0002154970996661642, 1.346858017578936e-05, -1.4512199879406586e-09)",,"[-0.026750000193715096, 0.05299999937415123, 0.03999999910593033]","[0.0, -0.0, 1.331791174621689]","[-0.09670332819223404, 0.07004500180482864, 0.03999999910593033]","[0.0, -0.0, 1.1607947601674466]","[0.026750000193715096, 0.05299999937415123, 0.03999999910593033]","[0.0, 0.0, -1.333235579802916]","[0.0967278704047203, 0.06994394958019257, 0.03999999910593033]","[0.0, 0.0, -1.1692126917852095]",1.2586120487229027,-17.562987965944075,"(0.0, 0.0, 0.0, 0.0, 0.0, 0.0)",2.9912613024458263,-0.2438973282575851,-17.496176851103186,"(0.0, 0.0, 0.0, 0.0, 0.0, 0.0)",0.3774423078885404,-1.2599119368155056,17.59765164841349,"(0.0, 0.0, 0.0, 0.0, 0.0, 0.0)",-2.998418754928424,0.23762104120869787,17.663545071724318,"(0.0, 0.0, 0.0, 0.0, 0.0, 0.0)",-0.3794651959179023,False,,,,,False,,,,
17,Close,,,"(0.010000989414132393, 0.1600158306125408, 0.020893621515273818)","(-0.00032319108508158773, 2.0199459787849396e-05, -3.2641426920478403e-09)",,"[-0.026750000193715096, 0.05299999937415123, 0.03999999910593033]","[0.0, -0.0, 1.1927509376626115]","[-0.09366592019796371, 0.0795755386352539, 0.03999999910593033]","[0.0, -0.0, 0.8832429263887086]","[0.026750000193715096, 0.05299999937415123, 0.03999999910593033]","[0.0, 0.0, -1.1939208377844814]","[0.0936969667673111, 0.07949723303318024, 0.03999999910593033]","[0.0, 0.0, -0.8900614482005528]",1.1334757594655511,-14.226020252414699,"(0.0, 0.0, 0.0, 0.0, 0.0, 0.0)",2.4288508647123748,-0.36855748390702325,-14.171887099327844,"(0.0, 0.0, 0.0, 0.0, 0.0, 0.0)",0.30976852738726823,-1.1345286688205596,14.254097835214925,"(0.0, 0.0, 0.0, 0.0, 0.0, 0.0)",-2.4347025650831196,0.36347369491056536,14.307455277413446,"(0.0, 0.0, 0.0, 0.0, 0.0, 0.0)",-0.3114537668278207,False,,,,,False,,,,
18,Close,,,"(0.010001318826104761, 0.16002110119957821, 0.02646143576036139)","(-0.0004308487108156613, 2.692806668198511e-05, -5.800961497533997e-09)",,"[-0.026750000193715096, 0.05299999937415123, 0.03999999910593033]","[0.0, -0.0, 1.0801281957344744]","[-0.09025531262159348, 0.08692750334739685, 0.03999999910593033]","[0.0, -0.0, 0.658426092619021]","[0.026750000193715096, 0.05299999937415123, 0.03999999910593033]","[0.0, 0.0, -1.0810758877799864]","[0.09028743207454681, 0.0868673101067543, 0.03999999910593033]","[0.0, 0.0, -0.6639491897248752]",1.0321153651670965,-11.523076404455903,"(0.0, 0.0, 0.0, 0.0, 0.0, 0.0)",1.9712593195403922,-0.46953209273108476,-11.479215138346529,"(0.0, 0.0, 0.0, 0.0, 0.0, 0.0)",0.25356328507457,-1.0329682217446532,11.54581924652409,"(0.0, 0.0, 0.0, 0.0, 0.0, 0.0)",-1.976034733535922,0.46541422655746517,11.589025293474933,"(0.0, 0.0, 0.0, 0.0, 0.0, 0.0)",-0.2549589687679249,False,,,,,False,,,,
19,Close,,,"(0.010001648057231211, 0.16002636889308344, 0.03133184175509247)","(-0.0005384699893107284, 3.3654401557527444e-05, -9.06094284338731e-09)",,"[-0.026750000193715096, 0.05299999937415123, 0.03999999910593033]","[0.0, -0.0, 0.9889039009917453]","[-0.08690053224563599, 0.09257163107395172, 0.03999999910593033]","[0.0, -0.0, 0.4763247177857985]","[0.026750000193715096, 0.05299999937415123, 0.03999999910593033]","[0.0, 0.0, -0.9896714317513632]","[0.08693088591098785, 0.09252544492483139, 0.03999999910593033]","[0.0, 0.0, -0.4807983343348629]",0.9500134457853482,-9.333691887609287,"(0.0, 0.0, 0.0, 0.0, 0.0, 0.0)",1.59927232790674,-0.551321428885197,-9.298153181376478,"(0.0, 0.0, 0.0, 0.0, 0.0, 0.0)",0.20712540820679678,-0.9507042596131691,9.352113589684514,"(0.0, 0.0, 0.0, 0.0, 0.0, 0.0)",-1.6031637286990463,0.5479859596890367,9.387099348535743,"(0.0, 0.0, 0.0, 0.0, 0.0, 0.0)",-0.20827601456628825,False,,,,,False,,,,
20,Close,,,"(0.010001977116791199, 0.1600316338415276, 0.035505353338314005)","(-0.0006460549330047555, 4.037846511369274e-05, -1.3043353742532214e-08)",,"[-0.026750000193715096, 0.05299999937415123, 0.03999999910593033]","[0.0, -0.0, 0.9150121593347216]","[-0.08381503820419312, 0.09690423309803009, 0.03999999910593033]","[0.0, -0.0, 0.3288226039195219]","[0.026750000193715096, 0.05299999937415123, 0.03999999910593033]","[0.0, 0.0, -0.9156338940018686]","[0.08384232223033905, 0.09686874598264694, 0.03999999910593033]","[0.0, 0.0, -0.33244627340343963]",0.883510891086132,-7.560290428963521,"(0.0, 0.0, 0.0, 0.0, 0.0, 0.0)",1.2970851133907606,-0.6175707112805602,-7.53149495926978,"(0.0, 0.0, 0.0, 0.0, 0.0, 0.0)",0.1689126126712179,-0.884070450286667,7.575212007644451,"(0.0, 0.0, 0.0, 0.0, 0.0, 0.0)",-1.3002524451675361,0.6148689832085066,7.603541305643349,"(0.0, 0.0, 0.0, 0.0, 0.0, 0.0)",-0.16985779298155493,False,,,,,False,,,,
21,Close,,,"(0.010002306014043007, 0.16003689619304312, 0.038982445123681576)","(-0.0007536035543313348, 4.7100258049582536e-05, -1.7747461781428295e-08)",,"[-0.026750000193715096, 0.05299999937415123, 0.03999999910593033]","[0.0, -0.0, 0.855159831855573]","[-0.0810866579413414, 0.10023905336856842, 0.03999999910593033]","[0.0, -0.0, 0.20934598049273878]","[0.026750000193715096, 0.05299999937415123, 0.03999999910593033]","[0.0, 0.0, -0.855663319897266]","[0.08111044019460678, 0.10021167993545532, 0.03999999910593033]","[0.0, 0.0, -0.21228117869263835]",0.8296438217797669,-6.123835247460454,"(0.0, 0.0, 0.0, 0.0, 0.0, 0.0)",1.05173758145085,-0.6712325644411228,-6.100503438359898,"(0.0, 0.0, 0.0, 0.0, 0.0, 0.0)",0.13756782929819192,-0.8300970647322002,6.135921726192006,"(0.0, 0.0, 0.0, 0.0, 0.0, 0.0)",-1.0543131565319612,0.6690441663231638,6.158860938132814,"(0.0, 0.0, 0.0, 0.0, 0.0, 0.0)",-0.13834207864853043,False,,,,,False,,,,
22,Close,,,"(0.010002634758225062, 0.1600421560954447, 0.041763552607370504)","(-0.000861115865719684, 5.381978106418352e-05, -2.3172535119669436e-08)",,"[-0.026750000193715096, 0.05299999937415123, 0.03999999910593033]","[0.0, -0.0, 0.8066794434121096]","[-0.07873354107141495, 0.10281677544116974, 0.03999999910593033]","[0.0, -0.0, 0.11257000369976355]","[0.026750000193715096, 0.05299999937415123, 0.03999999910593033]","[0.0, 0.0, -0.807087375168555]","[0.07875385880470276, 0.1027955636382103, 0.03999999910593033]","[0.0, 0.0, -0.11494747853587685]",0.7860114956416112,-4.960306550442966,"(0.0, 0.0, 0.0, 0.0, 0.0, 0.0)",0.8526282438926112,-0.7146986118113532,-4.941401666116088,"(0.0, 0.0, 0.0, 0.0, 0.0, 0.0)",0.11192109221648956,-0.7863786224330822,4.970096598215528,"(0.0, 0.0, 0.0, 0.0, 0.0, 0.0)",-0.8547210444656044,0.7129260106609093,4.988671207184531,"(0.0, 0.0, 0.0, 0.0, 0.0, 0.0)",-0.11255391153308099,False,,,,,False,,,,
23,Close,,,"(0.010002963358557236, 0.16004741369625017, 0.04384907226694074)","(-0.0009685918795946493, 6.053703485636736e-05, -2.9317842489583264e-08)",,"[-0.026750000193715096, 0.05299999937415123, 0.03999999910593033]","[0.0, -0.0, 0.7674103444184671]","[-0.07673770934343338, 0.10481919348239899, 0.03999999910593033]","[0.0, -0.0, 0.03418149097606777]","[0.026750000193715096, 0.05299999937415123, 0.03999999910593033]","[0.0, 0.0, -0.7677407466611278]","[0.07675483077764511, 0.1048026755452156, 0.03999999910593033]","[0.0, 0.0, -0.0361072460378734]",0.7506693114697051,-4.017848305858803,"(0.0, 0.0, 0.0, 0.0, 0.0, 0.0)",0.6911017846597902,-0.7499060663183246,-4.0025303530146505,"(0.0, 0.0, 0.0, 0.0, 0.0, 0.0)",0.09097831684118958,-0.7509666841707966,4.025778244554576,"(0.0, 0.0, 0.0, 0.0, 0.0, 0.0)",-0.6928012733138227,0.7484702604680491,4.040818653480022,"(0.0, 0.0, 0.0, 0.0, 0.0, 0.0)",-0.09149462532289206,False,,,,,False,,,,
24,Close,,,"(0.010003291824242136, 0.16005266914270105, 0.04523936165140331)","(-0.0010760316083767074, 6.725202012489063e-05, -3.618265319583079e-08)",,"[-0.026750000193715096, 0.05299999937415123, 0.03999999910593033]","[0.0, -0.0, 0.7356023986171477]","[-0.07506444305181503, 0.10638272017240524, 0.03999999910593033]","[0.0, 0.0, -0.029314282157410606]","[0.026750000193715096, 0.05299999937415123, 0.03999999910593033]","[0.0, 0.0, -0.7358699744488303]","[0.07507872581481934, 0.10636978596448898, 0.03999999910593033]","[0.0, -0.0, 0.027754427824074522]",0.722042142290461,-3.2544571277456287,"(0.0, 0.0, 0.0, 0.0, 0.0, 0.0)",0.560108160717456,-0.7784260816002104,-3.242260463996204,"(0.0, 0.0, 0.0, 0.0, 0.0, 0.0)",0.0739092939425144,-0.7222830141783452,3.260880378089207,"(0.0, 0.0, 0.0, 0.0, 0.0, 0.0)",-0.5614876113391304,0.7772630911922368,3.2732751882458535,"(0.0, 0.0, 0.0, 0.0, 0.0, 0.0)",-0.07432997801242036,False,,,,,False,,,,
25,Close,,,"(0.010001644182078712, 0.16005595153396976, 0.045940321410535084)","(-0.0011271805217326655, 1.767785898679914e-05, -1.508889111938428e-08)",,"[-0.026750000193715096, 0.05299999937415123, 0.03999999910593033]","[0.0, -0.0, 0.7098379546684608]","[-0.07367318123579025, 0.10760965943336487, 0.03999999910593033]","[0.0, 0.0, -0.08074653118681538]","[0.026750000193715096, 0.05299999937415123, 0.03999999910593033]","[0.0, 0.0, -0.7100547061469626]","[0.07368502020835876, 0.10759948939085007, 0.03999999910593033]","[0.0, -0.0, 0.07948305351710017]",0.6988541352552734,-2.6361102734739577,"(0.0, 0.0, 0.0, 0.0, 0.0, 0.0)",0.4538907146887525,-0.8015268867317584,-2.626184566689172,"(0.0, 0.0, 0.0, 0.0, 0.0, 0.0)",0.06000477197099662,-0.6990492414844596,2.6413131062522566,"(0.0, 0.0, 0.0, 0.0, 0.0, 0.0)",-0.45500992694973624,0.8005848745408953,2.6513062318756173,"(0.0, 0.0, 0.0, 0.0, 0.0, 0.0)",-0.06034712704439637,False,,,,,False,,,,
26,Close,,,"(0.0099979269032565, 0.16005188637635104, 0.04640949954916324)","(-0.0010442772263960227, -5.814874739306873e-05, 7.787963860925158e-09)",,"[-0.026750000193715096, 0.05299999937415123, 0.03999999910593033]","[0.0, -0.0, 0.6889687286552088]","[-0.07252338528633118, 0.1085769459605217, 0.03999999910593033]","[0.0, 0.0, -0.12240626184562299]","[0.026750000193715096, 0.05299999937415123, 0.03999999910593033]","[0.0, 0.0, -0.6891442541658422]","[0.07253314554691315, 0.10856890678405762, 0.03999999910593033]","[0.0, -0.0, 0.12138287899953458]",0.6800717984485459,-2.1352615874880345,"(0.0, 0.0, 0.0, 0.0, 0.0, 0.0)",0.36778464275725675,-0.820237492399504,-2.127000202679893,"(0.0, 0.0, 0.0, 0.0, 0.0, 0.0)",0.04871100820034693,-0.6802298342020312,2.1394759521557623,"(0.0, 0.0, 0.0, 0.0, 0.0, 0.0)",-0.3686924226914724,0.8194744666035607,2.147347557238381,"(0.0, 0.0, 0.0, 0.0, 0.0, 0.0)",-0.04898946018255637,False,,,,,False,,,,
27,Close,,,"(0.009998107600018924, 0.16004411888380865, 0.0468059782297436)","(-0.0008858309445970004, -5.447527859797503e-05, 4.128601528647624e-08)",,"[-0.026750000193715096, 0.05299999937415123, 0.03999999910593033]","[0.0, -0.0, 0.672064613904271]","[-0.07157741487026215, 0.10934273153543472, 0.03999999910593033]","[0.0, 0.0, -0.15614974961002634]","[0.026750000193715096, 0.05299999937415123, 0.03999999910593033]","[0.0, 0.0, -0.6722069192953587]","[0.07158542424440384, 0.10933635383844376, 0.03999999910593033]","[0.0, -0.0, 0.15532080931604164]",0.6648581567433223,-1.7295508464885936,"(0.0, 0.0, 0.0, 0.0, 0.0, 0.0)",0.29799285099320455,-0.8353935278746698,-1.722993881465588,"(0.0, 0.0, 0.0, 0.0, 0.0, 0.0)",0.03950205891705609,-0.6649861657036452,1.732964418763874,"(0.0, 0.0, 0.0, 0.0, 0.0, 0.0)",-0.2987289514022836,0.83477548361327,1.7394759470338683,"(0.0, 0.0, 0.0, 0.0, 0.0, 0.0)",-0.03972821774930672,False,,,,,False,,,,
28,Close,,,"(0.009998390752654573, 0.16003702894197389, 0.04714144752999396)","(-0.0007411380797103218, -4.869650481896534e-05, 1.1687517768299383e-07)",,"[-0.026750000193715096, 0.05299999937415123, 0.03999999910593033]","[0.0, -0.0, 0.6583722791296546]","[-0.07080177217721939, 0.10995122045278549, 0.03999999910593033]","[0.0, 0.0, -0.18348236399010098]","[0.026750000193715096, 0.05299999937415123, 0.03999999910593033]","[0.0, 0.0, -0.6584875609778488]","[0.07080833613872528, 0.10994613915681839, 0.03999999910593033]","[0.0, -0.0, 0.18281091441867092]",0.652535106962091,-1.400936185655761,"(0.0, 0.0, 0.0, 0.0, 0.0, 0.0)",0.24143143710013154,-0.8476696977959799,-1.3956001238249038,"(0.0, 0.0, 0.0, 0.0, 0.0, 0.0)",0.032035576984152714,-0.6526387942199526,1.4037011791987364,"(0.0, 0.0, 0.0, 0.0, 0.0, 0.0)",-0.24202820218879367,0.8471690873323404,1.4089504550195393,"(0.0, 0.0, 0.0, 0.0, 0.0, 0.0)",-0.0322192170145395,False,,,,,False,,,,
29,Close,,,"(0.009998679410322496, 0.16003066597344334, 0.0474253884764576)","(-0.0006112814540129935, -4.2805404436077314e-05, 1.9447426774393396e-07)",,"[-0.026750000193715096, 0.05299999937415123, 0.03999999910593033]","[0.0, -0.0, 0.6472815645892557]","[-0.07016744464635849, 0.11043626815080643, 0.03999999910593033]","[0.0, 0.0, -0.2056215493544759]","[0.026750000193715096, 0.05299999937415123, 0.03999999910593033]","[0.0, 0.0, -0.6473749785824873]","[0.07017280906438828, 0.1104322224855423, 0.03999999910593033]","[0.0, -0.0, 0.20507767878351457]",0.6425534366392937,-1.1347583103811658,"(0.0, 0.0, 0.0, 0.0, 0.0, 0.0)",0.19559696212506814,-0.8576132175808707,-1.130415870269558,"(0.0, 0.0, 0.0, 0.0, 0.0, 0.0)",0.025974296640771184,-0.6426374233181616,1.1369979551509777,"(0.0, 0.0, 0.0, 0.0, 0.0, 0.0)",-0.19608068519888996,0.8572077274788498,1.141229523067934,"(0.0, 0.0, 0.0, 0.0, 0.0, 0.0)",-0.02612334092818916,False,,,,,False,,,,
30,Close,,,"(0.009865465308992205, 0.15999852606453366, 0.04766600164849151)","(-0.0003424815135586742, 0.00015086673503461647, 0.0034152828324375316)",,"[-0.026750000193715096, 0.05299999937415123, 0.03999999910593033]","[0.0, -0.0, 0.6382981045455605]","[-0.06964972615242004, 0.11082398891448975, 0.03999999910593033]","[0.0, 0.0, -0.22355414441709243]","[0.026750000193715096, 0.05299999937415123, 0.03999999910593033]","[0.0, 0.0, -0.6383737252477673]","[0.06965409219264984, 0.11082074791193008, 0.03999999910593033]","[0.0, -0.0, 0.22311363310560886]",0.6344682836778279,-0.9191542314087444,"(0.0, 0.0, 0.0, 0.0, 0.0, 0.0)",0.1584658053641607,-0.8656670151994418,-0.9155462613482186,"(0.0, 0.0, 0.0, 0.0, 0.0, 0.0)",0.021063560793533557,-0.6345419852789147,0.9196069697833984,"(0.0, 0.0, 0.0, 0.0, 0.0, 0.0)",1.5650710318467773,0.8652269258386903,0.8975102038417887,"(0.0, 0.0, 0.0, 0.0, 0.0, 0.0)",0.970263568851588,False,,,,,True,"(0.041964474105275554, 0.17969275438125942, 0.023999959438538113)","(-0.9999999992078928, -2.3394376763778626e-07, -3.980150266267419e-05)",0.0005277146366441324,13.827283024398023
31,Move,,,"(0.007363952190207586, 0.1595176072470861, 0.04786907614534817)","(-0.000283671801070412, 0.00017028703879343212, 0.033932294028324435)","[0.0, 0.0, 0.0]","[-0.026750000193715096, 0.05299999937415123, 0.03999999910593033]","[0.0, -0.0, 0.6310214732486521]","[-0.06922782957553864, 0.1111346185207367, 0.03999999910593033]","[0.0, 0.0, -0.23807887186492363]","[0.026750000193715096, 0.05299999937415123, 0.03999999910593033]","[0.0, 0.0, -0.6310879718519756]","[0.06923169642686844, 0.11113179475069046, 0.03999999910593033]","[0.0, -0.0, 0.2376151439176698]",0.6073010028525442,-5.692908589800243,"(0.0, 0.0, 0.0, 0.0, 0.0, 0.0)",-6.970029188620435,-0.868756983831492,0.08239916352133925,"(0.0, 0.0, 0.0, 0.0, 0.0, 0.0)",-0.4110687045203754,-0.6117280690932336,4.646378695169427,"(0.0, 0.0, 0.0, 0.0, 0.0, 0.0)",6.63722350158353,0.8683562496935296,-0.08325233958591138,"(0.0, 0.0, 0.0, 0.0, 0.0, 0.0)",0.9711507533803067,False,,,,,True,"(0.04054627108315854, 0.179595033909982, 0.023999959438538113)","(-0.9999999992078928, -2.3394376763778626e-07, -3.980150266267419e-05)",-6.660727030056632e-06,5.483947105729632
32,Move,,,"(0.003581798779507854, 0.15888081127638445, 0.0479516006086598)","(0.0007129250223673224, -0.00208967314794087, 0.0775559872120303)","[-0.003782153410699732, -0.0006367959707016535, 8.25244633116326e-05]","[-0.026750000193715096, 0.05299999937415123, 0.03999999910593033]","[0.0, -0.0, 0.5859526299274878]","[-0.06656552106142044, 0.11298936605453491, 0.03999999910593033]","[0.0, 0.0, -0.2824962348735626]","[0.026750000193715096, 0.05299999937415123, 0.03999999910593033]","[0.0, 0.0, -0.5943032042166643]","[0.06706507503986359, 0.11265479773283005, 0.03999999910593033]","[0.0, -0.0, 0.2737407621305699]",0.5651750435041389,-4.9866125127970315,"(0.0, 0.0, 0.0, 0.0, 0.0, 0.0)",0.1879296173067297,-0.8684796473023089,-0.007395640778216972,"(0.0, 0.0, 0.0, 0.0, 0.0, 0.0)",0.0052485587257143,-0.5763335013853139,4.3127362313992865,"(0.0, 0.0, 0.0, 0.0, 0.0, 0.0)",0.20027995465953127,0.8680752302284668,0.0074938524016774505,"(0.0, 0.0, 0.0, 0.0, 0.0, 0.0)",0.02249499703994292,False,,,,,True,"(0.0359258773488902, 0.1800326723866737, 0.023997902681873285)","(-0.9984706073090757, -0.05524536888912827, -0.002096558167493954)",0.00012594863753174636,0.0
33,Move,,,"(0.001122542829286716, 0.1593018964136896, 0.0479227662575371)","(0.004945114300985391, -0.0007111404472231802, 0.10411918620410092)","[-0.006241409360920869, -0.00021571083339649855, 5.3690112188933825e-05]","[-0.026750000193715096, 0.05299999937415123, 0.03999999910593033]","[0.0, -0.0, 0.5464752837415245]","[-0.06416688859462738, 0.11451403051614761, 0.03999999910593033]","[0.0, 0.0, -0.32203216719565797]","[0.026750000193715096, 0.05299999937415123, 0.03999999910593033]","[0.0, 0.0, -0.5601607664550203]","[0.06500521302223206, 0.113996222615242, 0.03999999910593033]","[0.0, -0.0, 0.3079426098360514]",0.5284581628806412,-4.324100182620625,"(0.0, 0.0, 0.0, 0.0, 0.0, 0.0)",-40.57665041993025,-0.8499710773008806,4.448713801084151,"(0.0, 0.0, 0.0, 0.0, 0.0, 0.0)",-20.450246702708142,-0.5432536493593767,4.057701472950861,"(0.0, 0.0, 0.0, 0.0, 0.0, 0.0)",40.51490371176407,0.8490881856801438,-4.5636359590366995,"(0.0, 0.0, 0.0, 0.0, 0.0, 0.0)",20.9314301799772,True,"(-0.029811151186175763, 0.18051363537611448, 0.05600153891941393)","(0.9949795852674637, 0.10006627287285103, 0.001538159394272495)",-0.0021929381795451827,324.8302845382825,True,"(0.031581245564939034, 0.18025917111664624, 0.023998461080646502)","(-0.9949795852674632, -0.10006627287285588, -0.0015381593942749786)",0.00032843032100871104,245.81822951935948
34,Move,"(-0.0032, 0.0, 0.0006)","(0.0, 0.012639674442942934, 0.0)","(0.0006372863820858589, 0.1602482092878372, 0.04792157148619712)","(0.007923491293812479, 0.00014177957293381682, 0.09914902099462397)","[-0.006726665808121727, 0.0007306020407510938, 5.2495340848952854e-05]","[-0.026750000193715096, 0.05299999937415123, 0.03999999910593033]","[0.0, -0.0, 0.5122910766505747]","[-0.062042638659477234, 0.11575690656900406, 0.03999999910593033]","[0.0, 0.0, -0.3205952360126725]","[0.026750000193715096, 0.05299999937415123, 0.03999999910593033]","[0.0, 0.0, -0.5280779333918697]","[0.06302893161773682, 0.11519195139408112, 0.03999999910593033]","[0.0, -0.0, 0.3033470937789916]",0.5129614045643249,0.16087182469877126,"(0.0, 0.0, 0.0, 0.0, 0.0, 0.0)",4.716604591634791,-0.8345987248902865,-0.4109821982901245,"(0.0, 0.0, 0.0, 0.0, 0.0, 0.0)",-0.3984562887974653,-0.5307996599327832,-0.6531995463906051,"(0.0, 0.0, 0.0, 0.0, 0.0, 0.0)",-5.750591952764166,0.8331914035747173,0.4239141894780385,"(0.0, 0.0, 0.0, 0.0, 0.0, 0.0)",0.03815255637340434,True,"(-0.027782116061409873, 0.18180915987972746, 0.05600071189642032)","(0.9945842410657634, 0.10393113923646441, 0.000711140387283058)",-0.005767574495913523,5.046316667250647,True,"(0.029910421102272162, 0.18160183909572525, 0.023999288099653494)","(-0.994584241065763, -0.10393113923646692, -0.0007111403872818769)",0.00023400145338051335,0.0
35,Move,"(-0.004275, 0.0, 0.0023250000000000002)","(0.0, 0.07408050010089934, 0.0)","(0.0010584850369131846, 0.1603450810190665, 0.048017018608934814)","(0.004081059594219132, 0.0012851413114048982, 0.09724292446342664)","[-0.006305467153294401, 0.0008274737719803915, 0.00014794246358664637]","[-0.026750000193715096, 0.05299999937415123, 0.03999999910593033]","[0.0, -0.0, 0.513627270293567]","[-0.06212645769119263, 0.11570969969034195, 0.03999999910593033]","[0.0, 0.0, -0.32157592522922485]","[0.026750000193715096, 0.05299999937415123, 0.03999999910593033]","[0.0, 0.0, -0.5333067134002558]","[0.06335362046957016, 0.11500141024589539, 0.03999999910593033]","[0.0, -0.0, 0.3007284471316408]",0.5127792606154901,-0.20351083154156413,"(0.0, 0.0, 0.0, 0.0, 0.0, 0.0)",-4.9096280348245465,-0.8331436899683015,0.4942618300217311,"(0.0, 0.0, 0.0, 0.0, 0.0, 0.0)",-2.1931099996873242,-0.5338715910945202,-0.13555962925042725,"(0.0, 0.0, 0.0, 0.0, 0.0, 0.0)",4.697609427318164,0.8321724648645723,-0.44706487078774865,"(0.0, 0.0, 0.0, 0.0, 0.0, 0.0)",1.981587508643723,True,"(-0.02780117428758603, 0.18172831779516624, 0.05600071189642032)","(0.9945842410657634, 0.10393113923646441, 0.000711140387283058)",-0.004963892139517982,31.358113045761684,True,"(0.03040912657687346, 0.18149779293095483, 0.023999288099653494)","(-0.994584241065763, -0.10393113923646692, -0.0007111403872818769)",1.81854447577332e-05,22.43219155066068
36,Move,"(-0.0078714, 0.0, 0.0051429)","(0.0, 0.10145598941843037, 0.0)","(0.0012735592675173829, 0.16045842293189577, 0.048096247975125336)","(0.0009706111196805811, 0.0024462147613030015, 0.09592697554778869)","[-0.006090392922690203, 0.0009408156848096649, 0.00022717182977716882]","[-0.026750000193715096, 0.05299999937415123, 0.03999999910593033]","[0.0, -0.0, 0.512011648657303]","[-0.06202509254217148, 0.11576677113771439, 0.03999999910593033]","[0.0, 0.0, -0.3193492536483413]","[0.026750000193715096, 0.05299999937415123, 0.03999999910593033]","[0.0, 0.0, -0.5343771425937351]","[0.06341996788978577, 0.11496219784021378, 0.03999999910593033]","[0.0, -0.0, 0.2961816489708343]",0.5122359721682056,0.0538530296510524,"(0.0, 0.0, 0.0, 0.0, 0.0, 0.0)",-3.3782813117118193,-0.8299004116063889,0.35050305957580763,"(0.0, 0.0, 0.0, 0.0, 0.0, 0.0)",-1.788221126020115,-0.5341916804666818,0.04450152042145561,"(0.0, 0.0, 0.0, 0.0, 0.0, 0.0)",3.7365822303157232,0.8291654684668344,-0.334378940189084,"(0.0, 0.0, 0.0, 0.0, 0.0, 0.0)",1.7956659360787768,True,"(-0.02784689635648399, 0.18186165763350012, 0.05600071189642032)","(0.9945842410657634, 0.10393113923646441, 0.000711140387283058)",-0.004555283276725194,26.6126053811876,True,"(0.03077815804686146, 0.181607685251473, 0.023999288099653494)","(-0.994584241065763, -0.10393113923646692, -0.0007111403872818769)",7.695841819086829e-05,15.49452936880514
37,Move,"(-0.0107, 0.0, 0.006730000000000001)","(0.0, 0.08995252431853577, 0.0)","(0.0013218499642762259, 0.1605600805055357, 0.04816896862747494)","(-0.0010522340491739644, 0.00299413800138061, 0.09529047687323645)","[-0.00604210222593136, 0.0010424732584495833, 0.00029989248212677205]","[-0.026750000193715096, 0.05299999937415123, 0.03999999910593033]","[0.0, -0.0, 0.5124398995426492]","[-0.06205197423696518, 0.11575166136026382, 0.03999999910593033]","[0.0, 0.0, -0.3161318154021714]","[0.026750000193715096, 0.05299999937415123, 0.03999999910593033]","[0.0, 0.0, -0.5340264334926694]","[0.06339824199676514, 0.11497505009174347, 0.03999999910593033]","[0.0, -0.0, 0.2938439624199535]",0.5132254029729222,0.18851864826215137,"(0.0, 0.0, 0.0, 0.0, 0.0, 0.0)",-2.9417908088548903,-0.8274137698245442,0.2779055287575623,"(0.0, 0.0, 0.0, 0.0, 0.0, 0.0)",-1.4076715369679922,-0.5332702360675449,0.18150238641187097,"(0.0, 0.0, 0.0, 0.0, 0.0, 0.0)",3.3883096192078166,0.8265585462762992,-0.3148527483727859,"(0.0, 0.0, 0.0, 0.0, 0.0, 0.0)",1.6456916970472195,True,"(-0.028086611532903774, 0.18195616723867916, 0.05600071189642032)","(0.9945842410657634, 0.10393113923646441, 0.000711140387283058)",-0.004171891605816912,23.69422571741868,True,"(0.03091231585406725, 0.18169666193868889, 0.023999288099653494)","(-0.994584241065763, -0.10393113923646692, -0.0007111403872818769)",0.00010322068276797502,11.908332974278245
38,Move,"(-0.0123923, 0.0, 0.0085077)","(0.0, 0.07353770270352909, 0.0)","(0.0012823219958395641, 0.1606435403949236, 0.04823594823779137)","(-0.002594321150491115, 0.002618327650977607, 0.09475022413699577)","[-0.006081630194368022, 0.0011259331478374879, 0.0003668720924432031]","[-0.026750000193715096, 0.05299999937415123, 0.03999999910593033]","[0.0, -0.0, 0.5139340538933557]","[-0.062145691365003586, 0.11569884419441223, 0.03999999910593033]","[0.0, 0.0, -0.31241094900031996]","[0.026750000193715096, 0.05299999937415123, 0.03999999910593033]","[0.0, 0.0, -0.5325932196701757]","[0.06330937147140503, 0.11502750962972641, 0.03999999910593033]","[0.0, -0.0, 0.29273909098002804]",0.5150257445946324,0.26202237928076977,"(0.0, 0.0, 0.0, 0.0, 0.0, 0.0)",-2.3431406544661226,-0.8254453282643562,0.21590332021098615,"(0.0, 0.0, 0.0, 0.0, 0.0, 0.0)",-1.0974489820475768,-0.5315548186206392,0.24920691678237764,"(0.0, 0.0, 0.0, 0.0, 0.0, 0.0)",3.189220194969568,0.8240408365771678,-0.3099447016252554,"(0.0, 0.0, 0.0, 0.0, 0.0, 0.0)",1.5860736920988237,True,"(-0.028426900122453184, 0.18202927516589446, 0.05600071189642032)","(0.9945842410657634, 0.10393113923646441, 0.000711140387283058)",-0.0038323635853478003,19.73854150406887,True,"(0.030897185290399004, 0.18178497790858567, 0.023999288099653494)","(-0.994584241065763, -0.10393113923646692, -0.0007111403872818769)",9.498961778115976e-05,11.710726168219871
39,Move,"(-0.015826700000000003, 0.0, 0.01076)","(0.0, 0.06749362750387272, 0.0)","(0.0011161130269428964, 0.16071228294304707, 0.048301914174823726)","(-0.004050430705726514, 0.0016480408696778887, 0.09409826903838521)","[-0.00624783916326469, 0.0011946756959609617, 0.00043283802947555877]","[-0.026750000193715096, 0.05299999937415123, 0.03999999910593033]","[0.0, -0.0, 0.5160105391544881]","[-0.06227581202983856, 0.11562521010637283, 0.03999999910593033]","[0.0, 0.0, -0.3085947590878624]","[0.026750000193715096, 0.05299999937415123, 0.03999999910593033]","[0.0, 0.0, -0.5306233015556172]","[0.0631871148943901, 0.11509940773248672, 0.03999999910593033]","[0.0, -0.0, 0.2922137219610956]",0.5178172204928204,0.43360088373109307,"(0.0, 0.0, 0.0, 0.0, 0.0, 0.0)",-1.8107390672037091,-0.8238399135823754,0.1836974571275019,"(0.0, 0.0, 0.0, 0.0, 0.0, 0.0)",-0.8788143887095481,-0.5288561208679121,0.4241349854197672,"(0.0, 0.0, 0.0, 0.0, 0.0, 0.0)",3.3221795488314245,0.8214939066761688,-0.32235815784596045,"(0.0, 0.0, 0.0, 0.0, 0.0, 0.0)",1.6598998065819595,True,"(-0.028810395162932316, 0.18208383194512573, 0.05600071189642032)","(0.9945842410657634, 0.10393113923646441, 0.000711140387283058)",-0.0035044596862579217,17.457877714653154,True,"(0.03081000800119601, 0.18187389268099174, 0.023999288099653494)","(-0.994584241065763, -0.10393113923646692, -0.0007111403872818769)",4.443594782760352e-05,15.072159528724313
40,Move,"(-0.021480000000000003, 0.0, 0.0133933)","(0.0, 0.05091474493917858, 0.0)","(0.000720738492676117, 0.16077144889103107, 0.04837964514232419)","(-0.005473394838835686, 0.0006961511279105811, 0.09423599786993135)","[-0.006643213697531469, 0.0012538416439449585, 0.0005105689969760255]","[-0.026750000193715096, 0.05299999937415123, 0.03999999910593033]","[0.0, -0.0, 0.519443359986874]","[-0.06249058619141579, 0.11550288647413254, 0.03999999910593033]","[0.0, 0.0, -0.30369712364130297]","[0.026750000193715096, 0.05299999937415123, 0.03999999910593033]","[0.0, 0.0, -0.5272665909040435]","[0.06297845393419266, 0.11522137373685837, 0.03999999910593033]","[0.0, -0.0, 0.2930121257335216]",0.5223659195670861,0.7014117006071864,"(0.0, 0.0, 0.0, 0.0, 0.0, 0.0)",-1.5055861294291781,-0.8224507701261937,0.1655365267654822,"(0.0, 0.0, 0.0, 0.0, 0.0, 0.0)",-0.7629883458920909,-0.524355503688799,0.6986513750567613,"(0.0, 0.0, 0.0, 0.0, 0.0, 0.0)",3.4139719018186105,0.8188883889916212,-0.3336571264971285,"(0.0, 0.0, 0.0, 0.0, 0.0, 0.0)",1.723154459106067,True,"(-0.029351056650953812, 0.182124613115544, 0.05600071189642032)","(0.9945842410657634, 0.10393113923646441, 0.000711140387283058)",-0.003207310359223725,16.465551156609816,True,"(0.03054804811066305, 0.18196998478102577, 0.023999288099653494)","(-0.994584241065763, -0.10393113923646692, -0.0007111403872818769)",-8.471570815590899e-08,17.742483154456902
41,Move,"(-0.0272667, 0.0, 0.0147533)","(0.0, 0.03098308488140334, 0.0)","(6.300362793657584e-05, 0.16081646260949192, 0.04846436115355206)","(-0.006879582063701098, -4.691483474134649e-05, 0.09585642231536683)","[-0.00730094856227101, 0.0012988553624058152, 0.0005952850082038899]","[-0.026750000193715096, 0.05299999937415123, 0.03999999910593033]","[0.0, -0.0, 0.5249952860424294]","[-0.06283704936504364, 0.11530349403619766, 0.03999999910593033]","[0.0, 0.0, -0.2968276295883816]","[0.026750000193715096, 0.05299999937415123, 0.03999999910593033]","[0.0, 0.0, -0.5217363354843151]","[0.06263380497694016, 0.11542077362537384, 0.03999999910593033]","[0.0, -0.0, 0.29588237213914265]",0.5289434880366917,0.9475508208354344,"(0.0, 0.0, 0.0, 0.0, 0.0, 0.0)",-1.4503119127293211,-0.8211629920978196,0.15840108008817144,"(0.0, 0.0, 0.0, 0.0, 0.0, 0.0)",-0.7193652632465076,-0.5177367463255309,0.9598905735464802,"(0.0, 0.0, 0.0, 0.0, 0.0, 0.0)",3.382141261568325,0.8162017258469609,-0.3400611687919397,"(0.0, 0.0, 0.0, 0.0, 0.0, 0.0)",1.7637096954877702,True,"(-0.03015595548636603, 0.18215129769156924, 0.05600071189642032)","(0.9945842410657634, 0.10393113923646441, 0.000711140387283058)",-0.0029531668068351357,16.17225565674123,True,"(0.030011942033754166, 0.18207602587697863, 0.023999288099653494)","(-0.994584241065763, -0.10393113923646692, -0.0007111403872818769)",-1.0019749118855522e-05,17.77006983538991
42,Move,"(-0.03318, 0.0, 0.0156267)","(0.0, 0.02938959927433252, 0.0)","(-0.0008270315826236234, 0.16083968473728993, 0.04855720027237393)","(-0.008232056300856714, -0.0006412944777188136, 0.09917310089599754)","[-0.00819098377283121, 0.0013220774902038268, 0.0006881241270257632]","[-0.026750000193715096, 0.05299999937415123, 0.03999999910593033]","[0.0, -0.0, 0.5324963404352799]","[-0.06330335885286331, 0.11503105610609055, 0.03999999910593033]","[0.0, 0.0, -0.2880635544057316]","[0.026750000193715096, 0.05299999937415123, 0.03999999910593033]","[0.0, 0.0, -0.5141377278472865]","[0.06215846166014671, 0.11569163203239441, 0.03999999910593033]","[0.0, -0.0, 0.30083219072734846]",0.5374478633653245,1.1883776902611585,"(0.0, 0.0, 0.0, 0.0, 0.0, 0.0)",-1.4007253739055836,-0.8199134847767544,0.15513083060490515,"(0.0, 0.0, 0.0, 0.0, 0.0, 0.0)",-0.7063291823506344,-0.5090025568044264,1.2324285159980124,"(0.0, 0.0, 0.0, 0.0, 0.0, 0.0)",3.3557094834605876,0.813609332978221,-0.3265206159085806,"(0.0, 0.0, 0.0, 0.0, 0.0, 0.0)",1.7265826297370575,True,"(-0.031204631382317674, 0.18212244643638537, 0.05600036990014717)","(0.9952967739423508, 0.09687205744183525, 0.0003691435152618536)",-0.0027403974697609687,16.04029267980723,True,"(0.02920686478776323, 0.18218668325678722, 0.02399963009652551)","(-0.995296773942351, -0.096872057441831, -0.00036914351526647635)",-1.1825587441570644e-05,17.986952802780714
43,Move,"(-0.0395, 0.0, 0.015266700000000001)","(0.0, 0.038460075396947034, 0.0)","(-0.0020089051326128713, 0.16089546426133283, 0.04867062931237194)","(-0.011648973269767177, -0.0005088912956964567, 0.10302887870141844)","[-0.009372857322820456, 0.001377857014246725, 0.0008015531670237733]","[-0.026750000193715096, 0.05299999937415123, 0.03999999910593033]","[0.0, -0.0, 0.5419046443092708]","[-0.06388534605503082, 0.11468441039323807, 0.03999999910593033]","[0.0, 0.0, -0.2774188526015147]","[0.026750000193715096, 0.05299999937415123, 0.03999999910593033]","[0.0, 0.0, -0.5043812614438524]","[0.06154514104127884, 0.11603410542011261, 0.03999999910593033]","[0.0, -0.0, 0.3080047094708419]",0.5478971288090184,1.4381962273863573,"(0.0, 0.0, 0.0, 0.0, 0.0, 0.0)",-1.8057845203456908,-0.8184546887243385,0.20851829477153597,"(0.0, 0.0, 0.0, 0.0, 0.0, 0.0)",-0.9174730080055136,-0.49801703769623057,1.5274186781421744,"(0.0, 0.0, 0.0, 0.0, 0.0, 0.0)",3.496168626588156,0.8109993000854624,-0.33280094310987474,"(0.0, 0.0, 0.0, 0.0, 0.0, 0.0)",1.7762268367080944,True,"(-0.03250188233600612, 0.1821069255427746, 0.056000920792731335)","(0.9949150505040996, 0.1007134341730764, 0.000920031244202371)",-0.002547163245914435,17.652814425458015,True,"(0.02811712040043029, 0.18229439316632104, 0.02399907920879657)","(-0.9949150505040988, -0.10071343417308334, -0.0009200312442060467)",-2.6640962709969288e-05,17.08874235163611
44,Move,"(-0.0447133, 0.0, 0.01436)","(0.0, 0.04943819639199137, 0.0)","(-0.0034441777522716066, 0.16097336129967796, 0.048805799309128796)","(-0.01712029913079395, 0.00034910367862350176, 0.10728669327054849)","[-0.010808129942479192, 0.001455754052591851, 0.0009367231637806284]","[-0.026750000193715096, 0.05299999937415123, 0.03999999910593033]","[0.0, -0.0, 0.5532881072727233]","[-0.06458510458469391, 0.11425769329071045, 0.03999999910593033]","[0.0, 0.0, -0.2643961234556234]","[0.026750000193715096, 0.05299999937415123, 0.03999999910593033]","[0.0, 0.0, -0.4922877898683407]","[0.06078031286597252, 0.11645027995109558, 0.03999999910593033]","[0.0, -0.0, 0.31751496791562434]",0.5599885138500088,1.6081038604450435,"(0.0, 0.0, 0.0, 0.0, 0.0, 0.0)",-1.9683701554846553,-0.8168045374592839,0.21111196377742988,"(0.0, 0.0, 0.0, 0.0, 0.0, 0.0)",-0.9673337873339092,-0.4849977474917972,1.7496048749799444,"(0.0, 0.0, 0.0, 0.0, 0.0, 0.0)",3.529650058338976,0.8083446100225733,-0.3499482898722307,"(0.0, 0.0, 0.0, 0.0, 0.0, 0.0)",1.8352124091881366,True,"(-0.034081314656435664, 0.18207415040837577, 0.05600012814621371)","(0.9945111934629768, 0.10463015738957211, 0.00012744205958737826)",-0.002380405350074443,17.98644038670327,True,"(0.02672305963610317, 0.18239520832727552, 0.02399987179798119)","(-0.9945111934629776, -0.10463015738956655, -0.00012744205958538113)",6.550165837592938e-06,16.72643218393701
45,Move,"(-0.0491467, 0.0, 0.0135467)","(0.0, 0.062035982932886445, 0.0)","(-0.0050159274564735, 0.1609367819279515, 0.04890345820123206)","(-0.018507210191527405, -0.00015342711272556552, 0.11289163393698921)","[-0.012379879646681087, 0.0014191746808653871, 0.001034382055883895]","[-0.026750000193715096, 0.05299999937415123, 0.03999999910593033]","[0.0, -0.0, 0.5660106120668795]","[-0.0653613731265068, 0.11377138644456863, 0.03999999910593033]","[0.0, 0.0, -0.2501725112225169]","[0.026750000193715096, 0.05299999937415123, 0.03999999910593033]","[0.0, 0.0, -0.478435081780382]","[0.059898119419813156, 0.11691558361053467, 0.03999999910593033]","[0.0, -0.0, 0.3285476553475592]",0.57321447567898,1.7289327699853552,"(0.0, 0.0, 0.0, 0.0, 0.0, 0.0)",-1.9023452432665435,-0.8153780300614001,0.19322179259067132,"(0.0, 0.0, 0.0, 0.0, 0.0, 0.0)",-0.8861032766552195,-0.4704018403652213,1.9279821636390144,"(0.0, 0.0, 0.0, 0.0, 0.0, 0.0)",3.8546653669469553,0.8053331179761289,-0.3959142690955737,"(0.0, 0.0, 0.0, 0.0, 0.0, 0.0)",2.0510230779191754,True,"(-0.03582522746113042, 0.1820148463321234, 0.05600012814621371)","(0.9945111934629768, 0.10463015738957211, 0.00012744205958737826)",-0.0022542284782423954,19.331755966423557,True,"(0.025115403741425214, 0.1824807667829373, 0.02399987179798119)","(-0.9945111934629776, -0.10463015738956655, -0.00012744205958538113)",9.972871352558097e-06,19.578035697152135
46,Move,"(-0.0524067, 0.0, 0.0123667)","(0.0, 0.07148170484467976, 0.0)","(-0.006756270742412395, 0.16094974746903082, 0.04904221190583605)","(-0.023437976229476683, -5.456068944860109e-05, 0.11820137739725035)","[-0.014120222932619981, 0.001432140221944711, 0.0011731357604878798]","[-0.026750000193715096, 0.05299999937415123, 0.03999999910593033]","[0.0, -0.0, 0.5796957736143662]","[-0.06618940085172653, 0.11323731392621994, 0.03999999910593033]","[0.0, 0.0, -0.23497116105061192]","[0.026750000193715096, 0.05299999937415123, 0.03999999910593033]","[0.0, 0.0, -0.4631715239431238]","[0.05891871452331543, 0.11741407960653305, 0.03999999910593033]","[0.0, -0.0, 0.3407089354261509]",0.5871338296350594,1.7851315445357,"(0.0, 0.0, 0.0, 0.0, 0.0, 0.0)",-2.6324475147952686,-0.8135509495398013,0.26783343758667283,"(0.0, 0.0, 0.0, 0.0, 0.0, 0.0)",-1.2150614333678231,-0.4546706637990693,2.0402014668544806,"(0.0, 0.0, 0.0, 0.0, 0.0, 0.0)",4.004916894016878,0.8021672732990763,-0.41115442793508206,"(0.0, 0.0, 0.0, 0.0, 0.0, 0.0)",2.1504145065480267,True,"(-0.03769165369535187, 0.18190296515409834, 0.0560004582248935)","(0.993370874254885, 0.11495258538636187, 0.00045748778861799346)",-0.0021791897883593173,22.30961148618252,True,"(0.023339681924627292, 0.18256413605140703, 0.023999541752252156)","(-0.9933708742548841, -0.11495258538636831, -0.0004574877886185249)",-6.695906050213139e-06,20.587630888654477
47,Move,"(-0.0552067, 0.0, 0.0112133)","(0.0, 0.07707897575582559, 0.0)","(-0.008560771420935896, 0.1609220109590557, 0.04917318706983789)","(-0.027941160759849454, 8.597257555783507e-05, 0.12371408011494682)","[-0.01592472361114348, 0.001404403711969593, 0.001304110924489725]","[-0.026750000193715096, 0.05299999937415123, 0.03999999910593033]","[0.0, -0.0, 0.5938245689673919]","[-0.06703651696443558, 0.11267408728599548, 0.03999999910593033]","[0.0, 0.0, -0.218766973040692]","[0.026750000193715096, 0.05299999937415123, 0.03999999910593033]","[0.0, 0.0, -0.44701705771495187]","[0.05787399411201477, 0.11792531609535217, 0.03999999910593033]","[0.0, -0.0, 0.3536611816963275]",0.6013681092547158,1.8104386715664638,"(0.0, 0.0, 0.0, 0.0, 0.0, 0.0)",-2.414622747054074,-0.8116642775609453,0.22254757414756382,"(0.0, 0.0, 0.0, 0.0, 0.0, 0.0)",-1.0791737589999513,-0.438164719156469,2.124575432540568,"(0.0, 0.0, 0.0, 0.0, 0.0, 0.0)",4.262537548400138,0.7987634136775645,-0.4595730986475228,"(0.0, 0.0, 0.0, 0.0, 0.0, 0.0)",2.3389530149086024,True,"(-0.03965442289504419, 0.1817869726942829, 0.05600004887135826)","(0.9930223454529274, 0.11792632638345928, 5.456068757277788e-05)",-0.0021268787983421784,22.46780915328142,True,"(0.02145364881244287, 0.18261285682713935, 0.023999944679351355)","(-0.9930223454525656, -0.11792632638650613, -5.4560689421482074e-05)",2.5396872780411184e-05,21.684846193362564
48,Move,"(-0.056159999999999995, 0.0, 0.0103467)","(0.0, 0.08194669903963778, 0.0)","(-0.010380012900306067, 0.16081934215284216, 0.049262068015154835)","(-0.029706272386266892, -0.0005446661620183502, 0.12864262834523976)","[-0.017743965090513653, 0.0013017349057560523, 0.0013929918698066673]","[-0.026750000193715096, 0.05299999937415123, 0.03999999910593033]","[0.0, -0.0, 0.6081578550737425]","[-0.06788767874240875, 0.11209053546190262, 0.03999999910593033]","[0.0, 0.0, -0.2026593396376912]","[0.026750000193715096, 0.05299999937415123, 0.03999999910593033]","[0.0, 0.0, -0.4301989335549305]","[0.0567777156829834, 0.11843956261873245, 0.03999999910593033]","[0.0, -0.0, 0.36684120431898193]",0.6154354439712303,1.746614185890821,"(0.0, 0.0, 0.0, 0.0, 0.0, 0.0)",-2.7128457983329133,-0.8097984370748323,0.24451178422107567,"(0.0, 0.0, 0.0, 0.0, 0.0, 0.0)",-1.1666309495372174,-0.42144837947058256,2.1001367187997895,"(0.0, 0.0, 0.0, 0.0, 0.0, 0.0)",4.379162056545737,0.7950208975125703,-0.4846282884441484,"(0.0, 0.0, 0.0, 0.0, 0.0, 0.0)",2.4632972948221297,True,"(-0.041620203989009716, 0.1816197576522558, 0.05600028050365567)","(0.9920631596164535, 0.12574024436964532, 0.00027978148793480275)",-0.002113563634256662,24.1435221481872,True,"(0.019506469191455815, 0.1826528448088789, 0.023999719458552837)","(-0.9920631596164537, -0.1257402443696435, -0.0002797814879407576)",2.0314417680788952e-06,25.004439057835338
49,Move,"(-0.05862, 0.0, 0.009433299999999999)","(0.0, 0.08576373411374938, 0.0)","(-0.012242820175080438, 0.16083800605388565, 0.0494724546176319)","(-0.039384353801367754, 0.0003837304981962322, 0.13503756982284654)","[-0.019606772365288024, 0.0013203988067995442, 0.0016033784722837355]","[-0.026750000193715096, 0.05299999937415123, 0.03999999910593033]","[0.0, -0.0, 0.6220007644180534]","[-0.06870169192552567, 0.11151543259620667, 0.03999999910593033]","[0.0, 0.0, -0.18653805860684122]","[0.026750000193715096, 0.05299999937415123, 0.03999999910593033]","[0.0, 0.0, -0.4135783898197568]","[0.05568597465753555, 0.11892957985401154, 0.03999999910593033]","[0.0, -0.0, 0.3797577309007305]",0.6293546096164968,1.7649180257370145,"(0.0, 0.0, 0.0, 0.0, 0.0, 0.0)",-3.3946881460130216,-0.8071536466991582,0.33244570680569857,"(0.0, 0.0, 0.0, 0.0, 0.0, 0.0)",-1.5971276881940448,-0.4045205517725985,2.1738748539948145,"(0.0, 0.0, 0.0, 0.0, 0.0, 0.0)",4.741771464582907,0.7912818575633631,-0.4930157109140402,"(0.0, 0.0, 0.0, 0.0, 0.0, 0.0)",2.5407602634468494,True,"(-0.043557036628839765, 0.1814485334316175, 0.056000097486170304)","(0.9913575072320772, 0.13118797011625744, 9.67025228193374e-05)",-0.002121575225258864,27.70488489825415,True,"(0.017587448548234942, 0.18266346015346827, 0.023999902537517954)","(-0.9913575072320783, -0.13118797011624964, -9.67025228222486e-05)",1.990871060121104e-05,23.936172777323826
50,Move,"(-0.0607733, 0.0, 0.0086133)","(0.0, 0.08933467776332976, 0.0)","(-0.014115741701220286, 0.16069501297747282, 0.04955675756882447)","(-0.04136111021455476, -0.00047933973577145425, 0.139607763584123)","[-0.02147969389142787, 0.0011774057303867158, 0.001687681423476299]","[-0.026750000193715096, 0.05299999937415123, 0.03999999910593033]","[0.0, -0.0, 0.6359587118270894]","[-0.06951432675123215, 0.11092419177293777, 0.03999999910593033]","[0.0, 0.0, -0.17025770836281662]","[0.026750000193715096, 0.05299999937415123, 0.03999999910593033]","[0.0, 0.0, -0.3963642075973702]","[0.05454682186245918, 0.11941789090633392, 0.03999999910593033]","[0.0, -0.0, 0.39295582590487244]",0.643270587393971,1.754873049903491,"(0.0, 0.0, 0.0, 0.0, 0.0, 0.0)",-3.1605481457116467,-0.8049831002554124,0.29597290891588146,"(0.0, 0.0, 0.0, 0.0, 0.0, 0.0)",-1.3948529991759948,-0.3871084011977466,2.221395059961956,"(0.0, 0.0, 0.0, 0.0, 0.0, 0.0)",5.24514223768322,0.7869420124755503,-0.5707084356101383,"(0.0, 0.0, 0.0, 0.0, 0.0, 0.0)",2.898896564656639,True,"(-0.045509969640933234, 0.18124678310447873, 0.0560000687958765)","(0.990610177164073, 0.13671675929776994, 6.801528743001938e-05)",-0.0021495602465600775,28.43907602192189,True,"(0.01560940663670992, 0.182650957582314, 0.023999931224753343)","(-0.9906101771640738, -0.1367167592977646, -6.801528743418547e-05)",1.0833902968864237e-05,28.78186420579074
51,Move,"(-0.06266, 0.0, 0.0077599999999999995)","(0.0, 0.0933594070184287, 0.0)","(-0.016026827461427716, 0.16059914750612028, 0.049714635566985944)","(-0.04762234896060927, -0.0003067202104754361, 0.14531460186228834)","[-0.0233907796516353, 0.001081540259034175, 0.0018455594216377769]","[-0.026750000193715096, 0.05299999937415123, 0.03999999910593033]","[0.0, -0.0, 0.6498700954414017]","[-0.07031597942113876, 0.11032368987798691, 0.03999999910593033]","[0.0, 0.0, -0.15355196775185184]","[0.026750000193715096, 0.05299999937415123, 0.03999999910593033]","[0.0, 0.0, -0.3787856784895151]","[0.05337505787611008, 0.11989623308181763, 0.03999999910593033]","[0.0, -0.0, 0.40621964188328014]",0.6570845189518572,1.731455262521595,"(0.0, 0.0, 0.0, 0.0, 0.0, 0.0)",-3.438954723743844,-0.802162973653998,0.30218626588231695,"(0.0, 0.0, 0.0, 0.0, 0.0, 0.0)",-1.531077507118312,-0.36939744400426694,2.2531736287162065,"(0.0, 0.0, 0.0, 0.0, 0.0, 0.0)",5.484836531974718,0.7824894997013847,-0.6037932307003315,"(0.0, 0.0, 0.0, 0.0, 0.0, 0.0)",3.0369655533733373,True,"(-0.04748879046956363, 0.18103144582505937, 0.05600048007044587)","(0.9902705401647617, 0.13915468916003493, 0.00047933971741533483)",-0.0022099337644427954,30.26055713220085,True,"(0.013601723618364168, 0.1826116580915861, 0.023999519900323358)","(-0.9902705401647616, -0.1391546891600368, -0.00047933971741492116)",3.317355163061503e-05,29.349289047065387
52,Move,"(-0.06408, 0.0, 0.0069733)","(0.0, 0.09687799079044924, 0.0)","(-0.017956204347995736, 0.160498817741197, 0.049887475140049084)","(-0.05482504623717492, -5.835278000289736e-05, 0.15111952544330004)","[-0.025320156538203322, 0.0009812104941109012, 0.0020183989947009165]","[-0.026750000193715096, 0.05299999937415123, 0.03999999910593033]","[0.0, -0.0, 0.6635795680212714]","[-0.071097731590271, 0.10972105711698532, 0.03999999910593033]","[0.0, 0.0, -0.13741655304318956]","[0.026750000193715096, 0.05299999937415123, 0.03999999910593033]","[0.0, 0.0, -0.3609520511650562]","[0.05217788740992546, 0.12036039680242538, 0.03999999910593033]","[0.0, -0.0, 0.41922850961239544]",0.6706404212630734,1.6946063857629323,"(0.0, 0.0, 0.0, 0.0, 0.0, 0.0)",-4.654173665758567,-0.7989838821122133,0.4829332697013332,"(0.0, 0.0, 0.0, 0.0, 0.0, 0.0)",-2.196414036320862,-0.3515577118810925,2.2546413524367295,"(0.0, 0.0, 0.0, 0.0, 0.0, 0.0)",5.81684908542974,0.7777095846088173,-0.593034776139679,"(0.0, 0.0, 0.0, 0.0, 0.0, 0.0)",3.1090068164577858,True,"(-0.049411775099308164, 0.18077137562601683, 0.056000918500606844)","(0.9891912926041686, 0.14662791148562632, 0.0009177197051770646)",-0.002285219211717673,36.54969667308143,True,"(0.011590276876230654, 0.182564823776833, 0.023999081520335593)","(-0.9891912926041694, -0.14662791148562224, -0.0009177197051779543)",-1.2481494467663837e-05,31.63983546778961
53,Move,"(-0.06695999999999999, 0.0, 0.00662)","(0.0, 0.09645562111146663, 0.0)","(-0.01988214807901286, 0.16036560039653597, 0.05005822397706364)","(-0.06194452141732907, 5.842757027101834e-05, 0.15696684475770115)","[-0.027246100269220447, 0.0008479931494498605, 0.0021891478317154697]","[-0.026750000193715096, 0.05299999937415123, 0.03999999910593033]","[0.0, -0.0, 0.6769893810936816]","[-0.07185433804988861, 0.10912128537893295, 0.03999999910593033]","[0.0, 0.0, -0.12027018005542635]","[0.026750000193715096, 0.05299999937415123, 0.03999999910593033]","[0.0, 0.0, -0.34309704751348963]","[0.05097118020057678, 0.12080364674329758, 0.03999999910593033]","[0.0, -0.0, 0.4324624804943638]",0.6841226499972084,1.7120059073251936,"(0.0, 0.0, 0.0, 0.0, 0.0, 0.0)",-4.02972476501976,-0.7957402952100876,0.3646032193638429,"(0.0, 0.0, 0.0, 0.0, 0.0, 0.0)",-1.8213917694522228,-0.3333080585994449,2.349360431989063,"(0.0, 0.0, 0.0, 0.0, 0.0, 0.0)",6.49172148272292,0.7726049026709089,-0.7091084558925024,"(0.0, 0.0, 0.0, 0.0, 0.0, 0.0)",3.5543117048245465,True,"(-0.05138893779306918, 0.18052793022690866, 0.05600005912564296)","(0.9886031568646341, 0.15054499271723723, 5.835277996900573e-05)",-0.002380832951552057,35.52018510375792,True,"(0.009563467236625094, 0.18246843656443035, 0.023999940887260804)","(-0.9886031568646341, -0.15054499271723684, -5.835277997236859e-05)",5.215925607512838e-05,33.03193716942835
54,Move,"(-0.0677667, 0.0, 0.006466700000000001)","(0.0, 0.09460557210435262, 0.0)","(-0.021820438708220157, 0.16014414966224788, 0.050135334526533994)","(-0.06452015237912305, -0.0015014717514258739, 0.16057041393689422)","[-0.029184390898427743, 0.0006265424151617738, 0.002266258381185826]","[-0.026750000193715096, 0.05299999937415123, 0.03999999910593033]","[0.0, -0.0, 0.6905430467784842]","[-0.07261082530021667, 0.10850481688976288, 0.03999999910593033]","[0.0, 0.0, -0.10379709938942198]","[0.026750000193715096, 0.05299999937415123, 0.03999999910593033]","[0.0, 0.0, -0.32450172252222353]","[0.04970623180270195, 0.12124229967594147, 0.03999999910593033]","[0.0, -0.0, 0.4454292922423484]",0.6973473899611727,1.6330399479259188,"(0.0, 0.0, 0.0, 0.0, 0.0, 0.0)",-4.424225903775278,-0.7926521111954942,0.40513129370641743,"(0.0, 0.0, 0.0, 0.0, 0.0, 0.0)",-1.9572602355531157,-0.3149036345244027,2.303544203244199,"(0.0, 0.0, 0.0, 0.0, 0.0, 0.0)",6.740017711320847,0.7668305789494221,-0.7441123789296281,"(0.0, 0.0, 0.0, 0.0, 0.0, 0.0)",3.7550077182141073,True,"(-0.05332161900839785, 0.18022218487393737, 0.05600067965884718)","(0.9874287218183082, 0.1580634633535101, 0.0006788821367772609)",-0.0024961882384538585,37.633415580276434,True,"(0.007500515650266923, 0.1823765023290254, 0.023999320357903996)","(-0.9874287218183084, -0.1580634633535091, -0.000678882136780484)",-1.495542036167503e-06,39.87272347219302
55,Move,"(-0.06836, 0.0, 0.0063467)","(0.0, 0.09365087700351177, 0.0)","(-0.023742746867618403, 0.1600527524373028, 0.050393262198166096)","(-0.07614441679424505, 0.0002636714941929928, 0.167833948501029)","[-0.03110669905782599, 0.0005351451902166904, 0.0025241860528179283]","[-0.026750000193715096, 0.05299999937415123, 0.03999999910593033]","[0.0, -0.0, 0.7034921280641139]","[-0.07332569360733032, 0.10790632665157318, 0.03999999910593033]","[0.0, 0.0, -0.08700245893978019]","[0.026750000193715096, 0.05299999937415123, 0.03999999910593033]","[0.0, 0.0, -0.3062745787070343]","[0.04845862463116646, 0.121649369597435, 0.03999999910593033]","[0.0, -0.0, 0.45813644759071787]",0.7099871449675993,1.5588027342374502,"(0.0, 0.0, 0.0, 0.0, 0.0, 0.0)",-5.655216376530978,-0.7881740360140514,0.5569330610550555,"(0.0, 0.0, 0.0, 0.0, 0.0, 0.0)",-2.7512310419509474,-0.2968833405903081,2.2538907628887173,"(0.0, 0.0, 0.0, 0.0, 0.0, 0.0)",6.661559074812929,0.7615709040392799,-0.6816201885532628,"(0.0, 0.0, 0.0, 0.0, 0.0, 0.0)",3.5043753781150913,True,"(-0.05524165741822663, 0.17992605659296418, 0.05600068018248606)","(0.9865991046154186, 0.16316171478867827, 0.0006794109746695245)",-0.0026299688166749836,43.25879841753813,True,"(0.005478236224898965, 0.18224977239630538, 0.02399931982906611)","(-0.9865991046154189, -0.163161714788676, -0.0006794109746666858)",1.9560705363799036e-05,35.984421060476585
56,Move,"(-0.0686867, 0.0, 0.0067)","(0.0, 0.08974133947904443, 0.0)","(-0.025542017128872666, 0.15981749893862005, 0.050468363108673746)","(-0.07887305805749131, -0.0015577540686185787, 0.17093769453667637)","[-0.032905969319080255, 0.0002998916915339378, 0.0025992869633255783]","[-0.026750000193715096, 0.05299999937415123, 0.03999999910593033]","[0.0, -0.0, 0.7158101694891041]","[-0.07399848103523254, 0.10732845216989517, 0.03999999910593033]","[0.0, 0.0, -0.07091150715357993]","[0.026750000193715096, 0.05299999937415123, 0.03999999910593033]","[0.0, 0.0, -0.28842182073628453]","[0.04722965136170387, 0.12202596664428711, 0.03999999910593033]","[0.0, -0.0, 0.4702384794030457]",0.7219212943768594,1.4666850580009965,"(0.0, 0.0, 0.0, 0.0, 0.0, 0.0)",-4.881785237647547,-0.7848376376071192,0.45215426563804445,"(0.0, 0.0, 0.0, 0.0, 0.0, 0.0)",-2.1762178322739616,-0.2792757154989071,2.1950688921202905,"(0.0, 0.0, 0.0, 0.0, 0.0, 0.0)",7.313618355503055,0.7553035228407631,-0.8056173730961732,"(0.0, 0.0, 0.0, 0.0, 0.0, 0.0)",4.06402794420334,True,"(-0.0570737570721038, 0.17961940765780648, 0.056000596757193835)","(0.9856874458410441, 0.16858203908691097, 0.0005959938405857325)",-0.002751782625515295,40.9876159081484,True,"(0.0035179089253343995, 0.18210830412165488, 0.02399940324620019)","(-0.9856874458410434, -0.16858203908691505, -0.0005959938405855333)",2.737656823020415e-06,43.12922920094244
57,Move,"(-0.06906000000000001, 0.0, 0.0070667)","(0.0, 0.08517730348507926, 0.0)","(-0.027348598731713424, 0.15969218460729448, 0.05069560756469634)","(-0.08900773311803707, 0.00010364686232589822, 0.17717046309197593)","[-0.03471255092192101, 0.00017457736020837222, 0.0028265314193481744]","[-0.026750000193715096, 0.05299999937415123, 0.03999999910593033]","[0.0, -0.0, 0.7274418595455712]","[-0.07462719827890396, 0.10677521675825119, 0.03999999910593033]","[0.0, 0.0, -0.05502300873487257]","[0.026750000193715096, 0.05299999937415123, 0.03999999910593033]","[0.0, 0.0, -0.2710523730575415]","[0.04602768272161484, 0.12237125635147095, 0.03999999910593033]","[0.0, -0.0, 0.48167514408375567]",0.7332394894716809,1.3914506317521644,"(0.0, 0.0, 0.0, 0.0, 0.0, 0.0)",-6.089648238734778,-0.7799533586792279,0.6027417317312398,"(0.0, 0.0, 0.0, 0.0, 0.0, 0.0)",-2.9942949809842156,-0.2621588390897629,2.1344577968027822,"(0.0, 0.0, 0.0, 0.0, 0.0, 0.0)",7.075335171962145,0.7497313663698197,-0.7190825940506687,"(0.0, 0.0, 0.0, 0.0, 0.0, 0.0)",3.6948173449077637,True,"(-0.058851113018070195, 0.17931465845992756, 0.05600077096113912)","(0.9849318994384676, 0.172940915505364, 0.000770203024678664)",-0.0028907879176143384,46.71547463695639,True,"(0.0016304316012178202, 0.1819566599530202, 0.023999229037016102)","(-0.9849318994384673, -0.17294091550536494, -0.0007702030246731999)",1.9252821371177106e-05,38.61760938915124
58,Move,"(-0.06936, 0.0, 0.0071733000000000005)","(0.0, 0.08413359659238666, 0.0)","(-0.02900956678661367, 0.15945413813132822, 0.05076838300043388)","(-0.09191900879697046, -0.0019998518435475495, 0.1797441620663156)","[-0.036373518976821256, -6.346911575788594e-05, 0.002899306855085715]","[-0.026750000193715096, 0.05299999937415123, 0.03999999910593033]","[0.0, -0.0, 0.7384353449502746]","[-0.07521548122167587, 0.10624562948942184, 0.03999999910593033]","[0.0, 0.0, -0.03992164554730817]","[0.026750000193715096, 0.05299999937415123, 0.03999999910593033]","[0.0, 0.0, -0.2541466495014151]","[0.044852208346128464, 0.12268722802400589, 0.03999999910593033]","[0.0, -0.0, 0.49246213245518583]",0.7438826702339981,1.3073482687193179,"(0.0, 0.0, 0.0, 0.0, 0.0, 0.0)",-5.267157812075694,-0.77630071384462,0.4935168067370207,"(0.0, 0.0, 0.0, 0.0, 0.0, 0.0)",-2.3807626708757312,-0.24548156076404182,2.0796265274180574,"(0.0, 0.0, 0.0, 0.0, 0.0, 0.0)",7.846800421312314,0.7430393989922712,-0.8566468435552201,"(0.0, 0.0, 0.0, 0.0, 0.0, 0.0)",4.325156658163449,True,"(-0.06053468597624827, 0.17900477314452878, 0.05600089195004225)","(0.9841147738678623, 0.17753117370802907, 0.0008911884514015079)",-0.003011065603047342,43.8768496145842,True,"(-0.0001862953509446652, 0.1817962901479362, 0.023999108051589377)","(-0.9841147738678612, -0.1775311737080351, -0.0008911884514015225)",-6.1301253248570855e-06,47.158559747003835
59,Move,"(-0.0697933, 0.0, 0.0070667)","(0.0, 0.08216661052538905, 0.0)","(-0.030706077160227645, 0.15930562445254492, 0.050971177969845634)","(-0.10082884675132994, -0.00041564655827064373, 0.1851256055597037)","[-0.03807002935043523, -0.0002119827945411823, 0.0031021018244974663]","[-0.026750000193715096, 0.05299999937415123, 0.03999999910593033]","[0.0, -0.0, 0.7488053343624828]","[-0.07576501369476318, 0.10574019700288773, 0.03999999910593033]","[0.0, 0.0, -0.024940918834881188]","[0.026750000193715096, 0.05299999937415123, 0.03999999910593033]","[0.0, 0.0, -0.23768917876123202]","[0.04370293393731117, 0.12297569215297699, 0.03999999910593033]","[0.0, -0.0, 0.5026480912406369]",0.7539894889366864,1.2442112787584407,"(0.0, 0.0, 0.0, 0.0, 0.0, 0.0)",-6.486233521174195,-0.7710289798589932,0.6521310093469973,"(0.0, 0.0, 0.0, 0.0, 0.0, 0.0)",-3.2411481101933313,-0.2292283381669986,2.030607293692553,"(0.0, 0.0, 0.0, 0.0, 0.0, 0.0)",7.491431663327538,0.7372136708729389,-0.7496716877231993,"(0.0, 0.0, 0.0, 0.0, 0.0, 0.0)",3.8560053771323943,True,"(-0.06217370977688274, 0.1787000250203412, 0.056001256860443493)","(0.983448360602056, 0.18118428252093705, 0.0012561036985766004)",-0.0031486828342047074,50.01344091718603,True,"(-0.0019365020904555316, 0.1816292966603206, 0.0239987431363422)","(-0.9834483606020561, -0.18118428252093724, -0.001256103698578699)",5.405293524558896e-06,42.23448498464352
60,Move,"(-0.06906000000000001, 0.0, 0.0069133)","(0.0, 0.08260817882614362, 0.0)","(-0.0322463943000046, 0.15911136346469767, 0.051097573598667456)","(-0.1063475276848885, -0.0008578885164397395, 0.1885711712622805)","[-0.03961034649021219, -0.0004062437823884324, 0.0032284974533192887]","[-0.026750000193715096, 0.05299999937415123, 0.03999999910593033]","[0.0, -0.0, 0.7586547067789906]","[-0.0762820914387703, 0.1052548736333847, 0.03999999910593033]","[0.0, 0.0, -0.009962044797338416]","[0.026750000193715096, 0.05299999937415123, 0.03999999910593033]","[0.0, 0.0, -0.22161192961585258]","[0.04257577285170555, 0.1232391968369484, 0.03999999910593033]","[0.0, -0.0, 0.5127788901845143]",0.7633301073274547,1.1220956027886786,"(0.0, 0.0, 0.0, 0.0, 0.0, 0.0)",-5.5624045489027285,-0.7665494169485154,0.49616088150758403,"(0.0, 0.0, 0.0, 0.0, 0.0, 0.0)",-2.5208275433236653,-0.21362745959380577,1.9162679123556314,"(0.0, 0.0, 0.0, 0.0, 0.0, 0.0)",7.889621592455961,0.7307190841655722,-0.8812004543220655,"(0.0, 0.0, 0.0, 0.0, 0.0, 0.0)",4.37346928148938,True,"(-0.06378416323114448, 0.1784052220731576, 0.0560004164063156)","(0.982913053264171, 0.18406997843443568, 0.0004156465463028154)",-0.0032790108279372424,45.32998847084548,True,"(-0.0036559736885211636, 0.1814297938845126, 0.02399958359349448)","(-0.9829130532641713, -0.18406997843443385, -0.00041564654629586487)",5.255454002078016e-05,44.25202761107563
61,Move,"(-0.06781999999999999, 0.0, 0.0063733)","(0.0, 0.08459959950266917, 0.0)","(-0.033642671964829556, 0.15890194702844235, 0.05115795055388087)","(-0.1094393957609982, -0.0035056314910082895, 0.18995573973924007)","[-0.04100662415503714, -0.0006156602186437599, 0.003288874408532705]","[-0.026750000193715096, 0.05299999937415123, 0.03999999910593033]","[0.0, -0.0, 0.7675438185525729]","[-0.07674462348222733, 0.10481251776218414, 0.03999999910593033]","[0.0, -0.0, 0.0029290822573913586]","[0.026750000193715096, 0.05299999937415123, 0.03999999910593033]","[0.0, 0.0, -0.20645368039606918]","[0.041509293019771576, 0.12347100675106049, 0.03999999910593033]","[0.0, -0.0, 0.5208789735139334]",0.7717142947046648,1.0009181568126528,"(0.0, 0.0, 0.0, 0.0, 0.0, 0.0)",-5.8313282626146465,-0.7623747141687912,0.537601448636599,"(0.0, 0.0, 0.0, 0.0, 0.0, 0.0)",-2.632882326273563,-0.19904092088103367,1.7790584240817666,"(0.0, 0.0, 0.0, 0.0, 0.0, 0.0)",8.320039403262323,0.7235874511879764,-0.8988224298547214,"(0.0, 0.0, 0.0, 0.0, 0.0, 0.0)",4.563189137956402,True,"(-0.06497342720709329, 0.1770280416029512, 0.05600215738173695)","(0.9821265057916083, 0.1882096585798305, 0.002156626724653865)",-0.003372691965341785,47.82964686292975,True,"(-0.005193946588999701, 0.1812937404778088, 0.02399784261331612)","(-0.9821265057916085, -0.18820965857983002, -0.0021566267246557595)",-5.647144055381113e-05,50.93151697430393
62,Move,"(-0.06662000000000001, 0.0, 0.005900000000000001)","(0.0, 0.08564679705386574, 0.0)","(-0.03501628909922701, 0.15875945134465363, 0.051311444309661745)","(-0.11615647332610747, -0.0022938876380015397, 0.1938900228669648)","[-0.04238024128943459, -0.0007581559024324724, 0.003442368164313578]","[-0.026750000193715096, 0.05299999937415123, 0.03999999910593033]","[0.0, -0.0, 0.7754840469070818]","[-0.07715445011854172, 0.10441392660140991, 0.03999999910593033]","[0.0, -0.0, 0.015804103391718796]","[0.026750000193715096, 0.05299999937415123, 0.03999999910593033]","[0.0, 0.0, -0.1923688255792794]","[0.04051528498530388, 0.12367189675569534, 0.03999999910593033]","[0.0, -0.0, 0.5284389682056078]",0.7791976258250704,0.8912659020242166,"(0.0, 0.0, 0.0, 0.0, 0.0, 0.0)",-6.713015011976446,-0.7568874815442516,0.6701840378070684,"(0.0, 0.0, 0.0, 0.0, 0.0, 0.0)",-3.3637001827579827,-0.1854783645782158,1.653702568514369,"(0.0, 0.0, 0.0, 0.0, 0.0, 0.0)",7.408568141289961,0.7177494583166166,-0.7339673102426596,"(0.0, 0.0, 0.0, 0.0, 0.0, 0.0)",3.784711063058527,True,"(-0.06631193146421181, 0.1767647561064215, 0.05600293263264973)","(0.9816662277751381, 0.19058546976117144, 0.0029318870449092224)",-0.003486547543328709,53.05022859467841,True,"(-0.006624743655256178, 0.18114494521035684, 0.023997067352995866)","(-0.9816662277751379, -0.19058546976117333, -0.002931887044911953)",-5.359332919437203e-05,43.90762794875306
63,Move,"(-0.06728, 0.0, 0.00534)","(0.0, 0.0880605874093739, 0.0)","(-0.036298543651995085, 0.158625883337231, 0.051458415123790006)","(-0.12252666628941941, -0.001091028442515434, 0.19766925248005146)","[-0.04366249584220267, -0.0008917239098551188, 0.003589338978441839]","[-0.026750000193715096, 0.05299999937415123, 0.03999999910593033]","[0.0, -0.0, 0.7825399364893001]","[-0.07751596719026566, 0.10405699908733368, 0.03999999910593033]","[0.0, -0.0, 0.02817906703709091]","[0.026750000193715096, 0.05299999937415123, 0.03999999910593033]","[0.0, 0.0, -0.17927772068345532]","[0.039588961750268936, 0.12384603917598724, 0.03999999910593033]","[0.0, -0.0, 0.5357096198007661]",0.7861267496436984,0.8608291352941938,"(0.0, 0.0, 0.0, 0.0, 0.0, 0.0)",-6.77904875004353,-0.7514542194606292,0.6976020931236058,"(0.0, 0.0, 0.0, 0.0, 0.0, 0.0)",-3.441003592110661,-0.17241571540889827,1.6468801939884428,"(0.0, 0.0, 0.0, 0.0, 0.0, 0.0)",7.829229647487795,0.7118224145405486,-0.7595527645181628,"(0.0, 0.0, 0.0, 0.0, 0.0, 0.0)",3.9244569569550274,True,"(-0.06756791357524047, 0.17652818256854622, 0.05600171499158237)","(0.9809128257617538, 0.19444045270622418, 0.0017142367076350882)",-0.0035817163423911896,54.350140917137146,True,"(-0.007968342186291832, 0.18097810992419053, 0.02399828500333314)","(-0.9809128257617541, -0.19444045270622312, -0.0017142367076384362)",-1.991542888915946e-05,44.89781067482888
64,Move,"(-0.0678933, 0.0, 0.0044532999999999994)","(0.0, 0.0935112506633522, 0.0)","(-0.03756625602488472, 0.1584778326839596, 0.051591682911389145)","(-0.12827687635386373, 1.2042661356804342e-05, 0.20096548004697076)","[-0.044930208215092304, -0.001039774563126511, 0.003722606766040977]","[-0.026750000193715096, 0.05299999937415123, 0.03999999910593033]","[0.0, -0.0, 0.7893537427001891]","[-0.0778626799583435, 0.10370989888906479, 0.03999999910593033]","[0.0, -0.0, 0.040502666181232216]","[0.026750000193715096, 0.05299999937415123, 0.03999999910593033]","[0.0, 0.0, -0.16623890468716815]","[0.03866414725780487, 0.12400741875171661, 0.03999999910593033]","[0.0, -0.0, 0.5427390596764312]",0.7927955805258693,0.8260204749740999,"(0.0, 0.0, 0.0, 0.0, 0.0, 0.0)",-6.936490354235313,-0.745903957983794,0.7073299027640167,"(0.0, 0.0, 0.0, 0.0, 0.0, 0.0)",-3.499911932518359,-0.15943020235524324,1.6340883558814525,"(0.0, 0.0, 0.0, 0.0, 0.0, 0.0)",8.015855808609345,0.7057138926494094,-0.7833734699282909,"(0.0, 0.0, 0.0, 0.0, 0.0, 0.0)",4.039722626896667,True,"(-0.06880669993415064, 0.17628962971374115, 0.05600056666144653)","(0.9802092366952092, 0.19796352694316674, 0.0005424920436094827)",-0.0036788848944352133,55.60535906544465,True,"(-0.009294277103225272, 0.18080714027355088, 0.023999456748073928)","(-0.9802092366768546, -0.19796352703425962, -0.0005424919668428501)",1.6453238343148088e-05,43.66146931899696
65,Move,"(-0.0678533, 0.0, 0.0038667)","(0.0, 0.09589537042157643, 0.0)","(-0.03870918606926563, 0.15830621317478735, 0.05163623166871364)","(-0.1312544488716584, -0.003282347861146199, 0.20110688189955625)","[-0.04607313825947321, -0.0012113940722987548, 0.00376715552336547]","[-0.026750000193715096, 0.05299999937415123, 0.03999999910593033]","[0.0, -0.0, 0.7958698525012815]","[-0.07819201797246933, 0.10337577760219574, 0.03999999910593033]","[0.0, -0.0, 0.05195863259138791]","[0.026750000193715096, 0.05299999937415123, 0.03999999910593033]","[0.0, 0.0, -0.15330667421771793]","[0.03774489089846611, 0.12415555119514465, 0.03999999910593033]","[0.0, -0.0, 0.5490078046648099]",0.7990385505282863,0.7604941944647308,"(0.0, 0.0, 0.0, 0.0, 0.0, 0.0)",-6.167928134352776,-0.7414038789825347,0.6017552022747852,"(0.0, 0.0, 0.0, 0.0, 0.0, 0.0)",-2.916118460042667,-0.14675458660669694,1.5724973289473507,"(0.0, 0.0, 0.0, 0.0, 0.0, 0.0)",8.91996403157289,0.6984658174384512,-0.9236761506384719,"(0.0, 0.0, 0.0, 0.0, 0.0, 0.0)",4.674387604736653,True,"(-0.06996610863320323, 0.17604501653705457, 0.05600157414630905)","(0.979853116773823, 0.19971327945654846, 0.0015733903950930425)",-0.00374965615487274,51.06050757523583,True,"(-0.010569556625441422, 0.1806579118857001, 0.02399842584964568)","(-0.9798531167738229, -0.19971327945654904, -0.0015733903950983265)",-5.354441466682622e-05,54.41228291208047
66,Move,"(-0.06892000000000001, 0.0, 0.0037267000000000003)","(0.0, 0.09467713060368439, 0.0)","(-0.03992697832945258, 0.158135261972112, 0.05171283002212887)","(-0.13508015553541922, -0.00452657766109682, 0.20230182285084236)","[-0.047290930519660164, -0.001382345274974106, 0.003843753876780702]","[-0.026750000193715096, 0.05299999937415123, 0.03999999910593033]","[0.0, -0.0, 0.8018886045069065]","[-0.07849428057670593, 0.10306525230407715, 0.03999999910593033]","[0.0, -0.0, 0.0627605060659871]","[0.026750000193715096, 0.05299999937415123, 0.03999999910593033]","[0.0, 0.0, -0.14085877617016862]","[0.03685832768678665, 0.12428689748048782, 0.03999999910593033]","[0.0, -0.0, 0.5541744682219857]",0.8050550949533902,0.75996744154727,"(0.0, 0.0, 0.0, 0.0, 0.0, 0.0)",-7.390019896536254,-0.7358753962323031,0.78063887500771,"(0.0, 0.0, 0.0, 0.0, 0.0, 0.0)",-3.7543670453781,-0.13424765557693547,1.5866752170689205,"(0.0, 0.0, 0.0, 0.0, 0.0, 0.0)",8.67579544394294,0.6915892349114339,-0.8265650194778708,"(0.0, 0.0, 0.0, 0.0, 0.0, 0.0)",4.340064848471249,True,"(-0.07105159253371504, 0.17580849744486016, 0.05600502063895475)","(0.9798484587880439, 0.19967923838650845, 0.005019917138663376)",-0.0038143755946303706,59.72309332820842,True,"(-0.011748441353927844, 0.18054397582361426, 0.023994979322902114)","(-0.9798484587880428, -0.19967923838651389, -0.005019917138658706)",-0.00016663435121574372,47.24842310236159
67,Move,"(-0.07075329999999999, 0.0, 0.00336)","(0.0, 0.09664237134143006, 0.0)","(-0.04115890597489916, 0.15797576002590538, 0.0518426777772092)","(-0.14055132585514785, -0.003378870782238197, 0.20530365886683877)","[-0.04852285816510674, -0.0015418472211807255, 0.003973601631861036]","[-0.026750000193715096, 0.05299999937415123, 0.03999999910593033]","[0.0, -0.0, 0.8078932910163779]","[-0.0787939727306366, 0.1027536392211914, 0.03999999910593033]","[0.0, -0.0, 0.07487226666823572]","[0.026750000193715096, 0.05299999937415123, 0.03999999910593033]","[0.0, 0.0, -0.1282894757945011]","[0.03596152737736702, 0.12440831959247589, 0.03999999910593033]","[0.0, -0.0, 0.560398256709278]",0.8111212311610757,0.7747123216222336,"(0.0, 0.0, 0.0, 0.0, 0.0, 0.0)",-7.427514484648587,-0.7297686989632358,0.7805519230642164,"(0.0, 0.0, 0.0, 0.0, 0.0, 0.0)",-3.8459114080902594,-0.12145138242055063,1.6411434839604948,"(0.0, 0.0, 0.0, 0.0, 0.0, 0.0)",8.696854571396571,0.6852378834432891,-0.8279602305128164,"(0.0, 0.0, 0.0, 0.0, 0.0, 0.0)",4.2697720185219366,True,"(-0.07223088955507224, 0.1755724101198298, 0.05600398013737461)","(0.9793262871109579, 0.202247837413889, 0.0039794013206256576)",-0.00392263839346517,59.4940006346349,True,"(-0.012995172014196005, 0.18036531637064887, 0.02399601983872016)","(-0.9793262871109574, -0.2022478374138919, -0.003979401320619048)",-9.828406989094314e-05,49.89441013298768
68,Move,"(-0.07064669999999999, 0.0, 0.0027267000000000003)","(0.0, 0.09879610763839101, 0.0)","(-0.04237250294787195, 0.1578097279538445, 0.05196497695282988)","(-0.14564869855538556, -0.0022682372599284015, 0.2080669629070416)","[-0.04973645513807953, -0.001707879293241621, 0.004095900807481713]","[-0.026750000193715096, 0.05299999937415123, 0.03999999910593033]","[0.0, -0.0, 0.8140250154037182]","[-0.07909806817770004, 0.10243358463048935, 0.03999999910593033]","[0.0, -0.0, 0.08718538641005653]","[0.026750000193715096, 0.05299999937415123, 0.03999999910593033]","[0.0, 0.0, -0.11529661334498811]","[0.0350329764187336, 0.12452197074890137, 0.03999999910593033]","[0.0, -0.0, 0.5668516242278737]",0.816970080413823,0.7068238535255672,"(0.0, 0.0, 0.0, 0.0, 0.0, 0.0)",-7.628870826200827,-0.7235596348766288,0.7871921916719173,"(0.0, 0.0, 0.0, 0.0, 0.0, 0.0)",-3.9100049412682787,-0.10874685695213507,1.5719397869027234,"(0.0, 0.0, 0.0, 0.0, 0.0, 0.0)",8.582213449004318,0.6787001514659534,-0.8275230349244505,"(0.0, 0.0, 0.0, 0.0, 0.0, 0.0)",4.271064011359388,True,"(-0.07343013038406034, 0.17531855365466675, 0.056002830203761685)","(0.9787166727600116, 0.20519665845568946, 0.0028294558118955155)",-0.004019233778768594,60.004690042627196,True,"(-0.014284525184351304, 0.18016524048598415, 0.02399716978422888)","(-0.9787166727600117, -0.2051966584556898, -0.002829455811893728)",-6.401114300357675e-05,50.18037510442543
69,Move,"(-0.0711, 0.0, 0.0022667000000000004)","(0.0, 0.09813811851038914, 0.0)","(-0.04354154795509405, 0.15764201479653964, 0.05207483618855876)","(-0.15013318688137234, -0.0012265933662675118, 0.21041953267315572)","[-0.05090550014530164, -0.0018755924505464705, 0.004205760043210591]","[-0.026750000193715096, 0.05299999937415123, 0.03999999910593033]","[0.0, -0.0, 0.8196198527687005]","[-0.07937382161617279, 0.10213994234800339, 0.03999999910593033]","[0.0, -0.0, 0.09901761639375237]","[0.026750000193715096, 0.05299999937415123, 0.03999999910593033]","[0.0, 0.0, -0.10285195057722578]","[0.03414228931069374, 0.1246195062994957, 0.03999999910593033]","[0.0, -0.0, 0.572750897326341]",0.8224156321346084,0.6710073252160469,"(0.0, 0.0, 0.0, 0.0, 0.0, 0.0)",-7.699939747763993,-0.7172643504088346,0.8010737641582454,"(0.0, 0.0, 0.0, 0.0, 0.0, 0.0)",-3.9686965010028343,-0.09640935169029528,1.5462195839256596,"(0.0, 0.0, 0.0, 0.0, 0.0, 0.0)",8.774154365982222,0.672104157801363,-0.8396721842196438,"(0.0, 0.0, 0.0, 0.0, 0.0, 0.0)",4.334906056983172,True,"(-0.07456666996707435, 0.17507776663342078, 0.05600177210796731)","(0.9781991534375125, 0.20766153790626177, 0.0017612179138423978)",-0.004104003592954647,60.73784101462275,True,"(-0.015503317440988665, 0.1799741784682782, 0.02399823802214227)","(-0.978199153433854, -0.20766153792362532, -0.0017612178985104442)",-3.3843943687056986e-05,50.80844557842874
70,Move,"(-0.0734067, 0.0, 0.0015667)","(0.0, 0.09846624040976411, 0.0)","(-0.04473531337079581, 0.15745909744946776, 0.05218372177491879)","(-0.15457936635446826, -0.00019114660951006964, 0.21266849825190057)","[-0.052099265561003395, -0.0020585097976183464, 0.004314645629570624]","[-0.026750000193715096, 0.05299999937415123, 0.03999999910593033]","[0.0, -0.0, 0.8249309713707157]","[-0.07963406294584274, 0.10185975581407547, 0.03999999910593033]","[0.0, -0.0, 0.11067550459467386]","[0.026750000193715096, 0.05299999937415123, 0.03999999910593033]","[0.0, 0.0, -0.09061078346229884]","[0.03326505422592163, 0.12470462918281555, 0.03999999910593033]","[0.0, -0.0, 0.5783514288426163]",0.827892506724288,0.7107756185793649,"(0.0, 0.0, 0.0, 0.0, 0.0, 0.0)",-7.905294679744117,-0.7107661968140604,0.8374226166472136,"(0.0, 0.0, 0.0, 0.0, 0.0, 0.0)",-4.116373925677768,-0.08380510480981046,1.633366040172579,"(0.0, 0.0, 0.0, 0.0, 0.0, 0.0)",9.333955710095374,0.6652948928017964,-0.8801483745076376,"(0.0, 0.0, 0.0, 0.0, 0.0, 0.0)",4.548010264974686,True,"(-0.07567549472531625, 0.17483942420940551, 0.056000754475692804)","(0.9777416699624795, 0.20981103846022936, 0.0007449558524605082)",-0.004183495052341828,62.995589434981554,True,"(-0.016690509310998365, 0.1797837180129404, 0.023999254284199852)","(-0.9777416699597126, -0.20981103847316407, -0.0007449558409236049)",-4.899284718993913e-06,52.352816731852734
71,Move,"(-0.0751467, 0.0, 0.00086)","(0.0, 0.10382963720114266, 0.0)","(-0.045937201553640054, 0.15724926851329424, 0.052249714854227094)","(-0.15813489185884302, -0.0018011736928406827, 0.2133799267105303)","[-0.05330115374384764, -0.0022683387337918692, 0.004380638708878927]","[-0.026750000193715096, 0.05299999937415123, 0.03999999910593033]","[0.0, -0.0, 0.830556964756279]","[-0.0799081102013588, 0.10156145691871643, 0.03999999910593033]","[0.0, -0.0, 0.12290750563839654]","[0.026750000193715096, 0.05299999937415123, 0.03999999910593033]","[0.0, 0.0, -0.07767836244093593]","[0.03233721852302551, 0.12478289008140564, 0.03999999910593033]","[0.0, -0.0, 0.5843149650786564]",0.833539024293685,0.7157122231827411,"(0.0, 0.0, 0.0, 0.0, 0.0, 0.0)",-7.151907748966805,-0.704729511398841,0.7007685395622014,"(0.0, 0.0, 0.0, 0.0, 0.0, 0.0)",-3.504236420590846,-0.07069219114377977,1.6766812387683239,"(0.0, 0.0, 0.0, 0.0, 0.0, 0.0)",10.35551234030285,0.6576153246708861,-1.0507117151244687,"(0.0, 0.0, 0.0, 0.0, 0.0, 0.0)",5.255966944198093,True,"(-0.07684136946244097, 0.17457905156588774, 0.05600019998821436)","(0.977471140431688, 0.21106902445916945, 0.00019114661820624613)",-0.004278172328358326,59.41974267528564,True,"(-0.01794631794464064, 0.17956489348690688, 0.02399980809343243)","(-0.9774711404293148, -0.2110690244701699, -0.00019114660834961534)",2.6527870447212907e-05,59.54787490349379
72,Move,"(-0.07590670000000001, 0.0, 0.0004)","(0.0, 0.10959096906197596, 0.0)","(-0.04713390587252078, 0.1570338057943126, 0.052281671773221135)","(-0.16121098673842885, -0.00604205489259532, 0.2128685951005293)","[-0.05449785806272837, -0.002483801452773521, 0.004412595627872967]","[-0.026750000193715096, 0.05299999937415123, 0.03999999910593033]","[0.0, -0.0, 0.8362235090190704]","[-0.08018244057893753, 0.10125944763422012, 0.03999999910593033]","[0.0, -0.0, 0.1342001958187779]","[0.026750000193715096, 0.05299999937415123, 0.03999999910593033]","[0.0, 0.0, -0.06441066754474443]","[0.031384363770484924, 0.12485069781541824, 0.03999999910593033]","[0.0, -0.0, 0.5892766305535818]",0.8391005760534999,0.6904802654554508,"(0.0, 0.0, 0.0, 0.0, 0.0, 0.0)",-7.456658895673281,-0.6989013827142164,0.7492778957493714,"(0.0, 0.0, 0.0, 0.0, 0.0, 0.0)",-3.6672869248774775,-0.057480854045731,1.6631554037650158,"(0.0, 0.0, 0.0, 0.0, 0.0, 0.0)",10.655884815220341,0.6492574390537407,-1.0631548404974471,"(0.0, 0.0, 0.0, 0.0, 0.0, 0.0)",5.394700908715356,True,"(-0.0779367928818209, 0.17429078212384663, 0.056003903763832144)","(0.9773722849664516, 0.21149050432156213, 0.0038965576178315547)",-0.004358117037576522,61.6230937612037,True,"(-0.01917193890000004, 0.1793897234283886, 0.023996102682429472)","(-0.9773722849649175, -0.21149050432877173, -0.0038965576113046416)",-0.0001270861150808477,64.3191118406053
73,Move,"(-0.07665330000000001, 0.0, 0.0003067)","(0.0, 0.11314620474828842, 0.0)","(-0.04842117559459446, 0.15678895435831633, 0.05237744364924087)","(-0.164958440611418, -0.0050277141758410275, 0.21450727419624815)","[-0.05578512778480205, -0.002728652888769778, 0.004508367503892705]","[-0.026750000193715096, 0.05299999937415123, 0.03999999910593033]","[0.0, -0.0, 0.8417120085984326]","[-0.0804465040564537, 0.1009654626250267, 0.03999999910593033]","[0.0, -0.0, 0.14630977624295097]","[0.026750000193715096, 0.05299999937415123, 0.03999999910593033]","[0.0, 0.0, -0.05123100410089976]","[0.03043701872229576, 0.1249055340886116, 0.03999999910593033]","[0.0, -0.0, 0.5945654147811054]",0.844506678115218,0.6707187031818486,"(0.0, 0.0, 0.0, 0.0, 0.0, 0.0)",-8.48455782598396,-0.691691024092352,0.8906900562763971,"(0.0, 0.0, 0.0, 0.0, 0.0, 0.0)",-4.438530380350664,-0.04432624914844989,1.6571413850760206,"(0.0, 0.0, 0.0, 0.0, 0.0, 0.0)",9.683317409106905,0.6419930575872776,-0.9128140705734059,"(0.0, 0.0, 0.0, 0.0, 0.0, 0.0)",4.720380523377851,True,"(-0.07908282027413593, 0.1740071225942545, 0.056005602946731015)","(0.9772957851112632, 0.21180560881015095, 0.005597542346484717)",-0.0044802900974565945,68.04751020199188,True,"(-0.020408078644237857, 0.1791812649898192, 0.023994401697703702)","(-0.977295785109079, -0.21180560882047902, -0.005597542337074951)",-0.00013440408089878967,55.98763010047532
74,Move,"(-0.07674, 0.0, 0.0004267)","(0.0, 0.11645709433932164, 0.0)","(-0.0496311243991366, 0.15655747106298856, 0.052473519528802824)","(-0.1686686902483054, -0.0039841177698556164, 0.21618018916148388)","[-0.05699507658934418, -0.002960136184097545, 0.004604443383454657]","[-0.026750000193715096, 0.05299999937415123, 0.03999999910593033]","[0.0, -0.0, 0.8470219273854165]","[-0.08070043474435806, 0.1006796658039093, 0.03999999910593033]","[0.0, -0.0, 0.15868562179889859]","[0.026750000193715096, 0.05299999937415123, 0.03999999910593033]","[0.0, 0.0, -0.03811265415741808]","[0.02949344739317894, 0.12494771182537079, 0.03999999910593033]","[0.0, -0.0, 0.6004464622738872]",0.8495837435158788,0.6148471399677644,"(0.0, 0.0, 0.0, 0.0, 0.0, 0.0)",-8.602091772073898,-0.6845710644928233,0.9036452364459063,"(0.0, 0.0, 0.0, 0.0, 0.0, 0.0)",-4.485654184298725,-0.03145211388272458,1.5985295188795385,"(0.0, 0.0, 0.0, 0.0, 0.0, 0.0)",9.713451122991358,0.634721354874461,-0.9210802999220544,"(0.0, 0.0, 0.0, 0.0, 0.0, 0.0)",4.749364614469383,True,"(-0.08023848669378762, 0.1737223804233759, 0.056004521494638866)","(0.9768992850193203, 0.2136525408922921, 0.004514277240972325)",-0.004588108757185948,68.53219624997037,True,"(-0.021670836337961262, 0.17892737952919835, 0.023995484962807487)","(-0.9768992850183983, -0.21365254089667032, -0.004514277233289112)",-0.0001036320571241787,56.097642339802505
75,Move,"(-0.0768933, 0.0, 0.00033329999999999997)","(0.0, 0.12112410475915449, 0.0)","(-0.050746975046725595, 0.1563465503202907, 0.052455021852740584)","(-0.16962240769229397, -0.0051013911822350875, 0.21605764562014967)","[-0.05811092723693318, -0.003171056926795396, 0.0045859457073924165]","[-0.026750000193715096, 0.05299999937415123, 0.03999999910593033]","[0.0, -0.0, 0.851865679825098]","[-0.08093074709177017, 0.10041779279708862, 0.03999999910593033]","[0.0, -0.0, 0.17039071212800327]","[0.026750000193715096, 0.05299999937415123, 0.03999999910593033]","[0.0, 0.0, -0.025468491593504214]","[0.028583534061908722, 0.12497664988040924, 0.03999999910593033]","[0.0, -0.0, 0.6056853454053035]",0.8542255333495772,0.5663965553218245,"(0.0, 0.0, 0.0, 0.0, 0.0, 0.0)",-8.163400332222881,-0.6778454970279932,0.8710395653813818,"(0.0, 0.0, 0.0, 0.0, 0.0, 0.0)",-4.308921047190452,-0.019002908053591543,1.5517401140638496,"(0.0, 0.0, 0.0, 0.0, 0.0, 0.0)",10.452034736280858,0.6270421800747964,-0.9867838205332694,"(0.0, 0.0, 0.0, 0.0, 0.0, 0.0)",5.056441954238296,True,"(-0.08132138124199673, 0.17345025374350032, 0.05600449896982969)","(0.976732457832965, 0.2144143267311348, 0.004494697766176089)",-0.004658830074637797,66.00686603734637,True,"(-0.022863798445679897, 0.17869189248080292, 0.023995504542276624)","(-0.9767324578324937, -0.21441432673332497, -0.004494697764149289)",-0.00013773990828368002,56.258685446132375
76,Move,"(-0.0768333, 0.0, -2e-05)","(0.0, 0.1282886813385912, 0.0)","(-0.05183863757994426, 0.15614523802760474, 0.052426921325340284)","(-0.1704847794748079, -0.006468629333200355, 0.21584263372345858)","[-0.059202589770151845, -0.0033723692194813637, 0.004557845179992116]","[-0.026750000193715096, 0.05299999937415123, 0.03999999910593033]","[0.0, -0.0, 0.8563472102231957]","[-0.08114270865917206, 0.10017449408769608, 0.03999999910593033]","[0.0, -0.0, 0.18178871865046847]","[0.026750000193715096, 0.05299999937415123, 0.03999999910593033]","[0.0, 0.0, -0.013185790925648156]","[0.02769934944808483, 0.12499374151229858, 0.03999999910593033]","[0.0, -0.0, 0.6101724123933687]",0.8585182718313403,0.5210562142633431,"(0.0, 0.0, 0.0, 0.0, 0.0, 0.0)",-8.209838603644116,-0.6709095376185787,0.8757485033527912,"(0.0, 0.0, 0.0, 0.0, 0.0, 0.0)",-4.362760364533329,-0.006935369415634767,1.5001008673846914,"(0.0, 0.0, 0.0, 0.0, 0.0, 0.0)",10.53545569517503,0.6192474018605001,-0.9865857952599417,"(0.0, 0.0, 0.0, 0.0, 0.0, 0.0)",5.065397850342358,True,"(-0.08236319078390061, 0.17318648190131258, 0.05600577242649114)","(0.9767596070789142, 0.21426020700098733, 0.005764865561241435)",-0.004723162668578249,66.26852818823345,True,"(-0.023989488228174653, 0.1784821287562316, 0.023994234374485487)","(-0.9767596070791666, -0.2142602069999968, -0.005764865555289143)",-0.0001836585726551589,56.65860183292745
77,Move,"(-0.07708, 0.0, -0.0005267)","(0.0, 0.13479352346077406, 0.0)","(-0.05288873077229289, 0.15595435929024823, 0.052390714332896965)","(-0.17125712523855344, -0.008040432722055048, 0.21551879580187014)","[-0.06025268296250048, -0.0035632479568378783, 0.004521638187548797]","[-0.026750000193715096, 0.05299999937415123, 0.03999999910593033]","[0.0, -0.0, 0.8604701451886112]","[-0.08133673667907715, 0.09994984418153763, 0.03999999910593033]","[0.0, -0.0, 0.19286613009189532]","[0.026750000193715096, 0.05299999937415123, 0.03999999910593033]","[0.0, 0.0, -0.0013121449619404367]","[0.02684447355568409, 0.12499994039535522, 0.03999999910593033]","[0.0, -0.0, 0.6142472340098304]",0.8625110612844894,0.48984251959011593,"(0.0, 0.0, 0.0, 0.0, 0.0, 0.0)",-8.221618247158915,-0.6639180834130406,0.8845999171074966,"(0.0, 0.0, 0.0, 0.0, 0.0, 0.0)",-4.401772680462765,0.0048066543990082705,1.468511842266378,"(0.0, 0.0, 0.0, 0.0, 0.0, 0.0)",10.691456450519997,0.6114235469645474,-0.9926172062155061,"(0.0, 0.0, 0.0, 0.0, 0.0, 0.0)",5.097082010676099,True,"(-0.08336343378787704, 0.1729327638369244, 0.056007232895351394)","(0.976807847922071, 0.21399561566602077, 0.007232199774134381)",-0.004775692652519696,66.47025827548029,True,"(-0.025062823800400015, 0.17828149742538588, 0.02399276704026669)","(-0.9768078479220603, -0.21399561566607053, -0.0072321997740829504)",-0.00023674364018312505,57.19402727110122
