OSUrobotics/InHand-Manipulation/AnalyseData/Data/Trial Data/Even Better/new_hand_human_sub1_2v2_d_n_1_kpNone_kdNone_dp2_step1_save_data.csv
,Phase,human_cube_pos,human_cube_orn,Cube_Pos,Cube_Orn,Cube_pos_in_start_pos,b'l_prox_pin'_link_pos,b'l_prox_pin'_link_orn,b'l_distal_pin'_link_pos,b'l_distal_pin'_link_orn,b'r_prox_pin'_link_pos,b'r_prox_pin'_link_orn,b'r_distal_pin'_link_pos,b'r_distal_pin'_link_orn,b'l_prox_pin'_joint_angle,b'l_prox_pin'_joint_vel,b'l_prox_pin'_joint_react_forces,b'l_prox_pin'_joint_motor_torque,b'l_distal_pin'_joint_angle,b'l_distal_pin'_joint_vel,b'l_distal_pin'_joint_react_forces,b'l_distal_pin'_joint_motor_torque,b'r_prox_pin'_joint_angle,b'r_prox_pin'_joint_vel,b'r_prox_pin'_joint_react_forces,b'r_prox_pin'_joint_motor_torque,b'r_distal_pin'_joint_angle,b'r_distal_pin'_joint_vel,b'r_distal_pin'_joint_react_forces,b'r_distal_pin'_joint_motor_torque,in_contact_l,contact_point_l_dist,contact_normal_l_dist,contact_distance_l_dist,contact_norm_force_l_dist,in_contact_r,contact_point_r_dist,contact_normal_r_dist,contact_distance_r_dist,contact_norm_force_r_dist
0,Open,,,,,,"[-0.026750000193715096, 0.05299999937415123, 0.03999999910593033]","[0.0, -0.0, 0.0]","[-0.026750000193715096, 0.125, 0.03999999910593033]","[0.0, -0.0, 0.0]","[0.026750000193715096, 0.05299999937415123, 0.03999999910593033]","[0.0, -0.0, 0.0]","[0.026750000193715096, 0.125, 0.03999999910593033]","[0.0, -0.0, 0.0]",0.0,0.0,"(0.0, 0.0, 0.0, 0.0, 0.0, 0.0)",1.3400621000080305e-17,5.883223478113402e-32,1.4119736347472167e-29,"(0.0, 0.0, 0.0, 0.0, 0.0, 0.0)",1.0542555313129702e-18,-0.008068665190486622,-1.9364796457167894,"(0.0, 0.0, 0.0, 0.0, 0.0, 0.0)",193.26378306879909,-0.0700246186727924,-16.805908481470176,"(0.0, 0.0, 0.0, 0.0, 0.0, 0.0)",71.94009191575694,False,,,,,False,,,,
1,Open,,,,,,"[-0.026750000193715096, 0.05299999937415123, 0.03999999910593033]","[0.0, -0.0, 0.0]","[-0.026750000193715096, 0.125, 0.03999999910593033]","[0.0, -0.0, 5.883223447970011e-32]","[0.026750000193715096, 0.05299999937415123, 0.03999999910593033]","[0.0, 0.0, -0.008068665592501188]","[0.02733093686401844, 0.12499765306711197, 0.03999999910593033]","[0.0, 0.0, -0.0780932845685428]",0.157,37.68,"(0.0, 0.0, 0.0, 0.0, 0.0, 0.0)",54.702693795169004,5.294901130302062e-32,-1.4119736347472162e-30,"(0.0, 0.0, 0.0, 0.0, 0.0, 0.0)",3.9113724975844915,-0.1670280316324969,-38.150247946082466,"(0.0, 0.0, 0.0, 0.0, 0.0, 0.0)",-25.93345404555236,-0.0659493391739072,0.9780670797324476,"(0.0, 0.0, 0.0, 0.0, 0.0, 0.0)",-6.754749483880455,False,,,,,False,,,,
2,Open,,,,,,"[-0.026750000193715096, 0.05299999937415123, 0.03999999910593033]","[0.0, -0.0, 0.1569999988554567]","[-0.03800761699676514, 0.12411445379257202, 0.03999999910593033]","[0.0, -0.0, 0.1569999988554567]","[0.026750000193715096, 0.05299999937415123, 0.03999999910593033]","[0.0, 0.0, -0.16702801712980753]","[0.038720179349184036, 0.1239979937672615, 0.03999999910593033]","[0.0, 0.0, -0.23297739431320727]",0.29829999999999995,33.91199999999999,"(0.0, 0.0, 0.0, 0.0, 0.0, 0.0)",-5.390828189440958,5.294901130302062e-32,0.0,"(0.0, 0.0, 0.0, 0.0, 0.0, 0.0)",-0.3659219356209609,-0.3122944613104081,-34.863943122698686,"(0.0, 0.0, 0.0, 0.0, 0.0, 0.0)",95.8006544774165,-0.06705867534034729,-0.2662406799456205,"(0.0, 0.0, 0.0, 0.0, 0.0, 0.0)",9.049911776264722,False,,,,,False,,,,
3,Open,,,,,,"[-0.026750000193715096, 0.05299999937415123, 0.03999999910593033]","[0.0, -0.0, 0.29830000998707634]","[-0.04791048914194107, 0.12182030081748962, 0.03999999910593033]","[0.0, -0.0, 0.29830000998707634]","[0.026750000193715096, 0.05299999937415123, 0.03999999910593033]","[0.0, 0.0, -0.3122944642903269]","[0.048871491104364395, 0.12151744216680527, 0.03999999910593033]","[0.0, 0.0, -0.3793531994353912]",0.42546999999999996,30.5208,"(0.0, 0.0, 0.0, 0.0, 0.0, 0.0)",-4.858074537215091,5.294901130302062e-32,0.0,"(0.0, 0.0, 0.0, 0.0, 0.0, 0.0)",-0.33154044974508506,-0.44292449566296654,-31.35120824461403,"(0.0, 0.0, 0.0, 0.0, 0.0, 0.0)",100.88457241511576,-0.08373770380977785,-4.0029668326633345,"(0.0, 0.0, 0.0, 0.0, 0.0, 0.0)",24.077304806401806,False,,,,,False,,,,
4,Open,,,,,,"[-0.026750000193715096, 0.05299999937415123, 0.03999999910593033]","[0.0, -0.0, 0.4254700097131474]","[-0.056467924267053604, 0.11858082562685013, 0.03999999910593033]","[0.0, -0.0, 0.4254700097131474]","[0.026750000193715096, 0.05299999937415123, 0.03999999910593033]","[0.0, 0.0, -0.4429245237535421]","[0.057608019560575485, 0.1180521547794342, 0.03999999910593033]","[0.0, 0.0, -0.5266622746639338]",0.5399229999999999,27.46872,"(0.0, 0.0, 0.0, 0.0, 0.0, 0.0)",-4.377393708535371,5.294901130302062e-32,0.0,"(0.0, 0.0, 0.0, 0.0, 0.0, 0.0)",-0.30017707799641646,-0.5623038734984663,-28.651050680519948,"(0.0, 0.0, 0.0, 0.0, 0.0, 0.0)",144.45470973647488,-0.10456727132876567,-4.999096204557077,"(0.0, 0.0, 0.0, 0.0, 0.0, 0.0)",33.97911746732963,False,,,,,False,,,,
5,Open,,,,,,"[-0.026750000193715096, 0.05299999937415123, 0.03999999910593033]","[0.0, -0.0, 0.5399230359738098]","[-0.06376303732395172, 0.11475787311792374, 0.03999999910593033]","[0.0, -0.0, 0.5399230359738098]","[0.026750000193715096, 0.05299999937415123, 0.03999999910593033]","[0.0, 0.0, -0.5623038790270362]","[0.06513584405183792, 0.11391409486532211, 0.03999999910593033]","[0.0, 0.0, -0.6668711870723439]",0.6429307,24.721848,"(0.0, 0.0, 0.0, 0.0, 0.0, 0.0)",-3.943806903965684,5.294901130302062e-32,0.0,"(0.0, 0.0, 0.0, 0.0, 0.0, 0.0)",-0.2716098155097054,-0.6673401099248648,-25.208696742335626,"(0.0, 0.0, 0.0, 0.0, 0.0, 0.0)",94.97739775913854,-0.11755295807544866,-3.116564819203918,"(0.0, 0.0, 0.0, 0.0, 0.0, 0.0)",25.79194570087013,False,,,,,False,,,,
6,Open,,,,,,"[-0.026750000193715096, 0.05299999937415123, 0.03999999910593033]","[0.0, -0.0, 0.6429307111289271]","[-0.06991713494062424, 0.11062463372945786, 0.03999999910593033]","[0.0, -0.0, 0.6429307111289271]","[0.026750000193715096, 0.05299999937415123, 0.03999999910593033]","[0.0, 0.0, -0.6673401753977319]","[0.07131072133779526, 0.10955388844013214, 0.03999999910593033]","[0.0, 0.0, -0.7848931559948581]",0.73563763,22.249663200000004,"(0.0, 0.0, 0.0, 0.0, 0.0, 0.0)",-3.552789792259023,5.294901130302062e-32,0.0,"(0.0, 0.0, 0.0, 0.0, 0.0, 0.0)",-0.24562369466220793,-0.7579917869736262,-21.756402491702737,"(0.0, 0.0, 0.0, 0.0, 0.0, 0.0)",34.46450837185191,-0.10794166402774508,2.3067105714488583,"(0.0, 0.0, 0.0, 0.0, 0.0, 0.0)",8.765009015475858,False,,,,,False,,,,
7,Open,,,,,,"[-0.026750000193715096, 0.05299999937415123, 0.03999999910593033]","[0.0, -0.0, 0.7356376306875043]","[-0.07506632059812546, 0.10638101398944855, 0.03999999910593033]","[0.0, -0.0, 0.7356376306875043]","[0.026750000193715096, 0.05299999937415123, 0.03999999910593033]","[0.0, 0.0, -0.757991847340814]","[0.076247438788414, 0.10528770089149475, 0.03999999910593033]","[0.0, 0.0, -0.8659334873334429]",0.8190738670000001,20.024696880000004,"(0.0, 0.0, 0.0, 0.0, 0.0, 0.0)",-3.2002295086701533,2.3293280891773424e-07,5.5903874140256216e-05,"(0.0, 0.0, 0.0, 0.0, 0.0, 0.0)",-0.22200715926400075,-0.8391926082762636,-19.488197112632974,"(0.0, 0.0, 0.0, 0.0, 0.0, 0.0)",3.295349739497939,-0.09714776835574307,2.590534961280482,"(0.0, 0.0, 0.0, 0.0, 0.0, 0.0)",0.25803221970863044,False,,,,,False,,,,
8,Open,,,,,,"[-0.026750000193715096, 0.05299999937415123, 0.03999999910593033]","[0.0, -0.0, 0.8190738875671263]","[-0.07934698462486267, 0.10216865688562393, 0.03999999910593033]","[0.0, -0.0, 0.8190741465287105]","[0.026750000193715096, 0.05299999937415123, 0.03999999910593033]","[0.0, 0.0, -0.839192558822362]","[0.08032548427581787, 0.10110059380531311, 0.03999999910593033]","[0.0, 0.0, -0.9363403253067936]",0.8941664803,18.022227192,"(0.0, 0.0, 0.0, 0.0, 0.0, 0.0)",-2.8824197251771095,4.2009445145371055e-07,4.4918794208634316e-05,"(0.0, 0.0, 0.0, 0.0, 0.0, 0.0)",-0.2005835928406654,-0.9122733474486373,-17.539377401369673,"(0.0, 0.0, 0.0, 0.0, 0.0, 0.0)",2.7804978356880783,-0.0874331700712747,2.33150358827241,"(0.0, 0.0, 0.0, 0.0, 0.0, 0.0)",0.17017621517521792,False,,,,,False,,,,
9,Open,,,,,,"[-0.026750000193715096, 0.05299999937415123, 0.03999999910593033]","[0.0, -0.0, 0.894166469119967]","[-0.08288749307394028, 0.09808415919542313, 0.03999999910593033]","[0.0, -0.0, 0.894166894674561]","[0.026750000193715096, 0.05299999937415123, 0.03999999910593033]","[0.0, 0.0, -0.9122733503889549]","[0.08369457721710205, 0.09706035256385803, 0.03999999910593033]","[0.0, 0.0, -0.9997066729229968]",0.96174983227,16.220004472800003,"(0.0, 0.0, 0.0, 0.0, 0.0, 0.0)",-2.5959652512206968,5.681494863714967e-07,3.553320838026869e-05,"(0.0, 0.0, 0.0, 0.0, 0.0, 0.0)",-0.18114955764248034,-0.9780460127037736,-15.785439661232708,"(0.0, 0.0, 0.0, 0.0, 0.0, 0.0)",2.503992476159733,-0.0786900142246732,2.098357403184359,"(0.0, 0.0, 0.0, 0.0, 0.0, 0.0)",0.15360133560797545,False,,,,,False,,,,
10,Open,,,,,,"[-0.026750000193715096, 0.05299999937415123, 0.03999999910593033]","[0.0, -0.0, 0.9617498658906226]","[-0.08580395579338074, 0.09419016540050507, 0.03999999910593033]","[0.0, -0.0, 0.9617504517765805]","[0.026750000193715096, 0.05299999937415123, 0.03999999910593033]","[0.0, 0.0, -0.9780460255881384]","[0.08646733313798904, 0.09322238713502884, 0.03999999910593033]","[0.0, 0.0, -1.0567360258914282]",1.022574849043,14.598004025520002,"(0.0, 0.0, 0.0, 0.0, 0.0, 0.0)",-2.337816594086846,6.829231533297027e-07,2.7545680069969436e-05,"(0.0, 0.0, 0.0, 0.0, 0.0, 0.0)",-0.16354029854134106,-1.0372414114333963,-14.206895695109438,"(0.0, 0.0, 0.0, 0.0, 0.0, 0.0)",2.2548456713339484,-0.07082115822448021,1.8885254400463192,"(0.0, 0.0, 0.0, 0.0, 0.0, 0.0)",0.13860128234430863,False,,,,,False,,,,
11,Open,,,,,,"[-0.026750000193715096, 0.05299999937415123, 0.03999999910593033]","[0.0, -0.0, 1.0225748785172661]","[-0.08819860219955444, 0.09052424877882004, 0.03999999910593033]","[0.0, -0.0, 1.0225755149967983]","[0.026750000193715096, 0.05299999937415123, 0.03999999910593033]","[0.0, 0.0, -1.037241417801626]","[0.08874232321977615, 0.08961901068687439, 0.03999999910593033]","[0.0, 0.0, -1.1080626941470386]",1.0773173641387,13.138203622968001,"(0.0, 0.0, 0.0, 0.0, 0.0, 0.0)",-2.105207702642618,7.694903593429899e-07,2.0776129443188934e-05,"(0.0, 0.0, 0.0, 0.0, 0.0, 0.0)",-0.14759587787833617,-1.0905172702900567,-12.78620612559849,"(0.0, 0.0, 0.0, 0.0, 0.0, 0.0)",2.0303755786213302,-0.06373917358809339,1.6996763127328351,"(0.0, 0.0, 0.0, 0.0, 0.0, 0.0)",0.1250328149112744,False,,,,,False,,,,
12,Open,,,,,,"[-0.026750000193715096, 0.05299999937415123, 0.03999999910593033]","[0.0, -0.0, 1.0773173786594632]","[-0.09015969932079315, 0.08710587024688721, 0.03999999910593033]","[0.0, -0.0, 1.0773182784199262]","[0.026750000193715096, 0.05299999937415123, 0.03999999910593033]","[0.0, 0.0, -1.090517334189526]","[0.09060435742139816, 0.0862659215927124, 0.03999999910593033]","[0.0, 0.0, -1.1542564269670996]",1.1265856277248298,11.824383260671203,"(0.0, 0.0, 0.0, 0.0, 0.0, 0.0)",-1.895636869852492,8.322629993378343e-07,1.5065433598762668e-05,"(0.0, 0.0, 0.0, 0.0, 0.0, 0.0)",-0.13316806895824274,-1.138465543261051,-11.50758551303864,"(0.0, 0.0, 0.0, 0.0, 0.0, 0.0)",1.828159741200242,-0.05736537454460671,1.5297117704368035,"(0.0, 0.0, 0.0, 0.0, 0.0, 0.0)",0.11276577482950233,False,,,,,False,,,,
13,Open,,,,,,"[-0.026750000193715096, 0.05299999937415123, 0.03999999910593033]","[0.0, -0.0, 1.126585512342968]","[-0.09176240861415863, 0.08394166082143784, 0.03999999910593033]","[0.0, -0.0, 1.1265864725026016]","[0.026750000193715096, 0.05299999937415123, 0.03999999910593033]","[0.0, 0.0, -1.13846552283997]","[0.09212540090084076, 0.08316715806722641, 0.03999999910593033]","[0.0, 0.0, -1.1958309904194953]",1.1709270649523469,10.641944934604087,"(0.0, 0.0, 0.0, 0.0, 0.0, 0.0)",-1.7068426281171958,8.750681698751778e-07,1.0273240928962424e-05,"(0.0, 0.0, 0.0, 0.0, 0.0, 0.0)",-0.12011999884119333,-1.181618988934946,-10.356826961734775,"(0.0, 0.0, 0.0, 0.0, 0.0, 0.0)",1.6460093571929852,-0.051628943774705546,1.376743384776279,"(0.0, 0.0, 0.0, 0.0, 0.0, 0.0)",0.10168054944364863,False,,,,,False,,,,
14,Open,,,,,,"[-0.026750000193715096, 0.05299999937415123, 0.03999999910593033]","[0.0, -0.0, 1.170927100750299]","[-0.09307006001472473, 0.08102945238351822, 0.03999999910593033]","[0.0, -0.0, 1.1709279927689973]","[0.026750000193715096, 0.05299999937415123, 0.03999999910593033]","[0.0, 0.0, -1.181618964677462]","[0.09336595237255096, 0.08031877130270004, 0.03999999910593033]","[0.0, 0.0, -1.233247876832181]",1.2108343584571122,9.577750441143678,"(0.0, 0.0, 0.0, 0.0, 0.0, 0.0)",-1.5367816122769582,9.012180617793662e-07,6.275974057005224e-06,"(0.0, 0.0, 0.0, 0.0, 0.0, 0.0)",-0.1083256720668905,-1.2204570900414513,-9.3211442655613,"(0.0, 0.0, 0.0, 0.0, 0.0, 0.0)",1.4819475463743526,-0.046466145575958295,1.239071567699341,"(0.0, 0.0, 0.0, 0.0, 0.0, 0.0)",0.09166748660725833,False,,,,,False,,,,
15,Open,,,,,,"[-0.026750000193715096, 0.05299999937415123, 0.03999999910593033]","[0.0, -0.0, 1.2108343955497323]","[-0.09413553774356842, 0.07836118340492249, 0.03999999910593033]","[0.0, -0.0, 1.210835255049739]","[0.026750000193715096, 0.05299999937415123, 0.03999999910593033]","[0.0, 0.0, -1.2204571829136446]","[0.09437645971775055, 0.07771158218383789, 0.03999999910593033]","[0.0, 0.0, -1.2669233179031547]",1.2467509226114009,8.619975397029307,"(0.0, 0.0, 0.0, 0.0, 0.0, 0.0)",-1.3836082777937824,9.135722823677317e-07,2.9650129412077397e-06,"(0.0, 0.0, 0.0, 0.0, 0.0, 0.0)",-0.09766941677677543,-1.2554113810373062,-8.38902983900517,"(0.0, 0.0, 0.0, 0.0, 0.0, 0.0)",1.334189480132575,-0.04181961771093252,1.1151666876061868,"(0.0, 0.0, 0.0, 0.0, 0.0, 0.0)",0.08262627878010878,False,,,,,False,,,,
16,Open,,,,,,"[-0.026750000193715096, 0.05299999937415123, 0.03999999910593033]","[0.0, -0.0, 1.2467510110527222]","[-0.09500277042388916, 0.07592508941888809, 0.03999999910593033]","[0.0, -0.0, 1.246751870145374]","[0.026750000193715096, 0.05299999937415123, 0.03999999910593033]","[0.0, 0.0, -1.255411348379259]","[0.09519875049591064, 0.0753331333398819, 0.03999999910593033]","[0.0, 0.0, -1.2972309672073006]",1.2790758303502607,7.757977857326381,"(0.0, 0.0, 0.0, 0.0, 0.0, 0.0)",-1.2456264712746363,2.1141758111398655e-06,0.0002881448469053121,"(0.0, 0.0, 0.0, 0.0, 0.0, 0.0)",-0.088015399348708,-1.2868702429335757,-7.5501268551046525,"(0.0, 0.0, 0.0, 0.0, 0.0, 0.0)",1.2010989712673745,-0.037638748630864464,1.0034085792163332,"(0.0, 0.0, 0.0, 0.0, 0.0, 0.0)",0.07444006052486639,False,,,,,False,,,,
17,Open,,,,,,"[-0.026750000193715096, 0.05299999937415123, 0.03999999910593033]","[0.0, -0.0, 1.2790758758817962]","[-0.09570803493261337, 0.0737072303891182, 0.03999999910593033]","[0.0, -0.0, 1.2790780932516201]","[0.026750000193715096, 0.05299999937415123, 0.03999999910593033]","[0.0, 0.0, -1.2868702529032277]","[0.0958673357963562, 0.07316911965608597, 0.03999999910593033]","[0.0, 0.0, -1.3245087793274308]",1.3081682532711112,6.982181501004109,"(0.0, 0.0, 0.0, 0.0, 0.0, 0.0)",-1.12145472366965,1.9027582300258812e-06,-5.0740219467356254e-05,"(0.0, 0.0, 0.0, 0.0, 0.0, 0.0)",-0.07939114715284208,-1.315183223212741,-6.795115266999686,"(0.0, 0.0, 0.0, 0.0, 0.0, 0.0)",1.0813262344929835,-0.033874873767778015,0.9033299671407473,"(0.0, 0.0, 0.0, 0.0, 0.0, 0.0)",0.06713055017345074,False,,,,,False,,,,
18,Open,,,,,,"[-0.026750000193715096, 0.05299999937415123, 0.03999999910593033]","[0.0, -0.0, 1.3081682459906412]","[-0.09628119319677353, 0.07169260084629059, 0.03999999910593033]","[0.0, -0.0, 1.3081702011658356]","[0.026750000193715096, 0.05299999937415123, 0.03999999910593033]","[0.0, 0.0, -1.3151833180210462]","[0.0964106097817421, 0.07120437920093536, 0.03999999910593033]","[0.0, 0.0, -1.349058153261439]",1.334351427944,6.283961921493333,"(0.0, 0.0, 0.0, 0.0, 0.0, 0.0)",-1.0095234585863413,2.7618377923566443e-06,0.00020617909495938315,"(0.0, 0.0, 0.0, 0.0, 0.0, 0.0)",-0.07148780084672787,-1.3406649008914668,-6.11560264289422,"(0.0, 0.0, 0.0, 0.0, 0.0, 0.0)",0.9733796231570812,-0.030488273507324658,0.8127840625088054,"(0.0, 0.0, 0.0, 0.0, 0.0, 0.0)",0.060435192896783604,False,,,,,False,,,,
19,Open,,,,,,"[-0.026750000193715096, 0.05299999937415123, 0.03999999910593033]","[0.0, -0.0, 1.334351465706577]","[-0.09674673527479172, 0.06986585259437561, 0.03999999910593033]","[0.0, -0.0, 1.33435435145599]","[0.026750000193715096, 0.05299999937415123, 0.03999999910593033]","[0.0, 0.0, -1.3406650641721125]","[0.09685182571411133, 0.06942359358072281, 0.03999999910593033]","[0.0, 0.0, -1.3711530696282732]",1.3579162851496,5.655565729344001,"(0.0, 0.0, 0.0, 0.0, 0.0, 0.0)",-0.9088150211252332,3.4316066113876724e-06,0.0001607445165674468,"(0.0, 0.0, 0.0, 0.0, 0.0, 0.0)",-0.06444344013525093,-1.3635984108023202,-5.504042378604797,"(0.0, 0.0, 0.0, 0.0, 0.0, 0.0)",0.8762522980402716,-0.02744024570882781,0.7315266716392431,"(0.0, 0.0, 0.0, 0.0, 0.0, 0.0)",0.05446985052483407,False,,,,,False,,,,
20,Open,,,,,,"[-0.026750000193715096, 0.05299999937415123, 0.03999999910593033]","[0.0, -0.0, 1.3579163939939654]","[-0.09712471067905426, 0.0682118609547615, 0.03999999910593033]","[0.0, -0.0, 1.3579197824809437]","[0.026750000193715096, 0.05299999937415123, 0.03999999910593033]","[0.0, 0.0, -1.3635984874387626]","[0.09721000492572784, 0.06781173497438431, 0.03999999910593033]","[0.0, 0.0, -1.3910385869420074]",1.37912465663464,5.090009156409601,"(0.0, 0.0, 0.0, 0.0, 0.0, 0.0)",-0.8181093185961676,3.940702417530038e-06,0.0001221829934741677,"(0.0, 0.0, 0.0, 0.0, 0.0, 0.0)",-0.05806034967263589,-1.3842385697220883,-4.953638140744317,"(0.0, 0.0, 0.0, 0.0, 0.0, 0.0)",0.7887791417834831,-0.024696941374704916,0.6583930401894944,"(0.0, 0.0, 0.0, 0.0, 0.0, 0.0)",0.04906644857689494,False,,,,,False,,,,
21,Open,,,,,,"[-0.026750000193715096, 0.05299999937415123, 0.03999999910593033]","[0.0, -0.0, 1.3791247702213432]","[-0.0974314734339714, 0.0667160153388977, 0.03999999910593033]","[0.0, -0.0, 1.3791284782568445]","[0.026750000193715096, 0.05299999937415123, 0.03999999910593033]","[0.0, 0.0, -1.3842387704807777]","[0.09750068932771683, 0.06635437905788422, 0.03999999910593033]","[0.0, 0.0, -1.408935619520831]",1.398212190971176,4.581008240768642,"(0.0, 0.0, 0.0, 0.0, 0.0, 0.0)",-0.7364407507487188,4.314390796743166e-06,8.968521101115077e-05,"(0.0, 0.0, 0.0, 0.0, 0.0, 0.0)",-0.05230389643117988,-1.4028147127498793,-4.458274326669883,"(0.0, 0.0, 0.0, 0.0, 0.0, 0.0)",0.7100243788118592,-0.02222789596809768,0.5925708975857369,"(0.0, 0.0, 0.0, 0.0, 0.0, 0.0)",0.04419507766734469,False,,,,,False,,,,
22,Open,,,,,,"[-0.026750000193715096, 0.05299999937415123, 0.03999999910593033]","[0.0, -0.0, 1.3982120672717784]","[-0.09768038988113403, 0.06536446511745453, 0.03999999910593033]","[0.0, -0.0, 1.3982164487645397]","[0.026750000193715096, 0.05299999937415123, 0.03999999910593033]","[0.0, 0.0, -1.4028147367436141]","[0.09773654490709305, 0.06503787636756897, 0.03999999910593033]","[0.0, 0.0, -1.4250426427007885]",1.4153909718740585,4.122907416691778,"(0.0, 0.0, 0.0, 0.0, 0.0, 0.0)",-0.6629119687698639,4.574523674952359e-06,6.243189077020624e-05,"(0.0, 0.0, 0.0, 0.0, 0.0, 0.0)",-0.04711364623212332,-1.4195332414748913,-4.012446894002898,"(0.0, 0.0, 0.0, 0.0, 0.0, 0.0)",0.6391216750959775,-0.02000569064819732,0.5333292767760867,"(0.0, 0.0, 0.0, 0.0, 0.0, 0.0)",0.039804123486470444,False,,,,,False,,,,
23,Open,,,,,,"[-0.026750000193715096, 0.05299999937415123, 0.03999999910593033]","[0.0, -0.0, 1.415391158105469]","[-0.09788231551647186, 0.06414420157670975, 0.03999999910593033]","[0.0, -0.0, 1.415395709317307]","[0.026750000193715096, 0.05299999937415123, 0.03999999910593033]","[0.0, 0.0, -1.419533200978404]","[0.09792786836624146, 0.06384945660829544, 0.03999999910593033]","[0.0, 0.0, -1.4395389386881268]",1.4308518746866525,3.7106166750225977,"(0.0, 0.0, 0.0, 0.0, 0.0, 0.0)",-0.5967141397561109,4.7399630338636504e-06,3.9705446138709865e-05,"(0.0, 0.0, 0.0, 0.0, 0.0, 0.0)",-0.042434775014060074,-1.4345799173274023,-3.611202204602609,"(0.0, 0.0, 0.0, 0.0, 0.0, 0.0)",0.5752902758042565,-0.018005647771851804,0.4800102903229233,"(0.0, 0.0, 0.0, 0.0, 0.0, 0.0)",0.0358468230863414,False,,,,,False,,,,
24,Open,,,,,,"[-0.026750000193715096, 0.05299999937415123, 0.03999999910593033]","[0.0, -0.0, 1.4308518944899675]","[-0.09804610908031464, 0.06304314732551575, 0.03999999910593033]","[0.0, -0.0, 1.4308566269594332]","[0.026750000193715096, 0.05299999937415123, 0.03999999910593033]","[0.0, 0.0, -1.4345798203875788]","[0.09808305650949478, 0.06277728080749512, 0.03999999910593033]","[0.0, 0.0, -1.4525855975984745]",1.4447666872179874,3.339555007520341,"(0.0, 0.0, 0.0, 0.0, 0.0, 0.0)",-0.5371183361845069,4.8269553674989e-06,2.0878160072459843e-05,"(0.0, 0.0, 0.0, 0.0, 0.0, 0.0)",-0.03821759960562203,-1.448121925594662,-3.2500819841423465,"(0.0, 0.0, 0.0, 0.0, 0.0, 0.0)",0.5178266556878065,-0.016205556838873442,0.4320218239148067,"(0.0, 0.0, 0.0, 0.0, 0.0, 0.0)",0.0322808466635012,False,,,,,False,,,,
25,Open,,,,,,"[-0.026750000193715096, 0.05299999937415123, 0.03999999910593033]","[0.0, -0.0, 1.4447668540021588]","[-0.09817895293235779, 0.06205013021826744, 0.03999999910593033]","[0.0, -0.0, 1.4447715863131299]","[0.026750000193715096, 0.05299999937415123, 0.03999999910593033]","[0.0, 0.0, -1.448121993206969]","[0.09820891171693802, 0.06181041896343231, 0.03999999910593033]","[0.0, 0.0, -1.46432761016298]",1.4572900184961886,3.005599506768304,"(0.0, 0.0, 0.0, 0.0, 0.0, 0.0)",-0.483467731204937,4.849462099751187e-06,5.401615740548756e-06,"(0.0, 0.0, 0.0, 0.0, 0.0, 0.0)",-0.03441712855198442,-1.4603097330351957,-2.925073785728113,"(0.0, 0.0, 0.0, 0.0, 0.0, 0.0)",0.4660969568661882,-0.014585427836986846,0.38883096045278315,"(0.0, 0.0, 0.0, 0.0, 0.0, 0.0)",0.029067900465992856,False,,,,,False,,,,
26,Open,,,,,,"[-0.026750000193715096, 0.05299999937415123, 0.03999999910593033]","[0.0, -0.0, 1.4572900807517244]","[-0.0982866883277893, 0.061154916882514954, 0.03999999910593033]","[0.0, -0.0, 1.4572948921008348]","[0.026750000193715096, 0.05299999937415123, 0.03999999910593033]","[0.0, 0.0, -1.4603097470714805]","[0.09831098467111588, 0.06093886122107506, 0.03999999910593033]","[0.0, 0.0, -1.4748951413427742]",1.4685610166465697,2.705039556091476,"(0.0, 0.0, 0.0, 0.0, 0.0, 0.0)",-0.43517053908893033,4.819450845044722e-06,-7.202701129551542e-06,"(0.0, 0.0, 0.0, 0.0, 0.0, 0.0)",-0.030992645518402973,-1.471278759731676,-2.632566407155304,"(0.0, 0.0, 0.0, 0.0, 0.0, 0.0)",0.4195301522878829,-0.013127269246907155,0.3499580616191257,"(0.0, 0.0, 0.0, 0.0, 0.0, 0.0)",0.02617336062226555,False,,,,,False,,,,
27,Open,,,,,,"[-0.026750000193715096, 0.05299999937415123, 0.03999999910593033]","[0.0, -0.0, 1.4685611215819594]","[-0.09837405383586884, 0.06034812703728676, 0.03999999910593033]","[0.0, -0.0, 1.468565853091142]","[0.026750000193715096, 0.05299999937415123, 0.03999999910593033]","[0.0, 0.0, -1.4712788457263521]","[0.0983937606215477, 0.06015344336628914, 0.03999999910593033]","[0.0, 0.0, -1.4844061039497418]",1.4787049149819127,2.434535600482329,"(0.0, 0.0, 0.0, 0.0, 0.0, 0.0)",-0.39169363303347604,4.747151892642784e-06,-1.7351748576465223e-05,"(0.0, 0.0, 0.0, 0.0, 0.0, 0.0)",-0.02790732436186781,-1.4811508837585086,-2.3693097664397755,"(0.0, 0.0, 0.0, 0.0, 0.0, 0.0)",0.37761186810531283,-0.011814888241968555,0.3149714411852639,"(0.0, 0.0, 0.0, 0.0, 0.0, 0.0)",0.023565936472848985,False,,,,,False,,,,
28,Open,,,,,,"[-0.026750000193715096, 0.05299999937415123, 0.03999999910593033]","[0.0, -0.0, 1.4787049625213984]","[-0.09844490885734558, 0.059621214866638184, 0.03999999910593033]","[0.0, -0.0, 1.4787095898811649]","[0.026750000193715096, 0.05299999937415123, 0.03999999910593033]","[0.0, 0.0, -1.4811508165812142]","[0.09846089035272598, 0.059445831924676895, 0.03999999910593033]","[0.0, 0.0, -1.492965762433775]",1.4878344234837215,2.191082040434097,"(0.0, 0.0, 0.0, 0.0, 0.0, 0.0)",-0.35255677801820895,4.641283838470101e-06,-2.5408333001444004e-05,"(0.0, 0.0, 0.0, 0.0, 0.0, 0.0)",-0.02512787460267613,-1.4900357953826577,-2.132378789795796,"(0.0, 0.0, 0.0, 0.0, 0.0, 0.0)",0.33987880377374147,-0.010633710863257649,0.2834825708906175,"(0.0, 0.0, 0.0, 0.0, 0.0, 0.0)",0.021217361806457186,False,,,,,False,,,,
29,Close,,,"(0.010000165031897679, 0.16000264050809818, 0.003919197399597577)","(-5.388791991209616e-05, 3.3679978815229247e-06, -9.074720008653711e-11)",,"[-0.026750000193715096, 0.05299999937415123, 0.03999999910593033]","[0.0, -0.0, 1.487834617901085]","[-0.09850236773490906, 0.05896640568971634, 0.03999999910593033]","[0.0, -0.0, 1.4878390921106803]","[0.026750000193715096, 0.05299999937415123, 0.03999999910593033]","[0.0, 0.0, -1.4900358577435544]","[0.09851532429456711, 0.05880843847990036, 0.03999999910593033]","[0.0, 0.0, -1.5006695807985118]",1.4960509811353493,1.9719738363906854,"(0.0, 0.0, 0.0, 0.0, 0.0, 0.0)",-0.3173274216127963,4.509251873886308e-06,-3.168767150011037e-05,"(0.0, 0.0, 0.0, 0.0, 0.0, 0.0)",-0.022624215793833224,-1.498032215844392,-1.9191409108162163,"(0.0, 0.0, 0.0, 0.0, 0.0, 0.0)",0.30591369390909257,-0.00957062017308593,0.2551417656412126,"(0.0, 0.0, 0.0, 0.0, 0.0, 0.0)",0.019102112305110365,False,,,,,False,,,,
30,Close,,,"(0.010000330010418335, 0.1600052801621647, 0.0076635160840755065)","(-0.00010776674212266888, 6.7354271463595154e-06, -3.629275205618536e-10)",,"[-0.026750000193715096, 0.05299999937415123, 0.03999999910593033]","[0.0, -0.0, 1.4960509653323988]","[-0.09854896366596222, 0.058376654982566833, 0.03999999910593033]","[0.0, -0.0, 1.4960555203126162]","[0.026750000193715096, 0.05299999937415123, 0.03999999910593033]","[0.0, 0.0, -1.4980320325532246]","[0.09855947643518448, 0.05823439359664917, 0.03999999910593033]","[0.0, 0.0, -1.5076028800413472]",1.4064458830218143,-21.505223547248388,"(0.0, 0.0, 0.0, 0.0, 0.0, 0.0)",-36.32500847077206,-0.08999559064729075,-21.600023975799512,"(0.0, 0.0, 0.0, 0.0, 0.0, 0.0)",-4.679136399120495,-1.4082289942599528,21.552773180265405,"(0.0, 0.0, 0.0, 0.0, 0.0, 0.0)",36.31473208701179,0.08138609105625041,21.82961069504072,"(0.0, 0.0, 0.0, 0.0, 0.0, 0.0)",4.675963213372079,False,,,,,False,,,,
31,Close,,,"(0.010000494936733278, 0.16000791898094055, 0.011233038807318392)","(-0.00016163646818851668, 1.0102287881965475e-05, -8.164490687548302e-10)",,"[-0.026750000193715096, 0.05299999937415123, 0.03999999910593033]","[0.0, -0.0, 1.4064459844712927]","[-0.0977797880768776, 0.06478003412485123, 0.03999999910593033]","[0.0, -0.0, 1.316450240076391]","[0.026750000193715096, 0.05299999937415123, 0.03999999910593033]","[0.0, 0.0, -1.4082291009672807]","[0.09780067950487137, 0.06465335935354233, 0.03999999910593033]","[0.0, 0.0, -1.3268428349863826]",1.325801294719633,-19.354701192523546,"(0.0, 0.0, 0.0, 0.0, 0.0, 0.0)",3.2936342521930255,-0.17099646652613912,-19.44021021092361,"(0.0, 0.0, 0.0, 0.0, 0.0, 0.0)",0.4145426679866387,-1.3274060948339577,19.39749586223887,"(0.0, 0.0, 0.0, 0.0, 0.0, 0.0)",-3.3024243844052092,0.16324791947241268,19.646838819878944,"(0.0, 0.0, 0.0, 0.0, 0.0, 0.0)",-0.41699994760359754,False,,,,,False,,,,
32,Close,,,"(0.010000659812012168, 0.16001055698314023, 0.0146278458391823)","(-0.0002154970996661642, 1.346858017578936e-05, -1.4512199879406586e-09)",,"[-0.026750000193715096, 0.05299999937415123, 0.03999999910593033]","[0.0, -0.0, 1.3258013857525741]","[-0.09659997373819351, 0.07046370953321457, 0.03999999910593033]","[0.0, -0.0, 1.1548048042561467]","[0.026750000193715096, 0.05299999937415123, 0.03999999910593033]","[0.0, 0.0, -1.3274060658778382]","[0.09662791341543198, 0.07035159319639206, 0.03999999910593033]","[0.0, 0.0, -1.1641581075845935]",1.2532211652476697,-17.41923107327119,"(0.0, 0.0, 0.0, 0.0, 0.0, 0.0)",2.9685258329366073,-0.24389721437960032,-17.496179484830687,"(0.0, 0.0, 0.0, 0.0, 0.0, 0.0)",0.3760018756193849,-1.2546654853505619,17.457746276014984,"(0.0, 0.0, 0.0, 0.0, 0.0, 0.0)",-2.976480273609718,0.2369235243908578,17.682145180426822,"(0.0, 0.0, 0.0, 0.0, 0.0, 0.0)",-0.3782508099482112,False,,,,,False,,,,
33,Close,,,"(0.010000824637423049, 0.16001319418745247, 0.017848014970055004)","(-0.00026934863811186216, 1.6834304115272585e-05, -2.2671484573282825e-09)",,"[-0.026750000193715096, 0.05299999937415123, 0.03999999910593033]","[0.0, -0.0, 1.2532212515508983]","[-0.09514966607093811, 0.07548300176858902, 0.03999999910593033]","[0.0, -0.0, 1.0093239867956962]","[0.026750000193715096, 0.05299999937415123, 0.03999999910593033]","[0.0, 0.0, -1.254665405963893]","[0.09518206864595413, 0.07538418471813202, 0.03999999910593033]","[0.0, 0.0, -1.0177419933055243]",1.1878990487229026,-15.677307965944074,"(0.0, 0.0, 0.0, 0.0, 0.0, 0.0)",2.675103284419244,-0.30950785045582774,-15.746552658294572,"(0.0, 0.0, 0.0, 0.0, 0.0, 0.0)",0.34074508229325023,-1.1891989368155058,15.711971648413485,"(0.0, 0.0, 0.0, 0.0, 0.0, 0.0)",-2.6822973218910153,0.30323153162132754,15.913921735312746,"(0.0, 0.0, 0.0, 0.0, 0.0, 0.0)",-0.34279935345822066,False,,,,,False,,,,
34,Close,,,"(0.010000989414132393, 0.1600158306125408, 0.020893621515273818)","(-0.00032319108508158773, 2.0199459787849396e-05, -3.2641426920478403e-09)",,"[-0.026750000193715096, 0.05299999937415123, 0.03999999910593033]","[0.0, -0.0, 1.1878990574339587]","[-0.09353619813919067, 0.07989988476037979, 0.03999999910593033]","[0.0, -0.0, 0.8783912846834516]","[0.026750000193715096, 0.05299999937415123, 0.03999999910593033]","[0.0, 0.0, -1.1891990098250689]","[0.09357111155986786, 0.07981304824352264, 0.03999999910593033]","[0.0, 0.0, -0.8859674697633095]",1.1291091438506125,-14.109577169349663,"(0.0, 0.0, 0.0, 0.0, 0.0, 0.0)",2.4103712722760626,-0.36855738916456426,-14.17188929009676,"(0.0, 0.0, 0.0, 0.0, 0.0, 0.0)",0.3085687115248564,-1.1302790431339553,14.140774483572143,"(0.0, 0.0, 0.0, 0.0, 0.0, 0.0)",-2.4168742890236286,0.36290870417903687,14.322521413850238,"(0.0, 0.0, 0.0, 0.0, 0.0, 0.0)",-0.31044204201279674,False,,,,,False,,,,
35,Close,,,"(0.010001154143305145, 0.16001846627704427, 0.023764738319401603)","(-0.00037702444213104407, 2.3564047280946926e-05, -4.4421109431381166e-09)",,"[-0.026750000193715096, 0.05299999937415123, 0.03999999910593033]","[0.0, -0.0, 1.1291090274464952]","[-0.09184028208255768, 0.08377750217914581, 0.03999999910593033]","[0.0, -0.0, 0.7605517150898052]","[0.026750000193715096, 0.05299999937415123, 0.03999999910593033]","[0.0, 0.0, -1.130279133319625]","[0.09187624603509903, 0.08370133489370346, 0.03999999910593033]","[0.0, 0.0, -0.7673703325611945]",1.0761982294655512,-12.698619452414698,"(0.0, 0.0, 0.0, 0.0, 0.0, 0.0)",2.1715845710489208,-0.42170194324014043,-12.754692978138287,"(0.0, 0.0, 0.0, 0.0, 0.0, 0.0)",0.27924932151422227,-1.07725113882056,12.72669703521493,"(0.0, 0.0, 0.0, 0.0, 0.0, 0.0)",-2.177460276301377,0.41661812854294633,12.890261847338277,"(0.0, 0.0, 0.0, 0.0, 0.0, 0.0)",-0.2809551529003472,False,,,,,False,,,,
36,Close,,,"(0.010001318826104761, 0.16002110119957821, 0.02646143576036139)","(-0.0004308487108156613, 2.692806668198511e-05, -5.800961497533997e-09)",,"[-0.026750000193715096, 0.05299999937415123, 0.03999999910593033]","[0.0, -0.0, 1.076198055145404]","[-0.09012148529291153, 0.08717681467533112, 0.03999999910593033]","[0.0, -0.0, 0.6544962762796218]","[0.026750000193715096, 0.05299999937415123, 0.03999999910593033]","[0.0, 0.0, -1.0772510781061955]","[0.09015743434429169, 0.08711007237434387, 0.03999999910593033]","[0.0, 0.0, -0.6606329452337051]",1.028578406518996,-11.428757507173229,"(0.0, 0.0, 0.0, 0.0, 0.0, 0.0)",1.9562489498726314,-0.46953201391559385,-11.479216962108818,"(0.0, 0.0, 0.0, 0.0, 0.0, 0.0)",0.2525697399559188,-1.0295260249385039,11.454027331693439,"(0.0, 0.0, 0.0, 0.0, 0.0, 0.0)",-1.961555706583625,0.46495658231577774,11.601228905479532,"(0.0, 0.0, 0.0, 0.0, 0.0, 0.0)",-0.25412105363877113,False,,,,,False,,,,
37,Close,,,"(0.010001483463693249, 0.1600237353987347, 0.0289837817534302)","(-0.0004846638926905951, 3.0291518078376737e-05, -7.3406026780539124e-09)",,"[-0.026750000193715096, 0.05299999937415123, 0.03999999910593033]","[0.0, -0.0, 1.028578444789276]","[-0.08842276781797409, 0.09015467017889023, 0.03999999910593033]","[0.0, -0.0, 0.5590464126725148]","[0.026750000193715096, 0.05299999937415123, 0.03999999910593033]","[0.0, 0.0, -1.029526007298545]","[0.08845794945955276, 0.09009620547294617, 0.03999999910593033]","[0.0, 0.0, -0.564569399435659]",0.9857205658670964,-10.285881756455906,"(0.0, 0.0, 0.0, 0.0, 0.0, 0.0)",1.7621005438122825,-0.5125790520819234,-10.331289159919107,"(0.0, 0.0, 0.0, 0.0, 0.0, 0.0)",0.22832149176550065,-0.9865734224446535,10.308624598524094,"(0.0, 0.0, 0.0, 0.0, 0.0, 0.0)",-1.766891708603882,0.508461165120635,10.441099873165749,"(0.0, 0.0, 0.0, 0.0, 0.0, 0.0)",-0.22973068702752517,False,,,,,False,,,,
38,Close,,,"(0.010001648057231211, 0.16002636889308344, 0.03133184175509247)","(-0.0005384699893107284, 3.3654401557527444e-05, -9.06094284338731e-09)",,"[-0.026750000193715096, 0.05299999937415123, 0.03999999910593033]","[0.0, -0.0, 0.9857205423734198]","[-0.08677425980567932, 0.09276290237903595, 0.03999999910593033]","[0.0, -0.0, 0.47314147483112123]","[0.026750000193715096, 0.05299999937415123, 0.03999999910593033]","[0.0, 0.0, -0.9865734261287252]","[0.08680814504623413, 0.09271169453859329, 0.03999999910593033]","[0.0, 0.0, -0.4781122693565934]",0.9471485092803869,-9.257293580810316,"(0.0, 0.0, 0.0, 0.0, 0.0, 0.0)",1.587086438141582,-0.5513213633331018,-9.29815470028281,"(0.0, 0.0, 0.0, 0.0, 0.0, 0.0)",0.206306403170868,-0.9479160802001881,9.277762138671687,"(0.0, 0.0, 0.0, 0.0, 0.0, 0.0)",-1.5914107042435905,0.5476152664096928,9.396984309373877,"(0.0, 0.0, 0.0, 0.0, 0.0, 0.0)",-0.2075852193448244,False,,,,,False,,,,
39,Close,,,"(0.01000181260787789, 0.16002900170117218, 0.03350567876675359)","(-0.00059226700223067, 3.7016717206835695e-05, -1.0961890388082131e-08)",,"[-0.026750000193715096, 0.05299999937415123, 0.03999999910593033]","[0.0, -0.0, 0.9471486716739237]","[-0.08519625663757324, 0.09504801034927368, 0.03999999910593033]","[0.0, -0.0, 0.39582717163487297]","[0.026750000193715096, 0.05299999937415123, 0.03999999910593033]","[0.0, 0.0, -0.9479160840165974]","[0.08522851020097733, 0.09500313550233841, 0.03999999910593033]","[0.0, 0.0, -0.4003008647547732]",0.9124336583523481,-8.331564222729286,"(0.0, 0.0, 0.0, 0.0, 0.0, 0.0)",1.4293465062267445,-0.5861894225076075,-8.368334201881392,"(0.0, 0.0, 0.0, 0.0, 0.0, 0.0)",0.18633757536892917,-0.9131244721801693,8.349985924804516,"(0.0, 0.0, 0.0, 0.0, 0.0, 0.0)",-1.433248242084051,0.5828539364930729,8.45728082001123,"(0.0, 0.0, 0.0, 0.0, 0.0, 0.0)",-0.18749704763631705,False,,,,,False,,,,
40,Close,,,"(0.010001977116791199, 0.1600316338415276, 0.035505353338314005)","(-0.0006460549330047555, 4.037846511369274e-05, -1.3043353742532214e-08)",,"[-0.026750000193715096, 0.05299999937415123, 0.03999999910593033]","[0.0, -0.0, 0.9124336635104583]","[-0.08370164036750793, 0.0970512256026268, 0.03999999910593033]","[0.0, -0.0, 0.3262442150321584]","[0.026750000193715096, 0.05299999937415123, 0.03999999910593033]","[0.0, 0.0, -0.9131245532476111]","[0.08373206108808517, 0.09701187163591385, 0.03999999910593033]","[0.0, 0.0, -0.3302705841133475]",0.8811902925171133,-7.498407800456356,"(0.0, 0.0, 0.0, 0.0, 0.0, 0.0)",1.2871965063691413,-0.6175706567763247,-7.531496224492115,"(0.0, 0.0, 0.0, 0.0, 0.0, 0.0)",0.16823988009592084,-0.8818120249621524,7.514987332324067,"(0.0, 0.0, 0.0, 0.0, 0.0, 0.0)",-1.2907160846573733,0.6145687204653795,7.61154815335357,"(0.0, 0.0, 0.0, 0.0, 0.0, 0.0)",-0.16929032064296096,False,,,,,False,,,,
41,Close,,,"(0.010002141585127773, 0.16003426533265583, 0.03733092357160428)","(-0.0006998337831870475, 4.3739645365482716e-05, -1.5305241372964883e-08)",,"[-0.026750000193715096, 0.05299999937415123, 0.03999999910593033]","[0.0, -0.0, 0.8811903688816151]","[-0.08229776471853256, 0.09880879521369934, 0.03999999910593033]","[0.0, -0.0, 0.2636196251065186]","[0.026750000193715096, 0.05299999937415123, 0.03999999910593033]","[0.0, 0.0, -0.8818121535754343]","[0.08232623338699341, 0.098774254322052, 0.03999999910593033]","[0.0, 0.0, -0.26724331826119446]",0.853071263265402,-6.7485670204107215,"(0.0, 0.0, 0.0, 0.0, 0.0, 0.0)",1.1591124175888132,-0.6458137504217961,-6.77834247491313,"(0.0, 0.0, 0.0, 0.0, 0.0, 0.0)",0.1518500972569631,-0.8536308224659371,6.763488599091658,"(0.0, 0.0, 0.0, 0.0, 0.0, 0.0)",-1.1622865309865396,0.643112008739745,6.850389185847702,"(0.0, 0.0, 0.0, 0.0, 0.0, 0.0)",-0.15280109527428076,False,,,,,False,,,,
42,Close,,,"(0.010002306014043007, 0.16003689619304312, 0.038982445123681576)","(-0.0007536035543313348, 4.7100258049582536e-05, -1.7747461781428295e-08)",,"[-0.026750000193715096, 0.05299999937415123, 0.03999999910593033]","[0.0, -0.0, 0.8530713239495782]","[-0.08098787814378738, 0.10035242885351181, 0.03999999910593033]","[0.0, -0.0, 0.2072574956851119]","[0.026750000193715096, 0.05299999937415123, 0.03999999910593033]","[0.0, 0.0, -0.8536307856313979]","[0.08101436495780945, 0.10032207518815994, 0.03999999910593033]","[0.0, 0.0, -0.21051882644475053]",0.8277641369388617,-6.073710318369648,"(0.0, 0.0, 0.0, 0.0, 0.0, 0.0)",1.043715976216214,-0.6712325191394197,-6.100504492229669,"(0.0, 0.0, 0.0, 0.0, 0.0, 0.0)",0.1370167890019201,-0.8282677402193435,6.0871397391824935,"(0.0, 0.0, 0.0, 0.0, 0.0, 0.0)",-1.0465779375227178,0.6688009525283538,6.165346509266115,"(0.0, 0.0, 0.0, 0.0, 0.0, 0.0)",-0.1378772244212715,False,,,,,False,,,,
43,Close,,,"(0.010002470404691093, 0.16003952644115657, 0.04045997120998789)","(-0.0008073642479911328, 5.0460303253361964e-05, -2.0369923505779015e-08)",,"[-0.026750000193715096, 0.05299999937415123, 0.03999999910593033]","[0.0, -0.0, 0.8277641182932235]","[-0.07977228611707687, 0.10170972347259521, 0.03999999910593033]","[0.0, -0.0, 0.1565316389415725]","[0.026750000193715096, 0.05299999937415123, 0.03999999910593033]","[0.0, 0.0, -0.8282677342123946]","[0.07979680597782135, 0.10168302059173584, 0.03999999910593033]","[0.0, 0.0, -0.1594667900835625]",0.8049877232449756,-5.4663392865326825,"(0.0, 0.0, 0.0, 0.0, 0.0, 0.0)",0.9397613626777375,-0.6941093969081942,-5.49045066450586,"(0.0, 0.0, 0.0, 0.0, 0.0, 0.0)",0.12359998406321729,-0.8054409661974091,5.478425765264244,"(0.0, 0.0, 0.0, 0.0, 0.0, 0.0)",-0.9423413878167864,0.6919209877745929,5.54880845909737,"(0.0, 0.0, 0.0, 0.0, 0.0, 0.0)",-0.12437805104754245,False,,,,,False,,,,
44,Close,,,"(0.010002634758225062, 0.1600421560954447, 0.041763552607370504)","(-0.000861115865719684, 5.381978106418352e-05, -2.3172535119669436e-08)",,"[-0.026750000193715096, 0.05299999937415123, 0.03999999910593033]","[0.0, -0.0, 0.8049877164750058]","[-0.07864919304847717, 0.10290464758872986, 0.03999999910593033]","[0.0, -0.0, 0.11087832859978779]","[0.026750000193715096, 0.05299999937415123, 0.03999999910593033]","[0.0, 0.0, -0.805440964305088]","[0.07867180556058884, 0.10288111865520477, 0.03999999910593033]","[0.0, 0.0, -0.11351997099607207]",0.784488950920478,-4.919705357879415,"(0.0, 0.0, 0.0, 0.0, 0.0, 0.0)",0.8461229797239068,-0.7146985741739192,-4.941402543774016,"(0.0, 0.0, 0.0, 0.0, 0.0, 0.0)",0.11147072977230046,-0.7848968695776682,4.93058318873782,"(0.0, 0.0, 0.0, 0.0, 0.0, 0.0)",-0.8484484528940599,0.7127290066915236,4.993924540063379,"(0.0, 0.0, 0.0, 0.0, 0.0, 0.0)",-0.1121739668696123,False,,,,,False,,,,
45,Close,,,"(0.010002799075796832, 0.16004478517433812, 0.04289323765696492)","(-0.0009148584090699577, 5.7178691569402595e-05, -2.615520523253533e-08)",,"[-0.026750000193715096, 0.05299999937415123, 0.03999999910593033]","[0.0, -0.0, 0.7844889896573499]","[-0.07761538028717041, 0.10395795851945877, 0.03999999910593033]","[0.0, -0.0, 0.06979037514545033]","[0.026750000193715096, 0.05299999937415123, 0.03999999910593033]","[0.0, 0.0, -0.7848969068252226]","[0.07763615995645523, 0.10393720120191574, 0.03999999910593033]","[0.0, 0.0, -0.07216786709232846]",0.7660400558284302,-4.427734822091471,"(0.0, 0.0, 0.0, 0.0, 0.0, 0.0)",0.7617842585328375,-0.7332288222135146,-4.44725952950288,"(0.0, 0.0, 0.0, 0.0, 0.0, 0.0)",0.10051055612556806,-0.7664071826199014,4.437524869864038,"(0.0, 0.0, 0.0, 0.0, 0.0, 0.0)",-0.7638799793048979,0.7314562121459494,4.494529309062177,"(0.0, 0.0, 0.0, 0.0, 0.0, 0.0)",-0.10114588070786824,False,,,,,False,,,,
46,Close,,,"(0.010002963358557236, 0.16004741369625017, 0.04384907226694074)","(-0.0009685918795946493, 6.053703485636736e-05, -2.9317842489583264e-08)",,"[-0.026750000193715096, 0.05299999937415123, 0.03999999910593033]","[0.0, -0.0, 0.7660400058439011]","[-0.07666666060686111, 0.10488764196634293, 0.03999999910593033]","[0.0, -0.0, 0.0328112365488731]","[0.026750000193715096, 0.05299999937415123, 0.03999999910593033]","[0.0, 0.0, -0.7664072421942376]","[0.07668570429086685, 0.1048693135380745, 0.03999999910593033]","[0.0, 0.0, -0.03495097036229706]",0.7494360502455871,-3.984961339882325,"(0.0, 0.0, 0.0, 0.0, 0.0, 0.0)",0.6858274268188955,-0.7499060350622873,-4.002531083705426,"(0.0, 0.0, 0.0, 0.0, 0.0, 0.0)",0.09061088591719418,-0.7497664643579113,3.9937723828776335,"(0.0, 0.0, 0.0, 0.0, 0.0, 0.0)",-0.6877158393779155,0.7483106866034595,4.045073869802414,"(0.0, 0.0, 0.0, 0.0, 0.0, 0.0)",-0.09118463108881669,False,,,,,False,,,,
47,Close,,,"(0.010003127607656072, 0.16005004167957756, 0.04463109991511072)","(-0.0010223162788461832, 6.389481101241881e-05, -3.266035557177819e-08)",,"[-0.026750000193715096, 0.05299999937415123, 0.03999999910593033]","[0.0, -0.0, 0.7494360616149593]","[-0.07579827308654785, 0.1057092696428299, 0.03999999910593033]","[0.0, 0.0, -0.00046998485639781964]","[0.026750000193715096, 0.05299999937415123, 0.03999999910593033]","[0.0, 0.0, -0.7497665229086657]","[0.07581568509340286, 0.10569305717945099, 0.03999999910593033]","[0.0, 0.0, -0.0014557777936095985]",0.7344924452210284,-3.5864652058940925,"(0.0, 0.0, 0.0, 0.0, 0.0, 0.0)",0.6173964503690262,-0.7649166300024903,-3.602542785648727,"(0.0, 0.0, 0.0, 0.0, 0.0, 0.0)",0.08164469448201127,-0.7347898179221202,3.594395144589871,"(0.0, 0.0, 0.0, 0.0, 0.0, 0.0)",-0.61909767957405,0.7634808239898891,3.6408329727431203,"(0.0, 0.0, 0.0, 0.0, 0.0, 0.0)",-0.08216247127692902,False,,,,,False,,,,
48,Close,,,"(0.010003291824242136, 0.16005266914270105, 0.04523936165140331)","(-0.0010760316083767074, 6.725202012489063e-05, -3.618265319583079e-08)",,"[-0.026750000193715096, 0.05299999937415123, 0.03999999910593033]","[0.0, -0.0, 0.7344924171356654]","[-0.07500515878200531, 0.10643631219863892, 0.03999999910593033]","[0.0, 0.0, -0.03042418292779103]","[0.026750000193715096, 0.05299999937415123, 0.03999999910593033]","[0.0, 0.0, -0.7347898072320369]","[0.07502105087041855, 0.10642196238040924, 0.03999999910593033]","[0.0, -0.0, 0.028691003185096618]",0.7210432006989256,-3.227818685304683,"(0.0, 0.0, 0.0, 0.0, 0.0, 0.0)",0.5558325671900768,-0.77842604750784,-3.2422602012839143,"(0.0, 0.0, 0.0, 0.0, 0.0, 0.0)",0.07360992294062317,-0.7213108361299082,3.234955630130884,"(0.0, 0.0, 0.0, 0.0, 0.0, 0.0)",-0.5573653507703412,0.7771338289584356,3.2767211924511668,"(0.0, 0.0, 0.0, 0.0, 0.0, 0.0)",-0.07407739542501454,False,,,,,False,,,,
49,Close,,,"(0.010003456009463264, 0.16005529610398603, 0.04567389610019914)","(-0.0011297378697381003, 7.060866228110946e-05, -3.988464411418517e-08)",,"[-0.026750000193715096, 0.05299999937415123, 0.03999999910593033]","[0.0, -0.0, 0.7210432248946826]","[-0.07428213953971863, 0.10708045959472656, 0.03999999910593033]","[0.0, 0.0, -0.05738284539856889]","[0.026750000193715096, 0.05299999937415123, 0.03999999910593033]","[0.0, 0.0, -0.7213108742429458]","[0.07429660856723785, 0.10706773400306702, 0.03999999910593033]","[0.0, -0.0, 0.0558229905847104]",0.708938880629033,-2.905036816774215,"(0.0, 0.0, 0.0, 0.0, 0.0, 0.0)",0.5003668258645501,-0.7905844163893876,-2.9180085315714246,"(0.0, 0.0, 0.0, 0.0, 0.0, 0.0)",0.06632913423961855,-0.7091797525169173,2.911460067117798,"(0.0, 0.0, 0.0, 0.0, 0.0, 0.0)",-0.5017475327577147,0.7894214258858812,2.9490232625869344,"(0.0, 0.0, 0.0, 0.0, 0.0, 0.0)",-0.06675089596581112,False,,,,,False,,,,
50,Close,,,"(0.010001644182078712, 0.16005595153396976, 0.045940321410535084)","(-0.0011271805217326655, 1.767785898679914e-05, -1.508889111938428e-08)",,"[-0.026750000193715096, 0.05299999937415123, 0.03999999910593033]","[0.0, -0.0, 0.7089389671526269]","[-0.07362406700849533, 0.10765182226896286, 0.03999999910593033]","[0.0, 0.0, -0.08164554069303018]","[0.026750000193715096, 0.05299999937415123, 0.03999999910593033]","[0.0, 0.0, -0.7091797033714331]","[0.0736372321844101, 0.10764053463935852, 0.03999999910593033]","[0.0, -0.0, 0.08024167743029369]",0.6980449925661297,-2.6145331350967917,"(0.0, 0.0, 0.0, 0.0, 0.0, 0.0)",0.4504252929298086,-0.8015268519725993,-2.6261845399708146,"(0.0, 0.0, 0.0, 0.0, 0.0, 0.0)",0.059761147909024356,-0.6982617772652256,2.6203140604060167,"(0.0, 0.0, 0.0, 0.0, 0.0, 0.0)",-0.4516689022418484,0.8004801661036254,2.6540976522586175,"(0.0, 0.0, 0.0, 0.0, 0.0, 0.0)",-0.06014157277442886,False,,,,,False,,,,
51,Close,,,"(0.009998458164918766, 0.16005543218265145, 0.046184544665354044)","(-0.001116587313714928, -4.731063982249702e-05, 3.3486629919706074e-09)",,"[-0.026750000193715096, 0.05299999937415123, 0.03999999910593033]","[0.0, -0.0, 0.6980450466292163]","[-0.07302592694759369, 0.10815921425819397, 0.03999999910593033]","[0.0, 0.0, -0.1034818592301779]","[0.026750000193715096, 0.05299999937415123, 0.03999999910593033]","[0.0, 0.0, -0.6982617371246688]","[0.07303788512945175, 0.10814917832612991, 0.03999999910593033]","[0.0, -0.0, 0.10221840210156648]",0.6882404933095168,-2.3530798215871136,"(0.0, 0.0, 0.0, 0.0, 0.0, 0.0)",0.40545980991383274,-0.8113749570468809,-2.3635452178275753,"(0.0, 0.0, 0.0, 0.0, 0.0, 0.0)",0.0538375991228723,-0.688435599538703,2.358282654365416,"(0.0, 0.0, 0.0, 0.0, 0.0, 0.0)",-0.4065798463491374,0.810432944800545,2.3886668872606847,"(0.0, 0.0, 0.0, 0.0, 0.0, 0.0)",-0.0541806611811555,False,,,,,False,,,,
52,Close,,,"(0.0099979269032565, 0.16005188637635104, 0.04640949954916324)","(-0.0010442772263960227, -5.814874739306873e-05, 7.787963860925158e-09)",,"[-0.026750000193715096, 0.05299999937415123, 0.03999999910593033]","[0.0, -0.0, 0.688240548987758]","[-0.07248289883136749, 0.10861026495695114, 0.03999999910593033]","[0.0, 0.0, -0.12313446206189271]","[0.026750000193715096, 0.05299999937415123, 0.03999999910593033]","[0.0, 0.0, -0.6884356086136862]","[0.07249374687671661, 0.10860133916139603, 0.03999999910593033]","[0.0, -0.0, 0.1219973374555316]",0.679416393078237,-2.117784055507141,"(0.0, 0.0, 0.0, 0.0, 0.0, 0.0)",0.3649762140031281,-0.8202374613421928,-2.12700103087486,"(0.0, 0.0, 0.0, 0.0, 0.0, 0.0)",0.04851286211734207,-0.6795919883598663,2.1224666829208143,"(0.0, 0.0, 0.0, 0.0, 0.0, 0.0)",-0.36598488497268467,0.8193896503204905,2.149609324786922,"(0.0, 0.0, 0.0, 0.0, 0.0, 0.0)",-0.04882227338805697,False,,,,,False,,,,
53,Close,,,"(0.009997966950406065, 0.16004795201914346, 0.046616050094935475)","(-0.0009640430328522325, -5.7324486097668704e-05, 4.2980615420070005e-09)",,"[-0.026750000193715096, 0.05299999937415123, 0.03999999910593033]","[0.0, -0.0, 0.6794163791618646]","[-0.07199041545391083, 0.10901165008544922, 0.03999999910593033]","[0.0, 0.0, -0.1408210743259801]","[0.026750000193715096, 0.05299999937415123, 0.03999999910593033]","[0.0, 0.0, -0.6795920181483843]","[0.07200025022029877, 0.1090037003159523, 0.03999999910593033]","[0.0, -0.0, 0.13979766167419433]",0.6714747537704133,-1.9059934338776885,"(0.0, 0.0, 0.0, 0.0, 0.0, 0.0)",0.3285291326313333,-0.8282143561304102,-1.914454749172182,"(0.0, 0.0, 0.0, 0.0, 0.0, 0.0)",0.043663125146434535,-0.6716327895238797,1.9102077206367922,"(0.0, 0.0, 0.0, 0.0, 0.0, 0.0)",-0.3294374536237565,0.8274513303019508,1.934803195550486,"(0.0, 0.0, 0.0, 0.0, 0.0, 0.0)",-0.043941831288343336,False,,,,,False,,,,
54,Close,,,"(0.009998107600018924, 0.16004411888380865, 0.0468059782297436)","(-0.0008858309445970004, -5.447527859797503e-05, 4.128601528647624e-08)",,"[-0.026750000193715096, 0.05299999937415123, 0.03999999910593033]","[0.0, -0.0, 0.6714747449539094]","[-0.07154417037963867, 0.10936915874481201, 0.03999999910593033]","[0.0, 0.0, -0.15673960659097733]","[0.026750000193715096, 0.05299999937415123, 0.03999999910593033]","[0.0, 0.0, -0.6716327690441329]","[0.07155308127403259, 0.10936208069324493, 0.03999999910593033]","[0.0, -0.0, 0.15581855230220754]",0.664327278393372,-1.7153940904899205,"(0.0, 0.0, 0.0, 0.0, 0.0, 0.0)",0.2957170811345372,-0.8353934979980445,-1.7229940482322428,"(0.0, 0.0, 0.0, 0.0, 0.0, 0.0)",0.03934112702889199,-0.6644695105714917,1.7191869485731137,"(0.0, 0.0, 0.0, 0.0, 0.0, 0.0)",-0.2965349881453131,0.8347067784412298,1.7413075534269409,"(0.0, 0.0, 0.0, 0.0, 0.0, 0.0)",-0.039592428071821256,False,,,,,False,,,,
55,Close,,,"(0.009998248644105466, 0.16004048002584464, 0.0469807018618576)","(-0.0008115684428503489, -5.1596750749095254e-05, 7.881188886077776e-08)",,"[-0.026750000193715096, 0.05299999937415123, 0.03999999910593033]","[0.0, -0.0, 0.6643273336690038]","[-0.07114013284444809, 0.10968788713216782, 0.03999999910593033]","[0.0, 0.0, -0.17106622141763456]","[0.026750000193715096, 0.05299999937415123, 0.03999999910593033]","[0.0, 0.0, -0.6644694779113771]","[0.07114819437265396, 0.10968156903982162, 0.03999999910593033]","[0.0, -0.0, 0.17023725548976373]",0.6578945505540348,-1.543854681440929,"(0.0, 0.0, 0.0, 0.0, 0.0, 0.0)",0.2661784897251144,-0.8418546682622772,-1.5506808634158242,"(0.0, 0.0, 0.0, 0.0, 0.0, 0.0)",0.03542959308904228,-0.6580225595143425,1.547268253715802,"(0.0, 0.0, 0.0, 0.0, 0.0, 0.0)",-0.26691494494593054,0.8412366239853526,1.567162930589489,"(0.0, 0.0, 0.0, 0.0, 0.0, 0.0)",-0.035656056287006674,False,,,,,False,,,,
56,Close,,,"(0.009998390752654573, 0.16003702894197389, 0.04714144752999396)","(-0.0007411380797103218, -4.869650481896534e-05, 1.1687517768299383e-07)",,"[-0.026750000193715096, 0.05299999937415123, 0.03999999910593033]","[0.0, -0.0, 0.6578945475257985]","[-0.07077455520629883, 0.1099722608923912, 0.03999999910593033]","[0.0, 0.0, -0.18396012465064338]","[0.026750000193715096, 0.05299999937415123, 0.03999999910593033]","[0.0, 0.0, -0.6580225896942233]","[0.07078184932470322, 0.10996662080287933, 0.03999999910593033]","[0.0, -0.0, 0.18321406389742323]",0.6521050954986313,-1.3894692132968354,"(0.0, 0.0, 0.0, 0.0, 0.0, 0.0)",0.23958744527110798,-0.8476696697618468,-1.395600359896693,"(0.0, 0.0, 0.0, 0.0, 0.0, 0.0)",0.031904902566438624,-0.6522203035629083,1.392541428344221,"(0.0, 0.0, 0.0, 0.0, 0.0, 0.0)",-0.24025052935853647,0.8471134329078756,1.410434141405507,"(0.0, 0.0, 0.0, 0.0, 0.0, 0.0)",-0.032108956045352514,False,,,,,False,,,,
57,Close,,,"(0.009998534235924597, 0.16003375955333046, 0.04728933347451534)","(-0.0006744157946989166, -4.576820860538318e-05, 1.554405829918684e-07)",,"[-0.026750000193715096, 0.05299999937415123, 0.03999999910593033]","[0.0, -0.0, 0.6521051450040646]","[-0.07044398784637451, 0.11022617667913437, 0.03999999910593033]","[0.0, 0.0, -0.19556454293122102]","[0.026750000193715096, 0.05299999937415123, 0.03999999910593033]","[0.0, 0.0, -0.6522203497730787]","[0.07045057415962219, 0.11022114753723145, 0.03999999910593033]","[0.0, -0.0, 0.19489313608724637]",0.6468945859487681,-1.250522291967151,"(0.0, 0.0, 0.0, 0.0, 0.0, 0.0)",0.2156503992603495,-0.8529031244958994,-1.2560291361726517,"(0.0, 0.0, 0.0, 0.0, 0.0, 0.0)",0.02872919688306315,-0.6469982732066174,1.253287285509799,"(0.0, 0.0, 0.0, 0.0, 0.0, 0.0)",-0.2162473971085442,0.8524025140258721,1.2693794683191757,"(0.0, 0.0, 0.0, 0.0, 0.0, 0.0)",-0.02891303657535659,False,,,,,False,,,,
58,Close,,,"(0.009998679410322496, 0.16003066597344334, 0.0474253884764576)","(-0.0006112814540129935, -4.2805404436077314e-05, 1.9447426774393396e-07)",,"[-0.026750000193715096, 0.05299999937415123, 0.03999999910593033]","[0.0, -0.0, 0.6468945636476681]","[-0.07014521211385727, 0.11045306921005249, 0.03999999910593033]","[0.0, 0.0, -0.20600854729134555]","[0.026750000193715096, 0.05299999937415123, 0.03999999910593033]","[0.0, 0.0, -0.6469982503054421]","[0.07015117257833481, 0.11044856905937195, 0.03999999910593033]","[0.0, -0.0, 0.20540423443750838]",0.6422051273538913,-1.125470062770436,"(0.0, 0.0, 0.0, 0.0, 0.0, 0.0)",0.1941029233168818,-0.8576131917611358,-1.1304161436567226,"(0.0, 0.0, 0.0, 0.0, 0.0, 0.0)",0.025868240883426936,-0.6422984458859556,1.1279585569588184,"(0.0, 0.0, 0.0, 0.0, 0.0, 0.0)",-0.19464040126091972,0.8571626447690798,1.1424313783698345,"(0.0, 0.0, 0.0, 0.0, 0.0, 0.0)",-0.026033851694478666,False,,,,,False,,,,
59,Move,,,"(0.009998826598722164, 0.16002774252192944, 0.04755055901421763)","(-0.0005516191299448554, -3.980150267197137e-05, 2.339437659612592e-07)","[0.0, 0.0, 0.0]","[-0.026750000193715096, 0.05299999937415123, 0.03999999910593033]","[0.0, -0.0, 0.6422051137296667]","[-0.0698753148317337, 0.11065594106912613, 0.03999999910593033]","[0.0, 0.0, -0.2154080556264429]","[0.026750000193715096, 0.05299999937415123, 0.03999999910593033]","[0.0, 0.0, -0.6422983956794274]","[0.06988069415092468, 0.1106519103050232, 0.03999999910593033]","[0.0, -0.0, 0.21486417441436167]",0.6379846146185022,-1.0129230564933929,"(0.0, 0.0, 0.0, 0.0, 0.0, 0.0)",0.17470684718642912,-0.8618522144704561,-1.0173654502368856,"(0.0, 0.0, 0.0, 0.0, 0.0, 0.0)",0.023291096758263134,-0.6380686012973601,1.0151627012629356,"(0.0, 0.0, 0.0, 0.0, 0.0, 0.0)",-0.1751907229705418,0.8614467243673204,1.02817910357775,"(0.0, 0.0, 0.0, 0.0, 0.0, 0.0)",-0.023440272040621463,False,,,,,True,"(0.04276013174954747, 0.17974174897294792, 0.02399995643463635)","(-0.9999999990838299, -1.9447426661030803e-07, -4.2805404423670755e-05)",0.0013234533115717422,0.0
60,Move,,,"(0.008529162475457952, 0.15974954236529276, 0.0477048393377401)","(0.0013879222534856654, 0.003092032969080396, 0.019607357714227783)","[-0.001469664123264212, -0.00027820015663668207, 0.00015428032352246546]","[-0.026750000193715096, 0.05299999937415123, 0.03999999910593033]","[0.0, -0.0, 0.6379846501970732]","[-0.06963159143924713, 0.1108374372124672, 0.03999999910593033]","[0.0, 0.0, -0.22386762157269943]","[0.026750000193715096, 0.05299999937415123, 0.03999999910593033]","[0.0, 0.0, -0.638068602671057]","[0.06963644921779633, 0.11083383113145828, 0.03999999910593033]","[0.0, -0.0, 0.22337816170537766]",0.6141590059460926,-5.718146081378292,"(0.0, 0.0, 0.0, 0.0, 0.0, 0.0)",-6.715100343954979,-0.8614283121995241,0.10173654502368734,"(0.0, 0.0, 0.0, 0.0, 0.0, 0.0)",-0.37236374372155323,-0.6186460352886096,4.661415842100123,"(0.0, 0.0, 0.0, 0.0, 0.0, 0.0)",6.428194854706253,0.8610182254653614,-0.10283973647015276,"(0.0, 0.0, 0.0, 0.0, 0.0, 0.0)",0.9829946930619015,False,,,,,True,"(0.041928616181162004, 0.17969877893574898, 0.023999959438538117)","(-0.9999999992078928, -2.3394376620903917e-07, -3.980150265941498e-05)",0.0004918567139684023,10.112171877912418
61,Move,,,"(0.006723996611826882, 0.15936533702962205, 0.047765255621499005)","(6.714398616458164e-05, 0.002674296973039989, 0.04262647064426384)","[-0.0032748299868952824, -0.0006624054923073941, 0.00021469660728137135]","[-0.026750000193715096, 0.05299999937415123, 0.03999999910593033]","[0.0, -0.0, 0.6141590305095613]","[-0.06824154406785965, 0.11184260249137878, 0.03999999910593033]","[0.0, 0.0, -0.24726930604170874]","[0.026750000193715096, 0.05299999937415123, 0.03999999910593033]","[0.0, 0.0, -0.618646044105948]","[0.06850515305995941, 0.1116558387875557, 0.03999999910593033]","[0.0, -0.0, 0.24237220045044397]",0.5923752537221402,-5.228100533748594,"(0.0, 0.0, 0.0, 0.0, 0.0, 0.0)",0.6968351830029317,-0.8614707024266173,-0.010173654502368734,"(0.0, 0.0, 0.0, 0.0, 0.0, 0.0)",0.0386094337653134,-0.6008326176855909,4.2752202247244835,"(0.0, 0.0, 0.0, 0.0, 0.0, 0.0)",-0.2843818339581164,0.8610616731657038,0.010427448082156607,"(0.0, 0.0, 0.0, 0.0, 0.0, 0.0)",0.12162564932151312,False,,,,,True,"(0.03949436769622908, 0.17998210851349686, 0.023999959438538117)","(-0.9999999992078928, -2.3394376620903917e-07, -3.980150265941498e-05)",-6.347605402235445e-06,0.5640853154323047
62,Move,,,"(0.004916021046565853, 0.1589665718711254, 0.047720958898252924)","(-0.002763020338407607, 0.0006108079306357897, 0.0667691707902313)","[-0.005082805552156311, -0.0010611706508040497, 0.00017039988403529105]","[-0.026750000193715096, 0.05299999937415123, 0.03999999910593033]","[0.0, -0.0, 0.5923752994005711]","[-0.0669499859213829, 0.1127324104309082, 0.03999999910593033]","[0.0, 0.0, -0.2690954538189607]","[0.026750000193715096, 0.05299999937415123, 0.03999999910593033]","[0.0, 0.0, -0.6008327423896315]","[0.06745371967554092, 0.11239029467105865, 0.03999999910593033]","[0.0, -0.0, 0.2602290700881579]",0.5712150347036751,-5.078452564431617,"(0.0, 0.0, 0.0, 0.0, 0.0, 0.0)",0.2157952503283588,-0.861466463403908,0.0010173654502363396,"(0.0, 0.0, 0.0, 0.0, 0.0, 0.0)",0.016130538686302622,-0.5829836595254625,4.283749958430823,"(0.0, 0.0, 0.0, 0.0, 0.0, 0.0)",0.03654686188668907,0.8610568520052067,-0.0011570785193177847,"(0.0, 0.0, 0.0, 0.0, 0.0, 0.0)",0.013369392840733865,False,,,,,True,"(0.03722753437306846, 0.1801876577450428, 0.023999959438538117)","(-0.9999999992078928, -2.3394376620903917e-07, -3.980150265941498e-05)",-3.03090440028451e-06,0.20086448022229916
63,Move,,,"(0.003038586218639499, 0.15852968790700625, 0.047692659289474)","(-0.0025911153149836925, -0.0037098076030427207, 0.0892309075356073)","[-0.006960240380082665, -0.0014980546149231944, 0.00014210027525636548]","[-0.026750000193715096, 0.05299999937415123, 0.03999999910593033]","[0.0, -0.0, 0.5712149816841382]","[-0.06567712873220444, 0.11356961727142334, 0.03999999910593033]","[0.0, 0.0, -0.2902514434627483]","[0.026750000193715096, 0.05299999937415123, 0.03999999910593033]","[0.0, 0.0, -0.5829835823925363]","[0.06638723611831665, 0.11310731619596481, 0.03999999910593033]","[0.0, -0.0, 0.27807322292986936]",0.5508803967687295,-4.88031310438695,"(0.0, 0.0, 0.0, 0.0, 0.0, 0.0)",0.28503070876654335,-0.8614668873061792,-0.0001017365450710142,"(0.0, 0.0, 0.0, 0.0, 0.0, 0.0)",0.019917833408555515,-0.5651641840502668,4.2766741140469655,"(0.0, 0.0, 0.0, 0.0, 0.0, 0.0)",0.11956537689041521,0.8610565492790112,-7.265428690530302e-05,"(0.0, 0.0, 0.0, 0.0, 0.0, 0.0)",0.07009334439305036,False,,,,,True,"(0.03495614298930945, 0.18035455290140667, 0.023999959438538117)","(-0.9999999992078928, -2.3394376620903917e-07, -3.980150265941498e-05)",-3.483078081115776e-06,1.0531113700940868
64,Move,,,"(0.0020261779141126004, 0.159147963083264, 0.04760521211159295)","(0.002583370481578668, -0.003056729446151124, 0.09297246090683914)","[-0.007972648684609564, -0.0008797794386654345, 5.465309737531787e-05]","[-0.026750000193715096, 0.05299999937415123, 0.03999999910593033]","[0.0, -0.0, 0.5508804375563766]","[-0.06443750858306885, 0.11434861272573471, 0.03999999910593033]","[0.0, 0.0, -0.31058647044401844]","[0.026750000193715096, 0.05299999937415123, 0.03999999910593033]","[0.0, 0.0, -0.5651641731913941]","[0.06530991941690445, 0.11380404978990555, 0.03999999910593033]","[0.0, -0.0, 0.2958923811960855]",0.5325313952836437,-4.403760356420582,"(0.0, 0.0, 0.0, 0.0, 0.0, 0.0)",-38.47384383842257,-0.8434648155280273,4.320497226756436,"(0.0, 0.0, 0.0, 0.0, 0.0, 0.0)",-19.707773442051234,-0.5485203526437034,3.9945195375752336,"(0.0, 0.0, 0.0, 0.0, 0.0, 0.0)",38.40865227596146,0.8426940994674212,-4.406987954781599,"(0.0, 0.0, 0.0, 0.0, 0.0, 0.0)",20.213574547080277,True,"(-0.030837162206202397, 0.1807147684040986, 0.056003710559052795)","(0.9960147094140643, 0.08911192973728252, 0.0037097990935676286)",0.000295955962769222,310.9113148279181,True,"(0.032686946379462796, 0.18046390406811386, 0.023996289440947206)","(-0.9960147094140644, -0.08911192973728094, -0.0037097990935709194)",-4.010570765232737e-05,237.4598751600436
65,Move,"(0.0078, 0.0, -0.0036000000000000003)","(0.0, 0.08563981573685775, 0.0)","(0.0011700253639096666, 0.15976182515520135, 0.04751897038725052)","(0.007930122363363799, -0.00226657279137191, 0.09692309735704685)","[-0.008828801234812498, -0.00026591736672809674, -3.1588626967116173e-05]","[-0.026750000193715096, 0.05299999937415123, 0.03999999910593033]","[0.0, -0.0, 0.5325313658465014]","[-0.06330554187297821, 0.11502977460622787, 0.03999999910593033]","[0.0, 0.0, -0.3109334583254266]","[0.026750000193715096, 0.05299999937415123, 0.03999999910593033]","[0.0, 0.0, -0.548520392495979]","[0.06429261714220047, 0.11443737894296646, 0.03999999910593033]","[0.0, -0.0, 0.2941737789306636]",0.5150286261073844,-4.20066460230223,"(0.0, 0.0, 0.0, 0.0, 0.0, 0.0)",-43.15160519850692,-0.8255232606133882,4.305973179513399,"(0.0, 0.0, 0.0, 0.0, 0.0, 0.0)",-22.03627704391551,-0.5318939745440465,3.990330743917647,"(0.0, 0.0, 0.0, 0.0, 0.0, 0.0)",43.6676935048907,0.8241209847892994,-4.457547522749228,"(0.0, 0.0, 0.0, 0.0, 0.0, 0.0)",23.068483497500033,True,"(-0.02968254207398162, 0.18138834120873254, 0.056003057484645)","(0.9956765214355997, 0.09283814461792712, 0.0030567246857756626)",-0.0019557974209563206,339.7172576639441,True,"(0.03178474084630808, 0.1811477674564546, 0.02399694251535476)","(-0.9956765214355902, -0.0928381446180211, -0.0030567246860136047)",0.00016315936690381586,263.2480870713977
66,Move,"(0.0084333, 0.0, -0.0034)","(0.0, 0.09895493260032251, 0.0)","(0.0015142550983013162, 0.1600860465418329, 0.04748028732149069)","(0.005833166120741446, 0.001632563790596074, 0.08877559958037594)","[-0.008484571500420849, 5.830401990344902e-05, -7.0271692726942e-05]","[-0.026750000193715096, 0.05299999937415123, 0.03999999910593033]","[0.0, -0.0, 0.5150286173626178]","[-0.06221430376172066, 0.11566006392240524, 0.03999999910593033]","[0.0, 0.0, -0.3104946497228739]","[0.026750000193715096, 0.05299999937415123, 0.03999999910593033]","[0.0, 0.0, -0.5318939608755999]","[0.06326599419116974, 0.11505305767059326, 0.03999999910593033]","[0.0, -0.0, 0.2922270319249003]",0.5136089599248568,-0.3407198838066394,"(0.0, 0.0, 0.0, 0.0, 0.0, 0.0)",4.275537078510508,-0.8273168082988589,-0.4304514445129568,"(0.0, 0.0, 0.0, 0.0, 0.0, 0.0)",-0.5377314647425718,-0.5368120748983302,-1.1803440850280627,"(0.0, 0.0, 0.0, 0.0, 0.0, 0.0)",-6.996245504811917,0.825978296257166,0.445754752287991,"(0.0, 0.0, 0.0, 0.0, 0.0, 0.0)",-0.027766468515748252,True,"(-0.02862075758073663, 0.18203687365922727, 0.05600226731562215)","(0.9953040758649819, 0.09677116937979674, 0.0022665708506747376)",-0.003960922893090458,6.637025352508148,True,"(0.03091578949574346, 0.18154523231783662, 0.023997716044379027)","(-0.9953040509812058, -0.09677103449881742, -0.0022831956617496516)",0.00022377337919692118,0.0
67,Move,"(0.00924, 0.0, -0.0033799999999999998)","(0.0, 0.10527127916328999, 0.0)","(0.0019515272665274297, 0.1604332294056673, 0.04749567591247875)","(0.0018695699625433612, 0.0014801871357508036, 0.07913141715243564)","[-0.008047299332194734, 0.00040548688373784336, -5.4883101738879836e-05]","[-0.026750000193715096, 0.05299999937415123, 0.03999999910593033]","[0.0, -0.0, 0.5136090826965927]","[-0.0621253103017807, 0.11571034789085388, 0.03999999910593033]","[0.0, 0.0, -0.3137078470678842]","[0.026750000193715096, 0.05299999937415123, 0.03999999910593033]","[0.0, 0.0, -0.5368121227651508]","[0.06357073038816452, 0.11487272381782532, 0.03999999910593033]","[0.0, -0.0, 0.28916625395369233]",0.5103327244997902,-0.786296502015989,"(0.0, 0.0, 0.0, 0.0, 0.0, 0.0)",-0.7180961929954535,-0.8271367239798074,0.04322023657234114,"(0.0, 0.0, 0.0, 0.0, 0.0, 0.0)",-0.05938583199478407,-0.5399553978808161,-0.7543975157966312,"(0.0, 0.0, 0.0, 0.0, 0.0, 0.0)",0.5672547704908908,0.8257925651103794,-0.04457547522879168,"(0.0, 0.0, 0.0, 0.0, 0.0, 0.0)",-0.0065962164488990085,True,"(-0.028318656396696437, 0.1819788722483076, 0.05600226731562215)","(0.9953040758649819, 0.09677116937979674, 0.0022665708506747376)",-0.003643429054053983,0.0,True,"(0.03142419954313849, 0.18146359879005494, 0.023997716044379027)","(-0.9953040509812058, -0.09677103449881742, -0.0022831956617496516)",0.00028863685136703334,0.0
68,Move,"(0.0100857, 0.0, -0.0035714)","(0.0, 0.105887380389244, 0.0)","(0.0023856304345761343, 0.16049312281854075, 0.0475543108062341)","(-0.000900673923037698, 0.001848231884717696, 0.07682768561577931)","[-0.00761319616414603, 0.0004653802966113063, 3.751792016469524e-06]","[-0.026750000193715096, 0.05299999937415123, 0.03999999910593033]","[0.0, -0.0, 0.5103327217516638]","[-0.061919666826725006, 0.11582590639591217, 0.03999999910593033]","[0.0, 0.0, -0.3168040092011425]","[0.026750000193715096, 0.05299999937415123, 0.03999999910593033]","[0.0, 0.0, -0.5399554522983523]","[0.0637650340795517, 0.11475667357444763, 0.03999999910593033]","[0.0, -0.0, 0.2858371906958499]",0.5069604026125352,-0.8093572529411932,"(0.0, 0.0, 0.0, 0.0, 0.0, 0.0)",-2.8822479965218646,-0.8256917119691046,0.3468028825686763,"(0.0, 0.0, 0.0, 0.0, 0.0, 0.0)",-1.4999030086549243,-0.5431191456097869,-0.7592994549529876,"(0.0, 0.0, 0.0, 0.0, 0.0, 0.0)",2.6173472537362645,0.8247454781160747,-0.251300878633119,"(0.0, 0.0, 0.0, 0.0, 0.0, 0.0)",1.2161152204420167,True,"(-0.02790799804787169, 0.18198944535707495, 0.05600226731562215)","(0.9953040758649819, 0.09677116937979674, 0.0022665708506747376)",-0.003339720363748706,19.14589299865423,True,"(0.03184036562633023, 0.18145420221113856, 0.023997716044379027)","(-0.9953040509812058, -0.09677103449881742, -0.0022831956617496516)",5.450250591837728e-05,11.59375257242785
69,Move,"(0.0105889, 0.0, -0.0036556)","(0.0, 0.10286097946628585, 0.0)","(0.002802803493318642, 0.16053782063872216, 0.04765607903757235)","(-0.0013057219017917159, 0.002387763619900661, 0.07436828905968519)","[-0.007196023105403522, 0.0005100781167927115, 0.00010552002335471877]","[-0.026750000193715096, 0.05299999937415123, 0.03999999910593033]","[0.0, -0.0, 0.5069604228096629]","[-0.061707597225904465, 0.11594415456056595, 0.03999999910593033]","[0.0, 0.0, -0.3187313235824551]","[0.026750000193715096, 0.05299999937415123, 0.03999999910593033]","[0.0, 0.0, -0.543119189855436]","[0.0639602318406105, 0.11463925987482071, 0.03999999910593033]","[0.0, -0.0, 0.2816263530136816]",0.5035907756726239,-0.8087104655787052,"(0.0, 0.0, 0.0, 0.0, 0.0, 0.0)",-3.1335095603693386,-0.8244762456660787,0.29171191272623587,"(0.0, 0.0, 0.0, 0.0, 0.0, 0.0)",-1.525377207268425,-0.5464431061285475,-0.7977505245025505,"(0.0, 0.0, 0.0, 0.0, 0.0, 0.0)",2.3942388012764946,0.8237920066124884,-0.22883316086071176,"(0.0, 0.0, 0.0, 0.0, 0.0, 0.0)",1.1700601743123298,True,"(-0.027568474891575045, 0.18204201745762758, 0.05600226731562215)","(0.9953040758649819, 0.09677116937979674, 0.0022665708506747376)",-0.003182234700664347,21.04998298765245,True,"(0.03231669705578894, 0.18147062490406088, 0.023997716044379027)","(-0.9953040509812058, -0.09677103449881742, -0.0022831956617496516)",6.088716599011515e-05,8.646403252829622
70,Move,"(0.0113909, 0.0, -0.0036636000000000004)","(0.0, 0.09784141253755012, 0.0)","(0.003245192619688136, 0.1605619039997087, 0.047735019819166155)","(-0.002014015288549174, 0.0026481569100371373, 0.07191546731760234)","[-0.0067536339790340285, 0.0005341614777792658, 0.0001844608049485219]","[-0.026750000193715096, 0.05299999937415123, 0.03999999910593033]","[0.0, -0.0, 0.5035907745442212]","[-0.061495304107666016, 0.11606159061193466, 0.03999999910593033]","[0.0, 0.0, -0.3208854942858899]","[0.026750000193715096, 0.05299999937415123, 0.03999999910593033]","[0.0, 0.0, -0.5464431482291405]","[0.0641649141907692, 0.11451523751020432, 0.03999999910593033]","[0.0, -0.0, 0.2773489056778167]",0.5001787319215403,-0.8188905002600644,"(0.0, 0.0, 0.0, 0.0, 0.0, 0.0)",-2.408970919298041,-0.8235042933641818,0.23326855245524825,"(0.0, 0.0, 0.0, 0.0, 0.0, 0.0)",-1.2363088893501497,-0.5497565117715975,-0.7952173543319904,"(0.0, 0.0, 0.0, 0.0, 0.0, 0.0)",1.8290603162254282,0.8231005149605419,-0.1659579964671654,"(0.0, 0.0, 0.0, 0.0, 0.0, 0.0)",0.8629712195904373,True,"(-0.02721289517339047, 0.18207363497028461, 0.023997611494081285)","(0.9972331102297499, 0.07429954547122185, -0.0023877613509625155)",-0.0031609435493340802,18.959175300228967,True,"(0.03280753281178685, 0.18148134054499054, 0.023997716044379027)","(-0.9953040509812058, -0.09677103449881742, -0.0022831956617496516)",9.975282043880022e-05,7.255615408735624
71,Move,"(0.0120769, 0.0, -0.0036846)","(0.0, 0.09538573427999408, 0.0)","(0.0037057970545116034, 0.16055990937476172, 0.047773433767609744)","(-0.0022592894902345446, 0.002282104199655249, 0.0703182701049239)","[-0.006293029544210561, 0.0005321668528322776, 0.0002228747533921105]","[-0.026750000193715096, 0.05299999937415123, 0.03999999910593033]","[0.0, -0.0, 0.5001787206115519]","[-0.06127993017435074, 0.11617977172136307, 0.03999999910593033]","[0.0, 0.0, -0.3233255591726539]","[0.026750000193715096, 0.05299999937415123, 0.03999999910593033]","[0.0, 0.0, -0.5497565327736481]","[0.06436853110790253, 0.11439092457294464, 0.03999999910593033]","[0.0, -0.0, 0.27334399081821714]",0.49667670333188935,-0.8404868615162211,"(0.0, 0.0, 0.0, 0.0, 0.0, 0.0)",-2.3825840799340674,-0.8224618256058662,0.2501922619957562,"(0.0, 0.0, 0.0, 0.0, 0.0, 0.0)",-1.273957906042139,-0.5531695719892366,-0.8191344522333942,"(0.0, 0.0, 0.0, 0.0, 0.0, 0.0)",1.75679298138315,0.8223989597812964,-0.16837324301893714,"(0.0, 0.0, 0.0, 0.0, 0.0, 0.0)",0.848669253324447,True,"(-0.026836550967124527, 0.18210795876016905, 0.02399735110449891)","(0.9974116997805774, 0.0718532422524672, -0.002648153814900736)",-0.0030441319828097974,17.891735126176947,True,"(0.03327959511420952, 0.18148207802259209, 0.023997716044379027)","(-0.9953040509812058, -0.09677103449881742, -0.0022831956617496516)",8.981903701779687e-05,7.679709088805768
72,Move,"(0.012406700000000001, 0.0, -0.0037933)","(0.0, 0.09207135403045687, 0.0)","(0.004173950118513953, 0.16053964460129738, 0.04779306562219669)","(-0.001934167456813686, 0.001919571789866047, 0.0688573480653073)","[-0.005824876480208211, 0.0005119020793679374, 0.00024250660797905943]","[-0.026750000193715096, 0.05299999937415123, 0.03999999910593033]","[0.0, -0.0, 0.49667671927213275]","[-0.06105846166610718, 0.1163003146648407, 0.03999999910593033]","[0.0, 0.0, -0.3257851334801858]","[0.026750000193715096, 0.05299999937415123, 0.03999999910593033]","[0.0, 0.0, -0.55316956287304]","[0.0645778477191925, 0.1142621785402298, 0.03999999910593033]","[0.0, -0.0, 0.2692294083113824]",0.4931211680488028,-0.8533284679407765,"(0.0, 0.0, 0.0, 0.0, 0.0, 0.0)",-2.293459485271212,-0.8214524244310264,0.24225628196156943,"(0.0, 0.0, 0.0, 0.0, 0.0, 0.0)",-1.245356241890299,-0.5566323170794581,-0.8310588216531757,"(0.0, 0.0, 0.0, 0.0, 0.0, 0.0)",1.7142175882087771,0.8217265536314505,-0.16137747596301347,"(0.0, 0.0, 0.0, 0.0, 0.0, 0.0)",0.8102411534435141,True,"(-0.026453091586615782, 0.18214444129633656, 0.02399771715554403)","(0.9975260914490337, 0.07026015149340914, -0.0022821022187894525)",-0.00292351288557179,17.122568305812088,True,"(0.033765223201938706, 0.18148067711713994, 0.023997716044379027)","(-0.9953040509812058, -0.09677103449881742, -0.0022831956617496516)",7.776275011333239e-05,8.54227559682056
73,Move,"(0.0134467, 0.0, -0.004019999999999999)","(0.0, 0.08658752952069068, 0.0)","(0.004633291766326644, 0.16051538968166243, 0.04780882555926746)","(-0.001401324706452131, 0.0016762469229647501, 0.06728831025329943)","[-0.0053655348323955205, 0.00048764715973298456, 0.00025826654504982477]","[-0.026750000193715096, 0.05299999937415123, 0.03999999910593033]","[0.0, -0.0, 0.49312116456819205]","[-0.06083317846059799, 0.1164218932390213, 0.03999999910593033]","[0.0, 0.0, -0.32833125530594504]","[0.026750000193715096, 0.05299999937415123, 0.03999999910593033]","[0.0, 0.0, -0.5566323293149459]","[0.06478974968194962, 0.11413081735372543, 0.03999999910593033]","[0.0, -0.0, 0.2650942417135]",0.4895921535401575,-0.846963482074872,"(0.0, 0.0, 0.0, 0.0, 0.0, 0.0)",-2.2064011337164926,-0.8204659447116388,0.23675513265301398,"(0.0, 0.0, 0.0, 0.0, 0.0, 0.0)",-1.2094925107631842,-0.560062768352042,-0.8233083054201479,"(0.0, 0.0, 0.0, 0.0, 0.0, 0.0)",1.7052865147106115,0.8210692712023625,-0.15774778298112688,"(0.0, 0.0, 0.0, 0.0, 0.0, 0.0)",0.7904351335392641,True,"(-0.026060346394224346, 0.18217878535634524, 0.02399807968018149)","(0.9976284313264132, 0.06880282158363557, -0.0019195706110077507)",-0.0028089163898798006,16.674194835480215,True,"(0.034255352603977565, 0.18147616169789726, 0.023997716044379027)","(-0.9953040509812058, -0.09677103449881742, -0.0022831956617496516)",6.635082133410447e-05,8.95009589062533
74,Move,"(0.0144333, 0.0, -0.0043533)","(0.0, 0.07442258463429022, 0.0)","(0.005102793072519125, 0.1604860243157728, 0.04782368923161392)","(-0.0008092417768057861, 0.0014683659914983239, 0.06550358890455331)","[-0.00489603352620304, 0.000458281793843357, 0.0002731302173962849]","[-0.026750000193715096, 0.05299999937415123, 0.03999999910593033]","[0.0, -0.0, 0.48959216140602196]","[-0.06060915067791939, 0.1165417805314064, 0.03999999910593033]","[0.0, 0.0, -0.3308737776838136]","[0.026750000193715096, 0.05299999937415123, 0.03999999910593033]","[0.0, 0.0, -0.560062780410167]","[0.06499923765659332, 0.11399997025728226, 0.03999999910593033]","[0.0, -0.0, 0.26100652155218923]",0.48591416500289913,-0.8827172489420105,"(0.0, 0.0, 0.0, 0.0, 0.0, 0.0)",-2.2286864464221385,-0.819496823692098,0.23258904468980077,"(0.0, 0.0, 0.0, 0.0, 0.0, 0.0)",-1.1953543909058992,-0.5636268611748868,-0.8553822774827414,"(0.0, 0.0, 0.0, 0.0, 0.0, 0.0)",1.61649901886101,0.8204267121567342,-0.15421417095078296,"(0.0, 0.0, 0.0, 0.0, 0.0, 0.0)",0.7667973534898591,True,"(-0.0256693057748794, 0.18221101798477202, 0.02399832300247322)","(0.9977355939762464, 0.0672374502175063, -0.001676246137977824)",-0.00270169092996773,16.374223199997285,True,"(0.03474037883037143, 0.18146956223656344, 0.023997716044379027)","(-0.9953040509812058, -0.09677103449881742, -0.0022831956617496516)",5.965611909708983e-05,8.936517588841307
75,Move,"(0.0151667, 0.0, -0.0047466999999999995)","(0.0, 0.06034824954620793, 0.0)","(0.0055834188322902364, 0.16045072955329606, 0.04783771113218009)","(-0.00019600080463832393, 0.0012460845153893455, 0.06357184773417433)","[-0.004415407766431928, 0.0004229870313666173, 0.0002871521179624581]","[-0.026750000193715096, 0.05299999937415123, 0.03999999910593033]","[0.0, -0.0, 0.48591417066046055]","[-0.06037521734833717, 0.11666588485240936, 0.03999999910593033]","[0.0, 0.0, -0.3335826577867916]","[0.026750000193715096, 0.05299999937415123, 0.03999999910593033]","[0.0, 0.0, -0.563626843382423]","[0.06521639972925186, 0.1138632595539093, 0.03999999910593033]","[0.0, -0.0, 0.25679985195137345]",0.4821071107494919,-0.9136930208177269,"(0.0, 0.0, 0.0, 0.0, 0.0, 0.0)",-2.1537291288755727,-0.8185566875540102,0.22563267314104746,"(0.0, 0.0, 0.0, 0.0, 0.0, 0.0)",-1.1611945708961544,-0.5673159719723376,-0.8853865913881973,"(0.0, 0.0, 0.0, 0.0, 0.0, 0.0)",1.574565190218311,0.8198039767569401,-0.1494564959506113,"(0.0, 0.0, 0.0, 0.0, 0.0, 0.0)",0.7447460477852318,True,"(-0.0252576702313186, 0.18224115546730274, 0.023998530881409547)","(0.9978543311684136, 0.06545668545918583, -0.0014683654638413012)",-0.00260068310843108,15.825972060415737,True,"(0.03524163296991044, 0.18145954239890344, 0.023997716044379027)","(-0.9953040509812058, -0.09677103449881742, -0.0022831956617496516)",5.62139923891609e-05,8.661246399510352
76,Move,"(0.0155533, 0.0, -0.0050733)","(0.0, 0.04691270496435558, 0.0)","(0.0060698736048980595, 0.16040988940887174, 0.047850570760000224)","(0.00044730287562779955, 0.0010122914168425718, 0.06154131004627455)","[-0.003928952993824105, 0.00038214688694229726, 0.00030001174578259127]","[-0.026750000193715096, 0.05299999937415123, 0.03999999910593033]","[0.0, -0.0, 0.4821071575445159]","[-0.06013259291648865, 0.1167934387922287, 0.03999999910593033]","[0.0, 0.0, -0.33644958176481166]","[0.026750000193715096, 0.05299999937415123, 0.03999999910593033]","[0.0, 0.0, -0.5673159920717379]","[0.06544066965579987, 0.11372093856334686, 0.03999999910593033]","[0.0, -0.0, 0.2524879562122216]",0.47822787019988394,-0.9310177319059106,"(0.0, 0.0, 0.0, 0.0, 0.0, 0.0)",-2.0555901553648503,-0.8176493991165465,0.2177492249912885,"(0.0, 0.0, 0.0, 0.0, 0.0, 0.0)",-1.119174540129291,-0.5710726828942833,-0.901610621266941,"(0.0, 0.0, 0.0, 0.0, 0.0, 0.0)",1.5423998976149407,0.8192026197449539,-0.1443256828766651,"(0.0, 0.0, 0.0, 0.0, 0.0, 0.0)",0.7218091778892323,True,"(-0.024827251982914245, 0.18226869166012713, 0.023998753160947996)","(0.9979792157325005, 0.06352898740045666, -0.001246084192918325)",-0.0025035610742793627,15.204593966349377,True,"(0.035757644533202, 0.1814458395601392, 0.023997716044379027)","(-0.9953040509812058, -0.09677103449881742, -0.0022831956617496516)",5.372303986314654e-05,8.380345268842895
77,Move,"(0.0157867, 0.0, -0.0054867)","(0.0, 0.03863460832214648, 0.0)","(0.006540713993553817, 0.16040158690850842, 0.04790030433107155)","(0.00013620213051367697, 0.0010500788925574406, 0.05897963598209801)","[-0.003458112605168347, 0.00037384438657897534, 0.00034974531685391663]","[-0.026750000193715096, 0.05299999937415123, 0.03999999910593033]","[0.0, -0.0, 0.4782278914981455]","[-0.059884872287511826, 0.11692245304584503, 0.03999999910593033]","[0.0, 0.0, -0.33942153572636397]","[0.026750000193715096, 0.05299999937415123, 0.03999999910593033]","[0.0, 0.0, -0.5710726742466525]","[0.0656685084104538, 0.11357516050338745, 0.03999999910593033]","[0.0, -0.0, 0.24812993070416758]",0.4743524366858034,-0.9301040433793324,"(0.0, 0.0, 0.0, 0.0, 0.0, 0.0)",-2.0005106790279363,-0.8167674663440775,0.2116638653925777,"(0.0, 0.0, 0.0, 0.0, 0.0, 0.0)",-1.0727216426572306,-0.5748222754535882,-0.8999022142331912,"(0.0, 0.0, 0.0, 0.0, 0.0, 0.0)",1.5370009210717765,0.8186001558809965,-0.1445913273497674,"(0.0, 0.0, 0.0, 0.0, 0.0, 0.0)",0.7160768564507368,True,"(-0.024385155414372, 0.18229343533932396, 0.023998986952216715)","(0.9981064197685666, 0.06150243965251496, -0.0010122912439551488)",-0.0024096763298865056,15.318502648617294,True,"(0.03628091265935154, 0.18142877885834907, 0.023997716044379027)","(-0.9953040509812058, -0.09677103449881742, -0.0022831956617496516)",5.090739706820821e-05,7.527605156727906
78,Move,"(0.0160133, 0.0, -0.0060999999999999995)","(0.0, 0.034634313676575476, 0.0)","(0.007009853015832658, 0.16038760764298673, 0.04794304875663385)","(-0.00015411820279084536, 0.0009217389599455075, 0.056625624585231786)","[-0.0029889735828895064, 0.00035986512105729007, 0.00039248974241621465]","[-0.026750000193715096, 0.05299999937415123, 0.03999999910593033]","[0.0, -0.0, 0.47435251358611663]","[-0.05963689833879471, 0.11705038696527481, 0.03999999910593033]","[0.0, 0.0, -0.342415057688637]","[0.026750000193715096, 0.05299999937415123, 0.03999999910593033]","[0.0, 0.0, -0.5748222685617569]","[0.06589536368846893, 0.11342880129814148, 0.03999999910593033]","[0.0, -0.0, 0.24377787608274248]",0.47050935097308877,-0.9223405710515147,"(0.0, 0.0, 0.0, 0.0, 0.0, 0.0)",-1.9286533760260758,-0.8159089179453587,0.20605161569250116,"(0.0, 0.0, 0.0, 0.0, 0.0, 0.0)",-1.0520600681661194,-0.5785240732267478,-0.8884314655583,"(0.0, 0.0, 0.0, 0.0, 0.0, 0.0)",1.510175668284003,0.8180196255428281,-0.13932728116042212,"(0.0, 0.0, 0.0, 0.0, 0.0, 0.0)",0.7021644834615044,True,"(-0.023941676656459104, 0.18231523690193074, 0.02399894916502776)","(0.9982606550304609, 0.05894541502847899, -0.001050078699576595)",-0.002324436336270047,14.694249385091341,True,"(0.03680335086315366, 0.18140967830929033, 0.023997716044379027)","(-0.9953040509812058, -0.09677103449881742, -0.0022831956617496516)",5.757307749328344e-05,6.747069992532757
79,Move,"(0.0161067, 0.0, -0.0067599999999999995)","(0.0, 0.03673394476672466, 0.0)","(0.007472759731427461, 0.1603688245092925, 0.04798639710248541)","(-0.0005896636243723143, 0.0006825545240542841, 0.05428710252931202)","[-0.0025260668672947035, 0.0003410819873630455, 0.0004358380882677759]","[-0.026750000193715096, 0.05299999937415123, 0.03999999910593033]","[0.0, -0.0, 0.47050934525543264]","[-0.05939050391316414, 0.11717630177736282, 0.03999999910593033]","[0.0, 0.0, -0.3453995407625238]","[0.026750000193715096, 0.05299999937415123, 0.03999999910593033]","[0.0, 0.0, -0.5785241178519928]","[0.06611879169940948, 0.11328348517417908, 0.03999999910593033]","[0.0, -0.0, 0.2394955593320271]",0.466700666023725,-0.9140843878473054,"(0.0, 0.0, 0.0, 0.0, 0.0, 0.0)",-1.8456802958062077,-0.8150855756568911,0.1976021492322322,"(0.0, 0.0, 0.0, 0.0, 0.0, 0.0)",-1.0099499777460657,-0.5821804187598381,-0.8775229279416514,"(0.0, 0.0, 0.0, 0.0, 0.0, 0.0)",1.454916867616114,0.8174589049315364,-0.1345729467100332,"(0.0, 0.0, 0.0, 0.0, 0.0, 0.0)",0.6803832887417817,True,"(-0.023500692524415542, 0.18233495606919448, 0.02399907750402687)","(0.9983967735453644, 0.056595344081795965, -0.0009217388294270933)",-0.002239557693250017,14.04440414549147,True,"(0.03731815962273406, 0.18138831422115864, 0.023997716044379027)","(-0.9953040509812058, -0.09677103449881742, -0.0022831956617496516)",5.8552005798115004e-05,6.3432472177591395
80,Move,"(0.0162867, 0.0, -0.0072867)","(0.0, 0.049146726406908335, 0.0)","(0.007925628636711328, 0.16034602418875604, 0.04802644679407777)","(-0.0009851121995559156, 0.0004255701389524048, 0.0520465070346216)","[-0.002073197962010836, 0.00031828166682659753, 0.00047588777986013603]","[-0.026750000193715096, 0.05299999937415123, 0.03999999910593033]","[0.0, -0.0, 0.46670074376700804]","[-0.059145841747522354, 0.11730015277862549, 0.03999999910593033]","[0.0, 0.0, -0.3483849310166661]","[0.026750000193715096, 0.05299999937415123, 0.03999999910593033]","[0.0, 0.0, -0.5821804047911435]","[0.06633894890546799, 0.11313913017511368, 0.03999999910593033]","[0.0, -0.0, 0.23527846941542455]",0.46296515749279393,-0.8965220474234628,"(0.0, 0.0, 0.0, 0.0, 0.0, 0.0)",-1.7844210002468608,-0.8142794623012503,0.1934672053538125,"(0.0, 0.0, 0.0, 0.0, 0.0, 0.0)",-0.9844758014805809,-0.5857505156124826,-0.8568232446346776,"(0.0, 0.0, 0.0, 0.0, 0.0, 0.0)",1.434954030583104,0.816910959027246,-0.1315070170296959,"(0.0, 0.0, 0.0, 0.0, 0.0, 0.0)",0.6651705578432847,True,"(-0.023061703064438277, 0.1823520200004884, 0.02399931668688145)","(0.9985265845057926, 0.05426042899378853, -0.0006825544710570578)",-0.002156717357561099,13.65091882525744,True,"(0.037825771034849826, 0.1813648139114776, 0.023997716044379027)","(-0.9953040509812058, -0.09677103449881742, -0.0022831956617496516)",5.681902790247796e-05,6.203174576347005
81,Move,"(0.01602, 0.0, -0.0078)","(0.0, 0.0717504855494869, 0.0)","(0.008368262257780232, 0.16032068062967228, 0.04806378957578429)","(-0.0013464659196415236, 0.000177747839487384, 0.0498754550063632)","[-0.001630564340941932, 0.000292938107742835, 0.0005132305615666577]","[-0.026750000193715096, 0.05299999937415123, 0.03999999910593033]","[0.0, -0.0, 0.462965156381821]","[-0.05890542268753052, 0.11742071807384491, 0.03999999910593033]","[0.0, 0.0, -0.35131431998478985]","[0.026750000193715096, 0.05299999937415123, 0.03999999910593033]","[0.0, 0.0, -0.5857505278523648]","[0.06655339896678925, 0.11299741268157959, 0.03999999910593033]","[0.0, -0.0, 0.2311604599969737]",0.45928976507535924,-0.8820941801843267,"(0.0, 0.0, 0.0, 0.0, 0.0, 0.0)",-1.7679504754753803,-0.8134809843039026,0.19163471936344587,"(0.0, 0.0, 0.0, 0.0, 0.0, 0.0)",-0.9740455084174185,-0.5892349753551496,-0.8362703382400745,"(0.0, 0.0, 0.0, 0.0, 0.0, 0.0)",1.4191862695228388,0.8163682972084083,-0.13023883652103332,"(0.0, 0.0, 0.0, 0.0, 0.0, 0.0)",0.6573712797083829,True,"(-0.022630911755339975, 0.18236729025918502, 0.02399957366978819)","(0.9986457958348003, 0.05202300790559936, -0.00042557012610627116)",-0.0020776771163647876,13.471598525091146,True,"(0.03832141805985537, 0.18133993423378814, 0.023997716044379027)","(-0.9953040509812058, -0.09677103449881742, -0.0022831956617496516)",5.4866530344484365e-05,6.17792904402363
82,Move,"(0.0156, 0.0, -0.0082267)","(0.0, 0.10118720871362324, 0.0)","(0.008796033527885935, 0.16027400875496856, 0.04807817616722333)","(-0.0011526971810115142, -0.00017906219570552653, 0.048246083478248866)","[-0.0012027930708362299, 0.00024626623303911077, 0.0005276171530056994]","[-0.026750000193715096, 0.05299999937415123, 0.03999999910593033]","[0.0, -0.0, 0.45928979157971916]","[-0.058668434619903564, 0.1175384670495987, 0.03999999910593033]","[0.0, 0.0, -0.35419124383853334]","[0.026750000193715096, 0.05299999937415123, 0.03999999910593033]","[0.0, 0.0, -0.5892349545926736]","[0.06676220893859863, 0.1128583550453186, 0.03999999910593033]","[0.0, -0.0, 0.22713331965700156]",0.45578380849552935,-0.8414295791591747,"(0.0, 0.0, 0.0, 0.0, 0.0, 0.0)",-1.7160960741833946,-0.812682520262131,0.19163137002519862,"(0.0, 0.0, 0.0, 0.0, 0.0, 0.0)",-0.9776311431965493,-0.5925144525994616,-0.7870745386348894,"(0.0, 0.0, 0.0, 0.0, 0.0, 0.0)",1.4615028483321602,0.8158328058102832,-0.12851793555003155,"(0.0, 0.0, 0.0, 0.0, 0.0, 0.0)",0.6552289521972742,True,"(-0.022207263194831614, 0.18238111638771015, 0.02399982149086237)","(0.9987564615267311, 0.049854778750980426, -0.00017774783855109758)",-0.0020035919476545446,13.184592113821198,True,"(0.03880568639669314, 0.18131401607659747, 0.023997716044379027)","(-0.9953040509812058, -0.09677103449881742, -0.0022831956617496516)",5.3497802983760484e-05,6.645100000034758
83,Move,"(0.015086700000000001, 0.0, -0.0084733)","(0.0, 0.13310404474484352, 0.0)","(0.009185383354776084, 0.16023529515547527, 0.0480656935274954)","(0.0007649528486521703, 4.677096542531477e-05, 0.04625690320429356)","[-0.0008134432439460808, 0.00020755263354582665, 0.0005151345132777679]","[-0.026750000193715096, 0.05299999937415123, 0.03999999910593033]","[0.0, -0.0, 0.4557838664065382]","[-0.058441970497369766, 0.11764997243881226, 0.03999999910593033]","[0.0, 0.0, -0.35689874531812293]","[0.026750000193715096, 0.05299999937415123, 0.03999999910593033]","[0.0, 0.0, -0.5925144532990044]","[0.06695830076932907, 0.11272681504487991, 0.03999999910593033]","[0.0, -0.0, 0.22331833246780242]",0.45247963352400106,-0.7930019931667858,"(0.0, 0.0, 0.0, 0.0, 0.0, 0.0)",-2.111898279391589,-0.811734202594819,0.22759624015486352,"(0.0, 0.0, 0.0, 0.0, 0.0, 0.0)",-1.1540259026666024,-0.5955564898516398,-0.7300889405227815,"(0.0, 0.0, 0.0, 0.0, 0.0, 0.0)",1.7657128017612986,0.8151968326894292,-0.15263354900494835,"(0.0, 0.0, 0.0, 0.0, 0.0, 0.0)",0.7616080533406562,True,"(-0.021805371294820464, 0.18239366826587722, 0.02399982149086237)","(0.9987564615267311, 0.049854778750980426, -0.00017774783855109758)",-0.0019336784364108546,14.473065392170934,True,"(0.03928802751217409, 0.1804500578784698, 0.023999820177846028)","(-0.9988363674388201, -0.048227367939303246, -0.00017906219474799474)",-1.176136724041067e-05,13.521791455242623
84,Move,"(0.0145267, 0.0, -0.0085733)","(0.0, 0.1625268052749639, 0.0)","(0.009539473154850243, 0.16023943661735757, 0.04811749310856201)","(0.00047130685134538585, 0.00035556655109937575, 0.044340441574974736)","[-0.000459353443871921, 0.00021169409542812212, 0.0005669340943443776]","[-0.026750000193715096, 0.05299999937415123, 0.03999999910593033]","[0.0, -0.0, 0.45247961842847595]","[-0.058228183537721634, 0.11775433272123337, 0.03999999910593033]","[0.0, 0.0, -0.35925458583963094]","[0.026750000193715096, 0.05299999937415123, 0.03999999910593033]","[0.0, 0.0, -0.5955564630707127]","[0.06713980436325073, 0.11260422319173813, 0.03999999910593033]","[0.0, -0.0, 0.21964033713312686]",0.4493612614548387,-0.7484092965989739,"(0.0, 0.0, 0.0, 0.0, 0.0, 0.0)",-2.168701389169075,-0.8108003682553986,0.2241202414609007,"(0.0, 0.0, 0.0, 0.0, 0.0, 0.0)",-1.1491043299151547,-0.598317786085253,-0.662711096067169,"(0.0, 0.0, 0.0, 0.0, 0.0, 0.0)",1.781550739176657,0.8145469930519176,-0.15596151300278438,"(0.0, 0.0, 0.0, 0.0, 0.0, 0.0)",0.7838284780795473,True,"(-0.021439158762231958, 0.1824115407943465, 0.02399982149086237)","(0.9987564615267311, 0.049854778750980426, -0.00017774783855109758)",-0.0018716312017803933,15.416216299951508,True,"(0.039718805770458894, 0.18042877981412983, 0.023999820177846028)","(-0.9988363674388201, -0.048227367939303246, -0.00017906219474799474)",-1.297870021629298e-06,13.017845923401373
85,Move,"(0.0142067, 0.0, -0.00846)","(0.0, 0.18178476824146936, 0.0)","(0.009867571807657634, 0.16024586131240728, 0.04816462555054283)","(0.0001512275692305798, 0.0006682219269821018, 0.04269032761572902)","[-0.00013125479106453064, 0.00021811879047783922, 0.000614066536325196]","[-0.026750000193715096, 0.05299999937415123, 0.03999999910593033]","[0.0, -0.0, 0.44936121585814237]","[-0.05802610144019127, 0.11785218119621277, 0.03999999910593033]","[0.0, 0.0, -0.36143904859849707]","[0.026750000193715096, 0.05299999937415123, 0.03999999910593033]","[0.0, 0.0, -0.5983178012823714]","[0.06730423867702484, 0.11249247193336487, 0.03999999910593033]","[0.0, -0.0, 0.21622919375562394]",0.44641664310592544,-0.7067084037391809,"(0.0, 0.0, 0.0, 0.0, 0.0, 0.0)",-2.247615367864953,-0.8098235852997783,0.23442790934887223,"(0.0, 0.0, 0.0, 0.0, 0.0, 0.0)",-1.197681693837796,-0.6008124549842885,-0.598720535768519,"(0.0, 0.0, 0.0, 0.0, 0.0, 0.0)",1.8334051551418489,0.813876710396517,-0.16086783729612844,"(0.0, 0.0, 0.0, 0.0, 0.0, 0.0)",0.811705274112368,True,"(-0.021095994224052735, 0.1824305765103677, 0.0239996436734971)","(0.9990170605186743, 0.04432591076402793, -0.0003555665436843154)",-0.0018238635143694767,15.947841112460297,True,"(0.04011475435875129, 0.18041016648116381, 0.023999820177846028)","(-0.9988363674388201, -0.048227367939303246, -0.00017906219474799474)",1.1151543192491613e-05,12.469994766945321
86,Move,"(0.014273300000000001, 0.0, -0.008246700000000001)","(0.0, 0.1858478947401122, 0.0)","(0.0101748261555145, 0.16024437703922198, 0.04820633402404784)","(-0.0002323128460326543, 0.0009497410322948087, 0.0409836550924282)","[0.0001759995567923358, 0.00021663451729253547, 0.0006557750098302034]","[-0.026750000193715096, 0.05299999937415123, 0.03999999910593033]","[0.0, -0.0, 0.4464166924431027]","[-0.05783500149846077, 0.11794399470090866, 0.03999999910593033]","[0.0, 0.0, -0.36340693808635194]","[0.026750000193715096, 0.05299999937415123, 0.03999999910593033]","[0.0, 0.0, -0.6008124746562077]","[0.06745252758264542, 0.11239111423492432, 0.03999999910593033]","[0.0, -0.0, 0.21306427424684538]",0.4435885015175362,-0.6787539812134202,"(0.0, 0.0, 0.0, 0.0, 0.0, 0.0)",-2.2568809504640948,-0.8088705395613962,0.22873097721168742,"(0.0, 0.0, 0.0, 0.0, 0.0, 0.0)",-1.1739245246336059,-0.6031263966265124,-0.5553459941337159,"(0.0, 0.0, 0.0, 0.0, 0.0, 0.0)",1.8382557691856356,0.8132013255892832,-0.1620923537361321,"(0.0, 0.0, 0.0, 0.0, 0.0, 0.0)",0.8171163307596407,True,"(-0.020777899585381225, 0.18244991146629352, 0.02399933101816349)","(0.999088683289412, 0.04267735233764704, -0.0006682218772952067)",-0.0017832142832085252,16.118323455511234,True,"(0.040478134065383864, 0.18039452515910537, 0.023999820177846028)","(-0.9988363674388201, -0.048227367939303246, -0.00017906219474799474)",2.2247655422888298e-05,11.838071935166429
87,Move,"(0.01456, 0.0, -0.007973300000000001)","(0.0, 0.17540209916692612, 0.0)","(0.010475893123122944, 0.16025379669115425, 0.04824301913737927)","(-0.0005718486857287922, 0.0012466561133351313, 0.039328483249302375)","[0.0004770665244007797, 0.00022605416922480415, 0.0006924601231616395]","[-0.026750000193715096, 0.05299999937415123, 0.03999999910593033]","[0.0, -0.0, 0.44358853414631627]","[-0.057651206851005554, 0.11803165078163147, 0.03999999910593033]","[0.0, 0.0, -0.36528205211484344]","[0.026750000193715096, 0.05299999937415123, 0.03999999910593033]","[0.0, 0.0, -0.6031263604251884]","[0.06758984178304672, 0.11229677498340607, 0.03999999910593033]","[0.0, -0.0, 0.21007489828999623]",0.44079744668875276,-0.669853158908025,"(0.0, 0.0, 0.0, 0.0, 0.0, 0.0)",-2.2667881182601977,-0.8079036900654311,0.23204387903163415,"(0.0, 0.0, 0.0, 0.0, 0.0, 0.0)",-1.185579168861108,-0.6053911903262805,-0.5435504879443575,"(0.0, 0.0, 0.0, 0.0, 0.0, 0.0)",1.776841401916864,0.8125253818199853,-0.16222650463147884,"(0.0, 0.0, 0.0, 0.0, 0.0, 0.0)",0.8109483169661623,True,"(-0.0204732222553166, 0.1824681337057351, 0.023999049499151288)","(0.9991598369281874, 0.04097216447639291, -0.0009497408894957724)",-0.0017482471048724528,15.954793328302483,True,"(0.04081885716208701, 0.18038051427410084, 0.023999820177846028)","(-0.9988363674388201, -0.048227367939303246, -0.00017906219474799474)",3.0329472892588092e-05,10.938617981580665
88,Move,"(0.0151067, 0.0, -0.00768)","(0.0, 0.1526377697331641, 0.0)","(0.010780109486504355, 0.1602614518190398, 0.04827713847499756)","(-0.0008869518774553466, 0.001522805430711641, 0.03764648495505633)","[0.000781282887782191, 0.0002337092971103627, 0.0007265794607799261]","[-0.026750000193715096, 0.05299999937415123, 0.03999999910593033]","[0.0, -0.0, 0.44079739649992605]","[-0.057469580322504044, 0.11811764538288116, 0.03999999910593033]","[0.0, 0.0, -0.367106281519968]","[0.026750000193715096, 0.05299999937415123, 0.03999999910593033]","[0.0, 0.0, -0.6053912380085008]","[0.06772403419017792, 0.11220412701368332, 0.03999999910593033]","[0.0, -0.0, 0.20713418275652515]",0.43800838910809975,-0.6693738193567246,"(0.0, 0.0, 0.0, 0.0, 0.0, 0.0)",-2.1972369462201473,-0.8069718657834439,0.22363782767689785,"(0.0, 0.0, 0.0, 0.0, 0.0, 0.0)",-1.1547451782269518,-0.6076956343075387,-0.5530665555019677,"(0.0, 0.0, 0.0, 0.0, 0.0, 0.0)",1.6773829233546027,0.8118791065429048,-0.15510606649930814,"(0.0, 0.0, 0.0, 0.0, 0.0, 0.0)",0.777103672361703,True,"(-0.020174118735289667, 0.1824863686948327, 0.023998752584250327)","(0.9992259584049528, 0.03931831505855185, -0.0012466557904547493)",-0.0017150841473835689,15.351333251980682,True,"(0.04115337914294239, 0.18036630039458723, 0.023999820177846028)","(-0.9988363674388201, -0.048227367939303246, -0.00017906219474799474)",3.930158113418494e-05,9.496218548564634
89,Move,"(0.0157333, 0.0, -0.0073533)","(0.0, 0.12648226556277706, 0.0)","(0.011096808144643202, 0.16026533734880444, 0.04830940475407378)","(-0.001187500139467907, 0.0017676818878363224, 0.03590746767355455)","[0.0010979815459210372, 0.00023759482687499278, 0.0007588457398561496]","[-0.026750000193715096, 0.05299999937415123, 0.03999999910593033]","[0.0, -0.0, 0.4380083866408004]","[-0.05728784203529358, 0.1182030662894249, 0.03999999910593033]","[0.0, 0.0, -0.3689635124595597]","[0.026750000193715096, 0.05299999937415123, 0.03999999910593033]","[0.0, 0.0, -0.607695633130213]","[0.06786035746335983, 0.11210954934358597, 0.03999999910593033]","[0.0, -0.0, 0.2041834644911912]",0.4351689448057071,-0.6814666325742263,"(0.0, 0.0, 0.0, 0.0, 0.0, 0.0)",-2.084145358713228,-0.8060915727072708,0.21127033828154035,"(0.0, 0.0, 0.0, 0.0, 0.0, 0.0)",-1.0982855278850179,-0.6101269446157325,-0.583514473966508,"(0.0, 0.0, 0.0, 0.0, 0.0, 0.0)",1.5399721960282606,0.8112749868156531,-0.14498873454040778,"(0.0, 0.0, 0.0, 0.0, 0.0, 0.0)",0.7259000580560059,True,"(-0.01987290624544656, 0.18250259174078381, 0.02399847643519861)","(0.9992902961273703, 0.03763754948299633, -0.0015228048421703788)",-0.001679812596344626,14.35016880232735,True,"(0.04149094563862211, 0.18034982660485263, 0.023999820177846028)","(-0.9988363674388201, -0.048227367939303246, -0.00017906219474799474)",4.7264878863928194e-05,7.818201581167142
90,Move,"(0.01642, 0.0, -0.0070733)","(0.0, 0.10136174163882268, 0.0)","(0.011428495087884264, 0.16026422304092994, 0.04833960067576103)","(-0.0014919475356902766, 0.0019571236352529543, 0.034154856659263384)","[0.0014296684891621, 0.0002364805190004926, 0.0007890416615433937]","[-0.026750000193715096, 0.05299999937415123, 0.03999999910593033]","[0.0, -0.0, 0.43516898002732934]","[-0.05710257962346077, 0.118289515376091, 0.03999999910593033]","[0.0, 0.0, -0.3709226483914716]","[0.026750000193715096, 0.05299999937415123, 0.03999999910593033]","[0.0, 0.0, -0.6101269630035263]","[0.06800394505262375, 0.11200942099094391, 0.03999999910593033]","[0.0, -0.0, 0.20114804860882793]",0.43225781602118524,-0.6986709082852548,"(0.0, 0.0, 0.0, 0.0, 0.0, 0.0)",-1.97169848715418,-0.8052518065977631,0.20154386628186655,"(0.0, 0.0, 0.0, 0.0, 0.0, 0.0)",-1.0471493278467392,-0.6126955059090486,-0.6164547103958827,"(0.0, 0.0, 0.0, 0.0, 0.0, 0.0)",1.4421990940215184,0.8107059690961603,-0.13656425267827754,"(0.0, 0.0, 0.0, 0.0, 0.0, 0.0)",0.6832140392722326,True,"(-0.019561750584405672, 0.18251583438703545, 0.023998231559073546)","(0.9993538348047728, 0.0358996958899799, -0.0017676809672390696)",-0.0016400123356041,13.34551271237904,True,"(0.04184179739842331, 0.1803294279652864, 0.023999820177846028)","(-0.9988363674388201, -0.048227367939303246, -0.00017906219474799474)",5.434041764837769e-05,6.359209446968208
91,Move,"(0.0177333, 0.0, -0.0071533)","(0.0, 0.07932172384463833, 0.0)","(0.011776532866538453, 0.16025562856123565, 0.04836708402960796)","(-0.0017942340611195892, 0.002052036440216138, 0.03242627082810647)","[0.0017777062678162887, 0.00022788603930620766, 0.0008165250153903264]","[-0.026750000193715096, 0.05299999937415123, 0.03999999910593033]","[0.0, -0.0, 0.43225783891228636]","[-0.0569123849272728, 0.11837759613990784, 0.03999999910593033]","[0.0, 0.0, -0.3729939358020249]","[0.026750000193715096, 0.05299999937415123, 0.03999999910593033]","[0.0, 0.0, -0.6126955152546982]","[0.06815537810325623, 0.11190326511859894, 0.03999999910593033]","[0.0, -0.0, 0.19801046825773105]",0.42925504033897344,-0.7206661637308336,"(0.0, 0.0, 0.0, 0.0, 0.0, 0.0)",-1.8894539880954762,-0.8044385653152275,0.19517790780853875,"(0.0, 0.0, 0.0, 0.0, 0.0, 0.0)",-1.0112435039258123,-0.6153976337562828,-0.6485106833362007,"(0.0, 0.0, 0.0, 0.0, 0.0, 0.0)",1.3761871148337188,0.8101612508645041,-0.13073237559751064,"(0.0, 0.0, 0.0, 0.0, 0.0, 0.0)",0.6531745670247961,True,"(-0.019238611867826272, 0.18252633803273854, 0.023998042117654935)","(0.9994148655342333, 0.0341481510649875, -0.001957122385848037)",-0.0015956869963055789,12.450991035651773,True,"(0.042207718303628454, 0.1803050195260063, 0.023999820177846028)","(-0.9988363674388201, -0.048227367939303246, -0.00017906219474799474)",6.008463493957684e-05,5.322291087642234
92,Move,"(0.0188, 0.0, -0.00742)","(0.0, 0.06359979794267337, 0.0)","(0.012157811986618982, 0.16022940002144478, 0.048382354827433034)","(-0.0018291888147437077, 0.0020382068821599157, 0.030776176562505635)","[0.0021589853878968175, 0.00020165749951533973, 0.000831795813215401]","[-0.026750000193715096, 0.05299999937415123, 0.03999999910593033]","[0.0, -0.0, 0.4292550611317611]","[-0.056715935468673706, 0.11846787482500076, 0.03999999910593033]","[0.0, 0.0, -0.375183535968756]","[0.026750000193715096, 0.05299999937415123, 0.03999999910593033]","[0.0, 0.0, -0.6153976114616568]","[0.06831439584493637, 0.11179116368293762, 0.03999999910593033]","[0.0, -0.0, 0.19476361666539954]",0.4260093275951177,-0.77897105852537,"(0.0, 0.0, 0.0, 0.0, 0.0, 0.0)",-1.9264029457985563,-0.803620748063061,0.19627614051995612,"(0.0, 0.0, 0.0, 0.0, 0.0, 0.0)",-1.0274972807196643,-0.6183455933464389,-0.7075103016374629,"(0.0, 0.0, 0.0, 0.0, 0.0, 0.0)",1.335674044311819,0.8096247608420625,-0.12875760538598616,"(0.0, 0.0, 0.0, 0.0, 0.0, 0.0)",0.6423108383513065,True,"(-0.01890181149077779, 0.18253443300917838, 0.0239979472050407)","(0.9994722102248369, 0.03242052036346152, -0.0020520350000829716)",-0.0015471442099629711,11.614083744266297,True,"(0.04258895745159706, 0.18027680936176327, 0.023999820177846028)","(-0.9988363674388201, -0.048227367939303246, -0.00017906219474799474)",6.325265499107834e-05,5.246184656049877
