OSUrobotics/InHand-Manipulation/AnalyseData/Data/Trial Data/Even Better/new_hand_human_sub1_2v2_f_n_1_kpNone_kdNone_dp2_step1_save_data.csv
,Phase,human_cube_pos,human_cube_orn,Cube_Pos,Cube_Orn,Cube_pos_in_start_pos,b'l_prox_pin'_link_pos,b'l_prox_pin'_link_orn,b'l_distal_pin'_link_pos,b'l_distal_pin'_link_orn,b'r_prox_pin'_link_pos,b'r_prox_pin'_link_orn,b'r_distal_pin'_link_pos,b'r_distal_pin'_link_orn,b'l_prox_pin'_joint_angle,b'l_prox_pin'_joint_vel,b'l_prox_pin'_joint_react_forces,b'l_prox_pin'_joint_motor_torque,b'l_distal_pin'_joint_angle,b'l_distal_pin'_joint_vel,b'l_distal_pin'_joint_react_forces,b'l_distal_pin'_joint_motor_torque,b'r_prox_pin'_joint_angle,b'r_prox_pin'_joint_vel,b'r_prox_pin'_joint_react_forces,b'r_prox_pin'_joint_motor_torque,b'r_distal_pin'_joint_angle,b'r_distal_pin'_joint_vel,b'r_distal_pin'_joint_react_forces,b'r_distal_pin'_joint_motor_torque,in_contact_l,contact_point_l_dist,contact_normal_l_dist,contact_distance_l_dist,contact_norm_force_l_dist,in_contact_r,contact_point_r_dist,contact_normal_r_dist,contact_distance_r_dist,contact_norm_force_r_dist
0,Open,,,,,,"[-0.026750000193715096, 0.05299999937415123, 0.03999999910593033]","[0.0, -0.0, 0.0]","[-0.026750000193715096, 0.125, 0.03999999910593033]","[0.0, -0.0, 0.0]","[0.026750000193715096, 0.05299999937415123, 0.03999999910593033]","[0.0, -0.0, 0.0]","[0.026750000193715096, 0.125, 0.03999999910593033]","[0.0, -0.0, 0.0]",0.0,0.0,"(0.0, 0.0, 0.0, 0.0, 0.0, 0.0)",1.3400621000080305e-17,5.883223478113402e-32,1.4119736347472167e-29,"(0.0, 0.0, 0.0, 0.0, 0.0, 0.0)",1.0542555313129702e-18,-0.008068665190486622,-1.9364796457167894,"(0.0, 0.0, 0.0, 0.0, 0.0, 0.0)",193.26378306879909,-0.0700246186727924,-16.805908481470176,"(0.0, 0.0, 0.0, 0.0, 0.0, 0.0)",71.94009191575694,False,,,,,False,,,,
1,Open,,,,,,"[-0.026750000193715096, 0.05299999937415123, 0.03999999910593033]","[0.0, -0.0, 0.0]","[-0.026750000193715096, 0.125, 0.03999999910593033]","[0.0, -0.0, 5.883223447970011e-32]","[0.026750000193715096, 0.05299999937415123, 0.03999999910593033]","[0.0, 0.0, -0.008068665592501188]","[0.02733093686401844, 0.12499765306711197, 0.03999999910593033]","[0.0, 0.0, -0.0780932845685428]",0.157,37.68,"(0.0, 0.0, 0.0, 0.0, 0.0, 0.0)",54.702693795169004,5.294901130302062e-32,-1.4119736347472162e-30,"(0.0, 0.0, 0.0, 0.0, 0.0, 0.0)",3.9113724975844915,-0.1670280316324969,-38.150247946082466,"(0.0, 0.0, 0.0, 0.0, 0.0, 0.0)",-25.93345404555236,-0.0659493391739072,0.9780670797324476,"(0.0, 0.0, 0.0, 0.0, 0.0, 0.0)",-6.754749483880455,False,,,,,False,,,,
2,Open,,,,,,"[-0.026750000193715096, 0.05299999937415123, 0.03999999910593033]","[0.0, -0.0, 0.1569999988554567]","[-0.03800761699676514, 0.12411445379257202, 0.03999999910593033]","[0.0, -0.0, 0.1569999988554567]","[0.026750000193715096, 0.05299999937415123, 0.03999999910593033]","[0.0, 0.0, -0.16702801712980753]","[0.038720179349184036, 0.1239979937672615, 0.03999999910593033]","[0.0, 0.0, -0.23297739431320727]",0.29829999999999995,33.91199999999999,"(0.0, 0.0, 0.0, 0.0, 0.0, 0.0)",-5.390828189440958,5.294901130302062e-32,0.0,"(0.0, 0.0, 0.0, 0.0, 0.0, 0.0)",-0.3659219356209609,-0.3122944613104081,-34.863943122698686,"(0.0, 0.0, 0.0, 0.0, 0.0, 0.0)",95.8006544774165,-0.06705867534034729,-0.2662406799456205,"(0.0, 0.0, 0.0, 0.0, 0.0, 0.0)",9.049911776264722,False,,,,,False,,,,
3,Open,,,,,,"[-0.026750000193715096, 0.05299999937415123, 0.03999999910593033]","[0.0, -0.0, 0.29830000998707634]","[-0.04791048914194107, 0.12182030081748962, 0.03999999910593033]","[0.0, -0.0, 0.29830000998707634]","[0.026750000193715096, 0.05299999937415123, 0.03999999910593033]","[0.0, 0.0, -0.3122944642903269]","[0.048871491104364395, 0.12151744216680527, 0.03999999910593033]","[0.0, 0.0, -0.3793531994353912]",0.42546999999999996,30.5208,"(0.0, 0.0, 0.0, 0.0, 0.0, 0.0)",-4.858074537215091,5.294901130302062e-32,0.0,"(0.0, 0.0, 0.0, 0.0, 0.0, 0.0)",-0.33154044974508506,-0.44292449566296654,-31.35120824461403,"(0.0, 0.0, 0.0, 0.0, 0.0, 0.0)",100.88457241511576,-0.08373770380977785,-4.0029668326633345,"(0.0, 0.0, 0.0, 0.0, 0.0, 0.0)",24.077304806401806,False,,,,,False,,,,
4,Open,,,,,,"[-0.026750000193715096, 0.05299999937415123, 0.03999999910593033]","[0.0, -0.0, 0.4254700097131474]","[-0.056467924267053604, 0.11858082562685013, 0.03999999910593033]","[0.0, -0.0, 0.4254700097131474]","[0.026750000193715096, 0.05299999937415123, 0.03999999910593033]","[0.0, 0.0, -0.4429245237535421]","[0.057608019560575485, 0.1180521547794342, 0.03999999910593033]","[0.0, 0.0, -0.5266622746639338]",0.5399229999999999,27.46872,"(0.0, 0.0, 0.0, 0.0, 0.0, 0.0)",-4.377393708535371,5.294901130302062e-32,0.0,"(0.0, 0.0, 0.0, 0.0, 0.0, 0.0)",-0.30017707799641646,-0.5623038734984663,-28.651050680519948,"(0.0, 0.0, 0.0, 0.0, 0.0, 0.0)",144.45470973647488,-0.10456727132876567,-4.999096204557077,"(0.0, 0.0, 0.0, 0.0, 0.0, 0.0)",33.97911746732963,False,,,,,False,,,,
5,Open,,,,,,"[-0.026750000193715096, 0.05299999937415123, 0.03999999910593033]","[0.0, -0.0, 0.5399230359738098]","[-0.06376303732395172, 0.11475787311792374, 0.03999999910593033]","[0.0, -0.0, 0.5399230359738098]","[0.026750000193715096, 0.05299999937415123, 0.03999999910593033]","[0.0, 0.0, -0.5623038790270362]","[0.06513584405183792, 0.11391409486532211, 0.03999999910593033]","[0.0, 0.0, -0.6668711870723439]",0.6429307,24.721848,"(0.0, 0.0, 0.0, 0.0, 0.0, 0.0)",-3.943806903965684,5.294901130302062e-32,0.0,"(0.0, 0.0, 0.0, 0.0, 0.0, 0.0)",-0.2716098155097054,-0.6673401099248648,-25.208696742335626,"(0.0, 0.0, 0.0, 0.0, 0.0, 0.0)",94.97739775913854,-0.11755295807544866,-3.116564819203918,"(0.0, 0.0, 0.0, 0.0, 0.0, 0.0)",25.79194570087013,False,,,,,False,,,,
6,Open,,,,,,"[-0.026750000193715096, 0.05299999937415123, 0.03999999910593033]","[0.0, -0.0, 0.6429307111289271]","[-0.06991713494062424, 0.11062463372945786, 0.03999999910593033]","[0.0, -0.0, 0.6429307111289271]","[0.026750000193715096, 0.05299999937415123, 0.03999999910593033]","[0.0, 0.0, -0.6673401753977319]","[0.07131072133779526, 0.10955388844013214, 0.03999999910593033]","[0.0, 0.0, -0.7848931559948581]",0.73563763,22.249663200000004,"(0.0, 0.0, 0.0, 0.0, 0.0, 0.0)",-3.552789792259023,5.294901130302062e-32,0.0,"(0.0, 0.0, 0.0, 0.0, 0.0, 0.0)",-0.24562369466220793,-0.7579917869736262,-21.756402491702737,"(0.0, 0.0, 0.0, 0.0, 0.0, 0.0)",34.46450837185191,-0.10794166402774508,2.3067105714488583,"(0.0, 0.0, 0.0, 0.0, 0.0, 0.0)",8.765009015475858,False,,,,,False,,,,
7,Open,,,,,,"[-0.026750000193715096, 0.05299999937415123, 0.03999999910593033]","[0.0, -0.0, 0.7356376306875043]","[-0.07506632059812546, 0.10638101398944855, 0.03999999910593033]","[0.0, -0.0, 0.7356376306875043]","[0.026750000193715096, 0.05299999937415123, 0.03999999910593033]","[0.0, 0.0, -0.757991847340814]","[0.076247438788414, 0.10528770089149475, 0.03999999910593033]","[0.0, 0.0, -0.8659334873334429]",0.8190738670000001,20.024696880000004,"(0.0, 0.0, 0.0, 0.0, 0.0, 0.0)",-3.2002295086701533,2.3293280891773424e-07,5.5903874140256216e-05,"(0.0, 0.0, 0.0, 0.0, 0.0, 0.0)",-0.22200715926400075,-0.8391926082762636,-19.488197112632974,"(0.0, 0.0, 0.0, 0.0, 0.0, 0.0)",3.295349739497939,-0.09714776835574307,2.590534961280482,"(0.0, 0.0, 0.0, 0.0, 0.0, 0.0)",0.25803221970863044,False,,,,,False,,,,
8,Open,,,,,,"[-0.026750000193715096, 0.05299999937415123, 0.03999999910593033]","[0.0, -0.0, 0.8190738875671263]","[-0.07934698462486267, 0.10216865688562393, 0.03999999910593033]","[0.0, -0.0, 0.8190741465287105]","[0.026750000193715096, 0.05299999937415123, 0.03999999910593033]","[0.0, 0.0, -0.839192558822362]","[0.08032548427581787, 0.10110059380531311, 0.03999999910593033]","[0.0, 0.0, -0.9363403253067936]",0.8941664803,18.022227192,"(0.0, 0.0, 0.0, 0.0, 0.0, 0.0)",-2.8824197251771095,4.2009445145371055e-07,4.4918794208634316e-05,"(0.0, 0.0, 0.0, 0.0, 0.0, 0.0)",-0.2005835928406654,-0.9122733474486373,-17.539377401369673,"(0.0, 0.0, 0.0, 0.0, 0.0, 0.0)",2.7804978356880783,-0.0874331700712747,2.33150358827241,"(0.0, 0.0, 0.0, 0.0, 0.0, 0.0)",0.17017621517521792,False,,,,,False,,,,
9,Open,,,,,,"[-0.026750000193715096, 0.05299999937415123, 0.03999999910593033]","[0.0, -0.0, 0.894166469119967]","[-0.08288749307394028, 0.09808415919542313, 0.03999999910593033]","[0.0, -0.0, 0.894166894674561]","[0.026750000193715096, 0.05299999937415123, 0.03999999910593033]","[0.0, 0.0, -0.9122733503889549]","[0.08369457721710205, 0.09706035256385803, 0.03999999910593033]","[0.0, 0.0, -0.9997066729229968]",0.96174983227,16.220004472800003,"(0.0, 0.0, 0.0, 0.0, 0.0, 0.0)",-2.5959652512206968,5.681494863714967e-07,3.553320838026869e-05,"(0.0, 0.0, 0.0, 0.0, 0.0, 0.0)",-0.18114955764248034,-0.9780460127037736,-15.785439661232708,"(0.0, 0.0, 0.0, 0.0, 0.0, 0.0)",2.503992476159733,-0.0786900142246732,2.098357403184359,"(0.0, 0.0, 0.0, 0.0, 0.0, 0.0)",0.15360133560797545,False,,,,,False,,,,
10,Open,,,,,,"[-0.026750000193715096, 0.05299999937415123, 0.03999999910593033]","[0.0, -0.0, 0.9617498658906226]","[-0.08580395579338074, 0.09419016540050507, 0.03999999910593033]","[0.0, -0.0, 0.9617504517765805]","[0.026750000193715096, 0.05299999937415123, 0.03999999910593033]","[0.0, 0.0, -0.9780460255881384]","[0.08646733313798904, 0.09322238713502884, 0.03999999910593033]","[0.0, 0.0, -1.0567360258914282]",1.022574849043,14.598004025520002,"(0.0, 0.0, 0.0, 0.0, 0.0, 0.0)",-2.337816594086846,6.829231533297027e-07,2.7545680069969436e-05,"(0.0, 0.0, 0.0, 0.0, 0.0, 0.0)",-0.16354029854134106,-1.0372414114333963,-14.206895695109438,"(0.0, 0.0, 0.0, 0.0, 0.0, 0.0)",2.2548456713339484,-0.07082115822448021,1.8885254400463192,"(0.0, 0.0, 0.0, 0.0, 0.0, 0.0)",0.13860128234430863,False,,,,,False,,,,
11,Open,,,,,,"[-0.026750000193715096, 0.05299999937415123, 0.03999999910593033]","[0.0, -0.0, 1.0225748785172661]","[-0.08819860219955444, 0.09052424877882004, 0.03999999910593033]","[0.0, -0.0, 1.0225755149967983]","[0.026750000193715096, 0.05299999937415123, 0.03999999910593033]","[0.0, 0.0, -1.037241417801626]","[0.08874232321977615, 0.08961901068687439, 0.03999999910593033]","[0.0, 0.0, -1.1080626941470386]",1.0773173641387,13.138203622968001,"(0.0, 0.0, 0.0, 0.0, 0.0, 0.0)",-2.105207702642618,7.694903593429899e-07,2.0776129443188934e-05,"(0.0, 0.0, 0.0, 0.0, 0.0, 0.0)",-0.14759587787833617,-1.0905172702900567,-12.78620612559849,"(0.0, 0.0, 0.0, 0.0, 0.0, 0.0)",2.0303755786213302,-0.06373917358809339,1.6996763127328351,"(0.0, 0.0, 0.0, 0.0, 0.0, 0.0)",0.1250328149112744,False,,,,,False,,,,
12,Open,,,,,,"[-0.026750000193715096, 0.05299999937415123, 0.03999999910593033]","[0.0, -0.0, 1.0773173786594632]","[-0.09015969932079315, 0.08710587024688721, 0.03999999910593033]","[0.0, -0.0, 1.0773182784199262]","[0.026750000193715096, 0.05299999937415123, 0.03999999910593033]","[0.0, 0.0, -1.090517334189526]","[0.09060435742139816, 0.0862659215927124, 0.03999999910593033]","[0.0, 0.0, -1.1542564269670996]",1.1265856277248298,11.824383260671203,"(0.0, 0.0, 0.0, 0.0, 0.0, 0.0)",-1.895636869852492,8.322629993378343e-07,1.5065433598762668e-05,"(0.0, 0.0, 0.0, 0.0, 0.0, 0.0)",-0.13316806895824274,-1.138465543261051,-11.50758551303864,"(0.0, 0.0, 0.0, 0.0, 0.0, 0.0)",1.828159741200242,-0.05736537454460671,1.5297117704368035,"(0.0, 0.0, 0.0, 0.0, 0.0, 0.0)",0.11276577482950233,False,,,,,False,,,,
13,Open,,,,,,"[-0.026750000193715096, 0.05299999937415123, 0.03999999910593033]","[0.0, -0.0, 1.126585512342968]","[-0.09176240861415863, 0.08394166082143784, 0.03999999910593033]","[0.0, -0.0, 1.1265864725026016]","[0.026750000193715096, 0.05299999937415123, 0.03999999910593033]","[0.0, 0.0, -1.13846552283997]","[0.09212540090084076, 0.08316715806722641, 0.03999999910593033]","[0.0, 0.0, -1.1958309904194953]",1.1709270649523469,10.641944934604087,"(0.0, 0.0, 0.0, 0.0, 0.0, 0.0)",-1.7068426281171958,8.750681698751778e-07,1.0273240928962424e-05,"(0.0, 0.0, 0.0, 0.0, 0.0, 0.0)",-0.12011999884119333,-1.181618988934946,-10.356826961734775,"(0.0, 0.0, 0.0, 0.0, 0.0, 0.0)",1.6460093571929852,-0.051628943774705546,1.376743384776279,"(0.0, 0.0, 0.0, 0.0, 0.0, 0.0)",0.10168054944364863,False,,,,,False,,,,
14,Open,,,,,,"[-0.026750000193715096, 0.05299999937415123, 0.03999999910593033]","[0.0, -0.0, 1.170927100750299]","[-0.09307006001472473, 0.08102945238351822, 0.03999999910593033]","[0.0, -0.0, 1.1709279927689973]","[0.026750000193715096, 0.05299999937415123, 0.03999999910593033]","[0.0, 0.0, -1.181618964677462]","[0.09336595237255096, 0.08031877130270004, 0.03999999910593033]","[0.0, 0.0, -1.233247876832181]",1.2108343584571122,9.577750441143678,"(0.0, 0.0, 0.0, 0.0, 0.0, 0.0)",-1.5367816122769582,9.012180617793662e-07,6.275974057005224e-06,"(0.0, 0.0, 0.0, 0.0, 0.0, 0.0)",-0.1083256720668905,-1.2204570900414513,-9.3211442655613,"(0.0, 0.0, 0.0, 0.0, 0.0, 0.0)",1.4819475463743526,-0.046466145575958295,1.239071567699341,"(0.0, 0.0, 0.0, 0.0, 0.0, 0.0)",0.09166748660725833,False,,,,,False,,,,
15,Open,,,,,,"[-0.026750000193715096, 0.05299999937415123, 0.03999999910593033]","[0.0, -0.0, 1.2108343955497323]","[-0.09413553774356842, 0.07836118340492249, 0.03999999910593033]","[0.0, -0.0, 1.210835255049739]","[0.026750000193715096, 0.05299999937415123, 0.03999999910593033]","[0.0, 0.0, -1.2204571829136446]","[0.09437645971775055, 0.07771158218383789, 0.03999999910593033]","[0.0, 0.0, -1.2669233179031547]",1.2467509226114009,8.619975397029307,"(0.0, 0.0, 0.0, 0.0, 0.0, 0.0)",-1.3836082777937824,9.135722823677317e-07,2.9650129412077397e-06,"(0.0, 0.0, 0.0, 0.0, 0.0, 0.0)",-0.09766941677677543,-1.2554113810373062,-8.38902983900517,"(0.0, 0.0, 0.0, 0.0, 0.0, 0.0)",1.334189480132575,-0.04181961771093252,1.1151666876061868,"(0.0, 0.0, 0.0, 0.0, 0.0, 0.0)",0.08262627878010878,False,,,,,False,,,,
16,Open,,,,,,"[-0.026750000193715096, 0.05299999937415123, 0.03999999910593033]","[0.0, -0.0, 1.2467510110527222]","[-0.09500277042388916, 0.07592508941888809, 0.03999999910593033]","[0.0, -0.0, 1.246751870145374]","[0.026750000193715096, 0.05299999937415123, 0.03999999910593033]","[0.0, 0.0, -1.255411348379259]","[0.09519875049591064, 0.0753331333398819, 0.03999999910593033]","[0.0, 0.0, -1.2972309672073006]",1.2790758303502607,7.757977857326381,"(0.0, 0.0, 0.0, 0.0, 0.0, 0.0)",-1.2456264712746363,2.1141758111398655e-06,0.0002881448469053121,"(0.0, 0.0, 0.0, 0.0, 0.0, 0.0)",-0.088015399348708,-1.2868702429335757,-7.5501268551046525,"(0.0, 0.0, 0.0, 0.0, 0.0, 0.0)",1.2010989712673745,-0.037638748630864464,1.0034085792163332,"(0.0, 0.0, 0.0, 0.0, 0.0, 0.0)",0.07444006052486639,False,,,,,False,,,,
17,Open,,,,,,"[-0.026750000193715096, 0.05299999937415123, 0.03999999910593033]","[0.0, -0.0, 1.2790758758817962]","[-0.09570803493261337, 0.0737072303891182, 0.03999999910593033]","[0.0, -0.0, 1.2790780932516201]","[0.026750000193715096, 0.05299999937415123, 0.03999999910593033]","[0.0, 0.0, -1.2868702529032277]","[0.0958673357963562, 0.07316911965608597, 0.03999999910593033]","[0.0, 0.0, -1.3245087793274308]",1.3081682532711112,6.982181501004109,"(0.0, 0.0, 0.0, 0.0, 0.0, 0.0)",-1.12145472366965,1.9027582300258812e-06,-5.0740219467356254e-05,"(0.0, 0.0, 0.0, 0.0, 0.0, 0.0)",-0.07939114715284208,-1.315183223212741,-6.795115266999686,"(0.0, 0.0, 0.0, 0.0, 0.0, 0.0)",1.0813262344929835,-0.033874873767778015,0.9033299671407473,"(0.0, 0.0, 0.0, 0.0, 0.0, 0.0)",0.06713055017345074,False,,,,,False,,,,
18,Open,,,,,,"[-0.026750000193715096, 0.05299999937415123, 0.03999999910593033]","[0.0, -0.0, 1.3081682459906412]","[-0.09628119319677353, 0.07169260084629059, 0.03999999910593033]","[0.0, -0.0, 1.3081702011658356]","[0.026750000193715096, 0.05299999937415123, 0.03999999910593033]","[0.0, 0.0, -1.3151833180210462]","[0.0964106097817421, 0.07120437920093536, 0.03999999910593033]","[0.0, 0.0, -1.349058153261439]",1.334351427944,6.283961921493333,"(0.0, 0.0, 0.0, 0.0, 0.0, 0.0)",-1.0095234585863413,2.7618377923566443e-06,0.00020617909495938315,"(0.0, 0.0, 0.0, 0.0, 0.0, 0.0)",-0.07148780084672787,-1.3406649008914668,-6.11560264289422,"(0.0, 0.0, 0.0, 0.0, 0.0, 0.0)",0.9733796231570812,-0.030488273507324658,0.8127840625088054,"(0.0, 0.0, 0.0, 0.0, 0.0, 0.0)",0.060435192896783604,False,,,,,False,,,,
19,Open,,,,,,"[-0.026750000193715096, 0.05299999937415123, 0.03999999910593033]","[0.0, -0.0, 1.334351465706577]","[-0.09674673527479172, 0.06986585259437561, 0.03999999910593033]","[0.0, -0.0, 1.33435435145599]","[0.026750000193715096, 0.05299999937415123, 0.03999999910593033]","[0.0, 0.0, -1.3406650641721125]","[0.09685182571411133, 0.06942359358072281, 0.03999999910593033]","[0.0, 0.0, -1.3711530696282732]",1.3579162851496,5.655565729344001,"(0.0, 0.0, 0.0, 0.0, 0.0, 0.0)",-0.9088150211252332,3.4316066113876724e-06,0.0001607445165674468,"(0.0, 0.0, 0.0, 0.0, 0.0, 0.0)",-0.06444344013525093,-1.3635984108023202,-5.504042378604797,"(0.0, 0.0, 0.0, 0.0, 0.0, 0.0)",0.8762522980402716,-0.02744024570882781,0.7315266716392431,"(0.0, 0.0, 0.0, 0.0, 0.0, 0.0)",0.05446985052483407,False,,,,,False,,,,
20,Open,,,,,,"[-0.026750000193715096, 0.05299999937415123, 0.03999999910593033]","[0.0, -0.0, 1.3579163939939654]","[-0.09712471067905426, 0.0682118609547615, 0.03999999910593033]","[0.0, -0.0, 1.3579197824809437]","[0.026750000193715096, 0.05299999937415123, 0.03999999910593033]","[0.0, 0.0, -1.3635984874387626]","[0.09721000492572784, 0.06781173497438431, 0.03999999910593033]","[0.0, 0.0, -1.3910385869420074]",1.37912465663464,5.090009156409601,"(0.0, 0.0, 0.0, 0.0, 0.0, 0.0)",-0.8181093185961676,3.940702417530038e-06,0.0001221829934741677,"(0.0, 0.0, 0.0, 0.0, 0.0, 0.0)",-0.05806034967263589,-1.3842385697220883,-4.953638140744317,"(0.0, 0.0, 0.0, 0.0, 0.0, 0.0)",0.7887791417834831,-0.024696941374704916,0.6583930401894944,"(0.0, 0.0, 0.0, 0.0, 0.0, 0.0)",0.04906644857689494,False,,,,,False,,,,
21,Open,,,,,,"[-0.026750000193715096, 0.05299999937415123, 0.03999999910593033]","[0.0, -0.0, 1.3791247702213432]","[-0.0974314734339714, 0.0667160153388977, 0.03999999910593033]","[0.0, -0.0, 1.3791284782568445]","[0.026750000193715096, 0.05299999937415123, 0.03999999910593033]","[0.0, 0.0, -1.3842387704807777]","[0.09750068932771683, 0.06635437905788422, 0.03999999910593033]","[0.0, 0.0, -1.408935619520831]",1.398212190971176,4.581008240768642,"(0.0, 0.0, 0.0, 0.0, 0.0, 0.0)",-0.7364407507487188,4.314390796743166e-06,8.968521101115077e-05,"(0.0, 0.0, 0.0, 0.0, 0.0, 0.0)",-0.05230389643117988,-1.4028147127498793,-4.458274326669883,"(0.0, 0.0, 0.0, 0.0, 0.0, 0.0)",0.7100243788118592,-0.02222789596809768,0.5925708975857369,"(0.0, 0.0, 0.0, 0.0, 0.0, 0.0)",0.04419507766734469,False,,,,,False,,,,
22,Open,,,,,,"[-0.026750000193715096, 0.05299999937415123, 0.03999999910593033]","[0.0, -0.0, 1.3982120672717784]","[-0.09768038988113403, 0.06536446511745453, 0.03999999910593033]","[0.0, -0.0, 1.3982164487645397]","[0.026750000193715096, 0.05299999937415123, 0.03999999910593033]","[0.0, 0.0, -1.4028147367436141]","[0.09773654490709305, 0.06503787636756897, 0.03999999910593033]","[0.0, 0.0, -1.4250426427007885]",1.4153909718740585,4.122907416691778,"(0.0, 0.0, 0.0, 0.0, 0.0, 0.0)",-0.6629119687698639,4.574523674952359e-06,6.243189077020624e-05,"(0.0, 0.0, 0.0, 0.0, 0.0, 0.0)",-0.04711364623212332,-1.4195332414748913,-4.012446894002898,"(0.0, 0.0, 0.0, 0.0, 0.0, 0.0)",0.6391216750959775,-0.02000569064819732,0.5333292767760867,"(0.0, 0.0, 0.0, 0.0, 0.0, 0.0)",0.039804123486470444,False,,,,,False,,,,
23,Open,,,,,,"[-0.026750000193715096, 0.05299999937415123, 0.03999999910593033]","[0.0, -0.0, 1.415391158105469]","[-0.09788231551647186, 0.06414420157670975, 0.03999999910593033]","[0.0, -0.0, 1.415395709317307]","[0.026750000193715096, 0.05299999937415123, 0.03999999910593033]","[0.0, 0.0, -1.419533200978404]","[0.09792786836624146, 0.06384945660829544, 0.03999999910593033]","[0.0, 0.0, -1.4395389386881268]",1.4308518746866525,3.7106166750225977,"(0.0, 0.0, 0.0, 0.0, 0.0, 0.0)",-0.5967141397561109,4.7399630338636504e-06,3.9705446138709865e-05,"(0.0, 0.0, 0.0, 0.0, 0.0, 0.0)",-0.042434775014060074,-1.4345799173274023,-3.611202204602609,"(0.0, 0.0, 0.0, 0.0, 0.0, 0.0)",0.5752902758042565,-0.018005647771851804,0.4800102903229233,"(0.0, 0.0, 0.0, 0.0, 0.0, 0.0)",0.0358468230863414,False,,,,,False,,,,
24,Open,,,,,,"[-0.026750000193715096, 0.05299999937415123, 0.03999999910593033]","[0.0, -0.0, 1.4308518944899675]","[-0.09804610908031464, 0.06304314732551575, 0.03999999910593033]","[0.0, -0.0, 1.4308566269594332]","[0.026750000193715096, 0.05299999937415123, 0.03999999910593033]","[0.0, 0.0, -1.4345798203875788]","[0.09808305650949478, 0.06277728080749512, 0.03999999910593033]","[0.0, 0.0, -1.4525855975984745]",1.4447666872179874,3.339555007520341,"(0.0, 0.0, 0.0, 0.0, 0.0, 0.0)",-0.5371183361845069,4.8269553674989e-06,2.0878160072459843e-05,"(0.0, 0.0, 0.0, 0.0, 0.0, 0.0)",-0.03821759960562203,-1.448121925594662,-3.2500819841423465,"(0.0, 0.0, 0.0, 0.0, 0.0, 0.0)",0.5178266556878065,-0.016205556838873442,0.4320218239148067,"(0.0, 0.0, 0.0, 0.0, 0.0, 0.0)",0.0322808466635012,False,,,,,False,,,,
25,Open,,,,,,"[-0.026750000193715096, 0.05299999937415123, 0.03999999910593033]","[0.0, -0.0, 1.4447668540021588]","[-0.09817895293235779, 0.06205013021826744, 0.03999999910593033]","[0.0, -0.0, 1.4447715863131299]","[0.026750000193715096, 0.05299999937415123, 0.03999999910593033]","[0.0, 0.0, -1.448121993206969]","[0.09820891171693802, 0.06181041896343231, 0.03999999910593033]","[0.0, 0.0, -1.46432761016298]",1.4572900184961886,3.005599506768304,"(0.0, 0.0, 0.0, 0.0, 0.0, 0.0)",-0.483467731204937,4.849462099751187e-06,5.401615740548756e-06,"(0.0, 0.0, 0.0, 0.0, 0.0, 0.0)",-0.03441712855198442,-1.4603097330351957,-2.925073785728113,"(0.0, 0.0, 0.0, 0.0, 0.0, 0.0)",0.4660969568661882,-0.014585427836986846,0.38883096045278315,"(0.0, 0.0, 0.0, 0.0, 0.0, 0.0)",0.029067900465992856,False,,,,,False,,,,
26,Open,,,,,,"[-0.026750000193715096, 0.05299999937415123, 0.03999999910593033]","[0.0, -0.0, 1.4572900807517244]","[-0.0982866883277893, 0.061154916882514954, 0.03999999910593033]","[0.0, -0.0, 1.4572948921008348]","[0.026750000193715096, 0.05299999937415123, 0.03999999910593033]","[0.0, 0.0, -1.4603097470714805]","[0.09831098467111588, 0.06093886122107506, 0.03999999910593033]","[0.0, 0.0, -1.4748951413427742]",1.4685610166465697,2.705039556091476,"(0.0, 0.0, 0.0, 0.0, 0.0, 0.0)",-0.43517053908893033,4.819450845044722e-06,-7.202701129551542e-06,"(0.0, 0.0, 0.0, 0.0, 0.0, 0.0)",-0.030992645518402973,-1.471278759731676,-2.632566407155304,"(0.0, 0.0, 0.0, 0.0, 0.0, 0.0)",0.4195301522878829,-0.013127269246907155,0.3499580616191257,"(0.0, 0.0, 0.0, 0.0, 0.0, 0.0)",0.02617336062226555,False,,,,,False,,,,
27,Open,,,,,,"[-0.026750000193715096, 0.05299999937415123, 0.03999999910593033]","[0.0, -0.0, 1.4685611215819594]","[-0.09837405383586884, 0.06034812703728676, 0.03999999910593033]","[0.0, -0.0, 1.468565853091142]","[0.026750000193715096, 0.05299999937415123, 0.03999999910593033]","[0.0, 0.0, -1.4712788457263521]","[0.0983937606215477, 0.06015344336628914, 0.03999999910593033]","[0.0, 0.0, -1.4844061039497418]",1.4787049149819127,2.434535600482329,"(0.0, 0.0, 0.0, 0.0, 0.0, 0.0)",-0.39169363303347604,4.747151892642784e-06,-1.7351748576465223e-05,"(0.0, 0.0, 0.0, 0.0, 0.0, 0.0)",-0.02790732436186781,-1.4811508837585086,-2.3693097664397755,"(0.0, 0.0, 0.0, 0.0, 0.0, 0.0)",0.37761186810531283,-0.011814888241968555,0.3149714411852639,"(0.0, 0.0, 0.0, 0.0, 0.0, 0.0)",0.023565936472848985,False,,,,,False,,,,
28,Open,,,,,,"[-0.026750000193715096, 0.05299999937415123, 0.03999999910593033]","[0.0, -0.0, 1.4787049625213984]","[-0.09844490885734558, 0.059621214866638184, 0.03999999910593033]","[0.0, -0.0, 1.4787095898811649]","[0.026750000193715096, 0.05299999937415123, 0.03999999910593033]","[0.0, 0.0, -1.4811508165812142]","[0.09846089035272598, 0.059445831924676895, 0.03999999910593033]","[0.0, 0.0, -1.492965762433775]",1.4878344234837215,2.191082040434097,"(0.0, 0.0, 0.0, 0.0, 0.0, 0.0)",-0.35255677801820895,4.641283838470101e-06,-2.5408333001444004e-05,"(0.0, 0.0, 0.0, 0.0, 0.0, 0.0)",-0.02512787460267613,-1.4900357953826577,-2.132378789795796,"(0.0, 0.0, 0.0, 0.0, 0.0, 0.0)",0.33987880377374147,-0.010633710863257649,0.2834825708906175,"(0.0, 0.0, 0.0, 0.0, 0.0, 0.0)",0.021217361806457186,False,,,,,False,,,,
29,Close,,,"(0.010000165031897679, 0.16000264050809818, 0.003919197399597577)","(-5.388791991209616e-05, 3.3679978815229247e-06, -9.074720008653711e-11)",,"[-0.026750000193715096, 0.05299999937415123, 0.03999999910593033]","[0.0, -0.0, 1.487834617901085]","[-0.09850236773490906, 0.05896640568971634, 0.03999999910593033]","[0.0, -0.0, 1.4878390921106803]","[0.026750000193715096, 0.05299999937415123, 0.03999999910593033]","[0.0, 0.0, -1.4900358577435544]","[0.09851532429456711, 0.05880843847990036, 0.03999999910593033]","[0.0, 0.0, -1.5006695807985118]",1.4960509811353493,1.9719738363906854,"(0.0, 0.0, 0.0, 0.0, 0.0, 0.0)",-0.3173274216127963,4.509251873886308e-06,-3.168767150011037e-05,"(0.0, 0.0, 0.0, 0.0, 0.0, 0.0)",-0.022624215793833224,-1.498032215844392,-1.9191409108162163,"(0.0, 0.0, 0.0, 0.0, 0.0, 0.0)",0.30591369390909257,-0.00957062017308593,0.2551417656412126,"(0.0, 0.0, 0.0, 0.0, 0.0, 0.0)",0.019102112305110365,False,,,,,False,,,,
30,Close,,,"(0.010000330010418335, 0.1600052801621647, 0.0076635160840755065)","(-0.00010776674212266888, 6.7354271463595154e-06, -3.629275205618536e-10)",,"[-0.026750000193715096, 0.05299999937415123, 0.03999999910593033]","[0.0, -0.0, 1.4960509653323988]","[-0.09854896366596222, 0.058376654982566833, 0.03999999910593033]","[0.0, -0.0, 1.4960555203126162]","[0.026750000193715096, 0.05299999937415123, 0.03999999910593033]","[0.0, 0.0, -1.4980320325532246]","[0.09855947643518448, 0.05823439359664917, 0.03999999910593033]","[0.0, 0.0, -1.5076028800413472]",1.4064458830218143,-21.505223547248388,"(0.0, 0.0, 0.0, 0.0, 0.0, 0.0)",-36.32500847077206,-0.08999559064729075,-21.600023975799512,"(0.0, 0.0, 0.0, 0.0, 0.0, 0.0)",-4.679136399120495,-1.4082289942599528,21.552773180265405,"(0.0, 0.0, 0.0, 0.0, 0.0, 0.0)",36.31473208701179,0.08138609105625041,21.82961069504072,"(0.0, 0.0, 0.0, 0.0, 0.0, 0.0)",4.675963213372079,False,,,,,False,,,,
31,Close,,,"(0.010000494936733278, 0.16000791898094055, 0.011233038807318392)","(-0.00016163646818851668, 1.0102287881965475e-05, -8.164490687548302e-10)",,"[-0.026750000193715096, 0.05299999937415123, 0.03999999910593033]","[0.0, -0.0, 1.4064459844712927]","[-0.0977797880768776, 0.06478003412485123, 0.03999999910593033]","[0.0, -0.0, 1.316450240076391]","[0.026750000193715096, 0.05299999937415123, 0.03999999910593033]","[0.0, 0.0, -1.4082291009672807]","[0.09780067950487137, 0.06465335935354233, 0.03999999910593033]","[0.0, 0.0, -1.3268428349863826]",1.325801294719633,-19.354701192523546,"(0.0, 0.0, 0.0, 0.0, 0.0, 0.0)",3.2936342521930255,-0.17099646652613912,-19.44021021092361,"(0.0, 0.0, 0.0, 0.0, 0.0, 0.0)",0.4145426679866387,-1.3274060948339577,19.39749586223887,"(0.0, 0.0, 0.0, 0.0, 0.0, 0.0)",-3.3024243844052092,0.16324791947241268,19.646838819878944,"(0.0, 0.0, 0.0, 0.0, 0.0, 0.0)",-0.41699994760359754,False,,,,,False,,,,
32,Close,,,"(0.010000659812012168, 0.16001055698314023, 0.0146278458391823)","(-0.0002154970996661642, 1.346858017578936e-05, -1.4512199879406586e-09)",,"[-0.026750000193715096, 0.05299999937415123, 0.03999999910593033]","[0.0, -0.0, 1.3258013857525741]","[-0.09659997373819351, 0.07046370953321457, 0.03999999910593033]","[0.0, -0.0, 1.1548048042561467]","[0.026750000193715096, 0.05299999937415123, 0.03999999910593033]","[0.0, 0.0, -1.3274060658778382]","[0.09662791341543198, 0.07035159319639206, 0.03999999910593033]","[0.0, 0.0, -1.1641581075845935]",1.2532211652476697,-17.41923107327119,"(0.0, 0.0, 0.0, 0.0, 0.0, 0.0)",2.9685258329366073,-0.24389721437960032,-17.496179484830687,"(0.0, 0.0, 0.0, 0.0, 0.0, 0.0)",0.3760018756193849,-1.2546654853505619,17.457746276014984,"(0.0, 0.0, 0.0, 0.0, 0.0, 0.0)",-2.976480273609718,0.2369235243908578,17.682145180426822,"(0.0, 0.0, 0.0, 0.0, 0.0, 0.0)",-0.3782508099482112,False,,,,,False,,,,
33,Close,,,"(0.010000824637423049, 0.16001319418745247, 0.017848014970055004)","(-0.00026934863811186216, 1.6834304115272585e-05, -2.2671484573282825e-09)",,"[-0.026750000193715096, 0.05299999937415123, 0.03999999910593033]","[0.0, -0.0, 1.2532212515508983]","[-0.09514966607093811, 0.07548300176858902, 0.03999999910593033]","[0.0, -0.0, 1.0093239867956962]","[0.026750000193715096, 0.05299999937415123, 0.03999999910593033]","[0.0, 0.0, -1.254665405963893]","[0.09518206864595413, 0.07538418471813202, 0.03999999910593033]","[0.0, 0.0, -1.0177419933055243]",1.1878990487229026,-15.677307965944074,"(0.0, 0.0, 0.0, 0.0, 0.0, 0.0)",2.675103284419244,-0.30950785045582774,-15.746552658294572,"(0.0, 0.0, 0.0, 0.0, 0.0, 0.0)",0.34074508229325023,-1.1891989368155058,15.711971648413485,"(0.0, 0.0, 0.0, 0.0, 0.0, 0.0)",-2.6822973218910153,0.30323153162132754,15.913921735312746,"(0.0, 0.0, 0.0, 0.0, 0.0, 0.0)",-0.34279935345822066,False,,,,,False,,,,
34,Close,,,"(0.010000989414132393, 0.1600158306125408, 0.020893621515273818)","(-0.00032319108508158773, 2.0199459787849396e-05, -3.2641426920478403e-09)",,"[-0.026750000193715096, 0.05299999937415123, 0.03999999910593033]","[0.0, -0.0, 1.1878990574339587]","[-0.09353619813919067, 0.07989988476037979, 0.03999999910593033]","[0.0, -0.0, 0.8783912846834516]","[0.026750000193715096, 0.05299999937415123, 0.03999999910593033]","[0.0, 0.0, -1.1891990098250689]","[0.09357111155986786, 0.07981304824352264, 0.03999999910593033]","[0.0, 0.0, -0.8859674697633095]",1.1291091438506125,-14.109577169349663,"(0.0, 0.0, 0.0, 0.0, 0.0, 0.0)",2.4103712722760626,-0.36855738916456426,-14.17188929009676,"(0.0, 0.0, 0.0, 0.0, 0.0, 0.0)",0.3085687115248564,-1.1302790431339553,14.140774483572143,"(0.0, 0.0, 0.0, 0.0, 0.0, 0.0)",-2.4168742890236286,0.36290870417903687,14.322521413850238,"(0.0, 0.0, 0.0, 0.0, 0.0, 0.0)",-0.31044204201279674,False,,,,,False,,,,
35,Close,,,"(0.010001154143305145, 0.16001846627704427, 0.023764738319401603)","(-0.00037702444213104407, 2.3564047280946926e-05, -4.4421109431381166e-09)",,"[-0.026750000193715096, 0.05299999937415123, 0.03999999910593033]","[0.0, -0.0, 1.1291090274464952]","[-0.09184028208255768, 0.08377750217914581, 0.03999999910593033]","[0.0, -0.0, 0.7605517150898052]","[0.026750000193715096, 0.05299999937415123, 0.03999999910593033]","[0.0, 0.0, -1.130279133319625]","[0.09187624603509903, 0.08370133489370346, 0.03999999910593033]","[0.0, 0.0, -0.7673703325611945]",1.0761982294655512,-12.698619452414698,"(0.0, 0.0, 0.0, 0.0, 0.0, 0.0)",2.1715845710489208,-0.42170194324014043,-12.754692978138287,"(0.0, 0.0, 0.0, 0.0, 0.0, 0.0)",0.27924932151422227,-1.07725113882056,12.72669703521493,"(0.0, 0.0, 0.0, 0.0, 0.0, 0.0)",-2.177460276301377,0.41661812854294633,12.890261847338277,"(0.0, 0.0, 0.0, 0.0, 0.0, 0.0)",-0.2809551529003472,False,,,,,False,,,,
36,Close,,,"(0.010001318826104761, 0.16002110119957821, 0.02646143576036139)","(-0.0004308487108156613, 2.692806668198511e-05, -5.800961497533997e-09)",,"[-0.026750000193715096, 0.05299999937415123, 0.03999999910593033]","[0.0, -0.0, 1.076198055145404]","[-0.09012148529291153, 0.08717681467533112, 0.03999999910593033]","[0.0, -0.0, 0.6544962762796218]","[0.026750000193715096, 0.05299999937415123, 0.03999999910593033]","[0.0, 0.0, -1.0772510781061955]","[0.09015743434429169, 0.08711007237434387, 0.03999999910593033]","[0.0, 0.0, -0.6606329452337051]",1.028578406518996,-11.428757507173229,"(0.0, 0.0, 0.0, 0.0, 0.0, 0.0)",1.9562489498726314,-0.46953201391559385,-11.479216962108818,"(0.0, 0.0, 0.0, 0.0, 0.0, 0.0)",0.2525697399559188,-1.0295260249385039,11.454027331693439,"(0.0, 0.0, 0.0, 0.0, 0.0, 0.0)",-1.961555706583625,0.46495658231577774,11.601228905479532,"(0.0, 0.0, 0.0, 0.0, 0.0, 0.0)",-0.25412105363877113,False,,,,,False,,,,
37,Close,,,"(0.010001483463693249, 0.1600237353987347, 0.0289837817534302)","(-0.0004846638926905951, 3.0291518078376737e-05, -7.3406026780539124e-09)",,"[-0.026750000193715096, 0.05299999937415123, 0.03999999910593033]","[0.0, -0.0, 1.028578444789276]","[-0.08842276781797409, 0.09015467017889023, 0.03999999910593033]","[0.0, -0.0, 0.5590464126725148]","[0.026750000193715096, 0.05299999937415123, 0.03999999910593033]","[0.0, 0.0, -1.029526007298545]","[0.08845794945955276, 0.09009620547294617, 0.03999999910593033]","[0.0, 0.0, -0.564569399435659]",0.9857205658670964,-10.285881756455906,"(0.0, 0.0, 0.0, 0.0, 0.0, 0.0)",1.7621005438122825,-0.5125790520819234,-10.331289159919107,"(0.0, 0.0, 0.0, 0.0, 0.0, 0.0)",0.22832149176550065,-0.9865734224446535,10.308624598524094,"(0.0, 0.0, 0.0, 0.0, 0.0, 0.0)",-1.766891708603882,0.508461165120635,10.441099873165749,"(0.0, 0.0, 0.0, 0.0, 0.0, 0.0)",-0.22973068702752517,False,,,,,False,,,,
38,Close,,,"(0.010001648057231211, 0.16002636889308344, 0.03133184175509247)","(-0.0005384699893107284, 3.3654401557527444e-05, -9.06094284338731e-09)",,"[-0.026750000193715096, 0.05299999937415123, 0.03999999910593033]","[0.0, -0.0, 0.9857205423734198]","[-0.08677425980567932, 0.09276290237903595, 0.03999999910593033]","[0.0, -0.0, 0.47314147483112123]","[0.026750000193715096, 0.05299999937415123, 0.03999999910593033]","[0.0, 0.0, -0.9865734261287252]","[0.08680814504623413, 0.09271169453859329, 0.03999999910593033]","[0.0, 0.0, -0.4781122693565934]",0.9471485092803869,-9.257293580810316,"(0.0, 0.0, 0.0, 0.0, 0.0, 0.0)",1.587086438141582,-0.5513213633331018,-9.29815470028281,"(0.0, 0.0, 0.0, 0.0, 0.0, 0.0)",0.206306403170868,-0.9479160802001881,9.277762138671687,"(0.0, 0.0, 0.0, 0.0, 0.0, 0.0)",-1.5914107042435905,0.5476152664096928,9.396984309373877,"(0.0, 0.0, 0.0, 0.0, 0.0, 0.0)",-0.2075852193448244,False,,,,,False,,,,
39,Close,,,"(0.01000181260787789, 0.16002900170117218, 0.03350567876675359)","(-0.00059226700223067, 3.7016717206835695e-05, -1.0961890388082131e-08)",,"[-0.026750000193715096, 0.05299999937415123, 0.03999999910593033]","[0.0, -0.0, 0.9471486716739237]","[-0.08519625663757324, 0.09504801034927368, 0.03999999910593033]","[0.0, -0.0, 0.39582717163487297]","[0.026750000193715096, 0.05299999937415123, 0.03999999910593033]","[0.0, 0.0, -0.9479160840165974]","[0.08522851020097733, 0.09500313550233841, 0.03999999910593033]","[0.0, 0.0, -0.4003008647547732]",0.9124336583523481,-8.331564222729286,"(0.0, 0.0, 0.0, 0.0, 0.0, 0.0)",1.4293465062267445,-0.5861894225076075,-8.368334201881392,"(0.0, 0.0, 0.0, 0.0, 0.0, 0.0)",0.18633757536892917,-0.9131244721801693,8.349985924804516,"(0.0, 0.0, 0.0, 0.0, 0.0, 0.0)",-1.433248242084051,0.5828539364930729,8.45728082001123,"(0.0, 0.0, 0.0, 0.0, 0.0, 0.0)",-0.18749704763631705,False,,,,,False,,,,
40,Close,,,"(0.010001977116791199, 0.1600316338415276, 0.035505353338314005)","(-0.0006460549330047555, 4.037846511369274e-05, -1.3043353742532214e-08)",,"[-0.026750000193715096, 0.05299999937415123, 0.03999999910593033]","[0.0, -0.0, 0.9124336635104583]","[-0.08370164036750793, 0.0970512256026268, 0.03999999910593033]","[0.0, -0.0, 0.3262442150321584]","[0.026750000193715096, 0.05299999937415123, 0.03999999910593033]","[0.0, 0.0, -0.9131245532476111]","[0.08373206108808517, 0.09701187163591385, 0.03999999910593033]","[0.0, 0.0, -0.3302705841133475]",0.8811902925171133,-7.498407800456356,"(0.0, 0.0, 0.0, 0.0, 0.0, 0.0)",1.2871965063691413,-0.6175706567763247,-7.531496224492115,"(0.0, 0.0, 0.0, 0.0, 0.0, 0.0)",0.16823988009592084,-0.8818120249621524,7.514987332324067,"(0.0, 0.0, 0.0, 0.0, 0.0, 0.0)",-1.2907160846573733,0.6145687204653795,7.61154815335357,"(0.0, 0.0, 0.0, 0.0, 0.0, 0.0)",-0.16929032064296096,False,,,,,False,,,,
41,Close,,,"(0.010002141585127773, 0.16003426533265583, 0.03733092357160428)","(-0.0006998337831870475, 4.3739645365482716e-05, -1.5305241372964883e-08)",,"[-0.026750000193715096, 0.05299999937415123, 0.03999999910593033]","[0.0, -0.0, 0.8811903688816151]","[-0.08229776471853256, 0.09880879521369934, 0.03999999910593033]","[0.0, -0.0, 0.2636196251065186]","[0.026750000193715096, 0.05299999937415123, 0.03999999910593033]","[0.0, 0.0, -0.8818121535754343]","[0.08232623338699341, 0.098774254322052, 0.03999999910593033]","[0.0, 0.0, -0.26724331826119446]",0.853071263265402,-6.7485670204107215,"(0.0, 0.0, 0.0, 0.0, 0.0, 0.0)",1.1591124175888132,-0.6458137504217961,-6.77834247491313,"(0.0, 0.0, 0.0, 0.0, 0.0, 0.0)",0.1518500972569631,-0.8536308224659371,6.763488599091658,"(0.0, 0.0, 0.0, 0.0, 0.0, 0.0)",-1.1622865309865396,0.643112008739745,6.850389185847702,"(0.0, 0.0, 0.0, 0.0, 0.0, 0.0)",-0.15280109527428076,False,,,,,False,,,,
42,Close,,,"(0.010002306014043007, 0.16003689619304312, 0.038982445123681576)","(-0.0007536035543313348, 4.7100258049582536e-05, -1.7747461781428295e-08)",,"[-0.026750000193715096, 0.05299999937415123, 0.03999999910593033]","[0.0, -0.0, 0.8530713239495782]","[-0.08098787814378738, 0.10035242885351181, 0.03999999910593033]","[0.0, -0.0, 0.2072574956851119]","[0.026750000193715096, 0.05299999937415123, 0.03999999910593033]","[0.0, 0.0, -0.8536307856313979]","[0.08101436495780945, 0.10032207518815994, 0.03999999910593033]","[0.0, 0.0, -0.21051882644475053]",0.8277641369388617,-6.073710318369648,"(0.0, 0.0, 0.0, 0.0, 0.0, 0.0)",1.043715976216214,-0.6712325191394197,-6.100504492229669,"(0.0, 0.0, 0.0, 0.0, 0.0, 0.0)",0.1370167890019201,-0.8282677402193435,6.0871397391824935,"(0.0, 0.0, 0.0, 0.0, 0.0, 0.0)",-1.0465779375227178,0.6688009525283538,6.165346509266115,"(0.0, 0.0, 0.0, 0.0, 0.0, 0.0)",-0.1378772244212715,False,,,,,False,,,,
43,Close,,,"(0.010002470404691093, 0.16003952644115657, 0.04045997120998789)","(-0.0008073642479911328, 5.0460303253361964e-05, -2.0369923505779015e-08)",,"[-0.026750000193715096, 0.05299999937415123, 0.03999999910593033]","[0.0, -0.0, 0.8277641182932235]","[-0.07977228611707687, 0.10170972347259521, 0.03999999910593033]","[0.0, -0.0, 0.1565316389415725]","[0.026750000193715096, 0.05299999937415123, 0.03999999910593033]","[0.0, 0.0, -0.8282677342123946]","[0.07979680597782135, 0.10168302059173584, 0.03999999910593033]","[0.0, 0.0, -0.1594667900835625]",0.8049877232449756,-5.4663392865326825,"(0.0, 0.0, 0.0, 0.0, 0.0, 0.0)",0.9397613626777375,-0.6941093969081942,-5.49045066450586,"(0.0, 0.0, 0.0, 0.0, 0.0, 0.0)",0.12359998406321729,-0.8054409661974091,5.478425765264244,"(0.0, 0.0, 0.0, 0.0, 0.0, 0.0)",-0.9423413878167864,0.6919209877745929,5.54880845909737,"(0.0, 0.0, 0.0, 0.0, 0.0, 0.0)",-0.12437805104754245,False,,,,,False,,,,
44,Close,,,"(0.010002634758225062, 0.1600421560954447, 0.041763552607370504)","(-0.000861115865719684, 5.381978106418352e-05, -2.3172535119669436e-08)",,"[-0.026750000193715096, 0.05299999937415123, 0.03999999910593033]","[0.0, -0.0, 0.8049877164750058]","[-0.07864919304847717, 0.10290464758872986, 0.03999999910593033]","[0.0, -0.0, 0.11087832859978779]","[0.026750000193715096, 0.05299999937415123, 0.03999999910593033]","[0.0, 0.0, -0.805440964305088]","[0.07867180556058884, 0.10288111865520477, 0.03999999910593033]","[0.0, 0.0, -0.11351997099607207]",0.784488950920478,-4.919705357879415,"(0.0, 0.0, 0.0, 0.0, 0.0, 0.0)",0.8461229797239068,-0.7146985741739192,-4.941402543774016,"(0.0, 0.0, 0.0, 0.0, 0.0, 0.0)",0.11147072977230046,-0.7848968695776682,4.93058318873782,"(0.0, 0.0, 0.0, 0.0, 0.0, 0.0)",-0.8484484528940599,0.7127290066915236,4.993924540063379,"(0.0, 0.0, 0.0, 0.0, 0.0, 0.0)",-0.1121739668696123,False,,,,,False,,,,
45,Close,,,"(0.010002799075796832, 0.16004478517433812, 0.04289323765696492)","(-0.0009148584090699577, 5.7178691569402595e-05, -2.615520523253533e-08)",,"[-0.026750000193715096, 0.05299999937415123, 0.03999999910593033]","[0.0, -0.0, 0.7844889896573499]","[-0.07761538028717041, 0.10395795851945877, 0.03999999910593033]","[0.0, -0.0, 0.06979037514545033]","[0.026750000193715096, 0.05299999937415123, 0.03999999910593033]","[0.0, 0.0, -0.7848969068252226]","[0.07763615995645523, 0.10393720120191574, 0.03999999910593033]","[0.0, 0.0, -0.07216786709232846]",0.7660400558284302,-4.427734822091471,"(0.0, 0.0, 0.0, 0.0, 0.0, 0.0)",0.7617842585328375,-0.7332288222135146,-4.44725952950288,"(0.0, 0.0, 0.0, 0.0, 0.0, 0.0)",0.10051055612556806,-0.7664071826199014,4.437524869864038,"(0.0, 0.0, 0.0, 0.0, 0.0, 0.0)",-0.7638799793048979,0.7314562121459494,4.494529309062177,"(0.0, 0.0, 0.0, 0.0, 0.0, 0.0)",-0.10114588070786824,False,,,,,False,,,,
46,Close,,,"(0.010002963358557236, 0.16004741369625017, 0.04384907226694074)","(-0.0009685918795946493, 6.053703485636736e-05, -2.9317842489583264e-08)",,"[-0.026750000193715096, 0.05299999937415123, 0.03999999910593033]","[0.0, -0.0, 0.7660400058439011]","[-0.07666666060686111, 0.10488764196634293, 0.03999999910593033]","[0.0, -0.0, 0.0328112365488731]","[0.026750000193715096, 0.05299999937415123, 0.03999999910593033]","[0.0, 0.0, -0.7664072421942376]","[0.07668570429086685, 0.1048693135380745, 0.03999999910593033]","[0.0, 0.0, -0.03495097036229706]",0.7494360502455871,-3.984961339882325,"(0.0, 0.0, 0.0, 0.0, 0.0, 0.0)",0.6858274268188955,-0.7499060350622873,-4.002531083705426,"(0.0, 0.0, 0.0, 0.0, 0.0, 0.0)",0.09061088591719418,-0.7497664643579113,3.9937723828776335,"(0.0, 0.0, 0.0, 0.0, 0.0, 0.0)",-0.6877158393779155,0.7483106866034595,4.045073869802414,"(0.0, 0.0, 0.0, 0.0, 0.0, 0.0)",-0.09118463108881669,False,,,,,False,,,,
47,Close,,,"(0.010003127607656072, 0.16005004167957756, 0.04463109991511072)","(-0.0010223162788461832, 6.389481101241881e-05, -3.266035557177819e-08)",,"[-0.026750000193715096, 0.05299999937415123, 0.03999999910593033]","[0.0, -0.0, 0.7494360616149593]","[-0.07579827308654785, 0.1057092696428299, 0.03999999910593033]","[0.0, 0.0, -0.00046998485639781964]","[0.026750000193715096, 0.05299999937415123, 0.03999999910593033]","[0.0, 0.0, -0.7497665229086657]","[0.07581568509340286, 0.10569305717945099, 0.03999999910593033]","[0.0, 0.0, -0.0014557777936095985]",0.7344924452210284,-3.5864652058940925,"(0.0, 0.0, 0.0, 0.0, 0.0, 0.0)",0.6173964503690262,-0.7649166300024903,-3.602542785648727,"(0.0, 0.0, 0.0, 0.0, 0.0, 0.0)",0.08164469448201127,-0.7347898179221202,3.594395144589871,"(0.0, 0.0, 0.0, 0.0, 0.0, 0.0)",-0.61909767957405,0.7634808239898891,3.6408329727431203,"(0.0, 0.0, 0.0, 0.0, 0.0, 0.0)",-0.08216247127692902,False,,,,,False,,,,
48,Close,,,"(0.010003291824242136, 0.16005266914270105, 0.04523936165140331)","(-0.0010760316083767074, 6.725202012489063e-05, -3.618265319583079e-08)",,"[-0.026750000193715096, 0.05299999937415123, 0.03999999910593033]","[0.0, -0.0, 0.7344924171356654]","[-0.07500515878200531, 0.10643631219863892, 0.03999999910593033]","[0.0, 0.0, -0.03042418292779103]","[0.026750000193715096, 0.05299999937415123, 0.03999999910593033]","[0.0, 0.0, -0.7347898072320369]","[0.07502105087041855, 0.10642196238040924, 0.03999999910593033]","[0.0, -0.0, 0.028691003185096618]",0.7210432006989256,-3.227818685304683,"(0.0, 0.0, 0.0, 0.0, 0.0, 0.0)",0.5558325671900768,-0.77842604750784,-3.2422602012839143,"(0.0, 0.0, 0.0, 0.0, 0.0, 0.0)",0.07360992294062317,-0.7213108361299082,3.234955630130884,"(0.0, 0.0, 0.0, 0.0, 0.0, 0.0)",-0.5573653507703412,0.7771338289584356,3.2767211924511668,"(0.0, 0.0, 0.0, 0.0, 0.0, 0.0)",-0.07407739542501454,False,,,,,False,,,,
49,Close,,,"(0.010003456009463264, 0.16005529610398603, 0.04567389610019914)","(-0.0011297378697381003, 7.060866228110946e-05, -3.988464411418517e-08)",,"[-0.026750000193715096, 0.05299999937415123, 0.03999999910593033]","[0.0, -0.0, 0.7210432248946826]","[-0.07428213953971863, 0.10708045959472656, 0.03999999910593033]","[0.0, 0.0, -0.05738284539856889]","[0.026750000193715096, 0.05299999937415123, 0.03999999910593033]","[0.0, 0.0, -0.7213108742429458]","[0.07429660856723785, 0.10706773400306702, 0.03999999910593033]","[0.0, -0.0, 0.0558229905847104]",0.708938880629033,-2.905036816774215,"(0.0, 0.0, 0.0, 0.0, 0.0, 0.0)",0.5003668258645501,-0.7905844163893876,-2.9180085315714246,"(0.0, 0.0, 0.0, 0.0, 0.0, 0.0)",0.06632913423961855,-0.7091797525169173,2.911460067117798,"(0.0, 0.0, 0.0, 0.0, 0.0, 0.0)",-0.5017475327577147,0.7894214258858812,2.9490232625869344,"(0.0, 0.0, 0.0, 0.0, 0.0, 0.0)",-0.06675089596581112,False,,,,,False,,,,
50,Close,,,"(0.010001644182078712, 0.16005595153396976, 0.045940321410535084)","(-0.0011271805217326655, 1.767785898679914e-05, -1.508889111938428e-08)",,"[-0.026750000193715096, 0.05299999937415123, 0.03999999910593033]","[0.0, -0.0, 0.7089389671526269]","[-0.07362406700849533, 0.10765182226896286, 0.03999999910593033]","[0.0, 0.0, -0.08164554069303018]","[0.026750000193715096, 0.05299999937415123, 0.03999999910593033]","[0.0, 0.0, -0.7091797033714331]","[0.0736372321844101, 0.10764053463935852, 0.03999999910593033]","[0.0, -0.0, 0.08024167743029369]",0.6980449925661297,-2.6145331350967917,"(0.0, 0.0, 0.0, 0.0, 0.0, 0.0)",0.4504252929298086,-0.8015268519725993,-2.6261845399708146,"(0.0, 0.0, 0.0, 0.0, 0.0, 0.0)",0.059761147909024356,-0.6982617772652256,2.6203140604060167,"(0.0, 0.0, 0.0, 0.0, 0.0, 0.0)",-0.4516689022418484,0.8004801661036254,2.6540976522586175,"(0.0, 0.0, 0.0, 0.0, 0.0, 0.0)",-0.06014157277442886,False,,,,,False,,,,
51,Close,,,"(0.009998458164918766, 0.16005543218265145, 0.046184544665354044)","(-0.001116587313714928, -4.731063982249702e-05, 3.3486629919706074e-09)",,"[-0.026750000193715096, 0.05299999937415123, 0.03999999910593033]","[0.0, -0.0, 0.6980450466292163]","[-0.07302592694759369, 0.10815921425819397, 0.03999999910593033]","[0.0, 0.0, -0.1034818592301779]","[0.026750000193715096, 0.05299999937415123, 0.03999999910593033]","[0.0, 0.0, -0.6982617371246688]","[0.07303788512945175, 0.10814917832612991, 0.03999999910593033]","[0.0, -0.0, 0.10221840210156648]",0.6882404933095168,-2.3530798215871136,"(0.0, 0.0, 0.0, 0.0, 0.0, 0.0)",0.40545980991383274,-0.8113749570468809,-2.3635452178275753,"(0.0, 0.0, 0.0, 0.0, 0.0, 0.0)",0.0538375991228723,-0.688435599538703,2.358282654365416,"(0.0, 0.0, 0.0, 0.0, 0.0, 0.0)",-0.4065798463491374,0.810432944800545,2.3886668872606847,"(0.0, 0.0, 0.0, 0.0, 0.0, 0.0)",-0.0541806611811555,False,,,,,False,,,,
52,Close,,,"(0.0099979269032565, 0.16005188637635104, 0.04640949954916324)","(-0.0010442772263960227, -5.814874739306873e-05, 7.787963860925158e-09)",,"[-0.026750000193715096, 0.05299999937415123, 0.03999999910593033]","[0.0, -0.0, 0.688240548987758]","[-0.07248289883136749, 0.10861026495695114, 0.03999999910593033]","[0.0, 0.0, -0.12313446206189271]","[0.026750000193715096, 0.05299999937415123, 0.03999999910593033]","[0.0, 0.0, -0.6884356086136862]","[0.07249374687671661, 0.10860133916139603, 0.03999999910593033]","[0.0, -0.0, 0.1219973374555316]",0.679416393078237,-2.117784055507141,"(0.0, 0.0, 0.0, 0.0, 0.0, 0.0)",0.3649762140031281,-0.8202374613421928,-2.12700103087486,"(0.0, 0.0, 0.0, 0.0, 0.0, 0.0)",0.04851286211734207,-0.6795919883598663,2.1224666829208143,"(0.0, 0.0, 0.0, 0.0, 0.0, 0.0)",-0.36598488497268467,0.8193896503204905,2.149609324786922,"(0.0, 0.0, 0.0, 0.0, 0.0, 0.0)",-0.04882227338805697,False,,,,,False,,,,
53,Close,,,"(0.009997966950406065, 0.16004795201914346, 0.046616050094935475)","(-0.0009640430328522325, -5.7324486097668704e-05, 4.2980615420070005e-09)",,"[-0.026750000193715096, 0.05299999937415123, 0.03999999910593033]","[0.0, -0.0, 0.6794163791618646]","[-0.07199041545391083, 0.10901165008544922, 0.03999999910593033]","[0.0, 0.0, -0.1408210743259801]","[0.026750000193715096, 0.05299999937415123, 0.03999999910593033]","[0.0, 0.0, -0.6795920181483843]","[0.07200025022029877, 0.1090037003159523, 0.03999999910593033]","[0.0, -0.0, 0.13979766167419433]",0.6714747537704133,-1.9059934338776885,"(0.0, 0.0, 0.0, 0.0, 0.0, 0.0)",0.3285291326313333,-0.8282143561304102,-1.914454749172182,"(0.0, 0.0, 0.0, 0.0, 0.0, 0.0)",0.043663125146434535,-0.6716327895238797,1.9102077206367922,"(0.0, 0.0, 0.0, 0.0, 0.0, 0.0)",-0.3294374536237565,0.8274513303019508,1.934803195550486,"(0.0, 0.0, 0.0, 0.0, 0.0, 0.0)",-0.043941831288343336,False,,,,,False,,,,
54,Close,,,"(0.009998107600018924, 0.16004411888380865, 0.0468059782297436)","(-0.0008858309445970004, -5.447527859797503e-05, 4.128601528647624e-08)",,"[-0.026750000193715096, 0.05299999937415123, 0.03999999910593033]","[0.0, -0.0, 0.6714747449539094]","[-0.07154417037963867, 0.10936915874481201, 0.03999999910593033]","[0.0, 0.0, -0.15673960659097733]","[0.026750000193715096, 0.05299999937415123, 0.03999999910593033]","[0.0, 0.0, -0.6716327690441329]","[0.07155308127403259, 0.10936208069324493, 0.03999999910593033]","[0.0, -0.0, 0.15581855230220754]",0.664327278393372,-1.7153940904899205,"(0.0, 0.0, 0.0, 0.0, 0.0, 0.0)",0.2957170811345372,-0.8353934979980445,-1.7229940482322428,"(0.0, 0.0, 0.0, 0.0, 0.0, 0.0)",0.03934112702889199,-0.6644695105714917,1.7191869485731137,"(0.0, 0.0, 0.0, 0.0, 0.0, 0.0)",-0.2965349881453131,0.8347067784412298,1.7413075534269409,"(0.0, 0.0, 0.0, 0.0, 0.0, 0.0)",-0.039592428071821256,False,,,,,False,,,,
55,Close,,,"(0.009998248644105466, 0.16004048002584464, 0.0469807018618576)","(-0.0008115684428503489, -5.1596750749095254e-05, 7.881188886077776e-08)",,"[-0.026750000193715096, 0.05299999937415123, 0.03999999910593033]","[0.0, -0.0, 0.6643273336690038]","[-0.07114013284444809, 0.10968788713216782, 0.03999999910593033]","[0.0, 0.0, -0.17106622141763456]","[0.026750000193715096, 0.05299999937415123, 0.03999999910593033]","[0.0, 0.0, -0.6644694779113771]","[0.07114819437265396, 0.10968156903982162, 0.03999999910593033]","[0.0, -0.0, 0.17023725548976373]",0.6578945505540348,-1.543854681440929,"(0.0, 0.0, 0.0, 0.0, 0.0, 0.0)",0.2661784897251144,-0.8418546682622772,-1.5506808634158242,"(0.0, 0.0, 0.0, 0.0, 0.0, 0.0)",0.03542959308904228,-0.6580225595143425,1.547268253715802,"(0.0, 0.0, 0.0, 0.0, 0.0, 0.0)",-0.26691494494593054,0.8412366239853526,1.567162930589489,"(0.0, 0.0, 0.0, 0.0, 0.0, 0.0)",-0.035656056287006674,False,,,,,False,,,,
56,Close,,,"(0.009998390752654573, 0.16003702894197389, 0.04714144752999396)","(-0.0007411380797103218, -4.869650481896534e-05, 1.1687517768299383e-07)",,"[-0.026750000193715096, 0.05299999937415123, 0.03999999910593033]","[0.0, -0.0, 0.6578945475257985]","[-0.07077455520629883, 0.1099722608923912, 0.03999999910593033]","[0.0, 0.0, -0.18396012465064338]","[0.026750000193715096, 0.05299999937415123, 0.03999999910593033]","[0.0, 0.0, -0.6580225896942233]","[0.07078184932470322, 0.10996662080287933, 0.03999999910593033]","[0.0, -0.0, 0.18321406389742323]",0.6521050954986313,-1.3894692132968354,"(0.0, 0.0, 0.0, 0.0, 0.0, 0.0)",0.23958744527110798,-0.8476696697618468,-1.395600359896693,"(0.0, 0.0, 0.0, 0.0, 0.0, 0.0)",0.031904902566438624,-0.6522203035629083,1.392541428344221,"(0.0, 0.0, 0.0, 0.0, 0.0, 0.0)",-0.24025052935853647,0.8471134329078756,1.410434141405507,"(0.0, 0.0, 0.0, 0.0, 0.0, 0.0)",-0.032108956045352514,False,,,,,False,,,,
57,Close,,,"(0.009998534235924597, 0.16003375955333046, 0.04728933347451534)","(-0.0006744157946989166, -4.576820860538318e-05, 1.554405829918684e-07)",,"[-0.026750000193715096, 0.05299999937415123, 0.03999999910593033]","[0.0, -0.0, 0.6521051450040646]","[-0.07044398784637451, 0.11022617667913437, 0.03999999910593033]","[0.0, 0.0, -0.19556454293122102]","[0.026750000193715096, 0.05299999937415123, 0.03999999910593033]","[0.0, 0.0, -0.6522203497730787]","[0.07045057415962219, 0.11022114753723145, 0.03999999910593033]","[0.0, -0.0, 0.19489313608724637]",0.6468945859487681,-1.250522291967151,"(0.0, 0.0, 0.0, 0.0, 0.0, 0.0)",0.2156503992603495,-0.8529031244958994,-1.2560291361726517,"(0.0, 0.0, 0.0, 0.0, 0.0, 0.0)",0.02872919688306315,-0.6469982732066174,1.253287285509799,"(0.0, 0.0, 0.0, 0.0, 0.0, 0.0)",-0.2162473971085442,0.8524025140258721,1.2693794683191757,"(0.0, 0.0, 0.0, 0.0, 0.0, 0.0)",-0.02891303657535659,False,,,,,False,,,,
58,Close,,,"(0.009998679410322496, 0.16003066597344334, 0.0474253884764576)","(-0.0006112814540129935, -4.2805404436077314e-05, 1.9447426774393396e-07)",,"[-0.026750000193715096, 0.05299999937415123, 0.03999999910593033]","[0.0, -0.0, 0.6468945636476681]","[-0.07014521211385727, 0.11045306921005249, 0.03999999910593033]","[0.0, 0.0, -0.20600854729134555]","[0.026750000193715096, 0.05299999937415123, 0.03999999910593033]","[0.0, 0.0, -0.6469982503054421]","[0.07015117257833481, 0.11044856905937195, 0.03999999910593033]","[0.0, -0.0, 0.20540423443750838]",0.6422051273538913,-1.125470062770436,"(0.0, 0.0, 0.0, 0.0, 0.0, 0.0)",0.1941029233168818,-0.8576131917611358,-1.1304161436567226,"(0.0, 0.0, 0.0, 0.0, 0.0, 0.0)",0.025868240883426936,-0.6422984458859556,1.1279585569588184,"(0.0, 0.0, 0.0, 0.0, 0.0, 0.0)",-0.19464040126091972,0.8571626447690798,1.1424313783698345,"(0.0, 0.0, 0.0, 0.0, 0.0, 0.0)",-0.026033851694478666,False,,,,,False,,,,
59,Move,,,"(0.009998826598722164, 0.16002774252192944, 0.04755055901421763)","(-0.0005516191299448554, -3.980150267197137e-05, 2.339437659612592e-07)","[0.0, 0.0, 0.0]","[-0.026750000193715096, 0.05299999937415123, 0.03999999910593033]","[0.0, -0.0, 0.6422051137296667]","[-0.0698753148317337, 0.11065594106912613, 0.03999999910593033]","[0.0, 0.0, -0.2154080556264429]","[0.026750000193715096, 0.05299999937415123, 0.03999999910593033]","[0.0, 0.0, -0.6422983956794274]","[0.06988069415092468, 0.1106519103050232, 0.03999999910593033]","[0.0, -0.0, 0.21486417441436167]",0.6379846146185022,-1.0129230564933929,"(0.0, 0.0, 0.0, 0.0, 0.0, 0.0)",0.17470684718642912,-0.8618522144704561,-1.0173654502368856,"(0.0, 0.0, 0.0, 0.0, 0.0, 0.0)",0.023291096758263134,-0.6380686012973601,1.0151627012629356,"(0.0, 0.0, 0.0, 0.0, 0.0, 0.0)",-0.1751907229705418,0.8614467243673204,1.02817910357775,"(0.0, 0.0, 0.0, 0.0, 0.0, 0.0)",-0.023440272040621463,False,,,,,True,"(0.04276013174954747, 0.17974174897294792, 0.02399995643463635)","(-0.9999999990838299, -1.9447426661030803e-07, -4.2805404423670755e-05)",0.0013234533115717422,0.0
60,Move,,,"(0.008529162475457952, 0.15974954236529276, 0.0477048393377401)","(0.0013879222534856654, 0.003092032969080396, 0.019607357714227783)","[-0.001469664123264212, -0.00027820015663668207, 0.00015428032352246546]","[-0.026750000193715096, 0.05299999937415123, 0.03999999910593033]","[0.0, -0.0, 0.6379846501970732]","[-0.06963159143924713, 0.1108374372124672, 0.03999999910593033]","[0.0, 0.0, -0.22386762157269943]","[0.026750000193715096, 0.05299999937415123, 0.03999999910593033]","[0.0, 0.0, -0.638068602671057]","[0.06963644921779633, 0.11083383113145828, 0.03999999910593033]","[0.0, -0.0, 0.22337816170537766]",0.6141590059460926,-5.718146081378292,"(0.0, 0.0, 0.0, 0.0, 0.0, 0.0)",-6.715100343954979,-0.8614283121995241,0.10173654502368734,"(0.0, 0.0, 0.0, 0.0, 0.0, 0.0)",-0.37236374372155323,-0.6186460352886096,4.661415842100123,"(0.0, 0.0, 0.0, 0.0, 0.0, 0.0)",6.428194854706253,0.8610182254653614,-0.10283973647015276,"(0.0, 0.0, 0.0, 0.0, 0.0, 0.0)",0.9829946930619015,False,,,,,True,"(0.041928616181162004, 0.17969877893574898, 0.023999959438538117)","(-0.9999999992078928, -2.3394376620903917e-07, -3.980150265941498e-05)",0.0004918567139684023,10.112171877912418
61,Move,,,"(0.006723996611826882, 0.15936533702962205, 0.047765255621499005)","(6.714398616458164e-05, 0.002674296973039989, 0.04262647064426384)","[-0.0032748299868952824, -0.0006624054923073941, 0.00021469660728137135]","[-0.026750000193715096, 0.05299999937415123, 0.03999999910593033]","[0.0, -0.0, 0.6141590305095613]","[-0.06824154406785965, 0.11184260249137878, 0.03999999910593033]","[0.0, 0.0, -0.24726930604170874]","[0.026750000193715096, 0.05299999937415123, 0.03999999910593033]","[0.0, 0.0, -0.618646044105948]","[0.06850515305995941, 0.1116558387875557, 0.03999999910593033]","[0.0, -0.0, 0.24237220045044397]",0.5923752537221402,-5.228100533748594,"(0.0, 0.0, 0.0, 0.0, 0.0, 0.0)",0.6968351830029317,-0.8614707024266173,-0.010173654502368734,"(0.0, 0.0, 0.0, 0.0, 0.0, 0.0)",0.0386094337653134,-0.6008326176855909,4.2752202247244835,"(0.0, 0.0, 0.0, 0.0, 0.0, 0.0)",-0.2843818339581164,0.8610616731657038,0.010427448082156607,"(0.0, 0.0, 0.0, 0.0, 0.0, 0.0)",0.12162564932151312,False,,,,,True,"(0.03949436769622908, 0.17998210851349686, 0.023999959438538117)","(-0.9999999992078928, -2.3394376620903917e-07, -3.980150265941498e-05)",-6.347605402235445e-06,0.5640853154323047
62,Move,,,"(0.004916021046565853, 0.1589665718711254, 0.047720958898252924)","(-0.002763020338407607, 0.0006108079306357897, 0.0667691707902313)","[-0.005082805552156311, -0.0010611706508040497, 0.00017039988403529105]","[-0.026750000193715096, 0.05299999937415123, 0.03999999910593033]","[0.0, -0.0, 0.5923752994005711]","[-0.0669499859213829, 0.1127324104309082, 0.03999999910593033]","[0.0, 0.0, -0.2690954538189607]","[0.026750000193715096, 0.05299999937415123, 0.03999999910593033]","[0.0, 0.0, -0.6008327423896315]","[0.06745371967554092, 0.11239029467105865, 0.03999999910593033]","[0.0, -0.0, 0.2602290700881579]",0.5712150347036751,-5.078452564431617,"(0.0, 0.0, 0.0, 0.0, 0.0, 0.0)",0.2157952503283588,-0.861466463403908,0.0010173654502363396,"(0.0, 0.0, 0.0, 0.0, 0.0, 0.0)",0.016130538686302622,-0.5829836595254625,4.283749958430823,"(0.0, 0.0, 0.0, 0.0, 0.0, 0.0)",0.03654686188668907,0.8610568520052067,-0.0011570785193177847,"(0.0, 0.0, 0.0, 0.0, 0.0, 0.0)",0.013369392840733865,False,,,,,True,"(0.03722753437306846, 0.1801876577450428, 0.023999959438538117)","(-0.9999999992078928, -2.3394376620903917e-07, -3.980150265941498e-05)",-3.03090440028451e-06,0.20086448022229916
63,Move,,,"(0.003038586218639499, 0.15852968790700625, 0.047692659289474)","(-0.0025911153149836925, -0.0037098076030427207, 0.0892309075356073)","[-0.006960240380082665, -0.0014980546149231944, 0.00014210027525636548]","[-0.026750000193715096, 0.05299999937415123, 0.03999999910593033]","[0.0, -0.0, 0.5712149816841382]","[-0.06567712873220444, 0.11356961727142334, 0.03999999910593033]","[0.0, 0.0, -0.2902514434627483]","[0.026750000193715096, 0.05299999937415123, 0.03999999910593033]","[0.0, 0.0, -0.5829835823925363]","[0.06638723611831665, 0.11310731619596481, 0.03999999910593033]","[0.0, -0.0, 0.27807322292986936]",0.5508803967687295,-4.88031310438695,"(0.0, 0.0, 0.0, 0.0, 0.0, 0.0)",0.28503070876654335,-0.8614668873061792,-0.0001017365450710142,"(0.0, 0.0, 0.0, 0.0, 0.0, 0.0)",0.019917833408555515,-0.5651641840502668,4.2766741140469655,"(0.0, 0.0, 0.0, 0.0, 0.0, 0.0)",0.11956537689041521,0.8610565492790112,-7.265428690530302e-05,"(0.0, 0.0, 0.0, 0.0, 0.0, 0.0)",0.07009334439305036,False,,,,,True,"(0.03495614298930945, 0.18035455290140667, 0.023999959438538117)","(-0.9999999992078928, -2.3394376620903917e-07, -3.980150265941498e-05)",-3.483078081115776e-06,1.0531113700940868
64,Move,,,"(0.0020261779141126004, 0.159147963083264, 0.04760521211159295)","(0.002583370481578668, -0.003056729446151124, 0.09297246090683914)","[-0.007972648684609564, -0.0008797794386654345, 5.465309737531787e-05]","[-0.026750000193715096, 0.05299999937415123, 0.03999999910593033]","[0.0, -0.0, 0.5508804375563766]","[-0.06443750858306885, 0.11434861272573471, 0.03999999910593033]","[0.0, 0.0, -0.31058647044401844]","[0.026750000193715096, 0.05299999937415123, 0.03999999910593033]","[0.0, 0.0, -0.5651641731913941]","[0.06530991941690445, 0.11380404978990555, 0.03999999910593033]","[0.0, -0.0, 0.2958923811960855]",0.5325313952836437,-4.403760356420582,"(0.0, 0.0, 0.0, 0.0, 0.0, 0.0)",-38.47384383842257,-0.8434648155280273,4.320497226756436,"(0.0, 0.0, 0.0, 0.0, 0.0, 0.0)",-19.707773442051234,-0.5485203526437034,3.9945195375752336,"(0.0, 0.0, 0.0, 0.0, 0.0, 0.0)",38.40865227596146,0.8426940994674212,-4.406987954781599,"(0.0, 0.0, 0.0, 0.0, 0.0, 0.0)",20.213574547080277,True,"(-0.030837162206202397, 0.1807147684040986, 0.056003710559052795)","(0.9960147094140643, 0.08911192973728252, 0.0037097990935676286)",0.000295955962769222,310.9113148279181,True,"(0.032686946379462796, 0.18046390406811386, 0.023996289440947206)","(-0.9960147094140644, -0.08911192973728094, -0.0037097990935709194)",-4.010570765232737e-05,237.4598751600436
65,Move,"(-0.0070999999999999995, 0.0, -0.0011)","(0.0, 0.12507378485641765, 0.0)","(0.0011700253639096666, 0.15976182515520135, 0.04751897038725052)","(0.007930122363363799, -0.00226657279137191, 0.09692309735704685)","[-0.008828801234812498, -0.00026591736672809674, -3.1588626967116173e-05]","[-0.026750000193715096, 0.05299999937415123, 0.03999999910593033]","[0.0, -0.0, 0.5325313658465014]","[-0.06330554187297821, 0.11502977460622787, 0.03999999910593033]","[0.0, 0.0, -0.3109334583254266]","[0.026750000193715096, 0.05299999937415123, 0.03999999910593033]","[0.0, 0.0, -0.548520392495979]","[0.06429261714220047, 0.11443737894296646, 0.03999999910593033]","[0.0, -0.0, 0.2941737789306636]",0.5150286261073844,-4.20066460230223,"(0.0, 0.0, 0.0, 0.0, 0.0, 0.0)",-43.15160519850692,-0.8255232606133882,4.305973179513399,"(0.0, 0.0, 0.0, 0.0, 0.0, 0.0)",-22.03627704391551,-0.5318939745440465,3.990330743917647,"(0.0, 0.0, 0.0, 0.0, 0.0, 0.0)",43.6676935048907,0.8241209847892994,-4.457547522749228,"(0.0, 0.0, 0.0, 0.0, 0.0, 0.0)",23.068483497500033,True,"(-0.02968254207398162, 0.18138834120873254, 0.056003057484645)","(0.9956765214355997, 0.09283814461792712, 0.0030567246857756626)",-0.0019557974209563206,339.7172576639441,True,"(0.03178474084630808, 0.1811477674564546, 0.02399694251535476)","(-0.9956765214355902, -0.0928381446180211, -0.0030567246860136047)",0.00016315936690381586,263.2480870713977
66,Move,"(-0.009633300000000001, 0.0, -0.0010667)","(0.0, 0.1423019299028537, 0.0)","(0.001217239459852604, 0.16013930573650403, 0.047500385408660264)","(0.005592470014073914, 0.0007250502471141475, 0.09390880751812021)","[-0.00878158713886956, 0.00011156321457458929, -5.017360555736872e-05]","[-0.026750000193715096, 0.05299999937415123, 0.03999999910593033]","[0.0, -0.0, 0.5150286173626178]","[-0.06221430376172066, 0.11566006392240524, 0.03999999910593033]","[0.0, 0.0, -0.3104946497228739]","[0.026750000193715096, 0.05299999937415123, 0.03999999910593033]","[0.0, 0.0, -0.5318939608755999]","[0.06326599419116974, 0.11505305767059326, 0.03999999910593033]","[0.0, -0.0, 0.2922270319249003]",0.5169276120131835,0.455756617391776,"(0.0, 0.0, 0.0, 0.0, 0.0, 0.0)",5.661212519693879,-0.8273169427763978,-0.43048371912230543,"(0.0, 0.0, 0.0, 0.0, 0.0, 0.0)",-0.33399422508984283,-0.533404995801236,-0.3626451017254908,"(0.0, 0.0, 0.0, 0.0, 0.0, 0.0)",-5.809134647588715,0.8259782962571116,0.4457547522749241,"(0.0, 0.0, 0.0, 0.0, 0.0, 0.0)",0.05711477656231333,True,"(-0.02862075758073663, 0.18203687365922727, 0.05600226731562215)","(0.9953040758649819, 0.09677116937979674, 0.0022665708506747376)",-0.003960922893090458,4.786244302948632,True,"(0.03091578949574346, 0.18154523231783662, 0.023997716044379027)","(-0.9953040509812058, -0.09677103449881742, -0.0022831956617496516)",0.00022377337919692118,0.0
67,Move,"(-0.01078, 0.0, -0.0014)","(0.0, 0.15012798626879623, 0.0)","(0.0013671049984439808, 0.16021320242253728, 0.04755611209343128)","(0.0032000257153514088, 0.0008756256453234563, 0.09418522684858124)","[-0.008631721600278183, 0.00018545990060783724, 5.553079213647949e-06]","[-0.026750000193715096, 0.05299999937415123, 0.03999999910593033]","[0.0, -0.0, 0.5169276381192184]","[-0.062333229929208755, 0.1155925989151001, 0.03999999910593033]","[0.0, 0.0, -0.31038933579203]","[0.026750000193715096, 0.05299999937415123, 0.03999999910593033]","[0.0, 0.0, -0.5334049832468685]","[0.06335971504449844, 0.11499781161546707, 0.03999999910593033]","[0.0, -0.0, 0.29257328881704137]",0.5174024860037305,0.11396975773128426,"(0.0, 0.0, 0.0, 0.0, 0.0, 0.0)",-1.3918477629570878,-0.8267016161431198,0.14767839198672078,"(0.0, 0.0, 0.0, 0.0, 0.0, 0.0)",-0.4434545100780467,-0.5327454908278489,0.15828119361289789,"(0.0, 0.0, 0.0, 0.0, 0.0, 0.0)",1.5470124427394403,0.82541665279541,-0.13479443080839126,"(0.0, 0.0, 0.0, 0.0, 0.0, 0.0)",0.5014355020498676,True,"(-0.028746674049922247, 0.18197295166576288, 0.05600226731562215)","(0.9953040758649819, 0.09677116937979674, 0.0022665708506747376)",-0.0036446811569559837,6.263609733354041,True,"(0.03098648761828887, 0.18147877851272504, 0.023997716044379027)","(-0.9953040509812058, -0.09677103449881742, -0.0022831956617496516)",0.00021871811141693385,2.204933917128062
68,Move,"(-0.0119714, 0.0, -0.0019571000000000002)","(0.0, 0.14978939239390937, 0.0)","(0.0013478611811033707, 0.16028175785756954, 0.047610481329710456)","(0.0011826313244442616, 0.0009990218490601448, 0.09513633041856329)","[-0.008650965417618794, 0.0002540153356400954, 5.9922315492823286e-05]","[-0.026750000193715096, 0.05299999937415123, 0.03999999910593033]","[0.0, -0.0, 0.5174024821954913]","[-0.062362950295209885, 0.11557569354772568, 0.03999999910593033]","[0.0, 0.0, -0.3092991474188956]","[0.026750000193715096, 0.05299999937415123, 0.03999999910593033]","[0.0, 0.0, -0.5327454547625752]","[0.06331881880760193, 0.11502194404602051, 0.03999999910593033]","[0.0, -0.0, 0.29267116228373613]",0.5180481681702586,0.15496371996674355,"(0.0, 0.0, 0.0, 0.0, 0.0, 0.0)",-2.9484396625591005,-0.8253938686295027,0.31385940326810746,"(0.0, 0.0, 0.0, 0.0, 0.0, 0.0)",-1.4814150046112082,-0.5317941562116263,0.22832030789343244,"(0.0, 0.0, 0.0, 0.0, 0.0, 0.0)",3.1551582598769565,0.8240917009054386,-0.3179884535931218,"(0.0, 0.0, 0.0, 0.0, 0.0, 0.0)",1.5306982159995948,True,"(-0.02884878147930893, 0.1819926236873647, 0.05600226731562215)","(0.9953040758649819, 0.09677116937979674, 0.0022665708506747376)",-0.0033943141594260547,22.306451775231082,True,"(0.03093908602096107, 0.18149974090573068, 0.023997716044379027)","(-0.9953040509812058, -0.09677103449881742, -0.0022831956617496516)",2.615487271131487e-05,17.08959904788714
69,Move,"(-0.013222200000000002, 0.0, -0.0028889000000000002)","(0.0, 0.1462760446096448, 0.0)","(0.0013023964186920426, 0.16034228932031938, 0.04766212697752697)","(-0.0008950336016166335, 0.0009688556684145971, 0.09628191471872048)","[-0.008696430180030123, 0.0003145467983899364, 0.000111567963309335]","[-0.026750000193715096, 0.05299999937415123, 0.03999999910593033]","[0.0, -0.0, 0.5180481902620607]","[-0.062403347343206406, 0.11555268615484238, 0.03999999910593033]","[0.0, 0.0, -0.3073456882483971]","[0.026750000193715096, 0.05299999937415123, 0.03999999910593033]","[0.0, 0.0, -0.5317941332204594]","[0.0632597953081131, 0.11505670100450516, 0.03999999910593033]","[0.0, -0.0, 0.2922975188986091]",0.5190042840082698,0.22946780112269147,"(0.0, 0.0, 0.0, 0.0, 0.0, 0.0)",-2.707110545212637,-0.8242868311543821,0.26568899402895063,"(0.0, 0.0, 0.0, 0.0, 0.0, 0.0)",-1.3687804660307448,-0.5306055757923195,0.28525930063362515,"(0.0, 0.0, 0.0, 0.0, 0.0, 0.0)",3.0478857747060077,0.8228818075061927,-0.2903744158190224,"(0.0, 0.0, 0.0, 0.0, 0.0, 0.0)",1.5008226964721016,True,"(-0.029018982720876503, 0.18203495680700538, 0.05600226731562215)","(0.9953040758649819, 0.09677116937979674, 0.0022665708506747376)",-0.00326442168993778,21.292674328727706,True,"(0.030904905372633046, 0.1815465950050508, 0.023997716044379027)","(-0.9953040509812058, -0.09677103449881742, -0.0022831956617496516)",2.991694927423643e-05,16.581528606014007
70,Move,"(-0.014536400000000001, 0.0, -0.0041455)","(0.0, 0.1377309125918805, 0.0)","(0.0012169280056379137, 0.16037329895765653, 0.04774544302201035)","(-0.0016823285322346904, 0.0003830095123618625, 0.0960211904786357)","[-0.008781898593084252, 0.00034555643572709016, 0.0001948840077927172]","[-0.026750000193715096, 0.05299999937415123, 0.03999999910593033]","[0.0, -0.0, 0.5190042506049967]","[-0.06246313825249672, 0.11551856994628906, 0.03999999910593033]","[0.0, 0.0, -0.30528257620392046]","[0.026750000193715096, 0.05299999937415123, 0.03999999910593033]","[0.0, 0.0, -0.5306056320292124]","[0.06318601220846176, 0.11510005593299866, 0.03999999910593033]","[0.0, -0.0, 0.29227626352172287]",0.5201979958005234,0.2864908301408624,"(0.0, 0.0, 0.0, 0.0, 0.0, 0.0)",-2.083565140849491,-0.8235001373679466,0.18880650874451346,"(0.0, 0.0, 0.0, 0.0, 0.0, 0.0)",-0.95808717532683,-0.5291711608275317,0.34425959154908314,"(0.0, 0.0, 0.0, 0.0, 0.0, 0.0)",3.1012709493210795,0.8216005534673607,-0.3075009693196553,"(0.0, 0.0, 0.0, 0.0, 0.0, 0.0)",1.5834695957019798,True,"(-0.029216008097345578, 0.18206957500807863, 0.05600226731562215)","(0.9953040758649819, 0.09677116937979674, 0.0022665708506747376)",-0.003140171366879104,18.189428723566298,True,"(0.030832537321820397, 0.18159063555628727, 0.023997716044379027)","(-0.9953040509812058, -0.09677103449881742, -0.0022831956617496516)",2.2178418392522335e-05,17.664361918337747
71,Move,"(-0.0161308, 0.0, -0.005661500000000001)","(0.0, 0.12379096785620183, 0.0)","(0.0010962004241387051, 0.16040111328073045, 0.047828631430874555)","(-0.002419107824102864, -0.0001629796422134271, 0.09592739661383197)","[-0.008902626174583459, 0.000373370758801006, 0.0002780724166569215]","[-0.026750000193715096, 0.05299999937415123, 0.03999999910593033]","[0.0, -0.0, 0.5201979469828966]","[-0.06253773719072342, 0.11547589302062988, 0.03999999910593033]","[0.0, 0.0, -0.30330214198714517]","[0.026750000193715096, 0.05299999937415123, 0.03999999910593033]","[0.0, 0.0, -0.529171204007441]","[0.06309689581394196, 0.1151522547006607, 0.03999999910593033]","[0.0, -0.0, 0.29242940964481096]",0.5216531654614016,0.34924071861078576,"(0.0, 0.0, 0.0, 0.0, 0.0, 0.0)",-1.9985716645395915,-0.8227228999539594,0.18653697935691874,"(0.0, 0.0, 0.0, 0.0, 0.0, 0.0)",-0.9082557009285515,-0.5274958639798305,0.40207124344829637,"(0.0, 0.0, 0.0, 0.0, 0.0, 0.0)",3.017692636275494,0.8203464988978778,-0.3009730966758979,"(0.0, 0.0, 0.0, 0.0, 0.0, 0.0)",1.5597526894211413,True,"(-0.029422474880701426, 0.18209261153233247, 0.05600226731562215)","(0.9953040758649819, 0.09677116937979674, 0.0022665708506747376)",-0.003017200415931409,17.624670363040313,True,"(0.030733239239514418, 0.18163787994634648, 0.023997716044379027)","(-0.9953040509812058, -0.09677103449881742, -0.0022831956617496516)",-8.964111593097292e-06,19.523754579796417
72,Move,"(-0.01758, 0.0, -0.0075133000000000005)","(0.0, 0.10870608713121482, 0.0)","(0.0009403956673057637, 0.1604264655702628, 0.04790546416891223)","(-0.0031118790404155547, -0.000666194241408454, 0.09604442624271894)","[-0.009058430931416402, 0.0003987230483333548, 0.0003549051546946]","[-0.026750000193715096, 0.05299999937415123, 0.03999999910593033]","[0.0, -0.0, 0.5216531724969178]","[-0.0626286193728447, 0.11542375385761261, 0.03999999910593033]","[0.0, 0.0, -0.3010696930824368]","[0.026750000193715096, 0.05299999937415123, 0.03999999910593033]","[0.0, 0.0, -0.5274959350547337]","[0.06299272179603577, 0.1152130588889122, 0.03999999910593033]","[0.0, -0.0, 0.29285066295656054]",0.5234164028479767,0.4231769727780448,"(0.0, 0.0, 0.0, 0.0, 0.0, 0.0)",-1.901024074523783,-0.8219861609495394,0.1768173610608138,"(0.0, 0.0, 0.0, 0.0, 0.0, 0.0)",-0.8610004562411776,-0.5255439491029961,0.46845957044025455,"(0.0, 0.0, 0.0, 0.0, 0.0, 0.0)",2.9348894213024,0.819118704901695,-0.2946705590838799,"(0.0, 0.0, 0.0, 0.0, 0.0, 0.0)",1.5291542260357136,True,"(-0.029661093353315127, 0.18210386185283187, 0.05600016373850074)","(0.9954024812375971, 0.09578034132154592, 0.00016297964149114446)",-0.0029011420128705833,16.964597950984718,True,"(0.030573539027650296, 0.18196213903778424, 0.023999836260399282)","(-0.9954024812375967, -0.0957803413215498, -0.00016297964149500498)",-3.3945311868804965e-05,18.952220725666717
73,Move,"(-0.0198933, 0.0, -0.010773300000000001)","(0.0, 0.09487435280915976, 0.0)","(0.0007529418422542331, 0.16045015319722242, 0.04797693194089445)","(-0.003787196862520229, -0.0011276852492787962, 0.09633130853483234)","[-0.009245884756467931, 0.0004224106752929724, 0.00042637292667681986]","[-0.026750000193715096, 0.05299999937415123, 0.03999999910593033]","[0.0, -0.0, 0.5234164315666234]","[-0.06273862719535828, 0.11536039412021637, 0.03999999910593033]","[0.0, 0.0, -0.2985698081028097]","[0.026750000193715096, 0.05299999937415123, 0.03999999910593033]","[0.0, 0.0, -0.5255439862248383]","[0.06287121772766113, 0.11528368294239044, 0.03999999910593033]","[0.0, -0.0, 0.2935747590146301]",0.5254371263298672,0.48497363565370255,"(0.0, 0.0, 0.0, 0.0, 0.0, 0.0)",-1.8304064728615477,-0.8212880572103538,0.16754489740453626,"(0.0, 0.0, 0.0, 0.0, 0.0, 0.0)",-0.8152752099636927,-0.5233599327383716,0.5241639275098742,"(0.0, 0.0, 0.0, 0.0, 0.0, 0.0)",2.8188533614501625,0.8179166612858388,-0.28849046780548804,"(0.0, 0.0, 0.0, 0.0, 0.0, 0.0)",1.4959431348609102,True,"(-0.02993767582818571, 0.18212034018881906, 0.056000666950917245)","(0.9953910576186463, 0.0958968122417575, 0.0006661941921303878)",-0.0027870102508923598,16.23197303050318,True,"(0.030403651372588117, 0.1820098745794726, 0.023999333045848642)","(-0.9953910576186464, -0.09589681224175885, -0.0006661941921285006)",-5.568484289180802e-05,18.19458560051039
74,Move,"(-0.0223333, 0.0, -0.014400000000000001)","(0.0, 0.07930950653987433, 0.0)","(0.0005114584357393152, 0.16047162286995167, 0.04804402769561268)","(-0.004455834655089076, -0.0015396654491478346, 0.09691426140051577)","[-0.009487368162982849, 0.00044388034802222975, 0.0004934686813950484]","[-0.026750000193715096, 0.05299999937415123, 0.03999999910593033]","[0.0, -0.0, 0.5254371372406191]","[-0.06286456435918808, 0.11528754234313965, 0.03999999910593033]","[0.0, 0.0, -0.2958509368945245]","[0.026750000193715096, 0.05299999937415123, 0.03999999910593033]","[0.0, 0.0, -0.523359929935683]","[0.06273510307073593, 0.11536242812871933, 0.03999999910593033]","[0.0, -0.0, 0.29455671722050797]",0.5278966789917233,0.5902926388454803,"(0.0, 0.0, 0.0, 0.0, 0.0, 0.0)",-1.6967980721655582,-0.8206225500869426,0.1597217096186726,"(0.0, 0.0, 0.0, 0.0, 0.0, 0.0)",-0.7667140976859611,-0.5207420767697636,0.6282854324659025,"(0.0, 0.0, 0.0, 0.0, 0.0, 0.0)",2.8331711096185828,0.8167107755578815,-0.2894125747097664,"(0.0, 0.0, 0.0, 0.0, 0.0, 0.0)",1.5014269400646756,True,"(-0.030245008704942997, 0.18213400269476898, 0.05600112843923109)","(0.9953630935501806, 0.09618232854704611, 0.0011276850102700216)",-0.0026774360481188896,15.658124177762717,True,"(0.03020196242639135, 0.18205739275974064, 0.02399887155503051)","(-0.9953630935501808, -0.09618232854704552, -0.0011276850102668182)",-7.333694987025391e-05,17.642987663335123
75,Move,"(-0.024433299999999998, 0.0, -0.0180867)","(0.0, 0.06526484204907597, 0.0)","(0.00021613988014606965, 0.16049032184432202, 0.0481075838421378)","(-0.0051126426502751034, -0.0019026577221371503, 0.09780307598102746)","[-0.009782686718576095, 0.0004625793223925756, 0.0005570248279201662]","[-0.026750000193715096, 0.05299999937415123, 0.03999999910593033]","[0.0, -0.0, 0.5278966212835204]","[-0.06301765888929367, 0.1151985302567482, 0.03999999910593033]","[0.0, 0.0, -0.2927258989599934]","[0.026750000193715096, 0.05299999937415123, 0.03999999910593033]","[0.0, 0.0, -0.5207421154879327]","[0.06257172673940659, 0.11545641720294952, 0.03999999910593033]","[0.0, -0.0, 0.29596871519831486]",0.5307913486996266,0.6947207298967975,"(0.0, 0.0, 0.0, 0.0, 0.0, 0.0)",-1.6520431532500068,-0.8199838999079113,0.15327604296750114,"(0.0, 0.0, 0.0, 0.0, 0.0, 0.0)",-0.7347612957858177,-0.5176882495661345,0.7329185288709918,"(0.0, 0.0, 0.0, 0.0, 0.0, 0.0)",2.7869319360148097,0.8154994309828453,-0.2907226980086919,"(0.0, 0.0, 0.0, 0.0, 0.0, 0.0)",1.5069314108628247,True,"(-0.030606908281117978, 0.18214407027965712, 0.05600154041639295)","(0.9953063077907937, 0.09676250877295181, 0.0015396648408334645)",-0.002574025699578679,15.284717948012434,True,"(0.029944364598269838, 0.1821062056345547, 0.023998459575199943)","(-0.9953063077907943, -0.0967625087729477, -0.001539664840835373)",-8.584854691698156e-05,17.10896552528331
76,Move,"(-0.02554, 0.0, -0.0217867)","(0.0, 0.055173348314044746, 0.0)","(-0.00012252091932483255, 0.16050608751306303, 0.048167938597961125)","(-0.0057542870929130656, -0.0022253486672396275, 0.09894086658950053)","[-0.010121347518046997, 0.00047834499113358353, 0.0006173795837434923]","[-0.026750000193715096, 0.05299999937415123, 0.03999999910593033]","[0.0, -0.0, 0.5307914077757481]","[-0.0631975457072258, 0.11509328335523605, 0.03999999910593033]","[0.0, 0.0, -0.2891925790287806]","[0.026750000193715096, 0.05299999937415123, 0.03999999910593033]","[0.0, 0.0, -0.517688281400426]","[0.0623808279633522, 0.11556551605463028, 0.03999999910593033]","[0.0, -0.0, 0.2978111656473949]",0.5340259185752725,0.7762967701549999,"(0.0, 0.0, 0.0, 0.0, 0.0, 0.0)",-1.655210147435464,-0.8193645485114804,0.1486443351434205,"(0.0, 0.0, 0.0, 0.0, 0.0, 0.0)",-0.7155936244807765,-0.5142830020587956,0.8172594017613289,"(0.0, 0.0, 0.0, 0.0, 0.0, 0.0)",2.717002579655849,0.8142836549007425,-0.29178625970467575,"(0.0, 0.0, 0.0, 0.0, 0.0, 0.0)",1.5078392728827898,True,"(-0.03102328102911324, 0.18215029478980602, 0.056001903405445516)","(0.9952192889494741, 0.09764705218727195, 0.0019026565741670318)",-0.0024769785189361986,15.03816902395275,True,"(0.029630628175725274, 0.18215602828158267, 0.023998096583466612)","(-0.995219288949474, -0.097647052187274, -0.001902656574164437)",-9.341367678447144e-05,16.661013060571754
77,Move,"(-0.0266533, 0.0, -0.02524)","(0.0, 0.05047492196767601, 0.0)","(-0.0004789286015600335, 0.16051973808566963, 0.048224619283987434)","(-0.006377896762057773, -0.002523515268957169, 0.10017249023716901)","[-0.010477755200282197, 0.0004919955637401885, 0.0006740602697698009]","[-0.026750000193715096, 0.05299999937415123, 0.03999999910593033]","[0.0, -0.0, 0.5340259366848519]","[-0.06339820474386215, 0.11497507244348526, 0.03999999910593033]","[0.0, 0.0, -0.2853386227939267]","[0.026750000193715096, 0.05299999937415123, 0.03999999910593033]","[0.0, 0.0, -0.5142829648106149]","[0.06216757372021675, 0.11568648368120193, 0.03999999910593033]","[0.0, -0.0, 0.30000068557064785]",0.5373798416296898,0.8049415330601536,"(0.0, 0.0, 0.0, 0.0, 0.0, 0.0)",-1.7057243686239283,-0.8187610200434927,0.1448468323170505,"(0.0, 0.0, 0.0, 0.0, 0.0, 0.0)",-0.7062718610238843,-0.510744645970332,0.8492054612312643,"(0.0, 0.0, 0.0, 0.0, 0.0, 0.0)",2.5908645314617553,0.8130780771742709,-0.2893386543531776,"(0.0, 0.0, 0.0, 0.0, 0.0, 0.0)",1.4903554170284858,True,"(-0.031482334498480806, 0.18215287416062362, 0.05600222598418712)","(0.9951068801080138, 0.09877927410737015, 0.0022253468305186495)",-0.002386321722728876,14.813317467657415,True,"(0.02927154775537888, 0.18220617845841414, 0.02399777389321026)","(-0.9951068801080142, -0.09877927410736635, -0.002225346830520583)",-9.702789105235751e-05,16.22587887608234
78,Move,"(-0.0271667, 0.0, -0.0284067)","(0.0, 0.05383468077776509, 0.0)","(-0.0008858030421531684, 0.16053600122330133, 0.04824783951336715)","(-0.006668397456300012, -0.0021919253127663783, 0.10080216236426527)","[-0.010884629640875334, 0.0005082587013718887, 0.0006972804991495149]","[-0.026750000193715096, 0.05299999937415123, 0.03999999910593033]","[0.0, -0.0, 0.5373798856789392]","[-0.06360585987567902, 0.11485180258750916, 0.03999999910593033]","[0.0, 0.0, -0.2813811932751522]","[0.026750000193715096, 0.05299999937415123, 0.03999999910593033]","[0.0, 0.0, -0.5107446880663488]","[0.06194554269313812, 0.11581141501665115, 0.03999999910593033]","[0.0, -0.0, 0.30233341572832695]",0.5408760219443699,0.8390832755232265,"(0.0, 0.0, 0.0, 0.0, 0.0, 0.0)",-1.897725306155587,-0.8180497874370096,0.17069582555593044,"(0.0, 0.0, 0.0, 0.0, 0.0, 0.0)",-0.8233738084956933,-0.5070400181299494,0.8891106816918374,"(0.0, 0.0, 0.0, 0.0, 0.0, 0.0)",2.4986989993907827,0.8119271695282683,-0.27621783504063896,"(0.0, 0.0, 0.0, 0.0, 0.0, 0.0)",1.4379665200800356,True,"(-0.03195581414748904, 0.18215267783605962, 0.05600252425206901)","(0.9949837620852392, 0.10000472524290556, 0.0025235125906121155)",-0.0023010339336789897,15.086466829860292,True,"(0.028894323324797355, 0.18225528134542557, 0.023997475727450163)","(-0.994983762085239, -0.10000472524290893, -0.002523512590615112)",-9.857185958196423e-05,14.106931164641269
79,Move,"(-0.027280000000000002, 0.0, -0.0310933)","(0.0, 0.06478662183402951, 0.0)","(-0.0012927251681635762, 0.16055081159219312, 0.048271207490564835)","(-0.0069356402169789, -0.0018106631502106177, 0.10145399694148027)","[-0.011291551766885741, 0.0005230690702636709, 0.0007206484763472021]","[-0.026750000193715096, 0.05299999937415123, 0.03999999910593033]","[0.0, -0.0, 0.5408760321334871]","[-0.06382187455892563, 0.11472257226705551, 0.03999999910593033]","[0.0, 0.0, -0.2771737631234886]","[0.026750000193715096, 0.05299999937415123, 0.03999999910593033]","[0.0, 0.0, -0.5070399636279082]","[0.061712611466646194, 0.1159413680434227, 0.03999999910593033]","[0.0, -0.0, 0.3048871573626276]",0.5443834233710164,0.8417763423951573,"(0.0, 0.0, 0.0, 0.0, 0.0, 0.0)",-1.8890966911917468,-0.8173724198761473,0.16256821460695695,"(0.0, 0.0, 0.0, 0.0, 0.0, 0.0)",-0.8117807428628879,-0.5032885919688151,0.9003422786722144,"(0.0, 0.0, 0.0, 0.0, 0.0, 0.0)",2.335782056003565,0.8108260921772183,-0.2642585642519889,"(0.0, 0.0, 0.0, 0.0, 0.0, 0.0)",1.3627998036759987,True,"(-0.0324549082106044, 0.18215245525059237, 0.056002192666275985)","(0.994921372479345, 0.10063129759142561, 0.0021919235575685466)",-0.0022205114211450764,14.458981149100584,True,"(0.028491622099591413, 0.18230253029397253, 0.0239978073164832)","(-0.9949213724793454, -0.10063129759142281, -0.0021919235575706686)",-7.15321063116863e-05,13.959564384488663
80,Move,"(-0.0266467, 0.0, -0.0327667)","(0.0, 0.07810522935599824, 0.0)","(-0.0016920325081882283, 0.16056386531602196, 0.04829452511664424)","(-0.007194634143939917, -0.0014053818064220477, 0.10211960336636601)","[-0.011690859106910393, 0.000536122794092514, 0.0007439661024266075]","[-0.026750000193715096, 0.05299999937415123, 0.03999999910593033]","[0.0, -0.0, 0.5443834383473344]","[-0.06403813511133194, 0.11459216475486755, 0.03999999910593033]","[0.0, 0.0, -0.2729890247646119]","[0.026750000193715096, 0.05299999937415123, 0.03999999910593033]","[0.0, 0.0, -0.5032886322781195]","[0.061476245522499084, 0.11607208847999573, 0.03999999910593033]","[0.0, -0.0, 0.30753750442649247]",0.5478252262618346,0.8260326937963612,"(0.0, 0.0, 0.0, 0.0, 0.0, 0.0)",-1.863795933515973,-0.8167104980013841,0.1588612499431643,"(0.0, 0.0, 0.0, 0.0, 0.0, 0.0)",-0.7939092022402068,-0.49956848439346224,0.8928258180846936,"(0.0, 0.0, 0.0, 0.0, 0.0, 0.0)",2.2246161430252633,0.8097637724074039,-0.2549567447554521,"(0.0, 0.0, 0.0, 0.0, 0.0, 0.0)",1.3106228388193668,True,"(-0.032953253110440145, 0.18214920858910902, 0.056001811408008514)","(0.994856325253229, 0.10127987759758021, 0.0018106621608346327)",-0.002140804127759009,13.899981671264245,True,"(0.028079288241783608, 0.18234695452101576, 0.023998188577879942)","(-0.9948563252532295, -0.10127987759757512, -0.0018106621608326324)",-5.2506318479603856e-05,13.865253294261684
81,Move,"(-0.0256, 0.0, -0.033960000000000004)","(0.0, 0.08808153136039784, 0.0)","(-0.002068466444858679, 0.1605765018599369, 0.04831631085431976)","(-0.007435044134412624, -0.0010384206897656638, 0.10273253200715744)","[-0.012067293043580844, 0.0005487593380074651, 0.0007657518401021288]","[-0.026750000193715096, 0.05299999937415123, 0.03999999910593033]","[0.0, -0.0, 0.547825209313719]","[-0.0642499029636383, 0.11446346342563629, 0.03999999910593033]","[0.0, 0.0, -0.26888528998681493]","[0.026750000193715096, 0.05299999937415123, 0.03999999910593033]","[0.0, 0.0, -0.49956848535456766]","[0.06124136969447136, 0.11620083451271057, 0.03999999910593033]","[0.0, -0.0, 0.3101952671278739]",0.5510521526782705,0.7744623399445932,"(0.0, 0.0, 0.0, 0.0, 0.0, 0.0)",-1.8872474421279153,-0.8160570526514281,0.15682688398943084,"(0.0, 0.0, 0.0, 0.0, 0.0, 0.0)",-0.7897648254822058,-0.4960365579251453,0.8476623523960762,"(0.0, 0.0, 0.0, 0.0, 0.0, 0.0)",2.1279087196930133,0.808721646704208,-0.2501101687670149,"(0.0, 0.0, 0.0, 0.0, 0.0, 0.0)",1.2772207532004893,True,"(-0.03344215938743724, 0.18214408069804322, 0.05600140613003601)","(0.9947893406504966, 0.10194210431136394, 0.0014053813437936193)",-0.002063075986397219,13.680708204155632,True,"(0.027668181463375387, 0.18238868868882335, 0.02399859385869698)","(-0.9947893406504965, -0.1019421043113638, -0.0014053813437986144)",-3.904882538789666e-05,13.65157713723235
82,Move,"(-0.0251467, 0.0, -0.03516)","(0.0, 0.0986582266274835, 0.0)","(-0.0024121194253467447, 0.16058922103851855, 0.048336179073832884)","(-0.007647953171502889, -0.000721255983366132, 0.10326876415899448)","[-0.01241094602406891, 0.000561478516589109, 0.000785620059615251]","[-0.026750000193715096, 0.05299999937415123, 0.03999999910593033]","[0.0, -0.0, 0.5510522001518133]","[-0.0644480437040329, 0.11434213817119598, 0.03999999910593033]","[0.0, 0.0, -0.26500491596310205]","[0.026750000193715096, 0.05299999937415123, 0.03999999910593033]","[0.0, 0.0, -0.4960365643861928]","[0.06101793423295021, 0.11632226407527924, 0.03999999910593033]","[0.0, -0.0, 0.3126850753171179]",0.5539897440957597,0.7050219401974316,"(0.0, 0.0, 0.0, 0.0, 0.0, 0.0)",-1.873947556200406,-0.8154150109001349,0.15409002031037622,"(0.0, 0.0, 0.0, 0.0, 0.0, 0.0)",-0.7805266063036752,-0.4927794735491712,0.7817002502337845,"(0.0, 0.0, 0.0, 0.0, 0.0, 0.0)",2.051575644927785,0.8077068876056333,-0.24354218365794011,"(0.0, 0.0, 0.0, 0.0, 0.0, 0.0)",1.2413154284534633,True,"(-0.03390281828418279, 0.1821385376243942, 0.05600103918046395)","(0.99472711658306, 0.10255186598598243, 0.0010384205047275891)",-0.0019897140639798952,13.408633726652079,True,"(0.027279861084263418, 0.1824281863490739, 0.023998960819537635)","(-0.9947271165830588, -0.10255186598600963, -0.0010384205031432987)",-2.7743491825085997e-05,13.382030204299475
83,Move,"(-0.0244867, 0.0, -0.0362267)","(0.0, 0.11136945956975818, 0.0)","(-0.002742118273066989, 0.1606013192035688, 0.04835486365810875)","(-0.007854230522361096, -0.00044138984564935077, 0.10377985203751683)","[-0.012740944871789154, 0.0005735766816393484, 0.0008043046438911197]","[-0.026750000193715096, 0.05299999937415123, 0.03999999910593033]","[0.0, -0.0, 0.5539897621468767]","[-0.06462807953357697, 0.11423113197088242, 0.03999999910593033]","[0.0, 0.0, -0.2614252412078786]","[0.026750000193715096, 0.05299999937415123, 0.03999999910593033]","[0.0, 0.0, -0.4927795052269632]","[0.06081150844693184, 0.1164335384964943, 0.03999999910593033]","[0.0, -0.0, 0.3149274637062438]",0.5567816285270493,0.670052263509479,"(0.0, 0.0, 0.0, 0.0, 0.0, 0.0)",-1.8022120846954195,-0.8147756550756688,0.15344539787185818,"(0.0, 0.0, 0.0, 0.0, 0.0, 0.0)",-0.7687930607468483,-0.48963962331990496,0.7535640550238887,"(0.0, 0.0, 0.0, 0.0, 0.0, 0.0)",2.0978521362696454,0.8066991220033095,-0.24186374455770726,"(0.0, 0.0, 0.0, 0.0, 0.0, 0.0)",1.2375722656873012,True,"(-0.03432541631712134, 0.18213341108954445, 0.056000722015879974)","(0.9946722595305442, 0.1030852846447965, 0.0007212559207497733)",-0.001920146028264317,13.253952603597007,True,"(0.026925110091860667, 0.18246534278684323, 0.02399927798411995)","(-0.9946722595305374, -0.10308528464486187, -0.0007212559208240573)",-1.8518620251613035e-05,13.26396097977708
84,Move,"(-0.0242333, 0.0, -0.03742)","(0.0, 0.12503364228362177, 0.0)","(-0.0030523073085741595, 0.16061359153514473, 0.048372119609208085)","(-0.008046999674328946, -0.00020260146074673366, 0.1042423826181621)","[-0.013051133907296324, 0.0005858490132152894, 0.0008215605949904517]","[-0.026750000193715096, 0.05299999937415123, 0.03999999910593033]","[0.0, -0.0, 0.5567816334302963]","[-0.06479887664318085, 0.11412514001131058, 0.03999999910593033]","[0.0, 0.0, -0.2579940035932591]","[0.026750000193715096, 0.05299999937415123, 0.03999999910593033]","[0.0, 0.0, -0.4896396935263554]","[0.06061216816306114, 0.11654017120599747, 0.03999999910593033]","[0.0, -0.0, 0.31705956098705096]",0.5593779225298534,0.6231105606729883,"(0.0, 0.0, 0.0, 0.0, 0.0, 0.0)",-1.8074314711121335,-0.8141384447925728,0.1529304679430411,"(0.0, 0.0, 0.0, 0.0, 0.0, 0.0)",-0.768800167132843,-0.48666422457581854,0.7140956985807398,"(0.0, 0.0, 0.0, 0.0, 0.0, 0.0)",2.0664614701196626,0.805702216464564,-0.23925732929893093,"(0.0, 0.0, 0.0, 0.0, 0.0, 0.0)",1.2229670063050357,True,"(-0.034729078765942556, 0.18212809318470796, 0.05600044214979054)","(0.9946196058010764, 0.10359365294808318, 0.00044138983131612736)",-0.001855553893140942,13.194297951851937,True,"(0.0265848930475747, 0.18250119138416188, 0.023999557850209467)","(-0.9946196058010747, -0.10359365294810147, -0.0004413898313093003)",-9.842082822064592e-06,13.169210608268074
85,Move,"(-0.02384, 0.0, -0.03846)","(0.0, 0.13844475225594616, 0.0)","(-0.0033540615383080524, 0.1606253147029891, 0.04838812377987144)","(-0.008241380977705928, -2.5366186487744295e-05, 0.10468279981012908)","[-0.013352888137030217, 0.0005975721810596579, 0.0008375647656538102]","[-0.026750000193715096, 0.05299999937415123, 0.03999999910593033]","[0.0, -0.0, 0.559377884874179]","[-0.06495744735002518, 0.11402614414691925, 0.03999999910593033]","[0.0, 0.0, -0.2547605267883047]","[0.026750000193715096, 0.05299999937415123, 0.03999999910593033]","[0.0, 0.0, -0.48666430651907516]","[0.06042296066880226, 0.11664064228534698, 0.03999999910593033]","[0.0, -0.0, 0.31903803446526363]",0.5618699469806183,0.5980858681835894,"(0.0, 0.0, 0.0, 0.0, 0.0, 0.0)",-1.7577911104044104,-0.8135068560499261,0.15158129823519617,"(0.0, 0.0, 0.0, 0.0, 0.0, 0.0)",-0.7581192546671649,-0.48374800037983584,0.6998938070358409,"(0.0, 0.0, 0.0, 0.0, 0.0, 0.0)",2.1147269210423905,0.8047002057319373,-0.24048257583039204,"(0.0, 0.0, 0.0, 0.0, 0.0, 0.0)",1.2317654135844498,True,"(-0.03510740161440735, 0.18212322083978483, 0.05600020336141854)","(0.994571660650045, 0.10405369183484313, 0.00020260145931293996)",-0.001795613519847083,13.162250159649496,True,"(0.02626509038124114, 0.18253571924390516, 0.023999796638581414)","(-0.9945716606500364, -0.10405369183492466, -0.0002026014593603379)",-2.6067367757338177e-06,12.68852495360148
86,Move,"(-0.0235133, 0.0, -0.03922)","(0.0, 0.15151377769487975, 0.0)","(-0.003643660728876665, 0.16063710103255446, 0.04840284887600063)","(-0.008434985843374723, 9.495286090134802e-05, 0.10508531588461423)","[-0.01364248732759883, 0.0006093585106250188, 0.0008522898617829983]","[-0.026750000193715096, 0.05299999937415123, 0.03999999910593033]","[0.0, -0.0, 0.5618699410438884]","[-0.06510940939188004, 0.11393074691295624, 0.03999999910593033]","[0.0, 0.0, -0.2516369119600246]","[0.026750000193715096, 0.05299999937415123, 0.03999999910593033]","[0.0, 0.0, -0.48374801047268734]","[0.060237228870391846, 0.11673857271671295, 0.03999999910593033]","[0.0, -0.0, 0.3209521666640319]",0.5642225709115616,0.5646297434263848,"(0.0, 0.0, 0.0, 0.0, 0.0, 0.0)",-1.7681049550771504,-0.8128746263464312,0.15173512883878185,"(0.0, 0.0, 0.0, 0.0, 0.0, 0.0)",-0.7597931333242272,-0.4809281843928123,0.6767558368856446,"(0.0, 0.0, 0.0, 0.0, 0.0, 0.0)",2.1154716794881034,0.8036935868421387,-0.24158853355169355,"(0.0, 0.0, 0.0, 0.0, 0.0, 0.0)",1.236107010966588,True,"(-0.03547221566445617, 0.182120725190804, 0.05600020336141854)","(0.994571660650045, 0.10405369183484313, 0.00020260145931293996)",-0.0017409489558245258,13.254654082141961,True,"(0.025953127391894273, 0.18256960586627646, 0.023999973873854292)","(-0.9945257572509202, -0.104491710298189, -2.5366186483947622e-05)",2.132048435778109e-06,12.387177547325958
87,Move,"(-0.0233267, 0.0, -0.03996)","(0.0, 0.16245001078787624, 0.0)","(-0.003901057801901364, 0.16064528836521536, 0.04845569892217582)","(-0.00897538712411852, -0.00022598655939587333, 0.10600246093874868)","[-0.013899884400623529, 0.0006175458432859104, 0.000905139907958187]","[-0.026750000193715096, 0.05299999937415123, 0.03999999910593033]","[0.0, -0.0, 0.5642225571456295]","[-0.06525265425443649, 0.11384033411741257, 0.03999999910593033]","[0.0, 0.0, -0.24865204239820363]","[0.026750000193715096, 0.05299999937415123, 0.03999999910593033]","[0.0, 0.0, -0.4809282398151937]","[0.06005736440420151, 0.11683274805545807, 0.03999999910593033]","[0.0, -0.0, 0.3227654181921993]",0.5664472224330156,0.5339163651489611,"(0.0, 0.0, 0.0, 0.0, 0.0, 0.0)",-1.5662585583873874,-0.8123342282214411,0.12969554999760705,"(0.0, 0.0, 0.0, 0.0, 0.0, 0.0)",-0.6524655161906938,-0.47818604318698,0.6581138893997623,"(0.0, 0.0, 0.0, 0.0, 0.0, 0.0)",2.1915404366419104,0.8026643928302268,-0.2470065628588302,"(0.0, 0.0, 0.0, 0.0, 0.0, 0.0)",1.2717323083611014,True,"(-0.035819125336782845, 0.18211847017942084, 0.05600020336141854)","(0.994571660650045, 0.10405369183484313, 0.00020260145931293996)",-0.0016915153828980312,12.74255279943137,True,"(0.025653955234550982, 0.18260150814399964, 0.023999973873854292)","(-0.9945257572509202, -0.104491710298189, -2.5366186483947622e-05)",5.200755616570327e-06,13.517214204575195
88,Move,"(-0.0233533, 0.0, -0.04054)","(0.0, 0.17247169135282764, 0.0)","(-0.004159614554746665, 0.16065425799639554, 0.048505144393508504)","(-0.009542579946807926, -0.0005660419888800025, 0.1067997059133232)","[-0.014158441153468829, 0.0006265154744660995, 0.0009545853792908704]","[-0.026750000193715096, 0.05299999937415123, 0.03999999910593033]","[0.0, -0.0, 0.5664471566515265]","[-0.06538790464401245, 0.1137545257806778, 0.03999999910593033]","[0.0, 0.0, -0.2458869977955817]","[0.026750000193715096, 0.05299999937415123, 0.03999999910593033]","[0.0, 0.0, -0.47818605502712863]","[0.05988220125436783, 0.11692383885383606, 0.03999999910593033]","[0.0, -0.0, 0.3244783716679583]",0.5685825766351886,0.5124850085215228,"(0.0, 0.0, 0.0, 0.0, 0.0, 0.0)",-1.6180212644835659,-0.8117559681692953,0.1387824125149854,"(0.0, 0.0, 0.0, 0.0, 0.0, 0.0)",-0.6803494735135409,-0.4754946328399919,0.6459384832771449,"(0.0, 0.0, 0.0, 0.0, 0.0, 0.0)",2.3001855904889394,0.801590834401515,-0.25765402289084777,"(0.0, 0.0, 0.0, 0.0, 0.0, 0.0)",1.3201677929078106,True,"(-0.036142505427344825, 0.1821067179892262, 0.056000226746516724)","(0.9943869725849721, 0.1058040532464145, 0.0002259865574995174)",-0.0016489358043764108,13.301283720919479,True,"(0.025365948086980228, 0.18263576769335943, 0.023999773253483306)","(-0.9943869725849721, -0.10580405324641294, -0.00022598655747340667)",-1.3115578075283741e-05,14.88764886352761
89,Move,"(-0.02302, 0.0, -0.040933300000000006)","(0.0, 0.18226298845651584, 0.0)","(-0.004418833189471734, 0.16066347226897798, 0.04855162147787182)","(-0.010119444476283698, -0.0009116467403139832, 0.10756821031811713)","[-0.014417659788193898, 0.0006357297470485357, 0.0010010624636541884]","[-0.026750000193715096, 0.05299999937415123, 0.03999999910593033]","[0.0, -0.0, 0.5685826241854904]","[-0.06551755219697952, 0.11367188394069672, 0.03999999910593033]","[0.0, 0.0, -0.24317341831580008]","[0.026750000193715096, 0.05299999937415123, 0.03999999910593033]","[0.0, 0.0, -0.47549461916044145]","[0.05971003323793411, 0.11701278388500214, 0.03999999910593033]","[0.0, -0.0, 0.3260962216361361]",0.5706751114545981,0.5022083566582786,"(0.0, 0.0, 0.0, 0.0, 0.0, 0.0)",-1.6361531629466248,-0.8111677828601769,0.14116447418841496,"(0.0, 0.0, 0.0, 0.0, 0.0, 0.0)",-0.6951476520989449,-0.47279259561599973,0.6484889337581156,"(0.0, 0.0, 0.0, 0.0, 0.0, 0.0)",2.369200445069829,0.8004965921217799,-0.26261814713642717,"(0.0, 0.0, 0.0, 0.0, 0.0, 0.0)",1.3505698728247544,True,"(-0.036457532633711445, 0.1821012776320038, 0.05600056680191791)","(0.9943021709287162, 0.10659677519954783, 0.0005660419586825904)",-0.001613535887830229,13.568163009053753,True,"(0.025087428386076437, 0.18266959616073467, 0.023999433198082128)","(-0.9943021709287154, -0.10659677519955589, -0.0005660419586494298)",-2.370901405544497e-05,15.251600863848124
90,Move,"(-0.022533300000000003, 0.0, -0.040993299999999996)","(0.0, 0.18858457100723935, 0.0)","(-0.004668224317537395, 0.16067364136828394, 0.04859510619748684)","(-0.010700785828063228, -0.0012664270943364413, 0.10824746721731102)","[-0.014667050916259559, 0.0006458988463544924, 0.0010445471832692052]","[-0.026750000193715096, 0.05299999937415123, 0.03999999910593033]","[0.0, -0.0, 0.5706751202827443]","[-0.06564442068338394, 0.11359062790870667, 0.03999999910593033]","[0.0, 0.0, -0.2404926839002536]","[0.026750000193715096, 0.05299999937415123, 0.03999999910593033]","[0.0, 0.0, -0.4727926033623172]","[0.059536948800086975, 0.11710160970687866, 0.03999999910593033]","[0.0, -0.0, 0.3277039951102623]",0.5726416016850401,0.4719576553060502,"(0.0, 0.0, 0.0, 0.0, 0.0, 0.0)",-1.6915823859710852,-0.8105692446136396,0.14364917916896783,"(0.0, 0.0, 0.0, 0.0, 0.0, 0.0)",-0.7120879202883289,-0.47017165564959784,0.6290255919364568,"(0.0, 0.0, 0.0, 0.0, 0.0, 0.0)",2.366417785999126,0.7993920071283718,-0.26510039841796346,"(0.0, 0.0, 0.0, 0.0, 0.0, 0.0)",1.3624658202433328,True,"(-0.03676774308549519, 0.1820957772218284, 0.05600091240657326)","(0.9942197033563559, 0.10736084183002244, 0.0009116466140374051)",-0.0015828579180663283,13.770044619515016,True,"(0.024808735255761064, 0.18270350515466907, 0.023999087593426744)","(-0.9942197033563557, -0.10736084183002408, -0.0009116466140342783)",-3.452241620985464e-05,15.533572335475014
91,Move,"(-0.0223333, 0.0, -0.041106699999999996)","(0.0, 0.192373680813319, 0.0)","(-0.0049035283363487855, 0.1606848084850035, 0.04863577174074492)","(-0.011280180646124667, -0.0016298907570610097, 0.1088213505747575)","[-0.01490235493507095, 0.0006570659630740494, 0.0010852127265272848]","[-0.026750000193715096, 0.05299999937415123, 0.03999999910593033]","[0.0, -0.0, 0.5726415439313537]","[-0.06576349586248398, 0.1135140210390091, 0.03999999910593033]","[0.0, 0.0, -0.23792763779702367]","[0.026750000193715096, 0.05299999937415123, 0.03999999910593033]","[0.0, 0.0, -0.47017168764568934]","[0.05936883017420769, 0.11718732118606567, 0.03999999910593033]","[0.0, -0.0, 0.3292203137399683]",0.5744581678989986,0.4359758913500558,"(0.0, 0.0, 0.0, 0.0, 0.0, 0.0)",-1.7088607379134777,-0.809965106386705,0.14499317446426785,"(0.0, 0.0, 0.0, 0.0, 0.0, 0.0)",-0.7213315859489159,-0.46767484012247007,0.5992357265106605,"(0.0, 0.0, 0.0, 0.0, 0.0, 0.0)",2.360741586691816,0.7982889713306961,-0.2647285914421675,"(0.0, 0.0, 0.0, 0.0, 0.0, 0.0)",1.3619450906969561,True,"(-0.03706242603007618, 0.18209114409603477, 0.056001267186715026)","(0.994146164300582, 0.10803610586147734, 0.0012664267558073507)",-0.001555671670163216,13.82257917379006,True,"(0.024541090171727065, 0.18273731401737753, 0.023998732813284962)","(-0.9941461643005802, -0.10803610586149576, -0.001266426755811977)",-4.6148365831573306e-05,15.676898211985508
92,Move,"(-0.02182, 0.0, -0.04114)","(0.0, 0.19472638464500738, 0.0)","(-0.005132366005302354, 0.16069635268485993, 0.04867408463262225)","(-0.01185829683952229, -0.0019979829232130305, 0.10933910115163308)","[-0.01513119260402452, 0.0006686101629304886, 0.0011235256184046194]","[-0.026750000193715096, 0.05299999937415123, 0.03999999910593033]","[0.0, -0.0, 0.5744581965678663]","[-0.06587336212396622, 0.1134430542588234, 0.03999999910593033]","[0.0, 0.0, -0.2355069476164686]","[0.026750000193715096, 0.05299999937415123, 0.03999999910593033]","[0.0, 0.0, -0.4676748683587708]","[0.0592084676027298, 0.11726856231689453, 0.03999999910593033]","[0.0, -0.0, 0.33061413506473863]",0.5761942405681054,0.416657440585634,"(0.0, 0.0, 0.0, 0.0, 0.0, 0.0)",-1.688455446410441,-0.8093563454824885,0.14610261701198915,"(0.0, 0.0, 0.0, 0.0, 0.0, 0.0)",-0.7240002511918321,-0.46523821131417137,0.5847909139916857,"(0.0, 0.0, 0.0, 0.0, 0.0, 0.0)",2.3938094835525954,0.7971833376570182,-0.2653520816826951,"(0.0, 0.0, 0.0, 0.0, 0.0, 0.0)",1.367128938839057,True,"(-0.037338176450422755, 0.18208761374078908, 0.05600163064999467)","(0.9940834772342579, 0.10860655481286045, 0.00162989003544723)",-0.0015307427979359487,13.835561353858244,True,"(0.02428930751658428, 0.1827707662755915, 0.023998369350005367)","(-0.9940834772342578, -0.10860655481286391, -0.001629890035409327)",-5.836079210881739e-05,15.798271397295675
