OSUrobotics/InHand-Manipulation/AnalyseData/Data/Trial Data/Even Better/new_hand_human_sub1_2v2_d_n_1_kpNone_kdNone_dp3_step2_save_data.csv
,Phase,human_cube_pos,human_cube_orn,Cube_Pos,Cube_Orn,Cube_pos_in_start_pos,b'l_prox_pin'_link_pos,b'l_prox_pin'_link_orn,b'l_distal_pin'_link_pos,b'l_distal_pin'_link_orn,b'r_prox_pin'_link_pos,b'r_prox_pin'_link_orn,b'r_distal_pin'_link_pos,b'r_distal_pin'_link_orn,b'l_prox_pin'_joint_angle,b'l_prox_pin'_joint_vel,b'l_prox_pin'_joint_react_forces,b'l_prox_pin'_joint_motor_torque,b'l_distal_pin'_joint_angle,b'l_distal_pin'_joint_vel,b'l_distal_pin'_joint_react_forces,b'l_distal_pin'_joint_motor_torque,b'r_prox_pin'_joint_angle,b'r_prox_pin'_joint_vel,b'r_prox_pin'_joint_react_forces,b'r_prox_pin'_joint_motor_torque,b'r_distal_pin'_joint_angle,b'r_distal_pin'_joint_vel,b'r_distal_pin'_joint_react_forces,b'r_distal_pin'_joint_motor_torque,in_contact_l,contact_point_l_dist,contact_normal_l_dist,contact_distance_l_dist,contact_norm_force_l_dist,in_contact_r,contact_point_r_dist,contact_normal_r_dist,contact_distance_r_dist,contact_norm_force_r_dist
0,Open,,,,,,"[-0.026750000193715096, 0.05299999937415123, 0.03999999910593033]","[0.0, -0.0, 0.0]","[-0.026750000193715096, 0.125, 0.03999999910593033]","[0.0, -0.0, 5.883223447970011e-32]","[0.026750000193715096, 0.05299999937415123, 0.03999999910593033]","[0.0, 0.0, -0.008068665592501188]","[0.02733093686401844, 0.12499765306711197, 0.03999999910593033]","[0.0, 0.0, -0.0780932845685428]",0.157,37.68,"(0.0, 0.0, 0.0, 0.0, 0.0, 0.0)",54.702693795169004,5.294901130302062e-32,-1.4119736347472162e-30,"(0.0, 0.0, 0.0, 0.0, 0.0, 0.0)",3.9113724975844915,-0.1670280316324969,-38.150247946082466,"(0.0, 0.0, 0.0, 0.0, 0.0, 0.0)",-25.93345404555236,-0.0659493391739072,0.9780670797324476,"(0.0, 0.0, 0.0, 0.0, 0.0, 0.0)",-6.754749483880455,False,,,,,False,,,,
1,Open,,,,,,"[-0.026750000193715096, 0.05299999937415123, 0.03999999910593033]","[0.0, -0.0, 0.29830000998707634]","[-0.04791048914194107, 0.12182030081748962, 0.03999999910593033]","[0.0, -0.0, 0.29830000998707634]","[0.026750000193715096, 0.05299999937415123, 0.03999999910593033]","[0.0, 0.0, -0.3122944642903269]","[0.048871491104364395, 0.12151744216680527, 0.03999999910593033]","[0.0, 0.0, -0.3793531994353912]",0.42546999999999996,30.5208,"(0.0, 0.0, 0.0, 0.0, 0.0, 0.0)",-4.858074537215091,5.294901130302062e-32,0.0,"(0.0, 0.0, 0.0, 0.0, 0.0, 0.0)",-0.33154044974508506,-0.44292449566296654,-31.35120824461403,"(0.0, 0.0, 0.0, 0.0, 0.0, 0.0)",100.88457241511576,-0.08373770380977785,-4.0029668326633345,"(0.0, 0.0, 0.0, 0.0, 0.0, 0.0)",24.077304806401806,False,,,,,False,,,,
2,Open,,,,,,"[-0.026750000193715096, 0.05299999937415123, 0.03999999910593033]","[0.0, -0.0, 0.5399230359738098]","[-0.06376303732395172, 0.11475787311792374, 0.03999999910593033]","[0.0, -0.0, 0.5399230359738098]","[0.026750000193715096, 0.05299999937415123, 0.03999999910593033]","[0.0, 0.0, -0.5623038790270362]","[0.06513584405183792, 0.11391409486532211, 0.03999999910593033]","[0.0, 0.0, -0.6668711870723439]",0.6429307,24.721848,"(0.0, 0.0, 0.0, 0.0, 0.0, 0.0)",-3.943806903965684,5.294901130302062e-32,0.0,"(0.0, 0.0, 0.0, 0.0, 0.0, 0.0)",-0.2716098155097054,-0.6673401099248648,-25.208696742335626,"(0.0, 0.0, 0.0, 0.0, 0.0, 0.0)",94.97739775913854,-0.11755295807544866,-3.116564819203918,"(0.0, 0.0, 0.0, 0.0, 0.0, 0.0)",25.79194570087013,False,,,,,False,,,,
3,Open,,,,,,"[-0.026750000193715096, 0.05299999937415123, 0.03999999910593033]","[0.0, -0.0, 0.7356376306875043]","[-0.07506632059812546, 0.10638101398944855, 0.03999999910593033]","[0.0, -0.0, 0.7356376306875043]","[0.026750000193715096, 0.05299999937415123, 0.03999999910593033]","[0.0, 0.0, -0.757991847340814]","[0.076247438788414, 0.10528770089149475, 0.03999999910593033]","[0.0, 0.0, -0.8659334873334429]",0.8190738670000001,20.024696880000004,"(0.0, 0.0, 0.0, 0.0, 0.0, 0.0)",-3.2002295086701533,2.3293280891773424e-07,5.5903874140256216e-05,"(0.0, 0.0, 0.0, 0.0, 0.0, 0.0)",-0.22200715926400075,-0.8391926082762636,-19.488197112632974,"(0.0, 0.0, 0.0, 0.0, 0.0, 0.0)",3.295349739497939,-0.09714776835574307,2.590534961280482,"(0.0, 0.0, 0.0, 0.0, 0.0, 0.0)",0.25803221970863044,False,,,,,False,,,,
4,Open,,,,,,"[-0.026750000193715096, 0.05299999937415123, 0.03999999910593033]","[0.0, -0.0, 0.894166469119967]","[-0.08288749307394028, 0.09808415919542313, 0.03999999910593033]","[0.0, -0.0, 0.894166894674561]","[0.026750000193715096, 0.05299999937415123, 0.03999999910593033]","[0.0, 0.0, -0.9122733503889549]","[0.08369457721710205, 0.09706035256385803, 0.03999999910593033]","[0.0, 0.0, -0.9997066729229968]",0.96174983227,16.220004472800003,"(0.0, 0.0, 0.0, 0.0, 0.0, 0.0)",-2.5959652512206968,5.681494863714967e-07,3.553320838026869e-05,"(0.0, 0.0, 0.0, 0.0, 0.0, 0.0)",-0.18114955764248034,-0.9780460127037736,-15.785439661232708,"(0.0, 0.0, 0.0, 0.0, 0.0, 0.0)",2.503992476159733,-0.0786900142246732,2.098357403184359,"(0.0, 0.0, 0.0, 0.0, 0.0, 0.0)",0.15360133560797545,False,,,,,False,,,,
5,Open,,,,,,"[-0.026750000193715096, 0.05299999937415123, 0.03999999910593033]","[0.0, -0.0, 1.0225748785172661]","[-0.08819860219955444, 0.09052424877882004, 0.03999999910593033]","[0.0, -0.0, 1.0225755149967983]","[0.026750000193715096, 0.05299999937415123, 0.03999999910593033]","[0.0, 0.0, -1.037241417801626]","[0.08874232321977615, 0.08961901068687439, 0.03999999910593033]","[0.0, 0.0, -1.1080626941470386]",1.0773173641387,13.138203622968001,"(0.0, 0.0, 0.0, 0.0, 0.0, 0.0)",-2.105207702642618,7.694903593429899e-07,2.0776129443188934e-05,"(0.0, 0.0, 0.0, 0.0, 0.0, 0.0)",-0.14759587787833617,-1.0905172702900567,-12.78620612559849,"(0.0, 0.0, 0.0, 0.0, 0.0, 0.0)",2.0303755786213302,-0.06373917358809339,1.6996763127328351,"(0.0, 0.0, 0.0, 0.0, 0.0, 0.0)",0.1250328149112744,False,,,,,False,,,,
6,Open,,,,,,"[-0.026750000193715096, 0.05299999937415123, 0.03999999910593033]","[0.0, -0.0, 1.126585512342968]","[-0.09176240861415863, 0.08394166082143784, 0.03999999910593033]","[0.0, -0.0, 1.1265864725026016]","[0.026750000193715096, 0.05299999937415123, 0.03999999910593033]","[0.0, 0.0, -1.13846552283997]","[0.09212540090084076, 0.08316715806722641, 0.03999999910593033]","[0.0, 0.0, -1.1958309904194953]",1.1709270649523469,10.641944934604087,"(0.0, 0.0, 0.0, 0.0, 0.0, 0.0)",-1.7068426281171958,8.750681698751778e-07,1.0273240928962424e-05,"(0.0, 0.0, 0.0, 0.0, 0.0, 0.0)",-0.12011999884119333,-1.181618988934946,-10.356826961734775,"(0.0, 0.0, 0.0, 0.0, 0.0, 0.0)",1.6460093571929852,-0.051628943774705546,1.376743384776279,"(0.0, 0.0, 0.0, 0.0, 0.0, 0.0)",0.10168054944364863,False,,,,,False,,,,
7,Open,,,,,,"[-0.026750000193715096, 0.05299999937415123, 0.03999999910593033]","[0.0, -0.0, 1.2108343955497323]","[-0.09413553774356842, 0.07836118340492249, 0.03999999910593033]","[0.0, -0.0, 1.210835255049739]","[0.026750000193715096, 0.05299999937415123, 0.03999999910593033]","[0.0, 0.0, -1.2204571829136446]","[0.09437645971775055, 0.07771158218383789, 0.03999999910593033]","[0.0, 0.0, -1.2669233179031547]",1.2467509226114009,8.619975397029307,"(0.0, 0.0, 0.0, 0.0, 0.0, 0.0)",-1.3836082777937824,9.135722823677317e-07,2.9650129412077397e-06,"(0.0, 0.0, 0.0, 0.0, 0.0, 0.0)",-0.09766941677677543,-1.2554113810373062,-8.38902983900517,"(0.0, 0.0, 0.0, 0.0, 0.0, 0.0)",1.334189480132575,-0.04181961771093252,1.1151666876061868,"(0.0, 0.0, 0.0, 0.0, 0.0, 0.0)",0.08262627878010878,False,,,,,False,,,,
8,Open,,,,,,"[-0.026750000193715096, 0.05299999937415123, 0.03999999910593033]","[0.0, -0.0, 1.2790758758817962]","[-0.09570803493261337, 0.0737072303891182, 0.03999999910593033]","[0.0, -0.0, 1.2790780932516201]","[0.026750000193715096, 0.05299999937415123, 0.03999999910593033]","[0.0, 0.0, -1.2868702529032277]","[0.0958673357963562, 0.07316911965608597, 0.03999999910593033]","[0.0, 0.0, -1.3245087793274308]",1.3081682532711112,6.982181501004109,"(0.0, 0.0, 0.0, 0.0, 0.0, 0.0)",-1.12145472366965,1.9027582300258812e-06,-5.0740219467356254e-05,"(0.0, 0.0, 0.0, 0.0, 0.0, 0.0)",-0.07939114715284208,-1.315183223212741,-6.795115266999686,"(0.0, 0.0, 0.0, 0.0, 0.0, 0.0)",1.0813262344929835,-0.033874873767778015,0.9033299671407473,"(0.0, 0.0, 0.0, 0.0, 0.0, 0.0)",0.06713055017345074,False,,,,,False,,,,
9,Open,,,,,,"[-0.026750000193715096, 0.05299999937415123, 0.03999999910593033]","[0.0, -0.0, 1.334351465706577]","[-0.09674673527479172, 0.06986585259437561, 0.03999999910593033]","[0.0, -0.0, 1.33435435145599]","[0.026750000193715096, 0.05299999937415123, 0.03999999910593033]","[0.0, 0.0, -1.3406650641721125]","[0.09685182571411133, 0.06942359358072281, 0.03999999910593033]","[0.0, 0.0, -1.3711530696282732]",1.3579162851496,5.655565729344001,"(0.0, 0.0, 0.0, 0.0, 0.0, 0.0)",-0.9088150211252332,3.4316066113876724e-06,0.0001607445165674468,"(0.0, 0.0, 0.0, 0.0, 0.0, 0.0)",-0.06444344013525093,-1.3635984108023202,-5.504042378604797,"(0.0, 0.0, 0.0, 0.0, 0.0, 0.0)",0.8762522980402716,-0.02744024570882781,0.7315266716392431,"(0.0, 0.0, 0.0, 0.0, 0.0, 0.0)",0.05446985052483407,False,,,,,False,,,,
10,Open,,,,,,"[-0.026750000193715096, 0.05299999937415123, 0.03999999910593033]","[0.0, -0.0, 1.3791247702213432]","[-0.0974314734339714, 0.0667160153388977, 0.03999999910593033]","[0.0, -0.0, 1.3791284782568445]","[0.026750000193715096, 0.05299999937415123, 0.03999999910593033]","[0.0, 0.0, -1.3842387704807777]","[0.09750068932771683, 0.06635437905788422, 0.03999999910593033]","[0.0, 0.0, -1.408935619520831]",1.398212190971176,4.581008240768642,"(0.0, 0.0, 0.0, 0.0, 0.0, 0.0)",-0.7364407507487188,4.314390796743166e-06,8.968521101115077e-05,"(0.0, 0.0, 0.0, 0.0, 0.0, 0.0)",-0.05230389643117988,-1.4028147127498793,-4.458274326669883,"(0.0, 0.0, 0.0, 0.0, 0.0, 0.0)",0.7100243788118592,-0.02222789596809768,0.5925708975857369,"(0.0, 0.0, 0.0, 0.0, 0.0, 0.0)",0.04419507766734469,False,,,,,False,,,,
11,Open,,,,,,"[-0.026750000193715096, 0.05299999937415123, 0.03999999910593033]","[0.0, -0.0, 1.415391158105469]","[-0.09788231551647186, 0.06414420157670975, 0.03999999910593033]","[0.0, -0.0, 1.415395709317307]","[0.026750000193715096, 0.05299999937415123, 0.03999999910593033]","[0.0, 0.0, -1.419533200978404]","[0.09792786836624146, 0.06384945660829544, 0.03999999910593033]","[0.0, 0.0, -1.4395389386881268]",1.4308518746866525,3.7106166750225977,"(0.0, 0.0, 0.0, 0.0, 0.0, 0.0)",-0.5967141397561109,4.7399630338636504e-06,3.9705446138709865e-05,"(0.0, 0.0, 0.0, 0.0, 0.0, 0.0)",-0.042434775014060074,-1.4345799173274023,-3.611202204602609,"(0.0, 0.0, 0.0, 0.0, 0.0, 0.0)",0.5752902758042565,-0.018005647771851804,0.4800102903229233,"(0.0, 0.0, 0.0, 0.0, 0.0, 0.0)",0.0358468230863414,False,,,,,False,,,,
12,Open,,,,,,"[-0.026750000193715096, 0.05299999937415123, 0.03999999910593033]","[0.0, -0.0, 1.4447668540021588]","[-0.09817895293235779, 0.06205013021826744, 0.03999999910593033]","[0.0, -0.0, 1.4447715863131299]","[0.026750000193715096, 0.05299999937415123, 0.03999999910593033]","[0.0, 0.0, -1.448121993206969]","[0.09820891171693802, 0.06181041896343231, 0.03999999910593033]","[0.0, 0.0, -1.46432761016298]",1.4572900184961886,3.005599506768304,"(0.0, 0.0, 0.0, 0.0, 0.0, 0.0)",-0.483467731204937,4.849462099751187e-06,5.401615740548756e-06,"(0.0, 0.0, 0.0, 0.0, 0.0, 0.0)",-0.03441712855198442,-1.4603097330351957,-2.925073785728113,"(0.0, 0.0, 0.0, 0.0, 0.0, 0.0)",0.4660969568661882,-0.014585427836986846,0.38883096045278315,"(0.0, 0.0, 0.0, 0.0, 0.0, 0.0)",0.029067900465992856,False,,,,,False,,,,
13,Open,,,,,,"[-0.026750000193715096, 0.05299999937415123, 0.03999999910593033]","[0.0, -0.0, 1.4685611215819594]","[-0.09837405383586884, 0.06034812703728676, 0.03999999910593033]","[0.0, -0.0, 1.468565853091142]","[0.026750000193715096, 0.05299999937415123, 0.03999999910593033]","[0.0, 0.0, -1.4712788457263521]","[0.0983937606215477, 0.06015344336628914, 0.03999999910593033]","[0.0, 0.0, -1.4844061039497418]",1.4787049149819127,2.434535600482329,"(0.0, 0.0, 0.0, 0.0, 0.0, 0.0)",-0.39169363303347604,4.747151892642784e-06,-1.7351748576465223e-05,"(0.0, 0.0, 0.0, 0.0, 0.0, 0.0)",-0.02790732436186781,-1.4811508837585086,-2.3693097664397755,"(0.0, 0.0, 0.0, 0.0, 0.0, 0.0)",0.37761186810531283,-0.011814888241968555,0.3149714411852639,"(0.0, 0.0, 0.0, 0.0, 0.0, 0.0)",0.023565936472848985,False,,,,,False,,,,
14,Open,,,,,,"[-0.026750000193715096, 0.05299999937415123, 0.03999999910593033]","[0.0, -0.0, 1.487834617901085]","[-0.09850236773490906, 0.05896640568971634, 0.03999999910593033]","[0.0, -0.0, 1.4878390921106803]","[0.026750000193715096, 0.05299999937415123, 0.03999999910593033]","[0.0, 0.0, -1.4900358577435544]","[0.09851532429456711, 0.05880843847990036, 0.03999999910593033]","[0.0, 0.0, -1.5006695807985118]",1.4960509811353493,1.9719738363906854,"(0.0, 0.0, 0.0, 0.0, 0.0, 0.0)",-0.3173274216127963,4.509251873886308e-06,-3.168767150011037e-05,"(0.0, 0.0, 0.0, 0.0, 0.0, 0.0)",-0.022624215793833224,-1.498032215844392,-1.9191409108162163,"(0.0, 0.0, 0.0, 0.0, 0.0, 0.0)",0.30591369390909257,-0.00957062017308593,0.2551417656412126,"(0.0, 0.0, 0.0, 0.0, 0.0, 0.0)",0.019102112305110365,False,,,,,False,,,,
15,Close,,,"(0.010000330010418335, 0.1600052801621647, 0.0076635160840755065)","(-0.00010776674212266888, 6.7354271463595154e-06, -3.629275205618536e-10)",,"[-0.026750000193715096, 0.05299999937415123, 0.03999999910593033]","[0.0, -0.0, 1.5034457455162191]","[-0.09858676046133041, 0.05784556642174721, 0.03999999910593033]","[0.0, -0.0, 1.5034503818793725]","[0.026750000193715096, 0.05299999937415123, 0.03999999910593033]","[0.0, 0.0, -1.5052288706440118]","[0.09859529137611389, 0.057717464864254, 0.03999999910593033]","[0.0, 0.0, -1.5138427586332608]",1.413101294719633,-21.682701192523552,"(0.0, 0.0, 0.0, 0.0, 0.0, 0.0)",-36.2964633864193,-0.08999572753671375,-21.600020366059084,"(0.0, 0.0, 0.0, 0.0, 0.0, 0.0)",-4.677104715743802,-1.4147060948339576,21.72549586223887,"(0.0, 0.0, 0.0, 0.0, 0.0, 0.0)",36.28721231316116,0.08224721981037424,21.806647295928226,"(0.0, 0.0, 0.0, 0.0, 0.0, 0.0)",4.674247117033191,False,,,,,False,,,,
16,Close,,,"(0.010000659812012168, 0.16001055698314023, 0.0146278458391823)","(-0.0002154970996661642, 1.346858017578936e-05, -1.4512199879406586e-09)",,"[-0.026750000193715096, 0.05299999937415123, 0.03999999910593033]","[0.0, -0.0, 1.331791174621689]","[-0.09670332819223404, 0.07004500180482864, 0.03999999910593033]","[0.0, -0.0, 1.1607947601674466]","[0.026750000193715096, 0.05299999937415123, 0.03999999910593033]","[0.0, 0.0, -1.333235579802916]","[0.0967278704047203, 0.06994394958019257, 0.03999999910593033]","[0.0, 0.0, -1.1692126917852095]",1.2586120487229027,-17.562987965944075,"(0.0, 0.0, 0.0, 0.0, 0.0, 0.0)",2.9912613024458263,-0.2438973282575851,-17.496176851103186,"(0.0, 0.0, 0.0, 0.0, 0.0, 0.0)",0.3774423078885404,-1.2599119368155056,17.59765164841349,"(0.0, 0.0, 0.0, 0.0, 0.0, 0.0)",-2.998418754928424,0.23762104120869787,17.663545071724318,"(0.0, 0.0, 0.0, 0.0, 0.0, 0.0)",-0.3794651959179023,False,,,,,False,,,,
17,Close,,,"(0.010000989414132393, 0.1600158306125408, 0.020893621515273818)","(-0.00032319108508158773, 2.0199459787849396e-05, -3.2641426920478403e-09)",,"[-0.026750000193715096, 0.05299999937415123, 0.03999999910593033]","[0.0, -0.0, 1.1927509376626115]","[-0.09366592019796371, 0.0795755386352539, 0.03999999910593033]","[0.0, -0.0, 0.8832429263887086]","[0.026750000193715096, 0.05299999937415123, 0.03999999910593033]","[0.0, 0.0, -1.1939208377844814]","[0.0936969667673111, 0.07949723303318024, 0.03999999910593033]","[0.0, 0.0, -0.8900614482005528]",1.1334757594655511,-14.226020252414699,"(0.0, 0.0, 0.0, 0.0, 0.0, 0.0)",2.4288508647123748,-0.36855748390702325,-14.171887099327844,"(0.0, 0.0, 0.0, 0.0, 0.0, 0.0)",0.30976852738726823,-1.1345286688205596,14.254097835214925,"(0.0, 0.0, 0.0, 0.0, 0.0, 0.0)",-2.4347025650831196,0.36347369491056536,14.307455277413446,"(0.0, 0.0, 0.0, 0.0, 0.0, 0.0)",-0.3114537668278207,False,,,,,False,,,,
18,Close,,,"(0.010001318826104761, 0.16002110119957821, 0.02646143576036139)","(-0.0004308487108156613, 2.692806668198511e-05, -5.800961497533997e-09)",,"[-0.026750000193715096, 0.05299999937415123, 0.03999999910593033]","[0.0, -0.0, 1.0801281957344744]","[-0.09025531262159348, 0.08692750334739685, 0.03999999910593033]","[0.0, -0.0, 0.658426092619021]","[0.026750000193715096, 0.05299999937415123, 0.03999999910593033]","[0.0, 0.0, -1.0810758877799864]","[0.09028743207454681, 0.0868673101067543, 0.03999999910593033]","[0.0, 0.0, -0.6639491897248752]",1.0321153651670965,-11.523076404455903,"(0.0, 0.0, 0.0, 0.0, 0.0, 0.0)",1.9712593195403922,-0.46953209273108476,-11.479215138346529,"(0.0, 0.0, 0.0, 0.0, 0.0, 0.0)",0.25356328507457,-1.0329682217446532,11.54581924652409,"(0.0, 0.0, 0.0, 0.0, 0.0, 0.0)",-1.976034733535922,0.46541422655746517,11.589025293474933,"(0.0, 0.0, 0.0, 0.0, 0.0, 0.0)",-0.2549589687679249,False,,,,,False,,,,
19,Close,,,"(0.010001648057231211, 0.16002636889308344, 0.03133184175509247)","(-0.0005384699893107284, 3.3654401557527444e-05, -9.06094284338731e-09)",,"[-0.026750000193715096, 0.05299999937415123, 0.03999999910593033]","[0.0, -0.0, 0.9889039009917453]","[-0.08690053224563599, 0.09257163107395172, 0.03999999910593033]","[0.0, -0.0, 0.4763247177857985]","[0.026750000193715096, 0.05299999937415123, 0.03999999910593033]","[0.0, 0.0, -0.9896714317513632]","[0.08693088591098785, 0.09252544492483139, 0.03999999910593033]","[0.0, 0.0, -0.4807983343348629]",0.9500134457853482,-9.333691887609287,"(0.0, 0.0, 0.0, 0.0, 0.0, 0.0)",1.59927232790674,-0.551321428885197,-9.298153181376478,"(0.0, 0.0, 0.0, 0.0, 0.0, 0.0)",0.20712540820679678,-0.9507042596131691,9.352113589684514,"(0.0, 0.0, 0.0, 0.0, 0.0, 0.0)",-1.6031637286990463,0.5479859596890367,9.387099348535743,"(0.0, 0.0, 0.0, 0.0, 0.0, 0.0)",-0.20827601456628825,False,,,,,False,,,,
20,Close,,,"(0.010001977116791199, 0.1600316338415276, 0.035505353338314005)","(-0.0006460549330047555, 4.037846511369274e-05, -1.3043353742532214e-08)",,"[-0.026750000193715096, 0.05299999937415123, 0.03999999910593033]","[0.0, -0.0, 0.9150121593347216]","[-0.08381503820419312, 0.09690423309803009, 0.03999999910593033]","[0.0, -0.0, 0.3288226039195219]","[0.026750000193715096, 0.05299999937415123, 0.03999999910593033]","[0.0, 0.0, -0.9156338940018686]","[0.08384232223033905, 0.09686874598264694, 0.03999999910593033]","[0.0, 0.0, -0.33244627340343963]",0.883510891086132,-7.560290428963521,"(0.0, 0.0, 0.0, 0.0, 0.0, 0.0)",1.2970851133907606,-0.6175707112805602,-7.53149495926978,"(0.0, 0.0, 0.0, 0.0, 0.0, 0.0)",0.1689126126712179,-0.884070450286667,7.575212007644451,"(0.0, 0.0, 0.0, 0.0, 0.0, 0.0)",-1.3002524451675361,0.6148689832085066,7.603541305643349,"(0.0, 0.0, 0.0, 0.0, 0.0, 0.0)",-0.16985779298155493,False,,,,,False,,,,
21,Close,,,"(0.010002306014043007, 0.16003689619304312, 0.038982445123681576)","(-0.0007536035543313348, 4.7100258049582536e-05, -1.7747461781428295e-08)",,"[-0.026750000193715096, 0.05299999937415123, 0.03999999910593033]","[0.0, -0.0, 0.855159831855573]","[-0.0810866579413414, 0.10023905336856842, 0.03999999910593033]","[0.0, -0.0, 0.20934598049273878]","[0.026750000193715096, 0.05299999937415123, 0.03999999910593033]","[0.0, 0.0, -0.855663319897266]","[0.08111044019460678, 0.10021167993545532, 0.03999999910593033]","[0.0, 0.0, -0.21228117869263835]",0.8296438217797669,-6.123835247460454,"(0.0, 0.0, 0.0, 0.0, 0.0, 0.0)",1.05173758145085,-0.6712325644411228,-6.100503438359898,"(0.0, 0.0, 0.0, 0.0, 0.0, 0.0)",0.13756782929819192,-0.8300970647322002,6.135921726192006,"(0.0, 0.0, 0.0, 0.0, 0.0, 0.0)",-1.0543131565319612,0.6690441663231638,6.158860938132814,"(0.0, 0.0, 0.0, 0.0, 0.0, 0.0)",-0.13834207864853043,False,,,,,False,,,,
22,Close,,,"(0.010002634758225062, 0.1600421560954447, 0.041763552607370504)","(-0.000861115865719684, 5.381978106418352e-05, -2.3172535119669436e-08)",,"[-0.026750000193715096, 0.05299999937415123, 0.03999999910593033]","[0.0, -0.0, 0.8066794434121096]","[-0.07873354107141495, 0.10281677544116974, 0.03999999910593033]","[0.0, -0.0, 0.11257000369976355]","[0.026750000193715096, 0.05299999937415123, 0.03999999910593033]","[0.0, 0.0, -0.807087375168555]","[0.07875385880470276, 0.1027955636382103, 0.03999999910593033]","[0.0, 0.0, -0.11494747853587685]",0.7860114956416112,-4.960306550442966,"(0.0, 0.0, 0.0, 0.0, 0.0, 0.0)",0.8526282438926112,-0.7146986118113532,-4.941401666116088,"(0.0, 0.0, 0.0, 0.0, 0.0, 0.0)",0.11192109221648956,-0.7863786224330822,4.970096598215528,"(0.0, 0.0, 0.0, 0.0, 0.0, 0.0)",-0.8547210444656044,0.7129260106609093,4.988671207184531,"(0.0, 0.0, 0.0, 0.0, 0.0, 0.0)",-0.11255391153308099,False,,,,,False,,,,
23,Close,,,"(0.010002963358557236, 0.16004741369625017, 0.04384907226694074)","(-0.0009685918795946493, 6.053703485636736e-05, -2.9317842489583264e-08)",,"[-0.026750000193715096, 0.05299999937415123, 0.03999999910593033]","[0.0, -0.0, 0.7674103444184671]","[-0.07673770934343338, 0.10481919348239899, 0.03999999910593033]","[0.0, -0.0, 0.03418149097606777]","[0.026750000193715096, 0.05299999937415123, 0.03999999910593033]","[0.0, 0.0, -0.7677407466611278]","[0.07675483077764511, 0.1048026755452156, 0.03999999910593033]","[0.0, 0.0, -0.0361072460378734]",0.7506693114697051,-4.017848305858803,"(0.0, 0.0, 0.0, 0.0, 0.0, 0.0)",0.6911017846597902,-0.7499060663183246,-4.0025303530146505,"(0.0, 0.0, 0.0, 0.0, 0.0, 0.0)",0.09097831684118958,-0.7509666841707966,4.025778244554576,"(0.0, 0.0, 0.0, 0.0, 0.0, 0.0)",-0.6928012733138227,0.7484702604680491,4.040818653480022,"(0.0, 0.0, 0.0, 0.0, 0.0, 0.0)",-0.09149462532289206,False,,,,,False,,,,
24,Close,,,"(0.010003291824242136, 0.16005266914270105, 0.04523936165140331)","(-0.0010760316083767074, 6.725202012489063e-05, -3.618265319583079e-08)",,"[-0.026750000193715096, 0.05299999937415123, 0.03999999910593033]","[0.0, -0.0, 0.7356023986171477]","[-0.07506444305181503, 0.10638272017240524, 0.03999999910593033]","[0.0, 0.0, -0.029314282157410606]","[0.026750000193715096, 0.05299999937415123, 0.03999999910593033]","[0.0, 0.0, -0.7358699744488303]","[0.07507872581481934, 0.10636978596448898, 0.03999999910593033]","[0.0, -0.0, 0.027754427824074522]",0.722042142290461,-3.2544571277456287,"(0.0, 0.0, 0.0, 0.0, 0.0, 0.0)",0.560108160717456,-0.7784260816002104,-3.242260463996204,"(0.0, 0.0, 0.0, 0.0, 0.0, 0.0)",0.0739092939425144,-0.7222830141783452,3.260880378089207,"(0.0, 0.0, 0.0, 0.0, 0.0, 0.0)",-0.5614876113391304,0.7772630911922368,3.2732751882458535,"(0.0, 0.0, 0.0, 0.0, 0.0, 0.0)",-0.07432997801242036,False,,,,,False,,,,
25,Close,,,"(0.010001644182078712, 0.16005595153396976, 0.045940321410535084)","(-0.0011271805217326655, 1.767785898679914e-05, -1.508889111938428e-08)",,"[-0.026750000193715096, 0.05299999937415123, 0.03999999910593033]","[0.0, -0.0, 0.7098379546684608]","[-0.07367318123579025, 0.10760965943336487, 0.03999999910593033]","[0.0, 0.0, -0.08074653118681538]","[0.026750000193715096, 0.05299999937415123, 0.03999999910593033]","[0.0, 0.0, -0.7100547061469626]","[0.07368502020835876, 0.10759948939085007, 0.03999999910593033]","[0.0, -0.0, 0.07948305351710017]",0.6988541352552734,-2.6361102734739577,"(0.0, 0.0, 0.0, 0.0, 0.0, 0.0)",0.4538907146887525,-0.8015268867317584,-2.626184566689172,"(0.0, 0.0, 0.0, 0.0, 0.0, 0.0)",0.06000477197099662,-0.6990492414844596,2.6413131062522566,"(0.0, 0.0, 0.0, 0.0, 0.0, 0.0)",-0.45500992694973624,0.8005848745408953,2.6513062318756173,"(0.0, 0.0, 0.0, 0.0, 0.0, 0.0)",-0.06034712704439637,False,,,,,False,,,,
26,Close,,,"(0.0099979269032565, 0.16005188637635104, 0.04640949954916324)","(-0.0010442772263960227, -5.814874739306873e-05, 7.787963860925158e-09)",,"[-0.026750000193715096, 0.05299999937415123, 0.03999999910593033]","[0.0, -0.0, 0.6889687286552088]","[-0.07252338528633118, 0.1085769459605217, 0.03999999910593033]","[0.0, 0.0, -0.12240626184562299]","[0.026750000193715096, 0.05299999937415123, 0.03999999910593033]","[0.0, 0.0, -0.6891442541658422]","[0.07253314554691315, 0.10856890678405762, 0.03999999910593033]","[0.0, -0.0, 0.12138287899953458]",0.6800717984485459,-2.1352615874880345,"(0.0, 0.0, 0.0, 0.0, 0.0, 0.0)",0.36778464275725675,-0.820237492399504,-2.127000202679893,"(0.0, 0.0, 0.0, 0.0, 0.0, 0.0)",0.04871100820034693,-0.6802298342020312,2.1394759521557623,"(0.0, 0.0, 0.0, 0.0, 0.0, 0.0)",-0.3686924226914724,0.8194744666035607,2.147347557238381,"(0.0, 0.0, 0.0, 0.0, 0.0, 0.0)",-0.04898946018255637,False,,,,,False,,,,
27,Close,,,"(0.009998107600018924, 0.16004411888380865, 0.0468059782297436)","(-0.0008858309445970004, -5.447527859797503e-05, 4.128601528647624e-08)",,"[-0.026750000193715096, 0.05299999937415123, 0.03999999910593033]","[0.0, -0.0, 0.672064613904271]","[-0.07157741487026215, 0.10934273153543472, 0.03999999910593033]","[0.0, 0.0, -0.15614974961002634]","[0.026750000193715096, 0.05299999937415123, 0.03999999910593033]","[0.0, 0.0, -0.6722069192953587]","[0.07158542424440384, 0.10933635383844376, 0.03999999910593033]","[0.0, -0.0, 0.15532080931604164]",0.6648581567433223,-1.7295508464885936,"(0.0, 0.0, 0.0, 0.0, 0.0, 0.0)",0.29799285099320455,-0.8353935278746698,-1.722993881465588,"(0.0, 0.0, 0.0, 0.0, 0.0, 0.0)",0.03950205891705609,-0.6649861657036452,1.732964418763874,"(0.0, 0.0, 0.0, 0.0, 0.0, 0.0)",-0.2987289514022836,0.83477548361327,1.7394759470338683,"(0.0, 0.0, 0.0, 0.0, 0.0, 0.0)",-0.03972821774930672,False,,,,,False,,,,
28,Close,,,"(0.009998390752654573, 0.16003702894197389, 0.04714144752999396)","(-0.0007411380797103218, -4.869650481896534e-05, 1.1687517768299383e-07)",,"[-0.026750000193715096, 0.05299999937415123, 0.03999999910593033]","[0.0, -0.0, 0.6583722791296546]","[-0.07080177217721939, 0.10995122045278549, 0.03999999910593033]","[0.0, 0.0, -0.18348236399010098]","[0.026750000193715096, 0.05299999937415123, 0.03999999910593033]","[0.0, 0.0, -0.6584875609778488]","[0.07080833613872528, 0.10994613915681839, 0.03999999910593033]","[0.0, -0.0, 0.18281091441867092]",0.652535106962091,-1.400936185655761,"(0.0, 0.0, 0.0, 0.0, 0.0, 0.0)",0.24143143710013154,-0.8476696977959799,-1.3956001238249038,"(0.0, 0.0, 0.0, 0.0, 0.0, 0.0)",0.032035576984152714,-0.6526387942199526,1.4037011791987364,"(0.0, 0.0, 0.0, 0.0, 0.0, 0.0)",-0.24202820218879367,0.8471690873323404,1.4089504550195393,"(0.0, 0.0, 0.0, 0.0, 0.0, 0.0)",-0.0322192170145395,False,,,,,False,,,,
29,Close,,,"(0.009998679410322496, 0.16003066597344334, 0.0474253884764576)","(-0.0006112814540129935, -4.2805404436077314e-05, 1.9447426774393396e-07)",,"[-0.026750000193715096, 0.05299999937415123, 0.03999999910593033]","[0.0, -0.0, 0.6472815645892557]","[-0.07016744464635849, 0.11043626815080643, 0.03999999910593033]","[0.0, 0.0, -0.2056215493544759]","[0.026750000193715096, 0.05299999937415123, 0.03999999910593033]","[0.0, 0.0, -0.6473749785824873]","[0.07017280906438828, 0.1104322224855423, 0.03999999910593033]","[0.0, -0.0, 0.20507767878351457]",0.6425534366392937,-1.1347583103811658,"(0.0, 0.0, 0.0, 0.0, 0.0, 0.0)",0.19559696212506814,-0.8576132175808707,-1.130415870269558,"(0.0, 0.0, 0.0, 0.0, 0.0, 0.0)",0.025974296640771184,-0.6426374233181616,1.1369979551509777,"(0.0, 0.0, 0.0, 0.0, 0.0, 0.0)",-0.19608068519888996,0.8572077274788498,1.141229523067934,"(0.0, 0.0, 0.0, 0.0, 0.0, 0.0)",-0.02612334092818916,False,,,,,False,,,,
30,Close,,,"(0.009865465308992205, 0.15999852606453366, 0.04766600164849151)","(-0.0003424815135586742, 0.00015086673503461647, 0.0034152828324375316)",,"[-0.026750000193715096, 0.05299999937415123, 0.03999999910593033]","[0.0, -0.0, 0.6382981045455605]","[-0.06964972615242004, 0.11082398891448975, 0.03999999910593033]","[0.0, 0.0, -0.22355414441709243]","[0.026750000193715096, 0.05299999937415123, 0.03999999910593033]","[0.0, 0.0, -0.6383737252477673]","[0.06965409219264984, 0.11082074791193008, 0.03999999910593033]","[0.0, -0.0, 0.22311363310560886]",0.6344682836778279,-0.9191542314087444,"(0.0, 0.0, 0.0, 0.0, 0.0, 0.0)",0.1584658053641607,-0.8656670151994418,-0.9155462613482186,"(0.0, 0.0, 0.0, 0.0, 0.0, 0.0)",0.021063560793533557,-0.6345419852789147,0.9196069697833984,"(0.0, 0.0, 0.0, 0.0, 0.0, 0.0)",1.5650710318467773,0.8652269258386903,0.8975102038417887,"(0.0, 0.0, 0.0, 0.0, 0.0, 0.0)",0.970263568851588,False,,,,,True,"(0.041964474105275554, 0.17969275438125942, 0.023999959438538113)","(-0.9999999992078928, -2.3394376763778626e-07, -3.980150266267419e-05)",0.0005277146366441324,13.827283024398023
31,Move,,,"(0.007363952190207586, 0.1595176072470861, 0.04786907614534817)","(-0.000283671801070412, 0.00017028703879343212, 0.033932294028324435)","[0.0, 0.0, 0.0]","[-0.026750000193715096, 0.05299999937415123, 0.03999999910593033]","[0.0, -0.0, 0.6310214732486521]","[-0.06922782957553864, 0.1111346185207367, 0.03999999910593033]","[0.0, 0.0, -0.23807887186492363]","[0.026750000193715096, 0.05299999937415123, 0.03999999910593033]","[0.0, 0.0, -0.6310879718519756]","[0.06923169642686844, 0.11113179475069046, 0.03999999910593033]","[0.0, -0.0, 0.2376151439176698]",0.6073010028525442,-5.692908589800243,"(0.0, 0.0, 0.0, 0.0, 0.0, 0.0)",-6.970029188620435,-0.868756983831492,0.08239916352133925,"(0.0, 0.0, 0.0, 0.0, 0.0, 0.0)",-0.4110687045203754,-0.6117280690932336,4.646378695169427,"(0.0, 0.0, 0.0, 0.0, 0.0, 0.0)",6.63722350158353,0.8683562496935296,-0.08325233958591138,"(0.0, 0.0, 0.0, 0.0, 0.0, 0.0)",0.9711507533803067,False,,,,,True,"(0.04054627108315854, 0.179595033909982, 0.023999959438538113)","(-0.9999999992078928, -2.3394376763778626e-07, -3.980150266267419e-05)",-6.660727030056632e-06,5.483947105729632
32,Move,,,"(0.003581798779507854, 0.15888081127638445, 0.0479516006086598)","(0.0007129250223673224, -0.00208967314794087, 0.0775559872120303)","[-0.003782153410699732, -0.0006367959707016535, 8.25244633116326e-05]","[-0.026750000193715096, 0.05299999937415123, 0.03999999910593033]","[0.0, -0.0, 0.5859526299274878]","[-0.06656552106142044, 0.11298936605453491, 0.03999999910593033]","[0.0, 0.0, -0.2824962348735626]","[0.026750000193715096, 0.05299999937415123, 0.03999999910593033]","[0.0, 0.0, -0.5943032042166643]","[0.06706507503986359, 0.11265479773283005, 0.03999999910593033]","[0.0, -0.0, 0.2737407621305699]",0.5651750435041389,-4.9866125127970315,"(0.0, 0.0, 0.0, 0.0, 0.0, 0.0)",0.1879296173067297,-0.8684796473023089,-0.007395640778216972,"(0.0, 0.0, 0.0, 0.0, 0.0, 0.0)",0.0052485587257143,-0.5763335013853139,4.3127362313992865,"(0.0, 0.0, 0.0, 0.0, 0.0, 0.0)",0.20027995465953127,0.8680752302284668,0.0074938524016774505,"(0.0, 0.0, 0.0, 0.0, 0.0, 0.0)",0.02249499703994292,False,,,,,True,"(0.0359258773488902, 0.1800326723866737, 0.023997902681873285)","(-0.9984706073090757, -0.05524536888912827, -0.002096558167493954)",0.00012594863753174636,0.0
33,Move,,,"(0.001122542829286716, 0.1593018964136896, 0.0479227662575371)","(0.004945114300985391, -0.0007111404472231802, 0.10411918620410092)","[-0.006241409360920869, -0.00021571083339649855, 5.3690112188933825e-05]","[-0.026750000193715096, 0.05299999937415123, 0.03999999910593033]","[0.0, -0.0, 0.5464752837415245]","[-0.06416688859462738, 0.11451403051614761, 0.03999999910593033]","[0.0, 0.0, -0.32203216719565797]","[0.026750000193715096, 0.05299999937415123, 0.03999999910593033]","[0.0, 0.0, -0.5601607664550203]","[0.06500521302223206, 0.113996222615242, 0.03999999910593033]","[0.0, -0.0, 0.3079426098360514]",0.5284581628806412,-4.324100182620625,"(0.0, 0.0, 0.0, 0.0, 0.0, 0.0)",-40.57665041993025,-0.8499710773008806,4.448713801084151,"(0.0, 0.0, 0.0, 0.0, 0.0, 0.0)",-20.450246702708142,-0.5432536493593767,4.057701472950861,"(0.0, 0.0, 0.0, 0.0, 0.0, 0.0)",40.51490371176407,0.8490881856801438,-4.5636359590366995,"(0.0, 0.0, 0.0, 0.0, 0.0, 0.0)",20.9314301799772,True,"(-0.029811151186175763, 0.18051363537611448, 0.05600153891941393)","(0.9949795852674637, 0.10006627287285103, 0.001538159394272495)",-0.0021929381795451827,324.8302845382825,True,"(0.031581245564939034, 0.18025917111664624, 0.023998461080646502)","(-0.9949795852674632, -0.10006627287285588, -0.0015381593942749786)",0.00032843032100871104,245.81822951935948
34,Move,"(0.0078, 0.0, -0.0036000000000000003)","(0.0, 0.08563981573685775, 0.0)","(0.0008373204772039943, 0.16029745278959368, 0.04796955631408516)","(0.009453853239593003, 0.00021297172494590244, 0.09499555645021185)","[-0.006526631713003592, 0.0007798455425075679, 0.00010048016873698967]","[-0.026750000193715096, 0.05299999937415123, 0.03999999910593033]","[0.0, -0.0, 0.5122910766505747]","[-0.062042638659477234, 0.11575690656900406, 0.03999999910593033]","[0.0, 0.0, -0.3205952360126725]","[0.026750000193715096, 0.05299999937415123, 0.03999999910593033]","[0.0, 0.0, -0.5280779333918697]","[0.06302893161773682, 0.11519195139408112, 0.03999999910593033]","[0.0, -0.0, 0.3033470937789916]",0.5105675454206008,-0.4136543697950188,"(0.0, 0.0, 0.0, 0.0, 0.0, 0.0)",3.6500346070613783,-0.8345940991454776,-0.40987201953597374,"(0.0, 0.0, 0.0, 0.0, 0.0, 0.0)",-0.5767573487752036,-0.5330553230573655,-1.1945586962903527,"(0.0, 0.0, 0.0, 0.0, 0.0, 0.0)",-6.536520928618165,0.8331914035747173,0.4239141894780385,"(0.0, 0.0, 0.0, 0.0, 0.0, 0.0)",-0.018043231583962736,True,"(-0.027782116061409873, 0.18180915987972746, 0.05600071189642032)","(0.9945842410657634, 0.10393113923646441, 0.000711140387283058)",-0.005767574495913523,6.624438802237836,True,"(0.029910421102272162, 0.18160183909572525, 0.023999288099653494)","(-0.994584241065763, -0.10393113923646692, -0.0007111403872818769)",0.00023400145338051335,0.0
35,Move,"(0.0088, 0.0, -0.003375)","(0.0, 0.10351547793578371, 0.0)","(0.0017976716890865786, 0.16042573031653118, 0.048076774593529104)","(0.005257370110907447, 0.0013355537559990624, 0.0899760836269859)","[-0.005566280501121007, 0.0009081230694450715, 0.00020769844818093602]","[-0.026750000193715096, 0.05299999937415123, 0.03999999910593033]","[0.0, -0.0, 0.5090747358327937]","[-0.06184060499072075, 0.11587009578943253, 0.03999999910593033]","[0.0, 0.0, -0.32607880869532246]","[0.026750000193715096, 0.05299999937415123, 0.03999999910593033]","[0.0, 0.0, -0.5375942472421207]","[0.06361911445856094, 0.11484390497207642, 0.03999999910593033]","[0.0, -0.0, 0.29647514321323476]",0.5055834126467365,-0.8379181503706523,"(0.0, 0.0, 0.0, 0.0, 0.0, 0.0)",-5.233763726250737,-0.8329371687479126,0.5319265670733,"(0.0, 0.0, 0.0, 0.0, 0.0, 0.0)",-2.384075031683169,-0.5407259730488988,-0.7516145437717852,"(0.0, 0.0, 0.0, 0.0, 0.0, 0.0)",4.588342337357964,0.8322580542822685,-0.43472851124995754,"(0.0, 0.0, 0.0, 0.0, 0.0, 0.0)",1.8843646088368957,True,"(-0.027218397575194335, 0.1817334860975981, 0.05600071189642032)","(0.9945842410657634, 0.10393113923646441, 0.000711140387283058)",-0.004955159452025302,31.39991020032481,True,"(0.030957745644476592, 0.18147980688178872, 0.023999288099653494)","(-0.994584241065763, -0.10393113923646692, -0.0007111403872818769)",1.4785412731987239e-05,23.059691642731618
36,Move,"(0.0100857, 0.0, -0.0035714)","(0.0, 0.105887380389244, 0.0)","(0.0027123044802883065, 0.16055883594010326, 0.048163188826279055)","(0.0013074952005905833, 0.002337933857225049, 0.08609036342160323)","[-0.00465164770991928, 0.0010412286930171488, 0.0002941126809308872]","[-0.026750000193715096, 0.05299999937415123, 0.03999999910593033]","[0.0, -0.0, 0.5024376329419292]","[-0.06142256036400795, 0.11610161513090134, 0.03999999910593033]","[0.0, 0.0, -0.3285660773958714]","[0.026750000193715096, 0.05299999937415123, 0.03999999910593033]","[0.0, 0.0, -0.5435416652575441]","[0.06398627907037735, 0.1146235316991806, 0.03999999910593033]","[0.0, -0.0, 0.28713049308137495]",0.49904937471157795,-0.8131854111642596,"(0.0, 0.0, 0.0, 0.0, 0.0, 0.0)",-4.034809314905855,-0.8293265787540817,0.4025114645897318,"(0.0, 0.0, 0.0, 0.0, 0.0, 0.0)",-2.1086288434322986,-0.5469358268141005,-0.814587820266342,"(0.0, 0.0, 0.0, 0.0, 0.0, 0.0)",3.3382811873381018,0.8293896722863742,-0.3078103970923641,"(0.0, 0.0, 0.0, 0.0, 0.0, 0.0)",1.571374457038477,True,"(-0.026636640326256934, 0.18187868071844418, 0.05600071189642032)","(0.9945842410657634, 0.10393113923646441, 0.000711140387283058)",-0.004533035447344376,26.663209135141024,True,"(0.031949013537765955, 0.18156173258913721, 0.023999288099653494)","(-0.994584241065763, -0.10393113923646692, -0.0007111403872818769)",6.920544048231131e-05,15.9989611109007
37,Move,"(0.01095, 0.0, -0.00368)","(0.0, 0.09943664347387296, 0.0)","(0.003598304821131066, 0.16065549384886543, 0.04824822536130454)","(-0.0009315800056029386, 0.0033551743216428775, 0.08257418975690359)","[-0.00376564736907652, 0.0011378866017793254, 0.0003791492159563731]","[-0.026750000193715096, 0.05299999937415123, 0.03999999910593033]","[0.0, -0.0, 0.4960038646959694]","[-0.061015862971544266, 0.11632338166236877, 0.03999999910593033]","[0.0, 0.0, -0.33179794561522397]","[0.026750000193715096, 0.05299999937415123, 0.03999999910593033]","[0.0, 0.0, -0.5499930576780543]","[0.06438305228948593, 0.11438202857971191, 0.03999999910593033]","[0.0, -0.0, 0.27821327742397256]",0.4926302591162747,-0.8096558160629763,"(0.0, 0.0, 0.0, 0.0, 0.0, 0.0)",-4.134247440157772,-0.826213477372485,0.38118937865263064,"(0.0, 0.0, 0.0, 0.0, 0.0, 0.0)",-1.9658763621189947,-0.5533570871052671,-0.8073874718909236,"(0.0, 0.0, 0.0, 0.0, 0.0, 0.0)",3.0727161849892366,0.8269598227686779,-0.29914250582400576,"(0.0, 0.0, 0.0, 0.0, 0.0, 0.0)",1.4858204045467074,True,"(-0.02601753947778499, 0.1819876830553412, 0.05600071189642032)","(0.9945842410657634, 0.10393113923646441, 0.000711140387283058)",-0.004128986952348957,27.51410916833725,True,"(0.032943954448853965, 0.181603249379931, 0.023999288099653494)","(-0.994584241065763, -0.10393113923646692, -0.0007111403872818769)",8.689118967568199e-05,10.664663710352194
38,Move,"(0.0120769, 0.0, -0.0036846)","(0.0, 0.09538573427999408, 0.0)","(0.004498568385664488, 0.16073096228459915, 0.0483287995457466)","(-0.0018411675000912678, 0.004458559271265587, 0.07912536740459213)","[-0.002865383804543098, 0.0012133550375130475, 0.00045972340039843185]","[-0.026750000193715096, 0.05299999937415123, 0.03999999910593033]","[0.0, -0.0, 0.489586841487795]","[-0.060608815401792526, 0.11654195934534073, 0.03999999910593033]","[0.0, 0.0, -0.33526880504153145]","[0.026750000193715096, 0.05299999937415123, 0.03999999910593033]","[0.0, 0.0, -0.5563802742513232]","[0.06477434933185577, 0.11414040625095367, 0.03999999910593033]","[0.0, -0.0, 0.2695307816514798]",0.48613270354995397,-0.8289923393880383,"(0.0, 0.0, 0.0, 0.0, 0.0, 0.0)",-3.632952753019943,-0.8234415253115628,0.33939446679648444,"(0.0, 0.0, 0.0, 0.0, 0.0, 0.0)",-1.7550981141468638,-0.5598060290544521,-0.8221737703876026,"(0.0, 0.0, 0.0, 0.0, 0.0, 0.0)",2.610102191275654,0.8248539820097137,-0.2537054006988377,"(0.0, 0.0, 0.0, 0.0, 0.0, 0.0)",1.2560392949632107,True,"(-0.02538278923056718, 0.18208439078881405, 0.05600071189642032)","(0.9945842410657634, 0.10393113923646441, 0.000711140387283058)",-0.003796719318101017,23.01125439866861,True,"(0.03392007708553928, 0.1816320566834047, 0.023999288099653494)","(-0.994584241065763, -0.10393113923646692, -0.0007111403872818769)",0.0001546083088483278,4.018654657510094
39,Move,"(0.0128667, 0.0, -0.0039133)","(0.0, 0.09005724407365544, 0.0)","(0.005426786349731731, 0.1607691263322743, 0.04837026887395719)","(-0.0027880490164767352, 0.004437255520874079, 0.07634996320344645)","[-0.001937165840475855, 0.0012515190851881963, 0.0005011927286090248]","[-0.026750000193715096, 0.05299999937415123, 0.03999999910593033]","[0.0, -0.0, 0.48302493358008175]","[-0.060191135853528976, 0.11676276475191116, 0.03999999910593033]","[0.0, 0.0, -0.3389840376636781]","[0.026750000193715096, 0.05299999937415123, 0.03999999910593033]","[0.0, 0.0, -0.5628950968925717]","[0.06517185270786285, 0.11389139294624329, 0.03999999910593033]","[0.0, -0.0, 0.2609720394676899]",0.47956186894296743,-0.8311548904872806,"(0.0, 0.0, 0.0, 0.0, 0.0, 0.0)",-2.6283678143751446,-0.820987347864962,0.24521546596352714,"(0.0, 0.0, 0.0, 0.0, 0.0, 0.0)",-1.3681967695996802,-0.5662884918037661,-0.8144209137937343,"(0.0, 0.0, 0.0, 0.0, 0.0, 0.0)",2.086564222392072,0.8230095350581367,-0.2058209577249889,"(0.0, 0.0, 0.0, 0.0, 0.0, 0.0)",1.0265229532449511,True,"(-0.02472116263390041, 0.1821654012045659, 0.023995086400614603)","(0.9969358530233008, 0.07806899792383236, -0.0049128932282906605)",-0.00365819326891226,18.89237383392677,True,"(0.03489634875639159, 0.18164463950367093, 0.023999288099653494)","(-0.994584241065763, -0.10393113923646692, -0.0007111403872818769)",0.00018188390115423403,3.3934772500939707
40,Move,"(0.0144333, 0.0, -0.0043533)","(0.0, 0.07442258463429022, 0.0)","(0.006343980625275025, 0.1607673450614263, 0.04842501225645491)","(-0.004563724194347585, 0.0037649689596771342, 0.07320825552111901)","[-0.0010199715649325605, 0.0012497378143401794, 0.0005559361111067418]","[-0.026750000193715096, 0.05299999937415123, 0.03999999910593033]","[0.0, -0.0, 0.4764526578941216]","[-0.0597713440656662, 0.11698117852210999, 0.03999999910593033]","[0.0, 0.0, -0.34346068336871705]","[0.026750000193715096, 0.05299999937415123, 0.03999999910593033]","[0.0, 0.0, -0.5693493262649021]","[0.06556405872106552, 0.1136421412229538, 0.03999999910593033]","[0.0, -0.0, 0.25282407450408145]",0.4728181958465259,-0.8722702158017633,"(0.0, 0.0, 0.0, 0.0, 0.0, 0.0)",-2.66122703812396,-0.8188414354261456,0.2572492630422314,"(0.0, 0.0, 0.0, 0.0, 0.0, 0.0)",-1.3567598607688955,-0.5729212615500432,-0.8572683199151544,"(0.0, 0.0, 0.0, 0.0, 0.0, 0.0)",1.957069372867686,0.8213356871870864,-0.2010369933982346,"(0.0, 0.0, 0.0, 0.0, 0.0, 0.0)",0.9845037196853685,True,"(-0.02400904672855937, 0.18222574949542947, 0.023995823906714196)","(0.9971759613387629, 0.07498445423867153, -0.004175374311697382)",-0.0033658938657147672,18.721983099781042,True,"(0.03584160704850812, 0.1816398227461823, 0.023999288099653494)","(-0.994584241065763, -0.10393113923646692, -0.0007111403872818769)",0.0001372384791337543,4.975610111132188
41,Move,"(0.015373300000000001, 0.0, -0.0049067)","(0.0, 0.0531871636252752, 0.0)","(0.007270444662070421, 0.16074113264041676, 0.0484738174720091)","(-0.005963102067137231, 0.0030649819456788235, 0.06992418814374562)","[-9.35075281371647e-05, 0.001223525393330649, 0.0006047413266609333]","[-0.026750000193715096, 0.05299999937415123, 0.03999999910593033]","[0.0, -0.0, 0.4695493735099509]","[-0.05932888016104698, 0.1172076016664505, 0.03999999910593033]","[0.0, 0.0, -0.34827535617776684]","[0.026750000193715096, 0.05299999937415123, 0.03999999910593033]","[0.0, 0.0, -0.5761377201812943]","[0.06597481667995453, 0.11337725818157196, 0.03999999910593033]","[0.0, -0.0, 0.24443097925160842]",0.46588495300166843,-0.8794541595878745,"(0.0, 0.0, 0.0, 0.0, 0.0, 0.0)",-2.459999268770747,-0.8168142965176305,0.24249602769088244,"(0.0, 0.0, 0.0, 0.0, 0.0, 0.0)",-1.275341117973349,-0.5797323577306998,-0.8627258782175872,"(0.0, 0.0, 0.0, 0.0, 0.0, 0.0)",1.854266071796049,0.8197942342937778,-0.1858505523267431,"(0.0, 0.0, 0.0, 0.0, 0.0, 0.0)",0.9150215437049444,True,"(-0.023252971024049114, 0.18228077809525817, 0.023996527576328176)","(0.9974186818873252, 0.0717211291278107, -0.003471693935626949)",-0.0031039817354062012,17.45685993758135,True,"(0.03682412061872671, 0.18162200903050787, 0.023999288099653494)","(-0.994584241065763, -0.10393113923646692, -0.0007111403872818769)",0.00011764748814592981,5.340890457192017
42,Move,"(0.0157867, 0.0, -0.0054867)","(0.0, 0.03863460832214648, 0.0)","(0.008177730527981594, 0.16069558544931034, 0.04851439130286932)","(-0.0069714059247642035, 0.0023916968523332444, 0.06664997808227659)","[0.0008137783377740078, 0.0011779782022242336, 0.0006453151575211494]","[-0.026750000193715096, 0.05299999937415123, 0.03999999910593033]","[0.0, -0.0, 0.4625891429189534]","[-0.05888119339942932, 0.11743280291557312, 0.03999999910593033]","[0.0, 0.0, -0.3532699145299992]","[0.026750000193715096, 0.05299999937415123, 0.03999999910593033]","[0.0, 0.0, -0.582968932866616]","[0.06638635694980621, 0.11310789734125137, 0.03999999910593033]","[0.0, -0.0, 0.23611429848399937]",0.4590043049328955,-0.8603420775476998,"(0.0, 0.0, 0.0, 0.0, 0.0, 0.0)",-2.2926815435244,-0.8148996189184015,0.2302499410654029,"(0.0, 0.0, 0.0, 0.0, 0.0, 0.0)",-1.2044439966997078,-0.5864672066736052,-0.8395781982306004,"(0.0, 0.0, 0.0, 0.0, 0.0, 0.0)",1.7723007429527837,0.8183589837317297,-0.17382987131443306,"(0.0, 0.0, 0.0, 0.0, 0.0, 0.0)",0.8598361402415667,True,"(-0.02248083103772812, 0.18232664586950942, 0.0239972266171284)","(0.9976541150778206, 0.06840013953547283, -0.0027726485204921754)",-0.002863289270386978,16.424446769252793,True,"(0.03780422540055622, 0.18159271870311394, 0.023999288099653494)","(-0.994584241065763, -0.10393113923646692, -0.0007111403872818769)",0.00010196386467165074,5.561091380371138
43,Move,"(0.01592, 0.0, -0.0064467)","(0.0, 0.034634313676575476, 0.0)","(0.009046503096713997, 0.1606380398078576, 0.048548272809386644)","(-0.007703971554154641, 0.0017702786854810505, 0.06348412311943212)","[0.0016825509065064113, 0.0011204325607714893, 0.000679196664038477]","[-0.026750000193715096, 0.05299999937415123, 0.03999999910593033]","[0.0, -0.0, 0.4557799618129977]","[-0.05844172090291977, 0.1176500990986824, 0.03999999910593033]","[0.0, 0.0, -0.3582171365353152]","[0.026750000193715096, 0.05299999937415123, 0.03999999910593033]","[0.0, 0.0, -0.5896167803755186]","[0.0667850598692894, 0.11284307390451431, 0.03999999910593033]","[0.0, -0.0, 0.22807622363151672]",0.45233704832110944,-0.8262972829941121,"(0.0, 0.0, 0.0, 0.0, 0.0, 0.0)",-2.1545551607477673,-0.8130841447520424,0.21909900102880508,"(0.0, 0.0, 0.0, 0.0, 0.0, 0.0)",-1.140820757196485,-0.592950500207202,-0.8000970796043291,"(0.0, 0.0, 0.0, 0.0, 0.0, 0.0)",1.6947638383022279,0.8170090951932633,-0.16413469901554054,"(0.0, 0.0, 0.0, 0.0, 0.0, 0.0)",0.8140277041986743,True,"(-0.021720872388716554, 0.18236475168803762, 0.023997880268924975)","(0.9978730748487007, 0.06515240898289368, -0.0021189845976683124)",-0.002644499002554014,15.540966794041694,True,"(0.0387543359253436, 0.1815554286273815, 0.023999288099653494)","(-0.994584241065763, -0.10393113923646692, -0.0007111403872818769)",9.073905749294465e-05,5.568157341133508
44,Move,"(0.0162867, 0.0, -0.0072867)","(0.0, 0.049146726406908335, 0.0)","(0.009873973872383942, 0.16057323016707073, 0.048578130909118014)","(-0.008290801942748378, 0.0011963289852116017, 0.060431126045650894)","[0.0025100216821763565, 0.0010556229199846223, 0.0007090547637698466]","[-0.026750000193715096, 0.05299999937415123, 0.03999999910593033]","[0.0, -0.0, 0.4492401625979634]","[-0.05801824852824211, 0.117855966091156, 0.03999999910593033]","[0.0, 0.0, -0.3629897602848752]","[0.026750000193715096, 0.05299999937415123, 0.03999999910593033]","[0.0, 0.0, -0.5959518359399362]","[0.0671633630990982, 0.11258825659751892, 0.03999999910593033]","[0.0, -0.0, 0.22042823363384215]",0.445896145743081,-0.8025670148093905,"(0.0, 0.0, 0.0, 0.0, 0.0, 0.0)",-2.0820922037861673,-0.8113508699788305,0.21097586056628384,"(0.0, 0.0, 0.0, 0.0, 0.0, 0.0)",-1.096113918617376,-0.5991437496523018,-0.7660664467524196,"(0.0, 0.0, 0.0, 0.0, 0.0, 0.0)",1.6159596559785925,0.8157232302144178,-0.15762608673791104,"(0.0, 0.0, 0.0, 0.0, 0.0, 0.0)",0.7796576501673591,True,"(-0.02098905977338625, 0.18239629488860792, 0.023998480315413368)","(0.9980717668563357, 0.06205192214135354, -0.0015189347700890325)",-0.0024469823207717177,14.902388993366387,True,"(0.03965896719458826, 0.18151297374809053, 0.023999288099653494)","(-0.994584241065763, -0.10393113923646692, -0.0007111403872818769)",8.332160863173835e-05,5.5091070764924455
45,Move,"(0.01582, 0.0, -0.0080267)","(0.0, 0.0859033604539089, 0.0)","(0.010638651556960314, 0.16051093205808714, 0.048603427573454115)","(-0.008764893707169853, 0.0007081205206678441, 0.05769066574468706)","[0.003274699366752728, 0.000993324811001034, 0.0007343514281059477]","[-0.026750000193715096, 0.05299999937415123, 0.03999999910593033]","[0.0, -0.0, 0.4428880864002187]","[-0.05760565027594566, 0.11805327981710434, 0.03999999910593033]","[0.0, 0.0, -0.36764390526057433]","[0.026750000193715096, 0.05299999937415123, 0.03999999910593033]","[0.0, 0.0, -0.6020172463436877]","[0.06752405315637589, 0.11234202980995178, 0.03999999910593033]","[0.0, -0.0, 0.21310198613342168]",0.4398531952887575,-0.7283706633570163,"(0.0, 0.0, 0.0, 0.0, 0.0, 0.0)",-1.9745654070271939,-0.8096601417753582,0.2092318210179952,"(0.0, 0.0, 0.0, 0.0, 0.0, 0.0)",-1.0699908495856603,-0.6048366340654026,-0.6766395834618187,"(0.0, 0.0, 0.0, 0.0, 0.0, 0.0)",1.6808139040006114,0.8144700447410387,-0.155820974192169,"(0.0, 0.0, 0.0, 0.0, 0.0, 0.0)",0.7782868232438334,True,"(-0.0202765793170864, 0.18242220486258182, 0.023999038659832172)","(0.9982549808112049, 0.05904295525391813, -0.0009605834189594696)",-0.0022708078726993326,14.674884769520633,True,"(0.04052534401122876, 0.18146640330749114, 0.023999288099653494)","(-0.994584241065763, -0.10393113923646692, -0.0007111403872818769)",7.855389002464976e-05,5.591447117222731
46,Move,"(0.015086700000000001, 0.0, -0.0084733)","(0.0, 0.13310404474484352, 0.0)","(0.011312895304248073, 0.1604634559426783, 0.04862389604887703)","(-0.009188893350669552, 0.0003617013332378762, 0.05549238293387608)","[0.003948943114040487, 0.0009458486955921941, 0.0007548199035288597]","[-0.026750000193715096, 0.05299999937415123, 0.03999999910593033]","[0.0, -0.0, 0.43712310077628436]","[-0.057230107486248016, 0.11823007464408875, 0.03999999910593033]","[0.0, 0.0, -0.3717322684771318]","[0.026750000193715096, 0.05299999937415123, 0.03999999910593033]","[0.0, 0.0, -0.6073747013172424]","[0.06784138083457947, 0.11212274432182312, 0.03999999910593033]","[0.0, -0.0, 0.20649934871354106]",0.434405360070601,-0.6522546879111041,"(0.0, 0.0, 0.0, 0.0, 0.0, 0.0)",-2.0230274957697785,-0.8079507879883274,0.2170942142949952,"(0.0, 0.0, 0.0, 0.0, 0.0, 0.0)",-1.0971596565957458,-0.6097580685979658,-0.5720265050575639,"(0.0, 0.0, 0.0, 0.0, 0.0, 0.0)",1.7651356520810282,0.8132008730329386,-0.16154164733932275,"(0.0, 0.0, 0.0, 0.0, 0.0, 0.0)",0.8063230937808296,True,"(-0.019638272126096847, 0.18244742134578007, 0.02399947636249604)","(0.9984007227756276, 0.05653072934139013, -0.0005228778390515602)",-0.002119549698672198,15.162985003754963,True,"(0.04129966152695663, 0.18142386823073564, 0.023999288099653494)","(-0.994584241065763, -0.10393113923646692, -0.0007111403872818769)",7.788420049457865e-05,5.90089028958507
47,Move,"(0.014486700000000002, 0.0, -0.00864)","(0.0, 0.174201312641554, 0.0)","(0.011900517920423789, 0.16043468034480363, 0.04864081568160737)","(-0.009642972678761448, 0.00016450318020707903, 0.0538323643384032)","[0.004536565730216203, 0.000917073097717519, 0.0007717395362592042]","[-0.026750000193715096, 0.05299999937415123, 0.03999999910593033]","[0.0, -0.0, 0.43196044035832076]","[-0.056892942637205124, 0.11838656663894653, 0.03999999910593033]","[0.0, 0.0, -0.3751630831366484]","[0.026750000193715096, 0.05299999937415123, 0.03999999910593033]","[0.0, 0.0, -0.6119036249007702]","[0.06810872256755829, 0.11193603277206421, 0.03999999910593033]","[0.0, -0.0, 0.20068029146078817]",0.42947943281198886,-0.5954396949647692,"(0.0, 0.0, 0.0, 0.0, 0.0, 0.0)",-2.1485995559611917,-0.8061717728072877,0.22841096442308007,"(0.0, 0.0, 0.0, 0.0, 0.0, 0.0)",-1.1514699108681388,-0.613909080608156,-0.48132559146704684,"(0.0, 0.0, 0.0, 0.0, 0.0, 0.0)",1.8469015430551974,0.8118713038463818,-0.17100464482249952,"(0.0, 0.0, 0.0, 0.0, 0.0, 0.0)",0.8502304231493092,True,"(-0.019081093160599104, 0.18247606668770983, 0.02399975087883947)","(0.998507749961098, 0.0546096290441438, -0.0002483612013155575)",-0.001998891621341841,16.00055830858746,True,"(0.04197071747701201, 0.1813904364340557, 0.023999288099653494)","(-0.994584241065763, -0.10393113923646692, -0.0007111403872818769)",8.179446855038895e-05,6.152261907284147
48,Move,"(0.014273300000000001, 0.0, -0.008246700000000001)","(0.0, 0.1858478947401122, 0.0)","(0.012429618776671323, 0.16041776474210476, 0.048656575588006123)","(-0.010155684380089453, 2.7258025981409334e-05, 0.05250169423471741)","[0.005065666586463737, 0.0009001574950186497, 0.000787499442657956]","[-0.026750000193715096, 0.05299999937415123, 0.03999999910593033]","[0.0, -0.0, 0.4272474349349832]","[-0.0565844401717186, 0.11852790415287018, 0.03999999910593033]","[0.0, 0.0, -0.3780590220035369]","[0.026750000193715096, 0.05299999937415123, 0.03999999910593033]","[0.0, 0.0, -0.6157143163909605]","[0.06833300739526749, 0.11177799850702286, 0.03999999910593033]","[0.0, -0.0, 0.19550437417313432]",0.424908682874348,-0.561296564166746,"(0.0, 0.0, 0.0, 0.0, 0.0, 0.0)",-2.1538850156734863,-0.804378900854964,0.2226021797186803,"(0.0, 0.0, 0.0, 0.0, 0.0, 0.0)",-1.1388292842333172,-0.6175384148574972,-0.43779080033354295,"(0.0, 0.0, 0.0, 0.0, 0.0, 0.0)",1.7737234901032783,0.8105089774989985,-0.17032032380511652,"(0.0, 0.0, 0.0, 0.0, 0.0, 0.0)",0.8451411479979221,True,"(-0.01858722840414187, 0.18250910124334924, 0.023999881059479027)","(0.9985847044378839, 0.05318434070343143, -0.00011818056175907624)",-0.0019085829347101604,15.85484981886331,True,"(0.04255484393313798, 0.18136675893267196, 0.023999288099653494)","(-0.994584241065763, -0.10393113923646692, -0.0007111403872818769)",8.91030455064615e-05,5.412030064511199
49,Move,"(0.014826700000000002, 0.0, -0.0078267)","(0.0, 0.16518843238425532, 0.0)","(0.012947731344299497, 0.1604060122814443, 0.04867705554898414)","(-0.010869062942607829, 1.0368743077725036e-05, 0.05127966268236601)","[0.005583779154091912, 0.0008884050343581917, 0.0008079794036359722]","[-0.026750000193715096, 0.05299999937415123, 0.03999999910593033]","[0.0, -0.0, 0.4228132473729512]","[-0.056293588131666183, 0.11865954846143723, 0.03999999910593033]","[0.0, 0.0, -0.38058214489140446]","[0.026750000193715096, 0.05299999937415123, 0.03999999910593033]","[0.0, 0.0, -0.6191883029510303]","[0.06853695958852768, 0.11163318157196045, 0.03999999910593033]","[0.0, -0.0, 0.19058292818178343]",0.42046440230123994,-0.5637245768274667,"(0.0, 0.0, 0.0, 0.0, 0.0, 0.0)",-2.3228765725173495,-0.8024378398787632,0.2298128248321994,"(0.0, 0.0, 0.0, 0.0, 0.0, 0.0)",-1.2046930694852651,-0.6211128960893388,-0.4618828571072391,"(0.0, 0.0, 0.0, 0.0, 0.0, 0.0)",1.7888194006809575,0.8090228543183345,-0.1796260617639572,"(0.0, 0.0, 0.0, 0.0, 0.0, 0.0)",0.8882048059308277,True,"(-0.018135130628135848, 0.18254601157115438, 0.023999887334564825)","(0.998646824462823, 0.05200487926612279, -0.00011190547595885582)",-0.0018250928692663522,14.742393889903967,True,"(0.04310158127654292, 0.18134796370124492, 0.023999288099653494)","(-0.994584241065763, -0.10393113923646692, -0.0007111403872818769)",0.00010584772863957307,3.685148441795411
50,Move,"(0.0157333, 0.0, -0.0073533)","(0.0, 0.12648226556277706, 0.0)","(0.013464197412906193, 0.16038999763745598, 0.04872951723820112)","(-0.01178588895986338, 0.00023135546366752675, 0.04939158552612539)","[0.006100245222698607, 0.000872390390369876, 0.000860441092852951]","[-0.026750000193715096, 0.05299999937415123, 0.03999999910593033]","[0.0, -0.0, 0.41835404322662195]","[-0.05600050836801529, 0.1187906339764595, 0.03999999910593033]","[0.0, 0.0, -0.383171828897114]","[0.026750000193715096, 0.05299999937415123, 0.03999999910593033]","[0.0, 0.0, -0.6228479802824809]","[0.0687512531876564, 0.11147987097501755, 0.03999999910593033]","[0.0, -0.0, 0.18544981524523052]",0.4159190528440241,-0.5844098689650945,"(0.0, 0.0, 0.0, 0.0, 0.0, 0.0)",-2.231555324365415,-0.8007056263746385,0.1968680137692126,"(0.0, 0.0, 0.0, 0.0, 0.0, 0.0)",-1.0786021719306598,-0.6249625333703687,-0.5074967152091414,"(0.0, 0.0, 0.0, 0.0, 0.0, 0.0)",1.403306412758287,0.8077076911961394,-0.14162107617733852,"(0.0, 0.0, 0.0, 0.0, 0.0, 0.0)",0.7131576805803914,True,"(-0.017676734213372576, 0.18257806574818342, 0.023999887334564825)","(0.998646824462823, 0.05200487926612279, -0.00011190547595885582)",-0.0017326249100339062,15.175727837020917,True,"(0.04367406001571008, 0.18132429195538796, 0.023999288099653494)","(-0.994584241065763, -0.10393113923646692, -0.0007111403872818769)",0.00013439048800602295,0.0
51,Move,"(0.0170667, 0.0, -0.0070933)","(0.0, 0.08987922048995199, 0.0)","(0.01403365122701668, 0.1603637341309979, 0.04880522338713757)","(-0.012556019063913395, 0.0006890429884703407, 0.046525467814678145)","[0.006669699036809093, 0.0008461268839117797, 0.0009361472417893993]","[-0.026750000193715096, 0.05299999937415123, 0.03999999910593033]","[0.0, -0.0, 0.4137233455740099]","[-0.055695533752441406, 0.11892538517713547, 0.03999999910593033]","[0.0, 0.0, -0.38630160340274994]","[0.026750000193715096, 0.05299999937415123, 0.03999999910593033]","[0.0, 0.0, -0.6268625220483508]","[0.06898567825555801, 0.11131078749895096, 0.03999999910593033]","[0.0, -0.0, 0.18035727313782127]",0.41107111490326365,-0.636535950230327,"(0.0, 0.0, 0.0, 0.0, 0.0, 0.0)",-1.9418825566493847,-0.799296725151097,0.17478117408007035,"(0.0, 0.0, 0.0, 0.0, 0.0, 0.0)",-0.9393298099118037,-0.6292262149119923,-0.5673038726978592,"(0.0, 0.0, 0.0, 0.0, 0.0, 0.0)",1.1368400315862943,0.8067094800833585,-0.1224551578859656,"(0.0, 0.0, 0.0, 0.0, 0.0, 0.0)",0.5886909599522093,True,"(-0.017172393697905047, 0.18259438377338716, 0.023999513090374857)","(0.9988412922036748, 0.04812314045649725, -0.000486149665928747)",-0.0016609833381862787,12.595708617667198,True,"(0.04425053247725897, 0.1801195729664239, 0.03734226885836518)","(-0.9987130736745014, -0.05071681694431068, -3.08328974016447e-05)",1.3314033858416831e-05,10.285569711987636
52,Move,"(0.0188, 0.0, -0.00742)","(0.0, 0.06359979794267337, 0.0)","(0.01464721798871215, 0.16033046305563586, 0.048870543281932764)","(-0.013177980826088164, 0.0010913075196018476, 0.0432755101197091)","[0.007283265798504563, 0.0008128558085497561, 0.0010014671365845967]","[-0.026750000193715096, 0.05299999937415123, 0.03999999910593033]","[0.0, -0.0, 0.4086875173373913]","[-0.05536317825317383, 0.11907031387090683, 0.03999999910593033]","[0.0, 0.0, -0.38990971845020683]","[0.026750000193715096, 0.05299999937415123, 0.03999999910593033]","[0.0, 0.0, -0.6313557227779596]","[0.06924726068973541, 0.11112041771411896, 0.03999999910593033]","[0.0, -0.0, 0.17486079390373935]",0.4057427906766562,-0.706727328172666,"(0.0, 0.0, 0.0, 0.0, 0.0, 0.0)",-1.9902509862114899,-0.797859826858746,0.17695791002235828,"(0.0, 0.0, 0.0, 0.0, 0.0, 0.0)",-0.9564094542075772,-0.633998793364753,-0.6343360293308384,"(0.0, 0.0, 0.0, 0.0, 0.0, 0.0)",1.1398632462448448,0.8057007535858152,-0.1237833192894788,"(0.0, 0.0, 0.0, 0.0, 0.0, 0.0)",0.5937826054970948,True,"(-0.016610597010106365, 0.18260053365725334, 0.023999082652883242)","(0.998979953143741, 0.04514657334628358, -0.0009165871575390997)",-0.001574963295178999,12.664035824752776,True,"(0.04489068898616397, 0.1800641242502774, 0.03734226885836518)","(-0.9987130736745014, -0.05071681694431068, -3.08328974016447e-05)",1.3462498851429463e-05,9.551796506287985
53,Move,"(0.0195067, 0.0, -0.0082867)","(0.0, 0.055302502678692335, 0.0)","(0.015308388039995841, 0.16027014466274925, 0.04888999703286499)","(-0.013393376318638303, 0.0010555546909799636, 0.0405068444647818)","[0.007944435849788255, 0.0007525374156631404, 0.0010209208875168255]","[-0.026750000193715096, 0.05299999937415123, 0.03999999910593033]","[0.0, -0.0, 0.40309056538509175]","[-0.05499294027686119, 0.11922942101955414, 0.03999999910593033]","[0.0, 0.0, -0.3940537561324541]","[0.026750000193715096, 0.05299999937415123, 0.03999999910593033]","[0.0, 0.0, -0.6363796427143446]","[0.06953871250152588, 0.11090618371963501, 0.03999999910593033]","[0.0, -0.0, 0.16882820611210014]",0.40012605304731247,-0.7114769616714313,"(0.0, 0.0, 0.0, 0.0, 0.0, 0.0)",-1.8176680602320494,-0.7963778713715302,0.18394077674304649,"(0.0, 0.0, 0.0, 0.0, 0.0, 0.0)",-0.9464439102254162,-0.639025737305454,-0.6350592959242476,"(0.0, 0.0, 0.0, 0.0, 0.0, 0.0)",1.282100417361548,0.8046762510343097,-0.12758477021151293,"(0.0, 0.0, 0.0, 0.0, 0.0, 0.0)",0.6267031811247196,True,"(-0.01597745875126451, 0.18259949535151354, 0.02399889570438625)","(0.9991171526817394, 0.041996397776393, -0.0011035356545310362)",-0.0014879712112543105,11.181777288077226,True,"(0.04559849440037511, 0.17999556629602162, 0.03734226885836518)","(-0.9987130736745014, -0.05071681694431068, -3.08328974016447e-05)",1.3248467612979363e-05,9.74799710670059
54,Move,"(0.0194933, 0.0, -0.00918)","(0.0, 0.052941072200744, 0.0)","(0.015950211689846113, 0.16019327937132796, 0.048905182405937594)","(-0.013529951227080502, 0.0009656605737240356, 0.03793031283920973)","[0.008586259499638527, 0.0006756721242418551, 0.001036106260589427]","[-0.026750000193715096, 0.05299999937415123, 0.03999999910593033]","[0.0, -0.0, 0.39745897617203096]","[-0.05461951345205307, 0.1193874254822731, 0.03999999910593033]","[0.0, 0.0, -0.3982152599929937]","[0.026750000193715096, 0.05299999937415123, 0.03999999910593033]","[0.0, 0.0, -0.6414076460741818]","[0.06982932239770889, 0.11069031059741974, 0.03999999910593033]","[0.0, -0.0, 0.16278024191809637]",0.3946354659051024,-0.677624013943734,"(0.0, 0.0, 0.0, 0.0, 0.0, 0.0)",-1.6966483987919514,-0.7949350409068318,0.17739236132768063,"(0.0, 0.0, 0.0, 0.0, 0.0, 0.0)",-0.9056048447194592,-0.6439058715304141,-0.599575106109094,"(0.0, 0.0, 0.0, 0.0, 0.0, 0.0)",1.292359418058947,0.8036724492783216,-0.12370544221055588,"(0.0, 0.0, 0.0, 0.0, 0.0, 0.0)",0.6135723157717041,True,"(-0.015340710513089321, 0.18259602821840853, 0.023998965943210493)","(0.9992276997800905, 0.03928022772145997, -0.0010332968302884517)",-0.0014025262747905313,10.70829754708847,True,"(0.04630738820210011, 0.17992321905906836, 0.03734226885836518)","(-0.9987130736745014, -0.05071681694431068, -3.08328974016447e-05)",1.354836434973398e-05,9.313105245879013
55,Move,"(0.0198267, 0.0, -0.0101733)","(0.0, 0.06728069733512941, 0.0)","(0.016564460432061223, 0.16010997085074186, 0.048919082036845744)","(-0.013646882387815135, 0.0008669779971041778, 0.035513938335097577)","[0.009200508241853637, 0.0005923636036557489, 0.0010500058914975768]","[-0.026750000193715096, 0.05299999937415123, 0.03999999910593033]","[0.0, -0.0, 0.39209520241699536]","[-0.05426303297281265, 0.11953595280647278, 0.03999999910593033]","[0.0, 0.0, -0.40216308205827933]","[0.026750000193715096, 0.05299999937415123, 0.03999999910593033]","[0.0, 0.0, -0.6461546402330692]","[0.07010269165039062, 0.11048516631126404, 0.03999999910593033]","[0.0, -0.0, 0.15704539476738255]",0.38932919145098416,-0.663840106071496,"(0.0, 0.0, 0.0, 0.0, 0.0, 0.0)",-1.7104951743890455,-0.793522092562137,0.17667059299598664,"(0.0, 0.0, 0.0, 0.0, 0.0, 0.0)",-0.8997786237091812,-0.6485523219885349,-0.5754515225450658,"(0.0, 0.0, 0.0, 0.0, 0.0, 0.0)",1.2750826191503741,0.8026828419681941,-0.12411836889375616,"(0.0, 0.0, 0.0, 0.0, 0.0, 0.0)",0.6117688662809022,True,"(-0.014735056685297655, 0.18259047868234665, 0.023999066886698076)","(0.9993217532279252, 0.03681255550366389, -0.0009323533427054968)",-0.0013244739799537606,10.643782643027238,True,"(0.04697818083249516, 0.179851829382543, 0.03734226885836518)","(-0.9987130736745014, -0.05071681694431068, -3.08328974016447e-05)",1.3855582270513852e-05,9.198593836170394
56,Move,"(0.0208533, 0.0, -0.0111667)","(0.0, 0.08065341006390997, 0.0)","(0.017172661918951698, 0.16002080511008615, 0.04893335002154405)","(-0.013797953443994856, 0.00077022952608311, 0.033041245137986855)","[0.009808709728744112, 0.0005031978630000433, 0.0010642738761958842]","[-0.026750000193715096, 0.05299999937415123, 0.03999999910593033]","[0.0, -0.0, 0.3868406883463073]","[-0.05391303449869156, 0.11967960000038147, 0.03999999910593033]","[0.0, 0.0, -0.40600784370955634]","[0.026750000193715096, 0.05299999937415123, 0.03999999910593033]","[0.0, 0.0, -0.6507105612632021]","[0.07036413997411728, 0.11028705537319183, 0.03999999910593033]","[0.0, -0.0, 0.151498458370774]",0.383963888510667,-0.6904173782551564,"(0.0, 0.0, 0.0, 0.0, 0.0, 0.0)",-1.8050109501291978,-0.792097246690159,0.18027707610712856,"(0.0, 0.0, 0.0, 0.0, 0.0, 0.0)",-0.9235226659790146,-0.6531501519524702,-0.5854934710528116,"(0.0, 0.0, 0.0, 0.0, 0.0, 0.0)",1.2586266291758974,0.8016763811531735,-0.1278413036054289,"(0.0, 0.0, 0.0, 0.0, 0.0, 0.0)",0.6239066110786059,True,"(-0.01414297465100444, 0.1825831573239906, 0.02399916115012435)","(0.9994064270556062, 0.034439674290546715, -0.0008380899164367684)",-0.0012574788340560166,10.889773398684577,True,"(0.047624758044175604, 0.17978092148611305, 0.03734226885836518)","(-0.9987130736745014, -0.05071681694431068, -3.08328974016447e-05)",1.4473841244371838e-05,9.331806510683837
57,Move,"(0.0220867, 0.0, -0.01176)","(0.0, 0.08604647745257245, 0.0)","(0.017795029183792183, 0.1599205672248144, 0.04894850487833774)","(-0.013997785243429657, 0.000662975847005456, 0.030353660006352527)","[0.010431076993584597, 0.0004029599777282955, 0.0010794287329895721]","[-0.026750000193715096, 0.05299999937415123, 0.03999999910593033]","[0.0, -0.0, 0.3813756945710938]","[-0.05354823172092438, 0.11982705444097519, 0.03999999910593033]","[0.0, 0.0, -0.410033907159634]","[0.026750000193715096, 0.05299999937415123, 0.03999999910593033]","[0.0, 0.0, -0.6553460799165121]","[0.07062922418117523, 0.11008426547050476, 0.03999999910593033]","[0.0, -0.0, 0.14584188150018781]",0.3783451052664916,-0.7273400113706838,"(0.0, 0.0, 0.0, 0.0, 0.0, 0.0)",-1.8662757934462506,-0.790641793177212,0.1842649071841403,"(0.0, 0.0, 0.0, 0.0, 0.0, 0.0)",-0.9473182829233924,-0.6578747372260848,-0.6068679447065558,"(0.0, 0.0, 0.0, 0.0, 0.0, 0.0)",1.2813257281597166,0.8006372726107747,-0.1321736702787342,"(0.0, 0.0, 0.0, 0.0, 0.0, 0.0)",0.6433911870656518,True,"(-0.013525283592854424, 0.18257144903334568, 0.023999261027232103)","(0.9994912012572562, 0.03188720199666827, -0.0007382128086801152)",-0.0012028358574150454,11.160084332547058,True,"(0.048283303525196976, 0.17970564698224978, 0.03734226885836518)","(-0.9987130736745014, -0.05071681694431068, -3.08328974016447e-05)",1.5445336009417706e-05,9.47463033437783
58,Move,"(0.02388, 0.0, -0.0121733)","(0.0, 0.0912353413187516, 0.0)","(0.018448716632555113, 0.15980221197766128, 0.04896494675536141)","(-0.014255907185534966, 0.0005343754967549892, 0.027307169901641757)","[0.011084764442347527, 0.00028460473057517754, 0.00109587061001324]","[-0.026750000193715096, 0.05299999937415123, 0.03999999910593033]","[0.0, -0.0, 0.37561843339662343]","[-0.05316305160522461, 0.11998022347688675, 0.03999999910593033]","[0.0, 0.0, -0.41432140791284683]","[0.026750000193715096, 0.05299999937415123, 0.03999999910593033]","[0.0, 0.0, -0.6601508563727742]","[0.0709029957652092, 0.10987278074026108, 0.03999999910593033]","[0.0, -0.0, 0.1399815545552547]",0.3723039861029993,-0.7954689598018935,"(0.0, 0.0, 0.0, 0.0, 0.0, 0.0)",-2.003159111670765,-0.7891362286477492,0.19287591271719143,"(0.0, 0.0, 0.0, 0.0, 0.0, 0.0)",-0.9969551796464972,-0.6628713691206127,-0.6529234683285416,"(0.0, 0.0, 0.0, 0.0, 0.0, 0.0)",1.3200374272624138,0.7995467437048825,-0.14056237962059367,"(0.0, 0.0, 0.0, 0.0, 0.0, 0.0)",0.6787284222682864,True,"(-0.012871491697670143, 0.18255392887897318, 0.023999376735719394)","(0.9995768123654425, 0.02908278992309212, -0.0006225043213870078)",-0.0011589300653838356,11.722573761265526,True,"(0.04896545493318795, 0.17962391865405128, 0.03734226885836518)","(-0.9987130736745014, -0.05071681694431068, -3.08328974016447e-05)",1.699041634251648e-05,9.833856846110509
59,Move,"(0.02634, 0.0, -0.0129733)","(0.0, 0.09501223382006732, 0.0)","(0.01915870655134399, 0.15965457029046257, 0.04898348960494666)","(-0.014600683177103594, 0.00037922174562506484, 0.023679910350352586)","[0.011794754361136403, 0.00013696304337645904, 0.0011144134595984928]","[-0.026750000193715096, 0.05299999937415123, 0.03999999910593033]","[0.0, -0.0, 0.369321781438411]","[-0.05274077504873276, 0.12014520913362503, 0.03999999910593033]","[0.0, 0.0, -0.41908342161323436]","[0.026750000193715096, 0.05299999937415123, 0.03999999910593033]","[0.0, 0.0, -0.6653199768236605]","[0.07119639217853546, 0.10964378714561462, 0.03999999910593033]","[0.0, -0.0, 0.1336918683489335]",0.3655778784985842,-0.898528534642235,"(0.0, 0.0, 0.0, 0.0, 0.0, 0.0)",-2.1975026866671903,-0.7875465245219846,0.20607600465297674,"(0.0, 0.0, 0.0, 0.0, 0.0, 0.0)",-1.0726593826803397,-0.6683473793335899,-0.7265595140458204,"(0.0, 0.0, 0.0, 0.0, 0.0, 0.0)",1.3947425084717022,0.7983727974939334,-0.15338276077737342,"(0.0, 0.0, 0.0, 0.0, 0.0, 0.0)",0.734499954732279,True,"(-0.01215173713353819, 0.18252783592027813, 0.023999516887274627)","(0.9996664837225306, 0.025820314824580748, -0.0004823527661569126)",-0.0011270532854679922,12.606890401645131,True,"(0.049697996384989694, 0.17953152487551718, 0.03734226885836518)","(-0.9987130736745014, -0.05071681694431068, -3.08328974016447e-05)",1.8949016913217786e-05,10.474719790645322
60,Move,"(0.02836, 0.0, -0.013793300000000001)","(0.0, 0.07754148800760408, 0.0)","(0.019929138320183004, 0.15947198939793483, 0.049005554829402324)","(-0.015082607329549125, 0.00018967098118618554, 0.019418135852121803)","[0.012565186129975418, -4.561784915127487e-05, 0.0011364786840541569]","[-0.026750000193715096, 0.05299999937415123, 0.03999999910593033]","[0.0, -0.0, 0.3622092130288819]","[-0.052262548357248306, 0.1203283742070198, 0.03999999910593033]","[0.0, 0.0, -0.42456080817962727]","[0.026750000193715096, 0.05299999937415123, 0.03999999910593033]","[0.0, 0.0, -0.6710721375010776]","[0.07152146846055984, 0.10938719660043716, 0.03999999910593033]","[0.0, -0.0, 0.1267184182173101]",0.3581482699830336,-0.9746201982074847,"(0.0, 0.0, 0.0, 0.0, 0.0, 0.0)",-2.249623837931441,-0.7858881046349621,0.21164482781341848,"(0.0, 0.0, 0.0, 0.0, 0.0, 0.0)",-1.1102928761421713,-0.6743434667244714,-0.7851354824870649,"(0.0, 0.0, 0.0, 0.0, 0.0, 0.0)",1.4917323997795202,0.7971165674268041,-0.16174288128884784,"(0.0, 0.0, 0.0, 0.0, 0.0, 0.0)",0.7787683437688246,True,"(-0.011332460877643058, 0.18248925969045277, 0.023999685021226274)","(0.9997609492137944, 0.021861969116925974, -0.0003142188145086777)",-0.0011092824723675345,13.097101700518726,True,"(0.050510950675559906, 0.17942314946064686, 0.03734226885836518)","(-0.9987130736745014, -0.05071681694431068, -3.08328974016447e-05)",2.18993150525954e-05,10.678050388921077
61,Move,"(0.02988, 0.0, -0.0146733)","(0.0, 0.0578943166179039, 0.0)","(0.02074034680337966, 0.15926588300874925, 0.049033256728453586)","(-0.015862299019122533, -6.878598740281947e-05, 0.01465184267205333)","[0.013376394613172075, -0.000251724238336859, 0.0011641805831054189]","[-0.026750000193715096, 0.05299999937415123, 0.03999999910593033]","[0.0, -0.0, 0.3544947898154678]","[-0.051742393523454666, 0.12052318453788757, 0.03999999910593033]","[0.0, 0.0, -0.4305931865693525]","[0.026750000193715096, 0.05299999937415123, 0.03999999910593033]","[0.0, 0.0, -0.6772877422966265]","[0.0718710795044899, 0.10910782217979431, 0.03999999910593033]","[0.0, -0.0, 0.11921705055065952]",0.35022752611259733,-1.0241404616942869,"(0.0, 0.0, 0.0, 0.0, 0.0, 0.0)",-2.304457340469868,-0.7841745889497121,0.2192137650985332,"(0.0, 0.0, 0.0, 0.0, 0.0, 0.0)",-1.1479701965309552,-0.6806915546743834,-0.8169235208461965,"(0.0, 0.0, 0.0, 0.0, 0.0, 0.0)",1.6179119042589698,0.795791558344297,-0.1711659107044697,"(0.0, 0.0, 0.0, 0.0, 0.0, 0.0)",0.8293101102188687,True,"(-0.010438098312461508, 0.18243750227919045, 0.02399991337066735)","(0.9998503092233129, 0.0173017852401538, -8.586937343477087e-05)",-0.001097543611917987,13.64667685843388,True,"(0.05138651876356391, 0.1792994147979762, 0.03734226885836518)","(-0.9987130736745014, -0.05071681694431068, -3.08328974016447e-05)",2.4776668424886412e-05,10.929756147656247
62,Move,"(0.0306267, 0.0, -0.0154867)","(0.0, 0.04110075855521447, 0.0)","(0.02154085480452921, 0.15909725663106444, 0.04901942112095829)","(-0.013810336381606244, 3.8684411708359995e-05, 0.009167305574580674)","[0.014176902614321623, -0.0004203506160216641, 0.001150344975610125]","[-0.026750000193715096, 0.05299999937415123, 0.03999999910593033]","[0.0, -0.0, 0.34640016136966656]","[-0.05119501054286957, 0.12072326987981796, 0.03999999910593033]","[0.0, 0.0, -0.436792020013949]","[0.026750000193715096, 0.05299999937415123, 0.03999999910593033]","[0.0, 0.0, -0.6837623058329674]","[0.0722334161400795, 0.10881450772285461, 0.03999999910593033]","[0.0, -0.0, 0.11132726892743898]",0.3421062094905285,-1.0305605430049838,"(0.0, 0.0, 0.0, 0.0, 0.0, 0.0)",-2.475317407988603,-0.7821925014128921,0.23993555399354669,"(0.0, 0.0, 0.0, 0.0, 0.0, 0.0)",-1.263890566718498,-0.6871378358886505,-0.8101184527584654,"(0.0, 0.0, 0.0, 0.0, 0.0, 0.0)",1.8322677950975856,0.7943530060975882,-0.17678526807529435,"(0.0, 0.0, 0.0, 0.0, 0.0, 0.0)",0.8791640201717745,True,"(-0.009507727939922508, 0.18238147802452948, 0.023999938329992223)","(0.9999253696517189, 0.012216849710096761, -6.0910048562482585e-05)",-0.0011069792600753535,14.003493562317473,True,"(0.05230306157658378, 0.17913126975394011, 0.02399993045405343)","(-0.9998926613078908, -0.014651318408648828, -6.878598734272053e-05)",-3.1591947446574534e-07,14.9835493566797
63,Move,"(0.03106, 0.0, -0.016239999999999997)","(0.0, 0.02369284459582303, 0.0)","(0.022342628815986344, 0.15888725973345497, 0.048811853188322575)","(-0.0032769651898203276, -0.00027736866086175443, 0.0031923957068406305)","[0.014978676625778758, -0.0006303475136311409, 0.0009427770429744076]","[-0.026750000193715096, 0.05299999937415123, 0.03999999910593033]","[0.0, -0.0, 0.33824396561632686]","[-0.05064183846116066, 0.12092039734125137, 0.03999999910593033]","[0.0, 0.0, -0.44308555514252856]","[0.026750000193715096, 0.05299999937415123, 0.03999999910593033]","[0.0, 0.0, -0.6901784109476816]","[0.07259058207273483, 0.10852153599262238, 0.03999999910593033]","[0.0, -0.0, 0.10346703774701543]",0.333975603259347,-1.0244109336040959,"(0.0, 0.0, 0.0, 0.0, 0.0, 0.0)",-2.407153261813599,-0.7803514463948806,0.23474246069614627,"(0.0, 0.0, 0.0, 0.0, 0.0, 0.0)",-1.1832329006814717,-0.6934918341805336,-0.7952254881685282,"(0.0, 0.0, 0.0, 0.0, 0.0, 0.0)",1.9752246001710518,0.7928500768561252,-0.19088460493905923,"(0.0, 0.0, 0.0, 0.0, 0.0, 0.0)",0.9756003134931579,True,"(-0.008567334388238583, 0.18231502252826204, 0.023999938329992223)","(0.9999253696517189, 0.012216849710096761, -6.0910048562482585e-05)",-0.001089089423702827,13.044597759577991,True,"(0.053213563699947786, 0.17898943082735916, 0.02399986737824456)","(-0.9999796997737761, -0.006370451539336876, -0.0001318617962214593)",-2.505099977498691e-05,16.982058703466695
64,Move,"(0.03016, 0.0, -0.01652)","(0.0, 0.030429815508521144, 0.0)","(0.023095500083429976, 0.15865052302421298, 0.04869169094872103)","(0.0031383963332594794, -0.00038140340737214973, -0.002296962711285374)","[0.01573154789322239, -0.0008670842228731268, 0.0008226148033728606]","[-0.026750000193715096, 0.05299999937415123, 0.03999999910593033]","[0.0, -0.0, 0.3301341730380815]","[-0.050090234726667404, 0.1211119145154953, 0.03999999910593033]","[0.0, 0.0, -0.4493463498251591]","[0.026750000193715096, 0.05299999937415123, 0.03999999910593033]","[0.0, 0.0, -0.6964733838131909]","[0.0729391798377037, 0.10823187232017517, 0.03999999910593033]","[0.0, -0.0, 0.09564160032306766]",0.3262546654204027,-0.9310765753863421,"(0.0, 0.0, 0.0, 0.0, 0.0, 0.0)",-2.4006533605836777,-0.7784358496461046,0.25072046523863606,"(0.0, 0.0, 0.0, 0.0, 0.0, 0.0)",-1.245078045096839,-0.6994228556384072,-0.7078627579860495,"(0.0, 0.0, 0.0, 0.0, 0.0, 0.0)",2.0389847165649404,0.7913598421939945,-0.1812412897192593,"(0.0, 0.0, 0.0, 0.0, 0.0, 0.0)",0.9417700647592168,True,"(-0.007632178897942078, 0.18224192366237563, 0.023999938329992223)","(0.9999253696517189, 0.012216849710096761, -6.0910048562482585e-05)",-0.0010769736035501892,14.963100178795923,True,"(0.05411419262277137, 0.1788474244226534, 0.02399956087695913)","(-0.9999998391283199, -0.0003599738087133197, -0.00043836308164314596)",-4.538719814734791e-05,15.662901526204067
65,Move,"(0.0282133, 0.0, -0.016260000000000004)","(0.0, 0.06529451264635984, 0.0)","(0.023750477165889166, 0.1585323747870263, 0.048716069888641876)","(0.0027295516566944226, -0.0002852474129733843, -0.0066431839570726915)","[0.01638652497568158, -0.0009852324600597984, 0.0008469937432937086]","[-0.026750000193715096, 0.05299999937415123, 0.03999999910593033]","[0.0, -0.0, 0.3227628016159488]","[-0.04958752915263176, 0.12128211557865143, 0.03999999910593033]","[0.0, 0.0, -0.4547190865339212]","[0.026750000193715096, 0.05299999937415123, 0.03999999910593033]","[0.0, 0.0, -0.7020775136329324]","[0.07324797660112381, 0.1079721599817276, 0.03999999910593033]","[0.0, -0.0, 0.08858636623706644]",0.31950810244650824,-0.7811265667883237,"(0.0, 0.0, 0.0, 0.0, 0.0, 0.0)",-2.2176949892189644,-0.776464233197819,0.24423838840806186,"(0.0, 0.0, 0.0, 0.0, 0.0, 0.0)",-1.2138012331108354,-0.704433188352697,-0.5653711018390335,"(0.0, 0.0, 0.0, 0.0, 0.0, 0.0)",2.1044803574537876,0.7899136252446637,-0.18005038839635407,"(0.0, 0.0, 0.0, 0.0, 0.0, 0.0)",0.9243714808654533,True,"(-0.006801651615476766, 0.18218312391965513, 0.023999938329992223)","(0.9999253696517189, 0.012216849710096761, -6.0910048562482585e-05)",-0.0010720072289075984,13.910189599817622,True,"(0.054921648971631654, 0.17871665927496044, 0.023999663625338185)","(-0.9999894261570859, 0.004586386027552837, -0.00033561470258900166)",-5.3617083899970845e-05,15.843398995762087
66,Move,"(0.02526, 0.0, -0.01542)","(0.0, 0.11802789066611653, 0.0)","(0.024263389531081942, 0.15851231487713766, 0.04873572546923995)","(0.002167554833470324, -0.0002522336673995346, -0.009692478288650812)","[0.016899437340874356, -0.0010052923699484517, 0.0008666493238917855]","[-0.026750000193715096, 0.05299999937415123, 0.03999999910593033]","[0.0, -0.0, 0.3165784434507092]","[-0.04916481301188469, 0.12142204493284225, 0.03999999910593033]","[0.0, 0.0, -0.45895997723570586]","[0.026750000193715096, 0.05299999937415123, 0.03999999910593033]","[0.0, 0.0, -0.7065538186408709]","[0.0734935849905014, 0.10776346176862717, 0.03999999910593033]","[0.0, -0.0, 0.08266527381911119]",0.3141430819768021,-0.5844890027807,"(0.0, 0.0, 0.0, 0.0, 0.0, 0.0)",-2.0428490655143197,-0.7745515325533758,0.23686402269880452,"(0.0, 0.0, 0.0, 0.0, 0.0, 0.0)",-1.1659043687623942,-0.7081163179002594,-0.374985217002214,"(0.0, 0.0, 0.0, 0.0, 0.0, 0.0)",2.200872011846452,0.7884753579377225,-0.17851020752593333,"(0.0, 0.0, 0.0, 0.0, 0.0, 0.0)",0.9365740967402896,True,"(-0.006121046961093175, 0.18214105393663232, 0.023999938329992223)","(0.9999253696517189, 0.012216849710096761, -6.0910048562482585e-05)",-0.0010618350308379107,13.12377128414536,True,"(0.055586443403849564, 0.17861315207854075, 0.023999729576125933)","(-0.999964490805795, 0.008422850401146452, -0.00026966391484291655)",-6.348458498975915e-05,15.797857692380926
67,Move,"(0.0220733, 0.0, -0.014580000000000001)","(0.0, 0.18001674970919912, 0.0)","(0.024610750712575496, 0.15852458764012614, 0.04875215949110039)","(0.0017502918330188119, -0.0002004126915675613, -0.01117114673749787)","[0.01724679852236791, -0.0009930196069599662, 0.0008830833457522252]","[-0.026750000193715096, 0.05299999937415123, 0.03999999910593033]","[0.0, -0.0, 0.3119514661851183]","[-0.0488479882478714, 0.12152502685785294, 0.03999999910593033]","[0.0, 0.0, -0.46170138457249804]","[0.026750000193715096, 0.05299999937415123, 0.03999999910593033]","[0.0, 0.0, -0.7095226700740611]","[0.07365597039461136, 0.10762444883584976, 0.03999999910593033]","[0.0, -0.0, 0.07826973062711887]",0.310295140802979,-0.3975164957211291,"(0.0, 0.0, 0.0, 0.0, 0.0, 0.0)",-2.090315641327431,-0.7726430779321263,0.24236116205023514,"(0.0, 0.0, 0.0, 0.0, 0.0, 0.0)",-1.1912006742148435,-0.7102573579599852,-0.17630754354362244,"(0.0, 0.0, 0.0, 0.0, 0.0, 0.0)",2.3025939472384724,0.7870176700163339,-0.1859522635528543,"(0.0, 0.0, 0.0, 0.0, 0.0, 0.0)",0.976312688574224,True,"(-0.00563792403971948, 0.18212580426629887, 0.023999938329992223)","(0.9999253696517189, 0.012216849710096761, -6.0910048562482585e-05)",-0.0010545986611182486,13.585450453185224,True,"(0.05606039279549958, 0.17855008654563587, 0.023999777225393863)","(-0.9999422767213559, 0.010742156897369052, -0.00022201464691313678)",-6.920291479500614e-05,16.240108931772436
68,Move,"(0.0187333, 0.0, -0.0136533)","(0.0, 0.24751561320082782, 0.0)","(0.024785642678266318, 0.15854974155743082, 0.04876600710325677)","(0.0014279009135551237, -0.0001300353016759175, -0.011418600976663109)","[0.017421690488058732, -0.0009678656896552895, 0.0008969309579086038]","[-0.026750000193715096, 0.05299999937415123, 0.03999999910593033]","[0.0, -0.0, 0.30880458447525605]","[-0.04863223806023598, 0.12159422785043716, 0.03999999910593033]","[0.0, 0.0, -0.46291961563719036]","[0.026750000193715096, 0.05299999937415123, 0.03999999910593033]","[0.0, 0.0, -0.7109184492772774]","[0.0737321600317955, 0.10755892843008041, 0.03999999910593033]","[0.0, -0.0, 0.07538740131381981]",0.3078629848435213,-0.22598190969827425,"(0.0, 0.0, 0.0, 0.0, 0.0, 0.0)",-2.1903161111109366,-0.7707424310846599,0.23561871979186402,"(0.0, 0.0, 0.0, 0.0, 0.0, 0.0)",-1.1596372036305787,-0.7107766749788272,0.03402403526223072,"(0.0, 0.0, 0.0, 0.0, 0.0, 0.0)",2.526891405784353,0.7854042782829052,-0.21637342945269994,"(0.0, 0.0, 0.0, 0.0, 0.0, 0.0)",1.1223718257099249,True,"(-0.005348386376318369, 0.1821423236575944, 0.023999938329992223)","(0.9999253696517189, 0.012216849710096761, -6.0910048562482585e-05)",-0.0010583337460164852,14.969912206711491,True,"(0.05634106361869789, 0.1785328356804268, 0.023999824567048644)","(-0.9999341845876988, 0.0114715292040602, -0.0001746729921295055)",-7.103936155082869e-05,17.733451082222047
69,Move,"(0.016086700000000002, 0.0, -0.0127)","(0.0, 0.307165731046238, 0.0)","(0.024804226859631545, 0.158604143894001, 0.04877619904710314)","(0.0011396675859225288, -6.483249318970813e-05, -0.011054246752189337)","[0.01744027466942396, -0.0009134633530851199, 0.0009071229017549726]","[-0.026750000193715096, 0.05299999937415123, 0.03999999910593033]","[0.0, -0.0, 0.307015686084036]","[-0.048509497195482254, 0.12163326144218445, 0.03999999910593033]","[0.0, 0.0, -0.4628486006211178]","[0.026750000193715096, 0.05299999937415123, 0.03999999910593033]","[0.0, 0.0, -0.7106484824815793]","[0.07371743023395538, 0.10757160931825638, 0.03999999910593033]","[0.0, -0.0, 0.0739287087152879]",0.3065373321937396,-0.1148074059084391,"(0.0, 0.0, 0.0, 0.0, 0.0, 0.0)",-2.4629319981760713,-0.7688539552269942,0.2424878936543185,"(0.0, 0.0, 0.0, 0.0, 0.0, 0.0)",-1.2017162048217551,-0.7098003969623681,0.20353861575949878,"(0.0, 0.0, 0.0, 0.0, 0.0, 0.0)",2.823457848876064,0.783494543073312,-0.2598322784092993,"(0.0, 0.0, 0.0, 0.0, 0.0, 0.0)",1.3370912219481934,True,"(-0.0052299420931032625, 0.18218443047529104, 0.023999938329992223)","(0.9999253696517189, 0.012216849710096761, -6.0910048562482585e-05)",-0.0010937671204368626,16.389773674804438,True,"(0.05642986096391744, 0.17856923205409625, 0.02399991674659462)","(-0.9999355590373098, 0.011352134934641434, -8.249344615706709e-05)",-6.597186819394088e-05,20.576987034146686
70,Move,"(0.0145267, 0.0, -0.0121)","(0.0, 0.3472943412080916, 0.0)","(0.024719133997650508, 0.15868512553169434, 0.04878392189741183)","(0.000851865204377245, -4.062359789345676e-05, -0.010370253238277422)","[0.017355181807442922, -0.0008324817153917696, 0.0009148457520636658]","[-0.026750000193715096, 0.05299999937415123, 0.03999999910593033]","[0.0, -0.0, 0.30610671244376747]","[-0.048447106033563614, 0.1216530054807663, 0.03999999910593033]","[0.0, 0.0, -0.4618385033682034]","[0.026750000193715096, 0.05299999937415123, 0.03999999910593033]","[0.0, 0.0, -0.709036661862649]","[0.07362940907478333, 0.10764724016189575, 0.03999999910593033]","[0.0, -0.0, 0.07347157027277579]",0.3058365235761655,-0.06485753686156107,"(0.0, 0.0, 0.0, 0.0, 0.0, 0.0)",-2.7940557744456647,-0.7668761974324826,0.2565857237961542,"(0.0, 0.0, 0.0, 0.0, 0.0, 0.0)",-1.285158582783106,-0.7077752461811618,0.3027291055055883,"(0.0, 0.0, 0.0, 0.0, 0.0, 0.0)",3.03254240514822,0.7812740561441943,-0.296193067737474,"(0.0, 0.0, 0.0, 0.0, 0.0, 0.0)",1.5145324912327747,True,"(-0.0052287338965515545, 0.1822478651261644, 0.023999938329992223)","(0.9999253696517189, 0.012216849710096761, -6.0910048562482585e-05)",-0.0011548221916648435,18.29009666093674,True,"(0.056374288909294266, 0.1786522284494988, 0.023999934407547625)","(-0.9999389003350355, 0.011054021598859588, -6.483249315107882e-05)",-6.444055289148626e-05,23.0085569692032
71,Move,"(0.014053300000000001, 0.0, -0.0118267)","(0.0, 0.3651036808954419, 0.0)","(0.024589298626405118, 0.15877938462034197, 0.04878985674673308)","(0.000597367763076315, -2.5173193285682535e-05, -0.009583591727399185)","[0.017225346436197532, -0.0007382226267441394, 0.0009207806013849101]","[-0.026750000193715096, 0.05299999937415123, 0.03999999910593033]","[0.0, -0.0, 0.3055931601248026]","[-0.048411838710308075, 0.1216641440987587, 0.03999999910593033]","[0.0, 0.0, -0.4603180380807312]","[0.026750000193715096, 0.05299999937415123, 0.03999999910593033]","[0.0, 0.0, -0.7066395705537803]","[0.07349827885627747, 0.10775945335626602, 0.03999999910593033]","[0.0, -0.0, 0.07351369763581804]",0.3053389189495942,-0.061010770767070274,"(0.0, 0.0, 0.0, 0.0, 0.0, 0.0)",-3.0419751850118186,-0.7647863347431324,0.26994434298348213,"(0.0, 0.0, 0.0, 0.0, 0.0, 0.0)",-1.3643246949445316,-0.7052709065103908,0.32848588456982697,"(0.0, 0.0, 0.0, 0.0, 0.0, 0.0)",3.1148842692726295,0.7788443448036184,-0.3141490214192323,"(0.0, 0.0, 0.0, 0.0, 0.0, 0.0)",1.6061184170539513,True,"(-0.005285657182307606, 0.18232464685051206, 0.023999938329992223)","(0.9999253696517189, 0.012216849710096761, -6.0910048562482585e-05)",-0.001239002769772192,19.60275195341415,True,"(0.05624017277351271, 0.17876371528056287, 0.023999934407547625)","(-0.9999389003350355, 0.011054021598859588, -6.483249315107882e-05)",-6.1018886021074005e-05,24.423957754865306
72,Move,"(0.0138067, 0.0, -0.0114267)","(0.0, 0.3719122103074718, 0.0)","(0.02445042258493401, 0.15887789647427608, 0.04879469300215456)","(0.0003831657666270851, -1.7920614391934148e-06, -0.00879883905168343)","[0.017086470394726425, -0.000639710772810026, 0.0009256168568063938]","[-0.026750000193715096, 0.05299999937415123, 0.03999999910593033]","[0.0, -0.0, 0.3051098951269271]","[-0.048378657549619675, 0.12167460471391678, 0.03999999910593033]","[0.0, 0.0, -0.45866032333164813]","[0.026750000193715096, 0.05299999937415123, 0.03999999910593033]","[0.0, 0.0, -0.7040386992181411]","[0.07335569709539413, 0.1078808605670929, 0.03999999910593033]","[0.0, -0.0, 0.0736173532734678]",0.30486931140133805,-0.05774557246983651,"(0.0, 0.0, 0.0, 0.0, 0.0, 0.0)",-3.1360732981235255,-0.7626198967266976,0.27608577702774806,"(0.0, 0.0, 0.0, 0.0, 0.0, 0.0)",-1.4011736239674664,-0.7026372911508278,0.33633208802486186,"(0.0, 0.0, 0.0, 0.0, 0.0, 0.0)",3.1831325947835376,0.7763125759969592,-0.3224294893730276,"(0.0, 0.0, 0.0, 0.0, 0.0, 0.0)",1.6516131096352016,True,"(-0.005353087525851306, 0.18240651025231752, 0.023999938329992223)","(0.9999253696517189, 0.012216849710096761, -6.0910048562482585e-05)",-0.001328800706870673,20.276763786929244,True,"(0.056090229766286914, 0.17888332931201378, 0.023999934407547625)","(-0.9999389003350355, 0.011054021598859588, -6.483249315107882e-05)",-5.731177830228945e-05,25.15997733961341
73,Move,"(0.0140733, 0.0, -0.011173299999999999)","(0.0, 0.37175862133329624, 0.0)","(0.024324959144446566, 0.15897756177045294, 0.0488044908037483)","(1.0990566063256466e-06, 6.14003739554462e-05, -0.008086068480037767)","[0.01696100695423898, -0.0005400454766331664, 0.0009354146584001355]","[-0.026750000193715096, 0.05299999937415123, 0.03999999910593033]","[0.0, -0.0, 0.3046525421262325]","[-0.048347245901823044, 0.1216844916343689, 0.03999999910593033]","[0.0, 0.0, -0.4569273701743414]","[0.026750000193715096, 0.05299999937415123, 0.03999999910593033]","[0.0, 0.0, -0.701375615868184]","[0.07320938259363174, 0.10800477862358093, 0.03999999910593033]","[0.0, -0.0, 0.07371694670982024]",0.3043268511402565,-0.07816986315835713,"(0.0, 0.0, 0.0, 0.0, 0.0, 0.0)",-3.2432426272495625,-0.7603627430813558,0.2921192584302829,"(0.0, 0.0, 0.0, 0.0, 0.0, 0.0)",-1.456070763513653,-0.7000750865174872,0.3121342409026019,"(0.0, 0.0, 0.0, 0.0, 0.0, 0.0)",3.1985194916355204,0.7737528445289258,-0.32154186853724237,"(0.0, 0.0, 0.0, 0.0, 0.0, 0.0)",1.6520278622980948,True,"(-0.005426988560015021, 0.1824908667120756, 0.023999938329992223)","(0.9999253696517189, 0.012216849710096761, -6.0910048562482585e-05)",-0.0014149354457499565,20.625088731916975,True,"(0.05593684366247202, 0.17900552691560945, 0.023999934407547625)","(-0.9999389003350355, 0.011054021598859588, -6.483249315107882e-05)",-5.410488585871243e-05,25.582640562922954
74,Move,"(0.0144333, 0.0, -0.01084)","(0.0, 0.36600078013096693, 0.0)","(0.024229178493181545, 0.15906781238066822, 0.04881449489221595)","(-0.0004709635734234715, 1.6374728192522922e-05, -0.007818736064357491)","[0.01686522630297396, -0.00044979486641788524, 0.0009454187468677794]","[-0.026750000193715096, 0.05299999937415123, 0.03999999910593033]","[0.0, -0.0, 0.30403399124142055]","[-0.04830475524067879, 0.12169783562421799, 0.03999999910593033]","[0.0, 0.0, -0.45520879778989665]","[0.026750000193715096, 0.05299999937415123, 0.03999999910593033]","[0.0, 0.0, -0.6989047912629426]","[0.07307333499193192, 0.1081194058060646, 0.03999999910593033]","[0.0, -0.0, 0.07363443292570016]",0.3036344050546912,-0.09589514735283008,"(0.0, 0.0, 0.0, 0.0, 0.0, 0.0)",-3.1400975541139804,-0.7580822505541659,0.2785047010683586,"(0.0, 0.0, 0.0, 0.0, 0.0, 0.0)",-1.4064519861897729,-0.6977359098729967,0.28053800970851483,"(0.0, 0.0, 0.0, 0.0, 0.0, 0.0)",3.2404967772485542,0.7712050872121555,-0.3201974940985226,"(0.0, 0.0, 0.0, 0.0, 0.0, 0.0)",1.6489985512012872,True,"(-0.005489075045205946, 0.1825762809839827, 0.023999883886951026)","(0.9999695251827033, -0.007806112959945428, -0.00011535308975431123)",-0.0014954426096088862,19.80693721122427,True,"(0.055806654500784605, 0.17912157730991068, 0.023999934407547625)","(-0.9999389003350355, 0.011054021598859588, -6.483249315107882e-05)",-5.7792583452853954e-05,25.97837979578327
75,Move,"(0.014853300000000002, 0.0, -0.01062)","(0.0, 0.35845397644534344, 0.0)","(0.024160591655795847, 0.1591438371708412, 0.04882101695436336)","(-0.0009773685008010108, -0.00022614802579354763, -0.007885749824349276)","[0.01679663946558826, -0.0003737700762448948, 0.0009519408090151935]","[-0.026750000193715096, 0.05299999937415123, 0.03999999910593033]","[0.0, -0.0, 0.30327469136398194]","[-0.04825258627533913, 0.12171418219804764, 0.03999999910593033]","[0.0, 0.0, -0.45376161301147244]","[0.026750000193715096, 0.05299999937415123, 0.03999999910593033]","[0.0, 0.0, -0.6966833370951153]","[0.07295077294111252, 0.10822217166423798, 0.03999999910593033]","[0.0, -0.0, 0.07330691192156881]",0.30279721012408267,-0.11459077761543278,"(0.0, 0.0, 0.0, 0.0, 0.0, 0.0)",-3.0982712771809013,-0.7558843696345746,0.27645581758114945,"(0.0, 0.0, 0.0, 0.0, 0.0, 0.0)",-1.3850796199641218,-0.695653016875679,0.2472793831731794,"(0.0, 0.0, 0.0, 0.0, 0.0, 0.0)",3.2194932055712915,0.7686777101508855,-0.315010973841529,"(0.0, 0.0, 0.0, 0.0, 0.0, 0.0)",1.6176423453592912,True,"(-0.00552505011906633, 0.18265452335042737, 0.023999883886951026)","(0.9999695251827033, -0.007806112959945428, -0.00011535308975431123)",-0.0015356868754655799,19.368085996978667,True,"(0.05570731500732391, 0.17922642490372476, 0.02399991242484625)","(-0.9999690456545344, 0.007867667753625358, -8.681519452601105e-05)",-8.087072784280942e-05,25.896794650328136
76,Move,"(0.014566700000000002, 0.0, -0.0106733)","(0.0, 0.35238023064840324, 0.0)","(0.02410010466230695, 0.15921598838672762, 0.04882777779181772)","(-0.0015277481654286606, -0.0005211179890577314, -0.007957039437253692)","[0.016736152472099364, -0.0003016188603584824, 0.0009587016464695508]","[-0.026750000193715096, 0.05299999937415123, 0.03999999910593033]","[0.0, -0.0, 0.3023673329259648]","[-0.04819022864103317, 0.1217336654663086, 0.03999999910593033]","[0.0, 0.0, -0.4524788656164976]","[0.026750000193715096, 0.05299999937415123, 0.03999999910593033]","[0.0, 0.0, -0.6947251830320329]","[0.0728425532579422, 0.10831253230571747, 0.03999999910593033]","[0.0, -0.0, 0.07275574762991606]",0.301983850876514,-0.0920310482128935,"(0.0, 0.0, 0.0, 0.0, 0.0, 0.0)",-2.9606392058345663,-0.7537324481174729,0.2672855765250167,"(0.0, 0.0, 0.0, 0.0, 0.0, 0.0)",-1.3360802216518421,-0.6936729979768171,0.25252839040168223,"(0.0, 0.0, 0.0, 0.0, 0.0, 0.0)",3.218649160051481,0.7661894239410638,-0.3099625601847771,"(0.0, 0.0, 0.0, 0.0, 0.0, 0.0)",1.5973978591606588,True,"(-0.005540900646494477, 0.18272876517213266, 0.023999883886951026)","(0.9999695251827033, -0.007806112959945428, -0.00011535308975431123)",-0.001566741322763982,18.804534993605742,True,"(0.055638227654947636, 0.17932579308952173, 0.023999627495719707)","(-0.9999684750161614, 0.007931631610973747, -0.0003717443210689116)",-0.00010305858747443829,25.607640345436515
77,Move,"(0.0146533, 0.0, -0.0108933)","(0.0, 0.3486993312559471, 0.0)","(0.024039882322922108, 0.15928763672748547, 0.04883446196412649)","(-0.002062111049473461, -0.0008226174063911615, -0.008055950595781333)","[0.016675930132714522, -0.0002299705196006363, 0.0009653858187783221]","[-0.026750000193715096, 0.05299999937415123, 0.03999999910593033]","[0.0, -0.0, 0.30163862752890086]","[-0.048140134662389755, 0.12174926698207855, 0.03999999910593033]","[0.0, 0.0, -0.45108855913547846]","[0.026750000193715096, 0.05299999937415123, 0.03999999910593033]","[0.0, 0.0, -0.6927255388314228]","[0.0727318525314331, 0.10840459167957306, 0.03999999910593033]","[0.0, -0.0, 0.07228610805644002]",0.3012310131380004,-0.09781684809485851,"(0.0, 0.0, 0.0, 0.0, 0.0, 0.0)",-3.0033516233889612,-0.7516099613481089,0.26812909773771476,"(0.0, 0.0, 0.0, 0.0, 0.0, 0.0)",-1.3403989191507384,-0.6917306393397551,0.23877996859738926,"(0.0, 0.0, 0.0, 0.0, 0.0, 0.0)",3.173586455139452,0.7637324348225254,-0.3070149155899861,"(0.0, 0.0, 0.0, 0.0, 0.0, 0.0)",1.5780008538313481,True,"(-0.005575645789614579, 0.18280360498100517, 0.023999883886951026)","(0.9999695251827033, -0.007806112959945428, -0.00011535308975431123)",-0.0015877362102188469,18.82312667812053,True,"(0.05556087880650974, 0.17942553022173022, 0.023999323850102925)","(-0.9999677029812432, 0.008008548111117732, -0.0006753899378514658)",-0.00012463568913005586,25.517649882595826
78,Move,"(0.01452, 0.0, -0.0110533)","(0.0, 0.3525268383055707, 0.0)","(0.023982415807055225, 0.15935891304488503, 0.048841616054940834)","(-0.002613188551701779, -0.0011957653412591578, -0.008133198934752086)","[0.01661846361684764, -0.00015869420220107622, 0.0009725399095926665]","[-0.026750000193715096, 0.05299999937415123, 0.03999999910593033]","[0.0, -0.0, 0.3008639917031365]","[-0.048086874186992645, 0.12176581472158432, 0.03999999910593033]","[0.0, 0.0, -0.4497391229479207]","[0.026750000193715096, 0.05299999937415123, 0.03999999910593033]","[0.0, 0.0, -0.690834886926639]","[0.07262701541185379, 0.1084914356470108, 0.03999999910593033]","[0.0, -0.0, 0.07172988192914885]",0.3004698978334374,-0.09457767460178608,"(0.0, 0.0, 0.0, 0.0, 0.0, 0.0)",-3.030406800994167,-0.749475402351357,0.27065280963311816,"(0.0, 0.0, 0.0, 0.0, 0.0, 0.0)",-1.3565670464689663,-0.6898078968052264,0.2464546622546141,"(0.0, 0.0, 0.0, 0.0, 0.0, 0.0)",3.2505522296014977,0.7612604567166147,-0.3130125780727835,"(0.0, 0.0, 0.0, 0.0, 0.0, 0.0)",1.6053094450343894,True,"(-0.00560481276009632, 0.18287753566932902, 0.023999883886951026)","(0.9999695251827033, -0.007806112959945428, -0.00011535308975431123)",-0.0016039261647852077,18.998989047493392,True,"(0.05549554230503055, 0.1795214645133715, 0.023999012813865173)","(-0.9999665672030239, 0.008117354224145605, -0.0009864261756029656)",-0.00014447390211869444,25.96958372226149
79,Move,"(0.013866700000000001, 0.0, -0.0118467)","(0.0, 0.35603495010207925, 0.0)","(0.023909658005668123, 0.15943383243406883, 0.048849218020284337)","(-0.0032324150210243418, -0.0016673646738974044, -0.00816785396243631)","[0.016545705815460537, -8.37748130172733e-05, 0.000980141874936169]","[-0.026750000193715096, 0.05299999937415123, 0.03999999910593033]","[0.0, -0.0, 0.30011493333821093]","[-0.048035360872745514, 0.12178178131580353, 0.03999999910593033]","[0.0, 0.0, -0.4483434859622579]","[0.026750000193715096, 0.05299999937415123, 0.03999999910593033]","[0.0, 0.0, -0.6888835277980727]","[0.07251864671707153, 0.10858085006475449, 0.03999999910593033]","[0.0, -0.0, 0.07118653285668629]",0.2998594996488775,-0.06130897960983826,"(0.0, 0.0, 0.0, 0.0, 0.0, 0.0)",-2.948586826134632,-0.7473585917804028,0.2639646337384078,"(0.0, 0.0, 0.0, 0.0, 0.0, 0.0)",-1.3236763881311888,-0.6877278239693868,0.27736251001320694,"(0.0, 0.0, 0.0, 0.0, 0.0, 0.0)",3.3060453848363514,0.7587483107679167,-0.3172121325054159,"(0.0, 0.0, 0.0, 0.0, 0.0, 0.0)",1.6310818944954284,True,"(-0.005638632501182031, 0.18295272906161122, 0.023999883886951026)","(0.9999695251827033, -0.007806112959945428, -0.00011535308975431123)",-0.001616630478977472,18.609219912490733,True,"(0.05542576877278435, 0.17961968518976126, 0.023998579634153007)","(-0.9999656200501938, 0.008169665645227074, -0.0014196058877671929)",-0.00016774817566239244,26.315335740731253
80,Move,"(0.0132867, 0.0, -0.0125533)","(0.0, 0.358263735556876, 0.0)","(0.02381316017252609, 0.15951456744149473, 0.0488568956271584)","(-0.0038828705432502955, -0.002212580360578329, -0.008182224697077927)","[0.016449207982318505, -3.039805591381617e-06, 0.0009878194818102315]","[-0.026750000193715096, 0.05299999937415123, 0.03999999910593033]","[0.0, -0.0, 0.2996293011737075]","[-0.04800195246934891, 0.12179210782051086, 0.03999999910593033]","[0.0, 0.0, -0.4467345746959577]","[0.026750000193715096, 0.05299999937415123, 0.03999999910593033]","[0.0, 0.0, -0.6866875552900739]","[0.07239647954702377, 0.10868122428655624, 0.03999999910593033]","[0.0, -0.0, 0.0708549018338167]",0.2994825080761734,-0.03522294324364712,"(0.0, 0.0, 0.0, 0.0, 0.0, 0.0)",-2.9238637328433823,-0.7452846171617868,0.259012742144629,"(0.0, 0.0, 0.0, 0.0, 0.0, 0.0)",-1.2961699713283545,-0.685436566369016,0.30022143566199666,"(0.0, 0.0, 0.0, 0.0, 0.0, 0.0)",3.3071875066233622,0.7562100313773754,-0.3197686818056581,"(0.0, 0.0, 0.0, 0.0, 0.0, 0.0)",1.6438883114939653,True,"(-0.005703698069239989, 0.18303119281120003, 0.023999883886951026)","(0.9999695251827033, -0.007806112959945428, -0.00011535308975431123)",-0.0016239308499810797,18.293623585194798,True,"(0.055327159055081024, 0.17972541455943936, 0.02399806930833052)","(-0.9999645836042103, 0.008191880178086378, -0.001929931710253513)",-0.00019412759369425014,26.568249559626192
