OSUrobotics/InHand-Manipulation/AnalyseData/Data/Trial Data/Even Better/new_hand_human_sub1_2v2_c_n_1_kpNone_kdNone_dp2_step1_save_data.csv
,Phase,human_cube_pos,human_cube_orn,Cube_Pos,Cube_Orn,Cube_pos_in_start_pos,b'l_prox_pin'_link_pos,b'l_prox_pin'_link_orn,b'l_distal_pin'_link_pos,b'l_distal_pin'_link_orn,b'r_prox_pin'_link_pos,b'r_prox_pin'_link_orn,b'r_distal_pin'_link_pos,b'r_distal_pin'_link_orn,b'l_prox_pin'_joint_angle,b'l_prox_pin'_joint_vel,b'l_prox_pin'_joint_react_forces,b'l_prox_pin'_joint_motor_torque,b'l_distal_pin'_joint_angle,b'l_distal_pin'_joint_vel,b'l_distal_pin'_joint_react_forces,b'l_distal_pin'_joint_motor_torque,b'r_prox_pin'_joint_angle,b'r_prox_pin'_joint_vel,b'r_prox_pin'_joint_react_forces,b'r_prox_pin'_joint_motor_torque,b'r_distal_pin'_joint_angle,b'r_distal_pin'_joint_vel,b'r_distal_pin'_joint_react_forces,b'r_distal_pin'_joint_motor_torque,in_contact_l,contact_point_l_dist,contact_normal_l_dist,contact_distance_l_dist,contact_norm_force_l_dist,in_contact_r,contact_point_r_dist,contact_normal_r_dist,contact_distance_r_dist,contact_norm_force_r_dist
0,Open,,,,,,"[-0.026750000193715096, 0.05299999937415123, 0.03999999910593033]","[0.0, -0.0, 0.0]","[-0.026750000193715096, 0.125, 0.03999999910593033]","[0.0, -0.0, 0.0]","[0.026750000193715096, 0.05299999937415123, 0.03999999910593033]","[0.0, -0.0, 0.0]","[0.026750000193715096, 0.125, 0.03999999910593033]","[0.0, -0.0, 0.0]",0.0,0.0,"(0.0, 0.0, 0.0, 0.0, 0.0, 0.0)",1.3400621000080305e-17,5.883223478113402e-32,1.4119736347472167e-29,"(0.0, 0.0, 0.0, 0.0, 0.0, 0.0)",1.0542555313129702e-18,-0.008068665190486622,-1.9364796457167894,"(0.0, 0.0, 0.0, 0.0, 0.0, 0.0)",193.26378306879909,-0.0700246186727924,-16.805908481470176,"(0.0, 0.0, 0.0, 0.0, 0.0, 0.0)",71.94009191575694,False,,,,,False,,,,
1,Open,,,,,,"[-0.026750000193715096, 0.05299999937415123, 0.03999999910593033]","[0.0, -0.0, 0.0]","[-0.026750000193715096, 0.125, 0.03999999910593033]","[0.0, -0.0, 5.883223447970011e-32]","[0.026750000193715096, 0.05299999937415123, 0.03999999910593033]","[0.0, 0.0, -0.008068665592501188]","[0.02733093686401844, 0.12499765306711197, 0.03999999910593033]","[0.0, 0.0, -0.0780932845685428]",0.157,37.68,"(0.0, 0.0, 0.0, 0.0, 0.0, 0.0)",54.702693795169004,5.294901130302062e-32,-1.4119736347472162e-30,"(0.0, 0.0, 0.0, 0.0, 0.0, 0.0)",3.9113724975844915,-0.1670280316324969,-38.150247946082466,"(0.0, 0.0, 0.0, 0.0, 0.0, 0.0)",-25.93345404555236,-0.0659493391739072,0.9780670797324476,"(0.0, 0.0, 0.0, 0.0, 0.0, 0.0)",-6.754749483880455,False,,,,,False,,,,
2,Open,,,,,,"[-0.026750000193715096, 0.05299999937415123, 0.03999999910593033]","[0.0, -0.0, 0.1569999988554567]","[-0.03800761699676514, 0.12411445379257202, 0.03999999910593033]","[0.0, -0.0, 0.1569999988554567]","[0.026750000193715096, 0.05299999937415123, 0.03999999910593033]","[0.0, 0.0, -0.16702801712980753]","[0.038720179349184036, 0.1239979937672615, 0.03999999910593033]","[0.0, 0.0, -0.23297739431320727]",0.29829999999999995,33.91199999999999,"(0.0, 0.0, 0.0, 0.0, 0.0, 0.0)",-5.390828189440958,5.294901130302062e-32,0.0,"(0.0, 0.0, 0.0, 0.0, 0.0, 0.0)",-0.3659219356209609,-0.3122944613104081,-34.863943122698686,"(0.0, 0.0, 0.0, 0.0, 0.0, 0.0)",95.8006544774165,-0.06705867534034729,-0.2662406799456205,"(0.0, 0.0, 0.0, 0.0, 0.0, 0.0)",9.049911776264722,False,,,,,False,,,,
3,Open,,,,,,"[-0.026750000193715096, 0.05299999937415123, 0.03999999910593033]","[0.0, -0.0, 0.29830000998707634]","[-0.04791048914194107, 0.12182030081748962, 0.03999999910593033]","[0.0, -0.0, 0.29830000998707634]","[0.026750000193715096, 0.05299999937415123, 0.03999999910593033]","[0.0, 0.0, -0.3122944642903269]","[0.048871491104364395, 0.12151744216680527, 0.03999999910593033]","[0.0, 0.0, -0.3793531994353912]",0.42546999999999996,30.5208,"(0.0, 0.0, 0.0, 0.0, 0.0, 0.0)",-4.858074537215091,5.294901130302062e-32,0.0,"(0.0, 0.0, 0.0, 0.0, 0.0, 0.0)",-0.33154044974508506,-0.44292449566296654,-31.35120824461403,"(0.0, 0.0, 0.0, 0.0, 0.0, 0.0)",100.88457241511576,-0.08373770380977785,-4.0029668326633345,"(0.0, 0.0, 0.0, 0.0, 0.0, 0.0)",24.077304806401806,False,,,,,False,,,,
4,Open,,,,,,"[-0.026750000193715096, 0.05299999937415123, 0.03999999910593033]","[0.0, -0.0, 0.4254700097131474]","[-0.056467924267053604, 0.11858082562685013, 0.03999999910593033]","[0.0, -0.0, 0.4254700097131474]","[0.026750000193715096, 0.05299999937415123, 0.03999999910593033]","[0.0, 0.0, -0.4429245237535421]","[0.057608019560575485, 0.1180521547794342, 0.03999999910593033]","[0.0, 0.0, -0.5266622746639338]",0.5399229999999999,27.46872,"(0.0, 0.0, 0.0, 0.0, 0.0, 0.0)",-4.377393708535371,5.294901130302062e-32,0.0,"(0.0, 0.0, 0.0, 0.0, 0.0, 0.0)",-0.30017707799641646,-0.5623038734984663,-28.651050680519948,"(0.0, 0.0, 0.0, 0.0, 0.0, 0.0)",144.45470973647488,-0.10456727132876567,-4.999096204557077,"(0.0, 0.0, 0.0, 0.0, 0.0, 0.0)",33.97911746732963,False,,,,,False,,,,
5,Open,,,,,,"[-0.026750000193715096, 0.05299999937415123, 0.03999999910593033]","[0.0, -0.0, 0.5399230359738098]","[-0.06376303732395172, 0.11475787311792374, 0.03999999910593033]","[0.0, -0.0, 0.5399230359738098]","[0.026750000193715096, 0.05299999937415123, 0.03999999910593033]","[0.0, 0.0, -0.5623038790270362]","[0.06513584405183792, 0.11391409486532211, 0.03999999910593033]","[0.0, 0.0, -0.6668711870723439]",0.6429307,24.721848,"(0.0, 0.0, 0.0, 0.0, 0.0, 0.0)",-3.943806903965684,5.294901130302062e-32,0.0,"(0.0, 0.0, 0.0, 0.0, 0.0, 0.0)",-0.2716098155097054,-0.6673401099248648,-25.208696742335626,"(0.0, 0.0, 0.0, 0.0, 0.0, 0.0)",94.97739775913854,-0.11755295807544866,-3.116564819203918,"(0.0, 0.0, 0.0, 0.0, 0.0, 0.0)",25.79194570087013,False,,,,,False,,,,
6,Open,,,,,,"[-0.026750000193715096, 0.05299999937415123, 0.03999999910593033]","[0.0, -0.0, 0.6429307111289271]","[-0.06991713494062424, 0.11062463372945786, 0.03999999910593033]","[0.0, -0.0, 0.6429307111289271]","[0.026750000193715096, 0.05299999937415123, 0.03999999910593033]","[0.0, 0.0, -0.6673401753977319]","[0.07131072133779526, 0.10955388844013214, 0.03999999910593033]","[0.0, 0.0, -0.7848931559948581]",0.73563763,22.249663200000004,"(0.0, 0.0, 0.0, 0.0, 0.0, 0.0)",-3.552789792259023,5.294901130302062e-32,0.0,"(0.0, 0.0, 0.0, 0.0, 0.0, 0.0)",-0.24562369466220793,-0.7579917869736262,-21.756402491702737,"(0.0, 0.0, 0.0, 0.0, 0.0, 0.0)",34.46450837185191,-0.10794166402774508,2.3067105714488583,"(0.0, 0.0, 0.0, 0.0, 0.0, 0.0)",8.765009015475858,False,,,,,False,,,,
7,Open,,,,,,"[-0.026750000193715096, 0.05299999937415123, 0.03999999910593033]","[0.0, -0.0, 0.7356376306875043]","[-0.07506632059812546, 0.10638101398944855, 0.03999999910593033]","[0.0, -0.0, 0.7356376306875043]","[0.026750000193715096, 0.05299999937415123, 0.03999999910593033]","[0.0, 0.0, -0.757991847340814]","[0.076247438788414, 0.10528770089149475, 0.03999999910593033]","[0.0, 0.0, -0.8659334873334429]",0.8190738670000001,20.024696880000004,"(0.0, 0.0, 0.0, 0.0, 0.0, 0.0)",-3.2002295086701533,2.3293280891773424e-07,5.5903874140256216e-05,"(0.0, 0.0, 0.0, 0.0, 0.0, 0.0)",-0.22200715926400075,-0.8391926082762636,-19.488197112632974,"(0.0, 0.0, 0.0, 0.0, 0.0, 0.0)",3.295349739497939,-0.09714776835574307,2.590534961280482,"(0.0, 0.0, 0.0, 0.0, 0.0, 0.0)",0.25803221970863044,False,,,,,False,,,,
8,Open,,,,,,"[-0.026750000193715096, 0.05299999937415123, 0.03999999910593033]","[0.0, -0.0, 0.8190738875671263]","[-0.07934698462486267, 0.10216865688562393, 0.03999999910593033]","[0.0, -0.0, 0.8190741465287105]","[0.026750000193715096, 0.05299999937415123, 0.03999999910593033]","[0.0, 0.0, -0.839192558822362]","[0.08032548427581787, 0.10110059380531311, 0.03999999910593033]","[0.0, 0.0, -0.9363403253067936]",0.8941664803,18.022227192,"(0.0, 0.0, 0.0, 0.0, 0.0, 0.0)",-2.8824197251771095,4.2009445145371055e-07,4.4918794208634316e-05,"(0.0, 0.0, 0.0, 0.0, 0.0, 0.0)",-0.2005835928406654,-0.9122733474486373,-17.539377401369673,"(0.0, 0.0, 0.0, 0.0, 0.0, 0.0)",2.7804978356880783,-0.0874331700712747,2.33150358827241,"(0.0, 0.0, 0.0, 0.0, 0.0, 0.0)",0.17017621517521792,False,,,,,False,,,,
9,Open,,,,,,"[-0.026750000193715096, 0.05299999937415123, 0.03999999910593033]","[0.0, -0.0, 0.894166469119967]","[-0.08288749307394028, 0.09808415919542313, 0.03999999910593033]","[0.0, -0.0, 0.894166894674561]","[0.026750000193715096, 0.05299999937415123, 0.03999999910593033]","[0.0, 0.0, -0.9122733503889549]","[0.08369457721710205, 0.09706035256385803, 0.03999999910593033]","[0.0, 0.0, -0.9997066729229968]",0.96174983227,16.220004472800003,"(0.0, 0.0, 0.0, 0.0, 0.0, 0.0)",-2.5959652512206968,5.681494863714967e-07,3.553320838026869e-05,"(0.0, 0.0, 0.0, 0.0, 0.0, 0.0)",-0.18114955764248034,-0.9780460127037736,-15.785439661232708,"(0.0, 0.0, 0.0, 0.0, 0.0, 0.0)",2.503992476159733,-0.0786900142246732,2.098357403184359,"(0.0, 0.0, 0.0, 0.0, 0.0, 0.0)",0.15360133560797545,False,,,,,False,,,,
10,Open,,,,,,"[-0.026750000193715096, 0.05299999937415123, 0.03999999910593033]","[0.0, -0.0, 0.9617498658906226]","[-0.08580395579338074, 0.09419016540050507, 0.03999999910593033]","[0.0, -0.0, 0.9617504517765805]","[0.026750000193715096, 0.05299999937415123, 0.03999999910593033]","[0.0, 0.0, -0.9780460255881384]","[0.08646733313798904, 0.09322238713502884, 0.03999999910593033]","[0.0, 0.0, -1.0567360258914282]",1.022574849043,14.598004025520002,"(0.0, 0.0, 0.0, 0.0, 0.0, 0.0)",-2.337816594086846,6.829231533297027e-07,2.7545680069969436e-05,"(0.0, 0.0, 0.0, 0.0, 0.0, 0.0)",-0.16354029854134106,-1.0372414114333963,-14.206895695109438,"(0.0, 0.0, 0.0, 0.0, 0.0, 0.0)",2.2548456713339484,-0.07082115822448021,1.8885254400463192,"(0.0, 0.0, 0.0, 0.0, 0.0, 0.0)",0.13860128234430863,False,,,,,False,,,,
11,Open,,,,,,"[-0.026750000193715096, 0.05299999937415123, 0.03999999910593033]","[0.0, -0.0, 1.0225748785172661]","[-0.08819860219955444, 0.09052424877882004, 0.03999999910593033]","[0.0, -0.0, 1.0225755149967983]","[0.026750000193715096, 0.05299999937415123, 0.03999999910593033]","[0.0, 0.0, -1.037241417801626]","[0.08874232321977615, 0.08961901068687439, 0.03999999910593033]","[0.0, 0.0, -1.1080626941470386]",1.0773173641387,13.138203622968001,"(0.0, 0.0, 0.0, 0.0, 0.0, 0.0)",-2.105207702642618,7.694903593429899e-07,2.0776129443188934e-05,"(0.0, 0.0, 0.0, 0.0, 0.0, 0.0)",-0.14759587787833617,-1.0905172702900567,-12.78620612559849,"(0.0, 0.0, 0.0, 0.0, 0.0, 0.0)",2.0303755786213302,-0.06373917358809339,1.6996763127328351,"(0.0, 0.0, 0.0, 0.0, 0.0, 0.0)",0.1250328149112744,False,,,,,False,,,,
12,Open,,,,,,"[-0.026750000193715096, 0.05299999937415123, 0.03999999910593033]","[0.0, -0.0, 1.0773173786594632]","[-0.09015969932079315, 0.08710587024688721, 0.03999999910593033]","[0.0, -0.0, 1.0773182784199262]","[0.026750000193715096, 0.05299999937415123, 0.03999999910593033]","[0.0, 0.0, -1.090517334189526]","[0.09060435742139816, 0.0862659215927124, 0.03999999910593033]","[0.0, 0.0, -1.1542564269670996]",1.1265856277248298,11.824383260671203,"(0.0, 0.0, 0.0, 0.0, 0.0, 0.0)",-1.895636869852492,8.322629993378343e-07,1.5065433598762668e-05,"(0.0, 0.0, 0.0, 0.0, 0.0, 0.0)",-0.13316806895824274,-1.138465543261051,-11.50758551303864,"(0.0, 0.0, 0.0, 0.0, 0.0, 0.0)",1.828159741200242,-0.05736537454460671,1.5297117704368035,"(0.0, 0.0, 0.0, 0.0, 0.0, 0.0)",0.11276577482950233,False,,,,,False,,,,
13,Open,,,,,,"[-0.026750000193715096, 0.05299999937415123, 0.03999999910593033]","[0.0, -0.0, 1.126585512342968]","[-0.09176240861415863, 0.08394166082143784, 0.03999999910593033]","[0.0, -0.0, 1.1265864725026016]","[0.026750000193715096, 0.05299999937415123, 0.03999999910593033]","[0.0, 0.0, -1.13846552283997]","[0.09212540090084076, 0.08316715806722641, 0.03999999910593033]","[0.0, 0.0, -1.1958309904194953]",1.1709270649523469,10.641944934604087,"(0.0, 0.0, 0.0, 0.0, 0.0, 0.0)",-1.7068426281171958,8.750681698751778e-07,1.0273240928962424e-05,"(0.0, 0.0, 0.0, 0.0, 0.0, 0.0)",-0.12011999884119333,-1.181618988934946,-10.356826961734775,"(0.0, 0.0, 0.0, 0.0, 0.0, 0.0)",1.6460093571929852,-0.051628943774705546,1.376743384776279,"(0.0, 0.0, 0.0, 0.0, 0.0, 0.0)",0.10168054944364863,False,,,,,False,,,,
14,Open,,,,,,"[-0.026750000193715096, 0.05299999937415123, 0.03999999910593033]","[0.0, -0.0, 1.170927100750299]","[-0.09307006001472473, 0.08102945238351822, 0.03999999910593033]","[0.0, -0.0, 1.1709279927689973]","[0.026750000193715096, 0.05299999937415123, 0.03999999910593033]","[0.0, 0.0, -1.181618964677462]","[0.09336595237255096, 0.08031877130270004, 0.03999999910593033]","[0.0, 0.0, -1.233247876832181]",1.2108343584571122,9.577750441143678,"(0.0, 0.0, 0.0, 0.0, 0.0, 0.0)",-1.5367816122769582,9.012180617793662e-07,6.275974057005224e-06,"(0.0, 0.0, 0.0, 0.0, 0.0, 0.0)",-0.1083256720668905,-1.2204570900414513,-9.3211442655613,"(0.0, 0.0, 0.0, 0.0, 0.0, 0.0)",1.4819475463743526,-0.046466145575958295,1.239071567699341,"(0.0, 0.0, 0.0, 0.0, 0.0, 0.0)",0.09166748660725833,False,,,,,False,,,,
15,Open,,,,,,"[-0.026750000193715096, 0.05299999937415123, 0.03999999910593033]","[0.0, -0.0, 1.2108343955497323]","[-0.09413553774356842, 0.07836118340492249, 0.03999999910593033]","[0.0, -0.0, 1.210835255049739]","[0.026750000193715096, 0.05299999937415123, 0.03999999910593033]","[0.0, 0.0, -1.2204571829136446]","[0.09437645971775055, 0.07771158218383789, 0.03999999910593033]","[0.0, 0.0, -1.2669233179031547]",1.2467509226114009,8.619975397029307,"(0.0, 0.0, 0.0, 0.0, 0.0, 0.0)",-1.3836082777937824,9.135722823677317e-07,2.9650129412077397e-06,"(0.0, 0.0, 0.0, 0.0, 0.0, 0.0)",-0.09766941677677543,-1.2554113810373062,-8.38902983900517,"(0.0, 0.0, 0.0, 0.0, 0.0, 0.0)",1.334189480132575,-0.04181961771093252,1.1151666876061868,"(0.0, 0.0, 0.0, 0.0, 0.0, 0.0)",0.08262627878010878,False,,,,,False,,,,
16,Open,,,,,,"[-0.026750000193715096, 0.05299999937415123, 0.03999999910593033]","[0.0, -0.0, 1.2467510110527222]","[-0.09500277042388916, 0.07592508941888809, 0.03999999910593033]","[0.0, -0.0, 1.246751870145374]","[0.026750000193715096, 0.05299999937415123, 0.03999999910593033]","[0.0, 0.0, -1.255411348379259]","[0.09519875049591064, 0.0753331333398819, 0.03999999910593033]","[0.0, 0.0, -1.2972309672073006]",1.2790758303502607,7.757977857326381,"(0.0, 0.0, 0.0, 0.0, 0.0, 0.0)",-1.2456264712746363,2.1141758111398655e-06,0.0002881448469053121,"(0.0, 0.0, 0.0, 0.0, 0.0, 0.0)",-0.088015399348708,-1.2868702429335757,-7.5501268551046525,"(0.0, 0.0, 0.0, 0.0, 0.0, 0.0)",1.2010989712673745,-0.037638748630864464,1.0034085792163332,"(0.0, 0.0, 0.0, 0.0, 0.0, 0.0)",0.07444006052486639,False,,,,,False,,,,
17,Open,,,,,,"[-0.026750000193715096, 0.05299999937415123, 0.03999999910593033]","[0.0, -0.0, 1.2790758758817962]","[-0.09570803493261337, 0.0737072303891182, 0.03999999910593033]","[0.0, -0.0, 1.2790780932516201]","[0.026750000193715096, 0.05299999937415123, 0.03999999910593033]","[0.0, 0.0, -1.2868702529032277]","[0.0958673357963562, 0.07316911965608597, 0.03999999910593033]","[0.0, 0.0, -1.3245087793274308]",1.3081682532711112,6.982181501004109,"(0.0, 0.0, 0.0, 0.0, 0.0, 0.0)",-1.12145472366965,1.9027582300258812e-06,-5.0740219467356254e-05,"(0.0, 0.0, 0.0, 0.0, 0.0, 0.0)",-0.07939114715284208,-1.315183223212741,-6.795115266999686,"(0.0, 0.0, 0.0, 0.0, 0.0, 0.0)",1.0813262344929835,-0.033874873767778015,0.9033299671407473,"(0.0, 0.0, 0.0, 0.0, 0.0, 0.0)",0.06713055017345074,False,,,,,False,,,,
18,Open,,,,,,"[-0.026750000193715096, 0.05299999937415123, 0.03999999910593033]","[0.0, -0.0, 1.3081682459906412]","[-0.09628119319677353, 0.07169260084629059, 0.03999999910593033]","[0.0, -0.0, 1.3081702011658356]","[0.026750000193715096, 0.05299999937415123, 0.03999999910593033]","[0.0, 0.0, -1.3151833180210462]","[0.0964106097817421, 0.07120437920093536, 0.03999999910593033]","[0.0, 0.0, -1.349058153261439]",1.334351427944,6.283961921493333,"(0.0, 0.0, 0.0, 0.0, 0.0, 0.0)",-1.0095234585863413,2.7618377923566443e-06,0.00020617909495938315,"(0.0, 0.0, 0.0, 0.0, 0.0, 0.0)",-0.07148780084672787,-1.3406649008914668,-6.11560264289422,"(0.0, 0.0, 0.0, 0.0, 0.0, 0.0)",0.9733796231570812,-0.030488273507324658,0.8127840625088054,"(0.0, 0.0, 0.0, 0.0, 0.0, 0.0)",0.060435192896783604,False,,,,,False,,,,
19,Open,,,,,,"[-0.026750000193715096, 0.05299999937415123, 0.03999999910593033]","[0.0, -0.0, 1.334351465706577]","[-0.09674673527479172, 0.06986585259437561, 0.03999999910593033]","[0.0, -0.0, 1.33435435145599]","[0.026750000193715096, 0.05299999937415123, 0.03999999910593033]","[0.0, 0.0, -1.3406650641721125]","[0.09685182571411133, 0.06942359358072281, 0.03999999910593033]","[0.0, 0.0, -1.3711530696282732]",1.3579162851496,5.655565729344001,"(0.0, 0.0, 0.0, 0.0, 0.0, 0.0)",-0.9088150211252332,3.4316066113876724e-06,0.0001607445165674468,"(0.0, 0.0, 0.0, 0.0, 0.0, 0.0)",-0.06444344013525093,-1.3635984108023202,-5.504042378604797,"(0.0, 0.0, 0.0, 0.0, 0.0, 0.0)",0.8762522980402716,-0.02744024570882781,0.7315266716392431,"(0.0, 0.0, 0.0, 0.0, 0.0, 0.0)",0.05446985052483407,False,,,,,False,,,,
20,Open,,,,,,"[-0.026750000193715096, 0.05299999937415123, 0.03999999910593033]","[0.0, -0.0, 1.3579163939939654]","[-0.09712471067905426, 0.0682118609547615, 0.03999999910593033]","[0.0, -0.0, 1.3579197824809437]","[0.026750000193715096, 0.05299999937415123, 0.03999999910593033]","[0.0, 0.0, -1.3635984874387626]","[0.09721000492572784, 0.06781173497438431, 0.03999999910593033]","[0.0, 0.0, -1.3910385869420074]",1.37912465663464,5.090009156409601,"(0.0, 0.0, 0.0, 0.0, 0.0, 0.0)",-0.8181093185961676,3.940702417530038e-06,0.0001221829934741677,"(0.0, 0.0, 0.0, 0.0, 0.0, 0.0)",-0.05806034967263589,-1.3842385697220883,-4.953638140744317,"(0.0, 0.0, 0.0, 0.0, 0.0, 0.0)",0.7887791417834831,-0.024696941374704916,0.6583930401894944,"(0.0, 0.0, 0.0, 0.0, 0.0, 0.0)",0.04906644857689494,False,,,,,False,,,,
21,Open,,,,,,"[-0.026750000193715096, 0.05299999937415123, 0.03999999910593033]","[0.0, -0.0, 1.3791247702213432]","[-0.0974314734339714, 0.0667160153388977, 0.03999999910593033]","[0.0, -0.0, 1.3791284782568445]","[0.026750000193715096, 0.05299999937415123, 0.03999999910593033]","[0.0, 0.0, -1.3842387704807777]","[0.09750068932771683, 0.06635437905788422, 0.03999999910593033]","[0.0, 0.0, -1.408935619520831]",1.398212190971176,4.581008240768642,"(0.0, 0.0, 0.0, 0.0, 0.0, 0.0)",-0.7364407507487188,4.314390796743166e-06,8.968521101115077e-05,"(0.0, 0.0, 0.0, 0.0, 0.0, 0.0)",-0.05230389643117988,-1.4028147127498793,-4.458274326669883,"(0.0, 0.0, 0.0, 0.0, 0.0, 0.0)",0.7100243788118592,-0.02222789596809768,0.5925708975857369,"(0.0, 0.0, 0.0, 0.0, 0.0, 0.0)",0.04419507766734469,False,,,,,False,,,,
22,Open,,,,,,"[-0.026750000193715096, 0.05299999937415123, 0.03999999910593033]","[0.0, -0.0, 1.3982120672717784]","[-0.09768038988113403, 0.06536446511745453, 0.03999999910593033]","[0.0, -0.0, 1.3982164487645397]","[0.026750000193715096, 0.05299999937415123, 0.03999999910593033]","[0.0, 0.0, -1.4028147367436141]","[0.09773654490709305, 0.06503787636756897, 0.03999999910593033]","[0.0, 0.0, -1.4250426427007885]",1.4153909718740585,4.122907416691778,"(0.0, 0.0, 0.0, 0.0, 0.0, 0.0)",-0.6629119687698639,4.574523674952359e-06,6.243189077020624e-05,"(0.0, 0.0, 0.0, 0.0, 0.0, 0.0)",-0.04711364623212332,-1.4195332414748913,-4.012446894002898,"(0.0, 0.0, 0.0, 0.0, 0.0, 0.0)",0.6391216750959775,-0.02000569064819732,0.5333292767760867,"(0.0, 0.0, 0.0, 0.0, 0.0, 0.0)",0.039804123486470444,False,,,,,False,,,,
23,Open,,,,,,"[-0.026750000193715096, 0.05299999937415123, 0.03999999910593033]","[0.0, -0.0, 1.415391158105469]","[-0.09788231551647186, 0.06414420157670975, 0.03999999910593033]","[0.0, -0.0, 1.415395709317307]","[0.026750000193715096, 0.05299999937415123, 0.03999999910593033]","[0.0, 0.0, -1.419533200978404]","[0.09792786836624146, 0.06384945660829544, 0.03999999910593033]","[0.0, 0.0, -1.4395389386881268]",1.4308518746866525,3.7106166750225977,"(0.0, 0.0, 0.0, 0.0, 0.0, 0.0)",-0.5967141397561109,4.7399630338636504e-06,3.9705446138709865e-05,"(0.0, 0.0, 0.0, 0.0, 0.0, 0.0)",-0.042434775014060074,-1.4345799173274023,-3.611202204602609,"(0.0, 0.0, 0.0, 0.0, 0.0, 0.0)",0.5752902758042565,-0.018005647771851804,0.4800102903229233,"(0.0, 0.0, 0.0, 0.0, 0.0, 0.0)",0.0358468230863414,False,,,,,False,,,,
24,Open,,,,,,"[-0.026750000193715096, 0.05299999937415123, 0.03999999910593033]","[0.0, -0.0, 1.4308518944899675]","[-0.09804610908031464, 0.06304314732551575, 0.03999999910593033]","[0.0, -0.0, 1.4308566269594332]","[0.026750000193715096, 0.05299999937415123, 0.03999999910593033]","[0.0, 0.0, -1.4345798203875788]","[0.09808305650949478, 0.06277728080749512, 0.03999999910593033]","[0.0, 0.0, -1.4525855975984745]",1.4447666872179874,3.339555007520341,"(0.0, 0.0, 0.0, 0.0, 0.0, 0.0)",-0.5371183361845069,4.8269553674989e-06,2.0878160072459843e-05,"(0.0, 0.0, 0.0, 0.0, 0.0, 0.0)",-0.03821759960562203,-1.448121925594662,-3.2500819841423465,"(0.0, 0.0, 0.0, 0.0, 0.0, 0.0)",0.5178266556878065,-0.016205556838873442,0.4320218239148067,"(0.0, 0.0, 0.0, 0.0, 0.0, 0.0)",0.0322808466635012,False,,,,,False,,,,
25,Open,,,,,,"[-0.026750000193715096, 0.05299999937415123, 0.03999999910593033]","[0.0, -0.0, 1.4447668540021588]","[-0.09817895293235779, 0.06205013021826744, 0.03999999910593033]","[0.0, -0.0, 1.4447715863131299]","[0.026750000193715096, 0.05299999937415123, 0.03999999910593033]","[0.0, 0.0, -1.448121993206969]","[0.09820891171693802, 0.06181041896343231, 0.03999999910593033]","[0.0, 0.0, -1.46432761016298]",1.4572900184961886,3.005599506768304,"(0.0, 0.0, 0.0, 0.0, 0.0, 0.0)",-0.483467731204937,4.849462099751187e-06,5.401615740548756e-06,"(0.0, 0.0, 0.0, 0.0, 0.0, 0.0)",-0.03441712855198442,-1.4603097330351957,-2.925073785728113,"(0.0, 0.0, 0.0, 0.0, 0.0, 0.0)",0.4660969568661882,-0.014585427836986846,0.38883096045278315,"(0.0, 0.0, 0.0, 0.0, 0.0, 0.0)",0.029067900465992856,False,,,,,False,,,,
26,Open,,,,,,"[-0.026750000193715096, 0.05299999937415123, 0.03999999910593033]","[0.0, -0.0, 1.4572900807517244]","[-0.0982866883277893, 0.061154916882514954, 0.03999999910593033]","[0.0, -0.0, 1.4572948921008348]","[0.026750000193715096, 0.05299999937415123, 0.03999999910593033]","[0.0, 0.0, -1.4603097470714805]","[0.09831098467111588, 0.06093886122107506, 0.03999999910593033]","[0.0, 0.0, -1.4748951413427742]",1.4685610166465697,2.705039556091476,"(0.0, 0.0, 0.0, 0.0, 0.0, 0.0)",-0.43517053908893033,4.819450845044722e-06,-7.202701129551542e-06,"(0.0, 0.0, 0.0, 0.0, 0.0, 0.0)",-0.030992645518402973,-1.471278759731676,-2.632566407155304,"(0.0, 0.0, 0.0, 0.0, 0.0, 0.0)",0.4195301522878829,-0.013127269246907155,0.3499580616191257,"(0.0, 0.0, 0.0, 0.0, 0.0, 0.0)",0.02617336062226555,False,,,,,False,,,,
27,Open,,,,,,"[-0.026750000193715096, 0.05299999937415123, 0.03999999910593033]","[0.0, -0.0, 1.4685611215819594]","[-0.09837405383586884, 0.06034812703728676, 0.03999999910593033]","[0.0, -0.0, 1.468565853091142]","[0.026750000193715096, 0.05299999937415123, 0.03999999910593033]","[0.0, 0.0, -1.4712788457263521]","[0.0983937606215477, 0.06015344336628914, 0.03999999910593033]","[0.0, 0.0, -1.4844061039497418]",1.4787049149819127,2.434535600482329,"(0.0, 0.0, 0.0, 0.0, 0.0, 0.0)",-0.39169363303347604,4.747151892642784e-06,-1.7351748576465223e-05,"(0.0, 0.0, 0.0, 0.0, 0.0, 0.0)",-0.02790732436186781,-1.4811508837585086,-2.3693097664397755,"(0.0, 0.0, 0.0, 0.0, 0.0, 0.0)",0.37761186810531283,-0.011814888241968555,0.3149714411852639,"(0.0, 0.0, 0.0, 0.0, 0.0, 0.0)",0.023565936472848985,False,,,,,False,,,,
28,Open,,,,,,"[-0.026750000193715096, 0.05299999937415123, 0.03999999910593033]","[0.0, -0.0, 1.4787049625213984]","[-0.09844490885734558, 0.059621214866638184, 0.03999999910593033]","[0.0, -0.0, 1.4787095898811649]","[0.026750000193715096, 0.05299999937415123, 0.03999999910593033]","[0.0, 0.0, -1.4811508165812142]","[0.09846089035272598, 0.059445831924676895, 0.03999999910593033]","[0.0, 0.0, -1.492965762433775]",1.4878344234837215,2.191082040434097,"(0.0, 0.0, 0.0, 0.0, 0.0, 0.0)",-0.35255677801820895,4.641283838470101e-06,-2.5408333001444004e-05,"(0.0, 0.0, 0.0, 0.0, 0.0, 0.0)",-0.02512787460267613,-1.4900357953826577,-2.132378789795796,"(0.0, 0.0, 0.0, 0.0, 0.0, 0.0)",0.33987880377374147,-0.010633710863257649,0.2834825708906175,"(0.0, 0.0, 0.0, 0.0, 0.0, 0.0)",0.021217361806457186,False,,,,,False,,,,
29,Close,,,"(0.010000165031897679, 0.16000264050809818, 0.003919197399597577)","(-5.388791991209616e-05, 3.3679978815229247e-06, -9.074720008653711e-11)",,"[-0.026750000193715096, 0.05299999937415123, 0.03999999910593033]","[0.0, -0.0, 1.487834617901085]","[-0.09850236773490906, 0.05896640568971634, 0.03999999910593033]","[0.0, -0.0, 1.4878390921106803]","[0.026750000193715096, 0.05299999937415123, 0.03999999910593033]","[0.0, 0.0, -1.4900358577435544]","[0.09851532429456711, 0.05880843847990036, 0.03999999910593033]","[0.0, 0.0, -1.5006695807985118]",1.4960509811353493,1.9719738363906854,"(0.0, 0.0, 0.0, 0.0, 0.0, 0.0)",-0.3173274216127963,4.509251873886308e-06,-3.168767150011037e-05,"(0.0, 0.0, 0.0, 0.0, 0.0, 0.0)",-0.022624215793833224,-1.498032215844392,-1.9191409108162163,"(0.0, 0.0, 0.0, 0.0, 0.0, 0.0)",0.30591369390909257,-0.00957062017308593,0.2551417656412126,"(0.0, 0.0, 0.0, 0.0, 0.0, 0.0)",0.019102112305110365,False,,,,,False,,,,
30,Close,,,"(0.010000330010418335, 0.1600052801621647, 0.0076635160840755065)","(-0.00010776674212266888, 6.7354271463595154e-06, -3.629275205618536e-10)",,"[-0.026750000193715096, 0.05299999937415123, 0.03999999910593033]","[0.0, -0.0, 1.4960509653323988]","[-0.09854896366596222, 0.058376654982566833, 0.03999999910593033]","[0.0, -0.0, 1.4960555203126162]","[0.026750000193715096, 0.05299999937415123, 0.03999999910593033]","[0.0, 0.0, -1.4980320325532246]","[0.09855947643518448, 0.05823439359664917, 0.03999999910593033]","[0.0, 0.0, -1.5076028800413472]",1.4064458830218143,-21.505223547248388,"(0.0, 0.0, 0.0, 0.0, 0.0, 0.0)",-36.32500847077206,-0.08999559064729075,-21.600023975799512,"(0.0, 0.0, 0.0, 0.0, 0.0, 0.0)",-4.679136399120495,-1.4082289942599528,21.552773180265405,"(0.0, 0.0, 0.0, 0.0, 0.0, 0.0)",36.31473208701179,0.08138609105625041,21.82961069504072,"(0.0, 0.0, 0.0, 0.0, 0.0, 0.0)",4.675963213372079,False,,,,,False,,,,
31,Close,,,"(0.010000494936733278, 0.16000791898094055, 0.011233038807318392)","(-0.00016163646818851668, 1.0102287881965475e-05, -8.164490687548302e-10)",,"[-0.026750000193715096, 0.05299999937415123, 0.03999999910593033]","[0.0, -0.0, 1.4064459844712927]","[-0.0977797880768776, 0.06478003412485123, 0.03999999910593033]","[0.0, -0.0, 1.316450240076391]","[0.026750000193715096, 0.05299999937415123, 0.03999999910593033]","[0.0, 0.0, -1.4082291009672807]","[0.09780067950487137, 0.06465335935354233, 0.03999999910593033]","[0.0, 0.0, -1.3268428349863826]",1.325801294719633,-19.354701192523546,"(0.0, 0.0, 0.0, 0.0, 0.0, 0.0)",3.2936342521930255,-0.17099646652613912,-19.44021021092361,"(0.0, 0.0, 0.0, 0.0, 0.0, 0.0)",0.4145426679866387,-1.3274060948339577,19.39749586223887,"(0.0, 0.0, 0.0, 0.0, 0.0, 0.0)",-3.3024243844052092,0.16324791947241268,19.646838819878944,"(0.0, 0.0, 0.0, 0.0, 0.0, 0.0)",-0.41699994760359754,False,,,,,False,,,,
32,Close,,,"(0.010000659812012168, 0.16001055698314023, 0.0146278458391823)","(-0.0002154970996661642, 1.346858017578936e-05, -1.4512199879406586e-09)",,"[-0.026750000193715096, 0.05299999937415123, 0.03999999910593033]","[0.0, -0.0, 1.3258013857525741]","[-0.09659997373819351, 0.07046370953321457, 0.03999999910593033]","[0.0, -0.0, 1.1548048042561467]","[0.026750000193715096, 0.05299999937415123, 0.03999999910593033]","[0.0, 0.0, -1.3274060658778382]","[0.09662791341543198, 0.07035159319639206, 0.03999999910593033]","[0.0, 0.0, -1.1641581075845935]",1.2532211652476697,-17.41923107327119,"(0.0, 0.0, 0.0, 0.0, 0.0, 0.0)",2.9685258329366073,-0.24389721437960032,-17.496179484830687,"(0.0, 0.0, 0.0, 0.0, 0.0, 0.0)",0.3760018756193849,-1.2546654853505619,17.457746276014984,"(0.0, 0.0, 0.0, 0.0, 0.0, 0.0)",-2.976480273609718,0.2369235243908578,17.682145180426822,"(0.0, 0.0, 0.0, 0.0, 0.0, 0.0)",-0.3782508099482112,False,,,,,False,,,,
33,Close,,,"(0.010000824637423049, 0.16001319418745247, 0.017848014970055004)","(-0.00026934863811186216, 1.6834304115272585e-05, -2.2671484573282825e-09)",,"[-0.026750000193715096, 0.05299999937415123, 0.03999999910593033]","[0.0, -0.0, 1.2532212515508983]","[-0.09514966607093811, 0.07548300176858902, 0.03999999910593033]","[0.0, -0.0, 1.0093239867956962]","[0.026750000193715096, 0.05299999937415123, 0.03999999910593033]","[0.0, 0.0, -1.254665405963893]","[0.09518206864595413, 0.07538418471813202, 0.03999999910593033]","[0.0, 0.0, -1.0177419933055243]",1.1878990487229026,-15.677307965944074,"(0.0, 0.0, 0.0, 0.0, 0.0, 0.0)",2.675103284419244,-0.30950785045582774,-15.746552658294572,"(0.0, 0.0, 0.0, 0.0, 0.0, 0.0)",0.34074508229325023,-1.1891989368155058,15.711971648413485,"(0.0, 0.0, 0.0, 0.0, 0.0, 0.0)",-2.6822973218910153,0.30323153162132754,15.913921735312746,"(0.0, 0.0, 0.0, 0.0, 0.0, 0.0)",-0.34279935345822066,False,,,,,False,,,,
34,Close,,,"(0.010000989414132393, 0.1600158306125408, 0.020893621515273818)","(-0.00032319108508158773, 2.0199459787849396e-05, -3.2641426920478403e-09)",,"[-0.026750000193715096, 0.05299999937415123, 0.03999999910593033]","[0.0, -0.0, 1.1878990574339587]","[-0.09353619813919067, 0.07989988476037979, 0.03999999910593033]","[0.0, -0.0, 0.8783912846834516]","[0.026750000193715096, 0.05299999937415123, 0.03999999910593033]","[0.0, 0.0, -1.1891990098250689]","[0.09357111155986786, 0.07981304824352264, 0.03999999910593033]","[0.0, 0.0, -0.8859674697633095]",1.1291091438506125,-14.109577169349663,"(0.0, 0.0, 0.0, 0.0, 0.0, 0.0)",2.4103712722760626,-0.36855738916456426,-14.17188929009676,"(0.0, 0.0, 0.0, 0.0, 0.0, 0.0)",0.3085687115248564,-1.1302790431339553,14.140774483572143,"(0.0, 0.0, 0.0, 0.0, 0.0, 0.0)",-2.4168742890236286,0.36290870417903687,14.322521413850238,"(0.0, 0.0, 0.0, 0.0, 0.0, 0.0)",-0.31044204201279674,False,,,,,False,,,,
35,Close,,,"(0.010001154143305145, 0.16001846627704427, 0.023764738319401603)","(-0.00037702444213104407, 2.3564047280946926e-05, -4.4421109431381166e-09)",,"[-0.026750000193715096, 0.05299999937415123, 0.03999999910593033]","[0.0, -0.0, 1.1291090274464952]","[-0.09184028208255768, 0.08377750217914581, 0.03999999910593033]","[0.0, -0.0, 0.7605517150898052]","[0.026750000193715096, 0.05299999937415123, 0.03999999910593033]","[0.0, 0.0, -1.130279133319625]","[0.09187624603509903, 0.08370133489370346, 0.03999999910593033]","[0.0, 0.0, -0.7673703325611945]",1.0761982294655512,-12.698619452414698,"(0.0, 0.0, 0.0, 0.0, 0.0, 0.0)",2.1715845710489208,-0.42170194324014043,-12.754692978138287,"(0.0, 0.0, 0.0, 0.0, 0.0, 0.0)",0.27924932151422227,-1.07725113882056,12.72669703521493,"(0.0, 0.0, 0.0, 0.0, 0.0, 0.0)",-2.177460276301377,0.41661812854294633,12.890261847338277,"(0.0, 0.0, 0.0, 0.0, 0.0, 0.0)",-0.2809551529003472,False,,,,,False,,,,
36,Close,,,"(0.010001318826104761, 0.16002110119957821, 0.02646143576036139)","(-0.0004308487108156613, 2.692806668198511e-05, -5.800961497533997e-09)",,"[-0.026750000193715096, 0.05299999937415123, 0.03999999910593033]","[0.0, -0.0, 1.076198055145404]","[-0.09012148529291153, 0.08717681467533112, 0.03999999910593033]","[0.0, -0.0, 0.6544962762796218]","[0.026750000193715096, 0.05299999937415123, 0.03999999910593033]","[0.0, 0.0, -1.0772510781061955]","[0.09015743434429169, 0.08711007237434387, 0.03999999910593033]","[0.0, 0.0, -0.6606329452337051]",1.028578406518996,-11.428757507173229,"(0.0, 0.0, 0.0, 0.0, 0.0, 0.0)",1.9562489498726314,-0.46953201391559385,-11.479216962108818,"(0.0, 0.0, 0.0, 0.0, 0.0, 0.0)",0.2525697399559188,-1.0295260249385039,11.454027331693439,"(0.0, 0.0, 0.0, 0.0, 0.0, 0.0)",-1.961555706583625,0.46495658231577774,11.601228905479532,"(0.0, 0.0, 0.0, 0.0, 0.0, 0.0)",-0.25412105363877113,False,,,,,False,,,,
37,Close,,,"(0.010001483463693249, 0.1600237353987347, 0.0289837817534302)","(-0.0004846638926905951, 3.0291518078376737e-05, -7.3406026780539124e-09)",,"[-0.026750000193715096, 0.05299999937415123, 0.03999999910593033]","[0.0, -0.0, 1.028578444789276]","[-0.08842276781797409, 0.09015467017889023, 0.03999999910593033]","[0.0, -0.0, 0.5590464126725148]","[0.026750000193715096, 0.05299999937415123, 0.03999999910593033]","[0.0, 0.0, -1.029526007298545]","[0.08845794945955276, 0.09009620547294617, 0.03999999910593033]","[0.0, 0.0, -0.564569399435659]",0.9857205658670964,-10.285881756455906,"(0.0, 0.0, 0.0, 0.0, 0.0, 0.0)",1.7621005438122825,-0.5125790520819234,-10.331289159919107,"(0.0, 0.0, 0.0, 0.0, 0.0, 0.0)",0.22832149176550065,-0.9865734224446535,10.308624598524094,"(0.0, 0.0, 0.0, 0.0, 0.0, 0.0)",-1.766891708603882,0.508461165120635,10.441099873165749,"(0.0, 0.0, 0.0, 0.0, 0.0, 0.0)",-0.22973068702752517,False,,,,,False,,,,
38,Close,,,"(0.010001648057231211, 0.16002636889308344, 0.03133184175509247)","(-0.0005384699893107284, 3.3654401557527444e-05, -9.06094284338731e-09)",,"[-0.026750000193715096, 0.05299999937415123, 0.03999999910593033]","[0.0, -0.0, 0.9857205423734198]","[-0.08677425980567932, 0.09276290237903595, 0.03999999910593033]","[0.0, -0.0, 0.47314147483112123]","[0.026750000193715096, 0.05299999937415123, 0.03999999910593033]","[0.0, 0.0, -0.9865734261287252]","[0.08680814504623413, 0.09271169453859329, 0.03999999910593033]","[0.0, 0.0, -0.4781122693565934]",0.9471485092803869,-9.257293580810316,"(0.0, 0.0, 0.0, 0.0, 0.0, 0.0)",1.587086438141582,-0.5513213633331018,-9.29815470028281,"(0.0, 0.0, 0.0, 0.0, 0.0, 0.0)",0.206306403170868,-0.9479160802001881,9.277762138671687,"(0.0, 0.0, 0.0, 0.0, 0.0, 0.0)",-1.5914107042435905,0.5476152664096928,9.396984309373877,"(0.0, 0.0, 0.0, 0.0, 0.0, 0.0)",-0.2075852193448244,False,,,,,False,,,,
39,Close,,,"(0.01000181260787789, 0.16002900170117218, 0.03350567876675359)","(-0.00059226700223067, 3.7016717206835695e-05, -1.0961890388082131e-08)",,"[-0.026750000193715096, 0.05299999937415123, 0.03999999910593033]","[0.0, -0.0, 0.9471486716739237]","[-0.08519625663757324, 0.09504801034927368, 0.03999999910593033]","[0.0, -0.0, 0.39582717163487297]","[0.026750000193715096, 0.05299999937415123, 0.03999999910593033]","[0.0, 0.0, -0.9479160840165974]","[0.08522851020097733, 0.09500313550233841, 0.03999999910593033]","[0.0, 0.0, -0.4003008647547732]",0.9124336583523481,-8.331564222729286,"(0.0, 0.0, 0.0, 0.0, 0.0, 0.0)",1.4293465062267445,-0.5861894225076075,-8.368334201881392,"(0.0, 0.0, 0.0, 0.0, 0.0, 0.0)",0.18633757536892917,-0.9131244721801693,8.349985924804516,"(0.0, 0.0, 0.0, 0.0, 0.0, 0.0)",-1.433248242084051,0.5828539364930729,8.45728082001123,"(0.0, 0.0, 0.0, 0.0, 0.0, 0.0)",-0.18749704763631705,False,,,,,False,,,,
40,Close,,,"(0.010001977116791199, 0.1600316338415276, 0.035505353338314005)","(-0.0006460549330047555, 4.037846511369274e-05, -1.3043353742532214e-08)",,"[-0.026750000193715096, 0.05299999937415123, 0.03999999910593033]","[0.0, -0.0, 0.9124336635104583]","[-0.08370164036750793, 0.0970512256026268, 0.03999999910593033]","[0.0, -0.0, 0.3262442150321584]","[0.026750000193715096, 0.05299999937415123, 0.03999999910593033]","[0.0, 0.0, -0.9131245532476111]","[0.08373206108808517, 0.09701187163591385, 0.03999999910593033]","[0.0, 0.0, -0.3302705841133475]",0.8811902925171133,-7.498407800456356,"(0.0, 0.0, 0.0, 0.0, 0.0, 0.0)",1.2871965063691413,-0.6175706567763247,-7.531496224492115,"(0.0, 0.0, 0.0, 0.0, 0.0, 0.0)",0.16823988009592084,-0.8818120249621524,7.514987332324067,"(0.0, 0.0, 0.0, 0.0, 0.0, 0.0)",-1.2907160846573733,0.6145687204653795,7.61154815335357,"(0.0, 0.0, 0.0, 0.0, 0.0, 0.0)",-0.16929032064296096,False,,,,,False,,,,
41,Close,,,"(0.010002141585127773, 0.16003426533265583, 0.03733092357160428)","(-0.0006998337831870475, 4.3739645365482716e-05, -1.5305241372964883e-08)",,"[-0.026750000193715096, 0.05299999937415123, 0.03999999910593033]","[0.0, -0.0, 0.8811903688816151]","[-0.08229776471853256, 0.09880879521369934, 0.03999999910593033]","[0.0, -0.0, 0.2636196251065186]","[0.026750000193715096, 0.05299999937415123, 0.03999999910593033]","[0.0, 0.0, -0.8818121535754343]","[0.08232623338699341, 0.098774254322052, 0.03999999910593033]","[0.0, 0.0, -0.26724331826119446]",0.853071263265402,-6.7485670204107215,"(0.0, 0.0, 0.0, 0.0, 0.0, 0.0)",1.1591124175888132,-0.6458137504217961,-6.77834247491313,"(0.0, 0.0, 0.0, 0.0, 0.0, 0.0)",0.1518500972569631,-0.8536308224659371,6.763488599091658,"(0.0, 0.0, 0.0, 0.0, 0.0, 0.0)",-1.1622865309865396,0.643112008739745,6.850389185847702,"(0.0, 0.0, 0.0, 0.0, 0.0, 0.0)",-0.15280109527428076,False,,,,,False,,,,
42,Close,,,"(0.010002306014043007, 0.16003689619304312, 0.038982445123681576)","(-0.0007536035543313348, 4.7100258049582536e-05, -1.7747461781428295e-08)",,"[-0.026750000193715096, 0.05299999937415123, 0.03999999910593033]","[0.0, -0.0, 0.8530713239495782]","[-0.08098787814378738, 0.10035242885351181, 0.03999999910593033]","[0.0, -0.0, 0.2072574956851119]","[0.026750000193715096, 0.05299999937415123, 0.03999999910593033]","[0.0, 0.0, -0.8536307856313979]","[0.08101436495780945, 0.10032207518815994, 0.03999999910593033]","[0.0, 0.0, -0.21051882644475053]",0.8277641369388617,-6.073710318369648,"(0.0, 0.0, 0.0, 0.0, 0.0, 0.0)",1.043715976216214,-0.6712325191394197,-6.100504492229669,"(0.0, 0.0, 0.0, 0.0, 0.0, 0.0)",0.1370167890019201,-0.8282677402193435,6.0871397391824935,"(0.0, 0.0, 0.0, 0.0, 0.0, 0.0)",-1.0465779375227178,0.6688009525283538,6.165346509266115,"(0.0, 0.0, 0.0, 0.0, 0.0, 0.0)",-0.1378772244212715,False,,,,,False,,,,
43,Close,,,"(0.010002470404691093, 0.16003952644115657, 0.04045997120998789)","(-0.0008073642479911328, 5.0460303253361964e-05, -2.0369923505779015e-08)",,"[-0.026750000193715096, 0.05299999937415123, 0.03999999910593033]","[0.0, -0.0, 0.8277641182932235]","[-0.07977228611707687, 0.10170972347259521, 0.03999999910593033]","[0.0, -0.0, 0.1565316389415725]","[0.026750000193715096, 0.05299999937415123, 0.03999999910593033]","[0.0, 0.0, -0.8282677342123946]","[0.07979680597782135, 0.10168302059173584, 0.03999999910593033]","[0.0, 0.0, -0.1594667900835625]",0.8049877232449756,-5.4663392865326825,"(0.0, 0.0, 0.0, 0.0, 0.0, 0.0)",0.9397613626777375,-0.6941093969081942,-5.49045066450586,"(0.0, 0.0, 0.0, 0.0, 0.0, 0.0)",0.12359998406321729,-0.8054409661974091,5.478425765264244,"(0.0, 0.0, 0.0, 0.0, 0.0, 0.0)",-0.9423413878167864,0.6919209877745929,5.54880845909737,"(0.0, 0.0, 0.0, 0.0, 0.0, 0.0)",-0.12437805104754245,False,,,,,False,,,,
44,Close,,,"(0.010002634758225062, 0.1600421560954447, 0.041763552607370504)","(-0.000861115865719684, 5.381978106418352e-05, -2.3172535119669436e-08)",,"[-0.026750000193715096, 0.05299999937415123, 0.03999999910593033]","[0.0, -0.0, 0.8049877164750058]","[-0.07864919304847717, 0.10290464758872986, 0.03999999910593033]","[0.0, -0.0, 0.11087832859978779]","[0.026750000193715096, 0.05299999937415123, 0.03999999910593033]","[0.0, 0.0, -0.805440964305088]","[0.07867180556058884, 0.10288111865520477, 0.03999999910593033]","[0.0, 0.0, -0.11351997099607207]",0.784488950920478,-4.919705357879415,"(0.0, 0.0, 0.0, 0.0, 0.0, 0.0)",0.8461229797239068,-0.7146985741739192,-4.941402543774016,"(0.0, 0.0, 0.0, 0.0, 0.0, 0.0)",0.11147072977230046,-0.7848968695776682,4.93058318873782,"(0.0, 0.0, 0.0, 0.0, 0.0, 0.0)",-0.8484484528940599,0.7127290066915236,4.993924540063379,"(0.0, 0.0, 0.0, 0.0, 0.0, 0.0)",-0.1121739668696123,False,,,,,False,,,,
45,Close,,,"(0.010002799075796832, 0.16004478517433812, 0.04289323765696492)","(-0.0009148584090699577, 5.7178691569402595e-05, -2.615520523253533e-08)",,"[-0.026750000193715096, 0.05299999937415123, 0.03999999910593033]","[0.0, -0.0, 0.7844889896573499]","[-0.07761538028717041, 0.10395795851945877, 0.03999999910593033]","[0.0, -0.0, 0.06979037514545033]","[0.026750000193715096, 0.05299999937415123, 0.03999999910593033]","[0.0, 0.0, -0.7848969068252226]","[0.07763615995645523, 0.10393720120191574, 0.03999999910593033]","[0.0, 0.0, -0.07216786709232846]",0.7660400558284302,-4.427734822091471,"(0.0, 0.0, 0.0, 0.0, 0.0, 0.0)",0.7617842585328375,-0.7332288222135146,-4.44725952950288,"(0.0, 0.0, 0.0, 0.0, 0.0, 0.0)",0.10051055612556806,-0.7664071826199014,4.437524869864038,"(0.0, 0.0, 0.0, 0.0, 0.0, 0.0)",-0.7638799793048979,0.7314562121459494,4.494529309062177,"(0.0, 0.0, 0.0, 0.0, 0.0, 0.0)",-0.10114588070786824,False,,,,,False,,,,
46,Close,,,"(0.010002963358557236, 0.16004741369625017, 0.04384907226694074)","(-0.0009685918795946493, 6.053703485636736e-05, -2.9317842489583264e-08)",,"[-0.026750000193715096, 0.05299999937415123, 0.03999999910593033]","[0.0, -0.0, 0.7660400058439011]","[-0.07666666060686111, 0.10488764196634293, 0.03999999910593033]","[0.0, -0.0, 0.0328112365488731]","[0.026750000193715096, 0.05299999937415123, 0.03999999910593033]","[0.0, 0.0, -0.7664072421942376]","[0.07668570429086685, 0.1048693135380745, 0.03999999910593033]","[0.0, 0.0, -0.03495097036229706]",0.7494360502455871,-3.984961339882325,"(0.0, 0.0, 0.0, 0.0, 0.0, 0.0)",0.6858274268188955,-0.7499060350622873,-4.002531083705426,"(0.0, 0.0, 0.0, 0.0, 0.0, 0.0)",0.09061088591719418,-0.7497664643579113,3.9937723828776335,"(0.0, 0.0, 0.0, 0.0, 0.0, 0.0)",-0.6877158393779155,0.7483106866034595,4.045073869802414,"(0.0, 0.0, 0.0, 0.0, 0.0, 0.0)",-0.09118463108881669,False,,,,,False,,,,
47,Close,,,"(0.010003127607656072, 0.16005004167957756, 0.04463109991511072)","(-0.0010223162788461832, 6.389481101241881e-05, -3.266035557177819e-08)",,"[-0.026750000193715096, 0.05299999937415123, 0.03999999910593033]","[0.0, -0.0, 0.7494360616149593]","[-0.07579827308654785, 0.1057092696428299, 0.03999999910593033]","[0.0, 0.0, -0.00046998485639781964]","[0.026750000193715096, 0.05299999937415123, 0.03999999910593033]","[0.0, 0.0, -0.7497665229086657]","[0.07581568509340286, 0.10569305717945099, 0.03999999910593033]","[0.0, 0.0, -0.0014557777936095985]",0.7344924452210284,-3.5864652058940925,"(0.0, 0.0, 0.0, 0.0, 0.0, 0.0)",0.6173964503690262,-0.7649166300024903,-3.602542785648727,"(0.0, 0.0, 0.0, 0.0, 0.0, 0.0)",0.08164469448201127,-0.7347898179221202,3.594395144589871,"(0.0, 0.0, 0.0, 0.0, 0.0, 0.0)",-0.61909767957405,0.7634808239898891,3.6408329727431203,"(0.0, 0.0, 0.0, 0.0, 0.0, 0.0)",-0.08216247127692902,False,,,,,False,,,,
48,Close,,,"(0.010003291824242136, 0.16005266914270105, 0.04523936165140331)","(-0.0010760316083767074, 6.725202012489063e-05, -3.618265319583079e-08)",,"[-0.026750000193715096, 0.05299999937415123, 0.03999999910593033]","[0.0, -0.0, 0.7344924171356654]","[-0.07500515878200531, 0.10643631219863892, 0.03999999910593033]","[0.0, 0.0, -0.03042418292779103]","[0.026750000193715096, 0.05299999937415123, 0.03999999910593033]","[0.0, 0.0, -0.7347898072320369]","[0.07502105087041855, 0.10642196238040924, 0.03999999910593033]","[0.0, -0.0, 0.028691003185096618]",0.7210432006989256,-3.227818685304683,"(0.0, 0.0, 0.0, 0.0, 0.0, 0.0)",0.5558325671900768,-0.77842604750784,-3.2422602012839143,"(0.0, 0.0, 0.0, 0.0, 0.0, 0.0)",0.07360992294062317,-0.7213108361299082,3.234955630130884,"(0.0, 0.0, 0.0, 0.0, 0.0, 0.0)",-0.5573653507703412,0.7771338289584356,3.2767211924511668,"(0.0, 0.0, 0.0, 0.0, 0.0, 0.0)",-0.07407739542501454,False,,,,,False,,,,
49,Close,,,"(0.010003456009463264, 0.16005529610398603, 0.04567389610019914)","(-0.0011297378697381003, 7.060866228110946e-05, -3.988464411418517e-08)",,"[-0.026750000193715096, 0.05299999937415123, 0.03999999910593033]","[0.0, -0.0, 0.7210432248946826]","[-0.07428213953971863, 0.10708045959472656, 0.03999999910593033]","[0.0, 0.0, -0.05738284539856889]","[0.026750000193715096, 0.05299999937415123, 0.03999999910593033]","[0.0, 0.0, -0.7213108742429458]","[0.07429660856723785, 0.10706773400306702, 0.03999999910593033]","[0.0, -0.0, 0.0558229905847104]",0.708938880629033,-2.905036816774215,"(0.0, 0.0, 0.0, 0.0, 0.0, 0.0)",0.5003668258645501,-0.7905844163893876,-2.9180085315714246,"(0.0, 0.0, 0.0, 0.0, 0.0, 0.0)",0.06632913423961855,-0.7091797525169173,2.911460067117798,"(0.0, 0.0, 0.0, 0.0, 0.0, 0.0)",-0.5017475327577147,0.7894214258858812,2.9490232625869344,"(0.0, 0.0, 0.0, 0.0, 0.0, 0.0)",-0.06675089596581112,False,,,,,False,,,,
50,Close,,,"(0.010001644182078712, 0.16005595153396976, 0.045940321410535084)","(-0.0011271805217326655, 1.767785898679914e-05, -1.508889111938428e-08)",,"[-0.026750000193715096, 0.05299999937415123, 0.03999999910593033]","[0.0, -0.0, 0.7089389671526269]","[-0.07362406700849533, 0.10765182226896286, 0.03999999910593033]","[0.0, 0.0, -0.08164554069303018]","[0.026750000193715096, 0.05299999937415123, 0.03999999910593033]","[0.0, 0.0, -0.7091797033714331]","[0.0736372321844101, 0.10764053463935852, 0.03999999910593033]","[0.0, -0.0, 0.08024167743029369]",0.6980449925661297,-2.6145331350967917,"(0.0, 0.0, 0.0, 0.0, 0.0, 0.0)",0.4504252929298086,-0.8015268519725993,-2.6261845399708146,"(0.0, 0.0, 0.0, 0.0, 0.0, 0.0)",0.059761147909024356,-0.6982617772652256,2.6203140604060167,"(0.0, 0.0, 0.0, 0.0, 0.0, 0.0)",-0.4516689022418484,0.8004801661036254,2.6540976522586175,"(0.0, 0.0, 0.0, 0.0, 0.0, 0.0)",-0.06014157277442886,False,,,,,False,,,,
51,Close,,,"(0.009998458164918766, 0.16005543218265145, 0.046184544665354044)","(-0.001116587313714928, -4.731063982249702e-05, 3.3486629919706074e-09)",,"[-0.026750000193715096, 0.05299999937415123, 0.03999999910593033]","[0.0, -0.0, 0.6980450466292163]","[-0.07302592694759369, 0.10815921425819397, 0.03999999910593033]","[0.0, 0.0, -0.1034818592301779]","[0.026750000193715096, 0.05299999937415123, 0.03999999910593033]","[0.0, 0.0, -0.6982617371246688]","[0.07303788512945175, 0.10814917832612991, 0.03999999910593033]","[0.0, -0.0, 0.10221840210156648]",0.6882404933095168,-2.3530798215871136,"(0.0, 0.0, 0.0, 0.0, 0.0, 0.0)",0.40545980991383274,-0.8113749570468809,-2.3635452178275753,"(0.0, 0.0, 0.0, 0.0, 0.0, 0.0)",0.0538375991228723,-0.688435599538703,2.358282654365416,"(0.0, 0.0, 0.0, 0.0, 0.0, 0.0)",-0.4065798463491374,0.810432944800545,2.3886668872606847,"(0.0, 0.0, 0.0, 0.0, 0.0, 0.0)",-0.0541806611811555,False,,,,,False,,,,
52,Close,,,"(0.0099979269032565, 0.16005188637635104, 0.04640949954916324)","(-0.0010442772263960227, -5.814874739306873e-05, 7.787963860925158e-09)",,"[-0.026750000193715096, 0.05299999937415123, 0.03999999910593033]","[0.0, -0.0, 0.688240548987758]","[-0.07248289883136749, 0.10861026495695114, 0.03999999910593033]","[0.0, 0.0, -0.12313446206189271]","[0.026750000193715096, 0.05299999937415123, 0.03999999910593033]","[0.0, 0.0, -0.6884356086136862]","[0.07249374687671661, 0.10860133916139603, 0.03999999910593033]","[0.0, -0.0, 0.1219973374555316]",0.679416393078237,-2.117784055507141,"(0.0, 0.0, 0.0, 0.0, 0.0, 0.0)",0.3649762140031281,-0.8202374613421928,-2.12700103087486,"(0.0, 0.0, 0.0, 0.0, 0.0, 0.0)",0.04851286211734207,-0.6795919883598663,2.1224666829208143,"(0.0, 0.0, 0.0, 0.0, 0.0, 0.0)",-0.36598488497268467,0.8193896503204905,2.149609324786922,"(0.0, 0.0, 0.0, 0.0, 0.0, 0.0)",-0.04882227338805697,False,,,,,False,,,,
53,Close,,,"(0.009997966950406065, 0.16004795201914346, 0.046616050094935475)","(-0.0009640430328522325, -5.7324486097668704e-05, 4.2980615420070005e-09)",,"[-0.026750000193715096, 0.05299999937415123, 0.03999999910593033]","[0.0, -0.0, 0.6794163791618646]","[-0.07199041545391083, 0.10901165008544922, 0.03999999910593033]","[0.0, 0.0, -0.1408210743259801]","[0.026750000193715096, 0.05299999937415123, 0.03999999910593033]","[0.0, 0.0, -0.6795920181483843]","[0.07200025022029877, 0.1090037003159523, 0.03999999910593033]","[0.0, -0.0, 0.13979766167419433]",0.6714747537704133,-1.9059934338776885,"(0.0, 0.0, 0.0, 0.0, 0.0, 0.0)",0.3285291326313333,-0.8282143561304102,-1.914454749172182,"(0.0, 0.0, 0.0, 0.0, 0.0, 0.0)",0.043663125146434535,-0.6716327895238797,1.9102077206367922,"(0.0, 0.0, 0.0, 0.0, 0.0, 0.0)",-0.3294374536237565,0.8274513303019508,1.934803195550486,"(0.0, 0.0, 0.0, 0.0, 0.0, 0.0)",-0.043941831288343336,False,,,,,False,,,,
54,Close,,,"(0.009998107600018924, 0.16004411888380865, 0.0468059782297436)","(-0.0008858309445970004, -5.447527859797503e-05, 4.128601528647624e-08)",,"[-0.026750000193715096, 0.05299999937415123, 0.03999999910593033]","[0.0, -0.0, 0.6714747449539094]","[-0.07154417037963867, 0.10936915874481201, 0.03999999910593033]","[0.0, 0.0, -0.15673960659097733]","[0.026750000193715096, 0.05299999937415123, 0.03999999910593033]","[0.0, 0.0, -0.6716327690441329]","[0.07155308127403259, 0.10936208069324493, 0.03999999910593033]","[0.0, -0.0, 0.15581855230220754]",0.664327278393372,-1.7153940904899205,"(0.0, 0.0, 0.0, 0.0, 0.0, 0.0)",0.2957170811345372,-0.8353934979980445,-1.7229940482322428,"(0.0, 0.0, 0.0, 0.0, 0.0, 0.0)",0.03934112702889199,-0.6644695105714917,1.7191869485731137,"(0.0, 0.0, 0.0, 0.0, 0.0, 0.0)",-0.2965349881453131,0.8347067784412298,1.7413075534269409,"(0.0, 0.0, 0.0, 0.0, 0.0, 0.0)",-0.039592428071821256,False,,,,,False,,,,
55,Close,,,"(0.009998248644105466, 0.16004048002584464, 0.0469807018618576)","(-0.0008115684428503489, -5.1596750749095254e-05, 7.881188886077776e-08)",,"[-0.026750000193715096, 0.05299999937415123, 0.03999999910593033]","[0.0, -0.0, 0.6643273336690038]","[-0.07114013284444809, 0.10968788713216782, 0.03999999910593033]","[0.0, 0.0, -0.17106622141763456]","[0.026750000193715096, 0.05299999937415123, 0.03999999910593033]","[0.0, 0.0, -0.6644694779113771]","[0.07114819437265396, 0.10968156903982162, 0.03999999910593033]","[0.0, -0.0, 0.17023725548976373]",0.6578945505540348,-1.543854681440929,"(0.0, 0.0, 0.0, 0.0, 0.0, 0.0)",0.2661784897251144,-0.8418546682622772,-1.5506808634158242,"(0.0, 0.0, 0.0, 0.0, 0.0, 0.0)",0.03542959308904228,-0.6580225595143425,1.547268253715802,"(0.0, 0.0, 0.0, 0.0, 0.0, 0.0)",-0.26691494494593054,0.8412366239853526,1.567162930589489,"(0.0, 0.0, 0.0, 0.0, 0.0, 0.0)",-0.035656056287006674,False,,,,,False,,,,
56,Close,,,"(0.009998390752654573, 0.16003702894197389, 0.04714144752999396)","(-0.0007411380797103218, -4.869650481896534e-05, 1.1687517768299383e-07)",,"[-0.026750000193715096, 0.05299999937415123, 0.03999999910593033]","[0.0, -0.0, 0.6578945475257985]","[-0.07077455520629883, 0.1099722608923912, 0.03999999910593033]","[0.0, 0.0, -0.18396012465064338]","[0.026750000193715096, 0.05299999937415123, 0.03999999910593033]","[0.0, 0.0, -0.6580225896942233]","[0.07078184932470322, 0.10996662080287933, 0.03999999910593033]","[0.0, -0.0, 0.18321406389742323]",0.6521050954986313,-1.3894692132968354,"(0.0, 0.0, 0.0, 0.0, 0.0, 0.0)",0.23958744527110798,-0.8476696697618468,-1.395600359896693,"(0.0, 0.0, 0.0, 0.0, 0.0, 0.0)",0.031904902566438624,-0.6522203035629083,1.392541428344221,"(0.0, 0.0, 0.0, 0.0, 0.0, 0.0)",-0.24025052935853647,0.8471134329078756,1.410434141405507,"(0.0, 0.0, 0.0, 0.0, 0.0, 0.0)",-0.032108956045352514,False,,,,,False,,,,
57,Close,,,"(0.009998534235924597, 0.16003375955333046, 0.04728933347451534)","(-0.0006744157946989166, -4.576820860538318e-05, 1.554405829918684e-07)",,"[-0.026750000193715096, 0.05299999937415123, 0.03999999910593033]","[0.0, -0.0, 0.6521051450040646]","[-0.07044398784637451, 0.11022617667913437, 0.03999999910593033]","[0.0, 0.0, -0.19556454293122102]","[0.026750000193715096, 0.05299999937415123, 0.03999999910593033]","[0.0, 0.0, -0.6522203497730787]","[0.07045057415962219, 0.11022114753723145, 0.03999999910593033]","[0.0, -0.0, 0.19489313608724637]",0.6468945859487681,-1.250522291967151,"(0.0, 0.0, 0.0, 0.0, 0.0, 0.0)",0.2156503992603495,-0.8529031244958994,-1.2560291361726517,"(0.0, 0.0, 0.0, 0.0, 0.0, 0.0)",0.02872919688306315,-0.6469982732066174,1.253287285509799,"(0.0, 0.0, 0.0, 0.0, 0.0, 0.0)",-0.2162473971085442,0.8524025140258721,1.2693794683191757,"(0.0, 0.0, 0.0, 0.0, 0.0, 0.0)",-0.02891303657535659,False,,,,,False,,,,
58,Close,,,"(0.009998679410322496, 0.16003066597344334, 0.0474253884764576)","(-0.0006112814540129935, -4.2805404436077314e-05, 1.9447426774393396e-07)",,"[-0.026750000193715096, 0.05299999937415123, 0.03999999910593033]","[0.0, -0.0, 0.6468945636476681]","[-0.07014521211385727, 0.11045306921005249, 0.03999999910593033]","[0.0, 0.0, -0.20600854729134555]","[0.026750000193715096, 0.05299999937415123, 0.03999999910593033]","[0.0, 0.0, -0.6469982503054421]","[0.07015117257833481, 0.11044856905937195, 0.03999999910593033]","[0.0, -0.0, 0.20540423443750838]",0.6422051273538913,-1.125470062770436,"(0.0, 0.0, 0.0, 0.0, 0.0, 0.0)",0.1941029233168818,-0.8576131917611358,-1.1304161436567226,"(0.0, 0.0, 0.0, 0.0, 0.0, 0.0)",0.025868240883426936,-0.6422984458859556,1.1279585569588184,"(0.0, 0.0, 0.0, 0.0, 0.0, 0.0)",-0.19464040126091972,0.8571626447690798,1.1424313783698345,"(0.0, 0.0, 0.0, 0.0, 0.0, 0.0)",-0.026033851694478666,False,,,,,False,,,,
59,Move,,,"(0.009998826598722164, 0.16002774252192944, 0.04755055901421763)","(-0.0005516191299448554, -3.980150267197137e-05, 2.339437659612592e-07)","[0.0, 0.0, 0.0]","[-0.026750000193715096, 0.05299999937415123, 0.03999999910593033]","[0.0, -0.0, 0.6422051137296667]","[-0.0698753148317337, 0.11065594106912613, 0.03999999910593033]","[0.0, 0.0, -0.2154080556264429]","[0.026750000193715096, 0.05299999937415123, 0.03999999910593033]","[0.0, 0.0, -0.6422983956794274]","[0.06988069415092468, 0.1106519103050232, 0.03999999910593033]","[0.0, -0.0, 0.21486417441436167]",0.6379846146185022,-1.0129230564933929,"(0.0, 0.0, 0.0, 0.0, 0.0, 0.0)",0.17470684718642912,-0.8618522144704561,-1.0173654502368856,"(0.0, 0.0, 0.0, 0.0, 0.0, 0.0)",0.023291096758263134,-0.6380686012973601,1.0151627012629356,"(0.0, 0.0, 0.0, 0.0, 0.0, 0.0)",-0.1751907229705418,0.8614467243673204,1.02817910357775,"(0.0, 0.0, 0.0, 0.0, 0.0, 0.0)",-0.023440272040621463,False,,,,,True,"(0.04276013174954747, 0.17974174897294792, 0.02399995643463635)","(-0.9999999990838299, -1.9447426661030803e-07, -4.2805404423670755e-05)",0.0013234533115717422,0.0
60,Move,,,"(0.008529162475457952, 0.15974954236529276, 0.0477048393377401)","(0.0013879222534856654, 0.003092032969080396, 0.019607357714227783)","[-0.001469664123264212, -0.00027820015663668207, 0.00015428032352246546]","[-0.026750000193715096, 0.05299999937415123, 0.03999999910593033]","[0.0, -0.0, 0.6379846501970732]","[-0.06963159143924713, 0.1108374372124672, 0.03999999910593033]","[0.0, 0.0, -0.22386762157269943]","[0.026750000193715096, 0.05299999937415123, 0.03999999910593033]","[0.0, 0.0, -0.638068602671057]","[0.06963644921779633, 0.11083383113145828, 0.03999999910593033]","[0.0, -0.0, 0.22337816170537766]",0.6141590059460926,-5.718146081378292,"(0.0, 0.0, 0.0, 0.0, 0.0, 0.0)",-6.715100343954979,-0.8614283121995241,0.10173654502368734,"(0.0, 0.0, 0.0, 0.0, 0.0, 0.0)",-0.37236374372155323,-0.6186460352886096,4.661415842100123,"(0.0, 0.0, 0.0, 0.0, 0.0, 0.0)",6.428194854706253,0.8610182254653614,-0.10283973647015276,"(0.0, 0.0, 0.0, 0.0, 0.0, 0.0)",0.9829946930619015,False,,,,,True,"(0.041928616181162004, 0.17969877893574898, 0.023999959438538117)","(-0.9999999992078928, -2.3394376620903917e-07, -3.980150265941498e-05)",0.0004918567139684023,10.112171877912418
61,Move,,,"(0.006723996611826882, 0.15936533702962205, 0.047765255621499005)","(6.714398616458164e-05, 0.002674296973039989, 0.04262647064426384)","[-0.0032748299868952824, -0.0006624054923073941, 0.00021469660728137135]","[-0.026750000193715096, 0.05299999937415123, 0.03999999910593033]","[0.0, -0.0, 0.6141590305095613]","[-0.06824154406785965, 0.11184260249137878, 0.03999999910593033]","[0.0, 0.0, -0.24726930604170874]","[0.026750000193715096, 0.05299999937415123, 0.03999999910593033]","[0.0, 0.0, -0.618646044105948]","[0.06850515305995941, 0.1116558387875557, 0.03999999910593033]","[0.0, -0.0, 0.24237220045044397]",0.5923752537221402,-5.228100533748594,"(0.0, 0.0, 0.0, 0.0, 0.0, 0.0)",0.6968351830029317,-0.8614707024266173,-0.010173654502368734,"(0.0, 0.0, 0.0, 0.0, 0.0, 0.0)",0.0386094337653134,-0.6008326176855909,4.2752202247244835,"(0.0, 0.0, 0.0, 0.0, 0.0, 0.0)",-0.2843818339581164,0.8610616731657038,0.010427448082156607,"(0.0, 0.0, 0.0, 0.0, 0.0, 0.0)",0.12162564932151312,False,,,,,True,"(0.03949436769622908, 0.17998210851349686, 0.023999959438538117)","(-0.9999999992078928, -2.3394376620903917e-07, -3.980150265941498e-05)",-6.347605402235445e-06,0.5640853154323047
62,Move,,,"(0.004916021046565853, 0.1589665718711254, 0.047720958898252924)","(-0.002763020338407607, 0.0006108079306357897, 0.0667691707902313)","[-0.005082805552156311, -0.0010611706508040497, 0.00017039988403529105]","[-0.026750000193715096, 0.05299999937415123, 0.03999999910593033]","[0.0, -0.0, 0.5923752994005711]","[-0.0669499859213829, 0.1127324104309082, 0.03999999910593033]","[0.0, 0.0, -0.2690954538189607]","[0.026750000193715096, 0.05299999937415123, 0.03999999910593033]","[0.0, 0.0, -0.6008327423896315]","[0.06745371967554092, 0.11239029467105865, 0.03999999910593033]","[0.0, -0.0, 0.2602290700881579]",0.5712150347036751,-5.078452564431617,"(0.0, 0.0, 0.0, 0.0, 0.0, 0.0)",0.2157952503283588,-0.861466463403908,0.0010173654502363396,"(0.0, 0.0, 0.0, 0.0, 0.0, 0.0)",0.016130538686302622,-0.5829836595254625,4.283749958430823,"(0.0, 0.0, 0.0, 0.0, 0.0, 0.0)",0.03654686188668907,0.8610568520052067,-0.0011570785193177847,"(0.0, 0.0, 0.0, 0.0, 0.0, 0.0)",0.013369392840733865,False,,,,,True,"(0.03722753437306846, 0.1801876577450428, 0.023999959438538117)","(-0.9999999992078928, -2.3394376620903917e-07, -3.980150265941498e-05)",-3.03090440028451e-06,0.20086448022229916
63,Move,,,"(0.003038586218639499, 0.15852968790700625, 0.047692659289474)","(-0.0025911153149836925, -0.0037098076030427207, 0.0892309075356073)","[-0.006960240380082665, -0.0014980546149231944, 0.00014210027525636548]","[-0.026750000193715096, 0.05299999937415123, 0.03999999910593033]","[0.0, -0.0, 0.5712149816841382]","[-0.06567712873220444, 0.11356961727142334, 0.03999999910593033]","[0.0, 0.0, -0.2902514434627483]","[0.026750000193715096, 0.05299999937415123, 0.03999999910593033]","[0.0, 0.0, -0.5829835823925363]","[0.06638723611831665, 0.11310731619596481, 0.03999999910593033]","[0.0, -0.0, 0.27807322292986936]",0.5508803967687295,-4.88031310438695,"(0.0, 0.0, 0.0, 0.0, 0.0, 0.0)",0.28503070876654335,-0.8614668873061792,-0.0001017365450710142,"(0.0, 0.0, 0.0, 0.0, 0.0, 0.0)",0.019917833408555515,-0.5651641840502668,4.2766741140469655,"(0.0, 0.0, 0.0, 0.0, 0.0, 0.0)",0.11956537689041521,0.8610565492790112,-7.265428690530302e-05,"(0.0, 0.0, 0.0, 0.0, 0.0, 0.0)",0.07009334439305036,False,,,,,True,"(0.03495614298930945, 0.18035455290140667, 0.023999959438538117)","(-0.9999999992078928, -2.3394376620903917e-07, -3.980150265941498e-05)",-3.483078081115776e-06,1.0531113700940868
64,Move,,,"(0.0020261779141126004, 0.159147963083264, 0.04760521211159295)","(0.002583370481578668, -0.003056729446151124, 0.09297246090683914)","[-0.007972648684609564, -0.0008797794386654345, 5.465309737531787e-05]","[-0.026750000193715096, 0.05299999937415123, 0.03999999910593033]","[0.0, -0.0, 0.5508804375563766]","[-0.06443750858306885, 0.11434861272573471, 0.03999999910593033]","[0.0, 0.0, -0.31058647044401844]","[0.026750000193715096, 0.05299999937415123, 0.03999999910593033]","[0.0, 0.0, -0.5651641731913941]","[0.06530991941690445, 0.11380404978990555, 0.03999999910593033]","[0.0, -0.0, 0.2958923811960855]",0.5325313952836437,-4.403760356420582,"(0.0, 0.0, 0.0, 0.0, 0.0, 0.0)",-38.47384383842257,-0.8434648155280273,4.320497226756436,"(0.0, 0.0, 0.0, 0.0, 0.0, 0.0)",-19.707773442051234,-0.5485203526437034,3.9945195375752336,"(0.0, 0.0, 0.0, 0.0, 0.0, 0.0)",38.40865227596146,0.8426940994674212,-4.406987954781599,"(0.0, 0.0, 0.0, 0.0, 0.0, 0.0)",20.213574547080277,True,"(-0.030837162206202397, 0.1807147684040986, 0.056003710559052795)","(0.9960147094140643, 0.08911192973728252, 0.0037097990935676286)",0.000295955962769222,310.9113148279181,True,"(0.032686946379462796, 0.18046390406811386, 0.023996289440947206)","(-0.9960147094140644, -0.08911192973728094, -0.0037097990935709194)",-4.010570765232737e-05,237.4598751600436
65,Move,"(-0.0031000000000000003, 0.0, -0.0002)","(0.0, 0.02079385270826044, 0.0)","(0.0011700253639096666, 0.15976182515520135, 0.04751897038725052)","(0.007930122363363799, -0.00226657279137191, 0.09692309735704685)","[-0.008828801234812498, -0.00026591736672809674, -3.1588626967116173e-05]","[-0.026750000193715096, 0.05299999937415123, 0.03999999910593033]","[0.0, -0.0, 0.5325313658465014]","[-0.06330554187297821, 0.11502977460622787, 0.03999999910593033]","[0.0, 0.0, -0.3109334583254266]","[0.026750000193715096, 0.05299999937415123, 0.03999999910593033]","[0.0, 0.0, -0.548520392495979]","[0.06429261714220047, 0.11443737894296646, 0.03999999910593033]","[0.0, -0.0, 0.2941737789306636]",0.5150286261073844,-4.20066460230223,"(0.0, 0.0, 0.0, 0.0, 0.0, 0.0)",-43.15160519850692,-0.8255232606133882,4.305973179513399,"(0.0, 0.0, 0.0, 0.0, 0.0, 0.0)",-22.03627704391551,-0.5318939745440465,3.990330743917647,"(0.0, 0.0, 0.0, 0.0, 0.0, 0.0)",43.6676935048907,0.8241209847892994,-4.457547522749228,"(0.0, 0.0, 0.0, 0.0, 0.0, 0.0)",23.068483497500033,True,"(-0.02968254207398162, 0.18138834120873254, 0.056003057484645)","(0.9956765214355997, 0.09283814461792712, 0.0030567246857756626)",-0.0019557974209563206,339.7172576639441,True,"(0.03178474084630808, 0.1811477674564546, 0.02399694251535476)","(-0.9956765214355902, -0.0928381446180211, -0.0030567246860136047)",0.00016315936690381586,263.2480870713977
66,Move,"(0.0019667, 0.0, 0.0006)","(0.0, 0.022293090535723578, 0.0)","(0.0013006409073219856, 0.16012350094530106, 0.047494239540317576)","(0.005652735908330103, 0.0009886762948146265, 0.09245290372739766)","[-0.008698185691400179, 9.575842337161689e-05, -5.6319473900057204e-05]","[-0.026750000193715096, 0.05299999937415123, 0.03999999910593033]","[0.0, -0.0, 0.5150286173626178]","[-0.06221430376172066, 0.11566006392240524, 0.03999999910593033]","[0.0, 0.0, -0.3104946497228739]","[0.026750000193715096, 0.05299999937415123, 0.03999999910593033]","[0.0, 0.0, -0.5318939608755999]","[0.06326599419116974, 0.11505305767059326, 0.03999999910593033]","[0.0, -0.0, 0.2922270319249003]",0.5159930183503814,0.23145413831927097,"(0.0, 0.0, 0.0, 0.0, 0.0, 0.0)",5.270629023518199,-0.8273169719166015,-0.430490712771177,"(0.0, 0.0, 0.0, 0.0, 0.0, 0.0)",-0.391557467405997,-0.5345697624615631,-0.6421891002039635,"(0.0, 0.0, 0.0, 0.0, 0.0, 0.0)",-6.214968239709111,0.8259782962570565,0.4457547522617009,"(0.0, 0.0, 0.0, 0.0, 0.0, 0.0)",0.02809671107491373,True,"(-0.02862075758073663, 0.18203687365922727, 0.05600226731562215)","(0.9953040758649819, 0.09677116937979674, 0.0022665708506747376)",-0.003960922893090458,5.310354783411627,True,"(0.03091578949574346, 0.18154523231783662, 0.023997716044379027)","(-0.9953040509812058, -0.09677103449881742, -0.0022831956617496516)",0.00022377337919692118,0.0
67,Move,"(0.0022400000000000002, 0.0, 0.0007199999999999999)","(0.0, 0.021978931270364592, 0.0)","(0.0016385918218375939, 0.16047211685003296, 0.04749743323622461)","(0.0013189951707925007, 0.0008568508932839548, 0.08510979318930609)","[-0.00836023477688457, 0.00044437432810351396, -5.312577799302526e-05]","[-0.026750000193715096, 0.05299999937415123, 0.03999999910593033]","[0.0, -0.0, 0.5159930463155196]","[-0.062274716794490814, 0.11562582850456238, 0.03999999910593033]","[0.0, 0.0, -0.3113239255231001]","[0.026750000193715096, 0.05299999937415123, 0.03999999910593033]","[0.0, 0.0, -0.5345697717796395]","[0.06343190371990204, 0.1149551272392273, 0.03999999910593033]","[0.0, -0.0, 0.2914085209877933]",0.5138939637513701,-0.503773103762706,"(0.0, 0.0, 0.0, 0.0, 0.0, 0.0)",-1.2091341914923974,-0.8271395908281242,0.04257146123455108,"(0.0, 0.0, 0.0, 0.0, 0.0, 0.0)",-0.12571465204701004,-0.5366897323891856,-0.508792782629408,"(0.0, 0.0, 0.0, 0.0, 0.0, 0.0)",0.1426004091477036,0.8257925651102809,-0.044575475226171335,"(0.0, 0.0, 0.0, 0.0, 0.0, 0.0)",-0.03705559149866549,True,"(-0.028626133958736, 0.18197476043718264, 0.05600226731562215)","(0.9953040758649819, 0.09677116937979674, 0.0022665708506747376)",-0.003644422718324257,0.34113227305915556,True,"(0.0311361325084447, 0.18147375684193492, 0.023997716044379027)","(-0.9953040509812058, -0.09677103449881742, -0.0022831956617496516)",0.0002648321865178206,0.0
68,Move,"(0.0026857, 0.0, 0.0008429)","(0.0, 0.018800686702482923, 0.0)","(0.001928732780199731, 0.16052937760763517, 0.04755125013481995)","(-0.001097555813251221, 0.0013176928621982022, 0.08323028997947872)","[-0.008070093818522434, 0.0005016350857057206, 6.911206023169081e-07]","[-0.026750000193715096, 0.05299999937415123, 0.03999999910593033]","[0.0, -0.0, 0.5138939774636955]","[-0.06214318051934242, 0.11570025980472565, 0.03999999910593033]","[0.0, 0.0, -0.3132455956818816]","[0.026750000193715096, 0.05299999937415123, 0.03999999910593033]","[0.0, 0.0, -0.5366897581258356]","[0.06356316059827805, 0.11487722396850586, 0.03999999910593033]","[0.0, -0.0, 0.2891028397847928]",0.5118518231515903,-0.4901137439471564,"(0.0, 0.0, 0.0, 0.0, 0.0, 0.0)",-2.576095549938282,-0.8259100840178456,0.29508163446684765,"(0.0, 0.0, 0.0, 0.0, 0.0, 0.0)",-1.3398135459067644,-0.538677132167096,-0.47697594669850507,"(0.0, 0.0, 0.0, 0.0, 0.0, 0.0)",2.442676008663675,0.8247868164312256,-0.2413796829732478,"(0.0, 0.0, 0.0, 0.0, 0.0, 0.0)",1.1611743511836783,True,"(-0.028367161982910512, 0.18198440667861737, 0.05600226731562215)","(0.9953040758649819, 0.09677116937979674, 0.0022665708506747376)",-0.0033480606314320767,17.98954585898815,True,"(0.03142085077327235, 0.18147014065908268, 0.023997716044379027)","(-0.9953040509812058, -0.09677103449881742, -0.0022831956617496516)",4.030239931281808e-05,12.091413733431553
69,Move,"(0.0039778, 0.0, 0.0009556)","(0.0, 0.018397515645272228, 0.0)","(0.002194304048616495, 0.16057758127245733, 0.04765681844253763)","(-0.0014330585027675805, 0.0018167937875390695, 0.08109354458752033)","[-0.007804522550105669, 0.0005498387505278868, 0.00010625942831999496]","[-0.026750000193715096, 0.05299999937415123, 0.03999999910593033]","[0.0, -0.0, 0.5118518401804991]","[-0.06201506406068802, 0.11577241122722626, 0.03999999910593033]","[0.0, 0.0, -0.3140582400951492]","[0.026750000193715096, 0.05299999937415123, 0.03999999910593033]","[0.0, 0.0, -0.5386771327345337]","[0.0636860653758049, 0.11480394005775452, 0.03999999910593033]","[0.0, -0.0, 0.2861096576320158]",0.5098797852816888,-0.47328908877636894,"(0.0, 0.0, 0.0, 0.0, 0.0, 0.0)",-2.772069448809858,-0.8248234827446534,0.26078430556612825,"(0.0, 0.0, 0.0, 0.0, 0.0, 0.0)",-1.352797106632091,-0.5407648708393109,-0.5010572813315657,"(0.0, 0.0, 0.0, 0.0, 0.0, 0.0)",2.1477908548627513,0.8239519073624495,-0.20037817650626177,"(0.0, 0.0, 0.0, 0.0, 0.0, 0.0)",1.0584912386839596,True,"(-0.028185191945022545, 0.18202908432346512, 0.05600226731562215)","(0.9953040758649819, 0.09677116937979674, 0.0022665708506747376)",-0.003187146885897862,19.050579188973757,True,"(0.03174321893925466, 0.18149276430350902, 0.023997716044379027)","(-0.9953040509812058, -0.09677103449881742, -0.0022831956617496516)",4.653876323929792e-05,8.85022252196805
70,Move,"(0.0057182000000000005, 0.0, 0.0012091)","(0.0, 0.021977185941112604, 0.0)","(0.002501149450258264, 0.16061925969306143, 0.047751313640841106)","(-0.0017861366538737874, 0.002262715757033723, 0.07905401674037481)","[-0.0074976771484639, 0.0005915171711319833, 0.00020075462662347276]","[-0.026750000193715096, 0.05299999937415123, 0.03999999910593033]","[0.0, -0.0, 0.5098798416585414]","[-0.061891209334135056, 0.1158418282866478, 0.03999999910593033]","[0.0, 0.0, -0.3149437289454831]","[0.026750000193715096, 0.05299999937415123, 0.03999999910593033]","[0.0, 0.0, -0.5407648856449396]","[0.06381501257419586, 0.11472669243812561, 0.03999999910593033]","[0.0, -0.0, 0.28318703864061345]",0.5076661966630462,-0.531261268474195,"(0.0, 0.0, 0.0, 0.0, 0.0, 0.0)",-2.6207069892894737,-0.8238457832296308,0.23464788360544417,"(0.0, 0.0, 0.0, 0.0, 0.0, 0.0)",-1.2323588021692846,-0.5430685847665302,-0.552891342532622,"(0.0, 0.0, 0.0, 0.0, 0.0, 0.0)",1.8784901640001217,0.8231774332357373,-0.18587379041092122,"(0.0, 0.0, 0.0, 0.0, 0.0, 0.0)",0.9354047812395455,True,"(-0.028002681071206126, 0.18206852608756247, 0.05600226731562215)","(0.9953040758649819, 0.09677116937979674, 0.0022665708506747376)",-0.003044487407128131,17.10318700963318,True,"(0.03206721291483698, 0.18150858954811513, 0.023997716044379027)","(-0.9953040509812058, -0.09677103449881742, -0.0022831956617496516)",7.465822484626299e-05,6.225749557218184
71,Move,"(0.0074769, 0.0, 0.0016922999999999999)","(0.0, 0.028199284724472383, 0.0)","(0.0028493951712821514, 0.16065595482384046, 0.04783593109335837)","(-0.002158179484879702, 0.002697143752576262, 0.07725856770466878)","[-0.0071494314274400134, 0.0006282123019110131, 0.00028537207914073465]","[-0.026750000193715096, 0.05299999937415123, 0.03999999910593033]","[0.0, -0.0, 0.5076662016283663]","[-0.061752013862133026, 0.11591946333646774, 0.03999999910593033]","[0.0, 0.0, -0.31617957585269757]","[0.026750000193715096, 0.05299999937415123, 0.03999999910593033]","[0.0, 0.0, -0.5430686001844554]","[0.06395711749792099, 0.11464114487171173, 0.03999999910593033]","[0.0, -0.0, 0.28010886672510016]",0.5051449249753953,-0.6051052050362161,"(0.0, 0.0, 0.0, 0.0, 0.0, 0.0)",-2.55523783633672,-0.8229010462581048,0.22673687316622115,"(0.0, 0.0, 0.0, 0.0, 0.0, 0.0)",-1.184423388295485,-0.5456744985081922,-0.6254192979988844,"(0.0, 0.0, 0.0, 0.0, 0.0, 0.0)",1.7729526243609175,0.8224257856624551,-0.18039541758774238,"(0.0, 0.0, 0.0, 0.0, 0.0, 0.0)",0.8977983062645065,True,"(-0.02778166617997132, 0.18210422721146383, 0.05600226731562215)","(0.9953040758649819, 0.09677116937979674, 0.0022665708506747376)",-0.002902159106397559,16.353261917972887,True,"(0.03241503239795724, 0.18152044780152116, 0.023997716044379027)","(-0.9953040509812058, -0.09677103449881742, -0.0022831956617496516)",8.636370813399766e-05,4.556711523581349
72,Move,"(0.0093333, 0.0, 0.0025133)","(0.0, 0.03281917125450137, 0.0)","(0.0032334985896608714, 0.16067687278325812, 0.04790492775965035)","(-0.0029058751393293116, 0.002759551773458269, 0.07524108913172556)","[-0.006765328009061293, 0.0006491302613286787, 0.0003543687454327163]","[-0.026750000193715096, 0.05299999937415123, 0.03999999910593033]","[0.0, -0.0, 0.5051449187124466]","[-0.06159326806664467, 0.11600751429796219, 0.03999999910593033]","[0.0, 0.0, -0.31775610582810415]","[0.026750000193715096, 0.05299999937415123, 0.03999999910593033]","[0.0, 0.0, -0.5456744950699971]","[0.06411762535572052, 0.11454397439956665, 0.03999999910593033]","[0.0, -0.0, 0.2767512712910243]",0.5023160996147094,-0.6789180865646435,"(0.0, 0.0, 0.0, 0.0, 0.0, 0.0)",-2.131336067910087,-0.8220751318705158,0.19821945302135946,"(0.0, 0.0, 0.0, 0.0, 0.0, 0.0)",-1.0569051749476153,-0.5485481954082404,-0.6896872560115768,"(0.0, 0.0, 0.0, 0.0, 0.0, 0.0)",1.43234397796414,0.8218335867603599,-0.1421277365028359,"(0.0, 0.0, 0.0, 0.0, 0.0, 0.0)",0.7290978216734145,True,"(-0.027517584835831554, 0.18212627924070057, 0.023997302122606683)","(0.9970134146061445, 0.07718145197270135, -0.002697140482478278)",-0.0028821206117372327,15.916932175291675,True,"(0.03280026612048889, 0.18152880739017502, 0.023997716044379027)","(-0.9953040509812058, -0.09677103449881742, -0.0022831956617496516)",9.855975925993234e-05,4.589543873712772
73,Move,"(0.01272, 0.0, 0.00354)","(0.0, 0.035774013678127776, 0.0)","(0.0036639999804936384, 0.16065782314124114, 0.04793232042798667)","(-0.0029804903798057157, 0.0020753571836003726, 0.07392917362372532)","[-0.006334826618228526, 0.0006300806193116903, 0.0003817614137690342]","[-0.026750000193715096, 0.05299999937415123, 0.03999999910593033]","[0.0, -0.0, 0.5023161382317064]","[-0.06141488999128342, 0.1161058247089386, 0.03999999910593033]","[0.0, 0.0, -0.3197590225611808]","[0.026750000193715096, 0.05299999937415123, 0.03999999910593033]","[0.0, 0.0, -0.5485481815792806]","[0.06429432332515717, 0.11443633586168289, 0.03999999910593033]","[0.0, -0.0, 0.27328537281613524]",0.49917855526449323,-0.7530106440518733,"(0.0, 0.0, 0.0, 0.0, 0.0, 0.0)",-2.005906841190448,-0.8212468120740078,0.19879675116191925,"(0.0, 0.0, 0.0, 0.0, 0.0, 0.0)",-1.0455095294053616,-0.5517124851803706,-0.7594295453112437,"(0.0, 0.0, 0.0, 0.0, 0.0, 0.0)",1.3351391499411847,0.8212703966280088,-0.13516563176426125,"(0.0, 0.0, 0.0, 0.0, 0.0, 0.0)",0.6779017621689681,True,"(-0.027206845921135286, 0.18215619485217638, 0.023997239711416728)","(0.9971669276060886, 0.07516983026436462, -0.0027595482710708968)",-0.002763466698075699,14.334847519331896,True,"(0.033209320397439054, 0.18152931034958758, 0.023997716044379027)","(-0.9953040509812058, -0.09677103449881742, -0.0022831956617496516)",8.707422490719238e-05,5.810448482335294
74,Move,"(0.0160533, 0.0, 0.0046133)","(0.0, 0.03896971153852939, 0.0)","(0.004158829877191339, 0.1606225991691421, 0.04794767232130019)","(-0.002487554619702663, 0.0016653863521877703, 0.0720529875634403)","[-0.005839996721530826, 0.0005948566472126493, 0.0003971133070825583]","[-0.026750000193715096, 0.05299999937415123, 0.03999999910593033]","[0.0, -0.0, 0.4991786243833365]","[-0.061216723173856735, 0.11621427536010742, 0.03999999910593033]","[0.0, 0.0, -0.3220683068055592]","[0.026750000193715096, 0.05299999937415123, 0.03999999910593033]","[0.0, 0.0, -0.5517124769116873]","[0.06448853760957718, 0.11431723088026047, 0.03999999910593033]","[0.0, -0.0, 0.2695579591725311]",0.49538678685540694,-0.9100244181807073,"(0.0, 0.0, 0.0, 0.0, 0.0, 0.0)",-2.1490556664240525,-0.8203849134984834,0.2068556581258589,"(0.0, 0.0, 0.0, 0.0, 0.0, 0.0)",-1.0778618703658387,-0.5554931197645955,-0.9073523002139603,"(0.0, 0.0, 0.0, 0.0, 0.0, 0.0)",1.228504363535293,0.8207030411833997,-0.13616530670621374,"(0.0, 0.0, 0.0, 0.0, 0.0, 0.0)",0.6532848743953342,True,"(-0.026856316020996668, 0.18218647133920407, 0.023997923896627693)","(0.9972663354105455, 0.07386168936306287, -0.002075355693803276)",-0.0026399311131899573,14.393895892159131,True,"(0.033653837564906794, 0.18152560421639294, 0.023997716044379027)","(-0.9953040509812058, -0.09677103449881742, -0.0022831956617496516)",6.271076254530193e-05,7.497589629781449
75,Move,"(0.0198333, 0.0, 0.00588)","(0.0, 0.04294557157457247, 0.0)","(0.004707621208903811, 0.16058046339332127, 0.04796291843581824)","(-0.0018262733132568523, 0.0014257562399260038, 0.06943960086672273)","[-0.005291205389818353, 0.0005527208713918264, 0.0004123594216006096]","[-0.026750000193715096, 0.05299999937415123, 0.03999999910593033]","[0.0, -0.0, 0.4953867825971148]","[-0.0609767809510231, 0.11634451150894165, 0.03999999910593033]","[0.0, 0.0, -0.3249981095541569]","[0.026750000193715096, 0.05299999937415123, 0.03999999910593033]","[0.0, 0.0, -0.5554931035712467]","[0.06472008675336838, 0.11417411267757416, 0.03999999910593033]","[0.0, -0.0, 0.2652098884038134]",0.4909894891627703,-1.0553514462327922,"(0.0, 0.0, 0.0, 0.0, 0.0, 0.0)",-2.1533948176590694,-0.8195085592872663,0.2103250106920974,"(0.0, 0.0, 0.0, 0.0, 0.0, 0.0)",-1.0919156524936788,-0.5598205797403293,-1.0385903941761214,"(0.0, 0.0, 0.0, 0.0, 0.0, 0.0)",1.2933782682081696,0.8201285760945812,-0.13787162131643024,"(0.0, 0.0, 0.0, 0.0, 0.0, 0.0)",0.6642471950563736,True,"(-0.026423307271553988, 0.1822168029360601, 0.0239983338653336)","(0.9974039231838278, 0.07199055846686524, -0.00166538558236054)",-0.0025287201961391127,14.542714551717168,True,"(0.034177897236828084, 0.18151592398757282, 0.023997716044379027)","(-0.9953040509812058, -0.09677103449881742, -0.0022831956617496516)",5.0733005885471225e-05,8.133200279642992
76,Move,"(0.0237333, 0.0, 0.0071667)","(0.0, 0.04351803956922662, 0.0)","(0.005322047035162405, 0.16052950511646352, 0.04798121385892008)","(-0.0012326684668266784, 0.0012381720043958936, 0.06610447881859664)","[-0.0046767795635597595, 0.0005017625945340776, 0.0004306548447024494]","[-0.026750000193715096, 0.05299999937415123, 0.03999999910593033]","[0.0, -0.0, 0.49098953151257196]","[-0.06069790944457054, 0.11649440228939056, 0.03999999910593033]","[0.0, 0.0, -0.3285190621042342]","[0.026750000193715096, 0.05299999937415123, 0.03999999910593033]","[0.0, 0.0, -0.5598206071778604]","[0.06498446315526962, 0.11400923132896423, 0.03999999910593033]","[0.0, -0.0, 0.2603079841565201]",0.4858907800870663,-1.2236901781689524,"(0.0, 0.0, 0.0, 0.0, 0.0, 0.0)",-2.210738325553086,-0.8186172080255598,0.2139243028095596,"(0.0, 0.0, 0.0, 0.0, 0.0, 0.0)",-1.1116475426326722,-0.5647690420679423,-1.1876309586271363,"(0.0, 0.0, 0.0, 0.0, 0.0, 0.0)",1.3014937142090746,0.8195436105325882,-0.14039173487832576,"(0.0, 0.0, 0.0, 0.0, 0.0, 0.0)",0.6742313412709252,True,"(-0.02591277681908228, 0.18224553191165302, 0.023998573492842488)","(0.9975890255824201, 0.06938373914714499, -0.001425755756884908)",-0.002427797829603153,14.70048778096812,True,"(0.03477273953972393, 0.18149994352308207, 0.023997716044379027)","(-0.9953040509812058, -0.09677103449881742, -0.0022831956617496516)",4.653025381922839e-05,8.324382471795005
77,Move,"(0.027379999999999998, 0.0, 0.008406700000000001)","(0.0, 0.04104316268989866, 0.0)","(0.006004803788550018, 0.16046838576379122, 0.04800459879697162)","(-0.0008344519296758134, 0.0010720893250052274, 0.0620705524455519)","[-0.003994022810172146, 0.0004406432418617712, 0.00045403978275398993]","[-0.026750000193715096, 0.05299999937415123, 0.03999999910593033]","[0.0, -0.0, 0.48589086688133587]","[-0.06037372723221779, 0.11666666716337204, 0.03999999910593033]","[0.0, 0.0, -0.3327264351849272]","[0.026750000193715096, 0.05299999937415123, 0.03999999910593033]","[0.0, 0.0, -0.5647690656026114]","[0.06528589129447937, 0.11381927877664566, 0.03999999910593033]","[0.0, -0.0, 0.2547745588719189]",0.48007046289080413,-1.3968761271029286,"(0.0, 0.0, 0.0, 0.0, 0.0, 0.0)",-2.246523384724513,-0.8177085832588881,0.21806994400121527,"(0.0, 0.0, 0.0, 0.0, 0.0, 0.0)",-1.1314325537512229,-0.5703460703661883,-1.3384867915790384,"(0.0, 0.0, 0.0, 0.0, 0.0, 0.0)",1.3381920783113372,0.8189446873293714,-0.1437415687720305,"(0.0, 0.0, 0.0, 0.0, 0.0, 0.0)",0.6910717283878088,True,"(-0.025312324620548624, 0.1822717316948066, 0.023998761075230152)","(0.9978151295956194, 0.06605629478670859, -0.0012381716880292444)",-0.002335465894345115,14.884497035435464,True,"(0.035448087669681376, 0.18147613582011884, 0.023997716044379027)","(-0.9953040509812058, -0.09677103449881742, -0.0022831956617496516)",4.594014935781841e-05,8.396303820793628
78,Move,"(0.03118, 0.0, 0.0095733)","(0.0, 0.03507413664807805, 0.0)","(0.006748446744745928, 0.16039573338022636, 0.048033063883737064)","(-0.0006763815096566079, 0.0009049468117457593, 0.0574448118590643)","[-0.0032503798539762364, 0.00036799085829691824, 0.00048250486951943033]","[-0.026750000193715096, 0.05299999937415123, 0.03999999910593033]","[0.0, -0.0, 0.4800704251140505]","[-0.06000259891152382, 0.11686129122972488, 0.03999999910593033]","[0.0, 0.0, -0.33763813247944996]","[0.026750000193715096, 0.05299999937415123, 0.03999999910593033]","[0.0, 0.0, -0.5703460879439135]","[0.06562448292970657, 0.11360342055559158, 0.03999999910593033]","[0.0, -0.0, 0.2485986202432696]",0.4735936501952348,-1.5544350469366437,"(0.0, 0.0, 0.0, 0.0, 0.0, 0.0)",-2.274384497786992,-0.8167722234303813,0.22472635884164105,"(0.0, 0.0, 0.0, 0.0, 0.0, 0.0)",-1.160606352133137,-0.5764790111846764,-1.4719057964371363,"(0.0, 0.0, 0.0, 0.0, 0.0, 0.0)",1.424298338704765,0.8183234408163854,-0.14909916311663401,"(0.0, 0.0, 0.0, 0.0, 0.0, 0.0)",0.721034343132013,True,"(-0.024619443185266023, 0.18229422758957398, 0.023998927154777434)","(0.9980736680870236, 0.06203066738504031, -0.0010720891196337658)",-0.0022513533403555213,15.227715336246986,True,"(0.03620508930690998, 0.1814432607071134, 0.023997716044379027)","(-0.9953040509812058, -0.09677103449881742, -0.0022831956617496516)",4.7426105049780435e-05,8.40446883000029
79,Move,"(0.0350067, 0.0, 0.0100867)","(0.0, 0.031867966812164465, 0.0)","(0.007557398077231799, 0.16030371058216103, 0.04806366107609865)","(-0.0006873200230282098, 0.0006812944850836464, 0.05225149447054535)","[-0.0024414285214903655, 0.00027596806023158504, 0.0005131020618810156]","[-0.026750000193715096, 0.05299999937415123, 0.03999999910593033]","[0.0, -0.0, 0.4735936803209543]","[-0.05958828702569008, 0.11707532405853271, 0.03999999910593033]","[0.0, 0.0, -0.34317858481881114]","[0.026750000193715096, 0.05299999937415123, 0.03999999910593033]","[0.0, 0.0, -0.5764790341182138]","[0.06599542498588562, 0.11336386948823929, 0.03999999910593033]","[0.0, -0.0, 0.2418444085224734]",0.4664187254000237,-1.7219819508506562,"(0.0, 0.0, 0.0, 0.0, 0.0, 0.0)",-2.3699220686302453,-0.815795781924643,0.2343459613771963,"(0.0, 0.0, 0.0, 0.0, 0.0, 0.0)",-1.2099150443596103,-0.5831889973599894,-1.6103966820751199,"(0.0, 0.0, 0.0, 0.0, 0.0, 0.0)",1.4994128993792513,0.8176688040413211,-0.1571128260154367,"(0.0, 0.0, 0.0, 0.0, 0.0, 0.0)",0.7596226735129221,True,"(-0.023843199758110167, 0.1823121287331868, 0.023999094296071787)","(0.9983500916806691, 0.05741319981233114, -0.0009049466882307513)",-0.002175866851804291,15.792831131899343,True,"(0.037034903623581736, 0.18140086276136858, 0.023997716044379027)","(-0.9953040509812058, -0.09677103449881742, -0.0022831956617496516)",5.135550164555033e-05,8.380982492273354
80,Move,"(0.038560000000000004, 0.0, 0.0102867)","(0.0, 0.03215245548023954, 0.0)","(0.008431790284700822, 0.16018037032585916, 0.04809323551977135)","(-0.0008151737103463977, 0.0003397689126051879, 0.04659286546029105)","[-0.0015670363140213427, 0.00015262780392971687, 0.0005426765055537158]","[-0.026750000193715096, 0.05299999937415123, 0.03999999910593033]","[0.0, -0.0, 0.466418768613075]","[-0.05912771075963974, 0.11730927973985672, 0.03999999910593033]","[0.0, 0.0, -0.34937701838359186]","[0.026750000193715096, 0.05299999937415123, 0.03999999910593033]","[0.0, 0.0, -0.5831890525159207]","[0.06639958173036575, 0.11309917271137238, 0.03999999910593033]","[0.0, -0.0, 0.23447982228403433]",0.4585488092501683,-1.8887798759653105,"(0.0, 0.0, 0.0, 0.0, 0.0, 0.0)",-2.4759079651686036,-0.8147666944614865,0.2469809911575362,"(0.0, 0.0, 0.0, 0.0, 0.0, 0.0)",-1.273655364301016,-0.5904491191406654,-1.7424292273622488,"(0.0, 0.0, 0.0, 0.0, 0.0, 0.0)",1.6207434637155096,0.8169701849819326,-0.1676685742532293,"(0.0, 0.0, 0.0, 0.0, 0.0, 0.0)",0.8140417727343794,True,"(-0.022978994671279694, 0.18232427636337856, 0.02399931794815041)","(0.9986349694574486, 0.05222770926067415, -0.0006812944323784804)",-0.002108769066462665,16.537974567433988,True,"(0.03794090547205338, 0.18134760589226026, 0.023997716044379027)","(-0.9953040509812058, -0.09677103449881742, -0.0022831956617496516)",5.6673523056848225e-05,8.485378222136278
81,Move,"(0.041906700000000005, 0.0, 0.0105533)","(0.0, 0.03275110341367359, 0.0)","(0.009363989230559491, 0.16001238412494703, 0.04812162505607267)","(-0.001106986545900869, -0.00016183818034484776, 0.04062685970760122)","[-0.0006348373681626732, -1.535839698241226e-05, 0.0005710660418550353]","[-0.026750000193715096, 0.05299999937415123, 0.03999999910593033]","[0.0, -0.0, 0.45854881995547175]","[-0.05862060561776161, 0.11756210029125214, 0.03999999910593033]","[0.0, 0.0, -0.35621789177881635]","[0.026750000193715096, 0.05299999937415123, 0.03999999910593033]","[0.0, 0.0, -0.590449205465095]","[0.06683485954999924, 0.11280973255634308, 0.03999999910593033]","[0.0, -0.0, 0.22652103490748018]",0.4500579627733255,-2.0378031544422663,"(0.0, 0.0, 0.0, 0.0, 0.0, 0.0)",-2.5782196427364856,-0.8136762022749917,0.2617181247587572,"(0.0, 0.0, 0.0, 0.0, 0.0, 0.0)",-1.3478415913058617,-0.598169852032747,-1.8529758940995773,"(0.0, 0.0, 0.0, 0.0, 0.0, 0.0)",1.7890916849823837,0.8162204485793424,-0.1799367366216457,"(0.0, 0.0, 0.0, 0.0, 0.0, 0.0)",0.8826479208642279,True,"(-0.02202803561880843, 0.1823294665626392, 0.02399965947058298)","(0.9989146911371426, 0.04657600656430197, -0.00033976890606729113)",-0.0020500352110443014,17.428252931197193,True,"(0.0389202511650028, 0.18128249510914418, 0.023997716044379027)","(-0.9953040509812058, -0.09677103449881742, -0.0022831956617496516)",6.204701590881895e-05,8.756955765319745
82,Move,"(0.0453733, 0.0, 0.01046)","(0.0, 0.034515631287439855, 0.0)","(0.010333377138107901, 0.1598707343256761, 0.0480491824052168)","(0.003557078569752749, -0.00016692503025651396, 0.03331014035323131)","[0.0003345505393857369, -0.00015700819625333318, 0.0004986233909991672]","[-0.026750000193715096, 0.05299999937415123, 0.03999999910593033]","[0.0, -0.0, 0.4500579461252325]","[-0.05807127803564072, 0.11783037334680557, 0.03999999910593033]","[0.0, 0.0, -0.3636182141317273]","[0.026750000193715096, 0.05299999937415123, 0.03999999910593033]","[0.0, 0.0, -0.5981698399368425]","[0.06729543209075928, 0.11249846965074539, 0.03999999910593033]","[0.0, -0.0, 0.21805062488477514]",0.4410047701879417,-2.172766220492109,"(0.0, 0.0, 0.0, 0.0, 0.0, 0.0)",-3.1604644751881157,-0.812343520659505,0.31984358771680377,"(0.0, 0.0, 0.0, 0.0, 0.0, 0.0)",-1.6571501068632042,-0.6063061627123347,-1.9527145631010603,"(0.0, 0.0, 0.0, 0.0, 0.0, 0.0)",2.3715862731798643,0.8152850244989495,-0.22450177929431567,"(0.0, 0.0, 0.0, 0.0, 0.0, 0.0)",1.0832805757617805,True,"(-0.021000411399770512, 0.182325175456045, 0.02399965947058298)","(0.9989146911371426, 0.04657600656430197, -0.00033976890606729113)",-0.001999914135528974,18.292415552056138,True,"(0.03998219526373408, 0.18036887932579015, 0.023999837401861134)","(-0.9991748295559124, -0.040615684043448085, -0.00016183817963641558)",-2.117015023340509e-05,20.276617284505786
83,Move,"(0.04876, 0.0, 0.009960000000000002)","(0.0, 0.04141666314982544, 0.0)","(0.011340675923754453, 0.15971724026195172, 0.04809686133868913)","(0.0033528331963679266, -5.831785905386592e-05, 0.025328689070910865)","[0.0013418493250322884, -0.00031050225997772407, 0.0005463023244714968]","[-0.026750000193715096, 0.05299999937415123, 0.03999999910593033]","[0.0, -0.0, 0.44100478870448695]","[-0.05748307704925537, 0.1181112751364708, 0.03999999910593033]","[0.0, 0.0, -0.37133882006479174]","[0.026750000193715096, 0.05299999937415123, 0.03999999910593033]","[0.0, 0.0, -0.60630615906636]","[0.06777818500995636, 0.11216661334037781, 0.03999999910593033]","[0.0, -0.0, 0.20897886235876598]",0.43134907397639627,-2.317367090770907,"(0.0, 0.0, 0.0, 0.0, 0.0, 0.0)",-3.4371721352665725,-0.8109266741164396,0.3400431703356893,"(0.0, 0.0, 0.0, 0.0, 0.0, 0.0)",-1.746266549488745,-0.6148377327164284,-2.0475768009824904,"(0.0, 0.0, 0.0, 0.0, 0.0, 0.0)",2.540406723241722,0.8143146357400909,-0.23289330212606765,"(0.0, 0.0, 0.0, 0.0, 0.0, 0.0)",1.1606502363991946,True,"(-0.019915390958829292, 0.18231794707454502, 0.02399965947058298)","(0.9989146911371426, 0.04657600656430197, -0.00033976890606729113)",-0.0019456835261495726,20.78701270142118,True,"(0.04108182062355519, 0.1802802515851742, 0.0239998323150113)","(-0.9994452546459844, -0.033303980267497243, -0.00016692502947853979)",-2.9910444957121346e-05,21.61785778375723
84,Move,"(0.0517533, 0.0, 0.009346700000000001)","(0.0, 0.05200208506317104, 0.0)","(0.012398999147792775, 0.15958844665775737, 0.04812867726397008)","(0.0024978074917225163, -1.0982613535947263e-05, 0.016850177363055694)","[0.002400172549070611, -0.00043929586417207345, 0.0005781182497524434]","[-0.026750000193715096, 0.05299999937415123, 0.03999999910593033]","[0.0, -0.0, 0.4313490523221613]","[-0.05685296282172203, 0.11840498447418213, 0.03999999910593033]","[0.0, 0.0, -0.37957759146529246]","[0.026750000193715096, 0.05299999937415123, 0.03999999910593033]","[0.0, 0.0, -0.6148377508009675]","[0.06828147172927856, 0.11181443184614182, 0.03999999910593033]","[0.0, -0.0, 0.199476941705158]",0.4211146751859963,-2.4562557096959923,"(0.0, 0.0, 0.0, 0.0, 0.0, 0.0)",-3.5640974820060007,-0.8093874013448585,0.3694254651794611,"(0.0, 0.0, 0.0, 0.0, 0.0, 0.0)",-1.8533357802577284,-0.6237393134018776,-2.1363793645078024,"(0.0, 0.0, 0.0, 0.0, 0.0, 0.0)",2.8434053226527185,0.8132424741550567,-0.25731878040820266,"(0.0, 0.0, 0.0, 0.0, 0.0, 0.0)",1.2907156161953142,True,"(-0.018757565270389936, 0.18229996636765833, 0.02399965947058298)","(0.9989146911371426, 0.04657600656430197, -0.00033976890606729113)",-0.0019120274533367628,20.498347571119893,True,"(0.042233551184877365, 0.18017713672745758, 0.023999940922181755)","(-0.999679244203699, -0.025325980876338108, -5.831785901973617e-05)",-3.727223771617056e-05,24.428010354155802
85,Move,"(0.0543, 0.0, 0.0086533)","(0.0, 0.0611545916606293, 0.0)","(0.01348082280621916, 0.15949689216693672, 0.04815764470908206)","(0.0016479992188641345, 4.576967965847737e-05, 0.008163933489941298)","[0.0034819962074969964, -0.000530850354992729, 0.0006070856948644301]","[-0.026750000193715096, 0.05299999937415123, 0.03999999910593033]","[0.0, -0.0, 0.4211147226958566]","[-0.05618201568722725, 0.11870963871479034, 0.03999999910593033]","[0.0, 0.0, -0.38827272984453043]","[0.026750000193715096, 0.05299999937415123, 0.03999999910593033]","[0.0, 0.0, -0.6237393237296736]","[0.06880336254835129, 0.11144240945577621, 0.03999999910593033]","[0.0, -0.0, 0.18950313664889798]",0.4104038797498415,-2.5705909046771613,"(0.0, 0.0, 0.0, 0.0, 0.0, 0.0)",-3.919568725316966,-0.8076648590508491,0.41341015056227864,"(0.0, 0.0, 0.0, 0.0, 0.0, 0.0)",-2.0574369404895645,-0.632899714587267,-2.198496284493446,"(0.0, 0.0, 0.0, 0.0, 0.0, 0.0)",3.2740429380865352,0.8120212040697272,-0.2931048204790613,"(0.0, 0.0, 0.0, 0.0, 0.0, 0.0)",1.4777518865873034,True,"(-0.0175324919202094, 0.18227096589853653, 0.02399965947058298)","(0.9989146911371426, 0.04657600656430197, -0.00033976890606729113)",-0.0018777984233454843,22.758904432994324,True,"(0.04343855650779718, 0.18006150646302993, 0.023999940922181755)","(-0.999679244203699, -0.025325980876338108, -5.831785901973617e-05)",-5.4637738340673545e-05,25.91940124830287
86,Move,"(0.05618, 0.0, 0.0078)","(0.0, 0.06890210821023217, 0.0)","(0.014580828115777045, 0.1595232619264538, 0.04819825573817245)","(0.0005105143927753999, 0.0001571942778267016, -0.0006557897714741361)","[0.00458200151705488, -0.0005044805954756426, 0.0006476967239548159]","[-0.026750000193715096, 0.05299999937415123, 0.03999999910593033]","[0.0, -0.0, 0.4104038477310983]","[-0.055476538836956024, 0.11902110278606415, 0.03999999910593033]","[0.0, 0.0, -0.3972609688467829]","[0.026750000193715096, 0.05299999937415123, 0.03999999910593033]","[0.0, 0.0, -0.632899808454589]","[0.06933694332838058, 0.11105473339557648, 0.03999999910593033]","[0.0, -0.0, 0.17912148406066275]",0.3993158875714765,-2.661118122807602,"(0.0, 0.0, 0.0, 0.0, 0.0, 0.0)",-4.190755698917003,-0.805830863301016,0.44015897995993314,"(0.0, 0.0, 0.0, 0.0, 0.0, 0.0)",-2.210335793889609,-0.6422221867842312,-2.237393327271393,"(0.0, 0.0, 0.0, 0.0, 0.0, 0.0)",3.5785369450703293,0.8106873316378765,-0.3201293836441612,"(0.0, 0.0, 0.0, 0.0, 0.0, 0.0)",1.6191799019137105,True,"(-0.01625727826521215, 0.18223247653741387, 0.02399965947058298)","(0.9989146911371426, 0.04657600656430197, -0.00033976890606729113)",-0.0018612164873035967,24.5626809881402,True,"(0.044685875538896795, 0.1799334606833502, 0.023999940922181755)","(-0.999679244203699, -0.025325980876338108, -5.831785901973617e-05)",-5.557102651498288e-05,27.425820964033914
87,Move,"(0.0581267, 0.0, 0.0067133)","(0.0, 0.07635640944549994, 0.0)","(0.015700287115435113, 0.1594279269484055, 0.04822749511200815)","(-0.0008133424324505588, 0.00015630177552700865, -0.009372608077147944)","[0.005701460516712949, -0.0005998155735239541, 0.0006769360977905148]","[-0.026750000193715096, 0.05299999937415123, 0.03999999910593033]","[0.0, -0.0, 0.3993159158148138]","[-0.05474274605512619, 0.11933555454015732, 0.03999999910593033]","[0.0, 0.0, -0.40651498551798604]","[0.026750000193715096, 0.05299999937415123, 0.03999999910593033]","[0.0, 0.0, -0.6422221906205432]","[0.0698762983083725, 0.11065520346164703, 0.03999999910593033]","[0.0, -0.0, 0.1684651359699718]",0.38800144218022586,-2.7154668939001545,"(0.0, 0.0, 0.0, 0.0, 0.0, 0.0)",-4.4323644278684275,-0.8037778043474699,0.4927341488510724,"(0.0, 0.0, 0.0, 0.0, 0.0, 0.0)",-2.433812272247257,-0.6515859105087184,-2.2472936938769434,"(0.0, 0.0, 0.0, 0.0, 0.0, 0.0)",3.8964417527186863,0.8092444798876499,-0.34628442005439547,"(0.0, 0.0, 0.0, 0.0, 0.0, 0.0)",1.7525565499112887,True,"(-0.014940209058793952, 0.18218434339071296, 0.023999842045763584)","(0.9999997726148776, -0.000655789716348344, -0.000157194277199913)",-0.0019049125818811623,28.506941039633695,True,"(0.04596061197524293, 0.17979270261774477, 0.023999940922181755)","(-0.999679244203699, -0.025325980876338108, -5.831785901973617e-05)",-4.883167553143902e-05,29.681554938948857
88,Move,"(0.0601867, 0.0, 0.0055)","(0.0, 0.08466592201424493, 0.0)","(0.016822622924738215, 0.1592578801723068, 0.04827267694843604)","(-0.0009156192626257034, 0.00024237241865229, -0.01795314054465694)","[0.006823796326016051, -0.0007698623496226464, 0.0007221179342184053]","[-0.026750000193715096, 0.05299999937415123, 0.03999999910593033]","[0.0, -0.0, 0.38800144003864845]","[-0.05399041995406151, 0.1196480244398117, 0.03999999910593033]","[0.0, 0.0, -0.41577637426475894]","[0.026750000193715096, 0.05299999937415123, 0.03999999910593033]","[0.0, 0.0, -0.651585897377557]","[0.07041426748037338, 0.1102488562464714, 0.03999999910593033]","[0.0, -0.0, 0.15765857386260732]",0.3764444804585424,-2.7736708132040264,"(0.0, 0.0, 0.0, 0.0, 0.0, 0.0)",-4.925868460559059,-0.8015382292481716,0.5374980238315972,"(0.0, 0.0, 0.0, 0.0, 0.0, 0.0)",-2.688458633453556,-0.6610215820700021,-2.264561174708089,"(0.0, 0.0, 0.0, 0.0, 0.0, 0.0)",4.0721986587346795,0.8077262169779377,-0.3643830983309363,"(0.0, 0.0, 0.0, 0.0, 0.0, 0.0)",1.849641168749732,True,"(-0.013607526440266228, 0.18212604082884082, 0.023999842938265875)","(0.9999560652158654, -0.009372470739292064, -0.0001563017749060553)",-0.0019215235894605761,32.368718159992504,True,"(0.047247102364648436, 0.17964076287893976, 0.023999940922181755)","(-0.999679244203699, -0.025325980876338108, -5.831785901973617e-05)",-4.4673596827510425e-05,30.45980707075934
89,Move,"(0.062, 0.0, 0.00442)","(0.0, 0.09153728327934658, 0.0)","(0.017962664515567085, 0.15894247523818772, 0.0482711008190571)","(0.0002331308347765197, 0.00021498945299090424, -0.026464199047482085)","[0.00796383791684492, -0.0010852672837417254, 0.0007205418048394641]","[-0.026750000193715096, 0.05299999937415123, 0.03999999910593033]","[0.0, -0.0, 0.3764444744079867]","[-0.05321836844086647, 0.11995838582515717, 0.03999999910593033]","[0.0, 0.0, -0.4250938019552224]","[0.026750000193715096, 0.05299999937415123, 0.03999999910593033]","[0.0, 0.0, -0.6610215804003575]","[0.07095249742269516, 0.10983431339263916, 0.03999999910593033]","[0.0, -0.0, 0.14670462710502927]",0.36460286175168133,-2.841988489646651,"(0.0, 0.0, 0.0, 0.0, 0.0, 0.0)",-5.335538695963102,-0.7990922937790749,0.5870245125832267,"(0.0, 0.0, 0.0, 0.0, 0.0, 0.0)",-2.9223956139408385,-0.6705239762212207,-2.2805745962924875,"(0.0, 0.0, 0.0, 0.0, 0.0, 0.0)",4.450756201774582,0.8060534708398207,-0.4014590731480779,"(0.0, 0.0, 0.0, 0.0, 0.0, 0.0)",2.028298483890852,True,"(-0.01225509176030777, 0.1820581666839983, 0.023999756867624403)","(0.999838817333416, -0.0179521756043004, -0.0002423724163793893)",-0.0019605405733912574,34.23625379790809,True,"(0.04854682109173448, 0.1794758222911918, 0.023999940922181755)","(-0.999679244203699, -0.025325980876338108, -5.831785901973617e-05)",-2.231549325665394e-05,32.70024556622176
90,Move,"(0.06348, 0.0, 0.0035800000000000003)","(0.0, 0.09524959859833855, 0.0)","(0.019146985298937273, 0.1589215037167343, 0.04853576163029268)","(-0.012983960400863062, -0.0002456095622246482, -0.03442794050803593)","[0.009148158700215108, -0.0011062388051951422, 0.0009852026160750496]","[-0.026750000193715096, 0.05299999937415123, 0.03999999910593033]","[0.0, -0.0, 0.36460288724396706]","[-0.052423637360334396, 0.1202671155333519, 0.03999999910593033]","[0.0, 0.0, -0.4344894205527747]","[0.026750000193715096, 0.05299999937415123, 0.03999999910593033]","[0.0, 0.0, -0.6705239500509542]","[0.07149055600166321, 0.10941172391176224, 0.03999999910593033]","[0.0, -0.0, 0.13552949991654817]",0.3525228168836312,-2.8992107683320354,"(0.0, 0.0, 0.0, 0.0, 0.0, 0.0)",-5.361830602656966,-0.7969669724170172,0.5100771268938383,"(0.0, 0.0, 0.0, 0.0, 0.0, 0.0)",-2.860766538283375,-0.6800215936449794,-2.279428181702074,"(0.0, 0.0, 0.0, 0.0, 0.0, 0.0)",4.834947010935852,0.8041782004099514,-0.45006490316863185,"(0.0, 0.0, 0.0, 0.0, 0.0, 0.0)",2.260530085023956,True,"(-0.010878681880941078, 0.18198016411993856, 0.023999784249412372)","(0.9996498204190821, -0.02646110949360382, -0.0002149894513349917)",-0.0020013686189833653,32.05092429420351,True,"(0.04986412042174897, 0.17928711798936753, 0.056000215749410547)","(-0.9996498204190825, 0.026461109493597233, 0.00021498945133281429)",-8.671892574754105e-05,36.63611419221963
91,Move,"(0.06468, 0.0, 0.0028133)","(0.0, 0.09898285786835444, 0.0)","(0.020258938914518496, 0.15882479608589725, 0.04870822415272683)","(-0.017544473107161503, 0.0002778139320010823, -0.04198346529475354)","[0.010260112315796332, -0.0012029464360321929, 0.0011576651385091993]","[-0.026750000193715096, 0.05299999937415123, 0.03999999910593033]","[0.0, -0.0, 0.3525227955636393]","[-0.05160919204354286, 0.12057233601808548, 0.03999999910593033]","[0.0, 0.0, -0.44444416913778334]","[0.026750000193715096, 0.05299999937415123, 0.03999999910593033]","[0.0, 0.0, -0.6800215920317374]","[0.07202430814504623, 0.10898426175117493, 0.03999999910593033]","[0.0, -0.0, 0.12415661714178015]",0.3403272378645984,-2.926938964567867,"(0.0, 0.0, 0.0, 0.0, 0.0, 0.0)",-7.218359846041285,-0.7936065925628116,0.8064911650093314,"(0.0, 0.0, 0.0, 0.0, 0.0, 0.0)",-3.907696657883541,-0.689477830422807,-2.2694968266786155,"(0.0, 0.0, 0.0, 0.0, 0.0, 0.0)",5.645616886270991,0.8020617577846714,-0.5079462300672063,"(0.0, 0.0, 0.0, 0.0, 0.0, 0.0)",2.5372168118957688,True,"(-0.00945197092990846, 0.18186876780326947, 0.023999784249412372)","(0.9996498204190821, -0.02646110949360382, -0.0002149894513349917)",-0.0020590551245219823,45.07007155901318,True,"(0.05119393793139403, 0.17910108225097277, 0.056000215749410547)","(-0.9996498204190825, 0.026461109493597233, 0.00021498945133281429)",-0.00010189746305551536,38.053519744066854
92,Move,"(0.06588, 0.0, 0.00196)","(0.0, 0.1053533096381337, 0.0)","(0.021375826993003694, 0.15868518745980745, 0.04883722894080662)","(-0.020671723901591117, 0.0007834959309498258, -0.04924854119787601)","[0.01137700039428153, -0.0013425550621219973, 0.0012866699265889903]","[-0.026750000193715096, 0.05299999937415123, 0.03999999910593033]","[0.0, -0.0, 0.3403272233582327]","[-0.05078328028321266, 0.12087047845125198, 0.03999999910593033]","[0.0, 0.0, -0.4532793603354914]","[0.026750000193715096, 0.05299999937415123, 0.03999999910593033]","[0.0, 0.0, -0.6894778078421837]","[0.0725516751408577, 0.10855364054441452, 0.03999999910593033]","[0.0, -0.0, 0.11258393958086443]",0.32807266051646244,-2.941098563552624,"(0.0, 0.0, 0.0, 0.0, 0.0, 0.0)",-7.617191788209182,-0.7901340619957605,0.833407336092259,"(0.0, 0.0, 0.0, 0.0, 0.0, 0.0)",-4.1913665969431255,-0.6988148598545719,-2.240887063623591,"(0.0, 0.0, 0.0, 0.0, 0.0, 0.0)",5.987718934476532,0.7998577094390802,-0.5289716029418863,"(0.0, 0.0, 0.0, 0.0, 0.0, 0.0)",2.6565770656511627,True,"(-0.00808600260217656, 0.18179532004614976, 0.023999721425300147)","(0.9991187852069812, -0.04197113133985442, -0.0002778139284275925)",-0.002159802049048301,47.41257070882735,True,"(0.05253378328331352, 0.17889940507254404, 0.056000278573887646)","(-0.9991187852069815, 0.04197113133985062, 0.00027781392843046637)",-3.517668200915152e-05,40.33284804967709
