OSUrobotics/InHand-Manipulation/AnalyseData/Data/Trial Data/Even Better/new_hand_human_sub1_2v2_c_n_1_kpNone_kdNone_dp3_step2_save_data.csv
,Phase,human_cube_pos,human_cube_orn,Cube_Pos,Cube_Orn,Cube_pos_in_start_pos,b'l_prox_pin'_link_pos,b'l_prox_pin'_link_orn,b'l_distal_pin'_link_pos,b'l_distal_pin'_link_orn,b'r_prox_pin'_link_pos,b'r_prox_pin'_link_orn,b'r_distal_pin'_link_pos,b'r_distal_pin'_link_orn,b'l_prox_pin'_joint_angle,b'l_prox_pin'_joint_vel,b'l_prox_pin'_joint_react_forces,b'l_prox_pin'_joint_motor_torque,b'l_distal_pin'_joint_angle,b'l_distal_pin'_joint_vel,b'l_distal_pin'_joint_react_forces,b'l_distal_pin'_joint_motor_torque,b'r_prox_pin'_joint_angle,b'r_prox_pin'_joint_vel,b'r_prox_pin'_joint_react_forces,b'r_prox_pin'_joint_motor_torque,b'r_distal_pin'_joint_angle,b'r_distal_pin'_joint_vel,b'r_distal_pin'_joint_react_forces,b'r_distal_pin'_joint_motor_torque,in_contact_l,contact_point_l_dist,contact_normal_l_dist,contact_distance_l_dist,contact_norm_force_l_dist,in_contact_r,contact_point_r_dist,contact_normal_r_dist,contact_distance_r_dist,contact_norm_force_r_dist
0,Open,,,,,,"[-0.026750000193715096, 0.05299999937415123, 0.03999999910593033]","[0.0, -0.0, 0.0]","[-0.026750000193715096, 0.125, 0.03999999910593033]","[0.0, -0.0, 5.883223447970011e-32]","[0.026750000193715096, 0.05299999937415123, 0.03999999910593033]","[0.0, 0.0, -0.008068665592501188]","[0.02733093686401844, 0.12499765306711197, 0.03999999910593033]","[0.0, 0.0, -0.0780932845685428]",0.157,37.68,"(0.0, 0.0, 0.0, 0.0, 0.0, 0.0)",54.702693795169004,5.294901130302062e-32,-1.4119736347472162e-30,"(0.0, 0.0, 0.0, 0.0, 0.0, 0.0)",3.9113724975844915,-0.1670280316324969,-38.150247946082466,"(0.0, 0.0, 0.0, 0.0, 0.0, 0.0)",-25.93345404555236,-0.0659493391739072,0.9780670797324476,"(0.0, 0.0, 0.0, 0.0, 0.0, 0.0)",-6.754749483880455,False,,,,,False,,,,
1,Open,,,,,,"[-0.026750000193715096, 0.05299999937415123, 0.03999999910593033]","[0.0, -0.0, 0.29830000998707634]","[-0.04791048914194107, 0.12182030081748962, 0.03999999910593033]","[0.0, -0.0, 0.29830000998707634]","[0.026750000193715096, 0.05299999937415123, 0.03999999910593033]","[0.0, 0.0, -0.3122944642903269]","[0.048871491104364395, 0.12151744216680527, 0.03999999910593033]","[0.0, 0.0, -0.3793531994353912]",0.42546999999999996,30.5208,"(0.0, 0.0, 0.0, 0.0, 0.0, 0.0)",-4.858074537215091,5.294901130302062e-32,0.0,"(0.0, 0.0, 0.0, 0.0, 0.0, 0.0)",-0.33154044974508506,-0.44292449566296654,-31.35120824461403,"(0.0, 0.0, 0.0, 0.0, 0.0, 0.0)",100.88457241511576,-0.08373770380977785,-4.0029668326633345,"(0.0, 0.0, 0.0, 0.0, 0.0, 0.0)",24.077304806401806,False,,,,,False,,,,
2,Open,,,,,,"[-0.026750000193715096, 0.05299999937415123, 0.03999999910593033]","[0.0, -0.0, 0.5399230359738098]","[-0.06376303732395172, 0.11475787311792374, 0.03999999910593033]","[0.0, -0.0, 0.5399230359738098]","[0.026750000193715096, 0.05299999937415123, 0.03999999910593033]","[0.0, 0.0, -0.5623038790270362]","[0.06513584405183792, 0.11391409486532211, 0.03999999910593033]","[0.0, 0.0, -0.6668711870723439]",0.6429307,24.721848,"(0.0, 0.0, 0.0, 0.0, 0.0, 0.0)",-3.943806903965684,5.294901130302062e-32,0.0,"(0.0, 0.0, 0.0, 0.0, 0.0, 0.0)",-0.2716098155097054,-0.6673401099248648,-25.208696742335626,"(0.0, 0.0, 0.0, 0.0, 0.0, 0.0)",94.97739775913854,-0.11755295807544866,-3.116564819203918,"(0.0, 0.0, 0.0, 0.0, 0.0, 0.0)",25.79194570087013,False,,,,,False,,,,
3,Open,,,,,,"[-0.026750000193715096, 0.05299999937415123, 0.03999999910593033]","[0.0, -0.0, 0.7356376306875043]","[-0.07506632059812546, 0.10638101398944855, 0.03999999910593033]","[0.0, -0.0, 0.7356376306875043]","[0.026750000193715096, 0.05299999937415123, 0.03999999910593033]","[0.0, 0.0, -0.757991847340814]","[0.076247438788414, 0.10528770089149475, 0.03999999910593033]","[0.0, 0.0, -0.8659334873334429]",0.8190738670000001,20.024696880000004,"(0.0, 0.0, 0.0, 0.0, 0.0, 0.0)",-3.2002295086701533,2.3293280891773424e-07,5.5903874140256216e-05,"(0.0, 0.0, 0.0, 0.0, 0.0, 0.0)",-0.22200715926400075,-0.8391926082762636,-19.488197112632974,"(0.0, 0.0, 0.0, 0.0, 0.0, 0.0)",3.295349739497939,-0.09714776835574307,2.590534961280482,"(0.0, 0.0, 0.0, 0.0, 0.0, 0.0)",0.25803221970863044,False,,,,,False,,,,
4,Open,,,,,,"[-0.026750000193715096, 0.05299999937415123, 0.03999999910593033]","[0.0, -0.0, 0.894166469119967]","[-0.08288749307394028, 0.09808415919542313, 0.03999999910593033]","[0.0, -0.0, 0.894166894674561]","[0.026750000193715096, 0.05299999937415123, 0.03999999910593033]","[0.0, 0.0, -0.9122733503889549]","[0.08369457721710205, 0.09706035256385803, 0.03999999910593033]","[0.0, 0.0, -0.9997066729229968]",0.96174983227,16.220004472800003,"(0.0, 0.0, 0.0, 0.0, 0.0, 0.0)",-2.5959652512206968,5.681494863714967e-07,3.553320838026869e-05,"(0.0, 0.0, 0.0, 0.0, 0.0, 0.0)",-0.18114955764248034,-0.9780460127037736,-15.785439661232708,"(0.0, 0.0, 0.0, 0.0, 0.0, 0.0)",2.503992476159733,-0.0786900142246732,2.098357403184359,"(0.0, 0.0, 0.0, 0.0, 0.0, 0.0)",0.15360133560797545,False,,,,,False,,,,
5,Open,,,,,,"[-0.026750000193715096, 0.05299999937415123, 0.03999999910593033]","[0.0, -0.0, 1.0225748785172661]","[-0.08819860219955444, 0.09052424877882004, 0.03999999910593033]","[0.0, -0.0, 1.0225755149967983]","[0.026750000193715096, 0.05299999937415123, 0.03999999910593033]","[0.0, 0.0, -1.037241417801626]","[0.08874232321977615, 0.08961901068687439, 0.03999999910593033]","[0.0, 0.0, -1.1080626941470386]",1.0773173641387,13.138203622968001,"(0.0, 0.0, 0.0, 0.0, 0.0, 0.0)",-2.105207702642618,7.694903593429899e-07,2.0776129443188934e-05,"(0.0, 0.0, 0.0, 0.0, 0.0, 0.0)",-0.14759587787833617,-1.0905172702900567,-12.78620612559849,"(0.0, 0.0, 0.0, 0.0, 0.0, 0.0)",2.0303755786213302,-0.06373917358809339,1.6996763127328351,"(0.0, 0.0, 0.0, 0.0, 0.0, 0.0)",0.1250328149112744,False,,,,,False,,,,
6,Open,,,,,,"[-0.026750000193715096, 0.05299999937415123, 0.03999999910593033]","[0.0, -0.0, 1.126585512342968]","[-0.09176240861415863, 0.08394166082143784, 0.03999999910593033]","[0.0, -0.0, 1.1265864725026016]","[0.026750000193715096, 0.05299999937415123, 0.03999999910593033]","[0.0, 0.0, -1.13846552283997]","[0.09212540090084076, 0.08316715806722641, 0.03999999910593033]","[0.0, 0.0, -1.1958309904194953]",1.1709270649523469,10.641944934604087,"(0.0, 0.0, 0.0, 0.0, 0.0, 0.0)",-1.7068426281171958,8.750681698751778e-07,1.0273240928962424e-05,"(0.0, 0.0, 0.0, 0.0, 0.0, 0.0)",-0.12011999884119333,-1.181618988934946,-10.356826961734775,"(0.0, 0.0, 0.0, 0.0, 0.0, 0.0)",1.6460093571929852,-0.051628943774705546,1.376743384776279,"(0.0, 0.0, 0.0, 0.0, 0.0, 0.0)",0.10168054944364863,False,,,,,False,,,,
7,Open,,,,,,"[-0.026750000193715096, 0.05299999937415123, 0.03999999910593033]","[0.0, -0.0, 1.2108343955497323]","[-0.09413553774356842, 0.07836118340492249, 0.03999999910593033]","[0.0, -0.0, 1.210835255049739]","[0.026750000193715096, 0.05299999937415123, 0.03999999910593033]","[0.0, 0.0, -1.2204571829136446]","[0.09437645971775055, 0.07771158218383789, 0.03999999910593033]","[0.0, 0.0, -1.2669233179031547]",1.2467509226114009,8.619975397029307,"(0.0, 0.0, 0.0, 0.0, 0.0, 0.0)",-1.3836082777937824,9.135722823677317e-07,2.9650129412077397e-06,"(0.0, 0.0, 0.0, 0.0, 0.0, 0.0)",-0.09766941677677543,-1.2554113810373062,-8.38902983900517,"(0.0, 0.0, 0.0, 0.0, 0.0, 0.0)",1.334189480132575,-0.04181961771093252,1.1151666876061868,"(0.0, 0.0, 0.0, 0.0, 0.0, 0.0)",0.08262627878010878,False,,,,,False,,,,
8,Open,,,,,,"[-0.026750000193715096, 0.05299999937415123, 0.03999999910593033]","[0.0, -0.0, 1.2790758758817962]","[-0.09570803493261337, 0.0737072303891182, 0.03999999910593033]","[0.0, -0.0, 1.2790780932516201]","[0.026750000193715096, 0.05299999937415123, 0.03999999910593033]","[0.0, 0.0, -1.2868702529032277]","[0.0958673357963562, 0.07316911965608597, 0.03999999910593033]","[0.0, 0.0, -1.3245087793274308]",1.3081682532711112,6.982181501004109,"(0.0, 0.0, 0.0, 0.0, 0.0, 0.0)",-1.12145472366965,1.9027582300258812e-06,-5.0740219467356254e-05,"(0.0, 0.0, 0.0, 0.0, 0.0, 0.0)",-0.07939114715284208,-1.315183223212741,-6.795115266999686,"(0.0, 0.0, 0.0, 0.0, 0.0, 0.0)",1.0813262344929835,-0.033874873767778015,0.9033299671407473,"(0.0, 0.0, 0.0, 0.0, 0.0, 0.0)",0.06713055017345074,False,,,,,False,,,,
9,Open,,,,,,"[-0.026750000193715096, 0.05299999937415123, 0.03999999910593033]","[0.0, -0.0, 1.334351465706577]","[-0.09674673527479172, 0.06986585259437561, 0.03999999910593033]","[0.0, -0.0, 1.33435435145599]","[0.026750000193715096, 0.05299999937415123, 0.03999999910593033]","[0.0, 0.0, -1.3406650641721125]","[0.09685182571411133, 0.06942359358072281, 0.03999999910593033]","[0.0, 0.0, -1.3711530696282732]",1.3579162851496,5.655565729344001,"(0.0, 0.0, 0.0, 0.0, 0.0, 0.0)",-0.9088150211252332,3.4316066113876724e-06,0.0001607445165674468,"(0.0, 0.0, 0.0, 0.0, 0.0, 0.0)",-0.06444344013525093,-1.3635984108023202,-5.504042378604797,"(0.0, 0.0, 0.0, 0.0, 0.0, 0.0)",0.8762522980402716,-0.02744024570882781,0.7315266716392431,"(0.0, 0.0, 0.0, 0.0, 0.0, 0.0)",0.05446985052483407,False,,,,,False,,,,
10,Open,,,,,,"[-0.026750000193715096, 0.05299999937415123, 0.03999999910593033]","[0.0, -0.0, 1.3791247702213432]","[-0.0974314734339714, 0.0667160153388977, 0.03999999910593033]","[0.0, -0.0, 1.3791284782568445]","[0.026750000193715096, 0.05299999937415123, 0.03999999910593033]","[0.0, 0.0, -1.3842387704807777]","[0.09750068932771683, 0.06635437905788422, 0.03999999910593033]","[0.0, 0.0, -1.408935619520831]",1.398212190971176,4.581008240768642,"(0.0, 0.0, 0.0, 0.0, 0.0, 0.0)",-0.7364407507487188,4.314390796743166e-06,8.968521101115077e-05,"(0.0, 0.0, 0.0, 0.0, 0.0, 0.0)",-0.05230389643117988,-1.4028147127498793,-4.458274326669883,"(0.0, 0.0, 0.0, 0.0, 0.0, 0.0)",0.7100243788118592,-0.02222789596809768,0.5925708975857369,"(0.0, 0.0, 0.0, 0.0, 0.0, 0.0)",0.04419507766734469,False,,,,,False,,,,
11,Open,,,,,,"[-0.026750000193715096, 0.05299999937415123, 0.03999999910593033]","[0.0, -0.0, 1.415391158105469]","[-0.09788231551647186, 0.06414420157670975, 0.03999999910593033]","[0.0, -0.0, 1.415395709317307]","[0.026750000193715096, 0.05299999937415123, 0.03999999910593033]","[0.0, 0.0, -1.419533200978404]","[0.09792786836624146, 0.06384945660829544, 0.03999999910593033]","[0.0, 0.0, -1.4395389386881268]",1.4308518746866525,3.7106166750225977,"(0.0, 0.0, 0.0, 0.0, 0.0, 0.0)",-0.5967141397561109,4.7399630338636504e-06,3.9705446138709865e-05,"(0.0, 0.0, 0.0, 0.0, 0.0, 0.0)",-0.042434775014060074,-1.4345799173274023,-3.611202204602609,"(0.0, 0.0, 0.0, 0.0, 0.0, 0.0)",0.5752902758042565,-0.018005647771851804,0.4800102903229233,"(0.0, 0.0, 0.0, 0.0, 0.0, 0.0)",0.0358468230863414,False,,,,,False,,,,
12,Open,,,,,,"[-0.026750000193715096, 0.05299999937415123, 0.03999999910593033]","[0.0, -0.0, 1.4447668540021588]","[-0.09817895293235779, 0.06205013021826744, 0.03999999910593033]","[0.0, -0.0, 1.4447715863131299]","[0.026750000193715096, 0.05299999937415123, 0.03999999910593033]","[0.0, 0.0, -1.448121993206969]","[0.09820891171693802, 0.06181041896343231, 0.03999999910593033]","[0.0, 0.0, -1.46432761016298]",1.4572900184961886,3.005599506768304,"(0.0, 0.0, 0.0, 0.0, 0.0, 0.0)",-0.483467731204937,4.849462099751187e-06,5.401615740548756e-06,"(0.0, 0.0, 0.0, 0.0, 0.0, 0.0)",-0.03441712855198442,-1.4603097330351957,-2.925073785728113,"(0.0, 0.0, 0.0, 0.0, 0.0, 0.0)",0.4660969568661882,-0.014585427836986846,0.38883096045278315,"(0.0, 0.0, 0.0, 0.0, 0.0, 0.0)",0.029067900465992856,False,,,,,False,,,,
13,Open,,,,,,"[-0.026750000193715096, 0.05299999937415123, 0.03999999910593033]","[0.0, -0.0, 1.4685611215819594]","[-0.09837405383586884, 0.06034812703728676, 0.03999999910593033]","[0.0, -0.0, 1.468565853091142]","[0.026750000193715096, 0.05299999937415123, 0.03999999910593033]","[0.0, 0.0, -1.4712788457263521]","[0.0983937606215477, 0.06015344336628914, 0.03999999910593033]","[0.0, 0.0, -1.4844061039497418]",1.4787049149819127,2.434535600482329,"(0.0, 0.0, 0.0, 0.0, 0.0, 0.0)",-0.39169363303347604,4.747151892642784e-06,-1.7351748576465223e-05,"(0.0, 0.0, 0.0, 0.0, 0.0, 0.0)",-0.02790732436186781,-1.4811508837585086,-2.3693097664397755,"(0.0, 0.0, 0.0, 0.0, 0.0, 0.0)",0.37761186810531283,-0.011814888241968555,0.3149714411852639,"(0.0, 0.0, 0.0, 0.0, 0.0, 0.0)",0.023565936472848985,False,,,,,False,,,,
14,Open,,,,,,"[-0.026750000193715096, 0.05299999937415123, 0.03999999910593033]","[0.0, -0.0, 1.487834617901085]","[-0.09850236773490906, 0.05896640568971634, 0.03999999910593033]","[0.0, -0.0, 1.4878390921106803]","[0.026750000193715096, 0.05299999937415123, 0.03999999910593033]","[0.0, 0.0, -1.4900358577435544]","[0.09851532429456711, 0.05880843847990036, 0.03999999910593033]","[0.0, 0.0, -1.5006695807985118]",1.4960509811353493,1.9719738363906854,"(0.0, 0.0, 0.0, 0.0, 0.0, 0.0)",-0.3173274216127963,4.509251873886308e-06,-3.168767150011037e-05,"(0.0, 0.0, 0.0, 0.0, 0.0, 0.0)",-0.022624215793833224,-1.498032215844392,-1.9191409108162163,"(0.0, 0.0, 0.0, 0.0, 0.0, 0.0)",0.30591369390909257,-0.00957062017308593,0.2551417656412126,"(0.0, 0.0, 0.0, 0.0, 0.0, 0.0)",0.019102112305110365,False,,,,,False,,,,
15,Close,,,"(0.010000330010418335, 0.1600052801621647, 0.0076635160840755065)","(-0.00010776674212266888, 6.7354271463595154e-06, -3.629275205618536e-10)",,"[-0.026750000193715096, 0.05299999937415123, 0.03999999910593033]","[0.0, -0.0, 1.5034457455162191]","[-0.09858676046133041, 0.05784556642174721, 0.03999999910593033]","[0.0, -0.0, 1.5034503818793725]","[0.026750000193715096, 0.05299999937415123, 0.03999999910593033]","[0.0, 0.0, -1.5052288706440118]","[0.09859529137611389, 0.057717464864254, 0.03999999910593033]","[0.0, 0.0, -1.5138427586332608]",1.413101294719633,-21.682701192523552,"(0.0, 0.0, 0.0, 0.0, 0.0, 0.0)",-36.2964633864193,-0.08999572753671375,-21.600020366059084,"(0.0, 0.0, 0.0, 0.0, 0.0, 0.0)",-4.677104715743802,-1.4147060948339576,21.72549586223887,"(0.0, 0.0, 0.0, 0.0, 0.0, 0.0)",36.28721231316116,0.08224721981037424,21.806647295928226,"(0.0, 0.0, 0.0, 0.0, 0.0, 0.0)",4.674247117033191,False,,,,,False,,,,
16,Close,,,"(0.010000659812012168, 0.16001055698314023, 0.0146278458391823)","(-0.0002154970996661642, 1.346858017578936e-05, -1.4512199879406586e-09)",,"[-0.026750000193715096, 0.05299999937415123, 0.03999999910593033]","[0.0, -0.0, 1.331791174621689]","[-0.09670332819223404, 0.07004500180482864, 0.03999999910593033]","[0.0, -0.0, 1.1607947601674466]","[0.026750000193715096, 0.05299999937415123, 0.03999999910593033]","[0.0, 0.0, -1.333235579802916]","[0.0967278704047203, 0.06994394958019257, 0.03999999910593033]","[0.0, 0.0, -1.1692126917852095]",1.2586120487229027,-17.562987965944075,"(0.0, 0.0, 0.0, 0.0, 0.0, 0.0)",2.9912613024458263,-0.2438973282575851,-17.496176851103186,"(0.0, 0.0, 0.0, 0.0, 0.0, 0.0)",0.3774423078885404,-1.2599119368155056,17.59765164841349,"(0.0, 0.0, 0.0, 0.0, 0.0, 0.0)",-2.998418754928424,0.23762104120869787,17.663545071724318,"(0.0, 0.0, 0.0, 0.0, 0.0, 0.0)",-0.3794651959179023,False,,,,,False,,,,
17,Close,,,"(0.010000989414132393, 0.1600158306125408, 0.020893621515273818)","(-0.00032319108508158773, 2.0199459787849396e-05, -3.2641426920478403e-09)",,"[-0.026750000193715096, 0.05299999937415123, 0.03999999910593033]","[0.0, -0.0, 1.1927509376626115]","[-0.09366592019796371, 0.0795755386352539, 0.03999999910593033]","[0.0, -0.0, 0.8832429263887086]","[0.026750000193715096, 0.05299999937415123, 0.03999999910593033]","[0.0, 0.0, -1.1939208377844814]","[0.0936969667673111, 0.07949723303318024, 0.03999999910593033]","[0.0, 0.0, -0.8900614482005528]",1.1334757594655511,-14.226020252414699,"(0.0, 0.0, 0.0, 0.0, 0.0, 0.0)",2.4288508647123748,-0.36855748390702325,-14.171887099327844,"(0.0, 0.0, 0.0, 0.0, 0.0, 0.0)",0.30976852738726823,-1.1345286688205596,14.254097835214925,"(0.0, 0.0, 0.0, 0.0, 0.0, 0.0)",-2.4347025650831196,0.36347369491056536,14.307455277413446,"(0.0, 0.0, 0.0, 0.0, 0.0, 0.0)",-0.3114537668278207,False,,,,,False,,,,
18,Close,,,"(0.010001318826104761, 0.16002110119957821, 0.02646143576036139)","(-0.0004308487108156613, 2.692806668198511e-05, -5.800961497533997e-09)",,"[-0.026750000193715096, 0.05299999937415123, 0.03999999910593033]","[0.0, -0.0, 1.0801281957344744]","[-0.09025531262159348, 0.08692750334739685, 0.03999999910593033]","[0.0, -0.0, 0.658426092619021]","[0.026750000193715096, 0.05299999937415123, 0.03999999910593033]","[0.0, 0.0, -1.0810758877799864]","[0.09028743207454681, 0.0868673101067543, 0.03999999910593033]","[0.0, 0.0, -0.6639491897248752]",1.0321153651670965,-11.523076404455903,"(0.0, 0.0, 0.0, 0.0, 0.0, 0.0)",1.9712593195403922,-0.46953209273108476,-11.479215138346529,"(0.0, 0.0, 0.0, 0.0, 0.0, 0.0)",0.25356328507457,-1.0329682217446532,11.54581924652409,"(0.0, 0.0, 0.0, 0.0, 0.0, 0.0)",-1.976034733535922,0.46541422655746517,11.589025293474933,"(0.0, 0.0, 0.0, 0.0, 0.0, 0.0)",-0.2549589687679249,False,,,,,False,,,,
19,Close,,,"(0.010001648057231211, 0.16002636889308344, 0.03133184175509247)","(-0.0005384699893107284, 3.3654401557527444e-05, -9.06094284338731e-09)",,"[-0.026750000193715096, 0.05299999937415123, 0.03999999910593033]","[0.0, -0.0, 0.9889039009917453]","[-0.08690053224563599, 0.09257163107395172, 0.03999999910593033]","[0.0, -0.0, 0.4763247177857985]","[0.026750000193715096, 0.05299999937415123, 0.03999999910593033]","[0.0, 0.0, -0.9896714317513632]","[0.08693088591098785, 0.09252544492483139, 0.03999999910593033]","[0.0, 0.0, -0.4807983343348629]",0.9500134457853482,-9.333691887609287,"(0.0, 0.0, 0.0, 0.0, 0.0, 0.0)",1.59927232790674,-0.551321428885197,-9.298153181376478,"(0.0, 0.0, 0.0, 0.0, 0.0, 0.0)",0.20712540820679678,-0.9507042596131691,9.352113589684514,"(0.0, 0.0, 0.0, 0.0, 0.0, 0.0)",-1.6031637286990463,0.5479859596890367,9.387099348535743,"(0.0, 0.0, 0.0, 0.0, 0.0, 0.0)",-0.20827601456628825,False,,,,,False,,,,
20,Close,,,"(0.010001977116791199, 0.1600316338415276, 0.035505353338314005)","(-0.0006460549330047555, 4.037846511369274e-05, -1.3043353742532214e-08)",,"[-0.026750000193715096, 0.05299999937415123, 0.03999999910593033]","[0.0, -0.0, 0.9150121593347216]","[-0.08381503820419312, 0.09690423309803009, 0.03999999910593033]","[0.0, -0.0, 0.3288226039195219]","[0.026750000193715096, 0.05299999937415123, 0.03999999910593033]","[0.0, 0.0, -0.9156338940018686]","[0.08384232223033905, 0.09686874598264694, 0.03999999910593033]","[0.0, 0.0, -0.33244627340343963]",0.883510891086132,-7.560290428963521,"(0.0, 0.0, 0.0, 0.0, 0.0, 0.0)",1.2970851133907606,-0.6175707112805602,-7.53149495926978,"(0.0, 0.0, 0.0, 0.0, 0.0, 0.0)",0.1689126126712179,-0.884070450286667,7.575212007644451,"(0.0, 0.0, 0.0, 0.0, 0.0, 0.0)",-1.3002524451675361,0.6148689832085066,7.603541305643349,"(0.0, 0.0, 0.0, 0.0, 0.0, 0.0)",-0.16985779298155493,False,,,,,False,,,,
21,Close,,,"(0.010002306014043007, 0.16003689619304312, 0.038982445123681576)","(-0.0007536035543313348, 4.7100258049582536e-05, -1.7747461781428295e-08)",,"[-0.026750000193715096, 0.05299999937415123, 0.03999999910593033]","[0.0, -0.0, 0.855159831855573]","[-0.0810866579413414, 0.10023905336856842, 0.03999999910593033]","[0.0, -0.0, 0.20934598049273878]","[0.026750000193715096, 0.05299999937415123, 0.03999999910593033]","[0.0, 0.0, -0.855663319897266]","[0.08111044019460678, 0.10021167993545532, 0.03999999910593033]","[0.0, 0.0, -0.21228117869263835]",0.8296438217797669,-6.123835247460454,"(0.0, 0.0, 0.0, 0.0, 0.0, 0.0)",1.05173758145085,-0.6712325644411228,-6.100503438359898,"(0.0, 0.0, 0.0, 0.0, 0.0, 0.0)",0.13756782929819192,-0.8300970647322002,6.135921726192006,"(0.0, 0.0, 0.0, 0.0, 0.0, 0.0)",-1.0543131565319612,0.6690441663231638,6.158860938132814,"(0.0, 0.0, 0.0, 0.0, 0.0, 0.0)",-0.13834207864853043,False,,,,,False,,,,
22,Close,,,"(0.010002634758225062, 0.1600421560954447, 0.041763552607370504)","(-0.000861115865719684, 5.381978106418352e-05, -2.3172535119669436e-08)",,"[-0.026750000193715096, 0.05299999937415123, 0.03999999910593033]","[0.0, -0.0, 0.8066794434121096]","[-0.07873354107141495, 0.10281677544116974, 0.03999999910593033]","[0.0, -0.0, 0.11257000369976355]","[0.026750000193715096, 0.05299999937415123, 0.03999999910593033]","[0.0, 0.0, -0.807087375168555]","[0.07875385880470276, 0.1027955636382103, 0.03999999910593033]","[0.0, 0.0, -0.11494747853587685]",0.7860114956416112,-4.960306550442966,"(0.0, 0.0, 0.0, 0.0, 0.0, 0.0)",0.8526282438926112,-0.7146986118113532,-4.941401666116088,"(0.0, 0.0, 0.0, 0.0, 0.0, 0.0)",0.11192109221648956,-0.7863786224330822,4.970096598215528,"(0.0, 0.0, 0.0, 0.0, 0.0, 0.0)",-0.8547210444656044,0.7129260106609093,4.988671207184531,"(0.0, 0.0, 0.0, 0.0, 0.0, 0.0)",-0.11255391153308099,False,,,,,False,,,,
23,Close,,,"(0.010002963358557236, 0.16004741369625017, 0.04384907226694074)","(-0.0009685918795946493, 6.053703485636736e-05, -2.9317842489583264e-08)",,"[-0.026750000193715096, 0.05299999937415123, 0.03999999910593033]","[0.0, -0.0, 0.7674103444184671]","[-0.07673770934343338, 0.10481919348239899, 0.03999999910593033]","[0.0, -0.0, 0.03418149097606777]","[0.026750000193715096, 0.05299999937415123, 0.03999999910593033]","[0.0, 0.0, -0.7677407466611278]","[0.07675483077764511, 0.1048026755452156, 0.03999999910593033]","[0.0, 0.0, -0.0361072460378734]",0.7506693114697051,-4.017848305858803,"(0.0, 0.0, 0.0, 0.0, 0.0, 0.0)",0.6911017846597902,-0.7499060663183246,-4.0025303530146505,"(0.0, 0.0, 0.0, 0.0, 0.0, 0.0)",0.09097831684118958,-0.7509666841707966,4.025778244554576,"(0.0, 0.0, 0.0, 0.0, 0.0, 0.0)",-0.6928012733138227,0.7484702604680491,4.040818653480022,"(0.0, 0.0, 0.0, 0.0, 0.0, 0.0)",-0.09149462532289206,False,,,,,False,,,,
24,Close,,,"(0.010003291824242136, 0.16005266914270105, 0.04523936165140331)","(-0.0010760316083767074, 6.725202012489063e-05, -3.618265319583079e-08)",,"[-0.026750000193715096, 0.05299999937415123, 0.03999999910593033]","[0.0, -0.0, 0.7356023986171477]","[-0.07506444305181503, 0.10638272017240524, 0.03999999910593033]","[0.0, 0.0, -0.029314282157410606]","[0.026750000193715096, 0.05299999937415123, 0.03999999910593033]","[0.0, 0.0, -0.7358699744488303]","[0.07507872581481934, 0.10636978596448898, 0.03999999910593033]","[0.0, -0.0, 0.027754427824074522]",0.722042142290461,-3.2544571277456287,"(0.0, 0.0, 0.0, 0.0, 0.0, 0.0)",0.560108160717456,-0.7784260816002104,-3.242260463996204,"(0.0, 0.0, 0.0, 0.0, 0.0, 0.0)",0.0739092939425144,-0.7222830141783452,3.260880378089207,"(0.0, 0.0, 0.0, 0.0, 0.0, 0.0)",-0.5614876113391304,0.7772630911922368,3.2732751882458535,"(0.0, 0.0, 0.0, 0.0, 0.0, 0.0)",-0.07432997801242036,False,,,,,False,,,,
25,Close,,,"(0.010001644182078712, 0.16005595153396976, 0.045940321410535084)","(-0.0011271805217326655, 1.767785898679914e-05, -1.508889111938428e-08)",,"[-0.026750000193715096, 0.05299999937415123, 0.03999999910593033]","[0.0, -0.0, 0.7098379546684608]","[-0.07367318123579025, 0.10760965943336487, 0.03999999910593033]","[0.0, 0.0, -0.08074653118681538]","[0.026750000193715096, 0.05299999937415123, 0.03999999910593033]","[0.0, 0.0, -0.7100547061469626]","[0.07368502020835876, 0.10759948939085007, 0.03999999910593033]","[0.0, -0.0, 0.07948305351710017]",0.6988541352552734,-2.6361102734739577,"(0.0, 0.0, 0.0, 0.0, 0.0, 0.0)",0.4538907146887525,-0.8015268867317584,-2.626184566689172,"(0.0, 0.0, 0.0, 0.0, 0.0, 0.0)",0.06000477197099662,-0.6990492414844596,2.6413131062522566,"(0.0, 0.0, 0.0, 0.0, 0.0, 0.0)",-0.45500992694973624,0.8005848745408953,2.6513062318756173,"(0.0, 0.0, 0.0, 0.0, 0.0, 0.0)",-0.06034712704439637,False,,,,,False,,,,
26,Close,,,"(0.0099979269032565, 0.16005188637635104, 0.04640949954916324)","(-0.0010442772263960227, -5.814874739306873e-05, 7.787963860925158e-09)",,"[-0.026750000193715096, 0.05299999937415123, 0.03999999910593033]","[0.0, -0.0, 0.6889687286552088]","[-0.07252338528633118, 0.1085769459605217, 0.03999999910593033]","[0.0, 0.0, -0.12240626184562299]","[0.026750000193715096, 0.05299999937415123, 0.03999999910593033]","[0.0, 0.0, -0.6891442541658422]","[0.07253314554691315, 0.10856890678405762, 0.03999999910593033]","[0.0, -0.0, 0.12138287899953458]",0.6800717984485459,-2.1352615874880345,"(0.0, 0.0, 0.0, 0.0, 0.0, 0.0)",0.36778464275725675,-0.820237492399504,-2.127000202679893,"(0.0, 0.0, 0.0, 0.0, 0.0, 0.0)",0.04871100820034693,-0.6802298342020312,2.1394759521557623,"(0.0, 0.0, 0.0, 0.0, 0.0, 0.0)",-0.3686924226914724,0.8194744666035607,2.147347557238381,"(0.0, 0.0, 0.0, 0.0, 0.0, 0.0)",-0.04898946018255637,False,,,,,False,,,,
27,Close,,,"(0.009998107600018924, 0.16004411888380865, 0.0468059782297436)","(-0.0008858309445970004, -5.447527859797503e-05, 4.128601528647624e-08)",,"[-0.026750000193715096, 0.05299999937415123, 0.03999999910593033]","[0.0, -0.0, 0.672064613904271]","[-0.07157741487026215, 0.10934273153543472, 0.03999999910593033]","[0.0, 0.0, -0.15614974961002634]","[0.026750000193715096, 0.05299999937415123, 0.03999999910593033]","[0.0, 0.0, -0.6722069192953587]","[0.07158542424440384, 0.10933635383844376, 0.03999999910593033]","[0.0, -0.0, 0.15532080931604164]",0.6648581567433223,-1.7295508464885936,"(0.0, 0.0, 0.0, 0.0, 0.0, 0.0)",0.29799285099320455,-0.8353935278746698,-1.722993881465588,"(0.0, 0.0, 0.0, 0.0, 0.0, 0.0)",0.03950205891705609,-0.6649861657036452,1.732964418763874,"(0.0, 0.0, 0.0, 0.0, 0.0, 0.0)",-0.2987289514022836,0.83477548361327,1.7394759470338683,"(0.0, 0.0, 0.0, 0.0, 0.0, 0.0)",-0.03972821774930672,False,,,,,False,,,,
28,Close,,,"(0.009998390752654573, 0.16003702894197389, 0.04714144752999396)","(-0.0007411380797103218, -4.869650481896534e-05, 1.1687517768299383e-07)",,"[-0.026750000193715096, 0.05299999937415123, 0.03999999910593033]","[0.0, -0.0, 0.6583722791296546]","[-0.07080177217721939, 0.10995122045278549, 0.03999999910593033]","[0.0, 0.0, -0.18348236399010098]","[0.026750000193715096, 0.05299999937415123, 0.03999999910593033]","[0.0, 0.0, -0.6584875609778488]","[0.07080833613872528, 0.10994613915681839, 0.03999999910593033]","[0.0, -0.0, 0.18281091441867092]",0.652535106962091,-1.400936185655761,"(0.0, 0.0, 0.0, 0.0, 0.0, 0.0)",0.24143143710013154,-0.8476696977959799,-1.3956001238249038,"(0.0, 0.0, 0.0, 0.0, 0.0, 0.0)",0.032035576984152714,-0.6526387942199526,1.4037011791987364,"(0.0, 0.0, 0.0, 0.0, 0.0, 0.0)",-0.24202820218879367,0.8471690873323404,1.4089504550195393,"(0.0, 0.0, 0.0, 0.0, 0.0, 0.0)",-0.0322192170145395,False,,,,,False,,,,
29,Close,,,"(0.009998679410322496, 0.16003066597344334, 0.0474253884764576)","(-0.0006112814540129935, -4.2805404436077314e-05, 1.9447426774393396e-07)",,"[-0.026750000193715096, 0.05299999937415123, 0.03999999910593033]","[0.0, -0.0, 0.6472815645892557]","[-0.07016744464635849, 0.11043626815080643, 0.03999999910593033]","[0.0, 0.0, -0.2056215493544759]","[0.026750000193715096, 0.05299999937415123, 0.03999999910593033]","[0.0, 0.0, -0.6473749785824873]","[0.07017280906438828, 0.1104322224855423, 0.03999999910593033]","[0.0, -0.0, 0.20507767878351457]",0.6425534366392937,-1.1347583103811658,"(0.0, 0.0, 0.0, 0.0, 0.0, 0.0)",0.19559696212506814,-0.8576132175808707,-1.130415870269558,"(0.0, 0.0, 0.0, 0.0, 0.0, 0.0)",0.025974296640771184,-0.6426374233181616,1.1369979551509777,"(0.0, 0.0, 0.0, 0.0, 0.0, 0.0)",-0.19608068519888996,0.8572077274788498,1.141229523067934,"(0.0, 0.0, 0.0, 0.0, 0.0, 0.0)",-0.02612334092818916,False,,,,,False,,,,
30,Close,,,"(0.009865465308992205, 0.15999852606453366, 0.04766600164849151)","(-0.0003424815135586742, 0.00015086673503461647, 0.0034152828324375316)",,"[-0.026750000193715096, 0.05299999937415123, 0.03999999910593033]","[0.0, -0.0, 0.6382981045455605]","[-0.06964972615242004, 0.11082398891448975, 0.03999999910593033]","[0.0, 0.0, -0.22355414441709243]","[0.026750000193715096, 0.05299999937415123, 0.03999999910593033]","[0.0, 0.0, -0.6383737252477673]","[0.06965409219264984, 0.11082074791193008, 0.03999999910593033]","[0.0, -0.0, 0.22311363310560886]",0.6344682836778279,-0.9191542314087444,"(0.0, 0.0, 0.0, 0.0, 0.0, 0.0)",0.1584658053641607,-0.8656670151994418,-0.9155462613482186,"(0.0, 0.0, 0.0, 0.0, 0.0, 0.0)",0.021063560793533557,-0.6345419852789147,0.9196069697833984,"(0.0, 0.0, 0.0, 0.0, 0.0, 0.0)",1.5650710318467773,0.8652269258386903,0.8975102038417887,"(0.0, 0.0, 0.0, 0.0, 0.0, 0.0)",0.970263568851588,False,,,,,True,"(0.041964474105275554, 0.17969275438125942, 0.023999959438538113)","(-0.9999999992078928, -2.3394376763778626e-07, -3.980150266267419e-05)",0.0005277146366441324,13.827283024398023
31,Move,,,"(0.007363952190207586, 0.1595176072470861, 0.04786907614534817)","(-0.000283671801070412, 0.00017028703879343212, 0.033932294028324435)","[0.0, 0.0, 0.0]","[-0.026750000193715096, 0.05299999937415123, 0.03999999910593033]","[0.0, -0.0, 0.6310214732486521]","[-0.06922782957553864, 0.1111346185207367, 0.03999999910593033]","[0.0, 0.0, -0.23807887186492363]","[0.026750000193715096, 0.05299999937415123, 0.03999999910593033]","[0.0, 0.0, -0.6310879718519756]","[0.06923169642686844, 0.11113179475069046, 0.03999999910593033]","[0.0, -0.0, 0.2376151439176698]",0.6073010028525442,-5.692908589800243,"(0.0, 0.0, 0.0, 0.0, 0.0, 0.0)",-6.970029188620435,-0.868756983831492,0.08239916352133925,"(0.0, 0.0, 0.0, 0.0, 0.0, 0.0)",-0.4110687045203754,-0.6117280690932336,4.646378695169427,"(0.0, 0.0, 0.0, 0.0, 0.0, 0.0)",6.63722350158353,0.8683562496935296,-0.08325233958591138,"(0.0, 0.0, 0.0, 0.0, 0.0, 0.0)",0.9711507533803067,False,,,,,True,"(0.04054627108315854, 0.179595033909982, 0.023999959438538113)","(-0.9999999992078928, -2.3394376763778626e-07, -3.980150266267419e-05)",-6.660727030056632e-06,5.483947105729632
32,Move,,,"(0.003581798779507854, 0.15888081127638445, 0.0479516006086598)","(0.0007129250223673224, -0.00208967314794087, 0.0775559872120303)","[-0.003782153410699732, -0.0006367959707016535, 8.25244633116326e-05]","[-0.026750000193715096, 0.05299999937415123, 0.03999999910593033]","[0.0, -0.0, 0.5859526299274878]","[-0.06656552106142044, 0.11298936605453491, 0.03999999910593033]","[0.0, 0.0, -0.2824962348735626]","[0.026750000193715096, 0.05299999937415123, 0.03999999910593033]","[0.0, 0.0, -0.5943032042166643]","[0.06706507503986359, 0.11265479773283005, 0.03999999910593033]","[0.0, -0.0, 0.2737407621305699]",0.5651750435041389,-4.9866125127970315,"(0.0, 0.0, 0.0, 0.0, 0.0, 0.0)",0.1879296173067297,-0.8684796473023089,-0.007395640778216972,"(0.0, 0.0, 0.0, 0.0, 0.0, 0.0)",0.0052485587257143,-0.5763335013853139,4.3127362313992865,"(0.0, 0.0, 0.0, 0.0, 0.0, 0.0)",0.20027995465953127,0.8680752302284668,0.0074938524016774505,"(0.0, 0.0, 0.0, 0.0, 0.0, 0.0)",0.02249499703994292,False,,,,,True,"(0.0359258773488902, 0.1800326723866737, 0.023997902681873285)","(-0.9984706073090757, -0.05524536888912827, -0.002096558167493954)",0.00012594863753174636,0.0
33,Move,,,"(0.001122542829286716, 0.1593018964136896, 0.0479227662575371)","(0.004945114300985391, -0.0007111404472231802, 0.10411918620410092)","[-0.006241409360920869, -0.00021571083339649855, 5.3690112188933825e-05]","[-0.026750000193715096, 0.05299999937415123, 0.03999999910593033]","[0.0, -0.0, 0.5464752837415245]","[-0.06416688859462738, 0.11451403051614761, 0.03999999910593033]","[0.0, 0.0, -0.32203216719565797]","[0.026750000193715096, 0.05299999937415123, 0.03999999910593033]","[0.0, 0.0, -0.5601607664550203]","[0.06500521302223206, 0.113996222615242, 0.03999999910593033]","[0.0, -0.0, 0.3079426098360514]",0.5284581628806412,-4.324100182620625,"(0.0, 0.0, 0.0, 0.0, 0.0, 0.0)",-40.57665041993025,-0.8499710773008806,4.448713801084151,"(0.0, 0.0, 0.0, 0.0, 0.0, 0.0)",-20.450246702708142,-0.5432536493593767,4.057701472950861,"(0.0, 0.0, 0.0, 0.0, 0.0, 0.0)",40.51490371176407,0.8490881856801438,-4.5636359590366995,"(0.0, 0.0, 0.0, 0.0, 0.0, 0.0)",20.9314301799772,True,"(-0.029811151186175763, 0.18051363537611448, 0.05600153891941393)","(0.9949795852674637, 0.10006627287285103, 0.001538159394272495)",-0.0021929381795451827,324.8302845382825,True,"(0.031581245564939034, 0.18025917111664624, 0.023998461080646502)","(-0.9949795852674632, -0.10006627287285588, -0.0015381593942749786)",0.00032843032100871104,245.81822951935948
34,Move,"(-0.0031000000000000003, 0.0, -0.0002)","(0.0, 0.02079385270826044, 0.0)","(0.0006379861029801225, 0.1602485324302422, 0.04792187381050581)","(0.007933571314614224, 0.00014179417079192243, 0.09912463076015636)","[-0.006725966087227463, 0.0007309251831560948, 5.27976651576445e-05]","[-0.026750000193715096, 0.05299999937415123, 0.03999999910593033]","[0.0, -0.0, 0.5122910766505747]","[-0.062042638659477234, 0.11575690656900406, 0.03999999910593033]","[0.0, 0.0, -0.3205952360126725]","[0.026750000193715096, 0.05299999937415123, 0.03999999910593033]","[0.0, 0.0, -0.5280779333918697]","[0.06302893161773682, 0.11519195139408112, 0.03999999910593033]","[0.0, -0.0, 0.3033470937789916]",0.5129509892574065,0.1583721510383378,"(0.0, 0.0, 0.0, 0.0, 0.0, 0.0)",4.711968146918416,-0.8345987313609821,-0.410983751257076,"(0.0, 0.0, 0.0, 0.0, 0.0, 0.0)",-0.39923142623529023,-0.5308061330801174,-0.6547531017507962,"(0.0, 0.0, 0.0, 0.0, 0.0, 0.0)",-5.752847357837479,0.8331914035747173,0.4239141894780385,"(0.0, 0.0, 0.0, 0.0, 0.0, 0.0)",0.037991289555216086,True,"(-0.027782116061409873, 0.18180915987972746, 0.05600071189642032)","(0.9945842410657634, 0.10393113923646441, 0.000711140387283058)",-0.005767574495913523,5.052592153681447,True,"(0.029910421102272162, 0.18160183909572525, 0.023999288099653494)","(-0.994584241065763, -0.10393113923646692, -0.0007111403872818769)",0.00023400145338051335,0.0
35,Move,"(0.0022, 0.0, 0.000675)","(0.0, 0.022036527135680405, 0.0)","(0.0012401198504961648, 0.16035704791594516, 0.04802180115870722)","(0.003934815156746662, 0.0013940599343752137, 0.09631505183155957)","[-0.006123832339711421, 0.0008394406688590483, 0.00015272501335904937]","[-0.026750000193715096, 0.05299999937415123, 0.03999999910593033]","[0.0, -0.0, 0.5136076659122293]","[-0.062125228345394135, 0.11571039259433746, 0.03999999910593033]","[0.0, 0.0, -0.32159120114560547]","[0.026750000193715096, 0.05299999937415123, 0.03999999910593033]","[0.0, 0.0, -0.5333192650567797]","[0.06335440278053284, 0.11500094830989838, 0.03999999910593033]","[0.0, -0.0, 0.30071342213980873]",0.5112410665008438,-0.5679840812892777,"(0.0, 0.0, 0.0, 0.0, 0.0, 0.0)",-5.44363917387647,-0.8331110671189533,0.5010803348464328,"(0.0, 0.0, 0.0, 0.0, 0.0, 0.0)",-2.285653285664365,-0.5354498852319893,-0.5113372975577344,"(0.0, 0.0, 0.0, 0.0, 0.0, 0.0)",4.0297431968902,0.832261261841023,-0.4251548713377433,"(0.0, 0.0, 0.0, 0.0, 0.0, 0.0)",1.8103382292181802,True,"(-0.027798935026373442, 0.1817284829239698, 0.05600071189642032)","(0.9945842410657634, 0.10393113923646441, 0.000711140387283058)",-0.00496419850644386,30.881231834481515,True,"(0.030410905607830274, 0.1814978291686432, 0.023999288099653494)","(-0.994584241065763, -0.10393113923646692, -0.0007111403872818769)",1.8229848596253967e-05,21.554323608992995
36,Move,"(0.0026857, 0.0, 0.0008429)","(0.0, 0.018800686702482923, 0.0)","(0.0018903316476567207, 0.16048292587415894, 0.04810806168094353)","(0.0003464746411079048, 0.0026500757477381713, 0.09314208148701436)","[-0.005473620542550866, 0.0009653186270728309, 0.00023898553559536378]","[-0.026750000193715096, 0.05299999937415123, 0.03999999910593033]","[0.0, -0.0, 0.5091074372780429]","[-0.0618426576256752, 0.1158689558506012, 0.03999999910593033]","[0.0, 0.0, -0.3221827103702768]","[0.026750000193715096, 0.05299999937415123, 0.03999999910593033]","[0.0, 0.0, -0.537364819646388]","[0.0636049285531044, 0.11485235393047333, 0.03999999910593033]","[0.0, -0.0, 0.29334925783544297]",0.5070781695232368,-0.487008493232023,"(0.0, 0.0, 0.0, 0.0, 0.0, 0.0)",-3.6186880322234,-0.8298031822046418,0.3568413654415389,"(0.0, 0.0, 0.0, 0.0, 0.0, 0.0)",-1.8625920855385016,-0.5395415640629422,-0.5224067462462413,"(0.0, 0.0, 0.0, 0.0, 0.0, 0.0)",3.2213854106948907,0.8294851985786299,-0.294936937377998,"(0.0, 0.0, 0.0, 0.0, 0.0, 0.0)",1.5304137784616176,True,"(-0.02747732442271634, 0.18186673372251613, 0.05600071189642032)","(0.9945842410657634, 0.10393113923646441, 0.000711140387283058)",-0.004537097365837022,25.378370050808837,True,"(0.031152018487208333, 0.18159003405147528, 0.023999288099653494)","(-0.994584241065763, -0.10393113923646692, -0.0007111403872818769)",7.793042508853243e-05,14.011187220926232
37,Move,"(0.004860000000000001, 0.0, 0.00109)","(0.0, 0.019484855769264696, 0.0)","(0.002534748739251367, 0.16058236283021984, 0.04819334993539459)","(-0.0017162912101134288, 0.0037900368292822376, 0.09029968588677992)","[-0.004829203450956219, 0.0010647555831337363, 0.00032427379004642404]","[-0.026750000193715096, 0.05299999937415123, 0.03999999910593033]","[0.0, -0.0, 0.5052547332425059]","[-0.061600182205438614, 0.11600368469953537, 0.03999999910593033]","[0.0, 0.0, -0.3231746056118835]","[0.026750000193715096, 0.05299999937415123, 0.03999999910593033]","[0.0, 0.0, -0.5415035521968097]","[0.06386060267686844, 0.11469929665327072, 0.03999999910593033]","[0.0, -0.0, 0.2868344829541567]",0.50285998270704,-0.5747328137792912,"(0.0, 0.0, 0.0, 0.0, 0.0, 0.0)",-3.974095043237326,-0.8269467207162557,0.35581399195784674,"(0.0, 0.0, 0.0, 0.0, 0.0, 0.0)",-1.8247144180251884,-0.5440133875118851,-0.6023466702554396,"(0.0, 0.0, 0.0, 0.0, 0.0, 0.0)",2.750237963383141,0.8271753773483344,-0.27905124260495445,"(0.0, 0.0, 0.0, 0.0, 0.0, 0.0)",1.3865208876165234,True,"(-0.02716940328544499, 0.18196734684032362, 0.05600071189642032)","(0.9945842410657634, 0.10393113923646441, 0.000711140387283058)",-0.004129282099513855,26.19517188839248,True,"(0.03184315798387435, 0.1816469767015919, 0.023999288099653494)","(-0.994584241065763, -0.10393113923646692, -0.0007111403872818769)",0.00010290215714403148,8.240168911711047
38,Move,"(0.0074769, 0.0, 0.0016922999999999999)","(0.0, 0.028199284724472383, 0.0)","(0.0032959600610598743, 0.16066448856396898, 0.048254382404950086)","(-0.0027625222667408645, 0.0049268308555178, 0.08884468280606199)","[-0.004067992129147711, 0.0011468813168828695, 0.0003853062596019183]","[-0.026750000193715096, 0.05299999937415123, 0.03999999910593033]","[0.0, -0.0, 0.5007026510555153]","[-0.061313025653362274, 0.11616167426109314, 0.03999999910593033]","[0.0, 0.0, -0.3249074686817845]","[0.026750000193715096, 0.05299999937415123, 0.03999999910593033]","[0.0, 0.0, -0.5462694025303546]","[0.0641542300581932, 0.11452173441648483, 0.03999999910593033]","[0.0, -0.0, 0.27989173439275444]",0.4978951971271558,-0.673781289492426,"(0.0, 0.0, 0.0, 0.0, 0.0, 0.0)",-3.6655312549221337,-0.8242189078492516,0.3338825631489797,"(0.0, 0.0, 0.0, 0.0, 0.0, 0.0)",-1.7520029335559408,-0.5491628865906667,-0.6944440745865185,"(0.0, 0.0, 0.0, 0.0, 0.0, 0.0)",2.3720591813305005,0.8251594752238841,-0.2403884186209277,"(0.0, 0.0, 0.0, 0.0, 0.0, 0.0)",1.1854443813283468,True,"(-0.02676798915236315, 0.1820655707209047, 0.05600071189642032)","(0.9945842410657634, 0.10393113923646441, 0.000711140387283058)",-0.003786962523453379,22.66613118675966,True,"(0.032602348867653605, 0.18169009054472143, 0.023999288099653494)","(-0.994584241065763, -0.10393113923646692, -0.0007111403872818769)",0.00016669083686012733,2.148634219264642
39,Move,"(0.0112333, 0.0, 0.0030800000000000003)","(0.0, 0.03429746513094057, 0.0)","(0.004158093242429271, 0.16073740918361154, 0.04829392429480093)","(-0.0031071251462958488, 0.005863140030024812, 0.08669838597235827)","[-0.003205858947778315, 0.0012198019365254331, 0.00042484814945276117]","[-0.026750000193715096, 0.05299999937415123, 0.03999999910593033]","[0.0, -0.0, 0.4953726151320703]","[-0.06097588315606117, 0.11634499579668045, 0.03999999910593033]","[0.0, 0.0, -0.32752720260510293]","[0.026750000193715096, 0.05299999937415123, 0.03999999910593033]","[0.0, 0.0, -0.551770525731511]","[0.06449209898710251, 0.11431504040956497, 0.03999999910593033]","[0.0, -0.0, 0.2724416044964396]",0.4919178632318776,-0.8291414818666694,"(0.0, 0.0, 0.0, 0.0, 0.0, 0.0)",-3.539943051464003,-0.8215485521497558,0.32430232236307793,"(0.0, 0.0, 0.0, 0.0, 0.0, 0.0)",-1.7120001998461436,-0.5552648541941456,-0.8386383747423176,"(0.0, 0.0, 0.0, 0.0, 0.0, 0.0)",2.166462488632471,0.8232755086291482,-0.22479681780979982,"(0.0, 0.0, 0.0, 0.0, 0.0, 0.0)",1.0863656880117702,True,"(-0.02625831664830716, 0.18215816900488485, 0.05600071189642032)","(0.9945842410657634, 0.10393113923646441, 0.000711140387283058)",-0.003451658643106901,20.571456123615082,True,"(0.03344150323151358, 0.18171659221554148, 0.023999288099653494)","(-0.994584241065763, -0.10393113923646692, -0.0007111403872818769)",0.00019833761737428498,0.0
40,Move,"(0.0160533, 0.0, 0.0046133)","(0.0, 0.03896971153852939, 0.0)","(0.005154229717049534, 0.16080510511484952, 0.04831844914603131)","(-0.0024119606601039644, 0.0066639533220210784, 0.08312828013389818)","[-0.0022097224731580517, 0.0012874978677634152, 0.00044937300068314395]","[-0.026750000193715096, 0.05299999937415123, 0.03999999910593033]","[0.0, -0.0, 0.4888129694698246]","[-0.060559630393981934, 0.11656814068555832, 0.03999999910593033]","[0.0, 0.0, -0.3314571088036606]","[0.026750000193715096, 0.05299999937415123, 0.03999999910593033]","[0.0, 0.0, -0.5584129997079216]","[0.0648985430598259, 0.11406298726797104, 0.03999999910593033]","[0.0, -0.0, 0.26397214862462376]",0.48450646256214386,-1.033560935166612,"(0.0, 0.0, 0.0, 0.0, 0.0, 0.0)",-3.4469088717287253,-0.818981762929963,0.3091885686715579,"(0.0, 0.0, 0.0, 0.0, 0.0, 0.0)",-1.6401504325248808,-0.5626873042170168,-1.0258376543698144,"(0.0, 0.0, 0.0, 0.0, 0.0, 0.0)",1.9750451544466816,0.8214910794650543,-0.21457120885739275,"(0.0, 0.0, 0.0, 0.0, 0.0, 0.0)",1.0232631359805384,True,"(-0.025583692322290297, 0.18224437041454655, 0.05600071189642032)","(0.9945842410657634, 0.10393113923646441, 0.000711140387283058)",-0.003137034685286933,18.8817064283516,True,"(0.03441991341449096, 0.18172510338287706, 0.023999288099653494)","(-0.994584241065763, -0.10393113923646692, -0.0007111403872818769)",0.00022559943967574857,0.0
41,Move,"(0.02178, 0.0, 0.00652)","(0.0, 0.04409225289313276, 0.0)","(0.006315814234858132, 0.1608713831927146, 0.04834825596779195)","(-0.0014994289104505922, 0.007394424784012055, 0.07760803214650072)","[-0.0010481379553494534, 0.0013537759456284937, 0.00047917982244378293]","[-0.026750000193715096, 0.05299999937415123, 0.03999999910593033]","[0.0, -0.0, 0.48063428328413027]","[-0.060038596391677856, 0.11684253811836243, 0.03999999910593033]","[0.0, 0.0, -0.33713756947028706]","[0.026750000193715096, 0.05299999937415123, 0.03999999910593033]","[0.0, 0.0, -0.5665367113769942]","[0.0653933435678482, 0.11375106871128082, 0.03999999910593033]","[0.0, -0.0, 0.25411046827644995]",0.4753055202248836,-1.2788901307725775,"(0.0, 0.0, 0.0, 0.0, 0.0, 0.0)",-3.405173956752066,-0.8165283436641205,0.29842602587836786,"(0.0, 0.0, 0.0, 0.0, 0.0, 0.0)",-1.5857898664468113,-0.5717247073530665,-1.2451201877490161,"(0.0, 0.0, 0.0, 0.0, 0.0, 0.0)",1.8272259147671468,0.8197780592396454,-0.2085768707325403,"(0.0, 0.0, 0.0, 0.0, 0.0, 0.0)",0.9829303947421967,True,"(-0.02469015437461832, 0.1823190228839479, 0.05600071189642032)","(0.9945842410657634, 0.10393113923646441, 0.000711140387283058)",-0.0028452729910419124,17.46578484256385,True,"(0.035583444398388425, 0.181710460329449, 0.023999288099653494)","(-0.994584241065763, -0.10393113923646692, -0.0007111403872818769)",0.00025204158197658974,0.0
42,Move,"(0.027379999999999998, 0.0, 0.008406700000000001)","(0.0, 0.04104316268989866, 0.0)","(0.007656769181250896, 0.16092473409329275, 0.04838205912719781)","(-0.002876342927811568, 0.005264649366372265, 0.06996013253460331)","[0.00029281699104331035, 0.001407126846206641, 0.0005129829818496454]","[-0.026750000193715096, 0.05299999937415123, 0.03999999910593033]","[0.0, -0.0, 0.4705129305872525]","[-0.05939073488116264, 0.11717618256807327, 0.03999999910593033]","[0.0, 0.0, -0.34485087333498754]","[0.026750000193715096, 0.05299999937415123, 0.03999999910593033]","[0.0, 0.0, -0.5763960349755175]","[0.06599041819572449, 0.11336712539196014, 0.03999999910593033]","[0.0, -0.0, 0.24256390363308017]",0.4641848078871253,-1.5187546722747611,"(0.0, 0.0, 0.0, 0.0, 0.0, 0.0)",-2.2422017559568435,-0.8147483685746407,0.147702876198738,"(0.0, 0.0, 0.0, 0.0, 0.0, 0.0)",-0.9535648991626984,-0.5823887722823555,-1.4382681588394537,"(0.0, 0.0, 0.0, 0.0, 0.0, 0.0)",1.007173879959143,0.8183854073933207,-0.13787487973198667,"(0.0, 0.0, 0.0, 0.0, 0.0, 0.0)",0.6954705186207384,True,"(-0.023537859048508913, 0.18237189491021946, 0.02399222986151201)","(0.9971895612996191, 0.0745158596418548, -0.007769523595964895)",-0.0028678243996432666,12.792703516725025,True,"(0.03696718297187056, 0.18166618114808838, 0.023999288099653494)","(-0.994584241065763, -0.10393113923646692, -0.0007111403872818769)",0.00027957591246633237,0.0
43,Move,"(0.033100000000000004, 0.0, 0.0099267)","(0.0, 0.033054790703520597, 0.0)","(0.009183105766725777, 0.16087060822541327, 0.048480383077311694)","(-0.007174822611201244, 0.002185867411232065, 0.06126433071094226)","[0.0018191535765181913, 0.0013530009783271624, 0.0006113069319635261]","[-0.026750000193715096, 0.05299999937415123, 0.03999999910593033]","[0.0, -0.0, 0.4584941411300414]","[-0.05861707404255867, 0.11756384372711182, 0.03999999910593033]","[0.0, 0.0, -0.35563656289827145]","[0.026750000193715096, 0.05299999937415123, 0.03999999910593033]","[0.0, 0.0, -0.5877864384331452]","[0.06667546182870865, 0.1129162535071373, 0.03999999910593033]","[0.0, -0.0, 0.23001935755558311]",0.4511945808672655,-1.751888100864322,"(0.0, 0.0, 0.0, 0.0, 0.0, 0.0)",-2.661195848925917,-0.8131266750847038,0.2409582043882581,"(0.0, 0.0, 0.0, 0.0, 0.0, 0.0)",-1.2015097107453727,-0.5946090938805455,-1.6374386676704349,"(0.0, 0.0, 0.0, 0.0, 0.0, 0.0)",1.2437712252765396,0.8170646116400896,-0.17787584423930242,"(0.0, 0.0, 0.0, 0.0, 0.0, 0.0)",0.7819548885748764,True,"(-0.022063237923701656, 0.1823713642828882, 0.02399687542264142)","(0.9978114331122542, 0.06604987174389505, -0.003123842679277412)",-0.002597196630912298,15.641096687162662,True,"(0.03851127434334842, 0.1815740094961948, 0.023999288099653494)","(-0.994584241065763, -0.10393113923646692, -0.0007111403872818769)",0.00012545027681444668,4.699344138840991
44,Move,"(0.038560000000000004, 0.0, 0.0102867)","(0.0, 0.03215245548023954, 0.0)","(0.010868227839404956, 0.16065177586956192, 0.04863482581756448)","(-0.012234195122604619, 0.0009088781037675807, 0.05137883025313369)","[0.0035042756491973706, 0.0011341686224758118, 0.0007657496722163135]","[-0.026750000193715096, 0.05299999937415123, 0.03999999910593033]","[0.0, -0.0, 0.4446307317640081]","[-0.057718969881534576, 0.11799940466880798, 0.03999999910593033]","[0.0, 0.0, -0.36755468195537666]","[0.026750000193715096, 0.05299999937415123, 0.03999999910593033]","[0.0, 0.0, -0.6007518069873007]","[0.0674489215016365, 0.1123935803771019, 0.03999999910593033]","[0.0, -0.0, 0.21561261893495612]",0.43643351111055484,-1.9673361799652271,"(0.0, 0.0, 0.0, 0.0, 0.0, 0.0)",-3.0332504529595825,-0.8110839316880455,0.2643587290740307,"(0.0, 0.0, 0.0, 0.0, 0.0, 0.0)",-1.4061103890354403,-0.6082356377319973,-1.7961139584227288,"(0.0, 0.0, 0.0, 0.0, 0.0, 0.0)",1.5853728154930238,0.8155414027463443,-0.19752818855163706,"(0.0, 0.0, 0.0, 0.0, 0.0, 0.0)",0.9240005811571173,True,"(-0.020395520950462813, 0.18236960650784081, 0.023998448095353817)","(0.9983687080028218, 0.05707465993280246, -0.0015511525816291158)",-0.002411021619319446,18.24148193459575,True,"(0.04027675651601792, 0.1814499532037026, 0.023999288099653494)","(-0.994584241065763, -0.10393113923646692, -0.0007111403872818769)",9.359765910680409e-05,7.4779381984162026
45,Move,"(0.04364, 0.0, 0.01058)","(0.0, 0.0330565360327726, 0.0)","(0.012672947663756744, 0.16037791770316956, 0.04880486584651986)","(-0.018142012100257256, -0.00020933614020875454, 0.040120782682873134)","[0.005308995473549159, 0.0008603104560834518, 0.0009357897011716895]","[-0.026750000193715096, 0.05299999937415123, 0.03999999910593033]","[0.0, -0.0, 0.4290575852258523]","[-0.056703004986047745, 0.11847379058599472, 0.03999999910593033]","[0.0, 0.0, -0.38100900635779505]","[0.026750000193715096, 0.05299999937415123, 0.03999999910593033]","[0.0, 0.0, -0.6149721728758945]","[0.0682893767952919, 0.11180884391069412, 0.03999999910593033]","[0.0, -0.0, 0.19980764186157565]",0.42004146861365693,-2.1638599197141377,"(0.0, 0.0, 0.0, 0.0, 0.0, 0.0)",-3.342687120957893,-0.8088193610550544,0.2993232584050193,"(0.0, 0.0, 0.0, 0.0, 0.0, 0.0)",-1.5664190609972501,-0.6229715069634557,-1.9198527803713357,"(0.0, 0.0, 0.0, 0.0, 0.0, 0.0)",1.896146912481178,0.8138413614218931,-0.2252178235892897,"(0.0, 0.0, 0.0, 0.0, 0.0, 0.0)",1.0633399284511724,True,"(-0.018517031704910633, 0.18233883415878016, 0.023999631892702777)","(0.998920418975017, 0.046452789047645715, -0.0003673478891444671)",-0.0022770491866405344,20.533651649723378,True,"(0.0422119884686275, 0.181286029344791, 0.023999288099653494)","(-0.994584241065763, -0.10393113923646692, -0.0007111403872818769)",9.310372869914437e-05,8.573199713224113
46,Move,"(0.04876, 0.0, 0.009960000000000002)","(0.0, 0.04141666314982544, 0.0)","(0.014519291447705222, 0.16010780760287474, 0.048935910941548325)","(-0.019512592485802373, 0.00016830037327330603, 0.027150037400161836)","[0.007155339257497636, 0.0005902003557886337, 0.001066834796200157]","[-0.026750000193715096, 0.05299999937415123, 0.03999999910593033]","[0.0, -0.0, 0.4119584560176279]","[-0.055579133331775665, 0.11897636950016022, 0.03999999910593033]","[0.0, 0.0, -0.3952550440629135]","[0.026750000193715096, 0.05299999937415123, 0.03999999910593033]","[0.0, 0.0, -0.630197807589405]","[0.06917992979288101, 0.11116958409547806, 0.03999999910593033]","[0.0, -0.0, 0.1825520529141451]",0.40214859214161486,-2.3543525152118527,"(0.0, 0.0, 0.0, 0.0, 0.0, 0.0)",-4.927144382625037,-0.8053432991517903,0.4488366689359379,"(0.0, 0.0, 0.0, 0.0, 0.0, 0.0)",-2.3552430949856187,-0.6386819585341279,-2.036190445044722,"(0.0, 0.0, 0.0, 0.0, 0.0, 0.0)",2.972228703015851,0.8114492437601031,-0.3121546194699871,"(0.0, 0.0, 0.0, 0.0, 0.0, 0.0)",1.4966166016014641,True,"(-0.01648731103255731, 0.18229305962361048, 0.023999994672727544)","(0.9994105267870736, 0.03433072847503269, -5.436676359788562e-06)",-0.0022061214835214704,27.584756564858328,True,"(0.04429310708475205, 0.17994253527177156, 0.05600036810784837)","(-0.9989204189750169, -0.04645278904764567, 0.0003673478891533667)",7.833863810697465e-07,21.785067029543985
47,Move,"(0.0531267, 0.0, 0.0090267)","(0.0, 0.056576593032648184, 0.0)","(0.016521385174043647, 0.15987140480732492, 0.049162006468038165)","(-0.02684704867228978, 0.00012989441528621462, 0.014344338673347687)","[0.009157432983836061, 0.0003537975602388166, 0.0012929303226899974]","[-0.026750000193715096, 0.05299999937415123, 0.03999999910593033]","[0.0, -0.0, 0.39331010354668794]","[-0.05434384569525719, 0.1195024773478508, 0.03999999910593033]","[0.0, 0.0, -0.4104301449102321]","[0.026750000193715096, 0.05299999937415123, 0.03999999910593033]","[0.0, 0.0, -0.6463118382815775]","[0.0701117292046547, 0.11047834903001785, 0.03999999910593033]","[0.0, -0.0, 0.16395570013039967]",0.3828658445171347,-2.5066189714775584,"(0.0, 0.0, 0.0, 0.0, 0.0, 0.0)",-5.3233067772580664,-0.8016248006132397,0.5077142023618891,"(0.0, 0.0, 0.0, 0.0, 0.0, 0.0)",-2.5991200627926663,-0.655072078060541,-2.10245279675475,"(0.0, 0.0, 0.0, 0.0, 0.0, 0.0)",3.397599520933452,0.8088257215752851,-0.3460444873739329,"(0.0, 0.0, 0.0, 0.0, 0.0, 0.0)",1.6732648187931676,True,"(-0.014295736006475844, 0.18221943240117322, 0.023999830938072734)","(0.999631446216431, 0.027146701645525646, -0.00016830037247836515)",-0.002151045255618587,29.82197545297353,True,"(0.046508170482149044, 0.17969446159021157, 0.0560001690603317)","(-0.9996314462164309, -0.027146701645533632, 0.00016830037248150422)",1.6787766278318576e-05,24.60037705399434
48,Move,"(0.05618, 0.0, 0.0078)","(0.0, 0.06890210821023217, 0.0)","(0.018587262272621263, 0.15964943485280886, 0.04943777955038348)","(-0.036866989623429, 0.00017998642981712298, 0.001252560327993398)","[0.011223310082413677, 0.00013182760572275076, 0.0015687034050353155]","[-0.026750000193715096, 0.05299999937415123, 0.03999999910593033]","[0.0, -0.0, 0.37345758980521454]","[-0.05301825329661369, 0.12003714591264725, 0.03999999910593033]","[0.0, 0.0, -0.42638051571238617]","[0.026750000193715096, 0.05299999937415123, 0.03999999910593033]","[0.0, 0.0, -0.6629461472812954]","[0.07106179744005203, 0.10974913835525513, 0.03999999910593033]","[0.0, -0.0, 0.1447248125727735]",0.36270200452971996,-2.5813369947581997,"(0.0, 0.0, 0.0, 0.0, 0.0, 0.0)",-5.408050051852922,-0.7975898427003171,0.5395769507713788,"(0.0, 0.0, 0.0, 0.0, 0.0, 0.0)",-2.740628665324223,-0.6716843470848622,-2.097162399150371,"(0.0, 0.0, 0.0, 0.0, 0.0, 0.0)",3.9515859176229258,0.8059844139050175,-0.4047765433145535,"(0.0, 0.0, 0.0, 0.0, 0.0, 0.0)",1.9516019206006832,True,"(-0.011974945393868196, 0.18211089926192076, 0.02399956498422266)","(0.9999718154979603, 0.00749530723984495, -0.0004342569438960959)",-0.0021600982455284236,29.057866053155735,True,"(0.04879363881106786, 0.17939795375661022, 0.05600043501690312)","(-0.9999718154979604, -0.007495307239849306, 0.00043425694390414435)",1.8738566380762337e-05,29.087621381270353
49,Move,"(0.0591133, 0.0, 0.0061132999999999995)","(0.0, 0.0803689213958349, 0.0)","(0.020656263488605192, 0.15946329117009442, 0.04977875545963441)","(-0.04932145151579634, 0.0004097868616515801, -0.011665006052009496)","[0.013292311298397606, -5.43160769916895e-05, 0.0019096793142862403]","[-0.026750000193715096, 0.05299999937415123, 0.03999999910593033]","[0.0, -0.0, 0.35302262259506945]","[-0.05164296180009842, 0.12055990099906921, 0.03999999910593033]","[0.0, 0.0, -0.4425743566219699]","[0.026750000193715096, 0.05299999937415123, 0.03999999910593033]","[0.0, 0.0, -0.6795468875579515]","[0.07199772447347641, 0.10900574177503586, 0.03999999910593033]","[0.0, -0.0, 0.12489601546279115]",0.34197381930181847,-2.6517081598338037,"(0.0, 0.0, 0.0, 0.0, 0.0, 0.0)",-6.147330356746202,-0.7930739289017313,0.605533501944445,"(0.0, 0.0, 0.0, 0.0, 0.0, 0.0)",-3.0580421099698207,-0.6882405416957253,-2.0864790226183736,"(0.0, 0.0, 0.0, 0.0, 0.0, 0.0)",4.124569345775606,0.802780156712954,-0.3990567515078441,"(0.0, 0.0, 0.0, 0.0, 0.0, 0.0)",2.0014549459510707,True,"(-0.00959984756869206, 0.18196316068324273, 0.02399981925213148)","(0.9999991993488703, 0.001252559980181077, -0.0001799864288453837)",-0.0021596964368630176,35.394347942848775,True,"(0.05111486227237038, 0.17907820925297718, 0.056000180746388066)","(-0.9999991993488703, -0.0012525599801795088, 0.00017998642884677106)",1.2797593050975158e-05,33.614475872444174
50,Move,"(0.062, 0.0, 0.00442)","(0.0, 0.09153728327934658, 0.0)","(0.022754831156213996, 0.15928073897457456, 0.05014027205582076)","(-0.06372881920794506, 0.0008701350625178542, -0.024487653913005853)","[0.01539087896600641, -0.0002368682725115423, 0.00227119591047259]","[-0.026750000193715096, 0.05299999937415123, 0.03999999910593033]","[0.0, -0.0, 0.332027623103303]","[-0.05021916329860687, 0.1210675984621048, 0.03999999910593033]","[0.0, 0.0, -0.45878066900319836]","[0.026750000193715096, 0.05299999937415123, 0.03999999910593033]","[0.0, 0.0, -0.6960626027904315]","[0.07291648536920547, 0.10825084149837494, 0.03999999910593033]","[0.0, -0.0, 0.10521899426087983]",0.3206878645886677,-2.7215427948426516,"(0.0, 0.0, 0.0, 0.0, 0.0, 0.0)",-6.40735942715467,-0.7882444337650406,0.6153093875609522,"(0.0, 0.0, 0.0, 0.0, 0.0, 0.0)",-3.2022921117828838,-0.7046883492984054,-2.0701785902423113,"(0.0, 0.0, 0.0, 0.0, 0.0, 0.0)",4.854435383810423,0.7991586686513487,-0.5095045449154019,"(0.0, 0.0, 0.0, 0.0, 0.0, 0.0)",2.448295985545022,True,"(-0.007186405804843116, 0.18178597373854696, 0.023999064127643292)","(0.9998351747035353, -0.01813143635675963, -0.0009351156034064085)",-0.00224515856933213,34.963094737615215,True,"(0.053416173025501605, 0.17871093339177935, 0.05600093587556263)","(-0.9998351747035352, 0.018131436356760268, 0.0009351156034091705)",-1.042218130174281e-05,40.82797859127893
51,Move,"(0.0640467, 0.0, 0.00318)","(0.0, 0.09696525725304896, 0.0)","(0.02486206792551678, 0.15917571904030842, 0.05059403235967189)","(-0.08595099919951922, 0.0008659832604140486, -0.0366610460578743)","[0.017498115735309194, -0.0003418882067776907, 0.002724956214323719]","[-0.026750000193715096, 0.05299999937415123, 0.03999999910593033]","[0.0, -0.0, 0.3104842335200251]","[-0.04874742403626442, 0.12155736982822418, 0.03999999910593033]","[0.0, 0.0, -0.47546009655329874]","[0.026750000193715096, 0.05299999937415123, 0.03999999910593033]","[0.0, 0.0, -0.7124518929086349]","[0.07381577044725418, 0.10748682171106339, 0.03999999910593033]","[0.0, -0.0, 0.08475050387979634]",0.2990713085528766,-2.7391041602963973,"(0.0, 0.0, 0.0, 0.0, 0.0, 0.0)",-6.831927289533354,-0.7831884823701618,0.6614041452927637,"(0.0, 0.0, 0.0, 0.0, 0.0, 0.0)",-3.390019123174367,-0.7208536431157436,-2.0164240489151717,"(0.0, 0.0, 0.0, 0.0, 0.0, 0.0)",5.3528119777584156,0.7948765055116808,-0.558210207536046,"(0.0, 0.0, 0.0, 0.0, 0.0, 0.0)",2.7519812313960683,True,"(-0.004707797761863246, 0.18155418139316185, 0.023999133453755768)","(0.9995437725945601, -0.03019100980411856, -0.0008657912232146105)",-0.0023283253276643774,39.920056346883726,True,"(0.05576136020329295, 0.17832286637858508, 0.056000866551182436)","(-0.99954377259456, 0.03019100980411652, 0.0008657912232191031)",-3.425474227367267e-05,43.698614089095955
52,Move,"(0.06588, 0.0, 0.00196)","(0.0, 0.1053533096381337, 0.0)","(0.02689096666683384, 0.1590871763274633, 0.05109467730978626)","(-0.11074756787187903, 0.0005742990015687074, -0.049857332145612394)","[0.019527014476626255, -0.000430430919622804, 0.0032256011644380897]","[-0.026750000193715096, 0.05299999937415123, 0.03999999910593033]","[0.0, -0.0, 0.28879815498120415]","[-0.04725562408566475, 0.1220182552933693, 0.03999999910593033]","[0.0, 0.0, -0.4919614831806256]","[0.026750000193715096, 0.05299999937415123, 0.03999999910593033]","[0.0, 0.0, -0.7284158477285488]","[0.07467956095933914, 0.10672855377197266, 0.03999999910593033]","[0.0, -0.0, 0.06437748382333223]",0.2773394859066497,-2.7500786450797916,"(0.0, 0.0, 0.0, 0.0, 0.0, 0.0)",-6.317593715205382,-0.7783846824346002,0.5699739835939728,"(0.0, 0.0, 0.0, 0.0, 0.0, 0.0)",-3.008642102078673,-0.7365109161612923,-1.9428177336058507,"(0.0, 0.0, 0.0, 0.0, 0.0, 0.0)",5.174517372103686,0.7904286111006703,-0.5675309558517896,"(0.0, 0.0, 0.0, 0.0, 0.0, 0.0)",2.7747784045340813,True,"(-0.0022318173357368937, 0.18128461784169225, 0.023999049485502095)","(0.9991055082264431, -0.04227625086253158, -0.0009497602797460562)",-0.0024666926485836247,44.43790167397492,True,"(0.05807155895876821, 0.17790942570729265, 0.056000950520238964)","(-0.999105508226443, 0.0422762508625372, 0.0009497602797419728)",-4.557578770896882e-05,41.48519693724931
53,Move,"(0.0677933, 0.0, 0.0010933)","(0.0, 0.112037920673272, 0.0)","(0.028846545451554243, 0.15903178885076893, 0.05165063347714212)","(-0.13889988959885222, 5.689981783713847e-05, -0.06455321870915381)","[0.021482593261346657, -0.0004858183963171725, 0.0037815573317939513]","[-0.026750000193715096, 0.05299999937415123, 0.03999999910593033]","[0.0, -0.0, 0.2670272879735083]","[-0.04574829712510109, 0.12244828790426254, 0.03999999910593033]","[0.0, 0.0, -0.5092363924630674]","[0.026750000193715096, 0.05299999937415123, 0.03999999910593033]","[0.0, 0.0, -0.7437962381891665]","[0.07550022751092911, 0.10598504543304443, 0.03999999910593033]","[0.0, -0.0, 0.04449028901220629]",0.255501201667043,-2.7662543770538868,"(0.0, 0.0, 0.0, 0.0, 0.0, 0.0)",-6.870355043373874,-0.7736697987187748,0.6225267023419219,"(0.0, 0.0, 0.0, 0.0, 0.0, 0.0)",-3.214511813823073,-0.7516369927510919,-1.8817674389454722,"(0.0, 0.0, 0.0, 0.0, 0.0, 0.0)",5.695467982939791,0.7856576593098857,-0.6309421968203094,"(0.0, 0.0, 0.0, 0.0, 0.0, 0.0)",3.09699105446261,True,"(0.00029273109403225167, 0.1809308625232922, 0.02399970365912008)","(0.998389557217121, -0.05672922237767053, -0.00029558116710355116)",-0.0027166485843925117,48.998276418726256,True,"(0.06031068301938875, 0.17747670398088888, 0.05600029634112632)","(-0.998389557217121, 0.056729222377667816, 0.0002955811670980626)",-4.956220391412046e-05,46.08413329549341
54,Move,"(0.0688467, 0.0, 0.0009933)","(0.0, 0.1115073405806657, 0.0)","(0.030728989347929152, 0.1589151942490808, 0.05207890934053123)","(-0.15833952121857178, 0.0009584595723986024, -0.0771163390538682)","[0.023365037157721567, -0.0006024129980053139, 0.00420983319518306]","[-0.026750000193715096, 0.05299999937415123, 0.03999999910593033]","[0.0, -0.0, 0.24512687363777894]","[-0.04422291740775108, 0.12284766882658005, 0.03999999910593033]","[0.0, 0.0, -0.5263232480343286]","[0.026750000193715096, 0.05299999937415123, 0.03999999910593033]","[0.0, 0.0, -0.7586903909938518]","[0.07628395408391953, 0.10525310784578323, 0.03999999910593033]","[0.0, -0.0, 0.02455967225044946]",0.23379946235029755,-2.718577943910964,"(0.0, 0.0, 0.0, 0.0, 0.0, 0.0)",-10.755607766235027,-0.7666513189115979,1.1517128206701455,"(0.0, 0.0, 0.0, 0.0, 0.0, 0.0)",-5.495012945268141,-0.7662151069615023,-1.8059437240446137,"(0.0, 0.0, 0.0, 0.0, 0.0, 0.0)",7.820378152653204,0.7800894555136836,-0.7585340359098651,"(0.0, 0.0, 0.0, 0.0, 0.0, 0.0)",3.7252792747775225,True,"(0.0028107062286475207, 0.180536173962727, 0.023999954426298046)","(0.9979171627976526, -0.06450839446378095, -5.689981242828128e-05)",-0.002998437201255411,62.9602593685925,True,"(0.06252200229104084, 0.17703061550629806, 0.05600005765977702)","(-0.9979171627975937, 0.06450839446468802, 5.6899817802004466e-05)",-5.766246280337391e-05,55.341803544090574
55,Move,"(0.0692, 0.0, 0.00084)","(0.0, 0.11185989708956857, 0.0)","(0.03267670043011233, 0.1587538948486611, 0.052474524537185104)","(-0.17601177994446604, 0.0018886080397766108, -0.08887756658063022)","[0.025312748239904745, -0.0007637123984250149, 0.004605448391836936]","[-0.026750000193715096, 0.05299999937415123, 0.03999999910593033]","[0.0, -0.0, 0.22358184083356245]","[-0.042714107781648636, 0.12320788949728012, 0.03999999910593033]","[0.0, 0.0, -0.5390776062038183]","[0.026750000193715096, 0.05299999937415123, 0.03999999910593033]","[0.0, 0.0, -0.7729652548528728]","[0.07702478766441345, 0.10454071313142776, 0.03999999910593033]","[0.0, -0.0, 0.004601557222347099]",0.21246408103875453,-2.6682583775319904,"(0.0, 0.0, 0.0, 0.0, 0.0, 0.0)",-9.170999211025949,-0.7592777576254759,0.8116004038744244,"(0.0, 0.0, 0.0, 0.0, 0.0, 0.0)",-4.534204326777408,-0.7799985172942456,-1.6879777194168217,"(0.0, 0.0, 0.0, 0.0, 0.0, 0.0)",7.8987934298398805,0.7741331103958381,-0.824093628759869,"(0.0, 0.0, 0.0, 0.0, 0.0, 0.0)",3.9734543837956156,True,"(0.005051731762919051, 0.18029521317845507, 0.023997743639739676)","(0.9966308580503376, -0.08198685857680488, -0.0022556157817220993)",-0.003234345356880547,50.49204641612251,True,"(0.06469698636637476, 0.17656672390984435, 0.056002256375740946)","(-0.9966308580503376, 0.08198685857680307, 0.002255615781724083)",3.814367762197901e-05,59.51230236301241
56,Move,"(0.0696133, 0.0, 0.0005867)","(0.0, 0.11256501010737431, 0.0)","(0.03452583970297853, 0.15870715130071025, 0.05301844529605958)","(-0.20394609554550935, 0.0009409055295541052, -0.10257936163272352)","[0.027161887512770946, -0.0008104559463758543, 0.0051493691507114095]","[-0.026750000193715096, 0.05299999937415123, 0.03999999910593033]","[0.0, -0.0, 0.20246949478035214]","[-0.04122840613126755, 0.12352925539016724, 0.03999999910593033]","[0.0, 0.0, -0.5536627108352465]","[0.026750000193715096, 0.05299999937415123, 0.03999999910593033]","[0.0, 0.0, -0.786333738894783]","[0.07770929485559464, 0.10386403650045395, 0.03999999910593033]","[0.0, 0.0, -0.015481960365321762]",0.19161736321388528,-2.60450970783823,"(0.0, 0.0, 0.0, 0.0, 0.0, 0.0)",-9.557896354820702,-0.7524566960133994,0.8821258294008818,"(0.0, 0.0, 0.0, 0.0, 0.0, 0.0)",-4.549653022186734,-0.7929275239583029,-1.5825140734678194,"(0.0, 0.0, 0.0, 0.0, 0.0, 0.0)",8.493801610390946,0.7671656045709958,-0.8846766248758376,"(0.0, 0.0, 0.0, 0.0, 0.0, 0.0)",4.444082582110357,True,"(0.0073650600797435795, 0.17991500897344492, 0.023998533952560252)","(0.9954410239068893, -0.09536781840832884, -0.001465310629130922)",-0.0033720343682722875,54.659286846079524,True,"(0.06682975903594143, 0.1761164697144293, 0.05600146607058835)","(-0.9954410239068903, 0.09536781840831825, 0.00146531062912668)",6.999157531069439e-06,63.85837529624559
57,Move,"(0.07030670000000001, 0.0, 0.0005733)","(0.0, 0.10943563475854848, 0.0)","(0.03624405060157967, 0.1586845824973067, 0.053583211670135286)","(-0.2342142604808039, -0.0009190575336733096, -0.1174614958571354)","[0.028880098411372082, -0.0008330247497794208, 0.005714135524787119]","[-0.026750000193715096, 0.05299999937415123, 0.03999999910593033]","[0.0, -0.0, 0.1817954100946289]","[-0.03976729139685631, 0.12381348758935928, 0.03999999910593033]","[0.0, 0.0, -0.5683405864101003]","[0.026750000193715096, 0.05299999937415123, 0.03999999910593033]","[0.0, 0.0, -0.7987995159895587]","[0.07833938300609589, 0.10322485119104385, 0.03999999910593033]","[0.0, 0.0, -0.03438079959748917]",0.17104149250770462,-2.5809450473138655,"(0.0, 0.0, 0.0, 0.0, 0.0, 0.0)",-8.014070990253174,-0.7471774692216028,0.7100579905021212,"(0.0, 0.0, 0.0, 0.0, 0.0, 0.0)",-3.6185627579223696,-0.8049367424667234,-1.472934275597127,"(0.0, 0.0, 0.0, 0.0, 0.0, 0.0)",7.216388280644689,0.7610314850728559,-0.812936982677215,"(0.0, 0.0, 0.0, 0.0, 0.0, 0.0)",4.02052257510253,True,"(0.00964858485487076, 0.17948038443478348, 0.0239999028235617)","(0.9939835714049475, -0.10952922204141559, -9.641611751310075e-05)",-0.003608034021310785,59.33570375762189,True,"(0.06882667006662782, 0.17566534828699348, 0.05600009717607675)","(-0.9939835714049471, 0.10952922204141875, 9.641611752479078e-05)",-2.9149075860970227e-05,59.03254997497574
58,Move,"(0.0708267, 0.0, 0.0005467)","(0.0, 0.10601653475389156, 0.0)","(0.037942589555435016, 0.15853994028479781, 0.053808401765192415)","(-0.2441538589743371, 0.002906967485978147, -0.12371907830993582)","[0.03057863736522743, -0.0009776669622882928, 0.005939325619844248]","[-0.026750000193715096, 0.05299999937415123, 0.03999999910593033]","[0.0, -0.0, 0.1614689469272355]","[-0.03832530975341797, 0.12406343966722488, 0.03999999910593033]","[0.0, 0.0, -0.5802711243464391]","[0.026750000193715096, 0.05299999937415123, 0.03999999910593033]","[0.0, 0.0, -0.8105593404015349]","[0.0789264366030693, 0.10261470824480057, 0.03999999910593033]","[0.0, 0.0, -0.052917495902686275]",0.15095054867565466,-2.5244091612731605,"(0.0, 0.0, 0.0, 0.0, 0.0, 0.0)",-12.81139732041974,-0.7363311059588195,1.2981500348091093,"(0.0, 0.0, 0.0, 0.0, 0.0, 0.0)",-6.676597441843511,-0.8163426027589555,-1.3879890060558908,"(0.0, 0.0, 0.0, 0.0, 0.0, 0.0)",9.315195179944306,0.7539657166292624,-0.8822644802917078,"(0.0, 0.0, 0.0, 0.0, 0.0, 0.0)",4.406573351843293,True,"(0.011751381990639603, 0.17913858897473167, 0.02399891762728789)","(0.9928192210009749, -0.11961949874954518, -0.001081632989909444)",-0.003912224251579786,71.93722787317336,True,"(0.07075705215813667, 0.17521077260656487, 0.05600108239294913)","(-0.9928192210009759, 0.1196194987495389, 0.0010816329899111245)",5.541637820746121e-05,67.96172070979138
59,Move,"(0.0713467, 0.0, 0.0005333)","(0.0, 0.10378774929909483, 0.0)","(0.03973147684286041, 0.15841431170374853, 0.054205089945964464)","(-0.26533680057081555, 0.001723000391364743, -0.1331685182770237)","[0.03236752465265282, -0.0011032955433375735, 0.006336013800616297]","[-0.026750000193715096, 0.05299999937415123, 0.03999999910593033]","[0.0, -0.0, 0.1414564186605273]","[-0.03690093010663986, 0.12428084015846252, 0.03999999910593033]","[0.0, 0.0, -0.5912769720251867]","[0.026750000193715096, 0.05299999937415123, 0.03999999910593033]","[0.0, 0.0, -0.8215392462860248]","[0.07946804165840149, 0.10203883796930313, 0.03999999910593033]","[0.0, 0.0, -0.07132606778168762]",0.1311333442568233,-2.4775339803774568,"(0.0, 0.0, 0.0, 0.0, 0.0, 0.0)",-11.689028776632709,-0.7280773979108861,1.117435751141412,"(0.0, 0.0, 0.0, 0.0, 0.0, 0.0)",-5.649876475014594,-0.8270394361124627,-1.3200437597380004,"(0.0, 0.0, 0.0, 0.0, 0.0, 0.0)",10.291337873082423,0.7457881700453853,-1.062004376609387,"(0.0, 0.0, 0.0, 0.0, 0.0, 0.0)",5.309934246959971,True,"(0.01377921588046628, 0.1788042357787067, 0.02399765433942981)","(0.9917923521772595, -0.1278375202946659, -0.0023449024733845254)",-0.00405854673312381,62.259752907491084,True,"(0.0726350175845684, 0.17476294027748424, 0.05600234566243261)","(-0.9917923521772587, 0.12783752029467166, 0.0023449024733907115)",-1.138131363910486e-06,76.61157690997976
60,Move,"(0.0720933, 0.0, 0.00032)","(0.0, 0.1028644701247898, 0.0)","(0.0414146861171567, 0.15830690091045824, 0.0545895405798051)","(-0.2859600942803826, 0.000504556386970362, -0.14233094350958145)","[0.034050733926949114, -0.0012107063366278703, 0.006720464434456931]","[-0.026750000193715096, 0.05299999937415123, 0.03999999910593033]","[0.0, -0.0, 0.12184005652999556]","[-0.035500794649124146, 0.12446624040603638, 0.03999999910593033]","[0.0, 0.0, -0.6020847765899597]","[0.026750000193715096, 0.05299999937415123, 0.03999999910593033]","[0.0, 0.0, -0.8319860979016372]","[0.07997745275497437, 0.10148543864488602, 0.03999999910593033]","[0.0, 0.0, -0.09015769112357433]",0.11167651645520485,-2.4392433184513527,"(0.0, 0.0, 0.0, 0.0, 0.0, 0.0)",-12.106064152950363,-0.7191821604144154,1.1382585937735006,"(0.0, 0.0, 0.0, 0.0, 0.0, 0.0)",-5.844124599086968,-0.8371094499835385,-1.2296261349724793,"(0.0, 0.0, 0.0, 0.0, 0.0, 0.0)",10.639997827686049,0.7372706884139715,-1.0938315950152269,"(0.0, 0.0, 0.0, 0.0, 0.0, 0.0)",5.478299877744558,True,"(0.01576585820487708, 0.17844010472740887, 0.023998851997587025)","(0.990548501107687, -0.13715812328312144, -0.0011472448591776864)",-0.00417455648565205,64.59544193590986,True,"(0.07451373246859211, 0.17431598396492481, 0.056001148004818396)","(-0.9905485011076884, 0.13715812328310972, 0.0011472448591825148)",2.211728354839489e-05,77.19140249061317
61,Move,"(0.0724267, 0.0, 0.00025330000000000003)","(0.0, 0.09757961314975098, 0.0)","(0.04302165316491647, 0.1581619342967337, 0.054877390057997084)","(-0.3013216794217489, 0.0016671722037049177, -0.14888219754660806)","[0.035657700974708884, -0.00135567295035241, 0.007008313912648917]","[-0.026750000193715096, 0.05299999937415123, 0.03999999910593033]","[0.0, -0.0, 0.10249869923930985]","[-0.034116990864276886, 0.12462211400270462, 0.03999999910593033]","[0.0, 0.0, -0.6129802224872672]","[0.026750000193715096, 0.05299999937415123, 0.03999999910593033]","[0.0, 0.0, -0.841685646398049]","[0.08044523000717163, 0.10096688568592072, 0.03999999910593033]","[0.0, 0.0, -0.10822540797647984]",0.0926166938148596,-2.3716825598134688,"(0.0, 0.0, 0.0, 0.0, 0.0, 0.0)",-14.884995565715256,-0.708878369577442,1.5841234470884906,"(0.0, 0.0, 0.0, 0.0, 0.0, 0.0)",-7.647302231093333,-0.8464563655232475,-1.1449961735485068,"(0.0, 0.0, 0.0, 0.0, 0.0, 0.0)",11.237210857918411,0.7289315546192735,-1.0868616553077528,"(0.0, 0.0, 0.0, 0.0, 0.0, 0.0)",5.434126257526505,True,"(0.01773476900298524, 0.17803489518295618, 0.023999494683949314)","(0.9898879133204597, -0.1418508529580986, -0.000504556365562508)",-0.004273596870338825,81.174579083716,True,"(0.0762974548450518, 0.17387936979803326, 0.056000505316324785)","(-0.9898879133204596, 0.14185085295809888, 0.0005045563655617869)",-5.3021575627924354e-05,78.83304063166206
62,Move,"(0.0722933, 0.0, 0.00025330000000000003)","(0.0, 0.09301208649728183, 0.0)","(0.04458871529926169, 0.15801858387495113, 0.05511792935572241)","(-0.3131903069811685, 0.005312688550027192, -0.15460880175530586)","[0.03722476310905411, -0.0014990233721349777, 0.007248853210374245]","[-0.026750000193715096, 0.05299999937415123, 0.03999999910593033]","[0.0, -0.0, 0.08368477356510182]","[-0.03276827186346054, 0.12474803626537323, 0.03999999910593033]","[0.0, 0.0, -0.6198607964798304]","[0.026750000193715096, 0.05299999937415123, 0.03999999910593033]","[0.0, 0.0, -0.8507181596752993]","[0.08087629824876785, 0.10047993063926697, 0.03999999910593033]","[0.0, 0.0, -0.12538324920798333]",0.07409194489234029,-2.3022775085996416,"(0.0, 0.0, 0.0, 0.0, 0.0, 0.0)",-13.59172202943943,-0.6978445954408219,1.3682276289825788,"(0.0, 0.0, 0.0, 0.0, 0.0, 0.0)",-6.990471868464561,-0.8550390517327067,-1.0370223030369023,"(0.0, 0.0, 0.0, 0.0, 0.0, 0.0)",10.072692526137498,0.721286102816254,-0.9717027055955014,"(0.0, 0.0, 0.0, 0.0, 0.0, 0.0)",4.880475631827412,True,"(0.019450251877650745, 0.1778059523411775, 0.023996476096874254)","(0.988542961237799, -0.1508986454049076, -0.0035231523054853457)",-0.004522959228905835,75.27305670490325,True,"(0.0779774932332898, 0.17343665526005397, 0.0560035239122647)","(-0.9885429612377986, 0.15089864540490924, 0.003523152305484928)",5.220682661066792e-05,79.24579519299088
63,Move,"(0.0730067, 0.0, -2e-05)","(0.0, 0.09497383657652346, 0.0)","(0.04618309117717424, 0.15784204485394276, 0.05541702090949524)","(-0.33005523395451536, 0.004069866906155561, -0.1611706265873643)","[0.03881913898696666, -0.0016755623931433428, 0.007547944764147073]","[-0.026750000193715096, 0.05299999937415123, 0.03999999910593033]","[0.0, -0.0, 0.06544033541487729]","[-0.03145834058523178, 0.12484588474035263, 0.03999999910593033]","[0.0, 0.0, -0.6283742115371933]","[0.026750000193715096, 0.05299999937415123, 0.03999999910593033]","[0.0, 0.0, -0.8589238012853524]","[0.08126407861709595, 0.1000341922044754, 0.03999999910593033]","[0.0, 0.0, -0.14194205557929973]",0.05599013916515024,-2.268044596837141,"(0.0, 0.0, 0.0, 0.0, 0.0, 0.0)",-13.013615536389807,-0.6886592065508172,1.2372621425479329,"(0.0, 0.0, 0.0, 0.0, 0.0, 0.0)",-6.233896923664043,-0.8630163626736268,-0.9822137452406784,"(0.0, 0.0, 0.0, 0.0, 0.0, 0.0)",11.460502115491563,0.7120173143797389,-1.1914671553031844,"(0.0, 0.0, 0.0, 0.0, 0.0, 0.0)",5.973444535336046,True,"(0.02121032626661884, 0.1774594775789629, 0.023995317936905108)","(0.9875613741661841, -0.15716429507824814, -0.004681517655186552)",-0.00464236478966442,67.44442155914575,True,"(0.07957203601296568, 0.17301883331078322, 0.05600468227761441)","(-0.9875613741661845, 0.15716429507824506, 0.004681517655190255)",-4.780680442453755e-05,87.7849987290186
64,Move,"(0.0734, 0.0, -0.0004667)","(0.0, 0.09658826613461818, 0.0)","(0.047664603296588594, 0.1576809661417647, 0.055692375226660464)","(-0.3455056956862421, 0.002943006083809493, -0.167055864245221)","[0.04030065110638101, -0.0018366411053214182, 0.007823299081312296]","[-0.026750000193715096, 0.05299999937415123, 0.03999999910593033]","[0.0, -0.0, 0.04748656525430457]","[-0.030167747288942337, 0.12491883337497711, 0.03999999910593033]","[0.0, 0.0, -0.6365109623220304]","[0.026750000193715096, 0.05299999937415123, 0.03999999910593033]","[0.0, 0.0, -0.8667001482864782]","[0.08162817358970642, 0.09960886090993881, 0.03999999910593033]","[0.0, 0.0, -0.1591799709427816]",0.03829928452343952,-2.20494627553111,"(0.0, 0.0, 0.0, 0.0, 0.0, 0.0)",-13.384828502885231,-0.6787615287183846,1.256617240820372,"(0.0, 0.0, 0.0, 0.0, 0.0, 0.0)",-6.426442145753327,-0.8704143379615945,-0.8914390229759521,"(0.0, 0.0, 0.0, 0.0, 0.0, 0.0)",11.841005960715533,0.7024115486473198,-1.2260361857106408,"(0.0, 0.0, 0.0, 0.0, 0.0, 0.0)",6.149405391863661,True,"(0.022927598293477108, 0.17710405511077965, 0.023996468020489683)","(0.9865737779409727, -0.16327801781990572, -0.0035312286925445534)",-0.004737645081515545,69.51136945852944,True,"(0.08119255669436248, 0.17260093994636883, 0.05600353198865177)","(-0.9865737779409717, 0.163278017819911, 0.0035312286925480393)",-3.143952362667336e-05,89.36716255569905
65,Move,"(0.07372, 0.0, -0.0008067)","(0.0, 0.0992289492928856, 0.0)","(0.04885651396614481, 0.15744738816358989, 0.05576762506637817)","(-0.35125336232077925, 0.004446635218328826, -0.17018128604720942)","[0.04149256177593722, -0.002070219083496222, 0.00789854892103]","[-0.026750000193715096, 0.05299999937415123, 0.03999999910593033]","[0.0, -0.0, 0.030097298751057256]","[-0.028916677460074425, 0.12496738880872726, 0.03999999910593033]","[0.0, 0.0, -0.6430651962194045]","[0.026750000193715096, 0.05299999937415123, 0.03999999910593033]","[0.0, 0.0, -0.8738419060652887]","[0.08195964992046356, 0.09921573847532272, 0.03999999910593033]","[0.0, 0.0, -0.17600917201479377]",0.021203833586472192,-2.134431131003918,"(0.0, 0.0, 0.0, 0.0, 0.0, 0.0)",-15.077608184438633,-0.6672711952367838,1.413895766684181,"(0.0, 0.0, 0.0, 0.0, 0.0, 0.0)",-7.202455806540986,-0.8772833416653334,-0.8259410391045715,"(0.0, 0.0, 0.0, 0.0, 0.0, 0.0)",12.6145055506451,0.6933769351179545,-1.069393936273987,"(0.0, 0.0, 0.0, 0.0, 0.0, 0.0)",5.53274137668376,True,"(0.02451986312343896, 0.17680525824074927, 0.023996581300954146)","(0.9857854386025843, -0.16797436314858444, -0.0034179473280989956)",-0.004960146159730609,84.76471290056779,True,"(0.0827524327666514, 0.1722048140131744, 0.05600353198865177)","(-0.9865737779409717, 0.163278017819911, 0.0035312286925480393)",0.0001541333090111031,70.30531744280579
