OSUrobotics/InHand-Manipulation/AnalyseData/Data/Trial Data/Even Better/new_hand_human_sub1_2v2_a_n_1_kpNone_kdNone_dp3_step2_save_data.csv
,Phase,human_cube_pos,human_cube_orn,Cube_Pos,Cube_Orn,Cube_pos_in_start_pos,b'l_prox_pin'_link_pos,b'l_prox_pin'_link_orn,b'l_distal_pin'_link_pos,b'l_distal_pin'_link_orn,b'r_prox_pin'_link_pos,b'r_prox_pin'_link_orn,b'r_distal_pin'_link_pos,b'r_distal_pin'_link_orn,b'l_prox_pin'_joint_angle,b'l_prox_pin'_joint_vel,b'l_prox_pin'_joint_react_forces,b'l_prox_pin'_joint_motor_torque,b'l_distal_pin'_joint_angle,b'l_distal_pin'_joint_vel,b'l_distal_pin'_joint_react_forces,b'l_distal_pin'_joint_motor_torque,b'r_prox_pin'_joint_angle,b'r_prox_pin'_joint_vel,b'r_prox_pin'_joint_react_forces,b'r_prox_pin'_joint_motor_torque,b'r_distal_pin'_joint_angle,b'r_distal_pin'_joint_vel,b'r_distal_pin'_joint_react_forces,b'r_distal_pin'_joint_motor_torque,in_contact_l,contact_point_l_dist,contact_normal_l_dist,contact_distance_l_dist,contact_norm_force_l_dist,in_contact_r,contact_point_r_dist,contact_normal_r_dist,contact_distance_r_dist,contact_norm_force_r_dist
0,Open,,,,,,"[-0.026750000193715096, 0.05299999937415123, 0.03999999910593033]","[0.0, -0.0, 0.0]","[-0.026750000193715096, 0.125, 0.03999999910593033]","[0.0, -0.0, 5.883223447970011e-32]","[0.026750000193715096, 0.05299999937415123, 0.03999999910593033]","[0.0, 0.0, -0.008068665592501188]","[0.02733093686401844, 0.12499765306711197, 0.03999999910593033]","[0.0, 0.0, -0.0780932845685428]",0.157,37.68,"(0.0, 0.0, 0.0, 0.0, 0.0, 0.0)",54.702693795169004,5.294901130302062e-32,-1.4119736347472162e-30,"(0.0, 0.0, 0.0, 0.0, 0.0, 0.0)",3.9113724975844915,-0.1670280316324969,-38.150247946082466,"(0.0, 0.0, 0.0, 0.0, 0.0, 0.0)",-25.93345404555236,-0.0659493391739072,0.9780670797324476,"(0.0, 0.0, 0.0, 0.0, 0.0, 0.0)",-6.754749483880455,False,,,,,False,,,,
1,Open,,,,,,"[-0.026750000193715096, 0.05299999937415123, 0.03999999910593033]","[0.0, -0.0, 0.29830000998707634]","[-0.04791048914194107, 0.12182030081748962, 0.03999999910593033]","[0.0, -0.0, 0.29830000998707634]","[0.026750000193715096, 0.05299999937415123, 0.03999999910593033]","[0.0, 0.0, -0.3122944642903269]","[0.048871491104364395, 0.12151744216680527, 0.03999999910593033]","[0.0, 0.0, -0.3793531994353912]",0.42546999999999996,30.5208,"(0.0, 0.0, 0.0, 0.0, 0.0, 0.0)",-4.858074537215091,5.294901130302062e-32,0.0,"(0.0, 0.0, 0.0, 0.0, 0.0, 0.0)",-0.33154044974508506,-0.44292449566296654,-31.35120824461403,"(0.0, 0.0, 0.0, 0.0, 0.0, 0.0)",100.88457241511576,-0.08373770380977785,-4.0029668326633345,"(0.0, 0.0, 0.0, 0.0, 0.0, 0.0)",24.077304806401806,False,,,,,False,,,,
2,Open,,,,,,"[-0.026750000193715096, 0.05299999937415123, 0.03999999910593033]","[0.0, -0.0, 0.5399230359738098]","[-0.06376303732395172, 0.11475787311792374, 0.03999999910593033]","[0.0, -0.0, 0.5399230359738098]","[0.026750000193715096, 0.05299999937415123, 0.03999999910593033]","[0.0, 0.0, -0.5623038790270362]","[0.06513584405183792, 0.11391409486532211, 0.03999999910593033]","[0.0, 0.0, -0.6668711870723439]",0.6429307,24.721848,"(0.0, 0.0, 0.0, 0.0, 0.0, 0.0)",-3.943806903965684,5.294901130302062e-32,0.0,"(0.0, 0.0, 0.0, 0.0, 0.0, 0.0)",-0.2716098155097054,-0.6673401099248648,-25.208696742335626,"(0.0, 0.0, 0.0, 0.0, 0.0, 0.0)",94.97739775913854,-0.11755295807544866,-3.116564819203918,"(0.0, 0.0, 0.0, 0.0, 0.0, 0.0)",25.79194570087013,False,,,,,False,,,,
3,Open,,,,,,"[-0.026750000193715096, 0.05299999937415123, 0.03999999910593033]","[0.0, -0.0, 0.7356376306875043]","[-0.07506632059812546, 0.10638101398944855, 0.03999999910593033]","[0.0, -0.0, 0.7356376306875043]","[0.026750000193715096, 0.05299999937415123, 0.03999999910593033]","[0.0, 0.0, -0.757991847340814]","[0.076247438788414, 0.10528770089149475, 0.03999999910593033]","[0.0, 0.0, -0.8659334873334429]",0.8190738670000001,20.024696880000004,"(0.0, 0.0, 0.0, 0.0, 0.0, 0.0)",-3.2002295086701533,2.3293280891773424e-07,5.5903874140256216e-05,"(0.0, 0.0, 0.0, 0.0, 0.0, 0.0)",-0.22200715926400075,-0.8391926082762636,-19.488197112632974,"(0.0, 0.0, 0.0, 0.0, 0.0, 0.0)",3.295349739497939,-0.09714776835574307,2.590534961280482,"(0.0, 0.0, 0.0, 0.0, 0.0, 0.0)",0.25803221970863044,False,,,,,False,,,,
4,Open,,,,,,"[-0.026750000193715096, 0.05299999937415123, 0.03999999910593033]","[0.0, -0.0, 0.894166469119967]","[-0.08288749307394028, 0.09808415919542313, 0.03999999910593033]","[0.0, -0.0, 0.894166894674561]","[0.026750000193715096, 0.05299999937415123, 0.03999999910593033]","[0.0, 0.0, -0.9122733503889549]","[0.08369457721710205, 0.09706035256385803, 0.03999999910593033]","[0.0, 0.0, -0.9997066729229968]",0.96174983227,16.220004472800003,"(0.0, 0.0, 0.0, 0.0, 0.0, 0.0)",-2.5959652512206968,5.681494863714967e-07,3.553320838026869e-05,"(0.0, 0.0, 0.0, 0.0, 0.0, 0.0)",-0.18114955764248034,-0.9780460127037736,-15.785439661232708,"(0.0, 0.0, 0.0, 0.0, 0.0, 0.0)",2.503992476159733,-0.0786900142246732,2.098357403184359,"(0.0, 0.0, 0.0, 0.0, 0.0, 0.0)",0.15360133560797545,False,,,,,False,,,,
5,Open,,,,,,"[-0.026750000193715096, 0.05299999937415123, 0.03999999910593033]","[0.0, -0.0, 1.0225748785172661]","[-0.08819860219955444, 0.09052424877882004, 0.03999999910593033]","[0.0, -0.0, 1.0225755149967983]","[0.026750000193715096, 0.05299999937415123, 0.03999999910593033]","[0.0, 0.0, -1.037241417801626]","[0.08874232321977615, 0.08961901068687439, 0.03999999910593033]","[0.0, 0.0, -1.1080626941470386]",1.0773173641387,13.138203622968001,"(0.0, 0.0, 0.0, 0.0, 0.0, 0.0)",-2.105207702642618,7.694903593429899e-07,2.0776129443188934e-05,"(0.0, 0.0, 0.0, 0.0, 0.0, 0.0)",-0.14759587787833617,-1.0905172702900567,-12.78620612559849,"(0.0, 0.0, 0.0, 0.0, 0.0, 0.0)",2.0303755786213302,-0.06373917358809339,1.6996763127328351,"(0.0, 0.0, 0.0, 0.0, 0.0, 0.0)",0.1250328149112744,False,,,,,False,,,,
6,Open,,,,,,"[-0.026750000193715096, 0.05299999937415123, 0.03999999910593033]","[0.0, -0.0, 1.126585512342968]","[-0.09176240861415863, 0.08394166082143784, 0.03999999910593033]","[0.0, -0.0, 1.1265864725026016]","[0.026750000193715096, 0.05299999937415123, 0.03999999910593033]","[0.0, 0.0, -1.13846552283997]","[0.09212540090084076, 0.08316715806722641, 0.03999999910593033]","[0.0, 0.0, -1.1958309904194953]",1.1709270649523469,10.641944934604087,"(0.0, 0.0, 0.0, 0.0, 0.0, 0.0)",-1.7068426281171958,8.750681698751778e-07,1.0273240928962424e-05,"(0.0, 0.0, 0.0, 0.0, 0.0, 0.0)",-0.12011999884119333,-1.181618988934946,-10.356826961734775,"(0.0, 0.0, 0.0, 0.0, 0.0, 0.0)",1.6460093571929852,-0.051628943774705546,1.376743384776279,"(0.0, 0.0, 0.0, 0.0, 0.0, 0.0)",0.10168054944364863,False,,,,,False,,,,
7,Open,,,,,,"[-0.026750000193715096, 0.05299999937415123, 0.03999999910593033]","[0.0, -0.0, 1.2108343955497323]","[-0.09413553774356842, 0.07836118340492249, 0.03999999910593033]","[0.0, -0.0, 1.210835255049739]","[0.026750000193715096, 0.05299999937415123, 0.03999999910593033]","[0.0, 0.0, -1.2204571829136446]","[0.09437645971775055, 0.07771158218383789, 0.03999999910593033]","[0.0, 0.0, -1.2669233179031547]",1.2467509226114009,8.619975397029307,"(0.0, 0.0, 0.0, 0.0, 0.0, 0.0)",-1.3836082777937824,9.135722823677317e-07,2.9650129412077397e-06,"(0.0, 0.0, 0.0, 0.0, 0.0, 0.0)",-0.09766941677677543,-1.2554113810373062,-8.38902983900517,"(0.0, 0.0, 0.0, 0.0, 0.0, 0.0)",1.334189480132575,-0.04181961771093252,1.1151666876061868,"(0.0, 0.0, 0.0, 0.0, 0.0, 0.0)",0.08262627878010878,False,,,,,False,,,,
8,Open,,,,,,"[-0.026750000193715096, 0.05299999937415123, 0.03999999910593033]","[0.0, -0.0, 1.2790758758817962]","[-0.09570803493261337, 0.0737072303891182, 0.03999999910593033]","[0.0, -0.0, 1.2790780932516201]","[0.026750000193715096, 0.05299999937415123, 0.03999999910593033]","[0.0, 0.0, -1.2868702529032277]","[0.0958673357963562, 0.07316911965608597, 0.03999999910593033]","[0.0, 0.0, -1.3245087793274308]",1.3081682532711112,6.982181501004109,"(0.0, 0.0, 0.0, 0.0, 0.0, 0.0)",-1.12145472366965,1.9027582300258812e-06,-5.0740219467356254e-05,"(0.0, 0.0, 0.0, 0.0, 0.0, 0.0)",-0.07939114715284208,-1.315183223212741,-6.795115266999686,"(0.0, 0.0, 0.0, 0.0, 0.0, 0.0)",1.0813262344929835,-0.033874873767778015,0.9033299671407473,"(0.0, 0.0, 0.0, 0.0, 0.0, 0.0)",0.06713055017345074,False,,,,,False,,,,
9,Open,,,,,,"[-0.026750000193715096, 0.05299999937415123, 0.03999999910593033]","[0.0, -0.0, 1.334351465706577]","[-0.09674673527479172, 0.06986585259437561, 0.03999999910593033]","[0.0, -0.0, 1.33435435145599]","[0.026750000193715096, 0.05299999937415123, 0.03999999910593033]","[0.0, 0.0, -1.3406650641721125]","[0.09685182571411133, 0.06942359358072281, 0.03999999910593033]","[0.0, 0.0, -1.3711530696282732]",1.3579162851496,5.655565729344001,"(0.0, 0.0, 0.0, 0.0, 0.0, 0.0)",-0.9088150211252332,3.4316066113876724e-06,0.0001607445165674468,"(0.0, 0.0, 0.0, 0.0, 0.0, 0.0)",-0.06444344013525093,-1.3635984108023202,-5.504042378604797,"(0.0, 0.0, 0.0, 0.0, 0.0, 0.0)",0.8762522980402716,-0.02744024570882781,0.7315266716392431,"(0.0, 0.0, 0.0, 0.0, 0.0, 0.0)",0.05446985052483407,False,,,,,False,,,,
10,Open,,,,,,"[-0.026750000193715096, 0.05299999937415123, 0.03999999910593033]","[0.0, -0.0, 1.3791247702213432]","[-0.0974314734339714, 0.0667160153388977, 0.03999999910593033]","[0.0, -0.0, 1.3791284782568445]","[0.026750000193715096, 0.05299999937415123, 0.03999999910593033]","[0.0, 0.0, -1.3842387704807777]","[0.09750068932771683, 0.06635437905788422, 0.03999999910593033]","[0.0, 0.0, -1.408935619520831]",1.398212190971176,4.581008240768642,"(0.0, 0.0, 0.0, 0.0, 0.0, 0.0)",-0.7364407507487188,4.314390796743166e-06,8.968521101115077e-05,"(0.0, 0.0, 0.0, 0.0, 0.0, 0.0)",-0.05230389643117988,-1.4028147127498793,-4.458274326669883,"(0.0, 0.0, 0.0, 0.0, 0.0, 0.0)",0.7100243788118592,-0.02222789596809768,0.5925708975857369,"(0.0, 0.0, 0.0, 0.0, 0.0, 0.0)",0.04419507766734469,False,,,,,False,,,,
11,Open,,,,,,"[-0.026750000193715096, 0.05299999937415123, 0.03999999910593033]","[0.0, -0.0, 1.415391158105469]","[-0.09788231551647186, 0.06414420157670975, 0.03999999910593033]","[0.0, -0.0, 1.415395709317307]","[0.026750000193715096, 0.05299999937415123, 0.03999999910593033]","[0.0, 0.0, -1.419533200978404]","[0.09792786836624146, 0.06384945660829544, 0.03999999910593033]","[0.0, 0.0, -1.4395389386881268]",1.4308518746866525,3.7106166750225977,"(0.0, 0.0, 0.0, 0.0, 0.0, 0.0)",-0.5967141397561109,4.7399630338636504e-06,3.9705446138709865e-05,"(0.0, 0.0, 0.0, 0.0, 0.0, 0.0)",-0.042434775014060074,-1.4345799173274023,-3.611202204602609,"(0.0, 0.0, 0.0, 0.0, 0.0, 0.0)",0.5752902758042565,-0.018005647771851804,0.4800102903229233,"(0.0, 0.0, 0.0, 0.0, 0.0, 0.0)",0.0358468230863414,False,,,,,False,,,,
12,Open,,,,,,"[-0.026750000193715096, 0.05299999937415123, 0.03999999910593033]","[0.0, -0.0, 1.4447668540021588]","[-0.09817895293235779, 0.06205013021826744, 0.03999999910593033]","[0.0, -0.0, 1.4447715863131299]","[0.026750000193715096, 0.05299999937415123, 0.03999999910593033]","[0.0, 0.0, -1.448121993206969]","[0.09820891171693802, 0.06181041896343231, 0.03999999910593033]","[0.0, 0.0, -1.46432761016298]",1.4572900184961886,3.005599506768304,"(0.0, 0.0, 0.0, 0.0, 0.0, 0.0)",-0.483467731204937,4.849462099751187e-06,5.401615740548756e-06,"(0.0, 0.0, 0.0, 0.0, 0.0, 0.0)",-0.03441712855198442,-1.4603097330351957,-2.925073785728113,"(0.0, 0.0, 0.0, 0.0, 0.0, 0.0)",0.4660969568661882,-0.014585427836986846,0.38883096045278315,"(0.0, 0.0, 0.0, 0.0, 0.0, 0.0)",0.029067900465992856,False,,,,,False,,,,
13,Open,,,,,,"[-0.026750000193715096, 0.05299999937415123, 0.03999999910593033]","[0.0, -0.0, 1.4685611215819594]","[-0.09837405383586884, 0.06034812703728676, 0.03999999910593033]","[0.0, -0.0, 1.468565853091142]","[0.026750000193715096, 0.05299999937415123, 0.03999999910593033]","[0.0, 0.0, -1.4712788457263521]","[0.0983937606215477, 0.06015344336628914, 0.03999999910593033]","[0.0, 0.0, -1.4844061039497418]",1.4787049149819127,2.434535600482329,"(0.0, 0.0, 0.0, 0.0, 0.0, 0.0)",-0.39169363303347604,4.747151892642784e-06,-1.7351748576465223e-05,"(0.0, 0.0, 0.0, 0.0, 0.0, 0.0)",-0.02790732436186781,-1.4811508837585086,-2.3693097664397755,"(0.0, 0.0, 0.0, 0.0, 0.0, 0.0)",0.37761186810531283,-0.011814888241968555,0.3149714411852639,"(0.0, 0.0, 0.0, 0.0, 0.0, 0.0)",0.023565936472848985,False,,,,,False,,,,
14,Open,,,,,,"[-0.026750000193715096, 0.05299999937415123, 0.03999999910593033]","[0.0, -0.0, 1.487834617901085]","[-0.09850236773490906, 0.05896640568971634, 0.03999999910593033]","[0.0, -0.0, 1.4878390921106803]","[0.026750000193715096, 0.05299999937415123, 0.03999999910593033]","[0.0, 0.0, -1.4900358577435544]","[0.09851532429456711, 0.05880843847990036, 0.03999999910593033]","[0.0, 0.0, -1.5006695807985118]",1.4960509811353493,1.9719738363906854,"(0.0, 0.0, 0.0, 0.0, 0.0, 0.0)",-0.3173274216127963,4.509251873886308e-06,-3.168767150011037e-05,"(0.0, 0.0, 0.0, 0.0, 0.0, 0.0)",-0.022624215793833224,-1.498032215844392,-1.9191409108162163,"(0.0, 0.0, 0.0, 0.0, 0.0, 0.0)",0.30591369390909257,-0.00957062017308593,0.2551417656412126,"(0.0, 0.0, 0.0, 0.0, 0.0, 0.0)",0.019102112305110365,False,,,,,False,,,,
15,Close,,,"(0.010000330010418335, 0.1600052801621647, 0.0076635160840755065)","(-0.00010776674212266888, 6.7354271463595154e-06, -3.629275205618536e-10)",,"[-0.026750000193715096, 0.05299999937415123, 0.03999999910593033]","[0.0, -0.0, 1.5034457455162191]","[-0.09858676046133041, 0.05784556642174721, 0.03999999910593033]","[0.0, -0.0, 1.5034503818793725]","[0.026750000193715096, 0.05299999937415123, 0.03999999910593033]","[0.0, 0.0, -1.5052288706440118]","[0.09859529137611389, 0.057717464864254, 0.03999999910593033]","[0.0, 0.0, -1.5138427586332608]",1.413101294719633,-21.682701192523552,"(0.0, 0.0, 0.0, 0.0, 0.0, 0.0)",-36.2964633864193,-0.08999572753671375,-21.600020366059084,"(0.0, 0.0, 0.0, 0.0, 0.0, 0.0)",-4.677104715743802,-1.4147060948339576,21.72549586223887,"(0.0, 0.0, 0.0, 0.0, 0.0, 0.0)",36.28721231316116,0.08224721981037424,21.806647295928226,"(0.0, 0.0, 0.0, 0.0, 0.0, 0.0)",4.674247117033191,False,,,,,False,,,,
16,Close,,,"(0.010000659812012168, 0.16001055698314023, 0.0146278458391823)","(-0.0002154970996661642, 1.346858017578936e-05, -1.4512199879406586e-09)",,"[-0.026750000193715096, 0.05299999937415123, 0.03999999910593033]","[0.0, -0.0, 1.331791174621689]","[-0.09670332819223404, 0.07004500180482864, 0.03999999910593033]","[0.0, -0.0, 1.1607947601674466]","[0.026750000193715096, 0.05299999937415123, 0.03999999910593033]","[0.0, 0.0, -1.333235579802916]","[0.0967278704047203, 0.06994394958019257, 0.03999999910593033]","[0.0, 0.0, -1.1692126917852095]",1.2586120487229027,-17.562987965944075,"(0.0, 0.0, 0.0, 0.0, 0.0, 0.0)",2.9912613024458263,-0.2438973282575851,-17.496176851103186,"(0.0, 0.0, 0.0, 0.0, 0.0, 0.0)",0.3774423078885404,-1.2599119368155056,17.59765164841349,"(0.0, 0.0, 0.0, 0.0, 0.0, 0.0)",-2.998418754928424,0.23762104120869787,17.663545071724318,"(0.0, 0.0, 0.0, 0.0, 0.0, 0.0)",-0.3794651959179023,False,,,,,False,,,,
17,Close,,,"(0.010000989414132393, 0.1600158306125408, 0.020893621515273818)","(-0.00032319108508158773, 2.0199459787849396e-05, -3.2641426920478403e-09)",,"[-0.026750000193715096, 0.05299999937415123, 0.03999999910593033]","[0.0, -0.0, 1.1927509376626115]","[-0.09366592019796371, 0.0795755386352539, 0.03999999910593033]","[0.0, -0.0, 0.8832429263887086]","[0.026750000193715096, 0.05299999937415123, 0.03999999910593033]","[0.0, 0.0, -1.1939208377844814]","[0.0936969667673111, 0.07949723303318024, 0.03999999910593033]","[0.0, 0.0, -0.8900614482005528]",1.1334757594655511,-14.226020252414699,"(0.0, 0.0, 0.0, 0.0, 0.0, 0.0)",2.4288508647123748,-0.36855748390702325,-14.171887099327844,"(0.0, 0.0, 0.0, 0.0, 0.0, 0.0)",0.30976852738726823,-1.1345286688205596,14.254097835214925,"(0.0, 0.0, 0.0, 0.0, 0.0, 0.0)",-2.4347025650831196,0.36347369491056536,14.307455277413446,"(0.0, 0.0, 0.0, 0.0, 0.0, 0.0)",-0.3114537668278207,False,,,,,False,,,,
18,Close,,,"(0.010001318826104761, 0.16002110119957821, 0.02646143576036139)","(-0.0004308487108156613, 2.692806668198511e-05, -5.800961497533997e-09)",,"[-0.026750000193715096, 0.05299999937415123, 0.03999999910593033]","[0.0, -0.0, 1.0801281957344744]","[-0.09025531262159348, 0.08692750334739685, 0.03999999910593033]","[0.0, -0.0, 0.658426092619021]","[0.026750000193715096, 0.05299999937415123, 0.03999999910593033]","[0.0, 0.0, -1.0810758877799864]","[0.09028743207454681, 0.0868673101067543, 0.03999999910593033]","[0.0, 0.0, -0.6639491897248752]",1.0321153651670965,-11.523076404455903,"(0.0, 0.0, 0.0, 0.0, 0.0, 0.0)",1.9712593195403922,-0.46953209273108476,-11.479215138346529,"(0.0, 0.0, 0.0, 0.0, 0.0, 0.0)",0.25356328507457,-1.0329682217446532,11.54581924652409,"(0.0, 0.0, 0.0, 0.0, 0.0, 0.0)",-1.976034733535922,0.46541422655746517,11.589025293474933,"(0.0, 0.0, 0.0, 0.0, 0.0, 0.0)",-0.2549589687679249,False,,,,,False,,,,
19,Close,,,"(0.010001648057231211, 0.16002636889308344, 0.03133184175509247)","(-0.0005384699893107284, 3.3654401557527444e-05, -9.06094284338731e-09)",,"[-0.026750000193715096, 0.05299999937415123, 0.03999999910593033]","[0.0, -0.0, 0.9889039009917453]","[-0.08690053224563599, 0.09257163107395172, 0.03999999910593033]","[0.0, -0.0, 0.4763247177857985]","[0.026750000193715096, 0.05299999937415123, 0.03999999910593033]","[0.0, 0.0, -0.9896714317513632]","[0.08693088591098785, 0.09252544492483139, 0.03999999910593033]","[0.0, 0.0, -0.4807983343348629]",0.9500134457853482,-9.333691887609287,"(0.0, 0.0, 0.0, 0.0, 0.0, 0.0)",1.59927232790674,-0.551321428885197,-9.298153181376478,"(0.0, 0.0, 0.0, 0.0, 0.0, 0.0)",0.20712540820679678,-0.9507042596131691,9.352113589684514,"(0.0, 0.0, 0.0, 0.0, 0.0, 0.0)",-1.6031637286990463,0.5479859596890367,9.387099348535743,"(0.0, 0.0, 0.0, 0.0, 0.0, 0.0)",-0.20827601456628825,False,,,,,False,,,,
20,Close,,,"(0.010001977116791199, 0.1600316338415276, 0.035505353338314005)","(-0.0006460549330047555, 4.037846511369274e-05, -1.3043353742532214e-08)",,"[-0.026750000193715096, 0.05299999937415123, 0.03999999910593033]","[0.0, -0.0, 0.9150121593347216]","[-0.08381503820419312, 0.09690423309803009, 0.03999999910593033]","[0.0, -0.0, 0.3288226039195219]","[0.026750000193715096, 0.05299999937415123, 0.03999999910593033]","[0.0, 0.0, -0.9156338940018686]","[0.08384232223033905, 0.09686874598264694, 0.03999999910593033]","[0.0, 0.0, -0.33244627340343963]",0.883510891086132,-7.560290428963521,"(0.0, 0.0, 0.0, 0.0, 0.0, 0.0)",1.2970851133907606,-0.6175707112805602,-7.53149495926978,"(0.0, 0.0, 0.0, 0.0, 0.0, 0.0)",0.1689126126712179,-0.884070450286667,7.575212007644451,"(0.0, 0.0, 0.0, 0.0, 0.0, 0.0)",-1.3002524451675361,0.6148689832085066,7.603541305643349,"(0.0, 0.0, 0.0, 0.0, 0.0, 0.0)",-0.16985779298155493,False,,,,,False,,,,
21,Close,,,"(0.010002306014043007, 0.16003689619304312, 0.038982445123681576)","(-0.0007536035543313348, 4.7100258049582536e-05, -1.7747461781428295e-08)",,"[-0.026750000193715096, 0.05299999937415123, 0.03999999910593033]","[0.0, -0.0, 0.855159831855573]","[-0.0810866579413414, 0.10023905336856842, 0.03999999910593033]","[0.0, -0.0, 0.20934598049273878]","[0.026750000193715096, 0.05299999937415123, 0.03999999910593033]","[0.0, 0.0, -0.855663319897266]","[0.08111044019460678, 0.10021167993545532, 0.03999999910593033]","[0.0, 0.0, -0.21228117869263835]",0.8296438217797669,-6.123835247460454,"(0.0, 0.0, 0.0, 0.0, 0.0, 0.0)",1.05173758145085,-0.6712325644411228,-6.100503438359898,"(0.0, 0.0, 0.0, 0.0, 0.0, 0.0)",0.13756782929819192,-0.8300970647322002,6.135921726192006,"(0.0, 0.0, 0.0, 0.0, 0.0, 0.0)",-1.0543131565319612,0.6690441663231638,6.158860938132814,"(0.0, 0.0, 0.0, 0.0, 0.0, 0.0)",-0.13834207864853043,False,,,,,False,,,,
22,Close,,,"(0.010002634758225062, 0.1600421560954447, 0.041763552607370504)","(-0.000861115865719684, 5.381978106418352e-05, -2.3172535119669436e-08)",,"[-0.026750000193715096, 0.05299999937415123, 0.03999999910593033]","[0.0, -0.0, 0.8066794434121096]","[-0.07873354107141495, 0.10281677544116974, 0.03999999910593033]","[0.0, -0.0, 0.11257000369976355]","[0.026750000193715096, 0.05299999937415123, 0.03999999910593033]","[0.0, 0.0, -0.807087375168555]","[0.07875385880470276, 0.1027955636382103, 0.03999999910593033]","[0.0, 0.0, -0.11494747853587685]",0.7860114956416112,-4.960306550442966,"(0.0, 0.0, 0.0, 0.0, 0.0, 0.0)",0.8526282438926112,-0.7146986118113532,-4.941401666116088,"(0.0, 0.0, 0.0, 0.0, 0.0, 0.0)",0.11192109221648956,-0.7863786224330822,4.970096598215528,"(0.0, 0.0, 0.0, 0.0, 0.0, 0.0)",-0.8547210444656044,0.7129260106609093,4.988671207184531,"(0.0, 0.0, 0.0, 0.0, 0.0, 0.0)",-0.11255391153308099,False,,,,,False,,,,
23,Close,,,"(0.010002963358557236, 0.16004741369625017, 0.04384907226694074)","(-0.0009685918795946493, 6.053703485636736e-05, -2.9317842489583264e-08)",,"[-0.026750000193715096, 0.05299999937415123, 0.03999999910593033]","[0.0, -0.0, 0.7674103444184671]","[-0.07673770934343338, 0.10481919348239899, 0.03999999910593033]","[0.0, -0.0, 0.03418149097606777]","[0.026750000193715096, 0.05299999937415123, 0.03999999910593033]","[0.0, 0.0, -0.7677407466611278]","[0.07675483077764511, 0.1048026755452156, 0.03999999910593033]","[0.0, 0.0, -0.0361072460378734]",0.7506693114697051,-4.017848305858803,"(0.0, 0.0, 0.0, 0.0, 0.0, 0.0)",0.6911017846597902,-0.7499060663183246,-4.0025303530146505,"(0.0, 0.0, 0.0, 0.0, 0.0, 0.0)",0.09097831684118958,-0.7509666841707966,4.025778244554576,"(0.0, 0.0, 0.0, 0.0, 0.0, 0.0)",-0.6928012733138227,0.7484702604680491,4.040818653480022,"(0.0, 0.0, 0.0, 0.0, 0.0, 0.0)",-0.09149462532289206,False,,,,,False,,,,
24,Close,,,"(0.010003291824242136, 0.16005266914270105, 0.04523936165140331)","(-0.0010760316083767074, 6.725202012489063e-05, -3.618265319583079e-08)",,"[-0.026750000193715096, 0.05299999937415123, 0.03999999910593033]","[0.0, -0.0, 0.7356023986171477]","[-0.07506444305181503, 0.10638272017240524, 0.03999999910593033]","[0.0, 0.0, -0.029314282157410606]","[0.026750000193715096, 0.05299999937415123, 0.03999999910593033]","[0.0, 0.0, -0.7358699744488303]","[0.07507872581481934, 0.10636978596448898, 0.03999999910593033]","[0.0, -0.0, 0.027754427824074522]",0.722042142290461,-3.2544571277456287,"(0.0, 0.0, 0.0, 0.0, 0.0, 0.0)",0.560108160717456,-0.7784260816002104,-3.242260463996204,"(0.0, 0.0, 0.0, 0.0, 0.0, 0.0)",0.0739092939425144,-0.7222830141783452,3.260880378089207,"(0.0, 0.0, 0.0, 0.0, 0.0, 0.0)",-0.5614876113391304,0.7772630911922368,3.2732751882458535,"(0.0, 0.0, 0.0, 0.0, 0.0, 0.0)",-0.07432997801242036,False,,,,,False,,,,
25,Close,,,"(0.010001644182078712, 0.16005595153396976, 0.045940321410535084)","(-0.0011271805217326655, 1.767785898679914e-05, -1.508889111938428e-08)",,"[-0.026750000193715096, 0.05299999937415123, 0.03999999910593033]","[0.0, -0.0, 0.7098379546684608]","[-0.07367318123579025, 0.10760965943336487, 0.03999999910593033]","[0.0, 0.0, -0.08074653118681538]","[0.026750000193715096, 0.05299999937415123, 0.03999999910593033]","[0.0, 0.0, -0.7100547061469626]","[0.07368502020835876, 0.10759948939085007, 0.03999999910593033]","[0.0, -0.0, 0.07948305351710017]",0.6988541352552734,-2.6361102734739577,"(0.0, 0.0, 0.0, 0.0, 0.0, 0.0)",0.4538907146887525,-0.8015268867317584,-2.626184566689172,"(0.0, 0.0, 0.0, 0.0, 0.0, 0.0)",0.06000477197099662,-0.6990492414844596,2.6413131062522566,"(0.0, 0.0, 0.0, 0.0, 0.0, 0.0)",-0.45500992694973624,0.8005848745408953,2.6513062318756173,"(0.0, 0.0, 0.0, 0.0, 0.0, 0.0)",-0.06034712704439637,False,,,,,False,,,,
26,Close,,,"(0.0099979269032565, 0.16005188637635104, 0.04640949954916324)","(-0.0010442772263960227, -5.814874739306873e-05, 7.787963860925158e-09)",,"[-0.026750000193715096, 0.05299999937415123, 0.03999999910593033]","[0.0, -0.0, 0.6889687286552088]","[-0.07252338528633118, 0.1085769459605217, 0.03999999910593033]","[0.0, 0.0, -0.12240626184562299]","[0.026750000193715096, 0.05299999937415123, 0.03999999910593033]","[0.0, 0.0, -0.6891442541658422]","[0.07253314554691315, 0.10856890678405762, 0.03999999910593033]","[0.0, -0.0, 0.12138287899953458]",0.6800717984485459,-2.1352615874880345,"(0.0, 0.0, 0.0, 0.0, 0.0, 0.0)",0.36778464275725675,-0.820237492399504,-2.127000202679893,"(0.0, 0.0, 0.0, 0.0, 0.0, 0.0)",0.04871100820034693,-0.6802298342020312,2.1394759521557623,"(0.0, 0.0, 0.0, 0.0, 0.0, 0.0)",-0.3686924226914724,0.8194744666035607,2.147347557238381,"(0.0, 0.0, 0.0, 0.0, 0.0, 0.0)",-0.04898946018255637,False,,,,,False,,,,
27,Close,,,"(0.009998107600018924, 0.16004411888380865, 0.0468059782297436)","(-0.0008858309445970004, -5.447527859797503e-05, 4.128601528647624e-08)",,"[-0.026750000193715096, 0.05299999937415123, 0.03999999910593033]","[0.0, -0.0, 0.672064613904271]","[-0.07157741487026215, 0.10934273153543472, 0.03999999910593033]","[0.0, 0.0, -0.15614974961002634]","[0.026750000193715096, 0.05299999937415123, 0.03999999910593033]","[0.0, 0.0, -0.6722069192953587]","[0.07158542424440384, 0.10933635383844376, 0.03999999910593033]","[0.0, -0.0, 0.15532080931604164]",0.6648581567433223,-1.7295508464885936,"(0.0, 0.0, 0.0, 0.0, 0.0, 0.0)",0.29799285099320455,-0.8353935278746698,-1.722993881465588,"(0.0, 0.0, 0.0, 0.0, 0.0, 0.0)",0.03950205891705609,-0.6649861657036452,1.732964418763874,"(0.0, 0.0, 0.0, 0.0, 0.0, 0.0)",-0.2987289514022836,0.83477548361327,1.7394759470338683,"(0.0, 0.0, 0.0, 0.0, 0.0, 0.0)",-0.03972821774930672,False,,,,,False,,,,
28,Close,,,"(0.009998390752654573, 0.16003702894197389, 0.04714144752999396)","(-0.0007411380797103218, -4.869650481896534e-05, 1.1687517768299383e-07)",,"[-0.026750000193715096, 0.05299999937415123, 0.03999999910593033]","[0.0, -0.0, 0.6583722791296546]","[-0.07080177217721939, 0.10995122045278549, 0.03999999910593033]","[0.0, 0.0, -0.18348236399010098]","[0.026750000193715096, 0.05299999937415123, 0.03999999910593033]","[0.0, 0.0, -0.6584875609778488]","[0.07080833613872528, 0.10994613915681839, 0.03999999910593033]","[0.0, -0.0, 0.18281091441867092]",0.652535106962091,-1.400936185655761,"(0.0, 0.0, 0.0, 0.0, 0.0, 0.0)",0.24143143710013154,-0.8476696977959799,-1.3956001238249038,"(0.0, 0.0, 0.0, 0.0, 0.0, 0.0)",0.032035576984152714,-0.6526387942199526,1.4037011791987364,"(0.0, 0.0, 0.0, 0.0, 0.0, 0.0)",-0.24202820218879367,0.8471690873323404,1.4089504550195393,"(0.0, 0.0, 0.0, 0.0, 0.0, 0.0)",-0.0322192170145395,False,,,,,False,,,,
29,Close,,,"(0.009998679410322496, 0.16003066597344334, 0.0474253884764576)","(-0.0006112814540129935, -4.2805404436077314e-05, 1.9447426774393396e-07)",,"[-0.026750000193715096, 0.05299999937415123, 0.03999999910593033]","[0.0, -0.0, 0.6472815645892557]","[-0.07016744464635849, 0.11043626815080643, 0.03999999910593033]","[0.0, 0.0, -0.2056215493544759]","[0.026750000193715096, 0.05299999937415123, 0.03999999910593033]","[0.0, 0.0, -0.6473749785824873]","[0.07017280906438828, 0.1104322224855423, 0.03999999910593033]","[0.0, -0.0, 0.20507767878351457]",0.6425534366392937,-1.1347583103811658,"(0.0, 0.0, 0.0, 0.0, 0.0, 0.0)",0.19559696212506814,-0.8576132175808707,-1.130415870269558,"(0.0, 0.0, 0.0, 0.0, 0.0, 0.0)",0.025974296640771184,-0.6426374233181616,1.1369979551509777,"(0.0, 0.0, 0.0, 0.0, 0.0, 0.0)",-0.19608068519888996,0.8572077274788498,1.141229523067934,"(0.0, 0.0, 0.0, 0.0, 0.0, 0.0)",-0.02612334092818916,False,,,,,False,,,,
30,Close,,,"(0.009865465308992205, 0.15999852606453366, 0.04766600164849151)","(-0.0003424815135586742, 0.00015086673503461647, 0.0034152828324375316)",,"[-0.026750000193715096, 0.05299999937415123, 0.03999999910593033]","[0.0, -0.0, 0.6382981045455605]","[-0.06964972615242004, 0.11082398891448975, 0.03999999910593033]","[0.0, 0.0, -0.22355414441709243]","[0.026750000193715096, 0.05299999937415123, 0.03999999910593033]","[0.0, 0.0, -0.6383737252477673]","[0.06965409219264984, 0.11082074791193008, 0.03999999910593033]","[0.0, -0.0, 0.22311363310560886]",0.6344682836778279,-0.9191542314087444,"(0.0, 0.0, 0.0, 0.0, 0.0, 0.0)",0.1584658053641607,-0.8656670151994418,-0.9155462613482186,"(0.0, 0.0, 0.0, 0.0, 0.0, 0.0)",0.021063560793533557,-0.6345419852789147,0.9196069697833984,"(0.0, 0.0, 0.0, 0.0, 0.0, 0.0)",1.5650710318467773,0.8652269258386903,0.8975102038417887,"(0.0, 0.0, 0.0, 0.0, 0.0, 0.0)",0.970263568851588,False,,,,,True,"(0.041964474105275554, 0.17969275438125942, 0.023999959438538113)","(-0.9999999992078928, -2.3394376763778626e-07, -3.980150266267419e-05)",0.0005277146366441324,13.827283024398023
31,Move,,,"(0.007363952190207586, 0.1595176072470861, 0.04786907614534817)","(-0.000283671801070412, 0.00017028703879343212, 0.033932294028324435)","[0.0, 0.0, 0.0]","[-0.026750000193715096, 0.05299999937415123, 0.03999999910593033]","[0.0, -0.0, 0.6310214732486521]","[-0.06922782957553864, 0.1111346185207367, 0.03999999910593033]","[0.0, 0.0, -0.23807887186492363]","[0.026750000193715096, 0.05299999937415123, 0.03999999910593033]","[0.0, 0.0, -0.6310879718519756]","[0.06923169642686844, 0.11113179475069046, 0.03999999910593033]","[0.0, -0.0, 0.2376151439176698]",0.6073010028525442,-5.692908589800243,"(0.0, 0.0, 0.0, 0.0, 0.0, 0.0)",-6.970029188620435,-0.868756983831492,0.08239916352133925,"(0.0, 0.0, 0.0, 0.0, 0.0, 0.0)",-0.4110687045203754,-0.6117280690932336,4.646378695169427,"(0.0, 0.0, 0.0, 0.0, 0.0, 0.0)",6.63722350158353,0.8683562496935296,-0.08325233958591138,"(0.0, 0.0, 0.0, 0.0, 0.0, 0.0)",0.9711507533803067,False,,,,,True,"(0.04054627108315854, 0.179595033909982, 0.023999959438538113)","(-0.9999999992078928, -2.3394376763778626e-07, -3.980150266267419e-05)",-6.660727030056632e-06,5.483947105729632
32,Move,,,"(0.003581798779507854, 0.15888081127638445, 0.0479516006086598)","(0.0007129250223673224, -0.00208967314794087, 0.0775559872120303)","[-0.003782153410699732, -0.0006367959707016535, 8.25244633116326e-05]","[-0.026750000193715096, 0.05299999937415123, 0.03999999910593033]","[0.0, -0.0, 0.5859526299274878]","[-0.06656552106142044, 0.11298936605453491, 0.03999999910593033]","[0.0, 0.0, -0.2824962348735626]","[0.026750000193715096, 0.05299999937415123, 0.03999999910593033]","[0.0, 0.0, -0.5943032042166643]","[0.06706507503986359, 0.11265479773283005, 0.03999999910593033]","[0.0, -0.0, 0.2737407621305699]",0.5651750435041389,-4.9866125127970315,"(0.0, 0.0, 0.0, 0.0, 0.0, 0.0)",0.1879296173067297,-0.8684796473023089,-0.007395640778216972,"(0.0, 0.0, 0.0, 0.0, 0.0, 0.0)",0.0052485587257143,-0.5763335013853139,4.3127362313992865,"(0.0, 0.0, 0.0, 0.0, 0.0, 0.0)",0.20027995465953127,0.8680752302284668,0.0074938524016774505,"(0.0, 0.0, 0.0, 0.0, 0.0, 0.0)",0.02249499703994292,False,,,,,True,"(0.0359258773488902, 0.1800326723866737, 0.023997902681873285)","(-0.9984706073090757, -0.05524536888912827, -0.002096558167493954)",0.00012594863753174636,0.0
33,Move,,,"(0.001122542829286716, 0.1593018964136896, 0.0479227662575371)","(0.004945114300985391, -0.0007111404472231802, 0.10411918620410092)","[-0.006241409360920869, -0.00021571083339649855, 5.3690112188933825e-05]","[-0.026750000193715096, 0.05299999937415123, 0.03999999910593033]","[0.0, -0.0, 0.5464752837415245]","[-0.06416688859462738, 0.11451403051614761, 0.03999999910593033]","[0.0, 0.0, -0.32203216719565797]","[0.026750000193715096, 0.05299999937415123, 0.03999999910593033]","[0.0, 0.0, -0.5601607664550203]","[0.06500521302223206, 0.113996222615242, 0.03999999910593033]","[0.0, -0.0, 0.3079426098360514]",0.5284581628806412,-4.324100182620625,"(0.0, 0.0, 0.0, 0.0, 0.0, 0.0)",-40.57665041993025,-0.8499710773008806,4.448713801084151,"(0.0, 0.0, 0.0, 0.0, 0.0, 0.0)",-20.450246702708142,-0.5432536493593767,4.057701472950861,"(0.0, 0.0, 0.0, 0.0, 0.0, 0.0)",40.51490371176407,0.8490881856801438,-4.5636359590366995,"(0.0, 0.0, 0.0, 0.0, 0.0, 0.0)",20.9314301799772,True,"(-0.029811151186175763, 0.18051363537611448, 0.05600153891941393)","(0.9949795852674637, 0.10006627287285103, 0.001538159394272495)",-0.0021929381795451827,324.8302845382825,True,"(0.031581245564939034, 0.18025917111664624, 0.023998461080646502)","(-0.9949795852674632, -0.10006627287285588, -0.0015381593942749786)",0.00032843032100871104,245.81822951935948
34,Move,"(0.0021000000000000003, 0.0, -0.0002)","(0.0, 0.0054262286444503715, 0.0)","(0.0007196907609027976, 0.16028588988114859, 0.04795688000504927)","(0.009025610816709016, 0.00022408020951782652, 0.09641436756578241)","[-0.006644261429304788, 0.0007682826340624782, 8.780385970109938e-05]","[-0.026750000193715096, 0.05299999937415123, 0.03999999910593033]","[0.0, -0.0, 0.5122910766505747]","[-0.062042638659477234, 0.11575690656900406, 0.03999999910593033]","[0.0, 0.0, -0.3205952360126725]","[0.026750000193715096, 0.05299999937415123, 0.03999999910593033]","[0.0, 0.0, -0.5280779333918697]","[0.06302893161773682, 0.11519195139408112, 0.03999999910593033]","[0.0, -0.0, 0.3033470937789916]",0.5117672512863009,-0.12572496202700467,"(0.0, 0.0, 0.0, 0.0, 0.0, 0.0)",4.177041523811905,-0.834594853946591,-0.41005317180321565,"(0.0, 0.0, 0.0, 0.0, 0.0, 0.0)",-0.49112703479188546,-0.5319857968297789,-0.9378724016695679,"(0.0, 0.0, 0.0, 0.0, 0.0, 0.0)",-6.16387146534701,0.8331914035747173,0.4239141894780385,"(0.0, 0.0, 0.0, 0.0, 0.0, 0.0)",0.008602089893919463,True,"(-0.027782116061409873, 0.18180915987972746, 0.05600071189642032)","(0.9945842410657634, 0.10393113923646441, 0.000711140387283058)",-0.005767574495913523,5.743367241282696,True,"(0.029910421102272162, 0.18160183909572525, 0.023999288099653494)","(-0.994584241065763, -0.10393113923646692, -0.0007111403872818769)",0.00023400145338051335,0.0
35,Move,"(-0.00015, 0.0, 0.0012250000000000002)","(0.0, 0.029300587482480805, 0.0)","(0.0013717318429696446, 0.16038908587067693, 0.04805889245759049)","(0.005086158994404714, 0.0014103180297069177, 0.09308344959925734)","[-0.005992220347237941, 0.0008714786235908267, 0.00018981631224232465]","[-0.026750000193715096, 0.05299999937415123, 0.03999999910593033]","[0.0, -0.0, 0.5113493398410088]","[-0.06198352202773094, 0.11579012125730515, 0.03999999910593033]","[0.0, 0.0, -0.3239054931682672]","[0.026750000193715096, 0.05299999937415123, 0.03999999910593033]","[0.0, 0.0, -0.5355549850983873]","[0.06349292397499084, 0.11491895467042923, 0.03999999910593033]","[0.0, -0.0, 0.2985672204190834]",0.5096783389282153,-0.4010485757265077,"(0.0, 0.0, 0.0, 0.0, 0.0, 0.0)",-4.714528129347381,-0.8331855363281958,0.49664572660734385,"(0.0, 0.0, 0.0, 0.0, 0.0, 0.0)",-2.156839191119003,-0.5370156606401336,-0.3505535339359356,"(0.0, 0.0, 0.0, 0.0, 0.0, 0.0)",4.67517105076945,0.8323098743038185,-0.43497484771909356,"(0.0, 0.0, 0.0, 0.0, 0.0, 0.0)",1.9077176324070175,True,"(-0.027504534012851106, 0.18172859304084374, 0.05600071189642032)","(0.9945842410657634, 0.10393113923646441, 0.000711140387283058)",-0.004950165498490184,30.075694479190886,True,"(0.03069221996368169, 0.1814863869707386, 0.023999288099653494)","(-0.994584241065763, -0.10393113923646692, -0.0007111403872818769)",1.538919425575081e-05,21.871715346254337
36,Move,"(0.0004286, 0.0, 0.0024857)","(0.0, 0.02892708702255402, 0.0)","(0.00189878692120359, 0.1605039343150452, 0.04814339683323766)","(0.0015962497536079051, 0.002658843461542557, 0.09049597897984718)","[-0.005465165269003995, 0.0009863270679590919, 0.00027432068788948993]","[-0.026750000193715096, 0.05299999937415123, 0.03999999910593033]","[0.0, -0.0, 0.5081685490427374]","[-0.06178361922502518, 0.1159018725156784, 0.03999999910593033]","[0.0, 0.0, -0.3232280392092885]","[0.026750000193715096, 0.05299999937415123, 0.03999999910593033]","[0.0, 0.0, -0.5383266105087616]","[0.06366440653800964, 0.11481688171625137, 0.03999999910593033]","[0.0, -0.0, 0.29242943912913133]",0.5066227243994292,-0.37100180190625315,"(0.0, 0.0, 0.0, 0.0, 0.0, 0.0)",-3.6250099601231685,-0.8299376904831303,0.350140573375246,"(0.0, 0.0, 0.0, 0.0, 0.0, 0.0)",-1.8258010472834352,-0.5400394666916999,-0.411069449448073,"(0.0, 0.0, 0.0, 0.0, 0.0, 0.0)",3.1327030244062994,0.8295260729253706,-0.2952039804168145,"(0.0, 0.0, 0.0, 0.0, 0.0, 0.0)",1.5271214378002482,True,"(-0.02734931225923555, 0.18186368983036932, 0.05600071189642032)","(0.9945842410657634, 0.10393113923646441, 0.000711140387283058)",-0.004526335806478497,25.032942860658636,True,"(0.0312728919623484, 0.1815843807133133, 0.023999288099653494)","(-0.994584241065763, -0.10393113923646692, -0.0007111403872818769)",7.97926283896468e-05,13.698382268486817
37,Move,"(-0.00014000000000000001, 0.0, 0.00423)","(0.0, 0.04324576820591551, 0.0)","(0.0023893726959645727, 0.16059664679931565, 0.04821016616584935)","(-0.0012969157538836426, 0.003581571454908115, 0.08826274569252418)","[-0.004974579494243013, 0.0010790395522295437, 0.00034109002050117937]","[-0.026750000193715096, 0.05299999937415123, 0.03999999910593033]","[0.0, -0.0, 0.5052343770056243]","[-0.06159890443086624, 0.11600439995527267, 0.03999999910593033]","[0.0, 0.0, -0.32335174267589284]","[0.026750000193715096, 0.05299999937415123, 0.03999999910593033]","[0.0, 0.0, -0.5415842479103833]","[0.06386557966470718, 0.11469630151987076, 0.03999999910593033]","[0.0, -0.0, 0.286796280789076]",0.5039403192432103,-0.3105708578645886,"(0.0, 0.0, 0.0, 0.0, 0.0, 0.0)",-3.253057765243361,-0.8272274525926113,0.32607697417677856,"(0.0, 0.0, 0.0, 0.0, 0.0, 0.0)",-1.635805060236959,-0.5430031135844539,-0.3405263949152356,"(0.0, 0.0, 0.0, 0.0, 0.0, 0.0)",3.0789389262350455,0.8272163684921692,-0.2793906167617758,"(0.0, 0.0, 0.0, 0.0, 0.0, 0.0)",1.4132326811515425,True,"(-0.027156435919933365, 0.1819619546241018, 0.05600071189642032)","(0.9945842410657634, 0.10393113923646441, 0.000711140387283058)",-0.004118152616748386,22.880507583768324,True,"(0.031850693548766226, 0.181645208013633, 0.023999288099653494)","(-0.994584241065763, -0.10393113923646692, -0.0007111403872818769)",0.00010497678140268565,9.600342127759085
38,Move,"(-0.00028460000000000003, 0.0, 0.0060462)","(0.0, 0.04997924846010962, 0.0)","(0.002791142003816164, 0.16068989833480138, 0.048286302621541384)","(-0.0023055859245117126, 0.004795616102520124, 0.08634582671787308)","[-0.0045728101863914215, 0.0011722910877152715, 0.0004172264761932165]","[-0.026750000193715096, 0.05299999937415123, 0.03999999910593033]","[0.0, -0.0, 0.5027981493199228]","[-0.06144530698657036, 0.1160891056060791, 0.03999999910593033]","[0.0, 0.0, -0.32307277459750056]","[0.026750000193715096, 0.05299999937415123, 0.03999999910593033]","[0.0, 0.0, -0.5442755270811627]","[0.06403148174285889, 0.11459619551897049, 0.03999999910593033]","[0.0, -0.0, 0.28186853739656675]",0.5016352206584213,-0.27910829426563394,"(0.0, 0.0, 0.0, 0.0, 0.0, 0.0)",-3.2122467742415477,-0.8246322352172251,0.2972906525410351,"(0.0, 0.0, 0.0, 0.0, 0.0, 0.0)",-1.5436514427332866,-0.5455634141107782,-0.30911296426702567,"(0.0, 0.0, 0.0, 0.0, 0.0, 0.0)",2.485192382231429,0.8251732187702654,-0.2329840019510141,"(0.0, 0.0, 0.0, 0.0, 0.0, 0.0)",1.1859318146482591,True,"(-0.02702124318616237, 0.18205627198427193, 0.05600071189642032)","(0.9945842410657634, 0.10393113923646441, 0.000711140387283058)",-0.003766710242808325,21.66764032759687,True,"(0.03234688691745877, 0.1817020459453519, 0.023999288099653494)","(-0.994584241065763, -0.10393113923646692, -0.0007111403872818769)",0.00015959301043211673,2.409778171451907
39,Move,"(-0.0012533000000000002, 0.0, 0.008740000000000001)","(0.0, 0.04788310802846443, 0.0)","(0.0031551762043006337, 0.16077427017005824, 0.048344784606949145)","(-0.0032928662936554044, 0.005891172311864685, 0.08489777899169332)","[-0.004208775985906952, 0.0012566629229721349, 0.00047570846160097796]","[-0.026750000193715096, 0.05299999937415123, 0.03999999910593033]","[0.0, -0.0, 0.5005925787621051]","[-0.06130607798695564, 0.11616547405719757, 0.03999999910593033]","[0.0, 0.0, -0.32286280135185924]","[0.026750000193715096, 0.05299999937415123, 0.03999999910593033]","[0.0, 0.0, -0.5467258198710858]","[0.06418230384588242, 0.11450465768575668, 0.03999999910593033]","[0.0, -0.0, 0.2775263573692696]",0.49972623162121094,-0.20793577572209862,"(0.0, 0.0, 0.0, 0.0, 0.0, 0.0)",-2.9093839103195,-0.822297735161508,0.2778394026691921,"(0.0, 0.0, 0.0, 0.0, 0.0, 0.0)",-1.4283788929154564,-0.5477383046481179,-0.24300789297841102,"(0.0, 0.0, 0.0, 0.0, 0.0, 0.0)",2.3675325989527836,0.8233390193878538,-0.21914719604528596,"(0.0, 0.0, 0.0, 0.0, 0.0, 0.0)",1.112711280346577,True,"(-0.026895867527298743, 0.18213986820530548, 0.05600071189642032)","(0.9945842410657634, 0.10393113923646441, 0.000711140387283058)",-0.003436038307360813,19.62812312600519,True,"(0.03278938928893378, 0.18174745644367218, 0.023999288099653494)","(-0.994584241065763, -0.10393113923646692, -0.0007111403872818769)",0.0001902442833485322,0.0
40,Move,"(-0.0012067000000000002, 0.0, 0.0124133)","(0.0, 0.04404163834482491, 0.0)","(0.0034791336157646733, 0.16085293636274767, 0.04840150578244432)","(-0.004226452732145582, 0.006914816480661711, 0.083691105137627)","[-0.0038848185744429125, 0.0013353291156615599, 0.0005324296370961545]","[-0.026750000193715096, 0.05299999937415123, 0.03999999910593033]","[0.0, -0.0, 0.49894870997070234]","[-0.061202190816402435, 0.11622220277786255, 0.03999999910593033]","[0.0, 0.0, -0.3222757619949336]","[0.026750000193715096, 0.05299999937415123, 0.03999999910593033]","[0.0, 0.0, -0.5486510970319455]","[0.06430064886808395, 0.11443247646093369, 0.03999999910593033]","[0.0, -0.0, 0.27383979182542084]",0.4981166043117821,-0.1997011796362599,"(0.0, 0.0, 0.0, 0.0, 0.0, 0.0)",-2.748450442197933,-0.8201710830903279,0.25280364890717744,"(0.0, 0.0, 0.0, 0.0, 0.0, 0.0)",-1.3154835232633248,-0.5496391417642121,-0.2371417026674876,"(0.0, 0.0, 0.0, 0.0, 0.0, 0.0)",2.0697284860838523,0.8216573954393518,-0.20002687173963,"(0.0, 0.0, 0.0, 0.0, 0.0, 0.0)",1.0082799037882586,True,"(-0.026830715590925383, 0.18221677932483968, 0.05600071189642032)","(0.9945842410657634, 0.10393113923646441, 0.000711140387283058)",-0.0031305985247693686,17.625670315810186,True,"(0.0331558416572755, 0.18179054986556545, 0.023999288099653494)","(-0.994584241065763, -0.10393113923646692, -0.0007111403872818769)",0.00022602570846913764,0.0
41,Move,"(-0.0015600000000000002, 0.0, 0.016300000000000002)","(0.0, 0.04461759699798304, 0.0)","(0.0037767875466072722, 0.16092573251270212, 0.048458966530728946)","(-0.005097291400795364, 0.007864583291595813, 0.08267625818392986)","[-0.0035871646436003136, 0.0014081252656160115, 0.0005898903853807785]","[-0.026750000193715096, 0.05299999937415123, 0.03999999910593033]","[0.0, -0.0, 0.4973699877708871]","[-0.06110233813524246, 0.11627651005983353, 0.03999999910593033]","[0.0, 0.0, -0.3218215865037215]","[0.026750000193715096, 0.05299999937415123, 0.03999999910593033]","[0.0, 0.0, -0.5505298872349611]","[0.06441600620746613, 0.11436181515455246, 0.03999999910593033]","[0.0, -0.0, 0.2703511737754181]",0.4966883314668268,-0.1635869477417483,"(0.0, 0.0, 0.0, 0.0, 0.0, 0.0)",-2.4720732234792435,-0.8182342480433308,0.22974730827506845,"(0.0, 0.0, 0.0, 0.0, 0.0, 0.0)",-1.193826588222763,-0.5513753108472926,-0.20289001325269337,"(0.0, 0.0, 0.0, 0.0, 0.0, 0.0)",1.9241921840023906,0.8201161135726345,-0.18360022640593102,"(0.0, 0.0, 0.0, 0.0, 0.0, 0.0)",0.9303022212974177,True,"(-0.026760835992768864, 0.18228669501825517, 0.05600071189642032)","(0.9945842410657634, 0.10393113923646441, 0.000711140387283058)",-0.0028459667259071344,15.70727070511499,True,"(0.03350637497519356, 0.18182813013594318, 0.023999288099653494)","(-0.994584241065763, -0.10393113923646692, -0.0007111403872818769)",0.00025870243525155016,0.0
42,Move,"(-0.0017733000000000002, 0.0, 0.0200333)","(0.0, 0.041320670040965755, 0.0)","(0.0040433315701733485, 0.16099319293995282, 0.04851652600872786)","(-0.005908500245454507, 0.008743660684974564, 0.08187494268966886)","[-0.0033206206200342373, 0.00147558569286671, 0.0006474498633796955]","[-0.026750000193715096, 0.05299999937415123, 0.03999999910593033]","[0.0, -0.0, 0.49607686897305103]","[-0.06102048605680466, 0.11632087826728821, 0.03999999910593033]","[0.0, 0.0, -0.3212671964711446]","[0.026750000193715096, 0.05299999937415123, 0.03999999910593033]","[0.0, 0.0, -0.5521374581093076]","[0.06451459974050522, 0.1143011823296547, 0.03999999910593033]","[0.0, -0.0, 0.2672666379755067]",0.495489675568881,-0.14092005170433078,"(0.0, 0.0, 0.0, 0.0, 0.0, 0.0)",-2.269264415959891,-0.816477373783926,0.20800212477939442,"(0.0, 0.0, 0.0, 0.0, 0.0, 0.0)",-1.087047230066552,-0.5528983618586044,-0.1826078319296341,"(0.0, 0.0, 0.0, 0.0, 0.0, 0.0)",1.7250918814631997,0.8187072147018174,-0.16726738019807713,"(0.0, 0.0, 0.0, 0.0, 0.0, 0.0)",0.8467553705134003,True,"(-0.026715584217161588, 0.1823500911791353, 0.05600071189642032)","(0.9945842410657634, 0.10393113923646441, 0.000711140387283058)",-0.0025816974298663166,13.941195861895846,True,"(0.03381321647352843, 0.18186252055062893, 0.023999288099653494)","(-0.994584241065763, -0.10393113923646692, -0.0007111403872818769)",0.00028914730018107164,0.0
43,Move,"(-0.0018133, 0.0, 0.02368)","(0.0, 0.03824016391119576, 0.0)","(0.0042987737730115294, 0.1610479483296283, 0.04854748246477663)","(-0.00612557671481315, 0.009464303254388125, 0.08177000704587822)","[-0.0030651784171960563, 0.001530341082542186, 0.0006784063194284623]","[-0.026750000193715096, 0.05299999937415123, 0.03999999910593033]","[0.0, -0.0, 0.4949640800758788]","[-0.06095000356435776, 0.11635897308588028, 0.03999999910593033]","[0.0, 0.0, -0.32069753758978714]","[0.026750000193715096, 0.05299999937415123, 0.03999999910593033]","[0.0, 0.0, -0.553584579058758]","[0.06460326910018921, 0.11424647271633148, 0.03999999910593033]","[0.0, -0.0, 0.26447477313070905]",0.49443090624528563,-0.12796139981514112,"(0.0, 0.0, 0.0, 0.0, 0.0, 0.0)",-2.0958839257695487,-0.814876882963857,0.1883398159240312,"(0.0, 0.0, 0.0, 0.0, 0.0, 0.0)",-0.9925518116826542,-0.55429850281401,-0.17134226091318816,"(0.0, 0.0, 0.0, 0.0, 0.0, 0.0)",1.5427731620396612,0.8174313264618985,-0.1507204143727662,"(0.0, 0.0, 0.0, 0.0, 0.0, 0.0)",0.7570480201611268,True,"(-0.026682721165829065, 0.18240771810938888, 0.05600071189642032)","(0.9945842410657634, 0.10393113923646441, 0.000711140387283058)",-0.0023391030532173137,12.660309240597204,True,"(0.03409062957406158, 0.18189326017570795, 0.023999288099653494)","(-0.994584241065763, -0.10393113923646692, -0.0007111403872818769)",0.00031693803468863115,0.0
44,Move,"(-0.00082, 0.0, 0.02672)","(0.0, 0.04923748352801204, 0.0)","(0.004558986069639002, 0.1610970373661297, 0.048581599199630475)","(-0.0061694700342707805, 0.010093286266701397, 0.0815067884586123)","[-0.0028049661205685836, 0.001579430119043601, 0.0007125230542823074]","[-0.026750000193715096, 0.05299999937415123, 0.03999999910593033]","[0.0, -0.0, 0.49395306509590026]","[-0.060885924845933914, 0.11639352142810822, 0.03999999910593033]","[0.0, 0.0, -0.32018902530236687]","[0.026750000193715096, 0.05299999937415123, 0.03999999910593033]","[0.0, 0.0, -0.554942464634243]","[0.06468640267848969, 0.11419501155614853, 0.03999999910593033]","[0.0, -0.0, 0.26190191151240966]",0.493261186128579,-0.16603333828374198,"(0.0, 0.0, 0.0, 0.0, 0.0, 0.0)",-2.008758633350842,-0.8134126388520173,0.17506008870209933,"(0.0, 0.0, 0.0, 0.0, 0.0, 0.0)",-0.9322421555436067,-0.555801482806834,-0.20615266718329683,"(0.0, 0.0, 0.0, 0.0, 0.0, 0.0)",1.3422119038210807,0.8162702979742892,-0.13778113572468986,"(0.0, 0.0, 0.0, 0.0, 0.0, 0.0)",0.6822327579451974,True,"(-0.026652231761735076, 0.18245968090292528, 0.05600071189642032)","(0.9945842410657634, 0.10393113923646441, 0.000711140387283058)",-0.0021146213012902546,11.345133132153576,True,"(0.03434791126285724, 0.18192008271322935, 0.023999288099653494)","(-0.994584241065763, -0.10393113923646692, -0.0007111403872818769)",0.0003387278813356617,0.0
45,Move,"(-0.0005067, 0.0, 0.029660000000000002)","(0.0, 0.06001838231758101, 0.0)","(0.0048241275682225975, 0.16114095058722488, 0.048616953764940206)","(-0.006081416114459072, 0.010642332059133825, 0.08112313427272322)","[-0.0025398246219849882, 0.0016233433401387776, 0.0007478776195920384]","[-0.026750000193715096, 0.05299999937415123, 0.03999999910593033]","[0.0, -0.0, 0.4926404938580495]","[-0.06080269068479538, 0.11643826961517334, 0.03999999910593033]","[0.0, 0.0, -0.3200885061969543]","[0.026750000193715096, 0.05299999937415123, 0.03999999910593033]","[0.0, 0.0, -0.5565760659989984]","[0.06478630751371384, 0.11413296312093735, 0.03999999910593033]","[0.0, -0.0, 0.25915648422987386]",0.4919670907582008,-0.16161055394152452,"(0.0, 0.0, 0.0, 0.0, 0.0, 0.0)",-1.78725307619491,-0.8120592486510767,0.1607344368251225,"(0.0, 0.0, 0.0, 0.0, 0.0, 0.0)",-0.8508998104576747,-0.5574069368846176,-0.1994292129926562,"(0.0, 0.0, 0.0, 0.0, 0.0, 0.0)",1.2815481711359786,0.8152050516488621,-0.12658631120658737,"(0.0, 0.0, 0.0, 0.0, 0.0, 0.0)",0.6314884692774376,True,"(-0.026575640458744068, 0.18250787258853504, 0.05600071189642032)","(0.9945842410657634, 0.10393113923646441, 0.000711140387283058)",-0.0019060648496283536,10.04463537332038,True,"(0.03463386451922232, 0.1819410679303468, 0.023999288099653494)","(-0.994584241065763, -0.10393113923646692, -0.0007111403872818769)",0.00035756882971954947,0.0
46,Move,"(-0.00028000000000000003, 0.0, 0.0319267)","(0.0, 0.06350205950456168, 0.0)","(0.005078149423677127, 0.16118007779100577, 0.04865310469971206)","(-0.005902145693328606, 0.01111575897438773, 0.0806778024689144)","[-0.002285802766530459, 0.0016624705439196585, 0.0007840285543638942]","[-0.026750000193715096, 0.05299999937415123, 0.03999999910593033]","[0.0, -0.0, 0.491362705058054]","[-0.06072160229086876, 0.1164817288517952, 0.03999999910593033]","[0.0, 0.0, -0.32007032996994084]","[0.026750000193715096, 0.05299999937415123, 0.03999999910593033]","[0.0, 0.0, -0.5581560156677645]","[0.06488285213708878, 0.114072784781456, 0.03999999910593033]","[0.0, -0.0, 0.25655590996087924]",0.49069893020817884,-0.1593036544747816,"(0.0, 0.0, 0.0, 0.0, 0.0, 0.0)",-1.6291039381055188,-0.8108239192787338,0.14617231196131716,"(0.0, 0.0, 0.0, 0.0, 0.0, 0.0)",-0.7767908182605228,-0.5589754952680457,-0.19667512031189313,"(0.0, 0.0, 0.0, 0.0, 0.0, 0.0)",1.1528707656883892,0.8142336194457143,-0.11479708760032208,"(0.0, 0.0, 0.0, 0.0, 0.0, 0.0)",0.5722348937696373,True,"(-0.026495757597993636, 0.18255195640856592, 0.05600071189642032)","(0.9945842410657634, 0.10393113923646441, 0.000711140387283058)",-0.0017134324539070497,8.800794124963012,True,"(0.034906851834677455, 0.1819590776876048, 0.023999288099653494)","(-0.994584241065763, -0.10393113923646692, -0.0007111403872818769)",0.00037436064511556607,0.0
47,Move,"(0.00039329999999999996, 0.0, 0.0339133)","(0.0, 0.060062015548880854, 0.0)","(0.005337050833158228, 0.16121388871400336, 0.04868836547456931)","(-0.0055981880169430915, 0.01150312230082586, 0.08011680937649222)","[-0.002026901357049358, 0.0016962814669172488, 0.0008192893292211442]","[-0.026750000193715096, 0.05299999937415123, 0.03999999910593033]","[0.0, -0.0, 0.4901030741524822]","[-0.06064161658287048, 0.11652447283267975, 0.03999999910593033]","[0.0, 0.0, -0.32015030012693385]","[0.026750000193715096, 0.05299999937415123, 0.03999999910593033]","[0.0, 0.0, -0.5597141387852987]","[0.0649779662489891, 0.11401329934597015, 0.03999999910593033]","[0.0, -0.0, 0.25407128487432395]",0.489336533101052,-0.1839829529001282,"(0.0, 0.0, 0.0, 0.0, 0.0, 0.0)",-1.5154778114013245,-0.809699827049024,0.13286196324062008,"(0.0, 0.0, 0.0, 0.0, 0.0, 0.0)",-0.7147277910271564,-0.5606390970423761,-0.22197863690073097,"(0.0, 0.0, 0.0, 0.0, 0.0, 0.0)",0.9879326594164552,0.8133583225882568,-0.10250786192460351,"(0.0, 0.0, 0.0, 0.0, 0.0, 0.0)",0.5064432709860861,True,"(-0.026410484717372867, 0.18259195675679618, 0.05600071189642032)","(0.9945842410657634, 0.10393113923646441, 0.000711140387283058)",-0.0015344992435169151,7.609011406965045,True,"(0.03517073486654729, 0.18197385700391555, 0.023999288099653494)","(-0.994584241065763, -0.10393113923646692, -0.0007111403872818769)",0.00038842044202289496,0.0
48,Move,"(0.00022, 0.0, 0.0356)","(0.0, 0.05323428751507906, 0.0)","(0.00561004673441069, 0.1611950955147784, 0.04869062341923764)","(-0.004250306058964144, 0.010001538893907147, 0.0794929798902768)","[-0.001753905455796896, 0.0016774882676922898, 0.0008215472738894725]","[-0.026750000193715096, 0.05299999937415123, 0.03999999910593033]","[0.0, -0.0, 0.48863015578167607]","[-0.06054801121354103, 0.11657432466745377, 0.03999999910593033]","[0.0, 0.0, -0.32074986517838616]","[0.026750000193715096, 0.05299999937415123, 0.03999999910593033]","[0.0, 0.0, -0.5614649616203939]","[0.06508472561836243, 0.11394628137350082, 0.03999999910593033]","[0.0, -0.0, 0.25157730911230125]",0.487949114406148,-0.1634574890931402,"(0.0, 0.0, 0.0, 0.0, 0.0, 0.0)",-0.8022416234957281,-0.8090188750302607,0.08669020507300576,"(0.0, 0.0, 0.0, 0.0, 0.0, 0.0)",-0.420928935713361,-0.5622985908911767,-0.20009358793249557,"(0.0, 0.0, 0.0, 0.0, 0.0, 0.0)",0.7408618996508884,0.8127207334534852,-0.07714911282666785,"(0.0, 0.0, 0.0, 0.0, 0.0, 0.0)",0.3685806716355647,True,"(-0.026275015757081174, 0.1825962808482482, 0.023989223896566193)","(0.9967606750408278, 0.07969974068438447, -0.010775343474587789)",-0.00175836863861223,6.226042343585478,True,"(0.035447072628914215, 0.1819809643341276, 0.023999288099653494)","(-0.994584241065763, -0.10393113923646692, -0.0007111403872818769)",0.00035691158512890086,0.0
49,Move,"(-0.00034, 0.0, 0.03704)","(0.0, 0.040383428232644805, 0.0)","(0.005840635240144157, 0.16118058641944952, 0.04864824380997584)","(-0.001936159148047345, 0.00821722828342124, 0.07909191267389609)","[-0.0015233169500634292, 0.0016629791723634102, 0.0007791676646276696]","[-0.026750000193715096, 0.05299999937415123, 0.03999999910593033]","[0.0, -0.0, 0.48733580027527135]","[-0.06046569347381592, 0.11661801487207413, 0.03999999910593033]","[0.0, 0.0, -0.32136231611559574]","[0.026750000193715096, 0.05299999937415123, 0.03999999910593033]","[0.0, 0.0, -0.563048577060852]","[0.0651811957359314, 0.11388549208641052, 0.03999999910593033]","[0.0, -0.0, 0.2493884785517983]",0.48680875192830947,-0.12649373795256125,"(0.0, 0.0, 0.0, 0.0, 0.0, 0.0)",-0.6015132689724288,-0.8084167241188852,0.06754129862099116,"(0.0, 0.0, 0.0, 0.0, 0.0, 0.0)",-0.3260599145205189,-0.5637320219211253,-0.16404135953658708,"(0.0, 0.0, 0.0, 0.0, 0.0, 0.0)",0.6005974161857559,0.8121844151095484,-0.060609037946860525,"(0.0, 0.0, 0.0, 0.0, 0.0, 0.0)",0.2879314320951911,True,"(-0.02615226189817925, 0.18261906816229712, 0.02399081101482339)","(0.9968175935697535, 0.07918498384896167, -0.009188225217391476)",-0.001579909392963846,4.828888548279656,True,"(0.03569253292422241, 0.18198488954567638, 0.023999288099653494)","(-0.994584241065763, -0.10393113923646692, -0.0007111403872818769)",0.00030276540582908245,0.0
50,Move,"(-0.0010600000000000002, 0.0, 0.038386699999999996)","(0.0, 0.030257027912573696, 0.0)","(0.006025570924300937, 0.1611747618266924, 0.04853413962277777)","(0.0016937488475678023, 0.005464692647966824, 0.07890756600789135)","[-0.0013383812659066487, 0.0016571545796063014, 0.0006650634774296033]","[-0.026750000193715096, 0.05299999937415123, 0.03999999910593033]","[0.0, -0.0, 0.4863326506988627]","[-0.060401856899261475, 0.11665181070566177, 0.03999999910593033]","[0.0, 0.0, -0.32185918514846146]","[0.026750000193715096, 0.05299999937415123, 0.03999999910593033]","[0.0, 0.0, -0.5643454666680714]","[0.06526012718677521, 0.11383560299873352, 0.03999999910593033]","[0.0, -0.0, 0.2476356759339785]",0.48598223982579364,-0.08409611123295342,"(0.0, 0.0, 0.0, 0.0, 0.0, 0.0)",-0.318569416648063,-0.8080361868602535,0.03735293658208735,"(0.0, 0.0, 0.0, 0.0, 0.0, 0.0)",-0.18438277219723095,-0.5648500764585227,-0.12111661867745871,"(0.0, 0.0, 0.0, 0.0, 0.0, 0.0)",0.3690492499580871,0.8118379847361031,-0.03434159368438563,"(0.0, 0.0, 0.0, 0.0, 0.0, 0.0)",0.16644366720620488,True,"(-0.026055634510315347, 0.18263598914835227, 0.02399295207315593)","(0.9968594592414578, 0.07887684045222318, -0.0070471668848508095)",-0.0014075775196722437,2.759156903070809,True,"(0.03589087232662347, 0.18198657931484935, 0.023999288099653494)","(-0.994584241065763, -0.10393113923646692, -0.0007111403872818769)",0.00023256354897137506,0.0
51,Move,"(-0.0009000000000000001, 0.0, 0.03972)","(0.0, 0.021755529126109317, 0.0)","(0.0061581631115571345, 0.16118705108494025, 0.04854946757420842)","(0.001408663996762489, 0.0033502504768228303, 0.07723624329138394)","[-0.0012057890786504512, 0.0016694438378541399, 0.0006803914288602553]","[-0.026750000193715096, 0.05299999937415123, 0.03999999910593033]","[0.0, -0.0, 0.4856679802698539]","[-0.060359541326761246, 0.11667416244745255, 0.03999999910593033]","[0.0, 0.0, -0.3222197795282649]","[0.026750000193715096, 0.05299999937415123, 0.03999999910593033]","[0.0, 0.0, -0.5653047591720416]","[0.06531846523284912, 0.11379863321781158, 0.03999999910593033]","[0.0, -0.0, 0.24638738891592904]",0.4852953261913226,-0.08943610809105265,"(0.0, 0.0, 0.0, 0.0, 0.0, 0.0)",-0.35244397176521985,-0.8077247040066009,0.039137415049724296,"(0.0, 0.0, 0.0, 0.0, 0.0, 0.0)",-0.17123254355133427,-0.5658404354058341,-0.12858437256022423,"(0.0, 0.0, 0.0, 0.0, 0.0, 0.0)",0.23856420156684666,0.8115377372864458,-0.037040814015411844,"(0.0, 0.0, 0.0, 0.0, 0.0, 0.0)",0.13780749592483338,True,"(-0.02598946365603392, 0.18264534111571168, 0.023995718466089156)","(0.9969514945005739, 0.07790630646775286, -0.0042807739516269455)",-0.00123680639432297,2.596050228941482,True,"(0.03603430265176694, 0.18198621764274373, 0.023999288099653494)","(-0.994584241065763, -0.10393113923646692, -0.0007111403872818769)",0.00014458958513087236,0.0
52,Move,"(-0.0008067, 0.0, 0.040853299999999995)","(0.0, 0.015554374293773467, 0.0)","(0.006306547591093405, 0.16118213086253527, 0.04858325046494812)","(0.0011462257456763846, 0.0023608188809257414, 0.07635682399795797)","[-0.0010574045991141806, 0.001664523615449165, 0.0007141743195999556]","[-0.026750000193715096, 0.05299999937415123, 0.03999999910593033]","[0.0, -0.0, 0.48496329421649076]","[-0.060314662754535675, 0.11669782549142838, 0.03999999910593033]","[0.0, 0.0, -0.3225658612978769]","[0.026750000193715096, 0.05299999937415123, 0.03999999910593033]","[0.0, 0.0, -0.5663261066209685]","[0.06538054347038269, 0.11375920474529266, 0.03999999910593033]","[0.0, -0.0, 0.24502740721790878]",0.4845961835616969,-0.08810741765680087,"(0.0, 0.0, 0.0, 0.0, 0.0, 0.0)",-0.4445625381309295,-0.807353709012836,0.04211061742896834,"(0.0, 0.0, 0.0, 0.0, 0.0, 0.0)",-0.22354659292755322,-0.5668662263763707,-0.1296382267751783,"(0.0, 0.0, 0.0, 0.0, 0.0, 0.0)",0.34379896378975405,0.811184339022149,-0.040599453434417995,"(0.0, 0.0, 0.0, 0.0, 0.0, 0.0)",0.1849487271728997,True,"(-0.025921687019732048, 0.18265627596936038, 0.02399715665580224)","(0.9970481255531892, 0.07672649506994625, -0.0028425842385421613)",-0.001097544015248595,3.361044392849515,True,"(0.036189142397988705, 0.18198655463599933, 0.023999288099653494)","(-0.994584241065763, -0.10393113923646692, -0.0007111403872818769)",9.957461975728092e-05,0.0
53,Move,"(-0.00012, 0.0, 0.041780000000000005)","(0.0, 0.011454595880838789, 0.0)","(0.006464759624108708, 0.1611746211209328, 0.04861212360672171)","(0.0009266943188596322, 0.001428370063040524, 0.07543101957313156)","[-0.0008991925660988779, 0.0016570138738467022, 0.0007430474613735402]","[-0.026750000193715096, 0.05299999937415123, 0.03999999910593033]","[0.0, -0.0, 0.4842660952919395]","[-0.060270242393016815, 0.11672121286392212, 0.03999999910593033]","[0.0, 0.0, -0.32292558345673533]","[0.026750000193715096, 0.05299999937415123, 0.03999999910593033]","[0.0, 0.0, -0.5673526131961335]","[0.06544289737939835, 0.11371951550245285, 0.03999999910593033]","[0.0, -0.0, 0.24367536332392117]",0.48376531801763273,-0.1201769681650331,"(0.0, 0.0, 0.0, 0.0, 0.0, 0.0)",-0.40074192796419655,-0.807042144516721,0.0358808871861884,"(0.0, 0.0, 0.0, 0.0, 0.0, 0.0)",-0.18250227210935696,-0.5680168517521602,-0.15942165851210158,"(0.0, 0.0, 0.0, 0.0, 0.0, 0.0)",0.2048896798744599,0.8108957087405434,-0.03173877370157228,"(0.0, 0.0, 0.0, 0.0, 0.0, 0.0)",0.13159921034105143,True,"(-0.025853502924862423, 0.18266680879748542, 0.02399807884452373)","(0.9971143791876433, 0.07588957041846224, -0.0019203955170524801)",-0.0009784768819775798,2.6406665479879767,True,"(0.03634376836313882, 0.1819862739671581, 0.023999288099653494)","(-0.994584241065763, -0.10393113923646692, -0.0007111403872818769)",7.193867158012153e-05,0.0
54,Move,"(0.0006866999999999999, 0.0, 0.042626700000000003)","(0.0, 0.010035643198967397, 0.0)","(0.006646160963046186, 0.16116539070847816, 0.04863461953041667)","(0.0007413791414184215, 0.00046347927105109534, 0.07431425773180987)","[-0.0007177912271613997, 0.0016477834613920495, 0.0007655433850685053]","[-0.026750000193715096, 0.05299999937415123, 0.03999999910593033]","[0.0, -0.0, 0.48331559233105925]","[-0.06020966172218323, 0.11675304919481277, 0.03999999910593033]","[0.0, 0.0, -0.3235848506252161]","[0.026750000193715096, 0.05299999937415123, 0.03999999910593033]","[0.0, 0.0, -0.568615268536907]","[0.0655195340514183, 0.11367060989141464, 0.03999999910593033]","[0.0, -0.0, 0.24214900350833846]",0.4826749913480985,-0.15373827542996119,"(0.0, 0.0, 0.0, 0.0, 0.0, 0.0)",-0.3338356610150855,-0.8067889838019027,0.026739946604709623,"(0.0, 0.0, 0.0, 0.0, 0.0, 0.0)",-0.14540346565981377,-0.5694082843547278,-0.19031314311239678,"(0.0, 0.0, 0.0, 0.0, 0.0, 0.0)",0.127980478870904,0.8106666328007961,-0.023440219193570477,"(0.0, 0.0, 0.0, 0.0, 0.0, 0.0)",0.09473610987348349,True,"(-0.025749430925449755, 0.1826756343110721, 0.023998970596575447)","(0.9971883293850217, 0.07492915074208989, -0.0010286434653343113)",-0.0008690595725865877,2.0588845149050523,True,"(0.036524643405502336, 0.1819817038856063, 0.023999288099653494)","(-0.994584241065763, -0.10393113923646692, -0.0007111403872818769)",4.500337631519886e-05,0.0
55,Move,"(0.0012533000000000002, 0.0, 0.043213299999999996)","(0.0, 0.007663740745507102, 0.0)","(0.0068387900271622585, 0.16116524599103024, 0.048666039157975724)","(0.0003013135697756199, -1.2783573065622494e-05, 0.0730156189303174)","[-0.0005251621630453273, 0.0016476387439441353, 0.0007969630126275565]","[-0.026750000193715096, 0.05299999937415123, 0.03999999910593033]","[0.0, -0.0, 0.48209888823570707]","[-0.06013207137584686, 0.11679370701313019, 0.03999999910593033]","[0.0, 0.0, -0.3245827015828614]","[0.026750000193715096, 0.05299999937415123, 0.03999999910593033]","[0.0, 0.0, -0.5701223892684829]","[0.06561093032360077, 0.1136121153831482, 0.03999999910593033]","[0.0, -0.0, 0.24045029148943883]",0.4813857495361186,-0.17115411506071793,"(0.0, 0.0, 0.0, 0.0, 0.0, 0.0)",-0.532113350031146,-0.8064820847236553,0.04787947129540305,"(0.0, 0.0, 0.0, 0.0, 0.0, 0.0)",-0.24432843820688177,-0.5709939572467632,-0.20917294127194458,"(0.0, 0.0, 0.0, 0.0, 0.0, 0.0)",0.2738635794437363,0.8104218877597403,-0.03618985601823935,"(0.0, 0.0, 0.0, 0.0, 0.0, 0.0)",0.15494351793229313,True,"(-0.02560606322257706, 0.18268172183399983, 0.02399953576078632)","(0.997239859005279, 0.07424586721233588, -0.0004634792544653479)",-0.0007661105152508801,3.5742507948997795,True,"(0.036732118085452466, 0.18197236119777238, 0.023999288099653494)","(-0.994584241065763, -0.10393113923646692, -0.0007111403872818769)",1.3581583913415931e-05,0.14941647618414125
56,Move,"(0.0006667, 0.0, 0.0439533)","(0.0, 0.0073129295658562405, 0.0)","(0.007017538436232196, 0.16117428130957118, 0.0487015814449638)","(-0.0005525993173187914, 1.672856192096557e-05, 0.07194956988627126)","[-0.0003464137539753902, 0.0016566740624850695, 0.0008325052996156351]","[-0.026750000193715096, 0.05299999937415123, 0.03999999910593033]","[0.0, -0.0, 0.48074233031577]","[-0.060045503079891205, 0.11683893203735352, 0.03999999910593033]","[0.0, 0.0, -0.3255827552947055]","[0.026750000193715096, 0.05299999937415123, 0.03999999910593033]","[0.0, 0.0, -0.5717801681814194]","[0.0657113566994667, 0.11354760825634003, 0.03999999910593033]","[0.0, -0.0, 0.23849288795056925]",0.4802129235189333,-0.12706695842926347,"(0.0, 0.0, 0.0, 0.0, 0.0, 0.0)",-0.387158818080954,-0.8061883966119299,0.03281332714487069,"(0.0, 0.0, 0.0, 0.0, 0.0, 0.0)",-0.19704951122287423,-0.5724743178306915,-0.16658663004541385,"(0.0, 0.0, 0.0, 0.0, 0.0, 0.0)",0.3172425428649875,0.8101616895945666,-0.026738898940084577,"(0.0, 0.0, 0.0, 0.0, 0.0, 0.0)",0.13935154457329693,True,"(-0.025453620322578578, 0.1826923856755201, 0.02399953576078632)","(0.997239859005279, 0.07424586721233588, -0.0004634792544653479)",-0.0006888587234155592,3.310788657232121,True,"(0.03696640988139865, 0.18196424998564273, 0.023999288099653494)","(-0.994584241065763, -0.10393113923646692, -0.0007111403872818769)",2.5285164525019825e-05,0.0
57,Move,"(0.0007467000000000001, 0.0, 0.04442)","(0.0, 0.00571246264177744, 0.0)","(0.007184786480116839, 0.161171113808804, 0.04874244305727517)","(-0.0007088529776600196, 0.00012371465679347876, 0.07114395048368298)","[-0.00017916571009074685, 0.0016535065617178935, 0.0008733669119269996]","[-0.026750000193715096, 0.05299999937415123, 0.03999999910593033]","[0.0, -0.0, 0.47973518021763184]","[-0.05998118594288826, 0.11687243729829788, 0.03999999910593033]","[0.0, 0.0, -0.32634215577566256]","[0.026750000193715096, 0.05299999937415123, 0.03999999910593033]","[0.0, 0.0, -0.5730984029558311]","[0.06579113751649857, 0.11349619179964066, 0.03999999910593033]","[0.0, -0.0, 0.23697227829833103]",0.479200076880682,-0.12842439096077127,"(0.0, 0.0, 0.0, 0.0, 0.0, 0.0)",-0.33740299438806,-0.8059789557951942,0.023608686059630964,"(0.0, 0.0, 0.0, 0.0, 0.0, 0.0)",-0.15291094470080296,-0.573794634008834,-0.1670906837191491,"(0.0, 0.0, 0.0, 0.0, 0.0, 0.0)",0.16083583109284819,0.8099931102463771,-0.018622284085931088,"(0.0, 0.0, 0.0, 0.0, 0.0, 0.0)",0.08719633172562205,True,"(-0.025339269531619718, 0.1826990876327098, 0.023999920154709455)","(0.9974398031630156, 0.07151106775622325, -7.908533133139072e-05)",-0.0006257266287775472,2.4388576191106623,True,"(0.037150259362837265, 0.18195646878005534, 0.023999288099653494)","(-0.994584241065763, -0.10393113923646692, -0.0007111403872818769)",3.5592095941485504e-05,0.0
58,Move,"(0.0008267, 0.0, 0.04488)","(0.0, 0.007908086840786309, 0.0)","(0.007347006519868755, 0.1611670470233909, 0.048777992051473096)","(-0.0008424839070348621, 0.00021060908063413205, 0.07036757209284818)","[-1.6945670338830432e-05, 0.0016494397763048008, 0.0009089159061249283]","[-0.026750000193715096, 0.05299999937415123, 0.03999999910593033]","[0.0, -0.0, 0.4787191522387462]","[-0.05991627648472786, 0.11690616607666016, 0.03999999910593033]","[0.0, 0.0, -0.3271627891138346]","[0.026750000193715096, 0.05299999937415123, 0.03999999910593033]","[0.0, 0.0, -0.5744217948196692]","[0.06587115675210953, 0.11344447731971741, 0.03999999910593033]","[0.0, -0.0, 0.23549431966539014]",0.47820555268045595,-0.12326856321848034,"(0.0, 0.0, 0.0, 0.0, 0.0, 0.0)",-0.29883379086249157,-0.8057920225504713,0.021582933790266885,"(0.0, 0.0, 0.0, 0.0, 0.0, 0.0)",-0.1406517401542347,-0.5750956699513248,-0.16173973805184794,"(0.0, 0.0, 0.0, 0.0, 0.0, 0.0)",0.1471370751758895,0.8098476687387485,-0.016412520087146405,"(0.0, 0.0, 0.0, 0.0, 0.0, 0.0)",0.076678505262128,True,"(-0.02522035092800596, 0.18270438429235814, 0.023999826822156088)","(0.9974969363469527, 0.07070949194073199, -0.00017241788469751386)",-0.0005614146096518171,2.1936077738797164,True,"(0.03733149586682657, 0.1819470073236118, 0.023999288099653494)","(-0.994584241065763, -0.10393113923646692, -0.0007111403872818769)",3.74037993404557e-05,0.0
59,Move,"(0.0010532999999999999, 0.0, 0.0451667)","(0.0, 0.007490953149559664, 0.0)","(0.007506472992460922, 0.1611619132983794, 0.0488086684057874)","(-0.0009392669093173485, 0.0002855680251257813, 0.06958434683721318)","[0.00014252080225333596, 0.0016443060512932872, 0.0009395922604392357]","[-0.026750000193715096, 0.05299999937415123, 0.03999999910593033]","[0.0, -0.0, 0.4777435986708701]","[-0.05985391512513161, 0.11693849414587021, 0.03999999910593033]","[0.0, 0.0, -0.32796339309294775]","[0.026750000193715096, 0.05299999937415123, 0.03999999910593033]","[0.0, 0.0, -0.5757023541285312]","[0.06594853848218918, 0.11339432746171951, 0.03999999910593033]","[0.0, -0.0, 0.23408069062930328]",0.4772085804258112,-0.1284026957450721,"(0.0, 0.0, 0.0, 0.0, 0.0, 0.0)",-0.2724347527264996,-0.8056327028543987,0.01781655474811768,"(0.0, 0.0, 0.0, 0.0, 0.0, 0.0)",-0.1256073884775469,-0.5763944249954914,-0.16608560860514981,"(0.0, 0.0, 0.0, 0.0, 0.0, 0.0)",0.09866531862231856,0.8097289414778266,-0.012992309893498434,"(0.0, 0.0, 0.0, 0.0, 0.0, 0.0)",0.058229880735076275,True,"(-0.02510532816016129, 0.18270896027670386, 0.023999748690862844)","(0.9975498747741192, 0.06995844883392252, -0.0002505491779398214)",-0.0005025365239958398,1.87904030128282,True,"(0.03750573721799573, 0.18193713329985792, 0.023999288099653494)","(-0.994584241065763, -0.10393113923646692, -0.0007111403872818769)",4.126415576240078e-05,0.0
60,Move,"(0.00142, 0.0, 0.04556)","(0.0, 0.006801548095021902, 0.0)","(0.007670885100075878, 0.16115398724390578, 0.04883436861548951)","(-0.0009390969641680166, 0.00035395991945857497, 0.06870705644709758)","[0.00030693290986829203, 0.0016363799968196757, 0.0009652924701413421]","[-0.026750000193715096, 0.05299999937415123, 0.03999999910593033]","[0.0, -0.0, 0.4767272747568059]","[-0.059788912534713745, 0.11697210371494293, 0.03999999910593033]","[0.0, 0.0, -0.3288360578257998]","[0.026750000193715096, 0.05299999937415123, 0.03999999910593033]","[0.0, 0.0, -0.5770173929123813]","[0.0660279169678688, 0.11334273219108582, 0.03999999910593033]","[0.0, -0.0, 0.23265944008812875]",0.4761421171827255,-0.14043424647735012,"(0.0, 0.0, 0.0, 0.0, 0.0, 0.0)",-0.24156998897198406,-0.8055026230636664,0.014563423620807087,"(0.0, 0.0, 0.0, 0.0, 0.0, 0.0)",-0.10806476259032637,-0.577754936997972,-0.17700948930085542,"(0.0, 0.0, 0.0, 0.0, 0.0, 0.0)",0.05550242590701839,0.8096361510605775,-0.009759291296214246,"(0.0, 0.0, 0.0, 0.0, 0.0, 0.0)",0.04121684745560851,True,"(-0.024982947646076392, 0.1827122757685881, 0.02399967421081555)","(0.997606784974266, 0.06914186090431142, -0.00032502922523466345)",-0.0004479748724224137,1.570028254838949,True,"(0.03768256724037361, 0.1819258904764083, 0.023999288099653494)","(-0.994584241065763, -0.10393113923646692, -0.0007111403872818769)",4.5087661847910736e-05,0.0
61,Move,"(0.0019533000000000003, 0.0, 0.045899999999999996)","(0.0, 0.008901179185171082, 0.0)","(0.007845683069778045, 0.16114257797292217, 0.04885629564127023)","(-0.0008809230077984853, 0.0004079912473654369, 0.06768962297425249)","[0.00048173087957045953, 0.0016249707258360613, 0.0009872194959220648]","[-0.026750000193715096, 0.05299999937415123, 0.03999999910593033]","[0.0, -0.0, 0.4756158239239785]","[-0.05971779301762581, 0.11700878292322159, 0.03999999910593033]","[0.0, 0.0, -0.3298270153171253]","[0.026750000193715096, 0.05299999937415123, 0.03999999910593033]","[0.0, 0.0, -0.5784189557170973]","[0.0661124587059021, 0.11328762024641037, 0.03999999910593033]","[0.0, -0.0, 0.23117696398100407]",0.47495179907342233,-0.15936905455236594,"(0.0, 0.0, 0.0, 0.0, 0.0, 0.0)",-0.22263458423883545,-0.8053959839302933,0.011233273011452063,"(0.0, 0.0, 0.0, 0.0, 0.0, 0.0)",-0.09504236064861307,-0.5792285976783608,-0.19430484766651707,"(0.0, 0.0, 0.0, 0.0, 0.0, 0.0)",0.020487023691245866,0.8095653405596557,-0.007348087418922956,"(0.0, 0.0, 0.0, 0.0, 0.0, 0.0)",0.028776871847133435,True,"(-0.024846706689619462, 0.18271450592181235, 0.023999613319855354)","(0.9976699168436716, 0.06822454170422779, -0.0003859201854304341)",-0.00039655928824202025,1.3419981399704337,True,"(0.037868807284328274, 0.18191272472203893, 0.023999288099653494)","(-0.994584241065763, -0.10393113923646692, -0.0007111403872818769)",4.821756400536271e-05,0.0
62,Move,"(0.0015667, 0.0, 0.0463467)","(0.0, 0.01077566280181299, 0.0)","(0.008010620491377443, 0.16113234713757157, 0.04887564710260573)","(-0.0008075626639942975, 0.0004539618180409965, 0.06669529466504355)","[0.0006466683011698577, 0.001614739890485467, 0.0010065709572575632]","[-0.026750000193715096, 0.05299999937415123, 0.03999999910593033]","[0.0, -0.0, 0.47435442164024866]","[-0.059637024998664856, 0.11705031991004944, 0.03999999910593033]","[0.0, 0.0, -0.3309950396337845]","[0.026750000193715096, 0.05299999937415123, 0.03999999910593033]","[0.0, 0.0, -0.5799574781306595]","[0.06620515882968903, 0.1132269874215126, 0.03999999910593033]","[0.0, -0.0, 0.22957752832200193]",0.47382742407331707,-0.12648029259712154,"(0.0, 0.0, 0.0, 0.0, 0.0, 0.0)",-0.10023681818673218,-0.8053183632542308,0.0074695639721277405,"(0.0, 0.0, 0.0, 0.0, 0.0, 0.0)",-0.0639339056318823,-0.5806343816300542,-0.16246367546323354,"(0.0, 0.0, 0.0, 0.0, 0.0, 0.0)",0.06391700220478039,0.8095147640041923,-0.004849933438873057,"(0.0, 0.0, 0.0, 0.0, 0.0, 0.0)",0.02241560900388402,True,"(-0.02468921557090383, 0.18271532394059276, 0.023999566297568865)","(0.9977448063131108, 0.06712014627538387, -0.00043294247192048914)",-0.00034904148365626165,0.9545556430874997,True,"(0.03807130837433914, 0.18189718226593948, 0.023999288099653494)","(-0.994584241065763, -0.10393113923646692, -0.0007111403872818769)",5.1463251017852e-05,0.0
63,Move,"(0.0010333000000000002, 0.0, 0.04666)","(0.0, 0.01077566280181299, 0.0)","(0.008144881165270203, 0.16112660539422832, 0.048893284531954385)","(-0.0007337938235683057, 0.000492288848514776, 0.0659067913384254)","[0.0007809289750626176, 0.0016089981471422155, 0.001024208386606218]","[-0.026750000193715096, 0.05299999937415123, 0.03999999910593033]","[0.0, -0.0, 0.47335338060730087]","[-0.05957288667559624, 0.11708321422338486, 0.03999999910593033]","[0.0, 0.0, -0.3319340530264899]","[0.026750000193715096, 0.05299999937415123, 0.03999999910593033]","[0.0, 0.0, -0.5812437485839521]","[0.06628260016441345, 0.11317618936300278, 0.03999999910593033]","[0.0, -0.0, 0.2282508538352472]",0.4729680756483658,-0.09245686485213905,"(0.0, 0.0, 0.0, 0.0, 0.0, 0.0)",-0.05629049480248678,-0.8052743279082911,0.0031241030774339157,"(0.0, 0.0, 0.0, 0.0, 0.0, 0.0)",-0.04347130019115085,-0.581784513780224,-0.1297793035869742,"(0.0, 0.0, 0.0, 0.0, 0.0, 0.0)",0.04194031947259919,0.8094860903093197,-0.002045775306749154,"(0.0, 0.0, 0.0, 0.0, 0.0, 0.0)",0.01033427354614882,True,"(-0.024563438234850035, 0.18271541432198155, 0.023999521830976495)","(0.9978045305220693, 0.06622605944957158, -0.00047740906428851444)",-0.00030466103590841097,0.6702236709070912,True,"(0.0382398744546833, 0.18188364463625314, 0.023999288099653494)","(-0.994584241065763, -0.10393113923646692, -0.0007111403872818769)",5.435947643308702e-05,0.0
64,Move,"(0.0004267, 0.0, 0.0470533)","(0.0, 0.012482594810263448, 0.0)","(0.008243454388314971, 0.16112452427230983, 0.048908053380583134)","(-0.0006718833241754862, 0.0004444778733379024, 0.06530221657850468)","[0.0008795021981073854, 0.0016069170252237253, 0.0010389772352349669]","[-0.026750000193715096, 0.05299999937415123, 0.03999999910593033]","[0.0, -0.0, 0.4726215216886891]","[-0.0595259815454483, 0.11710721254348755, 0.03999999910593033]","[0.0, 0.0, -0.33263871481397533]","[0.026750000193715096, 0.05299999937415123, 0.03999999910593033]","[0.0, 0.0, -0.5822712479021935]","[0.06634441018104553, 0.11313553154468536, 0.03999999910593033]","[0.0, -0.0, 0.22720553998020648]",0.47239179563461287,-0.055133310754948546,"(0.0, 0.0, 0.0, 0.0, 0.0, 0.0)",-0.014280508835685041,-0.8052592495872659,0.000237059096427664,"(0.0, 0.0, 0.0, 0.0, 0.0, 0.0)",-0.02598446011206006,-0.5826636778800581,-0.09416981684263348,"(0.0, 0.0, 0.0, 0.0, 0.0, 0.0)",0.03305452388750223,0.8094777390833294,0.00022269935974250643,"(0.0, 0.0, 0.0, 0.0, 0.0, 0.0)",0.002536660499179255,True,"(-0.024470292861096088, 0.18271473939228017, 0.023999490649562766)","(0.9978503045912872, 0.06553251836150797, -0.0005085904780191685)",-0.0002628944344068179,0.4150285613739369,True,"(0.03837352480389206, 0.18187226831019163, 0.023999288099653494)","(-0.994584241065763, -0.10393113923646692, -0.0007111403872818769)",5.642366931011637e-05,0.0
65,Move,"(0.0004267, 0.0, 0.0472867)","(0.0, 0.014805628044667897, 0.0)","(0.008322043436136692, 0.16112056230783903, 0.04892011807983524)","(-0.0005670220465887139, 0.0003836492415978848, 0.06482428740594581)","[0.0009580912459291064, 0.0016029550607529197, 0.0010510419344870736]","[-0.026750000193715096, 0.05299999937415123, 0.03999999910593033]","[0.0, -0.0, 0.4721849840316439]","[-0.059498000890016556, 0.11712151020765305, 0.03999999910593033]","[0.0, 0.0, -0.3330732984746494]","[0.026750000193715096, 0.05299999937415123, 0.03999999910593033]","[0.0, 0.0, -0.5830168663825752]","[0.06638923287391663, 0.11310599744319916, 0.03999999910593033]","[0.0, -0.0, 0.22646175487835396]",0.4719643274168135,-0.05297454091377256,"(0.0, 0.0, 0.0, 0.0, 0.0, 0.0)",-0.07747793487282088,-0.8052585757909848,-5.3003892588934765e-05,"(0.0, 0.0, 0.0, 0.0, 0.0, 0.0)",-0.03709533108487029,-0.5834008974280109,-0.09217985635030955,"(0.0, 0.0, 0.0, 0.0, 0.0, 0.0)",-0.010826071398536072,0.8094784906936686,-2.004294237778481e-05,"(0.0, 0.0, 0.0, 0.0, 0.0, 0.0)",-0.0007954346012351226,True,"(-0.02441379432061027, 0.18271369869798476, 0.023999615016222466)","(0.9978852230391039, 0.0649994923999819, -0.00038422381831789093)",-0.0002238750291120914,0.569569681706618,True,"(0.038469476042893386, 0.1818635178086216, 0.023999288099653494)","(-0.994584241065763, -0.10393113923646692, -0.0007111403872818769)",5.9477488375887115e-05,0.0
66,Move,"(0.0006267, 0.0, 0.04754)","(0.0, 0.015081390066483001, 0.0)","(0.008400349805169289, 0.1611128820890461, 0.04893083384885112)","(-0.00042013469979493225, 0.000386052748060547, 0.06437507902806215)","[0.0010363976149617028, 0.0015952748419599816, 0.0010617577035029538]","[-0.026750000193715096, 0.05299999937415123, 0.03999999910593033]","[0.0, -0.0, 0.47176562076376444]","[-0.05947110429406166, 0.11713524162769318, 0.03999999910593033]","[0.0, 0.0, -0.3334930366885251]","[0.026750000193715096, 0.05299999937415123, 0.03999999910593033]","[0.0, 0.0, -0.5837465794100403]","[0.06643308699131012, 0.1130770593881607, 0.03999999910593033]","[0.0, -0.0, 0.22573188055843169]",0.4715156191308209,-0.06000624367082438,"(0.0, 0.0, 0.0, 0.0, 0.0, 0.0)",-0.0911371141688481,-0.805258780539745,-2.5552130080923865e-05,"(0.0, 0.0, 0.0, 0.0, 0.0, 0.0)",-0.038709611129830485,-0.5841585525800228,-0.09887536576758116,"(0.0, 0.0, 0.0, 0.0, 0.0, 0.0)",-0.02312108990806377,0.8094784230487381,1.8038648148532843e-06,"(0.0, 0.0, 0.0, 0.0, 0.0, 0.0)",-0.001651395392343359,True,"(-0.024359370418961364, 0.18271269594335582, 0.023999614768185337)","(0.9979124375067661, 0.06458033176360307, -0.0003844718554479614)",-0.00019106779285361415,0.5722658772953834,True,"(0.03856352290661793, 0.1818549355467138, 0.023999288099653494)","(-0.994584241065763, -0.10393113923646692, -0.0007111403872818769)",6.818832504315993e-05,0.0
67,Move,"(0.0007133, 0.0, 0.0477133)","(0.0, 0.01567829267066506, 0.0)","(0.0084767758330754, 0.16110462584666413, 0.04893992281100613)","(-0.00029351545126247096, 0.00038867565874871823, 0.0639004782267098)","[0.0011128236428678134, 0.0015870185995780217, 0.0010708466656579596]","[-0.026750000193715096, 0.05299999937415123, 0.03999999910593033]","[0.0, -0.0, 0.471290538301747]","[-0.05944063141942024, 0.11715078353881836, 0.03999999910593033]","[0.0, 0.0, -0.33396824693883215]","[0.026750000193715096, 0.05299999937415123, 0.03999999910593033]","[0.0, 0.0, -0.5845293184239734]","[0.06648010015487671, 0.11304597556591034, 0.03999999910593033]","[0.0, -0.0, 0.2249490657038754]",0.47104142716669095,-0.059795421675878174,"(0.0, 0.0, 0.0, 0.0, 0.0, 0.0)",-0.07934223452015861,-0.8052588147118686,-4.548012395463685e-06,"(0.0, 0.0, 0.0, 0.0, 0.0, 0.0)",-0.037173911094863205,-0.5849396725563607,-0.09848096513028272,"(0.0, 0.0, 0.0, 0.0, 0.0, 0.0)",-0.013803959232061522,0.8094784291367818,-1.623478338430573e-07,"(0.0, 0.0, 0.0, 0.0, 0.0, 0.0)",-0.0009872969114133297,True,"(-0.024297740031945063, 0.1827115409808277, 0.023999611810926014)","(0.9979430330304458, 0.06410579322241625, -0.0003874291147711623)",-0.0001632933652370544,0.5517140553501736,True,"(0.038664381210794393, 0.18184564848221935, 0.023999288099653494)","(-0.994584241065763, -0.10393113923646692, -0.0007111403872818769)",8.190244608185855e-05,0.0
68,Move,"(0.0008867, 0.0, 0.04786)","(0.0, 0.01627519527484713, 0.0)","(0.008551608498945781, 0.16109593135331898, 0.048947594932356064)","(-0.0001870473435701875, 0.00039185899067452747, 0.0634042828357249)","[0.0011876563087381952, 0.0015783241062328757, 0.0010785187870078969]","[-0.026750000193715096, 0.05299999937415123, 0.03999999910593033]","[0.0, -0.0, 0.4708172189112967]","[-0.05941025912761688, 0.11716625094413757, 0.03999999910593033]","[0.0, 0.0, -0.3344416836632937]","[0.026750000193715096, 0.05299999937415123, 0.03999999910593033]","[0.0, 0.0, -0.5853089065819916]","[0.06652689725160599, 0.11301498115062714, 0.03999999910593033]","[0.0, -0.0, 0.22416944202344913]",0.47054520623346024,-0.06527664050447907,"(0.0, 0.0, 0.0, 0.0, 0.0, 0.0)",-0.0892201550429851,-0.8052587981799204,1.0670161012467842e-05,"(0.0, 0.0, 0.0, 0.0, 0.0, 0.0)",-0.039163341853628235,-0.585740115733277,-0.10347349384264692,"(0.0, 0.0, 0.0, 0.0, 0.0, 0.0)",-0.021566992745044294,0.8094784285888579,1.461130416657852e-08,"(0.0, 0.0, 0.0, 0.0, 0.0, 0.0)",-0.0015421837930665247,True,"(-0.024236334039831588, 0.1827103636048965, 0.02399960889953141)","(0.9979732910821424, 0.0636329939651147, -0.0003903405093734392)",-0.00013975826021961406,0.5611549906982541,True,"(0.03876483101492352, 0.1818363204202999, 0.023999288099653494)","(-0.994584241065763, -0.10393113923646692, -0.0007111403872818769)",9.967388713579112e-05,0.0
69,Move,"(0.0010467, 0.0, 0.0480333)","(0.0, 0.016592845198710092, 0.0)","(0.008627291211074998, 0.16108633495213115, 0.04895408518093558)","(-9.597313979964535e-05, 0.00039575795519398093, 0.06286971078079757)","[0.0012633390208674124, 0.0015687277050450421, 0.0010850090355874129]","[-0.026750000193715096, 0.05299999937415123, 0.03999999910593033]","[0.0, -0.0, 0.4703003840431242]","[-0.059377096593379974, 0.11718311905860901, 0.03999999910593033]","[0.0, 0.0, -0.33495842266291426]","[0.026750000193715096, 0.05299999937415123, 0.03999999910593033]","[0.0, 0.0, -0.5861281845768217]","[0.0665760487318039, 0.112982377409935, 0.03999999910593033]","[0.0, -0.0, 0.22335027430574722]",0.47001025616247016,-0.06963505833250144,"(0.0, 0.0, 0.0, 0.0, 0.0, 0.0)",-0.08777089866257148,-0.8052587144704167,2.1083011587145703e-05,"(0.0, 0.0, 0.0, 0.0, 0.0, 0.0)",-0.039205623961980796,-0.5865756662257193,-0.10740597372778993,"(0.0, 0.0, 0.0, 0.0, 0.0, 0.0)",-0.02075399183203462,0.809478428638171,-1.315017428282772e-09,"(0.0, 0.0, 0.0, 0.0, 0.0, 0.0)",-0.0014840804166013012,True,"(-0.024169304013453546, 0.18270904881990926, 0.023999605196334307)","(0.9980060289890285, 0.06311743682302058, -0.0003940437064764378)",-0.00011986514075816396,0.5538463409618315,True,"(0.038870365188969455, 0.18182643506061402, 0.023999288099653494)","(-0.994584241065763, -0.10393113923646692, -0.0007111403872818769)",0.00012082702027117714,0.0
70,Move,"(0.0010733, 0.0, 0.0481933)","(0.0, 0.014535102010608775, 0.0)","(0.008675075457926265, 0.16109039763431326, 0.04891026037436535)","(0.001058265006203203, -0.00014733330709965393, 0.061455248279990445)","[0.0013111232677186797, 0.0015727903872271576, 0.0010411842290171808]","[-0.026750000193715096, 0.05299999937415123, 0.03999999910593033]","[0.0, -0.0, 0.46974899646939233]","[-0.05934169888496399, 0.11720109730958939, 0.03999999910593033]","[0.0, 0.0, -0.33551011433816597]","[0.026750000193715096, 0.05299999937415123, 0.03999999910593033]","[0.0, 0.0, -0.5869784521326726]","[0.06662704050540924, 0.11294849216938019, 0.03999999910593033]","[0.0, -0.0, 0.2224999879425128]",0.4694665690957696,-0.06778411993071372,"(0.0, 0.0, 0.0, 0.0, 0.0, 0.0)",-0.0504001045151207,-0.805259778172287,-0.0001590957421118675,"(0.0, 0.0, 0.0, 0.0, 0.0, 0.0)",-0.022933943734895147,-0.5874187787692804,-0.1056816340996285,"(0.0, 0.0, 0.0, 0.0, 0.0, 0.0)",-0.013113384565422747,0.8094784286337329,1.183506626034614e-10,"(0.0, 0.0, 0.0, 0.0, 0.0, 0.0)",-0.0009377665773451051,True,"(-0.024097752342975676, 0.18270743481403803, 0.023999771128944372)","(0.99805078543502, 0.062406551401816085, -0.00022811109641329876)",-0.00010031307036751384,0.0,True,"(0.03897990156381319, 0.18181608257733856, 0.023999288099653494)","(-0.994584241065763, -0.10393113923646692, -0.0007111403872818769)",0.00014292291853611018,0.0
