OSUrobotics/InHand-Manipulation/AnalyseData/Data/Trial Data/Even Better/new_hand_human_sub1_2v2_b_n_1_kpNone_kdNone_dp2_step1_save_data.csv
,Phase,human_cube_pos,human_cube_orn,Cube_Pos,Cube_Orn,Cube_pos_in_start_pos,b'l_prox_pin'_link_pos,b'l_prox_pin'_link_orn,b'l_distal_pin'_link_pos,b'l_distal_pin'_link_orn,b'r_prox_pin'_link_pos,b'r_prox_pin'_link_orn,b'r_distal_pin'_link_pos,b'r_distal_pin'_link_orn,b'l_prox_pin'_joint_angle,b'l_prox_pin'_joint_vel,b'l_prox_pin'_joint_react_forces,b'l_prox_pin'_joint_motor_torque,b'l_distal_pin'_joint_angle,b'l_distal_pin'_joint_vel,b'l_distal_pin'_joint_react_forces,b'l_distal_pin'_joint_motor_torque,b'r_prox_pin'_joint_angle,b'r_prox_pin'_joint_vel,b'r_prox_pin'_joint_react_forces,b'r_prox_pin'_joint_motor_torque,b'r_distal_pin'_joint_angle,b'r_distal_pin'_joint_vel,b'r_distal_pin'_joint_react_forces,b'r_distal_pin'_joint_motor_torque,in_contact_l,contact_point_l_dist,contact_normal_l_dist,contact_distance_l_dist,contact_norm_force_l_dist,in_contact_r,contact_point_r_dist,contact_normal_r_dist,contact_distance_r_dist,contact_norm_force_r_dist
0,Open,,,,,,"[-0.026750000193715096, 0.05299999937415123, 0.03999999910593033]","[0.0, -0.0, 0.0]","[-0.026750000193715096, 0.125, 0.03999999910593033]","[0.0, -0.0, 0.0]","[0.026750000193715096, 0.05299999937415123, 0.03999999910593033]","[0.0, -0.0, 0.0]","[0.026750000193715096, 0.125, 0.03999999910593033]","[0.0, -0.0, 0.0]",0.0,0.0,"(0.0, 0.0, 0.0, 0.0, 0.0, 0.0)",1.3400621000080305e-17,5.883223478113402e-32,1.4119736347472167e-29,"(0.0, 0.0, 0.0, 0.0, 0.0, 0.0)",1.0542555313129702e-18,-0.008068665190486622,-1.9364796457167894,"(0.0, 0.0, 0.0, 0.0, 0.0, 0.0)",193.26378306879909,-0.0700246186727924,-16.805908481470176,"(0.0, 0.0, 0.0, 0.0, 0.0, 0.0)",71.94009191575694,False,,,,,False,,,,
1,Open,,,,,,"[-0.026750000193715096, 0.05299999937415123, 0.03999999910593033]","[0.0, -0.0, 0.0]","[-0.026750000193715096, 0.125, 0.03999999910593033]","[0.0, -0.0, 5.883223447970011e-32]","[0.026750000193715096, 0.05299999937415123, 0.03999999910593033]","[0.0, 0.0, -0.008068665592501188]","[0.02733093686401844, 0.12499765306711197, 0.03999999910593033]","[0.0, 0.0, -0.0780932845685428]",0.157,37.68,"(0.0, 0.0, 0.0, 0.0, 0.0, 0.0)",54.702693795169004,5.294901130302062e-32,-1.4119736347472162e-30,"(0.0, 0.0, 0.0, 0.0, 0.0, 0.0)",3.9113724975844915,-0.1670280316324969,-38.150247946082466,"(0.0, 0.0, 0.0, 0.0, 0.0, 0.0)",-25.93345404555236,-0.0659493391739072,0.9780670797324476,"(0.0, 0.0, 0.0, 0.0, 0.0, 0.0)",-6.754749483880455,False,,,,,False,,,,
2,Open,,,,,,"[-0.026750000193715096, 0.05299999937415123, 0.03999999910593033]","[0.0, -0.0, 0.1569999988554567]","[-0.03800761699676514, 0.12411445379257202, 0.03999999910593033]","[0.0, -0.0, 0.1569999988554567]","[0.026750000193715096, 0.05299999937415123, 0.03999999910593033]","[0.0, 0.0, -0.16702801712980753]","[0.038720179349184036, 0.1239979937672615, 0.03999999910593033]","[0.0, 0.0, -0.23297739431320727]",0.29829999999999995,33.91199999999999,"(0.0, 0.0, 0.0, 0.0, 0.0, 0.0)",-5.390828189440958,5.294901130302062e-32,0.0,"(0.0, 0.0, 0.0, 0.0, 0.0, 0.0)",-0.3659219356209609,-0.3122944613104081,-34.863943122698686,"(0.0, 0.0, 0.0, 0.0, 0.0, 0.0)",95.8006544774165,-0.06705867534034729,-0.2662406799456205,"(0.0, 0.0, 0.0, 0.0, 0.0, 0.0)",9.049911776264722,False,,,,,False,,,,
3,Open,,,,,,"[-0.026750000193715096, 0.05299999937415123, 0.03999999910593033]","[0.0, -0.0, 0.29830000998707634]","[-0.04791048914194107, 0.12182030081748962, 0.03999999910593033]","[0.0, -0.0, 0.29830000998707634]","[0.026750000193715096, 0.05299999937415123, 0.03999999910593033]","[0.0, 0.0, -0.3122944642903269]","[0.048871491104364395, 0.12151744216680527, 0.03999999910593033]","[0.0, 0.0, -0.3793531994353912]",0.42546999999999996,30.5208,"(0.0, 0.0, 0.0, 0.0, 0.0, 0.0)",-4.858074537215091,5.294901130302062e-32,0.0,"(0.0, 0.0, 0.0, 0.0, 0.0, 0.0)",-0.33154044974508506,-0.44292449566296654,-31.35120824461403,"(0.0, 0.0, 0.0, 0.0, 0.0, 0.0)",100.88457241511576,-0.08373770380977785,-4.0029668326633345,"(0.0, 0.0, 0.0, 0.0, 0.0, 0.0)",24.077304806401806,False,,,,,False,,,,
4,Open,,,,,,"[-0.026750000193715096, 0.05299999937415123, 0.03999999910593033]","[0.0, -0.0, 0.4254700097131474]","[-0.056467924267053604, 0.11858082562685013, 0.03999999910593033]","[0.0, -0.0, 0.4254700097131474]","[0.026750000193715096, 0.05299999937415123, 0.03999999910593033]","[0.0, 0.0, -0.4429245237535421]","[0.057608019560575485, 0.1180521547794342, 0.03999999910593033]","[0.0, 0.0, -0.5266622746639338]",0.5399229999999999,27.46872,"(0.0, 0.0, 0.0, 0.0, 0.0, 0.0)",-4.377393708535371,5.294901130302062e-32,0.0,"(0.0, 0.0, 0.0, 0.0, 0.0, 0.0)",-0.30017707799641646,-0.5623038734984663,-28.651050680519948,"(0.0, 0.0, 0.0, 0.0, 0.0, 0.0)",144.45470973647488,-0.10456727132876567,-4.999096204557077,"(0.0, 0.0, 0.0, 0.0, 0.0, 0.0)",33.97911746732963,False,,,,,False,,,,
5,Open,,,,,,"[-0.026750000193715096, 0.05299999937415123, 0.03999999910593033]","[0.0, -0.0, 0.5399230359738098]","[-0.06376303732395172, 0.11475787311792374, 0.03999999910593033]","[0.0, -0.0, 0.5399230359738098]","[0.026750000193715096, 0.05299999937415123, 0.03999999910593033]","[0.0, 0.0, -0.5623038790270362]","[0.06513584405183792, 0.11391409486532211, 0.03999999910593033]","[0.0, 0.0, -0.6668711870723439]",0.6429307,24.721848,"(0.0, 0.0, 0.0, 0.0, 0.0, 0.0)",-3.943806903965684,5.294901130302062e-32,0.0,"(0.0, 0.0, 0.0, 0.0, 0.0, 0.0)",-0.2716098155097054,-0.6673401099248648,-25.208696742335626,"(0.0, 0.0, 0.0, 0.0, 0.0, 0.0)",94.97739775913854,-0.11755295807544866,-3.116564819203918,"(0.0, 0.0, 0.0, 0.0, 0.0, 0.0)",25.79194570087013,False,,,,,False,,,,
6,Open,,,,,,"[-0.026750000193715096, 0.05299999937415123, 0.03999999910593033]","[0.0, -0.0, 0.6429307111289271]","[-0.06991713494062424, 0.11062463372945786, 0.03999999910593033]","[0.0, -0.0, 0.6429307111289271]","[0.026750000193715096, 0.05299999937415123, 0.03999999910593033]","[0.0, 0.0, -0.6673401753977319]","[0.07131072133779526, 0.10955388844013214, 0.03999999910593033]","[0.0, 0.0, -0.7848931559948581]",0.73563763,22.249663200000004,"(0.0, 0.0, 0.0, 0.0, 0.0, 0.0)",-3.552789792259023,5.294901130302062e-32,0.0,"(0.0, 0.0, 0.0, 0.0, 0.0, 0.0)",-0.24562369466220793,-0.7579917869736262,-21.756402491702737,"(0.0, 0.0, 0.0, 0.0, 0.0, 0.0)",34.46450837185191,-0.10794166402774508,2.3067105714488583,"(0.0, 0.0, 0.0, 0.0, 0.0, 0.0)",8.765009015475858,False,,,,,False,,,,
7,Open,,,,,,"[-0.026750000193715096, 0.05299999937415123, 0.03999999910593033]","[0.0, -0.0, 0.7356376306875043]","[-0.07506632059812546, 0.10638101398944855, 0.03999999910593033]","[0.0, -0.0, 0.7356376306875043]","[0.026750000193715096, 0.05299999937415123, 0.03999999910593033]","[0.0, 0.0, -0.757991847340814]","[0.076247438788414, 0.10528770089149475, 0.03999999910593033]","[0.0, 0.0, -0.8659334873334429]",0.8190738670000001,20.024696880000004,"(0.0, 0.0, 0.0, 0.0, 0.0, 0.0)",-3.2002295086701533,2.3293280891773424e-07,5.5903874140256216e-05,"(0.0, 0.0, 0.0, 0.0, 0.0, 0.0)",-0.22200715926400075,-0.8391926082762636,-19.488197112632974,"(0.0, 0.0, 0.0, 0.0, 0.0, 0.0)",3.295349739497939,-0.09714776835574307,2.590534961280482,"(0.0, 0.0, 0.0, 0.0, 0.0, 0.0)",0.25803221970863044,False,,,,,False,,,,
8,Open,,,,,,"[-0.026750000193715096, 0.05299999937415123, 0.03999999910593033]","[0.0, -0.0, 0.8190738875671263]","[-0.07934698462486267, 0.10216865688562393, 0.03999999910593033]","[0.0, -0.0, 0.8190741465287105]","[0.026750000193715096, 0.05299999937415123, 0.03999999910593033]","[0.0, 0.0, -0.839192558822362]","[0.08032548427581787, 0.10110059380531311, 0.03999999910593033]","[0.0, 0.0, -0.9363403253067936]",0.8941664803,18.022227192,"(0.0, 0.0, 0.0, 0.0, 0.0, 0.0)",-2.8824197251771095,4.2009445145371055e-07,4.4918794208634316e-05,"(0.0, 0.0, 0.0, 0.0, 0.0, 0.0)",-0.2005835928406654,-0.9122733474486373,-17.539377401369673,"(0.0, 0.0, 0.0, 0.0, 0.0, 0.0)",2.7804978356880783,-0.0874331700712747,2.33150358827241,"(0.0, 0.0, 0.0, 0.0, 0.0, 0.0)",0.17017621517521792,False,,,,,False,,,,
9,Open,,,,,,"[-0.026750000193715096, 0.05299999937415123, 0.03999999910593033]","[0.0, -0.0, 0.894166469119967]","[-0.08288749307394028, 0.09808415919542313, 0.03999999910593033]","[0.0, -0.0, 0.894166894674561]","[0.026750000193715096, 0.05299999937415123, 0.03999999910593033]","[0.0, 0.0, -0.9122733503889549]","[0.08369457721710205, 0.09706035256385803, 0.03999999910593033]","[0.0, 0.0, -0.9997066729229968]",0.96174983227,16.220004472800003,"(0.0, 0.0, 0.0, 0.0, 0.0, 0.0)",-2.5959652512206968,5.681494863714967e-07,3.553320838026869e-05,"(0.0, 0.0, 0.0, 0.0, 0.0, 0.0)",-0.18114955764248034,-0.9780460127037736,-15.785439661232708,"(0.0, 0.0, 0.0, 0.0, 0.0, 0.0)",2.503992476159733,-0.0786900142246732,2.098357403184359,"(0.0, 0.0, 0.0, 0.0, 0.0, 0.0)",0.15360133560797545,False,,,,,False,,,,
10,Open,,,,,,"[-0.026750000193715096, 0.05299999937415123, 0.03999999910593033]","[0.0, -0.0, 0.9617498658906226]","[-0.08580395579338074, 0.09419016540050507, 0.03999999910593033]","[0.0, -0.0, 0.9617504517765805]","[0.026750000193715096, 0.05299999937415123, 0.03999999910593033]","[0.0, 0.0, -0.9780460255881384]","[0.08646733313798904, 0.09322238713502884, 0.03999999910593033]","[0.0, 0.0, -1.0567360258914282]",1.022574849043,14.598004025520002,"(0.0, 0.0, 0.0, 0.0, 0.0, 0.0)",-2.337816594086846,6.829231533297027e-07,2.7545680069969436e-05,"(0.0, 0.0, 0.0, 0.0, 0.0, 0.0)",-0.16354029854134106,-1.0372414114333963,-14.206895695109438,"(0.0, 0.0, 0.0, 0.0, 0.0, 0.0)",2.2548456713339484,-0.07082115822448021,1.8885254400463192,"(0.0, 0.0, 0.0, 0.0, 0.0, 0.0)",0.13860128234430863,False,,,,,False,,,,
11,Open,,,,,,"[-0.026750000193715096, 0.05299999937415123, 0.03999999910593033]","[0.0, -0.0, 1.0225748785172661]","[-0.08819860219955444, 0.09052424877882004, 0.03999999910593033]","[0.0, -0.0, 1.0225755149967983]","[0.026750000193715096, 0.05299999937415123, 0.03999999910593033]","[0.0, 0.0, -1.037241417801626]","[0.08874232321977615, 0.08961901068687439, 0.03999999910593033]","[0.0, 0.0, -1.1080626941470386]",1.0773173641387,13.138203622968001,"(0.0, 0.0, 0.0, 0.0, 0.0, 0.0)",-2.105207702642618,7.694903593429899e-07,2.0776129443188934e-05,"(0.0, 0.0, 0.0, 0.0, 0.0, 0.0)",-0.14759587787833617,-1.0905172702900567,-12.78620612559849,"(0.0, 0.0, 0.0, 0.0, 0.0, 0.0)",2.0303755786213302,-0.06373917358809339,1.6996763127328351,"(0.0, 0.0, 0.0, 0.0, 0.0, 0.0)",0.1250328149112744,False,,,,,False,,,,
12,Open,,,,,,"[-0.026750000193715096, 0.05299999937415123, 0.03999999910593033]","[0.0, -0.0, 1.0773173786594632]","[-0.09015969932079315, 0.08710587024688721, 0.03999999910593033]","[0.0, -0.0, 1.0773182784199262]","[0.026750000193715096, 0.05299999937415123, 0.03999999910593033]","[0.0, 0.0, -1.090517334189526]","[0.09060435742139816, 0.0862659215927124, 0.03999999910593033]","[0.0, 0.0, -1.1542564269670996]",1.1265856277248298,11.824383260671203,"(0.0, 0.0, 0.0, 0.0, 0.0, 0.0)",-1.895636869852492,8.322629993378343e-07,1.5065433598762668e-05,"(0.0, 0.0, 0.0, 0.0, 0.0, 0.0)",-0.13316806895824274,-1.138465543261051,-11.50758551303864,"(0.0, 0.0, 0.0, 0.0, 0.0, 0.0)",1.828159741200242,-0.05736537454460671,1.5297117704368035,"(0.0, 0.0, 0.0, 0.0, 0.0, 0.0)",0.11276577482950233,False,,,,,False,,,,
13,Open,,,,,,"[-0.026750000193715096, 0.05299999937415123, 0.03999999910593033]","[0.0, -0.0, 1.126585512342968]","[-0.09176240861415863, 0.08394166082143784, 0.03999999910593033]","[0.0, -0.0, 1.1265864725026016]","[0.026750000193715096, 0.05299999937415123, 0.03999999910593033]","[0.0, 0.0, -1.13846552283997]","[0.09212540090084076, 0.08316715806722641, 0.03999999910593033]","[0.0, 0.0, -1.1958309904194953]",1.1709270649523469,10.641944934604087,"(0.0, 0.0, 0.0, 0.0, 0.0, 0.0)",-1.7068426281171958,8.750681698751778e-07,1.0273240928962424e-05,"(0.0, 0.0, 0.0, 0.0, 0.0, 0.0)",-0.12011999884119333,-1.181618988934946,-10.356826961734775,"(0.0, 0.0, 0.0, 0.0, 0.0, 0.0)",1.6460093571929852,-0.051628943774705546,1.376743384776279,"(0.0, 0.0, 0.0, 0.0, 0.0, 0.0)",0.10168054944364863,False,,,,,False,,,,
14,Open,,,,,,"[-0.026750000193715096, 0.05299999937415123, 0.03999999910593033]","[0.0, -0.0, 1.170927100750299]","[-0.09307006001472473, 0.08102945238351822, 0.03999999910593033]","[0.0, -0.0, 1.1709279927689973]","[0.026750000193715096, 0.05299999937415123, 0.03999999910593033]","[0.0, 0.0, -1.181618964677462]","[0.09336595237255096, 0.08031877130270004, 0.03999999910593033]","[0.0, 0.0, -1.233247876832181]",1.2108343584571122,9.577750441143678,"(0.0, 0.0, 0.0, 0.0, 0.0, 0.0)",-1.5367816122769582,9.012180617793662e-07,6.275974057005224e-06,"(0.0, 0.0, 0.0, 0.0, 0.0, 0.0)",-0.1083256720668905,-1.2204570900414513,-9.3211442655613,"(0.0, 0.0, 0.0, 0.0, 0.0, 0.0)",1.4819475463743526,-0.046466145575958295,1.239071567699341,"(0.0, 0.0, 0.0, 0.0, 0.0, 0.0)",0.09166748660725833,False,,,,,False,,,,
15,Open,,,,,,"[-0.026750000193715096, 0.05299999937415123, 0.03999999910593033]","[0.0, -0.0, 1.2108343955497323]","[-0.09413553774356842, 0.07836118340492249, 0.03999999910593033]","[0.0, -0.0, 1.210835255049739]","[0.026750000193715096, 0.05299999937415123, 0.03999999910593033]","[0.0, 0.0, -1.2204571829136446]","[0.09437645971775055, 0.07771158218383789, 0.03999999910593033]","[0.0, 0.0, -1.2669233179031547]",1.2467509226114009,8.619975397029307,"(0.0, 0.0, 0.0, 0.0, 0.0, 0.0)",-1.3836082777937824,9.135722823677317e-07,2.9650129412077397e-06,"(0.0, 0.0, 0.0, 0.0, 0.0, 0.0)",-0.09766941677677543,-1.2554113810373062,-8.38902983900517,"(0.0, 0.0, 0.0, 0.0, 0.0, 0.0)",1.334189480132575,-0.04181961771093252,1.1151666876061868,"(0.0, 0.0, 0.0, 0.0, 0.0, 0.0)",0.08262627878010878,False,,,,,False,,,,
16,Open,,,,,,"[-0.026750000193715096, 0.05299999937415123, 0.03999999910593033]","[0.0, -0.0, 1.2467510110527222]","[-0.09500277042388916, 0.07592508941888809, 0.03999999910593033]","[0.0, -0.0, 1.246751870145374]","[0.026750000193715096, 0.05299999937415123, 0.03999999910593033]","[0.0, 0.0, -1.255411348379259]","[0.09519875049591064, 0.0753331333398819, 0.03999999910593033]","[0.0, 0.0, -1.2972309672073006]",1.2790758303502607,7.757977857326381,"(0.0, 0.0, 0.0, 0.0, 0.0, 0.0)",-1.2456264712746363,2.1141758111398655e-06,0.0002881448469053121,"(0.0, 0.0, 0.0, 0.0, 0.0, 0.0)",-0.088015399348708,-1.2868702429335757,-7.5501268551046525,"(0.0, 0.0, 0.0, 0.0, 0.0, 0.0)",1.2010989712673745,-0.037638748630864464,1.0034085792163332,"(0.0, 0.0, 0.0, 0.0, 0.0, 0.0)",0.07444006052486639,False,,,,,False,,,,
17,Open,,,,,,"[-0.026750000193715096, 0.05299999937415123, 0.03999999910593033]","[0.0, -0.0, 1.2790758758817962]","[-0.09570803493261337, 0.0737072303891182, 0.03999999910593033]","[0.0, -0.0, 1.2790780932516201]","[0.026750000193715096, 0.05299999937415123, 0.03999999910593033]","[0.0, 0.0, -1.2868702529032277]","[0.0958673357963562, 0.07316911965608597, 0.03999999910593033]","[0.0, 0.0, -1.3245087793274308]",1.3081682532711112,6.982181501004109,"(0.0, 0.0, 0.0, 0.0, 0.0, 0.0)",-1.12145472366965,1.9027582300258812e-06,-5.0740219467356254e-05,"(0.0, 0.0, 0.0, 0.0, 0.0, 0.0)",-0.07939114715284208,-1.315183223212741,-6.795115266999686,"(0.0, 0.0, 0.0, 0.0, 0.0, 0.0)",1.0813262344929835,-0.033874873767778015,0.9033299671407473,"(0.0, 0.0, 0.0, 0.0, 0.0, 0.0)",0.06713055017345074,False,,,,,False,,,,
18,Open,,,,,,"[-0.026750000193715096, 0.05299999937415123, 0.03999999910593033]","[0.0, -0.0, 1.3081682459906412]","[-0.09628119319677353, 0.07169260084629059, 0.03999999910593033]","[0.0, -0.0, 1.3081702011658356]","[0.026750000193715096, 0.05299999937415123, 0.03999999910593033]","[0.0, 0.0, -1.3151833180210462]","[0.0964106097817421, 0.07120437920093536, 0.03999999910593033]","[0.0, 0.0, -1.349058153261439]",1.334351427944,6.283961921493333,"(0.0, 0.0, 0.0, 0.0, 0.0, 0.0)",-1.0095234585863413,2.7618377923566443e-06,0.00020617909495938315,"(0.0, 0.0, 0.0, 0.0, 0.0, 0.0)",-0.07148780084672787,-1.3406649008914668,-6.11560264289422,"(0.0, 0.0, 0.0, 0.0, 0.0, 0.0)",0.9733796231570812,-0.030488273507324658,0.8127840625088054,"(0.0, 0.0, 0.0, 0.0, 0.0, 0.0)",0.060435192896783604,False,,,,,False,,,,
19,Open,,,,,,"[-0.026750000193715096, 0.05299999937415123, 0.03999999910593033]","[0.0, -0.0, 1.334351465706577]","[-0.09674673527479172, 0.06986585259437561, 0.03999999910593033]","[0.0, -0.0, 1.33435435145599]","[0.026750000193715096, 0.05299999937415123, 0.03999999910593033]","[0.0, 0.0, -1.3406650641721125]","[0.09685182571411133, 0.06942359358072281, 0.03999999910593033]","[0.0, 0.0, -1.3711530696282732]",1.3579162851496,5.655565729344001,"(0.0, 0.0, 0.0, 0.0, 0.0, 0.0)",-0.9088150211252332,3.4316066113876724e-06,0.0001607445165674468,"(0.0, 0.0, 0.0, 0.0, 0.0, 0.0)",-0.06444344013525093,-1.3635984108023202,-5.504042378604797,"(0.0, 0.0, 0.0, 0.0, 0.0, 0.0)",0.8762522980402716,-0.02744024570882781,0.7315266716392431,"(0.0, 0.0, 0.0, 0.0, 0.0, 0.0)",0.05446985052483407,False,,,,,False,,,,
20,Open,,,,,,"[-0.026750000193715096, 0.05299999937415123, 0.03999999910593033]","[0.0, -0.0, 1.3579163939939654]","[-0.09712471067905426, 0.0682118609547615, 0.03999999910593033]","[0.0, -0.0, 1.3579197824809437]","[0.026750000193715096, 0.05299999937415123, 0.03999999910593033]","[0.0, 0.0, -1.3635984874387626]","[0.09721000492572784, 0.06781173497438431, 0.03999999910593033]","[0.0, 0.0, -1.3910385869420074]",1.37912465663464,5.090009156409601,"(0.0, 0.0, 0.0, 0.0, 0.0, 0.0)",-0.8181093185961676,3.940702417530038e-06,0.0001221829934741677,"(0.0, 0.0, 0.0, 0.0, 0.0, 0.0)",-0.05806034967263589,-1.3842385697220883,-4.953638140744317,"(0.0, 0.0, 0.0, 0.0, 0.0, 0.0)",0.7887791417834831,-0.024696941374704916,0.6583930401894944,"(0.0, 0.0, 0.0, 0.0, 0.0, 0.0)",0.04906644857689494,False,,,,,False,,,,
21,Open,,,,,,"[-0.026750000193715096, 0.05299999937415123, 0.03999999910593033]","[0.0, -0.0, 1.3791247702213432]","[-0.0974314734339714, 0.0667160153388977, 0.03999999910593033]","[0.0, -0.0, 1.3791284782568445]","[0.026750000193715096, 0.05299999937415123, 0.03999999910593033]","[0.0, 0.0, -1.3842387704807777]","[0.09750068932771683, 0.06635437905788422, 0.03999999910593033]","[0.0, 0.0, -1.408935619520831]",1.398212190971176,4.581008240768642,"(0.0, 0.0, 0.0, 0.0, 0.0, 0.0)",-0.7364407507487188,4.314390796743166e-06,8.968521101115077e-05,"(0.0, 0.0, 0.0, 0.0, 0.0, 0.0)",-0.05230389643117988,-1.4028147127498793,-4.458274326669883,"(0.0, 0.0, 0.0, 0.0, 0.0, 0.0)",0.7100243788118592,-0.02222789596809768,0.5925708975857369,"(0.0, 0.0, 0.0, 0.0, 0.0, 0.0)",0.04419507766734469,False,,,,,False,,,,
22,Open,,,,,,"[-0.026750000193715096, 0.05299999937415123, 0.03999999910593033]","[0.0, -0.0, 1.3982120672717784]","[-0.09768038988113403, 0.06536446511745453, 0.03999999910593033]","[0.0, -0.0, 1.3982164487645397]","[0.026750000193715096, 0.05299999937415123, 0.03999999910593033]","[0.0, 0.0, -1.4028147367436141]","[0.09773654490709305, 0.06503787636756897, 0.03999999910593033]","[0.0, 0.0, -1.4250426427007885]",1.4153909718740585,4.122907416691778,"(0.0, 0.0, 0.0, 0.0, 0.0, 0.0)",-0.6629119687698639,4.574523674952359e-06,6.243189077020624e-05,"(0.0, 0.0, 0.0, 0.0, 0.0, 0.0)",-0.04711364623212332,-1.4195332414748913,-4.012446894002898,"(0.0, 0.0, 0.0, 0.0, 0.0, 0.0)",0.6391216750959775,-0.02000569064819732,0.5333292767760867,"(0.0, 0.0, 0.0, 0.0, 0.0, 0.0)",0.039804123486470444,False,,,,,False,,,,
23,Open,,,,,,"[-0.026750000193715096, 0.05299999937415123, 0.03999999910593033]","[0.0, -0.0, 1.415391158105469]","[-0.09788231551647186, 0.06414420157670975, 0.03999999910593033]","[0.0, -0.0, 1.415395709317307]","[0.026750000193715096, 0.05299999937415123, 0.03999999910593033]","[0.0, 0.0, -1.419533200978404]","[0.09792786836624146, 0.06384945660829544, 0.03999999910593033]","[0.0, 0.0, -1.4395389386881268]",1.4308518746866525,3.7106166750225977,"(0.0, 0.0, 0.0, 0.0, 0.0, 0.0)",-0.5967141397561109,4.7399630338636504e-06,3.9705446138709865e-05,"(0.0, 0.0, 0.0, 0.0, 0.0, 0.0)",-0.042434775014060074,-1.4345799173274023,-3.611202204602609,"(0.0, 0.0, 0.0, 0.0, 0.0, 0.0)",0.5752902758042565,-0.018005647771851804,0.4800102903229233,"(0.0, 0.0, 0.0, 0.0, 0.0, 0.0)",0.0358468230863414,False,,,,,False,,,,
24,Open,,,,,,"[-0.026750000193715096, 0.05299999937415123, 0.03999999910593033]","[0.0, -0.0, 1.4308518944899675]","[-0.09804610908031464, 0.06304314732551575, 0.03999999910593033]","[0.0, -0.0, 1.4308566269594332]","[0.026750000193715096, 0.05299999937415123, 0.03999999910593033]","[0.0, 0.0, -1.4345798203875788]","[0.09808305650949478, 0.06277728080749512, 0.03999999910593033]","[0.0, 0.0, -1.4525855975984745]",1.4447666872179874,3.339555007520341,"(0.0, 0.0, 0.0, 0.0, 0.0, 0.0)",-0.5371183361845069,4.8269553674989e-06,2.0878160072459843e-05,"(0.0, 0.0, 0.0, 0.0, 0.0, 0.0)",-0.03821759960562203,-1.448121925594662,-3.2500819841423465,"(0.0, 0.0, 0.0, 0.0, 0.0, 0.0)",0.5178266556878065,-0.016205556838873442,0.4320218239148067,"(0.0, 0.0, 0.0, 0.0, 0.0, 0.0)",0.0322808466635012,False,,,,,False,,,,
25,Open,,,,,,"[-0.026750000193715096, 0.05299999937415123, 0.03999999910593033]","[0.0, -0.0, 1.4447668540021588]","[-0.09817895293235779, 0.06205013021826744, 0.03999999910593033]","[0.0, -0.0, 1.4447715863131299]","[0.026750000193715096, 0.05299999937415123, 0.03999999910593033]","[0.0, 0.0, -1.448121993206969]","[0.09820891171693802, 0.06181041896343231, 0.03999999910593033]","[0.0, 0.0, -1.46432761016298]",1.4572900184961886,3.005599506768304,"(0.0, 0.0, 0.0, 0.0, 0.0, 0.0)",-0.483467731204937,4.849462099751187e-06,5.401615740548756e-06,"(0.0, 0.0, 0.0, 0.0, 0.0, 0.0)",-0.03441712855198442,-1.4603097330351957,-2.925073785728113,"(0.0, 0.0, 0.0, 0.0, 0.0, 0.0)",0.4660969568661882,-0.014585427836986846,0.38883096045278315,"(0.0, 0.0, 0.0, 0.0, 0.0, 0.0)",0.029067900465992856,False,,,,,False,,,,
26,Open,,,,,,"[-0.026750000193715096, 0.05299999937415123, 0.03999999910593033]","[0.0, -0.0, 1.4572900807517244]","[-0.0982866883277893, 0.061154916882514954, 0.03999999910593033]","[0.0, -0.0, 1.4572948921008348]","[0.026750000193715096, 0.05299999937415123, 0.03999999910593033]","[0.0, 0.0, -1.4603097470714805]","[0.09831098467111588, 0.06093886122107506, 0.03999999910593033]","[0.0, 0.0, -1.4748951413427742]",1.4685610166465697,2.705039556091476,"(0.0, 0.0, 0.0, 0.0, 0.0, 0.0)",-0.43517053908893033,4.819450845044722e-06,-7.202701129551542e-06,"(0.0, 0.0, 0.0, 0.0, 0.0, 0.0)",-0.030992645518402973,-1.471278759731676,-2.632566407155304,"(0.0, 0.0, 0.0, 0.0, 0.0, 0.0)",0.4195301522878829,-0.013127269246907155,0.3499580616191257,"(0.0, 0.0, 0.0, 0.0, 0.0, 0.0)",0.02617336062226555,False,,,,,False,,,,
27,Open,,,,,,"[-0.026750000193715096, 0.05299999937415123, 0.03999999910593033]","[0.0, -0.0, 1.4685611215819594]","[-0.09837405383586884, 0.06034812703728676, 0.03999999910593033]","[0.0, -0.0, 1.468565853091142]","[0.026750000193715096, 0.05299999937415123, 0.03999999910593033]","[0.0, 0.0, -1.4712788457263521]","[0.0983937606215477, 0.06015344336628914, 0.03999999910593033]","[0.0, 0.0, -1.4844061039497418]",1.4787049149819127,2.434535600482329,"(0.0, 0.0, 0.0, 0.0, 0.0, 0.0)",-0.39169363303347604,4.747151892642784e-06,-1.7351748576465223e-05,"(0.0, 0.0, 0.0, 0.0, 0.0, 0.0)",-0.02790732436186781,-1.4811508837585086,-2.3693097664397755,"(0.0, 0.0, 0.0, 0.0, 0.0, 0.0)",0.37761186810531283,-0.011814888241968555,0.3149714411852639,"(0.0, 0.0, 0.0, 0.0, 0.0, 0.0)",0.023565936472848985,False,,,,,False,,,,
28,Open,,,,,,"[-0.026750000193715096, 0.05299999937415123, 0.03999999910593033]","[0.0, -0.0, 1.4787049625213984]","[-0.09844490885734558, 0.059621214866638184, 0.03999999910593033]","[0.0, -0.0, 1.4787095898811649]","[0.026750000193715096, 0.05299999937415123, 0.03999999910593033]","[0.0, 0.0, -1.4811508165812142]","[0.09846089035272598, 0.059445831924676895, 0.03999999910593033]","[0.0, 0.0, -1.492965762433775]",1.4878344234837215,2.191082040434097,"(0.0, 0.0, 0.0, 0.0, 0.0, 0.0)",-0.35255677801820895,4.641283838470101e-06,-2.5408333001444004e-05,"(0.0, 0.0, 0.0, 0.0, 0.0, 0.0)",-0.02512787460267613,-1.4900357953826577,-2.132378789795796,"(0.0, 0.0, 0.0, 0.0, 0.0, 0.0)",0.33987880377374147,-0.010633710863257649,0.2834825708906175,"(0.0, 0.0, 0.0, 0.0, 0.0, 0.0)",0.021217361806457186,False,,,,,False,,,,
29,Close,,,"(0.010000165031897679, 0.16000264050809818, 0.003919197399597577)","(-5.388791991209616e-05, 3.3679978815229247e-06, -9.074720008653711e-11)",,"[-0.026750000193715096, 0.05299999937415123, 0.03999999910593033]","[0.0, -0.0, 1.487834617901085]","[-0.09850236773490906, 0.05896640568971634, 0.03999999910593033]","[0.0, -0.0, 1.4878390921106803]","[0.026750000193715096, 0.05299999937415123, 0.03999999910593033]","[0.0, 0.0, -1.4900358577435544]","[0.09851532429456711, 0.05880843847990036, 0.03999999910593033]","[0.0, 0.0, -1.5006695807985118]",1.4960509811353493,1.9719738363906854,"(0.0, 0.0, 0.0, 0.0, 0.0, 0.0)",-0.3173274216127963,4.509251873886308e-06,-3.168767150011037e-05,"(0.0, 0.0, 0.0, 0.0, 0.0, 0.0)",-0.022624215793833224,-1.498032215844392,-1.9191409108162163,"(0.0, 0.0, 0.0, 0.0, 0.0, 0.0)",0.30591369390909257,-0.00957062017308593,0.2551417656412126,"(0.0, 0.0, 0.0, 0.0, 0.0, 0.0)",0.019102112305110365,False,,,,,False,,,,
30,Close,,,"(0.010000330010418335, 0.1600052801621647, 0.0076635160840755065)","(-0.00010776674212266888, 6.7354271463595154e-06, -3.629275205618536e-10)",,"[-0.026750000193715096, 0.05299999937415123, 0.03999999910593033]","[0.0, -0.0, 1.4960509653323988]","[-0.09854896366596222, 0.058376654982566833, 0.03999999910593033]","[0.0, -0.0, 1.4960555203126162]","[0.026750000193715096, 0.05299999937415123, 0.03999999910593033]","[0.0, 0.0, -1.4980320325532246]","[0.09855947643518448, 0.05823439359664917, 0.03999999910593033]","[0.0, 0.0, -1.5076028800413472]",1.4064458830218143,-21.505223547248388,"(0.0, 0.0, 0.0, 0.0, 0.0, 0.0)",-36.32500847077206,-0.08999559064729075,-21.600023975799512,"(0.0, 0.0, 0.0, 0.0, 0.0, 0.0)",-4.679136399120495,-1.4082289942599528,21.552773180265405,"(0.0, 0.0, 0.0, 0.0, 0.0, 0.0)",36.31473208701179,0.08138609105625041,21.82961069504072,"(0.0, 0.0, 0.0, 0.0, 0.0, 0.0)",4.675963213372079,False,,,,,False,,,,
31,Close,,,"(0.010000494936733278, 0.16000791898094055, 0.011233038807318392)","(-0.00016163646818851668, 1.0102287881965475e-05, -8.164490687548302e-10)",,"[-0.026750000193715096, 0.05299999937415123, 0.03999999910593033]","[0.0, -0.0, 1.4064459844712927]","[-0.0977797880768776, 0.06478003412485123, 0.03999999910593033]","[0.0, -0.0, 1.316450240076391]","[0.026750000193715096, 0.05299999937415123, 0.03999999910593033]","[0.0, 0.0, -1.4082291009672807]","[0.09780067950487137, 0.06465335935354233, 0.03999999910593033]","[0.0, 0.0, -1.3268428349863826]",1.325801294719633,-19.354701192523546,"(0.0, 0.0, 0.0, 0.0, 0.0, 0.0)",3.2936342521930255,-0.17099646652613912,-19.44021021092361,"(0.0, 0.0, 0.0, 0.0, 0.0, 0.0)",0.4145426679866387,-1.3274060948339577,19.39749586223887,"(0.0, 0.0, 0.0, 0.0, 0.0, 0.0)",-3.3024243844052092,0.16324791947241268,19.646838819878944,"(0.0, 0.0, 0.0, 0.0, 0.0, 0.0)",-0.41699994760359754,False,,,,,False,,,,
32,Close,,,"(0.010000659812012168, 0.16001055698314023, 0.0146278458391823)","(-0.0002154970996661642, 1.346858017578936e-05, -1.4512199879406586e-09)",,"[-0.026750000193715096, 0.05299999937415123, 0.03999999910593033]","[0.0, -0.0, 1.3258013857525741]","[-0.09659997373819351, 0.07046370953321457, 0.03999999910593033]","[0.0, -0.0, 1.1548048042561467]","[0.026750000193715096, 0.05299999937415123, 0.03999999910593033]","[0.0, 0.0, -1.3274060658778382]","[0.09662791341543198, 0.07035159319639206, 0.03999999910593033]","[0.0, 0.0, -1.1641581075845935]",1.2532211652476697,-17.41923107327119,"(0.0, 0.0, 0.0, 0.0, 0.0, 0.0)",2.9685258329366073,-0.24389721437960032,-17.496179484830687,"(0.0, 0.0, 0.0, 0.0, 0.0, 0.0)",0.3760018756193849,-1.2546654853505619,17.457746276014984,"(0.0, 0.0, 0.0, 0.0, 0.0, 0.0)",-2.976480273609718,0.2369235243908578,17.682145180426822,"(0.0, 0.0, 0.0, 0.0, 0.0, 0.0)",-0.3782508099482112,False,,,,,False,,,,
33,Close,,,"(0.010000824637423049, 0.16001319418745247, 0.017848014970055004)","(-0.00026934863811186216, 1.6834304115272585e-05, -2.2671484573282825e-09)",,"[-0.026750000193715096, 0.05299999937415123, 0.03999999910593033]","[0.0, -0.0, 1.2532212515508983]","[-0.09514966607093811, 0.07548300176858902, 0.03999999910593033]","[0.0, -0.0, 1.0093239867956962]","[0.026750000193715096, 0.05299999937415123, 0.03999999910593033]","[0.0, 0.0, -1.254665405963893]","[0.09518206864595413, 0.07538418471813202, 0.03999999910593033]","[0.0, 0.0, -1.0177419933055243]",1.1878990487229026,-15.677307965944074,"(0.0, 0.0, 0.0, 0.0, 0.0, 0.0)",2.675103284419244,-0.30950785045582774,-15.746552658294572,"(0.0, 0.0, 0.0, 0.0, 0.0, 0.0)",0.34074508229325023,-1.1891989368155058,15.711971648413485,"(0.0, 0.0, 0.0, 0.0, 0.0, 0.0)",-2.6822973218910153,0.30323153162132754,15.913921735312746,"(0.0, 0.0, 0.0, 0.0, 0.0, 0.0)",-0.34279935345822066,False,,,,,False,,,,
34,Close,,,"(0.010000989414132393, 0.1600158306125408, 0.020893621515273818)","(-0.00032319108508158773, 2.0199459787849396e-05, -3.2641426920478403e-09)",,"[-0.026750000193715096, 0.05299999937415123, 0.03999999910593033]","[0.0, -0.0, 1.1878990574339587]","[-0.09353619813919067, 0.07989988476037979, 0.03999999910593033]","[0.0, -0.0, 0.8783912846834516]","[0.026750000193715096, 0.05299999937415123, 0.03999999910593033]","[0.0, 0.0, -1.1891990098250689]","[0.09357111155986786, 0.07981304824352264, 0.03999999910593033]","[0.0, 0.0, -0.8859674697633095]",1.1291091438506125,-14.109577169349663,"(0.0, 0.0, 0.0, 0.0, 0.0, 0.0)",2.4103712722760626,-0.36855738916456426,-14.17188929009676,"(0.0, 0.0, 0.0, 0.0, 0.0, 0.0)",0.3085687115248564,-1.1302790431339553,14.140774483572143,"(0.0, 0.0, 0.0, 0.0, 0.0, 0.0)",-2.4168742890236286,0.36290870417903687,14.322521413850238,"(0.0, 0.0, 0.0, 0.0, 0.0, 0.0)",-0.31044204201279674,False,,,,,False,,,,
35,Close,,,"(0.010001154143305145, 0.16001846627704427, 0.023764738319401603)","(-0.00037702444213104407, 2.3564047280946926e-05, -4.4421109431381166e-09)",,"[-0.026750000193715096, 0.05299999937415123, 0.03999999910593033]","[0.0, -0.0, 1.1291090274464952]","[-0.09184028208255768, 0.08377750217914581, 0.03999999910593033]","[0.0, -0.0, 0.7605517150898052]","[0.026750000193715096, 0.05299999937415123, 0.03999999910593033]","[0.0, 0.0, -1.130279133319625]","[0.09187624603509903, 0.08370133489370346, 0.03999999910593033]","[0.0, 0.0, -0.7673703325611945]",1.0761982294655512,-12.698619452414698,"(0.0, 0.0, 0.0, 0.0, 0.0, 0.0)",2.1715845710489208,-0.42170194324014043,-12.754692978138287,"(0.0, 0.0, 0.0, 0.0, 0.0, 0.0)",0.27924932151422227,-1.07725113882056,12.72669703521493,"(0.0, 0.0, 0.0, 0.0, 0.0, 0.0)",-2.177460276301377,0.41661812854294633,12.890261847338277,"(0.0, 0.0, 0.0, 0.0, 0.0, 0.0)",-0.2809551529003472,False,,,,,False,,,,
36,Close,,,"(0.010001318826104761, 0.16002110119957821, 0.02646143576036139)","(-0.0004308487108156613, 2.692806668198511e-05, -5.800961497533997e-09)",,"[-0.026750000193715096, 0.05299999937415123, 0.03999999910593033]","[0.0, -0.0, 1.076198055145404]","[-0.09012148529291153, 0.08717681467533112, 0.03999999910593033]","[0.0, -0.0, 0.6544962762796218]","[0.026750000193715096, 0.05299999937415123, 0.03999999910593033]","[0.0, 0.0, -1.0772510781061955]","[0.09015743434429169, 0.08711007237434387, 0.03999999910593033]","[0.0, 0.0, -0.6606329452337051]",1.028578406518996,-11.428757507173229,"(0.0, 0.0, 0.0, 0.0, 0.0, 0.0)",1.9562489498726314,-0.46953201391559385,-11.479216962108818,"(0.0, 0.0, 0.0, 0.0, 0.0, 0.0)",0.2525697399559188,-1.0295260249385039,11.454027331693439,"(0.0, 0.0, 0.0, 0.0, 0.0, 0.0)",-1.961555706583625,0.46495658231577774,11.601228905479532,"(0.0, 0.0, 0.0, 0.0, 0.0, 0.0)",-0.25412105363877113,False,,,,,False,,,,
37,Close,,,"(0.010001483463693249, 0.1600237353987347, 0.0289837817534302)","(-0.0004846638926905951, 3.0291518078376737e-05, -7.3406026780539124e-09)",,"[-0.026750000193715096, 0.05299999937415123, 0.03999999910593033]","[0.0, -0.0, 1.028578444789276]","[-0.08842276781797409, 0.09015467017889023, 0.03999999910593033]","[0.0, -0.0, 0.5590464126725148]","[0.026750000193715096, 0.05299999937415123, 0.03999999910593033]","[0.0, 0.0, -1.029526007298545]","[0.08845794945955276, 0.09009620547294617, 0.03999999910593033]","[0.0, 0.0, -0.564569399435659]",0.9857205658670964,-10.285881756455906,"(0.0, 0.0, 0.0, 0.0, 0.0, 0.0)",1.7621005438122825,-0.5125790520819234,-10.331289159919107,"(0.0, 0.0, 0.0, 0.0, 0.0, 0.0)",0.22832149176550065,-0.9865734224446535,10.308624598524094,"(0.0, 0.0, 0.0, 0.0, 0.0, 0.0)",-1.766891708603882,0.508461165120635,10.441099873165749,"(0.0, 0.0, 0.0, 0.0, 0.0, 0.0)",-0.22973068702752517,False,,,,,False,,,,
38,Close,,,"(0.010001648057231211, 0.16002636889308344, 0.03133184175509247)","(-0.0005384699893107284, 3.3654401557527444e-05, -9.06094284338731e-09)",,"[-0.026750000193715096, 0.05299999937415123, 0.03999999910593033]","[0.0, -0.0, 0.9857205423734198]","[-0.08677425980567932, 0.09276290237903595, 0.03999999910593033]","[0.0, -0.0, 0.47314147483112123]","[0.026750000193715096, 0.05299999937415123, 0.03999999910593033]","[0.0, 0.0, -0.9865734261287252]","[0.08680814504623413, 0.09271169453859329, 0.03999999910593033]","[0.0, 0.0, -0.4781122693565934]",0.9471485092803869,-9.257293580810316,"(0.0, 0.0, 0.0, 0.0, 0.0, 0.0)",1.587086438141582,-0.5513213633331018,-9.29815470028281,"(0.0, 0.0, 0.0, 0.0, 0.0, 0.0)",0.206306403170868,-0.9479160802001881,9.277762138671687,"(0.0, 0.0, 0.0, 0.0, 0.0, 0.0)",-1.5914107042435905,0.5476152664096928,9.396984309373877,"(0.0, 0.0, 0.0, 0.0, 0.0, 0.0)",-0.2075852193448244,False,,,,,False,,,,
39,Close,,,"(0.01000181260787789, 0.16002900170117218, 0.03350567876675359)","(-0.00059226700223067, 3.7016717206835695e-05, -1.0961890388082131e-08)",,"[-0.026750000193715096, 0.05299999937415123, 0.03999999910593033]","[0.0, -0.0, 0.9471486716739237]","[-0.08519625663757324, 0.09504801034927368, 0.03999999910593033]","[0.0, -0.0, 0.39582717163487297]","[0.026750000193715096, 0.05299999937415123, 0.03999999910593033]","[0.0, 0.0, -0.9479160840165974]","[0.08522851020097733, 0.09500313550233841, 0.03999999910593033]","[0.0, 0.0, -0.4003008647547732]",0.9124336583523481,-8.331564222729286,"(0.0, 0.0, 0.0, 0.0, 0.0, 0.0)",1.4293465062267445,-0.5861894225076075,-8.368334201881392,"(0.0, 0.0, 0.0, 0.0, 0.0, 0.0)",0.18633757536892917,-0.9131244721801693,8.349985924804516,"(0.0, 0.0, 0.0, 0.0, 0.0, 0.0)",-1.433248242084051,0.5828539364930729,8.45728082001123,"(0.0, 0.0, 0.0, 0.0, 0.0, 0.0)",-0.18749704763631705,False,,,,,False,,,,
40,Close,,,"(0.010001977116791199, 0.1600316338415276, 0.035505353338314005)","(-0.0006460549330047555, 4.037846511369274e-05, -1.3043353742532214e-08)",,"[-0.026750000193715096, 0.05299999937415123, 0.03999999910593033]","[0.0, -0.0, 0.9124336635104583]","[-0.08370164036750793, 0.0970512256026268, 0.03999999910593033]","[0.0, -0.0, 0.3262442150321584]","[0.026750000193715096, 0.05299999937415123, 0.03999999910593033]","[0.0, 0.0, -0.9131245532476111]","[0.08373206108808517, 0.09701187163591385, 0.03999999910593033]","[0.0, 0.0, -0.3302705841133475]",0.8811902925171133,-7.498407800456356,"(0.0, 0.0, 0.0, 0.0, 0.0, 0.0)",1.2871965063691413,-0.6175706567763247,-7.531496224492115,"(0.0, 0.0, 0.0, 0.0, 0.0, 0.0)",0.16823988009592084,-0.8818120249621524,7.514987332324067,"(0.0, 0.0, 0.0, 0.0, 0.0, 0.0)",-1.2907160846573733,0.6145687204653795,7.61154815335357,"(0.0, 0.0, 0.0, 0.0, 0.0, 0.0)",-0.16929032064296096,False,,,,,False,,,,
41,Close,,,"(0.010002141585127773, 0.16003426533265583, 0.03733092357160428)","(-0.0006998337831870475, 4.3739645365482716e-05, -1.5305241372964883e-08)",,"[-0.026750000193715096, 0.05299999937415123, 0.03999999910593033]","[0.0, -0.0, 0.8811903688816151]","[-0.08229776471853256, 0.09880879521369934, 0.03999999910593033]","[0.0, -0.0, 0.2636196251065186]","[0.026750000193715096, 0.05299999937415123, 0.03999999910593033]","[0.0, 0.0, -0.8818121535754343]","[0.08232623338699341, 0.098774254322052, 0.03999999910593033]","[0.0, 0.0, -0.26724331826119446]",0.853071263265402,-6.7485670204107215,"(0.0, 0.0, 0.0, 0.0, 0.0, 0.0)",1.1591124175888132,-0.6458137504217961,-6.77834247491313,"(0.0, 0.0, 0.0, 0.0, 0.0, 0.0)",0.1518500972569631,-0.8536308224659371,6.763488599091658,"(0.0, 0.0, 0.0, 0.0, 0.0, 0.0)",-1.1622865309865396,0.643112008739745,6.850389185847702,"(0.0, 0.0, 0.0, 0.0, 0.0, 0.0)",-0.15280109527428076,False,,,,,False,,,,
42,Close,,,"(0.010002306014043007, 0.16003689619304312, 0.038982445123681576)","(-0.0007536035543313348, 4.7100258049582536e-05, -1.7747461781428295e-08)",,"[-0.026750000193715096, 0.05299999937415123, 0.03999999910593033]","[0.0, -0.0, 0.8530713239495782]","[-0.08098787814378738, 0.10035242885351181, 0.03999999910593033]","[0.0, -0.0, 0.2072574956851119]","[0.026750000193715096, 0.05299999937415123, 0.03999999910593033]","[0.0, 0.0, -0.8536307856313979]","[0.08101436495780945, 0.10032207518815994, 0.03999999910593033]","[0.0, 0.0, -0.21051882644475053]",0.8277641369388617,-6.073710318369648,"(0.0, 0.0, 0.0, 0.0, 0.0, 0.0)",1.043715976216214,-0.6712325191394197,-6.100504492229669,"(0.0, 0.0, 0.0, 0.0, 0.0, 0.0)",0.1370167890019201,-0.8282677402193435,6.0871397391824935,"(0.0, 0.0, 0.0, 0.0, 0.0, 0.0)",-1.0465779375227178,0.6688009525283538,6.165346509266115,"(0.0, 0.0, 0.0, 0.0, 0.0, 0.0)",-0.1378772244212715,False,,,,,False,,,,
43,Close,,,"(0.010002470404691093, 0.16003952644115657, 0.04045997120998789)","(-0.0008073642479911328, 5.0460303253361964e-05, -2.0369923505779015e-08)",,"[-0.026750000193715096, 0.05299999937415123, 0.03999999910593033]","[0.0, -0.0, 0.8277641182932235]","[-0.07977228611707687, 0.10170972347259521, 0.03999999910593033]","[0.0, -0.0, 0.1565316389415725]","[0.026750000193715096, 0.05299999937415123, 0.03999999910593033]","[0.0, 0.0, -0.8282677342123946]","[0.07979680597782135, 0.10168302059173584, 0.03999999910593033]","[0.0, 0.0, -0.1594667900835625]",0.8049877232449756,-5.4663392865326825,"(0.0, 0.0, 0.0, 0.0, 0.0, 0.0)",0.9397613626777375,-0.6941093969081942,-5.49045066450586,"(0.0, 0.0, 0.0, 0.0, 0.0, 0.0)",0.12359998406321729,-0.8054409661974091,5.478425765264244,"(0.0, 0.0, 0.0, 0.0, 0.0, 0.0)",-0.9423413878167864,0.6919209877745929,5.54880845909737,"(0.0, 0.0, 0.0, 0.0, 0.0, 0.0)",-0.12437805104754245,False,,,,,False,,,,
44,Close,,,"(0.010002634758225062, 0.1600421560954447, 0.041763552607370504)","(-0.000861115865719684, 5.381978106418352e-05, -2.3172535119669436e-08)",,"[-0.026750000193715096, 0.05299999937415123, 0.03999999910593033]","[0.0, -0.0, 0.8049877164750058]","[-0.07864919304847717, 0.10290464758872986, 0.03999999910593033]","[0.0, -0.0, 0.11087832859978779]","[0.026750000193715096, 0.05299999937415123, 0.03999999910593033]","[0.0, 0.0, -0.805440964305088]","[0.07867180556058884, 0.10288111865520477, 0.03999999910593033]","[0.0, 0.0, -0.11351997099607207]",0.784488950920478,-4.919705357879415,"(0.0, 0.0, 0.0, 0.0, 0.0, 0.0)",0.8461229797239068,-0.7146985741739192,-4.941402543774016,"(0.0, 0.0, 0.0, 0.0, 0.0, 0.0)",0.11147072977230046,-0.7848968695776682,4.93058318873782,"(0.0, 0.0, 0.0, 0.0, 0.0, 0.0)",-0.8484484528940599,0.7127290066915236,4.993924540063379,"(0.0, 0.0, 0.0, 0.0, 0.0, 0.0)",-0.1121739668696123,False,,,,,False,,,,
45,Close,,,"(0.010002799075796832, 0.16004478517433812, 0.04289323765696492)","(-0.0009148584090699577, 5.7178691569402595e-05, -2.615520523253533e-08)",,"[-0.026750000193715096, 0.05299999937415123, 0.03999999910593033]","[0.0, -0.0, 0.7844889896573499]","[-0.07761538028717041, 0.10395795851945877, 0.03999999910593033]","[0.0, -0.0, 0.06979037514545033]","[0.026750000193715096, 0.05299999937415123, 0.03999999910593033]","[0.0, 0.0, -0.7848969068252226]","[0.07763615995645523, 0.10393720120191574, 0.03999999910593033]","[0.0, 0.0, -0.07216786709232846]",0.7660400558284302,-4.427734822091471,"(0.0, 0.0, 0.0, 0.0, 0.0, 0.0)",0.7617842585328375,-0.7332288222135146,-4.44725952950288,"(0.0, 0.0, 0.0, 0.0, 0.0, 0.0)",0.10051055612556806,-0.7664071826199014,4.437524869864038,"(0.0, 0.0, 0.0, 0.0, 0.0, 0.0)",-0.7638799793048979,0.7314562121459494,4.494529309062177,"(0.0, 0.0, 0.0, 0.0, 0.0, 0.0)",-0.10114588070786824,False,,,,,False,,,,
46,Close,,,"(0.010002963358557236, 0.16004741369625017, 0.04384907226694074)","(-0.0009685918795946493, 6.053703485636736e-05, -2.9317842489583264e-08)",,"[-0.026750000193715096, 0.05299999937415123, 0.03999999910593033]","[0.0, -0.0, 0.7660400058439011]","[-0.07666666060686111, 0.10488764196634293, 0.03999999910593033]","[0.0, -0.0, 0.0328112365488731]","[0.026750000193715096, 0.05299999937415123, 0.03999999910593033]","[0.0, 0.0, -0.7664072421942376]","[0.07668570429086685, 0.1048693135380745, 0.03999999910593033]","[0.0, 0.0, -0.03495097036229706]",0.7494360502455871,-3.984961339882325,"(0.0, 0.0, 0.0, 0.0, 0.0, 0.0)",0.6858274268188955,-0.7499060350622873,-4.002531083705426,"(0.0, 0.0, 0.0, 0.0, 0.0, 0.0)",0.09061088591719418,-0.7497664643579113,3.9937723828776335,"(0.0, 0.0, 0.0, 0.0, 0.0, 0.0)",-0.6877158393779155,0.7483106866034595,4.045073869802414,"(0.0, 0.0, 0.0, 0.0, 0.0, 0.0)",-0.09118463108881669,False,,,,,False,,,,
47,Close,,,"(0.010003127607656072, 0.16005004167957756, 0.04463109991511072)","(-0.0010223162788461832, 6.389481101241881e-05, -3.266035557177819e-08)",,"[-0.026750000193715096, 0.05299999937415123, 0.03999999910593033]","[0.0, -0.0, 0.7494360616149593]","[-0.07579827308654785, 0.1057092696428299, 0.03999999910593033]","[0.0, 0.0, -0.00046998485639781964]","[0.026750000193715096, 0.05299999937415123, 0.03999999910593033]","[0.0, 0.0, -0.7497665229086657]","[0.07581568509340286, 0.10569305717945099, 0.03999999910593033]","[0.0, 0.0, -0.0014557777936095985]",0.7344924452210284,-3.5864652058940925,"(0.0, 0.0, 0.0, 0.0, 0.0, 0.0)",0.6173964503690262,-0.7649166300024903,-3.602542785648727,"(0.0, 0.0, 0.0, 0.0, 0.0, 0.0)",0.08164469448201127,-0.7347898179221202,3.594395144589871,"(0.0, 0.0, 0.0, 0.0, 0.0, 0.0)",-0.61909767957405,0.7634808239898891,3.6408329727431203,"(0.0, 0.0, 0.0, 0.0, 0.0, 0.0)",-0.08216247127692902,False,,,,,False,,,,
48,Close,,,"(0.010003291824242136, 0.16005266914270105, 0.04523936165140331)","(-0.0010760316083767074, 6.725202012489063e-05, -3.618265319583079e-08)",,"[-0.026750000193715096, 0.05299999937415123, 0.03999999910593033]","[0.0, -0.0, 0.7344924171356654]","[-0.07500515878200531, 0.10643631219863892, 0.03999999910593033]","[0.0, 0.0, -0.03042418292779103]","[0.026750000193715096, 0.05299999937415123, 0.03999999910593033]","[0.0, 0.0, -0.7347898072320369]","[0.07502105087041855, 0.10642196238040924, 0.03999999910593033]","[0.0, -0.0, 0.028691003185096618]",0.7210432006989256,-3.227818685304683,"(0.0, 0.0, 0.0, 0.0, 0.0, 0.0)",0.5558325671900768,-0.77842604750784,-3.2422602012839143,"(0.0, 0.0, 0.0, 0.0, 0.0, 0.0)",0.07360992294062317,-0.7213108361299082,3.234955630130884,"(0.0, 0.0, 0.0, 0.0, 0.0, 0.0)",-0.5573653507703412,0.7771338289584356,3.2767211924511668,"(0.0, 0.0, 0.0, 0.0, 0.0, 0.0)",-0.07407739542501454,False,,,,,False,,,,
49,Close,,,"(0.010003456009463264, 0.16005529610398603, 0.04567389610019914)","(-0.0011297378697381003, 7.060866228110946e-05, -3.988464411418517e-08)",,"[-0.026750000193715096, 0.05299999937415123, 0.03999999910593033]","[0.0, -0.0, 0.7210432248946826]","[-0.07428213953971863, 0.10708045959472656, 0.03999999910593033]","[0.0, 0.0, -0.05738284539856889]","[0.026750000193715096, 0.05299999937415123, 0.03999999910593033]","[0.0, 0.0, -0.7213108742429458]","[0.07429660856723785, 0.10706773400306702, 0.03999999910593033]","[0.0, -0.0, 0.0558229905847104]",0.708938880629033,-2.905036816774215,"(0.0, 0.0, 0.0, 0.0, 0.0, 0.0)",0.5003668258645501,-0.7905844163893876,-2.9180085315714246,"(0.0, 0.0, 0.0, 0.0, 0.0, 0.0)",0.06632913423961855,-0.7091797525169173,2.911460067117798,"(0.0, 0.0, 0.0, 0.0, 0.0, 0.0)",-0.5017475327577147,0.7894214258858812,2.9490232625869344,"(0.0, 0.0, 0.0, 0.0, 0.0, 0.0)",-0.06675089596581112,False,,,,,False,,,,
50,Close,,,"(0.010001644182078712, 0.16005595153396976, 0.045940321410535084)","(-0.0011271805217326655, 1.767785898679914e-05, -1.508889111938428e-08)",,"[-0.026750000193715096, 0.05299999937415123, 0.03999999910593033]","[0.0, -0.0, 0.7089389671526269]","[-0.07362406700849533, 0.10765182226896286, 0.03999999910593033]","[0.0, 0.0, -0.08164554069303018]","[0.026750000193715096, 0.05299999937415123, 0.03999999910593033]","[0.0, 0.0, -0.7091797033714331]","[0.0736372321844101, 0.10764053463935852, 0.03999999910593033]","[0.0, -0.0, 0.08024167743029369]",0.6980449925661297,-2.6145331350967917,"(0.0, 0.0, 0.0, 0.0, 0.0, 0.0)",0.4504252929298086,-0.8015268519725993,-2.6261845399708146,"(0.0, 0.0, 0.0, 0.0, 0.0, 0.0)",0.059761147909024356,-0.6982617772652256,2.6203140604060167,"(0.0, 0.0, 0.0, 0.0, 0.0, 0.0)",-0.4516689022418484,0.8004801661036254,2.6540976522586175,"(0.0, 0.0, 0.0, 0.0, 0.0, 0.0)",-0.06014157277442886,False,,,,,False,,,,
51,Close,,,"(0.009998458164918766, 0.16005543218265145, 0.046184544665354044)","(-0.001116587313714928, -4.731063982249702e-05, 3.3486629919706074e-09)",,"[-0.026750000193715096, 0.05299999937415123, 0.03999999910593033]","[0.0, -0.0, 0.6980450466292163]","[-0.07302592694759369, 0.10815921425819397, 0.03999999910593033]","[0.0, 0.0, -0.1034818592301779]","[0.026750000193715096, 0.05299999937415123, 0.03999999910593033]","[0.0, 0.0, -0.6982617371246688]","[0.07303788512945175, 0.10814917832612991, 0.03999999910593033]","[0.0, -0.0, 0.10221840210156648]",0.6882404933095168,-2.3530798215871136,"(0.0, 0.0, 0.0, 0.0, 0.0, 0.0)",0.40545980991383274,-0.8113749570468809,-2.3635452178275753,"(0.0, 0.0, 0.0, 0.0, 0.0, 0.0)",0.0538375991228723,-0.688435599538703,2.358282654365416,"(0.0, 0.0, 0.0, 0.0, 0.0, 0.0)",-0.4065798463491374,0.810432944800545,2.3886668872606847,"(0.0, 0.0, 0.0, 0.0, 0.0, 0.0)",-0.0541806611811555,False,,,,,False,,,,
52,Close,,,"(0.0099979269032565, 0.16005188637635104, 0.04640949954916324)","(-0.0010442772263960227, -5.814874739306873e-05, 7.787963860925158e-09)",,"[-0.026750000193715096, 0.05299999937415123, 0.03999999910593033]","[0.0, -0.0, 0.688240548987758]","[-0.07248289883136749, 0.10861026495695114, 0.03999999910593033]","[0.0, 0.0, -0.12313446206189271]","[0.026750000193715096, 0.05299999937415123, 0.03999999910593033]","[0.0, 0.0, -0.6884356086136862]","[0.07249374687671661, 0.10860133916139603, 0.03999999910593033]","[0.0, -0.0, 0.1219973374555316]",0.679416393078237,-2.117784055507141,"(0.0, 0.0, 0.0, 0.0, 0.0, 0.0)",0.3649762140031281,-0.8202374613421928,-2.12700103087486,"(0.0, 0.0, 0.0, 0.0, 0.0, 0.0)",0.04851286211734207,-0.6795919883598663,2.1224666829208143,"(0.0, 0.0, 0.0, 0.0, 0.0, 0.0)",-0.36598488497268467,0.8193896503204905,2.149609324786922,"(0.0, 0.0, 0.0, 0.0, 0.0, 0.0)",-0.04882227338805697,False,,,,,False,,,,
53,Close,,,"(0.009997966950406065, 0.16004795201914346, 0.046616050094935475)","(-0.0009640430328522325, -5.7324486097668704e-05, 4.2980615420070005e-09)",,"[-0.026750000193715096, 0.05299999937415123, 0.03999999910593033]","[0.0, -0.0, 0.6794163791618646]","[-0.07199041545391083, 0.10901165008544922, 0.03999999910593033]","[0.0, 0.0, -0.1408210743259801]","[0.026750000193715096, 0.05299999937415123, 0.03999999910593033]","[0.0, 0.0, -0.6795920181483843]","[0.07200025022029877, 0.1090037003159523, 0.03999999910593033]","[0.0, -0.0, 0.13979766167419433]",0.6714747537704133,-1.9059934338776885,"(0.0, 0.0, 0.0, 0.0, 0.0, 0.0)",0.3285291326313333,-0.8282143561304102,-1.914454749172182,"(0.0, 0.0, 0.0, 0.0, 0.0, 0.0)",0.043663125146434535,-0.6716327895238797,1.9102077206367922,"(0.0, 0.0, 0.0, 0.0, 0.0, 0.0)",-0.3294374536237565,0.8274513303019508,1.934803195550486,"(0.0, 0.0, 0.0, 0.0, 0.0, 0.0)",-0.043941831288343336,False,,,,,False,,,,
54,Close,,,"(0.009998107600018924, 0.16004411888380865, 0.0468059782297436)","(-0.0008858309445970004, -5.447527859797503e-05, 4.128601528647624e-08)",,"[-0.026750000193715096, 0.05299999937415123, 0.03999999910593033]","[0.0, -0.0, 0.6714747449539094]","[-0.07154417037963867, 0.10936915874481201, 0.03999999910593033]","[0.0, 0.0, -0.15673960659097733]","[0.026750000193715096, 0.05299999937415123, 0.03999999910593033]","[0.0, 0.0, -0.6716327690441329]","[0.07155308127403259, 0.10936208069324493, 0.03999999910593033]","[0.0, -0.0, 0.15581855230220754]",0.664327278393372,-1.7153940904899205,"(0.0, 0.0, 0.0, 0.0, 0.0, 0.0)",0.2957170811345372,-0.8353934979980445,-1.7229940482322428,"(0.0, 0.0, 0.0, 0.0, 0.0, 0.0)",0.03934112702889199,-0.6644695105714917,1.7191869485731137,"(0.0, 0.0, 0.0, 0.0, 0.0, 0.0)",-0.2965349881453131,0.8347067784412298,1.7413075534269409,"(0.0, 0.0, 0.0, 0.0, 0.0, 0.0)",-0.039592428071821256,False,,,,,False,,,,
55,Close,,,"(0.009998248644105466, 0.16004048002584464, 0.0469807018618576)","(-0.0008115684428503489, -5.1596750749095254e-05, 7.881188886077776e-08)",,"[-0.026750000193715096, 0.05299999937415123, 0.03999999910593033]","[0.0, -0.0, 0.6643273336690038]","[-0.07114013284444809, 0.10968788713216782, 0.03999999910593033]","[0.0, 0.0, -0.17106622141763456]","[0.026750000193715096, 0.05299999937415123, 0.03999999910593033]","[0.0, 0.0, -0.6644694779113771]","[0.07114819437265396, 0.10968156903982162, 0.03999999910593033]","[0.0, -0.0, 0.17023725548976373]",0.6578945505540348,-1.543854681440929,"(0.0, 0.0, 0.0, 0.0, 0.0, 0.0)",0.2661784897251144,-0.8418546682622772,-1.5506808634158242,"(0.0, 0.0, 0.0, 0.0, 0.0, 0.0)",0.03542959308904228,-0.6580225595143425,1.547268253715802,"(0.0, 0.0, 0.0, 0.0, 0.0, 0.0)",-0.26691494494593054,0.8412366239853526,1.567162930589489,"(0.0, 0.0, 0.0, 0.0, 0.0, 0.0)",-0.035656056287006674,False,,,,,False,,,,
56,Close,,,"(0.009998390752654573, 0.16003702894197389, 0.04714144752999396)","(-0.0007411380797103218, -4.869650481896534e-05, 1.1687517768299383e-07)",,"[-0.026750000193715096, 0.05299999937415123, 0.03999999910593033]","[0.0, -0.0, 0.6578945475257985]","[-0.07077455520629883, 0.1099722608923912, 0.03999999910593033]","[0.0, 0.0, -0.18396012465064338]","[0.026750000193715096, 0.05299999937415123, 0.03999999910593033]","[0.0, 0.0, -0.6580225896942233]","[0.07078184932470322, 0.10996662080287933, 0.03999999910593033]","[0.0, -0.0, 0.18321406389742323]",0.6521050954986313,-1.3894692132968354,"(0.0, 0.0, 0.0, 0.0, 0.0, 0.0)",0.23958744527110798,-0.8476696697618468,-1.395600359896693,"(0.0, 0.0, 0.0, 0.0, 0.0, 0.0)",0.031904902566438624,-0.6522203035629083,1.392541428344221,"(0.0, 0.0, 0.0, 0.0, 0.0, 0.0)",-0.24025052935853647,0.8471134329078756,1.410434141405507,"(0.0, 0.0, 0.0, 0.0, 0.0, 0.0)",-0.032108956045352514,False,,,,,False,,,,
57,Close,,,"(0.009998534235924597, 0.16003375955333046, 0.04728933347451534)","(-0.0006744157946989166, -4.576820860538318e-05, 1.554405829918684e-07)",,"[-0.026750000193715096, 0.05299999937415123, 0.03999999910593033]","[0.0, -0.0, 0.6521051450040646]","[-0.07044398784637451, 0.11022617667913437, 0.03999999910593033]","[0.0, 0.0, -0.19556454293122102]","[0.026750000193715096, 0.05299999937415123, 0.03999999910593033]","[0.0, 0.0, -0.6522203497730787]","[0.07045057415962219, 0.11022114753723145, 0.03999999910593033]","[0.0, -0.0, 0.19489313608724637]",0.6468945859487681,-1.250522291967151,"(0.0, 0.0, 0.0, 0.0, 0.0, 0.0)",0.2156503992603495,-0.8529031244958994,-1.2560291361726517,"(0.0, 0.0, 0.0, 0.0, 0.0, 0.0)",0.02872919688306315,-0.6469982732066174,1.253287285509799,"(0.0, 0.0, 0.0, 0.0, 0.0, 0.0)",-0.2162473971085442,0.8524025140258721,1.2693794683191757,"(0.0, 0.0, 0.0, 0.0, 0.0, 0.0)",-0.02891303657535659,False,,,,,False,,,,
58,Close,,,"(0.009998679410322496, 0.16003066597344334, 0.0474253884764576)","(-0.0006112814540129935, -4.2805404436077314e-05, 1.9447426774393396e-07)",,"[-0.026750000193715096, 0.05299999937415123, 0.03999999910593033]","[0.0, -0.0, 0.6468945636476681]","[-0.07014521211385727, 0.11045306921005249, 0.03999999910593033]","[0.0, 0.0, -0.20600854729134555]","[0.026750000193715096, 0.05299999937415123, 0.03999999910593033]","[0.0, 0.0, -0.6469982503054421]","[0.07015117257833481, 0.11044856905937195, 0.03999999910593033]","[0.0, -0.0, 0.20540423443750838]",0.6422051273538913,-1.125470062770436,"(0.0, 0.0, 0.0, 0.0, 0.0, 0.0)",0.1941029233168818,-0.8576131917611358,-1.1304161436567226,"(0.0, 0.0, 0.0, 0.0, 0.0, 0.0)",0.025868240883426936,-0.6422984458859556,1.1279585569588184,"(0.0, 0.0, 0.0, 0.0, 0.0, 0.0)",-0.19464040126091972,0.8571626447690798,1.1424313783698345,"(0.0, 0.0, 0.0, 0.0, 0.0, 0.0)",-0.026033851694478666,False,,,,,False,,,,
59,Move,,,"(0.009998826598722164, 0.16002774252192944, 0.04755055901421763)","(-0.0005516191299448554, -3.980150267197137e-05, 2.339437659612592e-07)","[0.0, 0.0, 0.0]","[-0.026750000193715096, 0.05299999937415123, 0.03999999910593033]","[0.0, -0.0, 0.6422051137296667]","[-0.0698753148317337, 0.11065594106912613, 0.03999999910593033]","[0.0, 0.0, -0.2154080556264429]","[0.026750000193715096, 0.05299999937415123, 0.03999999910593033]","[0.0, 0.0, -0.6422983956794274]","[0.06988069415092468, 0.1106519103050232, 0.03999999910593033]","[0.0, -0.0, 0.21486417441436167]",0.6379846146185022,-1.0129230564933929,"(0.0, 0.0, 0.0, 0.0, 0.0, 0.0)",0.17470684718642912,-0.8618522144704561,-1.0173654502368856,"(0.0, 0.0, 0.0, 0.0, 0.0, 0.0)",0.023291096758263134,-0.6380686012973601,1.0151627012629356,"(0.0, 0.0, 0.0, 0.0, 0.0, 0.0)",-0.1751907229705418,0.8614467243673204,1.02817910357775,"(0.0, 0.0, 0.0, 0.0, 0.0, 0.0)",-0.023440272040621463,False,,,,,True,"(0.04276013174954747, 0.17974174897294792, 0.02399995643463635)","(-0.9999999990838299, -1.9447426661030803e-07, -4.2805404423670755e-05)",0.0013234533115717422,0.0
60,Move,,,"(0.008529162475457952, 0.15974954236529276, 0.0477048393377401)","(0.0013879222534856654, 0.003092032969080396, 0.019607357714227783)","[-0.001469664123264212, -0.00027820015663668207, 0.00015428032352246546]","[-0.026750000193715096, 0.05299999937415123, 0.03999999910593033]","[0.0, -0.0, 0.6379846501970732]","[-0.06963159143924713, 0.1108374372124672, 0.03999999910593033]","[0.0, 0.0, -0.22386762157269943]","[0.026750000193715096, 0.05299999937415123, 0.03999999910593033]","[0.0, 0.0, -0.638068602671057]","[0.06963644921779633, 0.11083383113145828, 0.03999999910593033]","[0.0, -0.0, 0.22337816170537766]",0.6141590059460926,-5.718146081378292,"(0.0, 0.0, 0.0, 0.0, 0.0, 0.0)",-6.715100343954979,-0.8614283121995241,0.10173654502368734,"(0.0, 0.0, 0.0, 0.0, 0.0, 0.0)",-0.37236374372155323,-0.6186460352886096,4.661415842100123,"(0.0, 0.0, 0.0, 0.0, 0.0, 0.0)",6.428194854706253,0.8610182254653614,-0.10283973647015276,"(0.0, 0.0, 0.0, 0.0, 0.0, 0.0)",0.9829946930619015,False,,,,,True,"(0.041928616181162004, 0.17969877893574898, 0.023999959438538117)","(-0.9999999992078928, -2.3394376620903917e-07, -3.980150265941498e-05)",0.0004918567139684023,10.112171877912418
61,Move,,,"(0.006723996611826882, 0.15936533702962205, 0.047765255621499005)","(6.714398616458164e-05, 0.002674296973039989, 0.04262647064426384)","[-0.0032748299868952824, -0.0006624054923073941, 0.00021469660728137135]","[-0.026750000193715096, 0.05299999937415123, 0.03999999910593033]","[0.0, -0.0, 0.6141590305095613]","[-0.06824154406785965, 0.11184260249137878, 0.03999999910593033]","[0.0, 0.0, -0.24726930604170874]","[0.026750000193715096, 0.05299999937415123, 0.03999999910593033]","[0.0, 0.0, -0.618646044105948]","[0.06850515305995941, 0.1116558387875557, 0.03999999910593033]","[0.0, -0.0, 0.24237220045044397]",0.5923752537221402,-5.228100533748594,"(0.0, 0.0, 0.0, 0.0, 0.0, 0.0)",0.6968351830029317,-0.8614707024266173,-0.010173654502368734,"(0.0, 0.0, 0.0, 0.0, 0.0, 0.0)",0.0386094337653134,-0.6008326176855909,4.2752202247244835,"(0.0, 0.0, 0.0, 0.0, 0.0, 0.0)",-0.2843818339581164,0.8610616731657038,0.010427448082156607,"(0.0, 0.0, 0.0, 0.0, 0.0, 0.0)",0.12162564932151312,False,,,,,True,"(0.03949436769622908, 0.17998210851349686, 0.023999959438538117)","(-0.9999999992078928, -2.3394376620903917e-07, -3.980150265941498e-05)",-6.347605402235445e-06,0.5640853154323047
62,Move,,,"(0.004916021046565853, 0.1589665718711254, 0.047720958898252924)","(-0.002763020338407607, 0.0006108079306357897, 0.0667691707902313)","[-0.005082805552156311, -0.0010611706508040497, 0.00017039988403529105]","[-0.026750000193715096, 0.05299999937415123, 0.03999999910593033]","[0.0, -0.0, 0.5923752994005711]","[-0.0669499859213829, 0.1127324104309082, 0.03999999910593033]","[0.0, 0.0, -0.2690954538189607]","[0.026750000193715096, 0.05299999937415123, 0.03999999910593033]","[0.0, 0.0, -0.6008327423896315]","[0.06745371967554092, 0.11239029467105865, 0.03999999910593033]","[0.0, -0.0, 0.2602290700881579]",0.5712150347036751,-5.078452564431617,"(0.0, 0.0, 0.0, 0.0, 0.0, 0.0)",0.2157952503283588,-0.861466463403908,0.0010173654502363396,"(0.0, 0.0, 0.0, 0.0, 0.0, 0.0)",0.016130538686302622,-0.5829836595254625,4.283749958430823,"(0.0, 0.0, 0.0, 0.0, 0.0, 0.0)",0.03654686188668907,0.8610568520052067,-0.0011570785193177847,"(0.0, 0.0, 0.0, 0.0, 0.0, 0.0)",0.013369392840733865,False,,,,,True,"(0.03722753437306846, 0.1801876577450428, 0.023999959438538117)","(-0.9999999992078928, -2.3394376620903917e-07, -3.980150265941498e-05)",-3.03090440028451e-06,0.20086448022229916
63,Move,,,"(0.003038586218639499, 0.15852968790700625, 0.047692659289474)","(-0.0025911153149836925, -0.0037098076030427207, 0.0892309075356073)","[-0.006960240380082665, -0.0014980546149231944, 0.00014210027525636548]","[-0.026750000193715096, 0.05299999937415123, 0.03999999910593033]","[0.0, -0.0, 0.5712149816841382]","[-0.06567712873220444, 0.11356961727142334, 0.03999999910593033]","[0.0, 0.0, -0.2902514434627483]","[0.026750000193715096, 0.05299999937415123, 0.03999999910593033]","[0.0, 0.0, -0.5829835823925363]","[0.06638723611831665, 0.11310731619596481, 0.03999999910593033]","[0.0, -0.0, 0.27807322292986936]",0.5508803967687295,-4.88031310438695,"(0.0, 0.0, 0.0, 0.0, 0.0, 0.0)",0.28503070876654335,-0.8614668873061792,-0.0001017365450710142,"(0.0, 0.0, 0.0, 0.0, 0.0, 0.0)",0.019917833408555515,-0.5651641840502668,4.2766741140469655,"(0.0, 0.0, 0.0, 0.0, 0.0, 0.0)",0.11956537689041521,0.8610565492790112,-7.265428690530302e-05,"(0.0, 0.0, 0.0, 0.0, 0.0, 0.0)",0.07009334439305036,False,,,,,True,"(0.03495614298930945, 0.18035455290140667, 0.023999959438538117)","(-0.9999999992078928, -2.3394376620903917e-07, -3.980150265941498e-05)",-3.483078081115776e-06,1.0531113700940868
64,Move,,,"(0.0020261779141126004, 0.159147963083264, 0.04760521211159295)","(0.002583370481578668, -0.003056729446151124, 0.09297246090683914)","[-0.007972648684609564, -0.0008797794386654345, 5.465309737531787e-05]","[-0.026750000193715096, 0.05299999937415123, 0.03999999910593033]","[0.0, -0.0, 0.5508804375563766]","[-0.06443750858306885, 0.11434861272573471, 0.03999999910593033]","[0.0, 0.0, -0.31058647044401844]","[0.026750000193715096, 0.05299999937415123, 0.03999999910593033]","[0.0, 0.0, -0.5651641731913941]","[0.06530991941690445, 0.11380404978990555, 0.03999999910593033]","[0.0, -0.0, 0.2958923811960855]",0.5325313952836437,-4.403760356420582,"(0.0, 0.0, 0.0, 0.0, 0.0, 0.0)",-38.47384383842257,-0.8434648155280273,4.320497226756436,"(0.0, 0.0, 0.0, 0.0, 0.0, 0.0)",-19.707773442051234,-0.5485203526437034,3.9945195375752336,"(0.0, 0.0, 0.0, 0.0, 0.0, 0.0)",38.40865227596146,0.8426940994674212,-4.406987954781599,"(0.0, 0.0, 0.0, 0.0, 0.0, 0.0)",20.213574547080277,True,"(-0.030837162206202397, 0.1807147684040986, 0.056003710559052795)","(0.9960147094140643, 0.08911192973728252, 0.0037097990935676286)",0.000295955962769222,310.9113148279181,True,"(0.032686946379462796, 0.18046390406811386, 0.023996289440947206)","(-0.9960147094140644, -0.08911192973728094, -0.0037097990935709194)",-4.010570765232737e-05,237.4598751600436
65,Move,"(0.0005, 0.0, 0.0007)","(0.0, 0.025778513051956248, 0.0)","(0.0011700253639096666, 0.15976182515520135, 0.04751897038725052)","(0.007930122363363799, -0.00226657279137191, 0.09692309735704685)","[-0.008828801234812498, -0.00026591736672809674, -3.1588626967116173e-05]","[-0.026750000193715096, 0.05299999937415123, 0.03999999910593033]","[0.0, -0.0, 0.5325313658465014]","[-0.06330554187297821, 0.11502977460622787, 0.03999999910593033]","[0.0, 0.0, -0.3109334583254266]","[0.026750000193715096, 0.05299999937415123, 0.03999999910593033]","[0.0, 0.0, -0.548520392495979]","[0.06429261714220047, 0.11443737894296646, 0.03999999910593033]","[0.0, -0.0, 0.2941737789306636]",0.5150286261073844,-4.20066460230223,"(0.0, 0.0, 0.0, 0.0, 0.0, 0.0)",-43.15160519850692,-0.8255232606133882,4.305973179513399,"(0.0, 0.0, 0.0, 0.0, 0.0, 0.0)",-22.03627704391551,-0.5318939745440465,3.990330743917647,"(0.0, 0.0, 0.0, 0.0, 0.0, 0.0)",43.6676935048907,0.8241209847892994,-4.457547522749228,"(0.0, 0.0, 0.0, 0.0, 0.0, 0.0)",23.068483497500033,True,"(-0.02968254207398162, 0.18138834120873254, 0.056003057484645)","(0.9956765214355997, 0.09283814461792712, 0.0030567246857756626)",-0.0019557974209563206,339.7172576639441,True,"(0.03178474084630808, 0.1811477674564546, 0.02399694251535476)","(-0.9956765214355902, -0.0928381446180211, -0.0030567246860136047)",0.00016315936690381586,263.2480870713977
66,Move,"(0.0010333000000000002, 0.0, 0.0012)","(0.0, 0.04875053666670562, 0.0)","(0.001371632122108864, 0.16011062259289857, 0.047489315494889314)","(0.005709479379069741, 0.001208621295138418, 0.09122056407074575)","[-0.0086271944766133, 8.288007096912686e-05, -6.124351932831895e-05]","[-0.026750000193715096, 0.05299999937415123, 0.03999999910593033]","[0.0, -0.0, 0.5150286173626178]","[-0.06221430376172066, 0.11566006392240524, 0.03999999910593033]","[0.0, 0.0, -0.3104946497228739]","[0.026750000193715096, 0.05299999937415123, 0.03999999910593033]","[0.0, 0.0, -0.5318939608755999]","[0.06326599419116974, 0.11505305767059326, 0.03999999910593033]","[0.0, -0.0, 0.2922270319249003]",0.5151986520321145,0.04080622193521233,"(0.0, 0.0, 0.0, 0.0, 0.0, 0.0)",4.938899510567163,-0.8273169186883481,-0.43047793799038914,"(0.0, 0.0, 0.0, 0.0, 0.0, 0.0)",-0.4403504141921288,-0.5353548413697682,-0.8306080381731942,"(0.0, 0.0, 0.0, 0.0, 0.0, 0.0)",-6.48850920225969,0.8259782962570948,0.445754752270906,"(0.0, 0.0, 0.0, 0.0, 0.0, 0.0)",0.008537882732001754,True,"(-0.02862075758073663, 0.18203687365922727, 0.05600226731562215)","(0.9953040758649819, 0.09677116937979674, 0.0022665708506747376)",-0.003960922893090458,5.753776113130583,True,"(0.03091578949574346, 0.18154523231783662, 0.023997716044379027)","(-0.9953040509812058, -0.09677103449881742, -0.0022831956617496516)",0.00022377337919692118,0.0
67,Move,"(0.00298, 0.0, 0.00196)","(0.0, 0.07401766824782753, 0.0)","(0.0016684143942570775, 0.16047181868017307, 0.047496984217042466)","(0.0015241976245561784, 0.0010931438545223645, 0.08383331028675886)","[-0.008330412204465086, 0.0004440761582436281, -5.357479717516683e-05]","[-0.026750000193715096, 0.05299999937415123, 0.03999999910593033]","[0.0, -0.0, 0.5151986070404266]","[-0.06222495436668396, 0.11565402895212173, 0.03999999910593033]","[0.0, 0.0, -0.31211826141107524]","[0.026750000193715096, 0.05299999937415123, 0.03999999910593033]","[0.0, 0.0, -0.5353548591233216]","[0.06348053365945816, 0.1149263083934784, 0.03999999910593033]","[0.0, -0.0, 0.2906234375915852]",0.5134174686248725,-0.4274840177380855,"(0.0, 0.0, 0.0, 0.0, 0.0, 0.0)",-0.7480279971616733,-0.8271368727137193,0.04321103391091563,"(0.0, 0.0, 0.0, 0.0, 0.0, 0.0)",-0.06006151426714908,-0.5371341156591315,-0.4270258294471967,"(0.0, 0.0, 0.0, 0.0, 0.0, 0.0)",0.5348049560348639,0.8257925651103153,-0.0445754752270906,"(0.0, 0.0, 0.0, 0.0, 0.0, 0.0)",-0.009000895595879181,True,"(-0.02852368370219001, 0.18197621187582552, 0.05600226731562215)","(0.9953040758649819, 0.09677116937979674, 0.0022665708506747376)",-0.0036441447532252597,0.0,True,"(0.031236993183141715, 0.18147027378983963, 0.023997716044379027)","(-0.9953040509812058, -0.09677103449881742, -0.0022831956617496516)",0.00027778461409146615,0.0
68,Move,"(0.0042429, 0.0, 0.0024286)","(0.0, 0.09476090640778015, 0.0)","(0.0019695510055339795, 0.16052936865689205, 0.04755122861828821)","(-0.0009387700948390016, 0.0015395849888996402, 0.08192839240585158)","[-0.008029275593188185, 0.0005016261349626017, 6.696040705800321e-07]","[-0.026750000193715096, 0.05299999937415123, 0.03999999910593033]","[0.0, -0.0, 0.5134175227560166]","[-0.06211329996585846, 0.11571712046861649, 0.03999999910593033]","[0.0, 0.0, -0.3137194005595488]","[0.026750000193715096, 0.05299999937415123, 0.03999999910593033]","[0.0, 0.0, -0.5371341794302095]","[0.0635906532406807, 0.11486086249351501, 0.03999999910593033]","[0.0, -0.0, 0.2886584418523338]",0.5112538375589399,-0.5192714558238094,"(0.0, 0.0, 0.0, 0.0, 0.0, 0.0)",-2.8108280594802166,-0.825877402730433,0.3022727959887096,"(0.0, 0.0, 0.0, 0.0, 0.0, 0.0)",-1.3963178981911795,-0.5391806236548793,-0.4911619189794684,"(0.0, 0.0, 0.0, 0.0, 0.0, 0.0)",2.351621048921434,0.8247702347034094,-0.24535929765741288,"(0.0, 0.0, 0.0, 0.0, 0.0, 0.0)",1.1656050159609186,True,"(-0.02830588148472471, 0.1819852544982723, 0.05600226731562215)","(0.9953040758649819, 0.09677116937979674, 0.0022665708506747376)",-0.0033449353519434525,18.471587302978985,True,"(0.03147794029139596, 0.18146805232629382, 0.023997716044379027)","(-0.9953040509812058, -0.09677103449881742, -0.0022831956617496516)",4.951991568922832e-05,11.727380644595918
69,Move,"(0.0053, 0.0, 0.0029556)","(0.0, 0.09914691881804188, 0.0)","(0.002256094242932054, 0.1605785514623913, 0.047655109988629124)","(-0.0013102637815294378, 0.002059049258136042, 0.07970400033243644)","[-0.0077427323557901105, 0.000550808940461861, 0.00010455097441149086]","[-0.026750000193715096, 0.05299999937415123, 0.03999999910593033]","[0.0, -0.0, 0.5112538384993144]","[-0.06197752058506012, 0.11579348146915436, 0.03999999910593033]","[0.0, 0.0, -0.3146235603381796]","[0.026750000193715096, 0.05299999937415123, 0.03999999910593033]","[0.0, 0.0, -0.5391805914936147]","[0.06371717900037766, 0.114785335958004, 0.03999999910593033]","[0.0, -0.0, 0.28558959888667673]",0.5090093638689831,-0.5386736855896495,"(0.0, 0.0, 0.0, 0.0, 0.0, 0.0)",-2.9966909364710146,-0.8247214552426527,0.2774273970672507,"(0.0, 0.0, 0.0, 0.0, 0.0, 0.0)",-1.4420721573797879,-0.5414373390809405,-0.5416117022546875,"(0.0, 0.0, 0.0, 0.0, 0.0, 0.0)",2.2433312129878344,0.8238638205847241,-0.21753938848448287,"(0.0, 0.0, 0.0, 0.0, 0.0, 0.0)",1.113857244040692,True,"(-0.028110198869621142, 0.18203102634107676, 0.05600226731562215)","(0.9953040758649819, 0.09677116937979674, 0.0022665708506747376)",-0.003186183785790033,20.181205697728984,True,"(0.031809019403541944, 0.1814907630752664, 0.023997716044379027)","(-0.9953040509812058, -0.09677103449881742, -0.0022831956617496516)",5.2829106958737526e-05,8.988393129739725
70,Move,"(0.0063, 0.0, 0.0040455)","(0.0, 0.08607963870836034, 0.0)","(0.0025775820779161216, 0.16062112996648822, 0.04774810755151727)","(-0.0016903627920146452, 0.002533143546711819, 0.07767261146169897)","[-0.007421244520806043, 0.0005933874445587795, 0.00019754853729963412]","[-0.026750000193715096, 0.05299999937415123, 0.03999999910593033]","[0.0, -0.0, 0.5090094483107658]","[-0.061836495995521545, 0.11587239056825638, 0.03999999910593033]","[0.0, 0.0, -0.31571209635468117]","[0.026750000193715096, 0.05299999937415123, 0.03999999910593033]","[0.0, 0.0, -0.5414372969087894]","[0.06385651975870132, 0.1147017553448677, 0.03999999910593033]","[0.0, -0.0, 0.2824264944403926]",0.5066058550888491,-0.5768421072321464,"(0.0, 0.0, 0.0, 0.0, 0.0, 0.0)",-2.747619780295808,-0.823680665471916,0.2497895449768248,"(0.0, 0.0, 0.0, 0.0, 0.0, 0.0)",-1.3051399875827985,-0.5438206249907318,-0.5719886183499069,"(0.0, 0.0, 0.0, 0.0, 0.0, 0.0)",2.039796940585813,0.8230415910416371,-0.19733509034087546,"(0.0, 0.0, 0.0, 0.0, 0.0, 0.0)",0.9992822007589633,True,"(-0.027897090711038117, 0.182073030651769, 0.05600226731562215)","(0.9953040758649819, 0.09677116937979674, 0.0022665708506747376)",-0.0030507479598173163,18.108289422836275,True,"(0.03215951425563307, 0.18150777718083522, 0.023997716044379027)","(-0.9953040509812058, -0.09677103449881742, -0.0022831956617496516)",8.549193517447215e-05,6.238724523594571
71,Move,"(0.0073231, 0.0, 0.005438500000000001)","(0.0, 0.07385884328589604, 0.0)","(0.0029271563713639285, 0.16064721730083661, 0.04782049551253751)","(-0.002354078305635158, 0.002769854164473968, 0.07581565085327406)","[-0.007071670227358236, 0.0006194747789071697, 0.0002699364983198768]","[-0.026750000193715096, 0.05299999937415123, 0.03999999910593033]","[0.0, -0.0, 0.5066058270462522]","[-0.06168527901172638, 0.11595654487609863, 0.03999999910593033]","[0.0, 0.0, -0.3170748388588154]","[0.026750000193715096, 0.05299999937415123, 0.03999999910593033]","[0.0, 0.0, -0.5438205651552693]","[0.06400346010923386, 0.11461314558982849, 0.03999999910593033]","[0.0, -0.0, 0.2792209869102652]",0.504036367042144,-0.6166771312092318,"(0.0, 0.0, 0.0, 0.0, 0.0, 0.0)",-2.268635805969632,-0.8227914776365577,0.2134050804859891,"(0.0, 0.0, 0.0, 0.0, 0.0, 0.0)",-1.1283806441685393,-0.5463766291888361,-0.6134410075450236,"(0.0, 0.0, 0.0, 0.0, 0.0, 0.0)",1.6142347276450104,0.8223888347377031,-0.15666151294415326,"(0.0, 0.0, 0.0, 0.0, 0.0, 0.0)",0.800715566113678,True,"(-0.027654631332804616, 0.1820982428033726, 0.02399746611622034)","(0.9969818002391164, 0.07759428580422423, -0.0025331408375940546)",-0.0030226984958643672,17.63379938414419,True,"(0.03252077187512497, 0.18152042842159716, 0.023997716044379027)","(-0.9953040509812058, -0.09677103449881742, -0.0022831956617496516)",9.692574309570931e-05,6.027789112055534
72,Move,"(0.0084733, 0.0, 0.0068133)","(0.0, 0.06566452244778267, 0.0)","(0.00328638536748238, 0.16066983601762497, 0.047888032401174487)","(-0.0030941673822347717, 0.002909950078883098, 0.07393758878597254)","[-0.006712441231239784, 0.0006420934956955227, 0.0003374733869568533]","[-0.026750000193715096, 0.05299999937415123, 0.03999999910593033]","[0.0, -0.0, 0.5040363849473668]","[-0.061523400247097015, 0.11604610085487366, 0.03999999910593033]","[0.0, 0.0, -0.31875511558533415]","[0.026750000193715096, 0.05299999937415123, 0.03999999910593033]","[0.0, 0.0, -0.5463766249686104]","[0.06416082382202148, 0.11451772600412369, 0.03999999910593033]","[0.0, -0.0, 0.2760121752305809]",0.5013196672694532,-0.652007945445806,"(0.0, 0.0, 0.0, 0.0, 0.0, 0.0)",-2.2490987879965423,-0.8218793360455431,0.21891398184350552,"(0.0, 0.0, 0.0, 0.0, 0.0, 0.0)",-1.1325931517553085,-0.5491062037743729,-0.655097900528827,"(0.0, 0.0, 0.0, 0.0, 0.0, 0.0)",1.6094798849420568,0.8217231788590105,-0.1597574108862186,"(0.0, 0.0, 0.0, 0.0, 0.0, 0.0)",0.796667348739753,True,"(-0.02738164751153311, 0.18213034941047795, 0.0239972294134353)","(0.9971235449072339, 0.07574274961446455, -0.002769850622713001)",-0.0029085565109865895,17.395236402460778,True,"(0.03289298462550138, 0.18152568305287192, 0.023997716044379027)","(-0.9953040509812058, -0.09677103449881742, -0.0022831956617496516)",9.002477476395689e-05,5.36926781052127
73,Move,"(0.0107533, 0.0, 0.0092467)","(0.0, 0.06556678400967099, 0.0)","(0.003688124627466452, 0.16065528866867382, 0.04791503898738436)","(-0.003164421751250566, 0.0022297743054589102, 0.0727873669118656)","[-0.006310701971255712, 0.0006275461467443733, 0.00036447997316672864]","[-0.026750000193715096, 0.05299999937415123, 0.03999999910593033]","[0.0, -0.0, 0.5013197102610104]","[-0.061351992189884186, 0.11614033579826355, 0.03999999910593033]","[0.0, 0.0, -0.32055967604500263]","[0.026750000193715096, 0.05299999937415123, 0.03999999910593033]","[0.0, 0.0, -0.5491062087566185]","[0.06432860344648361, 0.11441537737846375, 0.03999999910593033]","[0.0, -0.0, 0.2726169640199594]",0.49842058839456993,-0.6957789299719904,"(0.0, 0.0, 0.0, 0.0, 0.0, 0.0)",-2.017635027560972,-0.8210392371197799,0.20162374218317566,"(0.0, 0.0, 0.0, 0.0, 0.0, 0.0)",-1.0655438159524337,-0.5520086615040214,-0.696589855115646,"(0.0, 0.0, 0.0, 0.0, 0.0, 0.0)",1.428445032414171,0.8211406555060676,-0.13980560470628672,"(0.0, 0.0, 0.0, 0.0, 0.0, 0.0)",0.7120138958147604,True,"(-0.0270910398209843, 0.1821627938497969, 0.023997089315479513)","(0.9972636391521393, 0.0738699278426017, -0.0029099459720677225)",-0.0027999031021098382,14.794586213581916,True,"(0.033288449516067145, 0.18152911347186879, 0.023997716044379027)","(-0.9953040509812058, -0.09677103449881742, -0.0022831956617496516)",9.436165489247169e-05,5.663340472787864
74,Move,"(0.01282, 0.0, 0.01202)","(0.0, 0.06374815092909289, 0.0)","(0.0041337430039483855, 0.16062165696302141, 0.04792539151036656)","(-0.0026719384916254452, 0.0017096991794210714, 0.07149866750217429)","[-0.005865083594773779, 0.0005939144410919694, 0.00037483249614892605]","[-0.026750000193715096, 0.05299999937415123, 0.03999999910593033]","[0.0, -0.0, 0.498420589355679]","[-0.06116879731416702, 0.11624038219451904, 0.03999999910593033]","[0.0, 0.0, -0.3226186491158473]","[0.026750000193715096, 0.05299999937415123, 0.03999999910593033]","[0.0, 0.0, -0.5520086791807411]","[0.06450670212507248, 0.11430604755878448, 0.03999999910593033]","[0.0, -0.0, 0.2691320215414537]",0.49509856584462103,-0.7972854119877386,"(0.0, 0.0, 0.0, 0.0, 0.0, 0.0)",-2.117252900737511,-0.8201599072541103,0.2110391677607119,"(0.0, 0.0, 0.0, 0.0, 0.0, 0.0)",-1.092656050123606,-0.5553117406595588,-0.7927389973289886,"(0.0, 0.0, 0.0, 0.0, 0.0, 0.0)",1.3471186885729245,0.820561344151612,-0.1390347250693525,"(0.0, 0.0, 0.0, 0.0, 0.0, 0.0)",0.6857419367960131,True,"(-0.02677204358833244, 0.18219306627147247, 0.023997769481388855)","(0.9973496895730113, 0.0727229318949999, -0.002229772457759609)",-0.0026771811840627237,14.7923083131956,True,"(0.03370062463632782, 0.18152755120652203, 0.023997716044379027)","(-0.9953040509812058, -0.09677103449881742, -0.0022831956617496516)",6.923258431491476e-05,7.306131585349672
75,Move,"(0.0147133, 0.0, 0.0150133)","(0.0, 0.05173330435836393, 0.0)","(0.004605930933424036, 0.16058473344715166, 0.04793504554718945)","(-0.0019235043560761644, 0.0014374135329611071, 0.06962564404478139)","[-0.005392895665298128, 0.0005569909252222116, 0.00038448653297181584]","[-0.026750000193715096, 0.05299999937415123, 0.03999999910593033]","[0.0, -0.0, 0.4950986105312914]","[-0.06095852330327034, 0.11635437607765198, 0.03999999910593033]","[0.0, 0.0, -0.32506137139149877]","[0.026750000193715096, 0.05299999937415123, 0.03999999910593033]","[0.0, 0.0, -0.5553117869058366]","[0.06470899283885956, 0.11418100446462631, 0.03999999910593033]","[0.0, -0.0, 0.2652495893865074]",0.4914284373637964,-0.8808308353979191,"(0.0, 0.0, 0.0, 0.0, 0.0, 0.0)",-2.0806300483051703,-0.8192837357788749,0.21028115405646752,"(0.0, 0.0, 0.0, 0.0, 0.0, 0.0)",-1.0872311410677749,-0.5589321850649736,-0.8689066572995354,"(0.0, 0.0, 0.0, 0.0, 0.0, 0.0)",1.3810171402872164,0.8199832848018052,-0.1387342439536487,"(0.0, 0.0, 0.0, 0.0, 0.0, 0.0)",0.679193399215519,True,"(-0.026400849469043183, 0.18222399091462899, 0.023998289550570866)","(0.9974436011673542, 0.07143766108897943, -0.0017096983464931876)",-0.002564594557628852,14.702000412120574,True,"(0.0341641286674845, 0.18152159793143482, 0.023997716044379027)","(-0.9953040509812058, -0.09677103449881742, -0.0022831956617496516)",5.40287584453223e-05,8.160643000126626
76,Move,"(0.016606700000000002, 0.0, 0.01824)","(0.0, 0.03701494277629574, 0.0)","(0.005106811458746395, 0.16054248925443085, 0.047945071610427936)","(-0.0011258553365948185, 0.0012171510473362487, 0.06737145310561894)","[-0.004892015139975769, 0.0005147467325014032, 0.000394512596210303]","[-0.026750000193715096, 0.05299999937415123, 0.03999999910593033]","[0.0, -0.0, 0.49142845217172276]","[-0.060725774616003036, 0.11647950112819672, 0.03999999910593033]","[0.0, 0.0, -0.3278553106781106]","[0.026750000193715096, 0.05299999937415123, 0.03999999910593033]","[0.0, 0.0, -0.5589321994117966]","[0.06493024528026581, 0.11404316872358322, 0.03999999910593033]","[0.0, -0.0, 0.26105110122995845]",0.4874405572622799,-0.9570912243639564,"(0.0, 0.0, 0.0, 0.0, 0.0, 0.0)",-2.0341790723011206,-0.8184210138780815,0.20705325619041234,"(0.0, 0.0, 0.0, 0.0, 0.0, 0.0)",-1.0704174263854775,-0.5628460365385364,-0.9393243536550765,"(0.0, 0.0, 0.0, 0.0, 0.0, 0.0)",1.3747204690593195,0.8194156693535221,-0.13622770758793626,"(0.0, 0.0, 0.0, 0.0, 0.0, 0.0)",0.6695557668123908,True,"(-0.025984262367693974, 0.18225322275778552, 0.023998561833599694)","(0.9975760832988857, 0.06956933141703281, -0.001437413037974059)",-0.0024628238030902205,14.412210935016727,True,"(0.03466837995233786, 0.18151141766988482, 0.023997716044379027)","(-0.9953040509812058, -0.09677103449881742, -0.0022831956617496516)",4.827629453081868e-05,8.134691876852315
77,Move,"(0.0184067, 0.0, 0.0213067)","(0.0, 0.03182782423936859, 0.0)","(0.005638372173942489, 0.16049343133009925, 0.04795582176438645)","(-0.0003368563873050246, 0.0010108043667008564, 0.06476635895167399)","[-0.0043604544247796756, 0.00046568880816980074, 0.0004052627501688194]","[-0.026750000193715096, 0.05299999937415123, 0.03999999910593033]","[0.0, -0.0, 0.487440550350315]","[-0.060472358018159866, 0.11661448329687119, 0.03999999910593033]","[0.0, 0.0, -0.33098045876961607]","[0.026750000193715096, 0.05299999937415123, 0.03999999910593033]","[0.0, 0.0, -0.5628460301186747]","[0.06516886502504349, 0.11389327049255371, 0.03999999910593033]","[0.0, -0.0, 0.2565696312194915]",0.4831273916715276,-1.0351597417805674,"(0.0, 0.0, 0.0, 0.0, 0.0, 0.0)",-1.9926917065349141,-0.8175747981051492,0.2030917855037636,"(0.0, 0.0, 0.0, 0.0, 0.0, 0.0)",-1.0498459596049452,-0.567054220610142,-1.0099641771853396,"(0.0, 0.0, 0.0, 0.0, 0.0, 0.0)",1.3510657389602352,0.8188585496093583,-0.13370873859929794,"(0.0, 0.0, 0.0, 0.0, 0.0, 0.0)",0.6572782158694955,True,"(-0.02552551890661401, 0.18228018424939976, 0.02399878209419353)","(0.997730662880877, 0.06732044928062567, -0.0012171507468097156)",-0.002366722452381842,14.049955782599174,True,"(0.03520966040580806, 0.18149645830077216, 0.023997716044379027)","(-0.9953040509812058, -0.09677103449881742, -0.0022831956617496516)",4.540225074839888e-05,8.00322525116129
78,Move,"(0.020300000000000002, 0.0, 0.0239667)","(0.0, 0.03300068549670879, 0.0)","(0.006195289508694627, 0.16043777147377633, 0.04796754616287196)","(0.00039065162876320453, 0.0008122730855387606, 0.061875643423465146)","[-0.0038035370900275376, 0.0004100289518468858, 0.00041698714865432557]","[-0.026750000193715096, 0.05299999937415123, 0.03999999910593033]","[0.0, -0.0, 0.4831273713983496]","[-0.06019766256213188, 0.11675934493541718, 0.03999999910593033]","[0.0, 0.0, -0.33444739646541716]","[0.026750000193715096, 0.05299999937415123, 0.03999999910593033]","[0.0, 0.0, -0.5670542227806176]","[0.06542477756738663, 0.11373106390237808, 0.03999999910593033]","[0.0, -0.0, 0.25180434980444455]",0.47852534939883495,-1.104490145446222,"(0.0, 0.0, 0.0, 0.0, 0.0, 0.0)",-1.96073053119524,-0.8167320780308389,0.20225281783448146,"(0.0, 0.0, 0.0, 0.0, 0.0, 0.0)",-1.0408647540831455,-0.5715065456302374,-1.0685580048229086,"(0.0, 0.0, 0.0, 0.0, 0.0, 0.0)",1.3679672949349602,0.818302585287744,-0.1334314371874345,"(0.0, 0.0, 0.0, 0.0, 0.0, 0.0)",0.6574261893638507,True,"(-0.025023432253213018, 0.18230434893998987, 0.02399898843927371)","(0.9979028826195744, 0.06472105634508858, -0.0010108041945739532)",-0.0022753383668496015,13.878604223655286,True,"(0.03578805823071721, 0.18147624255227718, 0.023997716044379027)","(-0.9953040509812058, -0.09677103449881742, -0.0022831956617496516)",4.333554275819492e-05,7.948440018795241
79,Move,"(0.0218067, 0.0, 0.0265133)","(0.0, 0.031960469262520164, 0.0)","(0.006768400772175681, 0.16041145583475622, 0.04801463803398748)","(0.00012595460385472044, 0.0008118017883463835, 0.058314455358944056)","[-0.0032304258265464835, 0.00038371331282677223, 0.00046407901976984467]","[-0.026750000193715096, 0.05299999937415123, 0.03999999910593033]","[0.0, -0.0, 0.4785253490982869]","[-0.059903886169195175, 0.1169125959277153, 0.03999999910593033]","[0.0, 0.0, -0.33820675899193525]","[0.026750000193715096, 0.05299999937415123, 0.03999999910593033]","[0.0, 0.0, -0.5715065492182689]","[0.06569478660821915, 0.11355827003717422, 0.03999999910593033]","[0.0, -0.0, 0.24679604739721675]",0.4736225636393801,-1.1766685822691687,"(0.0, 0.0, 0.0, 0.0, 0.0, 0.0)",-1.9934101802171373,-0.8158866649639989,0.20289913604160068,"(0.0, 0.0, 0.0, 0.0, 0.0, 0.0)",-1.0365529591819842,-0.576205750035503,-1.1278090572637502,"(0.0, 0.0, 0.0, 0.0, 0.0, 0.0)",1.3783954058852694,0.8177321225900925,-0.1369110474363462,"(0.0, 0.0, 0.0, 0.0, 0.0, 0.0)",0.6649223271556849,True,"(-0.024483553396041753, 0.18232577365143182, 0.023999186969164005)","(0.9980859837909748, 0.06183614778251986, -0.0008122729962175615)",-0.002189815581959987,14.333944732824973,True,"(0.03639772617146166, 0.18145102752108935, 0.023997716044379027)","(-0.9953040509812058, -0.09677103449881742, -0.0022831956617496516)",4.26728550479456e-05,7.4058192807650745
80,Move,"(0.023379999999999998, 0.0, 0.0288867)","(0.0, 0.03021688533977783, 0.0)","(0.00736343540534193, 0.16037727428830714, 0.048055240475463605)","(-0.0001285350023231796, 0.0006708319364310358, 0.05477396883315414)","[-0.0026353911933802345, 0.00034953176637769756, 0.0005046814612459719]","[-0.026750000193715096, 0.05299999937415123, 0.03999999910593033]","[0.0, -0.0, 0.47362256572024325]","[-0.05959014222025871, 0.11707437038421631, 0.03999999910593033]","[0.0, 0.0, -0.3422640817018719]","[0.026750000193715096, 0.05299999937415123, 0.03999999910593033]","[0.0, 0.0, -0.5762056934067878]","[0.06597892940044403, 0.11337459087371826, 0.03999999910593033]","[0.0, -0.0, 0.24152635787725704]",0.4685073698540174,-1.2276465084870414,"(0.0, 0.0, 0.0, 0.0, 0.0, 0.0)",-1.9599152568586597,-0.8150346432502105,0.20448521130922867,"(0.0, 0.0, 0.0, 0.0, 0.0, 0.0)",-1.047377760399285,-0.581064888623556,-1.1661932611327237,"(0.0, 0.0, 0.0, 0.0, 0.0, 0.0)",1.4278384021735078,0.8171606241243033,-0.1371596317893987,"(0.0, 0.0, 0.0, 0.0, 0.0, 0.0)",0.6780159502439845,True,"(-0.023904721854701112, 0.18234379508840792, 0.023999187440459792)","(0.9982998649723297, 0.05828139132029608, -0.0008118016991809347)",-0.002113768949363602,14.152920427069118,True,"(0.03704004817110006, 0.18142079241571862, 0.023997716044379027)","(-0.9953040509812058, -0.09677103449881742, -0.0022831956617496516)",4.9158678477540615e-05,6.923295677952491
81,Move,"(0.02522, 0.0, 0.0307933)","(0.0, 0.022254693292179693, 0.0)","(0.00798052114570533, 0.16032880053633422, 0.048094723290656095)","(-0.0004961233887290178, 0.00039397122073377345, 0.051131608150033474)","[-0.002018305453016834, 0.00030105801440477586, 0.0005441642764384622]","[-0.026750000193715096, 0.05299999937415123, 0.03999999910593033]","[0.0, -0.0, 0.4685073386119591]","[-0.05926195904612541, 0.1172415167093277, 0.03999999910593033]","[0.0, 0.0, -0.3465272472721394]","[0.026750000193715096, 0.05299999937415123, 0.03999999910593033]","[0.0, 0.0, -0.5810648486043185]","[0.0662718340754509, 0.11318325996398926, 0.03999999910593033]","[0.0, -0.0, 0.2360957413153761]",0.4631587139720893,-1.28367741166275,"(0.0, 0.0, 0.0, 0.0, 0.0, 0.0)",-1.9496705093833961,-0.8141867989993008,0.20348262021832106,"(0.0, 0.0, 0.0, 0.0, 0.0, 0.0)",-1.044177513728745,-0.5861056803449193,-1.209790013127189,"(0.0, 0.0, 0.0, 0.0, 0.0, 0.0)",1.4206276808553215,0.8165893864569043,-0.13709704017577073,"(0.0, 0.0, 0.0, 0.0, 0.0, 0.0)",0.6803841816294549,True,"(-0.023298650365912596, 0.1823589356600928, 0.023999328409411633)","(0.9985000565082576, 0.0547465719254396, -0.0006708318861167867)",-0.0020404637987802127,13.952214460933835,True,"(0.03770291153722512, 0.1813856139914795, 0.023997716044379027)","(-0.9953040509812058, -0.09677103449881742, -0.0022831956617496516)",5.2019030227838866e-05,6.690708605482613
82,Move,"(0.0268067, 0.0, 0.0325133)","(0.0, 0.015933110741456237, 0.0)","(0.008627321032533627, 0.16025901763783332, 0.04812928464464694)","(-0.0008232076568782298, 2.384030711330345e-05, 0.04735771135931439)","[-0.0013715055661885373, 0.00023127511590387284, 0.0005787256304293081]","[-0.026750000193715096, 0.05299999937415123, 0.03999999910593033]","[0.0, -0.0, 0.46315868610587646]","[-0.05891789123415947, 0.11741448938846588, 0.03999999910593033]","[0.0, 0.0, -0.3510281046525933]","[0.026750000193715096, 0.05299999937415123, 0.03999999910593033]","[0.0, 0.0, -0.5861056680108433]","[0.06657470017671585, 0.11298327147960663, 0.03999999910593033]","[0.0, -0.0, 0.23048370437625987]",0.45750730745913265,-1.356337563109592,"(0.0, 0.0, 0.0, 0.0, 0.0, 0.0)",-1.9819702675500712,-0.8133301945606999,0.2055850652642202,"(0.0, 0.0, 0.0, 0.0, 0.0, 0.0)",-1.0561349263838915,-0.5913872587937198,-1.26757882771211,"(0.0, 0.0, 0.0, 0.0, 0.0, 0.0)",1.4171094672840856,0.8160110100966069,-0.13881032647136576,"(0.0, 0.0, 0.0, 0.0, 0.0, 0.0)",0.686543642611163,True,"(-0.022661908558284885, 0.18237024547935007, 0.023999605268830288)","(0.9986929865982663, 0.05110932699733276, -0.00039397121049762217)",-0.0019706366580436417,13.937511877773552,True,"(0.038388980908478004, 0.18134488366902973, 0.023997716044379027)","(-0.9953040509812058, -0.09677103449881742, -0.0022831956617496516)",5.2469601769727346e-05,6.741895563757623
83,Move,"(0.0280467, 0.0, 0.0340933)","(0.0, 0.013753194505715318, 0.0)","(0.009289387148690983, 0.1601851062150411, 0.048155880440695104)","(-0.0009371277996060332, -7.49273680625261e-05, 0.04334007565908596)","[-0.0007094394500311817, 0.0001573636931116451, 0.0006053214264774703]","[-0.026750000193715096, 0.05299999937415123, 0.03999999910593033]","[0.0, -0.0, 0.4575072889662123]","[-0.05855334550142288, 0.11759525537490845, 0.03999999910593033]","[0.0, 0.0, -0.35582290246487797]","[0.026750000193715096, 0.05299999937415123, 0.03999999910593033]","[0.0, 0.0, -0.5913873075501868]","[0.06689095497131348, 0.11277209967374802, 0.03999999910593033]","[0.0, -0.0, 0.22462376308615456]",0.45163336690856415,-1.4097457321364364,"(0.0, 0.0, 0.0, 0.0, 0.0, 0.0)",-2.294191785812447,-0.8123180594725457,0.24291242115701606,"(0.0, 0.0, 0.0, 0.0, 0.0, 0.0)",-1.2366419590803217,-0.5968454814107863,-1.3099734280959703,"(0.0, 0.0, 0.0, 0.0, 0.0, 0.0)",1.740891414341767,0.8153243364896787,-0.16480166566275842,"(0.0, 0.0, 0.0, 0.0, 0.0, 0.0)",0.8148700634468086,True,"(-0.02198633229811496, 0.1823764234323595, 0.023999605268830288)","(0.9986929865982663, 0.05110932699733276, -0.00039397121049762217)",-0.001905166022522638,14.37419135804358,True,"(0.03910630793299866, 0.1812977031151953, 0.023997716044379027)","(-0.9953040509812058, -0.09677103449881742, -0.0022831956617496516)",5.189012718855316e-05,7.752409316652125
84,Move,"(0.029833300000000004, 0.0, 0.0353867)","(0.0, 0.01060985652287353, 0.0)","(0.00996310201946071, 0.16011080257774385, 0.048110273857517705)","(0.0024710258676283276, -2.1318763226069392e-05, 0.038629394689013496)","[-3.5724579261453906e-05, 8.306005581440457e-05, 0.0005597148433000715]","[-0.026750000193715096, 0.05299999937415123, 0.03999999910593033]","[0.0, -0.0, 0.4516333689458885]","[-0.058173369616270065, 0.11778095364570618, 0.03999999910593033]","[0.0, 0.0, -0.3606847153741875]","[0.026750000193715096, 0.05299999937415123, 0.03999999910593033]","[0.0, 0.0, -0.5968455240395109]","[0.06721660494804382, 0.11255211383104324, 0.03999999910593033]","[0.0, -0.0, 0.2184788784151697]",0.4456104048632572,-1.4455108908736638,"(0.0, 0.0, 0.0, 0.0, 0.0, 0.0)",-2.2922389816716104,-0.8113380170960417,0.23521017036095654,"(0.0, 0.0, 0.0, 0.0, 0.0, 0.0)",-1.2430392848964869,-0.6023881167186078,-1.33023247387716,"(0.0, 0.0, 0.0, 0.0, 0.0, 0.0)",1.8226369379055791,0.8146468433597158,-0.16259835119110516,"(0.0, 0.0, 0.0, 0.0, 0.0, 0.0)",0.8091156341621786,True,"(-0.02129183710563755, 0.18238357232854704, 0.023999605268830288)","(0.9986929865982663, 0.05110932699733276, -0.00039397121049762217)",-0.001843915440765605,13.963348881395055,True,"(0.03987439450984236, 0.18040853803941498, 0.023999924312672786)","(-0.9990609631174918, -0.043326508752024484, -7.492736798466304e-05)",-6.312430936180985e-06,15.11595474844905
85,Move,"(0.03132, 0.0, 0.03646)","(0.0, 0.010536552694289771, 0.0)","(0.010645275628716288, 0.16002521624773755, 0.04815529924761391)","(0.0022883561481490513, 8.457124838713577e-05, 0.03357612734454964)","[0.0006464490299941238, -2.5262741918941067e-06, 0.000604740233396274]","[-0.026750000193715096, 0.05299999937415123, 0.03999999910593033]","[0.0, -0.0, 0.4456103859613904]","[-0.05778263136744499, 0.11796903610229492, 0.03999999910593033]","[0.0, 0.0, -0.36572764139144154]","[0.026750000193715096, 0.05299999937415123, 0.03999999910593033]","[0.0, 0.0, -0.6023880796767243]","[0.0675460547208786, 0.11232690513134003, 0.03999999910593033]","[0.0, -0.0, 0.21225872978862878]",0.4393053594686693,-1.5132108947010987,"(0.0, 0.0, 0.0, 0.0, 0.0, 0.0)",-2.4714043765234965,-0.8103227975215475,0.24365269787861182,"(0.0, 0.0, 0.0, 0.0, 0.0, 0.0)",-1.2613694760767793,-0.6081319275119835,-1.3785145904101703,"(0.0, 0.0, 0.0, 0.0, 0.0, 0.0)",1.8450114372624653,0.8139363347833141,-0.17052205833641995,"(0.0, 0.0, 0.0, 0.0, 0.0, 0.0)",0.8389394930813637,True,"(-0.020575780816044963, 0.18238484668133886, 0.023999605268830288)","(0.9986929865982663, 0.05110932699733276, -0.00039397121049762217)",-0.0017778287628684158,15.711960440640734,True,"(0.040626448772910516, 0.18035209109576733, 0.023999924312672786)","(-0.9990609631174918, -0.043326508752024484, -7.492736798466304e-05)",-1.4950393713490774e-05,15.004358942539577
86,Move,"(0.032926699999999996, 0.0, 0.03718)","(0.0, 0.01592612942444826, 0.0)","(0.011350777569323907, 0.159935359905598, 0.04818731557331864)","(0.000988267384927065, 9.144282121450927e-05, 0.028416899802944318)","[0.0013519509706017424, -9.23826163314323e-05, 0.0006367565591010038]","[-0.026750000193715096, 0.05299999937415123, 0.03999999910593033]","[0.0, -0.0, 0.43930536287176514]","[-0.057372383773326874, 0.11816340684890747, 0.03999999910593033]","[0.0, 0.0, -0.37101742223984097]","[0.026750000193715096, 0.05299999937415123, 0.03999999910593033]","[0.0, 0.0, -0.6081319550873355]","[0.06788614392280579, 0.11209160834550858, 0.03999999910593033]","[0.0, -0.0, 0.2058044229584804]",0.43279836357445406,-1.5616790146116524,"(0.0, 0.0, 0.0, 0.0, 0.0, 0.0)",-2.3978310263712883,-0.8092650084137037,0.2538693858824946,"(0.0, 0.0, 0.0, 0.0, 0.0, 0.0)",-1.289476010689423,-0.6140039223706081,-1.4092787660698796,"(0.0, 0.0, 0.0, 0.0, 0.0, 0.0)",2.0240447238899995,0.8131695950806154,-0.18401752864768817,"(0.0, 0.0, 0.0, 0.0, 0.0, 0.0)",0.9045580077700994,True,"(-0.019825386385572345, 0.18238393067259417, 0.02399991466879247)","(0.9994363712156616, 0.03356981887014077, -8.457124831568067e-05)",-0.001736133068183541,14.848721754580465,True,"(0.041406150395237526, 0.1802891185571282, 0.023999924312672786)","(-0.9990609631174918, -0.043326508752024484, -7.492736798466304e-05)",-8.607823468796931e-06,15.946586903937758
87,Move,"(0.03468, 0.0, 0.0375667)","(0.0, 0.02275211212899808, 0.0)","(0.012071068111664793, 0.1598265433249757, 0.04821639639853379)","(-0.00030303324066223333, 9.61956932401686e-05, 0.023077212639840517)","[0.0020722415129426283, -0.0002011991969537441, 0.0006658373843161577]","[-0.026750000193715096, 0.05299999937415123, 0.03999999910593033]","[0.0, -0.0, 0.4327983529500023]","[-0.05694771930575371, 0.11836128681898117, 0.03999999910593033]","[0.0, 0.0, -0.3764666265581182]","[0.026750000193715096, 0.05299999937415123, 0.03999999910593033]","[0.0, 0.0, -0.6140039852987395]","[0.06823241710662842, 0.11184903979301453, 0.03999999910593033]","[0.0, -0.0, 0.19916568298594917]",0.4260653872377487,-1.6159143208092785,"(0.0, 0.0, 0.0, 0.0, 0.0, 0.0)",-2.4834185074003123,-0.8081714111094154,0.2624633530292168,"(0.0, 0.0, 0.0, 0.0, 0.0, 0.0)",-1.3332184835675656,-0.6200099479266281,-1.4414461334448176,"(0.0, 0.0, 0.0, 0.0, 0.0, 0.0)",2.1111675592199197,0.8123706814680898,-0.19173926700615385,"(0.0, 0.0, 0.0, 0.0, 0.0, 0.0)",0.9476338600416588,True,"(-0.019051339539561972, 0.18237654550284838, 0.023999907797219663)","(0.9995962628932261, 0.028413075301813393, -9.144282112003408e-05)",-0.001686992310798506,15.418482681907298,True,"(0.04220575019588939, 0.18022083950680562, 0.023999924312672786)","(-0.9990609631174918, -0.043326508752024484, -7.492736798466304e-05)",-8.82313868693368e-06,16.41257114455541
88,Move,"(0.03568, 0.0, 0.0379733)","(0.0, 0.02737548931753106, 0.0)","(0.012797273198564798, 0.15975896010686153, 0.04826318495354383)","(-0.000464570886717618, 0.00025886135122616516, 0.01764798569549025)","[0.0027984465998426335, -0.00026878241506791967, 0.0007126259393261947]","[-0.026750000193715096, 0.05299999937415123, 0.03999999910593033]","[0.0, -0.0, 0.4260653651181616]","[-0.056506961584091187, 0.11856312304735184, 0.03999999910593033]","[0.0, 0.0, -0.3821060251577686]","[0.026750000193715096, 0.05299999937415123, 0.03999999910593033]","[0.0, 0.0, -0.6200098784963703]","[0.0685851126909256, 0.11159883439540863, 0.03999999910593033]","[0.0, -0.0, 0.19236073600635406]",0.41908169449783056,-1.676086257580365,"(0.0, 0.0, 0.0, 0.0, 0.0, 0.0)",-2.7542418387536376,-0.8069863547494464,0.2844135263925662,"(0.0, 0.0, 0.0, 0.0, 0.0, 0.0)",-1.4530467530866802,-0.6261638052936004,-1.4769257680733332,"(0.0, 0.0, 0.0, 0.0, 0.0, 0.0)",2.132106653109393,0.8115537690429858,-0.19605898202495056,"(0.0, 0.0, 0.0, 0.0, 0.0, 0.0)",0.9703198270220164,True,"(-0.018250187471517812, 0.18236395376574488, 0.0239999030443477)","(0.9997337283200101, 0.023075164262924972, -9.619569308727321e-05)",-0.0016462021746688807,17.77520542469535,True,"(0.04302431368402815, 0.1801461606093986, 0.023999924312672786)","(-0.9990609631174918, -0.043326508752024484, -7.492736798466304e-05)",-6.504434714937826e-06,16.212814126455726
89,Move,"(0.03642, 0.0, 0.03824)","(0.0, 0.031885420104684405, 0.0)","(0.013525993995089605, 0.15969440234810156, 0.048304298721236906)","(-0.0006431014445360917, 0.0004006432679858803, 0.012228558808451107)","[0.00352716739636744, -0.00033334017382788406, 0.0007537397070192728]","[-0.026750000193715096, 0.05299999937415123, 0.03999999910593033]","[0.0, -0.0, 0.4190816812939508]","[-0.05604836717247963, 0.1187693327665329, 0.03999999910593033]","[0.0, 0.0, -0.38790469211806955]","[0.026750000193715096, 0.05299999937415123, 0.03999999910593033]","[0.0, 0.0, -0.6261638151451603]","[0.06894493103027344, 0.11134027689695358, 0.03999999910593033]","[0.0, -0.0, 0.18538997755174633]",0.4120213155930781,-1.6944909371405894,"(0.0, 0.0, 0.0, 0.0, 0.0, 0.0)",-2.7628388266592374,-0.8057628559638308,0.29363970854772514,"(0.0, 0.0, 0.0, 0.0, 0.0, 0.0)",-1.4964158498229732,-0.6323096066218495,-1.4749923187797989,"(0.0, 0.0, 0.0, 0.0, 0.0, 0.0)",2.266490074312437,0.8107053922570905,-0.2036104286148927,"(0.0, 0.0, 0.0, 0.0, 0.0, 0.0)",1.0108962754117912,True,"(-0.01742228674629768, 0.18234762759163292, 0.02399974037869243)","(0.9998442448427706, 0.017647069036880014, -0.0002588613483529336)",-0.0016270516458247086,18.374749850508884,True,"(0.04386257291270645, 0.18006411695120236, 0.023999924312672786)","(-0.9990609631174918, -0.043326508752024484, -7.492736798466304e-05)",1.0208637101094694e-05,15.26411765208024
90,Move,"(0.0378133, 0.0, 0.0382133)","(0.0, 0.036323792392505994, 0.0)","(0.014255728817569969, 0.15960458020717133, 0.04833115389635129)","(-0.0007290616975074128, 0.0005191162898104049, 0.007004650587463443)","[0.004256902218847804, -0.00042316231475811317, 0.0007805948821336534]","[-0.026750000193715096, 0.05299999937415123, 0.03999999910593033]","[0.0, -0.0, 0.4120213640456]","[-0.05558328703045845, 0.11897455155849457, 0.03999999910593033]","[0.0, 0.0, -0.3937415781558911]","[0.026750000193715096, 0.05299999937415123, 0.03999999910593033]","[0.0, 0.0, -0.6323096878563229]","[0.06930267810821533, 0.1110798567533493, 0.03999999910593033]","[0.0, -0.0, 0.17839579983512652]",0.4049350157618412,-1.7007119594968518,"(0.0, 0.0, 0.0, 0.0, 0.0, 0.0)",-2.8307100295747887,-0.8044795682785121,0.30798904447649755,"(0.0, 0.0, 0.0, 0.0, 0.0, 0.0)",-1.564825917631376,-0.6384149696335085,-1.465287122798152,"(0.0, 0.0, 0.0, 0.0, 0.0, 0.0)",2.3646208294328765,0.8098314309890499,-0.20975070432974183,"(0.0, 0.0, 0.0, 0.0, 0.0, 0.0)",1.0488337188247734,True,"(-0.016586770210699806, 0.18232672406400663, 0.02399959859678353)","(0.999925151854947, 0.01222825305764343, -0.00040064325725495183)",-0.0016129810460473576,18.59356492059637,True,"(0.04470159789179646, 0.1799774432627898, 0.023999924312672786)","(-0.9990609631174918, -0.043326508752024484, -7.492736798466304e-05)",2.550955428221304e-05,14.562422231719243
91,Move,"(0.03896670000000001, 0.0, 0.03816)","(0.0, 0.042544145846613785, 0.0)","(0.014998573983256176, 0.15949330020604335, 0.048358026924768656)","(-0.0009469193591509651, 0.0006056696401689735, 0.00163911090437063)","[0.004999747384534011, -0.0005344423158860911, 0.0008074679105510227]","[-0.026750000193715096, 0.05299999937415123, 0.03999999910593033]","[0.0, -0.0, 0.4049350132225413]","[-0.055115051567554474, 0.11917721480131149, 0.03999999910593033]","[0.0, 0.0, -0.39954464365460907]","[0.026750000193715096, 0.05299999937415123, 0.03999999910593033]","[0.0, 0.0, -0.6384149667156281]","[0.06965648382902145, 0.11081897467374802, 0.03999999910593033]","[0.0, -0.0, 0.17141646749010084]",0.3976557590234029,-1.7470216172251958,"(0.0, 0.0, 0.0, 0.0, 0.0, 0.0)",-3.0180298678450286,-0.80314759385433,0.31967386180369994,"(0.0, 0.0, 0.0, 0.0, 0.0, 0.0)",-1.640727933730122,-0.6446151699714564,-1.4880480811075016,"(0.0, 0.0, 0.0, 0.0, 0.0, 0.0)",2.41927672080971,0.8089170608037143,-0.21944884448054705,"(0.0, 0.0, 0.0, 0.0, 0.0, 0.0)",1.0920733119699253,True,"(-0.015751563911197607, 0.1823026036111755, 0.023999480123774272)","(0.9999753327978285, 0.00700459236314099, -0.0005191162665115283)",-0.0016020689320729912,19.44472777153219,True,"(0.045536855079404706, 0.17988658235140254, 0.023999924312672786)","(-0.9990609631174918, -0.043326508752024484, -7.492736798466304e-05)",4.07545725747733e-05,13.864483815881803
92,Move,"(0.0396933, 0.0, 0.03812)","(0.0, 0.050687852136419326, 0.0)","(0.015748619151154674, 0.15936316150124896, 0.04838202068468413)","(-0.0011814962633223053, 0.0006626436777850918, -0.0037137425107154525)","[0.0057497925524325096, -0.0006645810206804825, 0.0008314616704664934]","[-0.026750000193715096, 0.05299999937415123, 0.03999999910593033]","[0.0, -0.0, 0.39765577998392115]","[-0.054632581770420074, 0.11938193440437317, 0.03999999910593033]","[0.0, 0.0, -0.40549184695775203]","[0.026750000193715096, 0.05299999937415123, 0.03999999910593033]","[0.0, 0.0, -0.644615157926655]","[0.07001414149999619, 0.11055183410644531, 0.03999999910593033]","[0.0, -0.0, 0.16430187133644514]",0.3902571116547191,-1.7756753684841022,"(0.0, 0.0, 0.0, 0.0, 0.0, 0.0)",-3.1164191709267977,-0.801759346362488,0.33317939804207336,"(0.0, 0.0, 0.0, 0.0, 0.0, 0.0)",-1.7092533689399498,-0.6508399373759246,-1.4939441770723665,"(0.0, 0.0, 0.0, 0.0, 0.0, 0.0)",2.5622972214383677,0.8079556615062388,-0.2307358313941368,"(0.0, 0.0, 0.0, 0.0, 0.0, 0.0)",1.1510511316571355,True,"(-0.014894370414829002, 0.18227268597493593, 0.02399939357043767)","(0.9999984732404178, 0.0016391098697803987, -0.0006056696031131351)",-0.0015961925369361184,20.221217423745323,True,"(0.04638650994574213, 0.1797892952666676, 0.023999924312672786)","(-0.9990609631174918, -0.043326508752024484, -7.492736798466304e-05)",5.5710765237551304e-05,13.253283939773004
