OSUrobotics/InHand-Manipulation/AnalyseData/Data/Trial Data/Even Better/new_hand_human_sub1_2v2_b_n_1_kpNone_kdNone_dp1_step7_save_data.csv
,Phase,human_cube_pos,human_cube_orn,Cube_Pos,Cube_Orn,Cube_pos_in_start_pos,b'l_prox_pin'_link_pos,b'l_prox_pin'_link_orn,b'l_distal_pin'_link_pos,b'l_distal_pin'_link_orn,b'r_prox_pin'_link_pos,b'r_prox_pin'_link_orn,b'r_distal_pin'_link_pos,b'r_distal_pin'_link_orn,b'l_prox_pin'_joint_angle,b'l_prox_pin'_joint_vel,b'l_prox_pin'_joint_react_forces,b'l_prox_pin'_joint_motor_torque,b'l_distal_pin'_joint_angle,b'l_distal_pin'_joint_vel,b'l_distal_pin'_joint_react_forces,b'l_distal_pin'_joint_motor_torque,b'r_prox_pin'_joint_angle,b'r_prox_pin'_joint_vel,b'r_prox_pin'_joint_react_forces,b'r_prox_pin'_joint_motor_torque,b'r_distal_pin'_joint_angle,b'r_distal_pin'_joint_vel,b'r_distal_pin'_joint_react_forces,b'r_distal_pin'_joint_motor_torque,in_contact_l,contact_point_l_dist,contact_normal_l_dist,contact_distance_l_dist,contact_norm_force_l_dist,in_contact_r,contact_point_r_dist,contact_normal_r_dist,contact_distance_r_dist,contact_norm_force_r_dist
0,Open,,,,,,"[-0.026750000193715096, 0.05299999937415123, 0.03999999910593033]","[0.0, -0.0, 0.6429307111289271]","[-0.06991713494062424, 0.11062463372945786, 0.03999999910593033]","[0.0, -0.0, 0.6429307111289271]","[0.026750000193715096, 0.05299999937415123, 0.03999999910593033]","[0.0, 0.0, -0.6673401753977319]","[0.07131072133779526, 0.10955388844013214, 0.03999999910593033]","[0.0, 0.0, -0.7848931559948581]",0.73563763,22.249663200000004,"(0.0, 0.0, 0.0, 0.0, 0.0, 0.0)",-3.552789792259023,5.294901130302062e-32,0.0,"(0.0, 0.0, 0.0, 0.0, 0.0, 0.0)",-0.24562369466220793,-0.7579917869736262,-21.756402491702737,"(0.0, 0.0, 0.0, 0.0, 0.0, 0.0)",34.46450837185191,-0.10794166402774508,2.3067105714488583,"(0.0, 0.0, 0.0, 0.0, 0.0, 0.0)",8.765009015475858,False,,,,,False,,,,
1,Open,,,,,,"[-0.026750000193715096, 0.05299999937415123, 0.03999999910593033]","[0.0, -0.0, 1.126585512342968]","[-0.09176240861415863, 0.08394166082143784, 0.03999999910593033]","[0.0, -0.0, 1.1265864725026016]","[0.026750000193715096, 0.05299999937415123, 0.03999999910593033]","[0.0, 0.0, -1.13846552283997]","[0.09212540090084076, 0.08316715806722641, 0.03999999910593033]","[0.0, 0.0, -1.1958309904194953]",1.1709270649523469,10.641944934604087,"(0.0, 0.0, 0.0, 0.0, 0.0, 0.0)",-1.7068426281171958,8.750681698751778e-07,1.0273240928962424e-05,"(0.0, 0.0, 0.0, 0.0, 0.0, 0.0)",-0.12011999884119333,-1.181618988934946,-10.356826961734775,"(0.0, 0.0, 0.0, 0.0, 0.0, 0.0)",1.6460093571929852,-0.051628943774705546,1.376743384776279,"(0.0, 0.0, 0.0, 0.0, 0.0, 0.0)",0.10168054944364863,False,,,,,False,,,,
2,Open,,,,,,"[-0.026750000193715096, 0.05299999937415123, 0.03999999910593033]","[0.0, -0.0, 1.3579163939939654]","[-0.09712471067905426, 0.0682118609547615, 0.03999999910593033]","[0.0, -0.0, 1.3579197824809437]","[0.026750000193715096, 0.05299999937415123, 0.03999999910593033]","[0.0, 0.0, -1.3635984874387626]","[0.09721000492572784, 0.06781173497438431, 0.03999999910593033]","[0.0, 0.0, -1.3910385869420074]",1.37912465663464,5.090009156409601,"(0.0, 0.0, 0.0, 0.0, 0.0, 0.0)",-0.8181093185961676,3.940702417530038e-06,0.0001221829934741677,"(0.0, 0.0, 0.0, 0.0, 0.0, 0.0)",-0.05806034967263589,-1.3842385697220883,-4.953638140744317,"(0.0, 0.0, 0.0, 0.0, 0.0, 0.0)",0.7887791417834831,-0.024696941374704916,0.6583930401894944,"(0.0, 0.0, 0.0, 0.0, 0.0, 0.0)",0.04906644857689494,False,,,,,False,,,,
3,Open,,,,,,"[-0.026750000193715096, 0.05299999937415123, 0.03999999910593033]","[0.0, -0.0, 1.4685611215819594]","[-0.09837405383586884, 0.06034812703728676, 0.03999999910593033]","[0.0, -0.0, 1.468565853091142]","[0.026750000193715096, 0.05299999937415123, 0.03999999910593033]","[0.0, 0.0, -1.4712788457263521]","[0.0983937606215477, 0.06015344336628914, 0.03999999910593033]","[0.0, 0.0, -1.4844061039497418]",1.4787049149819127,2.434535600482329,"(0.0, 0.0, 0.0, 0.0, 0.0, 0.0)",-0.39169363303347604,4.747151892642784e-06,-1.7351748576465223e-05,"(0.0, 0.0, 0.0, 0.0, 0.0, 0.0)",-0.02790732436186781,-1.4811508837585086,-2.3693097664397755,"(0.0, 0.0, 0.0, 0.0, 0.0, 0.0)",0.37761186810531283,-0.011814888241968555,0.3149714411852639,"(0.0, 0.0, 0.0, 0.0, 0.0, 0.0)",0.023565936472848985,False,,,,,False,,,,
4,Open,,,,,,"[-0.026750000193715096, 0.05299999937415123, 0.03999999910593033]","[0.0, -0.0, 1.5214821319654974]","[-0.09866246581077576, 0.05654918774962425, 0.03999999910593033]","[0.0, -0.0, 1.5214858439169519]","[0.026750000193715096, 0.05299999937415123, 0.03999999910593033]","[0.0, 0.0, -1.5227821585534602]","[0.09866702556610107, 0.05645570904016495, 0.03999999910593033]","[0.0, 0.0, -1.529061933448946]",1.5263338438506127,1.164430830650334,"(0.0, 0.0, 0.0, 0.0, 0.0, 0.0)",-0.18743587261192823,3.6440993970645793e-06,-4.480530101024996e-05,"(0.0, 0.0, 0.0, 0.0, 0.0, 0.0)",-0.013379159967550349,-1.527503743133955,-1.1332335164278682,"(0.0, 0.0, 0.0, 0.0, 0.0, 0.0)",0.18068846528573543,-0.005652184024362593,0.1506807000213291,"(0.0, 0.0, 0.0, 0.0, 0.0, 0.0)",0.011293655891939093,False,,,,,False,,,,
5,Close,,,"(0.010001154143305145, 0.16001846627704427, 0.023764738319401603)","(-0.00037702444213104407, 2.3564047280946926e-05, -4.4421109431381166e-09)",,"[-0.026750000193715096, 0.05299999937415123, 0.03999999910593033]","[0.0, -0.0, 1.1495694124992881]","[-0.09245633333921432, 0.08243940025568008, 0.03999999910593033]","[0.0, -0.0, 0.781011267034984]","[0.026750000193715096, 0.05299999937415123, 0.03999999910593033]","[0.0, 0.0, -1.1501911790213966]","[0.09247462451457977, 0.08239854127168655, 0.03999999910593033]","[0.0, 0.0, -0.7846348471850702]",1.094612382878832,-13.189663543435524,"(0.0, 0.0, 0.0, 0.0, 0.0, 0.0)",2.2496167473251543,-0.42170252928085916,-12.754678781513597,"(0.0, 0.0, 0.0, 0.0, 0.0, 0.0)",0.2843643258333828,-1.0951719420793669,13.204585122116455,"(0.0, 0.0, 0.0, 0.0, 0.0, 0.0)",-2.252737056530905,0.4190008694889591,12.826723295796969,"(0.0, 0.0, 0.0, 0.0, 0.0, 0.0)",-0.2852691684006919,False,,,,,False,,,,
6,Close,,,"(0.010002306014043007, 0.16003689619304312, 0.038982445123681576)","(-0.0007536035543313348, 4.7100258049582536e-05, -1.7747461781428295e-08)",,"[-0.026750000193715096, 0.05299999937415123, 0.03999999910593033]","[0.0, -0.0, 0.8628572443720113]","[-0.08144866675138474, 0.09981939941644669, 0.03999999910593033]","[0.0, -0.0, 0.2170432288886396]","[0.026750000193715096, 0.05299999937415123, 0.03999999910593033]","[0.0, 0.0, -0.8631546678742935]","[0.08146258443593979, 0.099803127348423, 0.03999999910593033]","[0.0, 0.0, -0.2187763625412299]",0.8365715694325584,-6.308575184868223,"(0.0, 0.0, 0.0, 0.0, 0.0, 0.0)",1.0812992509043695,-0.6712328180325469,-6.100497243883756,"(0.0, 0.0, 0.0, 0.0, 0.0, 0.0)",0.13959778581136742,-0.8368392048635407,6.315712129694417,"(0.0, 0.0, 0.0, 0.0, 0.0, 0.0)",-1.0828196858333279,0.669940625819459,6.13495583072817,"(0.0, 0.0, 0.0, 0.0, 0.0, 0.0)",-0.14005465943127962,False,,,,,False,,,,
7,Close,,,"(0.010003456009463264, 0.16005529610398603, 0.04567389610019914)","(-0.0011297378697381003, 7.060866228110946e-05, -3.988464411418517e-08)",,"[-0.026750000193715096, 0.05299999937415123, 0.03999999910593033]","[0.0, -0.0, 0.7257238967454298]","[-0.07453475147485733, 0.10685738176107407, 0.03999999910593033]","[0.0, 0.0, -0.05270242640930395]","[0.026750000193715096, 0.05299999937415123, 0.03999999910593033]","[0.0, 0.0, -0.7258660452937684]","[0.07454241067171097, 0.10685058683156967, 0.03999999910593033]","[0.0, -0.0, 0.051873472142222356]",0.7131514482877275,-3.0173719543394006,"(0.0, 0.0, 0.0, 0.0, 0.0, 0.0)",0.5184025208825043,-0.7905846201563427,-2.9180080507618555,"(0.0, 0.0, 0.0, 0.0, 0.0, 0.0)",0.06759447303629951,-0.7132794574846965,3.0207855329252413,"(0.0, 0.0, 0.0, 0.0, 0.0, 0.0)",-0.519136160964333,0.7899665793930325,2.934490014782911,"(0.0, 0.0, 0.0, 0.0, 0.0, 0.0)",-0.06781852044778111,False,,,,,False,,,,
8,Close,,,"(0.009998390752654573, 0.16003702894197389, 0.04714144752999396)","(-0.0007411380797103218, -4.869650481896534e-05, 1.1687517768299383e-07)",,"[-0.026750000193715096, 0.05299999937415123, 0.03999999910593033]","[0.0, -0.0, 0.6601333052853675]","[-0.07090199738740921, 0.10987355560064316, 0.03999999910593033]","[0.0, 0.0, -0.1817215367814823]","[0.026750000193715096, 0.05299999937415123, 0.03999999910593033]","[0.0, 0.0, -0.6602013898759537]","[0.07090586423873901, 0.1098705530166626, 0.03999999910593033]","[0.0, -0.0, 0.1813250884582479]",0.6541199529117874,-1.443198744314331,"(0.0, 0.0, 0.0, 0.0, 0.0, 0.0)",0.2482274900661027,-0.8476698209236043,-1.3955987254062228,"(0.0, 0.0, 0.0, 0.0, 0.0, 0.0)",0.03251713478727156,-0.6541811792007101,1.4448314453522693,"(0.0, 0.0, 0.0, 0.0, 0.0, 0.0)",-0.24857985019437154,0.8473742234517746,1.4034817490459632,"(0.0, 0.0, 0.0, 0.0, 0.0, 0.0)",-0.03262555411754297,False,,,,,False,,,,
9,Close,,,"(0.008562352819313064, 0.15963169911231415, 0.04795936059784778)","(0.002880050037504477, -0.0018080766405500393, 0.027156574699580344)",,"[-0.026750000193715096, 0.05299999937415123, 0.03999999910593033]","[0.0, -0.0, 0.6287615983534538]","[-0.06909634172916412, 0.11123047024011612, 0.03999999910593033]","[0.0, 0.0, -0.24342883421715172]","[0.026750000193715096, 0.05299999937415123, 0.03999999910593033]","[0.0, 0.0, -0.6288059721302652]","[0.06909892708063126, 0.1112285852432251, 0.03999999910593033]","[0.0, -0.0, 0.24295585513718987]",0.6258854057058539,-0.6902774854894381,"(0.0, 0.0, 0.0, 0.0, 0.0, 0.0)",0.11878846609148704,-0.8749713231347032,-0.6674313830745814,"(0.0, 0.0, 0.0, 0.0, 0.0, 0.0)",0.015594191474811038,-0.6259255556368085,0.6912982329409242,"(0.0, 0.0, 0.0, 0.0, 0.0, 0.0)",0.23889456753769728,0.8745816224765113,0.6767593625972839,"(0.0, 0.0, 0.0, 0.0, 0.0, 0.0)",0.18939691443679915,False,,,,,True,"(0.040048198705117485, 0.17954190147604243, 0.02399995236517949)","(-0.9999968496142797, -0.00250969405768167, -4.6874861287478436e-05)",-8.481535683957195e-06,2.863336982423626
10,Close,,,"(0.006550932617218737, 0.1596092828305802, 0.0483251587623615)","(-0.0017834562702292768, -0.0010167756829611687, 0.05931397896744555)",,"[-0.026750000193715096, 0.05299999937415123, 0.03999999910593033]","[0.0, -0.0, 0.613756569546664]","[-0.06821785867214203, 0.11185929924249649, 0.03999999910593033]","[0.0, 0.0, -0.2729424144036408]","[0.026750000193715096, 0.05299999937415123, 0.03999999910593033]","[0.0, 0.0, -0.6137811116925993]","[0.06821929663419724, 0.11185827851295471, 0.03999999910593033]","[0.0, -0.0, 0.2726303164980323]",0.6123809093043522,-0.3301575814493915,"(0.0, 0.0, 0.0, 0.0, 0.0, 0.0)",0.05683064360116724,-0.8880290805887814,-0.31922451763249704,"(0.0, 0.0, 0.0, 0.0, 0.0, 0.0)",0.007468410944612172,-0.6124046508658862,0.3303400564487696,"(0.0, 0.0, 0.0, 0.0, 0.0, 0.0)",0.3864378445469643,0.887734742288198,0.31759432892162537,"(0.0, 0.0, 0.0, 0.0, 0.0, 0.0)",0.25431061548161266,False,,,,,True,"(0.037155093142061876, 0.17926788628604579, 0.02399889029969589)","(-0.9983768738500207, -0.05694197057330745, -0.001108940344886735)",-9.922121219716525e-06,3.5962054534356005
11,Move,,,"(-0.00014745560451728324, 0.16058838920053845, 0.04864351552900384)","(0.003914553188727233, 0.01807746315687197, 0.12014157723032116)","[0.0, 0.0, 0.0]","[-0.026750000193715096, 0.05299999937415123, 0.03999999910593033]","[0.0, -0.0, 0.5209521884232695]","[-0.06258484721183777, 0.11544888466596603, 0.03999999910593033]","[0.0, 0.0, -0.32506568352722]","[0.026750000193715096, 0.05299999937415123, 0.03999999910593033]","[0.0, 0.0, -0.5328537825885149]","[0.06332553178071976, 0.11501798033714294, 0.03999999910593033]","[0.0, -0.0, 0.311465114615238]",0.5083120248197633,-3.0336373588184204,"(0.0, 0.0, 0.0, 0.0, 0.0, 0.0)",-34.013796811667646,-0.8347511762450246,2.7039969156351886,"(0.0, 0.0, 0.0, 0.0, 0.0, 0.0)",-17.290371741462504,-0.5219061088549666,2.627442132209516,"(0.0, 0.0, 0.0, 0.0, 0.0, 0.0)",34.3779767259485,0.8324201987367759,-2.8556890058913487,"(0.0, 0.0, 0.0, 0.0, 0.0, 0.0)",18.469494387192622,True,"(-0.028031320497477946, 0.18136364200304897, 0.023982709423547344)","(0.9930142273867911, 0.11672094882555911, -0.017290584509372653)",-0.006026501454562777,268.5863503592121,True,"(0.02966752377392612, 0.18117119663349357, 0.023999768744091904)","(-0.9981010793681873, -0.06159693365482665, -0.00023049594887401622)",0.0004523517127205234,228.18976989048693
12,Move,"(0.0005, 0.0, 0.0007)","(0.0, 0.025778513051956248, 0.0)","(0.001380323774791336, 0.16127314646492283, 0.048541954236214324)","(-0.003795131972313237, 0.010368605592349594, 0.11013466862280795)","[0.0015277793793086192, 0.0006847572643843836, -0.00010156129278951487]","[-0.026750000193715096, 0.05299999937415123, 0.03999999910593033]","[0.0, -0.0, 0.49416863708884806]","[-0.06089959293603897, 0.11638616025447845, 0.03999999910593033]","[0.0, 0.0, -0.3280996276973169]","[0.026750000193715096, 0.05299999937415123, 0.03999999910593033]","[0.0, 0.0, -0.5258968614971478]","[0.06289319694042206, 0.1152709349989891, 0.03999999910593033]","[0.0, -0.0, 0.29335450971613974]",0.4937850508728879,-0.0920602195841799,"(0.0, 0.0, 0.0, 0.0, 0.0, 0.0)",-4.215053536759256,-0.8216483482366591,0.14877225645684672,"(0.0, 0.0, 0.0, 0.0, 0.0, 0.0)",-2.085841117920781,-0.5279084886006856,-0.48281182490362556,"(0.0, 0.0, 0.0, 0.0, 0.0, 0.0)",4.22802151301246,0.8186981639681912,-0.13274882910590374,"(0.0, 0.0, 0.0, 0.0, 0.0, 0.0)",2.089145228047923,True,"(-0.026145824748846996, 0.18219292110407714, 0.02398953418000607)","(0.9937818440158513, 0.1108517988125894, -0.010465429014964698)",-0.006943489477845627,33.502035183478846,True,"(0.03043871132342975, 0.18202283524337748, 0.023999768744091904)","(-0.9981010793681873, -0.06159693365482665, -0.00023049594887401622)",0.0002979213091329199,5.879601825884738
13,Move,"(0.00075, 0.0, 0.0009000000000000001)","(0.0, 0.03869744017521828, 0.0)","(0.0031816634808407482, 0.16163757084701516, 0.048558751244082876)","(-0.00791012834916617, 0.010079067833666928, 0.10553240719175494)","[0.0033291190853580316, 0.0010491816464767156, -8.476428492096288e-05]","[-0.026750000193715096, 0.05299999937415123, 0.03999999910593033]","[0.0, -0.0, 0.4869486613008667]","[-0.06044105440378189, 0.11663106828927994, 0.03999999910593033]","[0.0, 0.0, -0.3264902280763945]","[0.026750000193715096, 0.05299999937415123, 0.03999999910593033]","[0.0, 0.0, -0.5368750536448433]","[0.06357463449239731, 0.11487039923667908, 0.03999999910593033]","[0.0, -0.0, 0.274177105201687]",0.4860157104477907,-0.22388935294720905,"(0.0, 0.0, 0.0, 0.0, 0.0, 0.0)",-4.3515280160289596,-0.8122868707578655,0.2764599983797345,"(0.0, 0.0, 0.0, 0.0, 0.0, 0.0)",-2.1936951206737274,-0.5379089350135029,-0.248107196021023,"(0.0, 0.0, 0.0, 0.0, 0.0, 0.0)",4.213417249597611,0.8099563951356739,-0.262998177122197,"(0.0, 0.0, 0.0, 0.0, 0.0, 0.0)",2.083462968919336,True,"(-0.025792497815011486, 0.18248693648021025, 0.0239898934226495)","(0.9943454647615952, 0.10571170459361486, -0.010106048681833587)",-0.005281585120034919,34.42428605791869,True,"(0.03240617390801025, 0.18223237832905287, 0.023999768744091904)","(-0.9981010793681873, -0.06159693365482665, -0.00023049594887401622)",0.0002588404182312983,9.09471295258866
14,Move,"(0.0010333000000000002, 0.0, 0.0012)","(0.0, 0.04875053666670562, 0.0)","(0.0045940532868877105, 0.16187921176357825, 0.048573567186282654)","(-0.010253196721827439, 0.008925980420149558, 0.10222975955600837)","[0.004741508891404993, 0.0012908225630398062, -6.9948342721185e-05]","[-0.026750000193715096, 0.05299999937415123, 0.03999999910593033]","[0.0, -0.0, 0.4803853439371419]","[-0.060022708028554916, 0.11685081571340561, 0.03999999910593033]","[0.0, 0.0, -0.32542705032642655]","[0.026750000193715096, 0.05299999937415123, 0.03999999910593033]","[0.0, 0.0, -0.5449629153199036]","[0.06407381594181061, 0.11457055062055588, 0.03999999910593033]","[0.0, -0.0, 0.25885369064668584]",0.47969896916098775,-0.1647345280886771,"(0.0, 0.0, 0.0, 0.0, 0.0, 0.0)",-3.301193510316946,-0.8049587358103729,0.2048843042946832,"(0.0, 0.0, 0.0, 0.0, 0.0, 0.0)",-1.6641456714831677,-0.5458487554943626,-0.21261123352873684,"(0.0, 0.0, 0.0, 0.0, 0.0, 0.0)",3.1227344173584655,0.8030304702158181,-0.18866448094693605,"(0.0, 0.0, 0.0, 0.0, 0.0, 0.0)",1.5676841992401802,True,"(-0.025443696218048165, 0.18273894274461494, 0.02399104088199322)","(0.9947208622570465, 0.10222597845796677, -0.008958544463754301)",-0.004071725684549023,25.936766814874044,True,"(0.03394118584000824, 0.18240220954455372, 0.023999768744091904)","(-0.9981010793681873, -0.06159693365482665, -0.00023049594887401622)",0.00023928936039023177,2.1014655755549967
15,Move,"(0.00215, 0.0, 0.001575)","(0.0, 0.060240039132584286, 0.0)","(0.005831021999034133, 0.16199352571947676, 0.04862723364433929)","(-0.011015456299537237, 0.00597082685951939, 0.09864229913136835)","[0.005978477603551416, 0.0014051365189383103, -1.6281884664549884e-05]","[-0.026750000193715096, 0.05299999937415123, 0.03999999910593033]","[0.0, -0.0, 0.4744752218323208]","[-0.05964475870132446, 0.11704634875059128, 0.03999999910593033]","[0.0, 0.0, -0.32589081529397934]","[0.026750000193715096, 0.05299999937415123, 0.03999999910593033]","[0.0, 0.0, -0.5524467106502514]","[0.06453355401754379, 0.11428950726985931, 0.03999999910593033]","[0.0, -0.0, 0.2460998288575417]",0.47381672069009884,-0.15802291594173234,"(0.0, 0.0, 0.0, 0.0, 0.0, 0.0)",-2.4288357119746555,-0.7997203973959884,0.1549433357582205,"(0.0, 0.0, 0.0, 0.0, 0.0, 0.0)",-1.2341991782557147,-0.5532856782681547,-0.20135319116193084,"(0.0, 0.0, 0.0, 0.0, 0.0, 0.0)",2.2689148002213884,0.7979675367687705,-0.1389568294329156,"(0.0, 0.0, 0.0, 0.0, 0.0, 0.0)",1.1346520977601102,True,"(-0.02503485857438656, 0.18291534104589122, 0.023993820137178646)","(0.9951005525358535, 0.09867475768601613, -0.006179202088069004)",-0.003079632358172046,19.043334424735733,True,"(0.03526846400207815, 0.1824999436143227, 0.023999768744091904)","(-0.9981010793681873, -0.06159693365482665, -0.00023049594887401622)",0.00017193292021452754,1.727026874577759
16,Move,"(0.00298, 0.0, 0.00196)","(0.0, 0.07401766824782753, 0.0)","(0.006905009534054369, 0.16203063278587657, 0.048655065069176086)","(-0.010036204284840908, 0.0033517044323039345, 0.0960685458943686)","[0.0070524651385716515, 0.001442243585338121, 1.1549540172246797e-05]","[-0.026750000193715096, 0.05299999937415123, 0.03999999910593033]","[0.0, -0.0, 0.46900122226307794]","[-0.059293683618307114, 0.11722545325756073, 0.03999999910593033]","[0.0, 0.0, -0.3272551934911425]","[0.026750000193715096, 0.05299999937415123, 0.03999999910593033]","[0.0, 0.0, -0.559320229747336]","[0.06495393067598343, 0.11402834951877594, 0.03999999910593033]","[0.0, -0.0, 0.2354181399946026]",0.4683969426117161,-0.14502879996062915,"(0.0, 0.0, 0.0, 0.0, 0.0, 0.0)",-1.812796981905938,-0.795770275168741,0.11667303385772383,"(0.0, 0.0, 0.0, 0.0, 0.0, 0.0)",-0.9299058660065902,-0.5600834108839966,-0.18315395846500085,"(0.0, 0.0, 0.0, 0.0, 0.0, 0.0)",1.6497678797341013,0.7943175888533177,-0.10099034125308323,"(0.0, 0.0, 0.0, 0.0, 0.0, 0.0)",0.8169309326266003,True,"(-0.024593810251941725, 0.18304588294764138, 0.023996477414836764)","(0.9953715348570206, 0.09603699350869871, -0.0035218566394933748)",-0.0023098035179270004,14.169828348883728,True,"(0.036419104817649664, 0.18254749395305753, 0.023999768744091904)","(-0.9981010793681873, -0.06159693365482665, -0.00023049594887401622)",0.00011526126832354969,2.0220290381960906
17,Move,"(0.0037, 0.0, 0.0022)","(0.0, 0.08540070562933456, 0.0)","(0.007846224054100865, 0.16201819589016772, 0.04865198158891424)","(-0.007904364252976267, 0.0012337209551279242, 0.09425846119203703)","[0.007993679658618148, 0.001429806689629276, 8.466059910401669e-06]","[-0.026750000193715096, 0.05299999937415123, 0.03999999910593033]","[0.0, -0.0, 0.4639142917609869]","[-0.05896655097603798, 0.11739017069339752, 0.03999999910593033]","[0.0, 0.0, -0.32924091114147347]","[0.026750000193715096, 0.05299999937415123, 0.03999999910593033]","[0.0, 0.0, -0.565599268305554]","[0.06533636897802353, 0.11378727108240128, 0.03999999910593033]","[0.0, -0.0, 0.22641443531803027]",0.46334999883217126,-0.13543031723369814,"(0.0, 0.0, 0.0, 0.0, 0.0, 0.0)",-1.3421925335717584,-0.7927906822540067,0.08747816197701488,"(0.0, 0.0, 0.0, 0.0, 0.0, 0.0)",-0.6968322688181198,-0.5662969931794397,-0.16746020217382723,"(0.0, 0.0, 0.0, 0.0, 0.0, 0.0)",1.1927401420715158,0.7917092949609015,-0.07304716673620637,"(0.0, 0.0, 0.0, 0.0, 0.0, 0.0)",0.5829116606682242,True,"(-0.024136056113916275, 0.18314170056183346, 0.02399863241220497)","(0.99555281419139, 0.09419514816205277, -0.001366827835815001)",-0.0017257738779626896,10.456978800637053,True,"(0.03741961841444715, 0.1825605492141117, 0.023999768744091904)","(-0.9981010793681873, -0.06159693365482665, -0.00023049594887401622)",7.510693821996299e-05,2.114713134309839
18,Move,"(0.0042429, 0.0, 0.0024286)","(0.0, 0.09476090640778015, 0.0)","(0.008654755609915039, 0.16195562274391417, 0.04861493810274102)","(-0.003724791564406069, 0.0005965321617050934, 0.09280206575547072)","[0.008802211214432322, 0.0013672335433757288, -2.857742626281856e-05]","[-0.026750000193715096, 0.05299999937415123, 0.03999999910593033]","[0.0, -0.0, 0.4592322201481119]","[-0.0586647167801857, 0.11754029989242554, 0.03999999910593033]","[0.0, 0.0, -0.33148280166858635]","[0.026750000193715096, 0.05299999937415123, 0.03999999910593033]","[0.0, 0.0, -0.5712870082294982]","[0.06568148732185364, 0.1135668158531189, 0.03999999910593033]","[0.0, -0.0, 0.2187011392594744]",0.45871772399491356,-0.12347110651698062,"(0.0, 0.0, 0.0, 0.0, 0.0, 0.0)",-1.2096549060218242,-0.7904177472251831,0.07134196000183479,"(0.0, 0.0, 0.0, 0.0, 0.0, 0.0)",-0.5787126444188304,-0.5719176044137142,-0.1513497629313592,"(0.0, 0.0, 0.0, 0.0, 0.0, 0.0)",0.9225112663799031,0.7897576345553866,-0.05531445792652949,"(0.0, 0.0, 0.0, 0.0, 0.0, 0.0)",0.4358556637095886,True,"(-0.02368697419492899, 0.1832143969628581, 0.023999630127830168)","(0.9956868148577489, 0.09277731659520329, -0.00036911221061770595)",-0.0013070190866735069,8.878274641160672,True,"(0.03832740083162073, 0.18136969395589597, 0.02399988913928355)","(-0.9956590345775072, -0.09307563989578334, -0.00011010075722652398)",8.765534754201374e-06,5.918483479783495
19,Move,"(0.0047625, 0.0, 0.0026125)","(0.0, 0.10020458834475046, 0.0)","(0.00938544495782001, 0.16193205702931723, 0.0486788506025763)","(-0.0015833665507802496, 0.0016934603030465964, 0.0908489081747374)","[0.009532900562337293, 0.0013436678287787884, 3.5335073572458076e-05]","[-0.026750000193715096, 0.05299999937415123, 0.03999999910593033]","[0.0, -0.0, 0.45481890959191973]","[-0.05837957561016083, 0.11768051981925964, 0.03999999910593033]","[0.0, 0.0, -0.33395853606746645]","[0.026750000193715096, 0.05299999937415123, 0.03999999910593033]","[0.0, 0.0, -0.5765483090429435]","[0.0659996047616005, 0.11336115002632141, 0.03999999910593033]","[0.0, -0.0, 0.21194975582300765]",0.4543243678211419,-0.11868982388710844,"(0.0, 0.0, 0.0, 0.0, 0.0, 0.0)",-0.9020491231201743,-0.7885666466980702,0.05059785784031895,"(0.0, 0.0, 0.0, 0.0, 0.0, 0.0)",-0.45232341287040506,-0.5771346899929269,-0.14074462077699335,"(0.0, 0.0, 0.0, 0.0, 0.0, 0.0)",0.6732679418209335,0.7883320720438406,-0.03982058377383348,"(0.0, 0.0, 0.0, 0.0, 0.0, 0.0)",0.31468840886136673,True,"(-0.023239404733626616, 0.18326846180848033, 0.023998448221789304)","(0.9958538519117454, 0.09095438403355342, -0.0015510182514767048)",-0.0010074838982356083,6.735210827624383,True,"(0.039103903006015794, 0.18134715896531078, 0.02399988913928355)","(-0.9956590345775072, -0.09307563989578334, -0.00011010075722652398)",4.344083038635835e-05,0.6821885661999331
20,Move,"(0.0053, 0.0, 0.0029556)","(0.0, 0.09914691881804188, 0.0)","(0.010070037449469589, 0.16190936219740265, 0.04871269659977601)","(-3.8117800698907196e-05, 0.001547879579499689, 0.08870067307005813)","[0.010217493053986872, 0.0013209729968642059, 6.918107077217434e-05]","[-0.026750000193715096, 0.05299999937415123, 0.03999999910593033]","[0.0, -0.0, 0.45054342264739355]","[-0.058102745562791824, 0.11781515926122665, 0.03999999910593033]","[0.0, 0.0, -0.33684803819692477]","[0.026750000193715096, 0.05299999937415123, 0.03999999910593033]","[0.0, 0.0, -0.5816083654548287]","[0.0663045346736908, 0.11316177248954773, 0.03999999910593033]","[0.0, -0.0, 0.20581484951251047]",0.4500626030790364,-0.11540361364167095,"(0.0, 0.0, 0.0, 0.0, 0.0, 0.0)",-0.5898429864693358,-0.7872280819850838,0.039210710934414694,"(0.0, 0.0, 0.0, 0.0, 0.0, 0.0)",-0.31494024294647865,-0.5821784848312793,-0.1368266003125241,"(0.0, 0.0, 0.0, 0.0, 0.0, 0.0)",0.5151556307900886,0.7872891457823792,-0.03218178110320169,"(0.0, 0.0, 0.0, 0.0, 0.0, 0.0)",0.24431847991873767,True,"(-0.022773268972406238, 0.18330193369328304, 0.023998326745964322)","(0.9960553449978607, 0.08871838853787416, -0.0016724940764612135)",-0.0007426479008281477,3.605267281004541,True,"(0.03982642302165252, 0.1813115006817791, 0.02399988913928355)","(-0.9956590345775072, -0.09307563989578334, -0.00011010075722652398)",4.463644701462746e-05,0.0
21,Move,"(0.00581, 0.0, 0.0034300000000000003)","(0.0, 0.09393536567158682, 0.0)","(0.010708349617673845, 0.16185776879296487, 0.048767677949988236)","(-0.00012185728550653486, 0.0004963424468549941, 0.08595235494223231)","[0.010855805222191128, 0.0012693795924264284, 0.00012416242098439723]","[-0.026750000193715096, 0.05299999937415123, 0.03999999910593033]","[0.0, -0.0, 0.4463826855551855]","[-0.05783279240131378, 0.11794505268335342, 0.03999999910593033]","[0.0, 0.0, -0.34009563161096723]","[0.026750000193715096, 0.05299999937415123, 0.03999999910593033]","[0.0, 0.0, -0.5865624298274651]","[0.06660209596157074, 0.11296507716178894, 0.03999999910593033]","[0.0, -0.0, 0.20016188765429313]",0.44591504400409193,-0.1122272912707686,"(0.0, 0.0, 0.0, 0.0, 0.0, 0.0)",-0.3669049046330172,-0.7863889749724712,0.021442006111404826,"(0.0, 0.0, 0.0, 0.0, 0.0, 0.0)",-0.19773966717109934,-0.5871204851403837,-0.1339421955522715,"(0.0, 0.0, 0.0, 0.0, 0.0, 0.0)",0.27821156741054964,0.7866575551870686,-0.01601450764271117,"(0.0, 0.0, 0.0, 0.0, 0.0, 0.0)",0.1312831658285704,True,"(-0.02229088487092329, 0.18331745841164754, 0.023999475286367526)","(0.9962777271803733, 0.08619985961043054, -0.000523953673257918)",-0.0004928862767237166,2.426043134348877,True,"(0.04050964855127811, 0.18126339968283858, 0.02399988913928355)","(-0.9956590345775072, -0.09307563989578334, -0.00011010075722652398)",9.0638637486446e-06,0.6546291373010598
22,Move,"(0.0063, 0.0, 0.0040455)","(0.0, 0.08607963870836034, 0.0)","(0.011284420272089713, 0.16185106916143516, 0.04883924633759695)","(-0.00021108195252578365, 0.00015247882513634646, 0.08208877673834188)","[0.011431875876606996, 0.001262679960896712, 0.0001957308085931142]","[-0.026750000193715096, 0.05299999937415123, 0.03999999910593033]","[0.0, -0.0, 0.442297212485252]","[-0.057567209005355835, 0.11807149648666382, 0.03999999910593033]","[0.0, 0.0, -0.34377246394797545]","[0.026750000193715096, 0.05299999937415123, 0.03999999910593033]","[0.0, 0.0, -0.5914386672207759]","[0.06689402461051941, 0.11277003586292267, 0.03999999910593033]","[0.0, -0.0, 0.19498685304108598]",0.4418367964571627,-0.11050804497991426,"(0.0, 0.0, 0.0, 0.0, 0.0, 0.0)",-0.17384987654278494,-0.7860289738850801,0.009772283345652475,"(0.0, 0.0, 0.0, 0.0, 0.0, 0.0)",-0.09794209013861623,-0.5919892491451253,-0.13213630381071825,"(0.0, 0.0, 0.0, 0.0, 0.0, 0.0)",0.12542473301491952,0.7863959163738977,-0.007110221644647212,"(0.0, 0.0, 0.0, 0.0, 0.0, 0.0)",0.05360893869367698,True,"(-0.021785169859353942, 0.18331266665977977, 0.023999836002187212)","(0.9965974752796589, 0.0824223611625664, -0.0001632378535706412)",-0.0003175165277574807,1.1950379486216924,True,"(0.041155374187986225, 0.18120247121754077, 0.02399988913928355)","(-0.9956590345775072, -0.09307563989578334, -0.00011010075722652398)",-2.4925655089903144e-06,0.3496975286384801
23,Move,"(0.0067833, 0.0, 0.0047417)","(0.0, 0.07934266779566224, 0.0)","(0.011808977007075533, 0.16189806989309244, 0.04890001536426579)","(-0.00015590642758733564, -3.985367130683617e-05, 0.07727225787168235)","[0.011956432611592816, 0.0013096806925539939, 0.0002564998352619502]","[-0.026750000193715096, 0.05299999937415123, 0.03999999910593033]","[0.0, -0.0, 0.4382544004764701]","[-0.057303883135318756, 0.1181955561041832, 0.03999999910593033]","[0.0, 0.0, -0.3477474258294475]","[0.026750000193715096, 0.05299999937415123, 0.03999999910593033]","[0.0, 0.0, -0.5963346272885395]","[0.06718617677688599, 0.11257277429103851, 0.03999999910593033]","[0.0, -0.0, 0.19004471820575278]",0.4377974688872854,-0.10965848092757818,"(0.0, 0.0, 0.0, 0.0, 0.0, 0.0)",-0.0455000062555106,-0.7860040191616108,-0.0005360394707255091,"(0.0, 0.0, 0.0, 0.0, 0.0, 0.0)",-0.03245274935364671,-0.5968898386034526,-0.13323089611373007,"(0.0, 0.0, 0.0, 0.0, 0.0, 0.0)",0.02144971193068962,0.7863810458575925,0.000396547101472855,"(0.0, 0.0, 0.0, 0.0, 0.0, 0.0)",0.001529166286245783,True,"(-0.021262771349784222, 0.18329366947546408, 0.02399994335968311)","(0.9968067032113492, 0.07985232188425777, -5.588035767653011e-05)",-0.0001881166982129717,0.4388202245222077,True,"(0.04178604587124883, 0.18113157805724184, 0.02399988913928355)","(-0.9956590345775072, -0.09307563989578334, -0.00011010075722652398)",7.626164527426701e-06,0.0
24,Move,"(0.0073231, 0.0, 0.005438500000000001)","(0.0, 0.07385884328589604, 0.0)","(0.012317084688988029, 0.16183748735186876, 0.04890510972195052)","(0.0012145609513685494, 0.00010974612978646484, 0.07298968851383844)","[0.012464540293505312, 0.0012490981513303134, 0.00026159419294668335]","[-0.026750000193715096, 0.05299999937415123, 0.03999999910593033]","[0.0, -0.0, 0.4341849723201412]","[-0.0570383183658123, 0.11831935495138168, 0.03999999910593033]","[0.0, 0.0, -0.35181869893624196]","[0.026750000193715096, 0.05299999937415123, 0.03999999910593033]","[0.0, 0.0, -0.6014094662302514]","[0.06748796999454498, 0.11236680299043655, 0.03999999910593033]","[0.0, -0.0, 0.18497247455636187]",0.43372328512937247,-0.11079242146205538,"(0.0, 0.0, 0.0, 0.0, 0.0, 0.0)",-0.045262664770585485,-0.7860038606210348,-6.148943371029586e-05,"(0.0, 0.0, 0.0, 0.0, 0.0, 0.0)",-0.028659312533953093,-0.6019891082144188,-0.13911842272958186,"(0.0, 0.0, 0.0, 0.0, 0.0, 0.0)",0.022402541267731564,0.7863818361377979,-2.1074138810028842e-05,"(0.0, 0.0, 0.0, 0.0, 0.0, 0.0)",0.0016017313308165917,True,"(-0.020732475372683787, 0.18327019459141375, 0.02399994335968311)","(0.9968067032113492, 0.07985232188425777, -5.588035767653011e-05)",-0.00010687139356761974,0.5107516802434691,True,"(0.04243698735236016, 0.18103716711619666, 0.02399993693613882)","(-0.9972747823307013, -0.07377672156904243, -6.230390195231647e-05)",6.698647360910447e-05,0.0
25,Move,"(0.0078857, 0.0, 0.0061286)","(0.0, 0.06977826349473329, 0.0)","(0.012763532706882385, 0.16181750228683608, 0.04894459974666229)","(0.000727696632611082, 0.000134197288675547, 0.06690559205741073)","[0.012910988311399668, 0.0012291130862976396, 0.00030108421765845383]","[-0.026750000193715096, 0.05299999937415123, 0.03999999910593033]","[0.0, -0.0, 0.4299836945049563]","[-0.056763630360364914, 0.11844602227210999, 0.03999999910593033]","[0.0, 0.0, -0.35602434740601424]","[0.026750000193715096, 0.05299999937415123, 0.03999999910593033]","[0.0, 0.0, -0.6066610265838929]","[0.06779918074607849, 0.11215204745531082, 0.03999999910593033]","[0.0, -0.0, 0.1797207558865097]",0.42950440739123463,-0.11502418644635164,"(0.0, 0.0, 0.0, 0.0, 0.0, 0.0)",-0.028465053419101934,-0.7860080464478936,-6.982748670017848e-07,"(0.0, 0.0, 0.0, 0.0, 0.0, 0.0)",-0.022434403418723218,-0.6072594788426289,-0.1436256784837315,"(0.0, 0.0, 0.0, 0.0, 0.0, 0.0)",0.023128051565625446,0.7863817941390675,1.1199661438254793e-06,"(0.0, 0.0, 0.0, 0.0, 0.0, 0.0)",0.0016533482299619254,True,"(-0.02018478627455788, 0.18324129226384783, 0.023999857949256055)","(0.9977132316873132, 0.06758910676264251, -0.00014129078472873793)",-6.451019807413631e-05,0.38135537002632275,True,"(0.04310917595396354, 0.18095302360554433, 0.02399993693613882)","(-0.9972747823307013, -0.07377672156904243, -6.230390195231647e-05)",0.0001860276520022423,0.0
26,Move,"(0.0084733, 0.0, 0.0068133)","(0.0, 0.06566452244778267, 0.0)","(0.013193358924778888, 0.16192619433221114, 0.04896416863123726)","(0.0004180177885790622, 0.00012644837637938825, 0.059885749081270895)","[0.01334081452929617, 0.001337805131672698, 0.00032065310223342025]","[-0.026750000193715096, 0.05299999937415123, 0.03999999910593033]","[0.0, -0.0, 0.42555860656235756]","[-0.056473735719919205, 0.11857819557189941, 0.03999999910593033]","[0.0, 0.0, -0.3604558041798739]","[0.026750000193715096, 0.05299999937415123, 0.03999999910593033]","[0.0, 0.0, -0.6121844074318685]","[0.06812526285648346, 0.1119244247674942, 0.03999999910593033]","[0.0, -0.0, 0.17419749223794995]",0.4250517965146295,-0.12163814401208484,"(0.0, 0.0, 0.0, 0.0, 0.0, 0.0)",-0.029832469187425426,-0.7860163116333211,-0.0004541302375048265,"(0.0, 0.0, 0.0, 0.0, 0.0, 0.0)",-0.023630192184755778,-0.6128167634174703,-0.15179229473010913,"(0.0, 0.0, 0.0, 0.0, 0.0, 0.0)",0.02444306077000944,0.7863817963710522,-5.951959192174172e-08,"(0.0, 0.0, 0.0, 0.0, 0.0, 0.0)",0.0017473461326387011,True,"(-0.019607966862829916, 0.18320833265784825, 0.023999875344104485)","(0.9981518451851822, 0.06076905958802699, -0.00012389593630176798)",-3.9783755073070104e-05,0.40070771644552144,True,"(0.04381563977341366, 0.18086071627195227, 0.02399993693613882)","(-0.9972747823307013, -0.07377672156904243, -6.230390195231647e-05)",0.0003317521883734719,0.0
27,Move,"(0.00962, 0.0, 0.007973300000000001)","(0.0, 0.06545159227903936, 0.0)","(0.013752673803110595, 0.1619924379469035, 0.048955931408963205)","(-0.0005152047991246267, -3.526713094005904e-05, 0.054376925826767696)","[0.013900129407627878, 0.0014040487463650442, 0.0003124158799593657]","[-0.026750000193715096, 0.05299999937415123, 0.03999999910593033]","[0.0, -0.0, 0.42040547743609014]","[-0.05613540858030319, 0.11873049288988113, 0.03999999910593033]","[0.0, 0.0, -0.365597233893218]","[0.026750000193715096, 0.05299999937415123, 0.03999999910593033]","[0.0, 0.0, -0.6185411987063157]","[0.06849900633096695, 0.11166021227836609, 0.03999999910593033]","[0.0, -0.0, 0.16784057735070812]",0.4198012965158448,-0.14501336652716254,"(0.0, 0.0, 0.0, 0.0, 0.0, 0.0)",-0.037394173907151704,-0.7860027828705104,-1.4717245419914007e-05,"(0.0, 0.0, 0.0, 0.0, 0.0, 0.0)",-0.031921448977114006,-0.6192845657545584,-0.1784050195563136,"(0.0, 0.0, 0.0, 0.0, 0.0, 0.0)",0.028728207480300454,0.7863817962521149,3.1716629322886547e-09,"(0.0, 0.0, 0.0, 0.0, 0.0, 0.0)",0.002053594358039804,True,"(-0.018937800360409852, 0.18316949262535526, 0.023999915881293833)","(0.9983137880384465, 0.058048028938513484, -8.335874695013575e-05)",-2.4335719672082236e-05,0.4036480106950762,True,"(0.04462808934304027, 0.18074964873201227, 0.02399993693613882)","(-0.9972747823307013, -0.07377672156904243, -6.230390195231647e-05)",0.0004907747208841563,0.0
28,Move,"(0.0107533, 0.0, 0.0092467)","(0.0, 0.06556678400967099, 0.0)","(0.01439857622630419, 0.16194269960433313, 0.048971395671145564)","(-0.00033643571059367033, -0.00012723023036828493, 0.04848793754089751)","[0.014546031830821473, 0.0013543104037946896, 0.0003278801421417246]","[-0.026750000193715096, 0.05299999937415123, 0.03999999910593033]","[0.0, -0.0, 0.41453429513009016]","[-0.055748987942934036, 0.11890188604593277, 0.03999999910593033]","[0.0, 0.0, -0.37146240980060297]","[0.026750000193715096, 0.05299999937415123, 0.03999999910593033]","[0.0, 0.0, -0.6256540910589299]","[0.06891518831253052, 0.1113617792725563, 0.03999999910593033]","[0.0, -0.0, 0.1607277075298609]",0.4138532702849954,-0.1634453282001662,"(0.0, 0.0, 0.0, 0.0, 0.0, 0.0)",-0.03258318686046565,-0.7859948297909729,0.0004486232823034356,"(0.0, 0.0, 0.0, 0.0, 0.0, 0.0)",-0.030551386157597,-0.6264760624016021,-0.1972750290206946,"(0.0, 0.0, 0.0, 0.0, 0.0, 0.0)",0.03176658019251131,0.7863817962584356,-1.6855317141932453e-10,"(0.0, 0.0, 0.0, 0.0, 0.0, 0.0)",0.0022707248372426402,True,"(-0.018174071601018013, 0.18312160844272068, 0.023999915881293833)","(0.9983137880384465, 0.058048028938513484, -8.335874695013575e-05)",-1.1568557327619287e-05,0.3488418959241759,True,"(0.04553627431687084, 0.18061969821355484, 0.023999861909506055)","(-0.9987921787048282, -0.04913415205726782, -0.00013733053472384183)",0.000651029740464804,0.0
29,Move,"(0.0118867, 0.0, 0.0106067)","(0.0, 0.0656819757403026, 0.0)","(0.01510526236633149, 0.1618837498088453, 0.048937094720945505)","(0.0011559525962477368, 3.001449334291006e-05, 0.041503414746131416)","[0.015252717970848774, 0.0012953606083068447, 0.0002935791919416661]","[-0.026750000193715096, 0.05299999937415123, 0.03999999910593033]","[0.0, -0.0, 0.40799255216889485]","[-0.05531725287437439, 0.11909018456935883, 0.03999999910593033]","[0.0, 0.0, -0.37800666266233346]","[0.026750000193715096, 0.05299999937415123, 0.03999999910593033]","[0.0, 0.0, -0.6333372356687603]","[0.0693623423576355, 0.11103609949350357, 0.03999999910593033]","[0.0, -0.0, 0.15304456801575111]",0.40723587839422704,-0.18159017610503822,"(0.0, 0.0, 0.0, 0.0, 0.0, 0.0)",-0.008797726499092027,-0.7859986421201821,0.00012925703825638035,"(0.0, 0.0, 0.0, 0.0, 0.0, 0.0)",-0.01791726683553857,-0.6342198931064723,-0.21184035811984267,"(0.0, 0.0, 0.0, 0.0, 0.0, 0.0)",0.03411180084634101,0.7863817962580997,8.958167541095463e-12,"(0.0, 0.0, 0.0, 0.0, 0.0, 0.0)",0.0024383124589014223,True,"(-0.017322874395448017, 0.18306262837940995, 0.023999915881293833)","(0.9983137880384465, 0.058048028938513484, -8.335874695013575e-05)",-5.401675300707525e-06,0.0,True,"(0.04651625652503828, 0.18047097102878684, 0.023999919516159145)","(-0.9989706432382003, -0.0453613006025952, -7.97238816296028e-05)",0.0008132570691638574,0.0
30,Move,"(0.01282, 0.0, 0.01202)","(0.0, 0.06374815092909289, 0.0)","(0.015740720746896544, 0.16212872584621116, 0.048960718844933804)","(0.0006729029575341882, -6.192247128352648e-05, 0.029434918540374583)","[0.01588817635141383, 0.001540336645672713, 0.00031720331592996476]","[-0.026750000193715096, 0.05299999937415123, 0.03999999910593033]","[0.0, -0.0, 0.4010031570853874]","[-0.054854635149240494, 0.11928822845220566, 0.03999999910593033]","[0.0, 0.0, -0.38499167151548097]","[0.026750000193715096, 0.05299999937415123, 0.03999999910593033]","[0.0, 0.0, -0.6413755092545692]","[0.06982746720314026, 0.11069169640541077, 0.03999999910593033]","[0.0, -0.0, 0.14500629578454102]",0.4002026206967591,-0.19213311500634658,"(0.0, 0.0, 0.0, 0.0, 0.0, 0.0)",-0.01609152123469422,-0.7859948656270344,-6.8109986464787685e-06,"(0.0, 0.0, 0.0, 0.0, 0.0, 0.0)",-0.021531398559053366,-0.6422927603041412,-0.22014019848360353,"(0.0, 0.0, 0.0, 0.0, 0.0, 0.0)",0.0354481790291815,0.7863817962581175,-4.769518113789672e-13,"(0.0, 0.0, 0.0, 0.0, 0.0, 0.0)",0.0025338057687859512,True,"(-0.01641433828513386, 0.18299372978597284, 0.023999915881293833)","(0.9983137880384465, 0.058048028938513484, -8.335874695013575e-05)",2.127282101940268e-05,0.0,True,"(0.04754025483982185, 0.1803079677621562, 0.023999919516159145)","(-0.9989706432382003, -0.0453613006025952, -7.97238816296028e-05)",0.0009801921068703003,0.0
31,Move,"(0.0137733, 0.0, 0.0134733)","(0.0, 0.058623864245237536, 0.0)","(0.0165184358360046, 0.1622202178955252, 0.0489582373986642)","(-0.0005067936490233959, 0.0003092611643162377, 0.020452054544215947)","[0.016665891440521885, 0.0016318286949867644, 0.00031472186966036153]","[-0.026750000193715096, 0.05299999937415123, 0.03999999910593033]","[0.0, -0.0, 0.3935825141153801]","[-0.05436196178197861, 0.1194949597120285, 0.03999999910593033]","[0.0, 0.0, -0.3924086139588415]","[0.026750000193715096, 0.05299999937415123, 0.03999999910593033]","[0.0, 0.0, -0.6500499301987264]","[0.07032628357410431, 0.11031585931777954, 0.03999999910593033]","[0.0, -0.0, 0.13633183388836434]",0.3927318797170414,-0.20415177387689895,"(0.0, 0.0, 0.0, 0.0, 0.0, 0.0)",-0.02654005412233362,-0.7859896027496793,0.0003643074529518848,"(0.0, 0.0, 0.0, 0.0, 0.0, 0.0)",-0.031100744756898255,-0.6510494671175606,-0.23988183905957605,"(0.0, 0.0, 0.0, 0.0, 0.0, 0.0)",0.03862679640449874,0.7863817962581165,2.6645350896937862e-14,"(0.0, 0.0, 0.0, 0.0, 0.0, 0.0)",0.0027609301927046487,True,"(-0.015450220329789564, 0.18291333467127124, 0.039105168398030736)","(0.9991393481518646, 0.041479663299807915, -2.2521137380308793e-05)",1.0624255361486853e-05,0.0,True,"(0.048643698224003634, 0.18012654045576354, 0.023999937317569532)","(-0.9995668221460735, -0.029430668195055347, -6.192247124511279e-05)",0.0011627982589021563,0.0
32,Move,"(0.0147133, 0.0, 0.0150133)","(0.0, 0.05173330435836393, 0.0)","(0.017375235060014618, 0.16213699616404376, 0.04897179660637521)","(-0.0002740872180540511, 0.0003232827992114398, 0.012839106248662272)","[0.017522690664531902, 0.0015486069635053112, 0.0003282810773713729]","[-0.026750000193715096, 0.05299999937415123, 0.03999999910593033]","[0.0, -0.0, 0.38579752682578167]","[-0.05384346470236778, 0.11970790475606918, 0.03999999910593033]","[0.0, 0.0, -0.40017778017116584]","[0.026750000193715096, 0.05299999937415123, 0.03999999910593033]","[0.0, 0.0, -0.6591719741271336]","[0.07084730267524719, 0.10991597175598145, 0.03999999910593033]","[0.0, -0.0, 0.12720982386756147]",0.38490789386786534,-0.2134964127848291,"(0.0, 0.0, 0.0, 0.0, 0.0, 0.0)",-0.024022156272991636,-0.7859768469215784,-0.0003928603980443245,"(0.0, 0.0, 0.0, 0.0, 0.0, 0.0)",-0.031122784556523137,-0.6602134666255232,-0.24996147171177258,"(0.0, 0.0, 0.0, 0.0, 0.0, 0.0)",0.04024970775736857,0.7863817962581167,-2.664533565034481e-15,"(0.0, 0.0, 0.0, 0.0, 0.0, 0.0)",0.0028768883373258315,True,"(-0.014440195364978856, 0.18282205634419557, 0.039105168398030736)","(0.9991393481518646, 0.041479663299807915, -2.2521137380308793e-05)",2.951085250198682e-05,0.0,True,"(0.04980241968469068, 0.17992153976711567, 0.023999937317569532)","(-0.9995668221460735, -0.029430668195055347, -6.192247124511279e-05)",0.0013382682743415335,0.0
33,Move,"(0.015666700000000002, 0.0, 0.0166)","(0.0, 0.043952626552973204, 0.0)","(0.018264478650042517, 0.16188801316307944, 0.04892318778988815)","(0.001582174807085968, 7.280232284882803e-05, 0.004771654264209101)","[0.0184119342545598, 0.001299623962540991, 0.00027967226088430885]","[-0.026750000193715096, 0.05299999937415123, 0.03999999910593033]","[0.0, -0.0, 0.37765262406225464]","[-0.05329924449324608, 0.11992636322975159, 0.03999999910593033]","[0.0, 0.0, -0.4083233484210853]","[0.026750000193715096, 0.05299999937415123, 0.03999999910593033]","[0.0, 0.0, -0.6685042604187085]","[0.07137652486562729, 0.10950197279453278, 0.03999999910593033]","[0.0, -0.0, 0.11787757706861972]",0.3767218813922357,-0.2233705127924372,"(0.0, 0.0, 0.0, 0.0, 0.0, 0.0)",-0.040147057590630725,-0.7859759930162533,-1.1340631728424783e-05,"(0.0, 0.0, 0.0, 0.0, 0.0, 0.0)",-0.035044686175464475,-0.6695645411992093,-0.25447639924018883,"(0.0, 0.0, 0.0, 0.0, 0.0, 0.0)",0.04097664762969607,0.786381796256993,2.9965363523842825e-11,"(0.0, 0.0, 0.0, 0.0, 0.0, 0.0)",0.0029288276089135426,True,"(-0.013383130615487522, 0.18271126500753032, 0.04223423157982933)","(0.9996924265554116, 0.02480024737703693, 4.217933206971429e-06)",-2.8377230663669253e-06,0.0,False,,,,
34,Move,"(0.015666700000000002, 0.0, 0.0166)","(0.0, 0.043952626552973204, 0.0)","(0.016664655446643455, 0.16377929308378383, 0.05272615738348888)","(-0.1850473696491041, 0.002412264892563106, -0.037946658943782546)","[0.01681211105116074, 0.0031909038832453884, 0.004082641854485043]","[-0.026750000193715096, 0.05299999937415123, 0.03999999910593033]","[0.0, -0.0, 0.29634258122666507]","[-0.047775737941265106, 0.12186159193515778, 0.03999999910593033]","[0.0, 0.0, -0.4279020142206138]","[0.026750000193715096, 0.05299999937415123, 0.03999999910593033]","[0.0, 0.0, -0.6023015831798991]","[0.06754092127084732, 0.11233043670654297, 0.03999999910593033]","[0.0, -0.0, 0.12421871578771028]",0.28508818074838066,-2.7010475001898566,"(0.0, 0.0, 0.0, 0.0, 0.0, 0.0)",-41.295845865371305,-0.7130588596230341,2.6845826524936864,"(0.0, 0.0, 0.0, 0.0, 0.0, 0.0)",-19.108530180792087,-0.5928777150154114,2.261721060570313,"(0.0, 0.0, 0.0, 0.0, 0.0, 0.0)",41.777723327049955,0.7151971142261927,-2.717555080729805,"(0.0, 0.0, 0.0, 0.0, 0.0, 0.0)",22.792198788342965,True,"(-0.006638105512819889, 0.18385300360924664, 0.04223423157982933)","(0.9996924265554116, 0.02480024737703693, 4.217933206971429e-06)",-0.006729030163521571,327.3751655041087,True,"(0.04670602672381609, 0.18244111536901647, 0.056002546831874805)","(-0.99945501314817, 0.03291191573278449, 0.00254607458442306)",-0.002770550557295965,326.9002635862837
35,Move,"(0.016606700000000002, 0.0, 0.01824)","(0.0, 0.03701494277629574, 0.0)","(0.017490673706809713, 0.16474238062808694, 0.05506417789461348)","(-0.3028570997914068, -0.0002815328218793473, -0.06653565020733417)","[0.017638129311326998, 0.004153991427548492, 0.00642066236560964]","[-0.026750000193715096, 0.05299999937415123, 0.03999999910593033]","[0.0, -0.0, 0.2707530532969014]","[-0.046006910502910614, 0.12237702310085297, 0.03999999910593033]","[0.0, 0.0, -0.42497782987943006]","[0.026750000193715096, 0.05299999937415123, 0.03999999910593033]","[0.0, 0.0, -0.5986502059581217]","[0.06732401251792908, 0.11247898638248444, 0.03999999910593033]","[0.0, -0.0, 0.0976223288346293]",0.2701539396287196,-0.1437831758178605,"(0.0, 0.0, 0.0, 0.0, 0.0, 0.0)",-7.473276976088704,-0.6944607513847685,0.3048398835860647,"(0.0, 0.0, 0.0, 0.0, 0.0, 0.0)",-3.3680048852818234,-0.6006314519457566,-0.4754988768328264,"(0.0, 0.0, 0.0, 0.0, 0.0, 0.0)",7.512691343997562,0.6947605103885934,-0.36288540949065345,"(0.0, 0.0, 0.0, 0.0, 0.0, 0.0)",3.766959392230651,True,"(-0.005050730431575376, 0.1844884675632346, 0.04223423157982933)","(0.9996924265554116, 0.02480024737703693, 4.217933206971429e-06)",-0.007801434948880401,60.053325128730926,True,"(0.04836129701597055, 0.18312441768978288, 0.05600030008837174)","(-0.998127444282505, 0.06116792764657308, 0.00029932841252498126)",-0.001622353939722772,58.905974686088406
36,Move,"(0.017493300000000003, 0.0, 0.019813300000000002)","(0.0, 0.033250267579743975, 0.0)","(0.019154668490874986, 0.1650634109974767, 0.05516801905011109)","(-0.31123088213331074, 0.008157093173664736, -0.06653285214903504)","[0.01930212409539227, 0.004475021796938261, 0.006524503521107249]","[-0.026750000193715096, 0.05299999937415123, 0.03999999910593033]","[0.0, -0.0, 0.25940628465875326]","[-0.045218486338853836, 0.1225910559296608, 0.03999999910593033]","[0.0, 0.0, -0.41796839786874473]","[0.026750000193715096, 0.05299999937415123, 0.03999999910593033]","[0.0, 0.0, -0.6100137417321216]","[0.0679972693324089, 0.11201409250497818, 0.03999999910593033]","[0.0, -0.0, 0.06996972924183287]",0.2579266599132162,-0.3551167759184292,"(0.0, 0.0, 0.0, 0.0, 0.0, 0.0)",-9.41480874903525,-0.6750349438158396,0.5615494772077002,"(0.0, 0.0, 0.0, 0.0, 0.0, 0.0)",-4.53766271973316,-0.6111123514660456,-0.2636580264122231,"(0.0, 0.0, 0.0, 0.0, 0.0, 0.0)",7.943218031593141,0.67803181015155,-0.46840599041329506,"(0.0, 0.0, 0.0, 0.0, 0.0, 0.0)",3.8136250651214914,True,"(-0.004698676157038652, 0.1849880522694782, 0.04223423157982933)","(0.9996924265554116, 0.02480024737703693, 4.217933206971429e-06)",-0.0065524607717598,68.1514981515391,True,"(0.05099303737943928, 0.1831308228560156, 0.05600697620201928)","(-0.9977595527481694, 0.06653734370892336, 0.006975442060067826)",-0.0006860479188516533,62.11634644528196
37,Move,"(0.0184067, 0.0, 0.0213067)","(0.0, 0.03182782423936859, 0.0)","(0.021002112130611844, 0.16527332457287086, 0.055297548353190715)","(-0.3193293801530084, 0.012448040565750166, -0.06938564446517981)","[0.02114956773512913, 0.004684935372332416, 0.006654032824186876]","[-0.026750000193715096, 0.05299999937415123, 0.03999999910593033]","[0.0, -0.0, 0.24696781755083755]","[-0.044351473450660706, 0.12281538546085358, 0.03999999910593033]","[0.0, 0.0, -0.4143890523775437]","[0.026750000193715096, 0.05299999937415123, 0.03999999910593033]","[0.0, 0.0, -0.6194189890779035]","[0.0685504749417305, 0.11162354797124863, 0.03999999910593033]","[0.0, -0.0, 0.0464952257672159]",0.24557675063562012,-0.3338620666857053,"(0.0, 0.0, 0.0, 0.0, 0.0, 0.0)",-7.042674689606336,-0.6596396722051433,0.4121398041827563,"(0.0, 0.0, 0.0, 0.0, 0.0, 0.0)",-3.46712422945535,-0.620477322196684,-0.25402481808985616,"(0.0, 0.0, 0.0, 0.0, 0.0, 0.0)",6.307145897738083,0.6643846534991488,-0.3670702471802644,"(0.0, 0.0, 0.0, 0.0, 0.0, 0.0)",3.044955883702581,True,"(-0.004055262761068858, 0.18535701696916623, 0.04223423157982933)","(0.9996924265554116, 0.02480024737703693, 4.217933206971429e-06)",-0.0054041276749415565,50.17933783334825,True,"(0.05321857133756224, 0.1830987668629071, 0.05601206030066955)","(-0.9975516025505473, 0.06888662952047257, 0.012059540710331372)",-0.0003170213217700816,50.36902631156714
38,Move,"(0.01934, 0.0, 0.02268)","(0.0, 0.03246836007485052, 0.0)","(0.022678977117599693, 0.16541100577581513, 0.055400130197116496)","(-0.3259546725002705, 0.01646486704100552, -0.07190820443906193)","[0.022826432722116978, 0.004822616575276689, 0.0067566146681126565]","[-0.026750000193715096, 0.05299999937415123, 0.03999999910593033]","[0.0, -0.0, 0.23523360564843876]","[-0.04353105276823044, 0.12301711738109589, 0.03999999910593033]","[0.0, 0.0, -0.4130380518886465]","[0.026750000193715096, 0.05299999937415123, 0.03999999910593033]","[0.0, 0.0, -0.6278521443218734]","[0.06904336810112, 0.11126895248889923, 0.03999999910593033]","[0.0, -0.0, 0.026698192583788933]",0.2339255694048786,-0.3139294806327596,"(0.0, 0.0, 0.0, 0.0, 0.0, 0.0)",-5.975867240659389,-0.6467962945381027,0.3541002998673315,"(0.0, 0.0, 0.0, 0.0, 0.0, 0.0)",-2.939195871921121,-0.6287794306512293,-0.22255205910005615,"(0.0, 0.0, 0.0, 0.0, 0.0, 0.0)",5.093502611020839,0.6532813698108153,-0.3045479431748924,"(0.0, 0.0, 0.0, 0.0, 0.0, 0.0)",2.498146403703121,True,"(-0.003319368676564717, 0.1856131276835117, 0.04223423157982933)","(0.9996924265554116, 0.02480024737703693, 4.217933206971429e-06)",-0.004431726501464519,43.58691213676662,True,"(0.055128065189792914, 0.18301673064581378, 0.056015803696660996)","(-0.9973026427888807, 0.07167779208313926, 0.0158029367017796)",-0.0001605876943084339,40.6833981106525
39,Move,"(0.020300000000000002, 0.0, 0.0239667)","(0.0, 0.03300068549670879, 0.0)","(0.024171058766594915, 0.16551742664194688, 0.055478710985831)","(-0.33160250386721557, 0.02227510146899868, -0.07269826733943927)","[0.0243185143711122, 0.004929037441408435, 0.006835195456827162]","[-0.026750000193715096, 0.05299999937415123, 0.03999999910593033]","[0.0, -0.0, 0.22408628021234178]","[-0.04274952411651611, 0.12319982051849365, 0.03999999910593033]","[0.0, 0.0, -0.4125164060089623]","[0.026750000193715096, 0.05299999937415123, 0.03999999910593033]","[0.0, 0.0, -0.6353956990481047]","[0.06948170810937881, 0.11094825714826584, 0.03999999910593033]","[0.0, -0.0, 0.009447709665562824]",0.22283988836143598,-0.29913567501159766,"(0.0, 0.0, 0.0, 0.0, 0.0, 0.0)",-5.356439645670472,-0.6352835408065751,0.3165814909863588,"(0.0, 0.0, 0.0, 0.0, 0.0, 0.0)",-2.6267136021967024,-0.6362281348026798,-0.1997975379626165,"(0.0, 0.0, 0.0, 0.0, 0.0, 0.0)",4.278663594223947,0.6437586008648005,-0.260340831681838,"(0.0, 0.0, 0.0, 0.0, 0.0, 0.0)",2.1477136558077836,True,"(-0.002570504490854157, 0.18581680971714393, 0.04223423157982933)","(0.9996924265554116, 0.02480024737703693, 4.217933206971429e-06)",-0.0037373889434103385,38.270792170841794,True,"(0.056804893882464194, 0.18290920610964922, 0.05602133465935793)","(-0.9971269317534888, 0.07268250620554671, 0.021333899398705572)",2.7046859031459246e-06,33.934356109678006
40,Move,"(0.0210667, 0.0, 0.0252467)","(0.0, 0.032768556706193545, 0.0)","(0.025615335029506067, 0.16564497026024522, 0.05564092131780528)","(-0.33690794385455597, 0.03024658654238162, -0.07374229754465149)","[0.025762790634023352, 0.005056581059706772, 0.006997405788801439]","[-0.026750000193715096, 0.05299999937415123, 0.03999999910593033]","[0.0, -0.0, 0.21351587905052016]","[-0.04200660064816475, 0.12336502224206924, 0.03999999910593033]","[0.0, 0.0, -0.41278737711529945]","[0.026750000193715096, 0.05299999937415123, 0.03999999910593033]","[0.0, 0.0, -0.6421621764555647]","[0.06987284123897552, 0.11065778881311417, 0.03999999910593033]","[0.0, 0.0, -0.005658087499292218]",0.21233720375391385,-0.2828823174033169,"(0.0, 0.0, 0.0, 0.0, 0.0, 0.0)",-4.828035703269945,-0.6251209718047698,0.2837453322946807,"(0.0, 0.0, 0.0, 0.0, 0.0, 0.0)",-2.3371323789535956,-0.6429116288049688,-0.17986893671290882,"(0.0, 0.0, 0.0, 0.0, 0.0, 0.0)",3.700640433249884,0.635528892288384,-0.23404678203636164,"(0.0, 0.0, 0.0, 0.0, 0.0, 0.0)",1.8921161891815108,True,"(-0.0018106147529726654, 0.18597111458814058, 0.04223423157982933)","(0.9996924265554116, 0.02480024737703693, 4.217933206971429e-06)",-0.0031307268212453446,32.74133749326062,True,"(0.05828350554821015, 0.18278789502423995, 0.056029046257671876)","(-0.9968634074428869, 0.07361865228310582, 0.02904549771266284)",2.0476776669388117e-05,29.33288344988828
41,Move,"(0.0218067, 0.0, 0.0265133)","(0.0, 0.031960469262520164, 0.0)","(0.026937360561422513, 0.1657812394200199, 0.055892630453024825)","(-0.3417178959207116, 0.037714346400213636, -0.07550976578143564)","[0.027084816165939798, 0.00519285021948146, 0.007249114924020986]","[-0.026750000193715096, 0.05299999937415123, 0.03999999910593033]","[0.0, -0.0, 0.20345488639865114]","[-0.041297897696495056, 0.12351495027542114, 0.03999999910593033]","[0.0, 0.0, -0.4135167069365437]","[0.026750000193715096, 0.05299999937415123, 0.03999999910593033]","[0.0, 0.0, -0.6483155091875454]","[0.07022680342197418, 0.11039135605096817, 0.03999999910593033]","[0.0, 0.0, -0.019483736504463525]",0.2023305966459885,-0.2698283964009401,"(0.0, 0.0, 0.0, 0.0, 0.0, 0.0)",-4.402862909954605,-0.6158978507564483,0.2576870856463599,"(0.0, 0.0, 0.0, 0.0, 0.0, 0.0)",-2.1229418248624117,-0.64899891425624,-0.16402676120123152,"(0.0, 0.0, 0.0, 0.0, 0.0, 0.0)",3.3813005592533867,0.6279306912999977,-0.2162501611174486,"(0.0, 0.0, 0.0, 0.0, 0.0, 0.0)",1.7510177122495976,True,"(-0.0010562641599130007, 0.1860917157344853, 0.04223423157982933)","(0.9996924265554116, 0.02480024737703693, 4.217933206971429e-06)",-0.002615827455248843,28.375016361911317,True,"(0.0596350551959329, 0.18266268501851554, 0.05603662954499744)","(-0.996488740564547, 0.0752895878239921, 0.036628785038218176)",1.9640742740142175e-05,26.617507735483468
42,Move,"(0.02252, 0.0, 0.0277733)","(0.0, 0.03145606910869379, 0.0)","(0.028119779244604876, 0.16578718189706704, 0.05616306123364335)","(-0.3463943067939372, 0.03443145017143685, -0.0780485043565799)","[0.02826723484912216, 0.0051987926965285924, 0.007519545704639509]","[-0.026750000193715096, 0.05299999937415123, 0.03999999910593033]","[0.0, -0.0, 0.19364112793029906]","[-0.04060519114136696, 0.1236543282866478, 0.03999999910593033]","[0.0, 0.0, -0.41641083044354893]","[0.026750000193715096, 0.05299999937415123, 0.03999999910593033]","[0.0, 0.0, -0.6539148049289809]","[0.07054747641086578, 0.11014701426029205, 0.03999999910593033]","[0.0, 0.0, -0.03167233807838693]",0.19253010402817738,-0.26664237242122396,"(0.0, 0.0, 0.0, 0.0, 0.0, 0.0)",-2.8285048577139897,-0.6093958605004669,0.15746155795775918,"(0.0, 0.0, 0.0, 0.0, 0.0, 0.0)",-1.4003062718106167,-0.6545341268898568,-0.14863268606456434,"(0.0, 0.0, 0.0, 0.0, 0.0, 0.0)",2.686009966347529,0.6215324235774061,-0.1704159052746753,"(0.0, 0.0, 0.0, 0.0, 0.0, 0.0)",1.4177004049364172,True,"(-0.0001862609229955417, 0.18603903705317737, 0.023964725636806787)","(0.9963544887492599, -0.07767491377545624, -0.03527521111455447)",-0.0029248798377913172,21.126246376926765,True,"(0.06083652026470391, 0.18253231704680445, 0.056035275971073856)","(-0.9963544887492614, 0.07767491377539787, 0.03527521111464025)",-7.709661041312258e-06,20.318167963967365
43,Move,"(0.023379999999999998, 0.0, 0.0288867)","(0.0, 0.03021688533977783, 0.0)","(0.02916037798691416, 0.1657599561984051, 0.056351456621838776)","(-0.351116568237984, 0.029932178840241856, -0.0808385219955414)","[0.029307833591431444, 0.005171566997866667, 0.007707941092834937]","[-0.026750000193715096, 0.05299999937415123, 0.03999999910593033]","[0.0, -0.0, 0.18402040354274068]","[-0.03992481529712677, 0.12378434836864471, 0.03999999910593033]","[0.0, 0.0, -0.42023433371710617]","[0.026750000193715096, 0.05299999937415123, 0.03999999910593033]","[0.0, 0.0, -0.6589608639797676]","[0.07083528488874435, 0.1099252849817276, 0.03999999910593033]","[0.0, 0.0, -0.042720602950701264]",0.18293799588242826,-0.2597786297297555,"(0.0, 0.0, 0.0, 0.0, 0.0, 0.0)",-2.689421129261248,-0.6035914316239916,0.15919786426945565,"(0.0, 0.0, 0.0, 0.0, 0.0, 0.0)",-1.3320260340893462,-0.6595185900281744,-0.13386161682517767,"(0.0, 0.0, 0.0, 0.0, 0.0, 0.0)",2.537327987724138,0.6155615833083841,-0.16287542194280205,"(0.0, 0.0, 0.0, 0.0, 0.0, 0.0)",1.3375306242098226,True,"(0.0007325886850595362, 0.18601506868973722, 0.023969576049936225)","(0.9962918597728393, -0.0804791060232402, -0.030424392254849567)",-0.0025871977874903627,20.092697224646475,True,"(0.06192377813429684, 0.18240525841940808, 0.05603042515221412)","(-0.9962918597728406, 0.0804791060232062, 0.03042439225490101)",-7.436011747440959e-06,19.254741268560334
44,Move,"(0.0242867, 0.0, 0.0298933)","(0.0, 0.026928685029020516, 0.0)","(0.030148044007351098, 0.16574580221082033, 0.05649067440129906)","(-0.3563996588849664, 0.027437289899070575, -0.08367490799559639)","[0.030295499611868382, 0.005157413010281886, 0.007847158872295222]","[-0.026750000193715096, 0.05299999937415123, 0.03999999910593033]","[0.0, -0.0, 0.17440098877417357]","[-0.039243314415216446, 0.12390780448913574, 0.03999999910593033]","[0.0, 0.0, -0.42410233169044065]","[0.026750000193715096, 0.05299999937415123, 0.03999999910593033]","[0.0, 0.0, -0.6636543251645859]","[0.07110197842121124, 0.10971774160861969, 0.03999999910593033]","[0.0, 0.0, -0.05329771913261819]",0.17331078168392847,-0.26165004486783483,"(0.0, 0.0, 0.0, 0.0, 0.0, 0.0)",-2.6582265494220163,-0.5978490723893103,0.15702264688769707,"(0.0, 0.0, 0.0, 0.0, 0.0, 0.0)",-1.3181091565606438,-0.6641779935724854,-0.1256760808538988,"(0.0, 0.0, 0.0, 0.0, 0.0, 0.0)",2.49847419677502,0.6096878834389263,-0.16049775543690356,"(0.0, 0.0, 0.0, 0.0, 0.0, 0.0)",1.315745231723657,True,"(0.0016546599072157359, 0.18598181411042986, 0.023972290786230324)","(0.9961380542182408, -0.08331345048309027, -0.027710032603711025)",-0.0023810186469899785,19.839294500611498,True,"(0.06295683116321124, 0.18228022054947451, 0.05602771079256283)","(-0.9961380542182434, 0.08331345048309542, 0.027710032603606542)",-7.420152040143057e-06,19.000715909385832
45,Move,"(0.02522, 0.0, 0.0307933)","(0.0, 0.022254693292179693, 0.0)","(0.031117409614781873, 0.1657419160201703, 0.056605287310727725)","(-0.3624154100893097, 0.02617859250593625, -0.08668149298528637)","[0.03126486521929916, 0.005153526819631854, 0.007961771781723886]","[-0.026750000193715096, 0.05299999937415123, 0.03999999910593033]","[0.0, -0.0, 0.16455992436881195]","[-0.038544911891222, 0.124027319252491, 0.03999999910593033]","[0.0, 0.0, -0.42818667539444955]","[0.026750000193715096, 0.05299999937415123, 0.03999999910593033]","[0.0, 0.0, -0.6682000199449295]","[0.07135933637619019, 0.10951554775238037, 0.03999999910593033]","[0.0, 0.0, -0.06373494271591347]",0.16343977760602219,-0.2688363624159153,"(0.0, 0.0, 0.0, 0.0, 0.0, 0.0)",-2.671841545250568,-0.5920884866011832,0.1579440484696763,"(0.0, 0.0, 0.0, 0.0, 0.0, 0.0)",-1.3257607068243813,-0.6687115346883972,-0.12277392770238935,"(0.0, 0.0, 0.0, 0.0, 0.0, 0.0)",2.5071812149978574,0.6037937133444178,-0.16111831699498985,"(0.0, 0.0, 0.0, 0.0, 0.0, 0.0)",1.3197351444312917,True,"(0.002606381437116473, 0.18593484726350007, 0.023973682963731133)","(0.9959212825700644, -0.08630282028656056, -0.026317715223461966)",-0.0022689756764405667,19.9191852789915,True,"(0.0639712633787955, 0.1821516834564802, 0.0560263184751826)","(-0.995921282570066, 0.08630282028656808, 0.02631771522338075)",-7.487014522669286e-06,19.093047726627727
46,Move,"(0.02614, 0.0, 0.03164)","(0.0, 0.018491763424879928, 0.0)","(0.032075510386603404, 0.16574813708023892, 0.05670993449604206)","(-0.3693277239120057, 0.0253659091224228, -0.0901138344161979)","[0.032222965991120685, 0.0051597478797004714, 0.00806641896703822]","[-0.026750000193715096, 0.05299999937415123, 0.03999999910593033]","[0.0, -0.0, 0.15445261775375285]","[-0.037826426327228546, 0.12414290755987167, 0.03999999910593033]","[0.0, 0.0, -0.43251876502102443]","[0.026750000193715096, 0.05299999937415123, 0.03999999910593033]","[0.0, 0.0, -0.6726417457011186]","[0.07160992175340652, 0.10931684821844101, 0.03999999910593033]","[0.0, 0.0, -0.07417296086918788]",0.15330266642976506,-0.2759862670682842,"(0.0, 0.0, 0.0, 0.0, 0.0, 0.0)",-2.7232152206937856,-0.5863010226619155,0.16088486162965873,"(0.0, 0.0, 0.0, 0.0, 0.0, 0.0)",-1.350101031456921,-0.6731415700716757,-0.11996888406719684,"(0.0, 0.0, 0.0, 0.0, 0.0, 0.0)",2.5590086552485087,0.5977840392792882,-0.1643279804500439,"(0.0, 0.0, 0.0, 0.0, 0.0, 0.0)",1.347606699034802,True,"(0.0035927768689942713, 0.18587250056567067, 0.023974559631167937)","(0.9956442082368792, -0.08969597473065646, -0.025440965419483798)",-0.0022149815126833437,20.287994890330612,True,"(0.06497973731297269, 0.1820191454539544, 0.05602544172537863)","(-0.99564420823688, 0.0896959747306684, 0.025440965419406724)",-9.221991979139292e-06,19.512773952395914
47,Move,"(0.0268067, 0.0, 0.0325133)","(0.0, 0.015933110741456237, 0.0)","(0.03298315991533736, 0.16578207702399575, 0.05683949938947514)","(-0.3778287503856639, 0.02429345198652248, -0.0944293647574286)","[0.03313061551985464, 0.005193687823457305, 0.008195983860471302]","[-0.026750000193715096, 0.05299999937415123, 0.03999999910593033]","[0.0, -0.0, 0.14434137556726445]","[-0.037106528878211975, 0.12425126135349274, 0.03999999910593033]","[0.0, 0.0, -0.43693785176699906]","[0.026750000193715096, 0.05299999937415123, 0.03999999910593033]","[0.0, 0.0, -0.6767537595915458]","[0.07184111326932907, 0.10913190990686417, 0.03999999910593033]","[0.0, 0.0, -0.08440937438794349]",0.14319907711874316,-0.27415145358900683,"(0.0, 0.0, 0.0, 0.0, 0.0, 0.0)",-2.6402941036370384,-0.5806277356880395,0.15635127159525192,"(0.0, 0.0, 0.0, 0.0, 0.0, 0.0)",-1.2978226245034992,-0.6772092329636861,-0.10932366113738687,"(0.0, 0.0, 0.0, 0.0, 0.0, 0.0)",2.595683911137707,0.5916401846660929,-0.16899896318740285,"(0.0, 0.0, 0.0, 0.0, 0.0, 0.0)",1.3736789300972172,True,"(0.004585102645719645, 0.1857974561635118, 0.023975591710172474)","(0.995286028708525, -0.09386123791710327, -0.024408790922169576)",-0.0021974330799343638,19.7229288920144,True,"(0.06595486605201108, 0.18189224246555252, 0.05602440955088133)","(-0.9952860287085257, 0.09386123791711112, 0.024408790922112802)",-1.1823710274467072e-05,19.80729511680409
48,Move,"(0.0274, 0.0, 0.03332)","(0.0, 0.014842279958959783, 0.0)","(0.033845073640615946, 0.16580927169786785, 0.056935814519975446)","(-0.3852849845356624, 0.02291935673033454, -0.09796661008719477)","[0.03399252924513323, 0.00522088249732941, 0.008292298990971607]","[-0.026750000193715096, 0.05299999937415123, 0.03999999910593033]","[0.0, -0.0, 0.1343222375925088]","[-0.03639214485883713, 0.12435144931077957, 0.03999999910593033]","[0.0, 0.0, -0.4411343867678505]","[0.026750000193715096, 0.05299999937415123, 0.03999999910593033]","[0.0, 0.0, -0.680417726425965]","[0.07204648107290268, 0.10896632075309753, 0.03999999910593033]","[0.0, 0.0, -0.09424503201031745]",0.1331909432149764,-0.271507826442693,"(0.0, 0.0, 0.0, 0.0, 0.0, 0.0)",-2.648829843486901,-0.5747943548467705,0.1589399389040156,"(0.0, 0.0, 0.0, 0.0, 0.0, 0.0)",-1.3016144883192584,-0.6808211458034733,-0.09681427114954866,"(0.0, 0.0, 0.0, 0.0, 0.0, 0.0)",2.5987950266157602,0.585453428649002,-0.17262800063460737,"(0.0, 0.0, 0.0, 0.0, 0.0, 0.0)",1.3786531336417107,True,"(0.005557493204814995, 0.18572273807368223, 0.023976966856065356)","(0.9949749706628499, -0.09743851776854705, -0.023033519260623633)",-0.0022079757881724605,19.752943131683367,True,"(0.06687549177974551, 0.18177481815194502, 0.0560230342792198)","(-0.9949749706628515, 0.09743851776854233, 0.023033519260579612)",-9.604816091153805e-06,19.83117235698139
49,Move,"(0.0280467, 0.0, 0.0340933)","(0.0, 0.013753194505715318, 0.0)","(0.034628701707094235, 0.1658391250057067, 0.05699251958045853)","(-0.3914073852468233, 0.021765671736479798, -0.10131893321739566)","[0.034776157311611516, 0.005250735805168244, 0.008349004051454688]","[-0.026750000193715096, 0.05299999937415123, 0.03999999910593033]","[0.0, -0.0, 0.12435368792777748]","[-0.03568040952086449, 0.12444401532411575, 0.03999999910593033]","[0.0, 0.0, -0.4449047503321224]","[0.026750000193715096, 0.05299999937415123, 0.03999999910593033]","[0.0, 0.0, -0.6837391790571183]","[0.07223211973905563, 0.10881555825471878, 0.03999999910593033]","[0.0, 0.0, -0.103756495352506]",0.12322438400672399,-0.27103493080468605,"(0.0, 0.0, 0.0, 0.0, 0.0, 0.0)",-2.7075836474363983,-0.568541286577337,0.17211999029331626,"(0.0, 0.0, 0.0, 0.0, 0.0, 0.0)",-1.3404475398859736,-0.6841089200456749,-0.08873405151850344,"(0.0, 0.0, 0.0, 0.0, 0.0, 0.0)",2.5751982853815667,0.5793723994624203,-0.14647392865834175,"(0.0, 0.0, 0.0, 0.0, 0.0, 0.0)",1.270711638705668,True,"(0.0065003829331576266, 0.18565707214782076, 0.023977943300562556)","(0.9946596694169229, -0.1008247550760934, -0.022056989805127332)",-0.002273406048279505,20.305290562456182,True,"(0.06775357057530404, 0.18166728444715213, 0.05602240057325754)","(-0.9948673841893438, 0.09867692861278511, 0.02239981329832197)",2.0914474691652878e-05,16.53082022560956
50,Move,"(0.0289, 0.0, 0.034786700000000004)","(0.0, 0.012664109052470857, 0.0)","(0.03535281270021702, 0.16591644062290398, 0.05675794360604582)","(-0.39266895159872794, 0.015141472097418151, -0.1066706314233825)","[0.0355002683047343, 0.005328051422365532, 0.008114428077041984]","[-0.026750000193715096, 0.05299999937415123, 0.03999999910593033]","[0.0, -0.0, 0.11407912727749007]","[-0.03494589403271675, 0.12453199923038483, 0.03999999910593033]","[0.0, 0.0, -0.4491012051581326]","[0.026750000193715096, 0.05299999937415123, 0.03999999910593033]","[0.0, 0.0, -0.686978215880941]","[0.07241266220808029, 0.10866795480251312, 0.03999999910593033]","[0.0, 0.0, -0.11249104655656049]",0.11290929039535046,-0.2807611132832108,"(0.0, 0.0, 0.0, 0.0, 0.0, 0.0)",-2.7160363457130545,-0.5624730562473904,0.16974042749099758,"(0.0, 0.0, 0.0, 0.0, 0.0, 0.0)",-1.345489030300569,-0.6873461578043905,-0.08833136584293176,"(0.0, 0.0, 0.0, 0.0, 0.0, 0.0)",2.546022724017921,0.5738467649710287,-0.15367239561858936,"(0.0, 0.0, 0.0, 0.0, 0.0, 0.0)",1.2296158351305038,True,"(0.0074914250483321815, 0.18556660425017357, 0.023984223122614973)","(0.9942513035506587, -0.10590298367625674, -0.015776673802872277)",-0.0022546570089955176,20.451094398715775,True,"(0.0685706038329903, 0.18155601783407366, 0.05602240057325754)","(-0.9948673841893438, 0.09867692861278511, 0.02239981329832197)",2.738898845049897e-05,15.463092970178948
51,Move,"(0.029833300000000004, 0.0, 0.0353867)","(0.0, 0.01060985652287353, 0.0)","(0.03609994306345962, 0.1660075656934811, 0.05653120742568131)","(-0.3938146935482115, 0.0087344931467138, -0.11292815730671274)","[0.0362473986679769, 0.005419176492942657, 0.00788769189667747]","[-0.026750000193715096, 0.05299999937415123, 0.03999999910593033]","[0.0, -0.0, 0.10335019464866918]","[-0.03417797386646271, 0.12461581826210022, 0.03999999910593033]","[0.0, 0.0, -0.4535418717496902]","[0.026750000193715096, 0.05299999937415123, 0.03999999910593033]","[0.0, 0.0, -0.6904639564738723]","[0.07260643690824509, 0.10850844532251358, 0.03999999910593033]","[0.0, 0.0, -0.1215287158839221]",0.10212421151540244,-0.29423673313433657,"(0.0, 0.0, 0.0, 0.0, 0.0, 0.0)",-2.7775152888067316,-0.5561764352628887,0.171748937689081,"(0.0, 0.0, 0.0, 0.0, 0.0, 0.0)",-1.3795853899599728,-0.690866258832796,-0.09655696896636744,"(0.0, 0.0, 0.0, 0.0, 0.0, 0.0)",2.576512406662905,0.5683091579168337,-0.1502565596713646,"(0.0, 0.0, 0.0, 0.0, 0.0, 0.0)",1.218418200662036,True,"(0.00852985137126052, 0.18545968174909092, 0.023990546638727073)","(0.9936629211289264, -0.11200287204011382, -0.00945282118179202)",-0.002254957075037683,20.94173932376797,True,"(0.06942326092617085, 0.1814282538466736, 0.05602240057325754)","(-0.9948673841893438, 0.09867692861278511, 0.02239981329832197)",3.528322060806557e-05,14.86561129252113
52,Move,"(0.03072, 0.0, 0.03592)","(0.0, 0.009707521299592462, 0.0)","(0.036859876796935, 0.166102084878447, 0.056306288128205276)","(-0.39472876169668286, 0.002182036957860026, -0.11970854790375074)","[0.03700733240145228, 0.005513695677908548, 0.007662772599201437]","[-0.026750000193715096, 0.05299999937415123, 0.03999999910593033]","[0.0, -0.0, 0.09218872217947459]","[-0.03337819129228592, 0.12469425797462463, 0.03999999910593033]","[0.0, 0.0, -0.45820185709524075]","[0.026750000193715096, 0.05299999937415123, 0.03999999910593033]","[0.0, 0.0, -0.6941895569034667]","[0.07281292229890823, 0.10833721607923508, 0.03999999910593033]","[0.0, 0.0, -0.13087301197554738]",0.09091805923500286,-0.3049603629866672,"(0.0, 0.0, 0.0, 0.0, 0.0, 0.0)",-2.9553841045829268,-0.5496102340189015,0.18728982693669588,"(0.0, 0.0, 0.0, 0.0, 0.0, 0.0)",-1.467293449252053,-0.6946191872361588,-0.10310690155712379,"(0.0, 0.0, 0.0, 0.0, 0.0, 0.0)",2.7426944650244,0.5626619736005001,-0.15710164580613561,"(0.0, 0.0, 0.0, 0.0, 0.0, 0.0)",1.2753878571390003,True,"(0.009612490673240985, 0.18533629666878076, 0.023997260277277287)","(0.9929165038651726, -0.11878263449066151, -0.002738995367072062)",-0.00227157854604799,22.324699536050307,True,"(0.07031126015032724, 0.1812835851623345, 0.05602240057325754)","(-0.9948673841893438, 0.09867692861278511, 0.02239981329832197)",5.620306274470779e-05,12.999981887110078
53,Move,"(0.03132, 0.0, 0.03646)","(0.0, 0.010536552694289771, 0.0)","(0.03763244586434406, 0.1661066256058701, 0.05636124156229626)","(-0.3964642914752244, 0.00443226091662379, -0.12385013124674009)","[0.03777990146886134, 0.005518236405331667, 0.007717726033292419]","[-0.026750000193715096, 0.05299999937415123, 0.03999999910593033]","[0.0, -0.0, 0.08110711712176029]","[-0.03258331120014191, 0.12476330995559692, 0.03999999910593033]","[0.0, 0.0, -0.46075275798923776]","[0.026750000193715096, 0.05299999937415123, 0.03999999910593033]","[0.0, 0.0, -0.6979391864325408]","[0.0730200931429863, 0.10816410928964615, 0.03999999910593033]","[0.0, 0.0, -0.1407005328461902]",0.07986635717013327,-0.29778423446006114,"(0.0, 0.0, 0.0, 0.0, 0.0, 0.0)",-4.42846798566297,-0.5407289580235499,0.2714243950797265,"(0.0, 0.0, 0.0, 0.0, 0.0, 0.0)",-2.090255310607257,-0.6983659995687488,-0.10243038214712996,"(0.0, 0.0, 0.0, 0.0, 0.0, 0.0)",3.224878883409305,0.5565935492524025,-0.15482976623319328,"(0.0, 0.0, 0.0, 0.0, 0.0, 0.0)",1.3197035998455553,True,"(0.010561693181244967, 0.18529365901960443, 0.02399663874335754)","(0.9923837981380603, -0.12313855598477189, -0.003360539103021043)",-0.0024201865024703504,28.640356885550506,True,"(0.07123542129176594, 0.1811315397568592, 0.05602240057325754)","(-0.9948673841893438, 0.09867692861278511, 0.02239981329832197)",0.00015762295795367524,9.29220001295654
54,Move,"(0.0321667, 0.0, 0.036840000000000005)","(0.0, 0.012507029419791366, 0.0)","(0.038489440966009855, 0.16602655333560756, 0.056560579434172774)","(-0.39936884144136336, 0.010831854509436686, -0.12870519264657782)","[0.038636896570527136, 0.005438164135069118, 0.007917063905168935]","[-0.026750000193715096, 0.05299999937415123, 0.03999999910593033]","[0.0, -0.0, 0.06982170414069747]","[-0.03177307918667793, 0.12482456862926483, 0.03999999910593033]","[0.0, 0.0, -0.46201621576947294]","[0.026750000193715096, 0.05299999937415123, 0.03999999910593033]","[0.0, 0.0, -0.7018068842954408]","[0.07323309779167175, 0.1079847440123558, 0.03999999910593033]","[0.0, 0.0, -0.1505445868166009]",0.06853294906553599,-0.3092997098193642,"(0.0, 0.0, 0.0, 0.0, 0.0, 0.0)",-4.6255962977937575,-0.5307009827048165,0.2728688599637386,"(0.0, 0.0, 0.0, 0.0, 0.0, 0.0)",-2.2286023286876704,-0.7022473118812329,-0.10571953687473724,"(0.0, 0.0, 0.0, 0.0, 0.0, 0.0)",3.4287789982664942,0.5505740353976366,-0.16516499612790753,"(0.0, 0.0, 0.0, 0.0, 0.0, 0.0)",1.362310737487959,True,"(0.011447893977772426, 0.18529695851724787, 0.023989997813205377)","(0.9917505599122989, -0.12779199397072763, -0.010001659393688744)",-0.002580488381785283,30.224917793987863,True,"(0.07216679831041677, 0.1809662057281421, 0.05602240057325754)","(-0.9948673841893438, 0.09867692861278511, 0.02239981329832197)",0.0001548536518633133,9.927353722919896
55,Move,"(0.032926699999999996, 0.0, 0.03718)","(0.0, 0.01592612942444826, 0.0)","(0.0393114942152105, 0.1658346283594867, 0.05674922468876885)","(-0.40400915046942454, 0.013831330374773184, -0.13694741228774074)","[0.03945894981972778, 0.005246239158948257, 0.00810570915976501]","[-0.026750000193715096, 0.05299999937415123, 0.03999999910593033]","[0.0, -0.0, 0.05827272074120641]","[-0.030943261459469795, 0.12487778812646866, 0.03999999910593033]","[0.0, 0.0, -0.4634258315830587]","[0.026750000193715096, 0.05299999937415123, 0.03999999910593033]","[0.0, 0.0, -0.7056000451472833]","[0.07344132661819458, 0.10780802369117737, 0.03999999910593033]","[0.0, 0.0, -0.1605660634784482]",0.05695519334700536,-0.31620700347260605,"(0.0, 0.0, 0.0, 0.0, 0.0, 0.0)",-4.526067749033956,-0.5205862898445048,0.2669449106867967,"(0.0, 0.0, 0.0, 0.0, 0.0, 0.0)",-2.2376684870817454,-0.7060347615602564,-0.10433841758840687,"(0.0, 0.0, 0.0, 0.0, 0.0, 0.0)",3.8420560282545964,0.5442128675856013,-0.1970644249429145,"(0.0, 0.0, 0.0, 0.0, 0.0, 0.0)",1.5363119951283166,True,"(0.01236206403033099, 0.185283204842554, 0.023986118996683594)","(0.9907239327160913, -0.135179200687447, -0.013880664431668896)",-0.00266235116040958,27.722659821968367,True,"(0.07310645373589542, 0.18079651166055904, 0.05602240057325754)","(-0.9948673841893438, 0.09867692861278511, 0.02239981329832197)",0.00013854798840553934,12.965509805091122
56,Move,"(0.033853299999999996, 0.0, 0.0374067)","(0.0, 0.019343484099853158, 0.0)","(0.04017014176695324, 0.16594814798168867, 0.056715447338477464)","(-0.4041168635254427, 0.012145122571905295, -0.14648906591602884)","[0.040317597371470525, 0.00535975878115022, 0.008071931809473624]","[-0.026750000193715096, 0.05299999937415123, 0.03999999910593033]","[0.0, -0.0, 0.04619393065390012]","[-0.03007478080689907, 0.12492319196462631, 0.03999999910593033]","[0.0, 0.0, -0.4649281352301117]","[0.026750000193715096, 0.05299999937415123, 0.03999999910593033]","[0.0, 0.0, -0.7093735174834048]","[0.07364781200885773, 0.10763144493103027, 0.03999999910593033]","[0.0, 0.0, -0.17104927791451324]",0.04481331369453062,-0.33134834103967875,"(0.0, 0.0, 0.0, 0.0, 0.0, 0.0)",-4.729404928767993,-0.5098964139082919,0.2941548320430862,"(0.0, 0.0, 0.0, 0.0, 0.0, 0.0)",-2.365017116762046,-0.7098003942485999,-0.10246126079966231,"(0.0, 0.0, 0.0, 0.0, 0.0, 0.0)",4.062360368615116,0.537618290135702,-0.16942054302691853,"(0.0, 0.0, 0.0, 0.0, 0.0, 0.0)",1.4851160698422037,True,"(0.013320099510003784, 0.18525529945353306, 0.023987647113511604)","(0.9893761357863881, -0.1448526100305866, -0.012352461443831252)",-0.002571631775412767,27.598853721810485,True,"(0.0740780947373903, 0.1806194341957223, 0.05602240057325754)","(-0.9948673841893438, 0.09867692861278511, 0.02239981329832197)",9.996388873430307e-05,15.425578351592272
57,Move,"(0.03468, 0.0, 0.0375667)","(0.0, 0.02275211212899808, 0.0)","(0.04100000648472583, 0.16610913287564133, 0.05668237213933376)","(-0.40398292880345177, 0.010890255706849488, -0.15670061182631093)","[0.04114746208924311, 0.005520743675102885, 0.008038856610329922]","[-0.026750000193715096, 0.05299999937415123, 0.03999999910593033]","[0.0, -0.0, 0.033681382773543954]","[-0.029174601659178734, 0.12495916336774826, 0.03999999910593033]","[0.0, 0.0, -0.4663959561889213]","[0.026750000193715096, 0.05299999937415123, 0.03999999910593033]","[0.0, 0.0, -0.7132551762789999]","[0.07385952025651932, 0.1074489951133728, 0.03999999910593033]","[0.0, 0.0, -0.18132486585881608]",0.03225526652207294,-0.3422679800124389,"(0.0, 0.0, 0.0, 0.0, 0.0, 0.0)",-4.881266928293681,-0.4988190640196779,0.301984576060149,"(0.0, 0.0, 0.0, 0.0, 0.0, 0.0)",-2.4393615178951014,-0.7136976369961217,-0.10619282851556112,"(0.0, 0.0, 0.0, 0.0, 0.0, 0.0)",4.175991425227008,0.5311994448496679,-0.1754030331336561,"(0.0, 0.0, 0.0, 0.0, 0.0, 0.0)",1.4894495550710605,True,"(0.014307489971921505, 0.1852188829134504, 0.023988952249647626)","(0.98786359909644, -0.15493052528168552, -0.011047258310059815)",-0.0025591362447531033,28.765383636237683,True,"(0.07503976384801916, 0.18042870545220677, 0.05602240057325754)","(-0.9948673841893438, 0.09867692861278511, 0.02239981329832197)",8.56497573107071e-05,16.39435050468037
58,Move,"(0.0352267, 0.0, 0.0377733)","(0.0, 0.025350907385217634, 0.0)","(0.041768608578077016, 0.16629801179350265, 0.05662076185584888)","(-0.4037578223956802, 0.008398356660347456, -0.1682997933715301)","[0.0419160641825943, 0.005709622592964203, 0.007977246326845044]","[-0.026750000193715096, 0.05299999937415123, 0.03999999910593033]","[0.0, -0.0, 0.020852763010787468]","[-0.028251290321350098, 0.12498434633016586, 0.03999999910593033]","[0.0, 0.0, -0.46878705505940277]","[0.026750000193715096, 0.05299999937415123, 0.03999999910593033]","[0.0, 0.0, -0.7170760422177076]","[0.07406722009181976, 0.10726860165596008, 0.03999999910593033]","[0.0, 0.0, -0.19123514704481742]",0.01937813819566668,-0.35391005832319955,"(0.0, 0.0, 0.0, 0.0, 0.0, 0.0)",-3.992827225569401,-0.4886884407555254,0.22833174387586125,"(0.0, 0.0, 0.0, 0.0, 0.0, 0.0)",-2.0149454934509414,-0.7174882904274812,-0.09894457574478717,"(0.0, 0.0, 0.0, 0.0, 0.0, 0.0)",3.421471734284125,0.5252701942183375,-0.13696214093766312,"(0.0, 0.0, 0.0, 0.0, 0.0, 0.0)",1.2658965465055583,True,"(0.015373354066786755, 0.18513118488235916, 0.02399107272413508)","(0.9860802912884545, -0.16603003850571932, -0.008926670502826665)",-0.002641823333348169,30.030320658594995,True,"(0.07597064039827132, 0.18023302971009947, 0.05602240057325754)","(-0.9948673841893438, 0.09867692861278511, 0.02239981329832197)",6.9917770969787e-05,13.6348272816796
59,Move,"(0.03568, 0.0, 0.0379733)","(0.0, 0.02737548931753106, 0.0)","(0.0424753376616634, 0.1664557208576042, 0.05654158068238509)","(-0.4031673631070106, 0.004916600662028648, -0.1794156324520497)","[0.04262279326618068, 0.005867331657065766, 0.007898065153381248]","[-0.026750000193715096, 0.05299999937415123, 0.03999999910593033]","[0.0, -0.0, 0.007643133622586311]","[-0.02730030007660389, 0.12499789893627167, 0.03999999910593033]","[0.0, 0.0, -0.4723811039774314]","[0.026750000193715096, 0.05299999937415123, 0.03999999910593033]","[0.0, 0.0, -0.7208015835040856]","[0.07426906377077103, 0.10709194093942642, 0.03999999910593033]","[0.0, 0.0, -0.20059905918684065]",0.006141520588482779,-0.36038696090185046,"(0.0, 0.0, 0.0, 0.0, 0.0, 0.0)",-4.249967575559314,-0.4789079641341696,0.267903341726961,"(0.0, 0.0, 0.0, 0.0, 0.0, 0.0)",-2.143362783809753,-0.7212247352179364,-0.10157365665383253,"(0.0, 0.0, 0.0, 0.0, 0.0, 0.0)",3.616473437470857,0.5195559877520205,-0.15515253894695047,"(0.0, 0.0, 0.0, 0.0, 0.0, 0.0)",1.3244331800962108,True,"(0.016538906792670772, 0.1849798873496614, 0.02399465069779889)","(0.9841523183916986, -0.17724448279086602, -0.005348600232122898)",-0.002879661792103834,31.934177646596094,True,"(0.07685562715631504, 0.18003535164310783, 0.05602240057325754)","(-0.9948673841893438, 0.09867692861278511, 0.02239981329832197)",9.887237526928171e-05,11.311210101051302
60,Move,"(0.0360267, 0.0, 0.0381333)","(0.0, 0.02963569069886372, 0.0)","(0.04321999166921187, 0.16658171579973743, 0.05648359698838535)","(-0.4026156048319348, 0.0022951941614794266, -0.1896425108708316)","[0.043367447273729154, 0.005993326599198989, 0.00784008145938151]","[-0.026750000193715096, 0.05299999937415123, 0.03999999910593033]","[0.0, 0.0, -0.005781396394408678]","[-0.02633374184370041, 0.1249987930059433, 0.03999999910593033]","[0.0, 0.0, -0.4753194336606317]","[0.026750000193715096, 0.05299999937415123, 0.03999999910593033]","[0.0, 0.0, -0.7244931203359091]","[0.07446842640638351, 0.1069161519408226, 0.03999999910593033]","[0.0, 0.0, -0.21016797669337892]",-0.007306077657370612,-0.3659235305075932,"(0.0, 0.0, 0.0, 0.0, 0.0, 0.0)",-4.599669729859068,-0.4683337300681296,0.28902208560484666,"(0.0, 0.0, 0.0, 0.0, 0.0, 0.0)",-2.317685709886846,-0.7249097567947085,-0.09999464575616497,"(0.0, 0.0, 0.0, 0.0, 0.0, 0.0)",3.873490432269013,0.5136749320706986,-0.15604841155393373,"(0.0, 0.0, 0.0, 0.0, 0.0, 0.0)",1.3511356328246975,True,"(0.017680178223199786, 0.18484447798509496, 0.023997399306456897)","(0.9822852958868044, -0.18737352466759966, -0.0025999496559965824)",-0.003092680337206405,34.55150419588936,True,"(0.07775284961107433, 0.17983147233669144, 0.05602240057325754)","(-0.9948673841893438, 0.09867692861278511, 0.02239981329832197)",0.00011689438277651474,10.175182295319225
61,Move,"(0.03642, 0.0, 0.03824)","(0.0, 0.031885420104684405, 0.0)","(0.04397201832238371, 0.1667017730056759, 0.05643282398049028)","(-0.4021526620561178, 5.648643791864746e-05, -0.19968090492153728)","[0.04411947392690099, 0.006113383805137457, 0.00778930845148644]","[-0.026750000193715096, 0.05299999937415123, 0.03999999910593033]","[0.0, 0.0, -0.019417131959661698]","[-0.025352055206894875, 0.1249864250421524, 0.03999999910593033]","[0.0, 0.0, -0.477704797363562]","[0.026750000193715096, 0.05299999937415123, 0.03999999910593033]","[0.0, 0.0, -0.7281187952788364]","[0.07466359436511993, 0.10674279183149338, 0.03999999910593033]","[0.0, 0.0, -0.2198347037997819]",-0.020966068322790757,-0.3717453899972255,"(0.0, 0.0, 0.0, 0.0, 0.0, 0.0)",-4.935511891557161,-0.4569984510569905,0.3094127084445397,"(0.0, 0.0, 0.0, 0.0, 0.0, 0.0)",-2.4857641431866924,-0.7285268748404339,-0.0979647314718378,"(0.0, 0.0, 0.0, 0.0, 0.0, 0.0)",4.127642643180794,0.5075996337947671,-0.1642485073127682,"(0.0, 0.0, 0.0, 0.0, 0.0, 0.0)",1.4101951770365944,True,"(0.018803009596432642, 0.1847193889074352, 0.02399966815740131)","(0.9803482508595446, -0.19727442160857878, -0.00033108251585727564)",-0.0033005164000094616,37.000415017985404,True,"(0.0786526992807075, 0.17962295575717707, 0.05602240057325754)","(-0.9948673841893438, 0.09867692861278511, 0.02239981329832197)",0.0001350867138304264,9.058285186906259
62,Move,"(0.03708, 0.0, 0.03824)","(0.0, 0.034105478913221195, 0.0)","(0.044905800726782116, 0.16664890440958055, 0.05654384949714938)","(-0.40198500413639604, 0.0034138614755252032, -0.20485458574738408)","[0.0450532563312994, 0.0060605152090421055, 0.007900333968145538]","[-0.026750000193715096, 0.05299999937415123, 0.03999999910593033]","[0.0, 0.0, -0.033316611282048346]","[-0.02435164712369442, 0.1249600425362587, 0.03999999910593033]","[0.0, 0.0, -0.4766832117347617]","[0.026750000193715096, 0.05299999937415123, 0.03999999910593033]","[0.0, 0.0, -0.7320711267338481]","[0.07487563043832779, 0.10655300319194794, 0.03999999910593033]","[0.0, 0.0, -0.23072112082048551]",-0.03489893504058908,-0.379758745724142,"(0.0, 0.0, 0.0, 0.0, 0.0, 0.0)",-7.028582855459454,-0.44158972787712264,0.42644262155891094,"(0.0, 0.0, 0.0, 0.0, 0.0, 0.0)",-3.4163418650387674,-0.7325280707471581,-0.10968117008557852,"(0.0, 0.0, 0.0, 0.0, 0.0, 0.0)",5.31522924798335,0.5005463028105388,-0.19287274485569977,"(0.0, 0.0, 0.0, 0.0, 0.0, 0.0)",1.6264456097448092,True,"(0.019741008320595766, 0.18473142634810685, 0.0239971208917857)","(0.979188980623558, -0.20293017327791316, -0.002878367383361734)",-0.0033332307935889406,40.34817667182207,True,"(0.0796578898173791, 0.17938541892267484, 0.05602240057325754)","(-0.9948673841893438, 0.09867692861278511, 0.02239981329832197)",0.00016488203458308917,13.672000457475887
63,Move,"(0.0378133, 0.0, 0.0382133)","(0.0, 0.036323792392505994, 0.0)","(0.04586575445775727, 0.1666410431067818, 0.056646398148895945)","(-0.4018955390923427, 0.006555347080315531, -0.21153471425459805)","[0.04601321006227455, 0.006052653906243349, 0.008002882619892106]","[-0.026750000193715096, 0.05299999937415123, 0.03999999910593033]","[0.0, 0.0, -0.04745245464371686]","[-0.023334704339504242, 0.12491895258426666, 0.03999999910593033]","[0.0, 0.0, -0.47511111315124654]","[0.026750000193715096, 0.05299999937415123, 0.03999999910593033]","[0.0, 0.0, -0.7360275321774327]","[0.07508713006973267, 0.10636217147111893, 0.03999999910593033]","[0.0, 0.0, -0.24167980811563872]",-0.04906512100246291,-0.3870390469062056,"(0.0, 0.0, 0.0, 0.0, 0.0, 0.0)",-6.900911094837901,-0.42591285631017367,0.4189864468873132,"(0.0, 0.0, 0.0, 0.0, 0.0, 0.0)",-3.421867352924073,-0.7364776289602961,-0.10802284810016174,"(0.0, 0.0, 0.0, 0.0, 0.0, 0.0)",5.687484525603219,0.49337235025612775,-0.23409676270836718,"(0.0, 0.0, 0.0, 0.0, 0.0, 0.0)",1.8240519791032817,True,"(0.020662373168165632, 0.1847522292158854, 0.02399341288474495)","(0.9779489451590346, -0.20874022052426336, -0.006586425268196154)",-0.0033357936919817034,38.086057477990416,True,"(0.08066723544464095, 0.1791378134159175, 0.05602240057325754)","(-0.9948673841893438, 0.09867692861278511, 0.02239981329832197)",0.000149152765339558,16.67626627933889
64,Move,"(0.038386699999999996, 0.0, 0.0381933)","(0.0, 0.03943396911955988, 0.0)","(0.04679491164873425, 0.1667545769343859, 0.05664435622436603)","(-0.40180599431913977, 0.006348943008835789, -0.22159718738417553)","[0.04694236725325153, 0.006166187733847445, 0.008000840695362194]","[-0.026750000193715096, 0.05299999937415123, 0.03999999910593033]","[0.0, 0.0, -0.0617062754458216]","[-0.02230996824800968, 0.12486296892166138, 0.03999999910593033]","[0.0, 0.0, -0.47370858355597406]","[0.026750000193715096, 0.05299999937415123, 0.03999999910593033]","[0.0, 0.0, -0.7398134879471144]","[0.0752888098359108, 0.10617879033088684, 0.03999999910593033]","[0.0, 0.0, -0.2535148970996786]",-0.06332006831301987,-0.38731332946379116,"(0.0, 0.0, 0.0, 0.0, 0.0, 0.0)",-6.954571374085221,-0.4102262015189789,0.4262598721088902,"(0.0, 0.0, 0.0, 0.0, 0.0, 0.0)",-3.4474429849432844,-0.7402355169307944,-0.1012838797789592,"(0.0, 0.0, 0.0, 0.0, 0.0, 0.0)",5.735235204081797,0.4854040581535021,-0.21469106277073105,"(0.0, 0.0, 0.0, 0.0, 0.0, 0.0)",1.8440461146800005,True,"(0.021600676606767982, 0.1847465525119024, 0.02399361179528283)","(0.9757692215867662, -0.21870899834874957, -0.006387506966178195)",-0.0032266764832532676,38.60125847958921,True,"(0.0817298132114795, 0.17888329222089722, 0.05602240057325754)","(-0.9948673841893438, 0.09867692861278511, 0.02239981329832197)",0.0001496846919665426,16.06634649602289
65,Move,"(0.03896670000000001, 0.0, 0.03816)","(0.0, 0.042544145846613785, 0.0)","(0.04770850858737714, 0.16687174971836422, 0.0566425766860223)","(-0.40165426722766817, 0.006084840771040112, -0.23190967710152297)","[0.04785596419189442, 0.00628336051782577, 0.007999061157018462]","[-0.026750000193715096, 0.05299999937415123, 0.03999999910593033]","[0.0, 0.0, -0.07626683096567248]","[-0.021264109760522842, 0.12479070574045181, 0.03999999910593033]","[0.0, 0.0, -0.47250488421466563]","[0.026750000193715096, 0.05299999937415123, 0.03999999910593033]","[0.0, 0.0, -0.7434971041353451]","[0.07548437267541885, 0.10599963366985321, 0.03999999910593033]","[0.0, 0.0, -0.26511948342231734]",-0.07792446983086328,-0.39783417725192977,"(0.0, 0.0, 0.0, 0.0, 0.0, 0.0)",-6.992276274890014,-0.394453576034372,0.4282762458175092,"(0.0, 0.0, 0.0, 0.0, 0.0, 0.0)",-3.464508273252866,-0.743912161389093,-0.09961458870936656,"(0.0, 0.0, 0.0, 0.0, 0.0, 0.0)",5.754582950002983,0.4774797395326475,-0.21548974969880214,"(0.0, 0.0, 0.0, 0.0, 0.0, 0.0)",1.843151887131108,True,"(0.02257186568905078, 0.18471591793784395, 0.02399386955121396)","(0.9734743151161248, -0.2287141973365396, -0.006129742726581932)",-0.00318440734000801,39.14162236088007,True,"(0.08276862620258094, 0.17862449540113273, 0.05602240057325754)","(-0.9948673841893438, 0.09867692861278511, 0.02239981329832197)",0.00015659011752856077,15.106193512384401
66,Move,"(0.0394533, 0.0, 0.0381733)","(0.0, 0.046905723647347616, 0.0)","(0.04850916057435086, 0.16707099583177878, 0.05661217281456593)","(-0.40138614966227104, 0.004567174851701712, -0.24495732191401623)","[0.04865661617886814, 0.00648260663124034, 0.007968657285562092]","[-0.026750000193715096, 0.05299999937415123, 0.03999999910593033]","[0.0, 0.0, -0.09119427266520304]","[-0.020193109288811684, 0.12470081448554993, 0.03999999910593033]","[0.0, 0.0, -0.47270042576375615]","[0.026750000193715096, 0.05299999937415123, 0.03999999910593033]","[0.0, 0.0, -0.7469338967962065]","[0.07566623389720917, 0.10583183169364929, 0.03999999910593033]","[0.0, 0.0, -0.27597060596188844]",-0.09291615578230235,-0.4132514486963734,"(0.0, 0.0, 0.0, 0.0, 0.0, 0.0)",-5.653871095928497,-0.38018560756217834,0.31692286638766987,"(0.0, 0.0, 0.0, 0.0, 0.0, 0.0)",-2.8341172985725227,-0.7472894891544036,-0.08535238132162942,"(0.0, 0.0, 0.0, 0.0, 0.0, 0.0)",4.626728106846352,0.47030070761813997,-0.15900509279242364,"(0.0, 0.0, 0.0, 0.0, 0.0, 0.0)",1.5168741380634054,True,"(0.023651694188813195, 0.18460548555365303, 0.02399502996824514)","(0.9705422140291641, -0.24087988041798852, -0.0049693055031476314)",-0.0033121266260467343,42.06412119517548,True,"(0.08373810284101299, 0.17837337816318655, 0.05602240057325754)","(-0.9948673841893438, 0.09867692861278511, 0.02239981329832197)",0.00015135414598498802,8.701627275641618
67,Move,"(0.0396933, 0.0, 0.03812)","(0.0, 0.050687852136419326, 0.0)","(0.04921645074666993, 0.16725299391297843, 0.056562019118522086)","(-0.4008692138448164, 0.0020458936504871173, -0.2578165161224004)","[0.04936390635118721, 0.0066646047124399865, 0.007918503589518247]","[-0.026750000193715096, 0.05299999937415123, 0.03999999910593033]","[0.0, 0.0, -0.10659616369793631]","[-0.019089603796601295, 0.12459132820367813, 0.03999999910593033]","[0.0, 0.0, -0.47475137378981386]","[0.026750000193715096, 0.05299999937415123, 0.03999999910593033]","[0.0, 0.0, -0.7500723445456243]","[0.07583179324865341, 0.10567805171012878, 0.03999999910593033]","[0.0, 0.0, -0.28566107150379283]",-0.10834588157577014,-0.4199334441543402,"(0.0, 0.0, 0.0, 0.0, 0.0, 0.0)",-5.980755099181085,-0.36659684978207874,0.374013341164126,"(0.0, 0.0, 0.0, 0.0, 0.0, 0.0)",-2.9957128285718064,-0.750426874530405,-0.08510969993687849,"(0.0, 0.0, 0.0, 0.0, 0.0, 0.0)",4.856060343778361,0.46366245236126485,-0.17970655121008788,"(0.0, 0.0, 0.0, 0.0, 0.0, 0.0)",1.5463053827850037,True,"(0.02487523757226981, 0.18439523214333153, 0.023997655656679592)","(0.9673108149677568, -0.2535829150790848, -0.0023435926283277586)",-0.0036945394027364208,44.46178192597562,True,"(0.08460623521480798, 0.1781379753553198, 0.05602240057325754)","(-0.9948673841893438, 0.09867692861278511, 0.02239981329832197)",0.00017753584136373236,6.582819212816281
68,Move,"(0.040406700000000004, 0.0, 0.03814)","(0.0, 0.05388180466756895, 0.0)","(0.05001823327320532, 0.16738926063742982, 0.05652210848697718)","(-0.4004257052561751, 4.0819679179360806e-05, -0.26999303428467736)","[0.0501656888777226, 0.00680087143689137, 0.007878592957973343]","[-0.026750000193715096, 0.05299999937415123, 0.03999999910593033]","[0.0, 0.0, -0.12293018562990395]","[-0.01792130246758461, 0.12445665895938873, 0.03999999910593033]","[0.0, 0.0, -0.4762690027287204]","[0.026750000193715096, 0.05299999937415123, 0.03999999910593033]","[0.0, 0.0, -0.7535482280440257]","[0.07601460814476013, 0.10550712794065475, 0.03999999910593033]","[0.0, 0.0, -0.29618170792308207]",-0.12480674245257166,-0.4503741680656643,"(0.0, 0.0, 0.0, 0.0, 0.0, 0.0)",-6.566430819062435,-0.35163547172946025,0.40879079630695186,"(0.0, 0.0, 0.0, 0.0, 0.0, 0.0)",-3.2891360518875308,-0.7539516168163186,-0.09680376958984704,"(0.0, 0.0, 0.0, 0.0, 0.0, 0.0)",5.297615237140392,0.45656852296061967,-0.19154072674425923,"(0.0, 0.0, 0.0, 0.0, 0.0, 0.0)",1.6525450718808987,True,"(0.02613146446956438, 0.18418345389193314, 0.02399971395987267)","(0.9641462246378819, -0.26537139282774164, -0.0002852808846427996)",-0.004043924108414798,48.720516692349186,True,"(0.08555087304902628, 0.17787072727890524, 0.05602240057325754)","(-0.9948673841893438, 0.09867692861278511, 0.02239981329832197)",0.0002027641692628295,5.605697108372834
69,Move,"(0.0405333, 0.0, 0.0380867)","(0.0, 0.05619436592646143, 0.0)","(0.05098298594819055, 0.16740621335550968, 0.05661602506577617)","(-0.3989156108155829, 0.004025823553845586, -0.27919394938290176)","[0.05113044155270783, 0.00681782415497123, 0.00797250953677233]","[-0.026750000193715096, 0.05299999937415123, 0.03999999910593033]","[0.0, 0.0, -0.13934062951199436]","[-0.016749907284975052, 0.12430216372013092, 0.03999999910593033]","[0.0, 0.0, -0.4728250130226128]","[0.026750000193715096, 0.05299999937415123, 0.03999999910593033]","[0.0, 0.0, -0.7571633948066943]","[0.07620410621166229, 0.10532868653535843, 0.03999999910593033]","[0.0, 0.0, -0.30802046617604206]",-0.14119403100982755,-0.4448144765654084,"(0.0, 0.0, 0.0, 0.0, 0.0, 0.0)",-9.34453639602102,-0.3310938529702354,0.5737173017525544,"(0.0, 0.0, 0.0, 0.0, 0.0, 0.0)",-4.569038328385591,-0.7575755245361858,-0.09892557185265732,"(0.0, 0.0, 0.0, 0.0, 0.0, 0.0)",6.996368580664573,0.4481761249739736,-0.2320293322193684,"(0.0, 0.0, 0.0, 0.0, 0.0, 0.0)",1.9776189362778709,True,"(0.027093410129297377, 0.1841678053286243, 0.02399661826828658)","(0.9615634917568879, -0.27456186955415274, -0.0033809920481312245)",-0.004083282450370873,52.55159749997258,True,"(0.07082439575246356, 0.12799928849453113, 0.03376740798637103)","(-0.9637653078503262, 0.2667516247704283, 4.545879848530665e-05)",-0.0013517608724829303,13.499819506703586
70,Move,"(0.0408133, 0.0, 0.038020000000000005)","(0.0, 0.0579257325444398, 0.0)","(0.05195605287973589, 0.16751943778252587, 0.05668639034230851)","(-0.39757218194071015, 0.0071053539945228105, -0.2912093789789141)","[0.05210350848425317, 0.006931048581987426, 0.008042874813304672]","[-0.026750000193715096, 0.05299999937415123, 0.03999999910593033]","[0.0, 0.0, -0.1558443328600126]","[-0.01557457447052002, 0.12412741780281067, 0.03999999910593033]","[0.0, 0.0, -0.468467234552152]","[0.026750000193715096, 0.05299999937415123, 0.03999999910593033]","[0.0, 0.0, -0.7606205045798966]","[0.07638471573591232, 0.10515740513801575, 0.03999999910593033]","[0.0, 0.0, -0.3202337487420822]",-0.1577195316753372,-0.4500503701101952,"(0.0, 0.0, 0.0, 0.0, 0.0, 0.0)",-9.289281726247928,-0.3102732227662934,0.563921231903595,"(0.0, 0.0, 0.0, 0.0, 0.0, 0.0)",-4.558812861702552,-0.7610075569362137,-0.09290190757797975,"(0.0, 0.0, 0.0, 0.0, 0.0, 0.0)",7.385697513684808,0.43926577045321974,-0.2690291778238072,"(0.0, 0.0, 0.0, 0.0, 0.0, 0.0)",2.2032501708367844,True,"(0.02770594349521275, 0.18311387856649072, 0.02399302344792812)","(0.9583390316038879, -0.2855479604947712, -0.006975869967184507)",-0.004075274380171013,52.1142323190504,True,"(0.07128228462260121, 0.1278920184627993, 0.03376740798637103)","(-0.9637653078503262, 0.2667516247704283, 4.545879848530665e-05)",-0.00133711722989921,16.672338554774846
71,Move,"(0.041226700000000005, 0.0, 0.038020000000000005)","(0.0, 0.05995031447675323, 0.0)","(0.05293722039496005, 0.16765370060270335, 0.05668505511740436)","(-0.3958455347966956, 0.008155065796624856, -0.3041801075483725)","[0.05308467599947733, 0.007065311402164903, 0.008041539588400523]","[-0.026750000193715096, 0.05299999937415123, 0.03999999910593033]","[0.0, 0.0, -0.17288753821986827]","[-0.014364016242325306, 0.12392663210630417, 0.03999999910593033]","[0.0, 0.0, -0.46460206167453144]","[0.026750000193715096, 0.05299999937415123, 0.03999999910593033]","[0.0, 0.0, -0.7640436670127658]","[0.07656296342611313, 0.10498719662427902, 0.03999999910593033]","[0.0, 0.0, -0.3331278295069359]",-0.1748315427349079,-0.4665607461793319,"(0.0, 0.0, 0.0, 0.0, 0.0, 0.0)",-9.350257891496192,-0.2893476689939665,0.5680466664708613,"(0.0, 0.0, 0.0, 0.0, 0.0, 0.0)",-4.586129110678931,-0.7644305211108025,-0.09286807734225493,"(0.0, 0.0, 0.0, 0.0, 0.0, 0.0)",7.410329255427111,0.4298602921881737,-0.25330828871713257,"(0.0, 0.0, 0.0, 0.0, 0.0, 0.0)",2.1939779507800057,True,"(0.028683230213228418, 0.18306360504491315, 0.023991980290386666)","(0.9544779169449956, -0.29817377657751526, -0.008019041454202945)",-0.004057305311778956,53.350794950682634,True,"(0.07175409185904373, 0.12778570785581078, 0.03376740798637103)","(-0.9637653078503262, 0.2667516247704283, 4.545879848530665e-05)",-0.0013023637951119365,17.719231806081908
72,Move,"(0.0413333, 0.0, 0.0380267)","(0.0, 0.062259385077141724, 0.0)","(0.05375913360590579, 0.1678490536933978, 0.05662934253659786)","(-0.3939094977561733, 0.007662323844522103, -0.3176370403210979)","[0.05390658921042307, 0.0072606644928593644, 0.007985827007594024]","[-0.026750000193715096, 0.05299999937415123, 0.03999999910593033]","[0.0, 0.0, -0.19048015089952383]","[-0.01311821211129427, 0.12369776517152786, 0.03999999910593033]","[0.0, 0.0, -0.4636949445663315]","[0.026750000193715096, 0.05299999937415123, 0.03999999910593033]","[0.0, 0.0, -0.7670374517481356]","[0.07671838253736496, 0.1048378273844719, 0.03999999910593033]","[0.0, 0.0, -0.344284794491134]",-0.19249248774519387,-0.48295895515379117,"(0.0, 0.0, 0.0, 0.0, 0.0, 0.0)",-7.716346468049087,-0.27130417943158347,0.4585485058278346,"(0.0, 0.0, 0.0, 0.0, 0.0, 0.0)",-3.81384874426541,-0.7673544340654825,-0.07607501608679422,"(0.0, 0.0, 0.0, 0.0, 0.0, 0.0)",6.069935216020026,0.4219297258325203,-0.19750901418740321,"(0.0, 0.0, 0.0, 0.0, 0.0, 0.0)",1.7887845796508608,True,"(0.02987104019950531, 0.18286018450373384, 0.02399224005189807)","(0.9504153784021736, -0.3108864788630738, -0.007759236867945769)",-0.004392552214306115,57.40952164613169,True,"(0.07216416783235931, 0.12768857314069432, 0.03376740798637103)","(-0.9637653078503262, 0.2667516247704283, 4.545879848530665e-05)",-0.0012107500644149346,16.725173976733497
73,Move,"(0.0418467, 0.0, 0.037966700000000006)","(0.0, 0.0657221183130985, 0.0)","(0.054616429652183725, 0.16791421112466237, 0.056575086545418776)","(-0.3912491424392775, 0.007673538055533826, -0.32821572915444436)","[0.054763885256701006, 0.007325821924123926, 0.007931571016414937]","[-0.026750000193715096, 0.05299999937415123, 0.03999999910593033]","[0.0, 0.0, -0.209037486688334]","[-0.011808672919869423, 0.12343263626098633, 0.03999999910593033]","[0.0, 0.0, -0.46381739960506774]","[0.026750000193715096, 0.05299999937415123, 0.03999999910593033]","[0.0, 0.0, -0.7701547524520759]","[0.07687973231077194, 0.10468181222677231, 0.03999999910593033]","[0.0, 0.0, -0.3553213232862297]",-0.21116291990657882,-0.5101042929676499,"(0.0, 0.0, 0.0, 0.0, 0.0, 0.0)",-8.285609546684436,-0.2526618430506987,0.5083431200455696,"(0.0, 0.0, 0.0, 0.0, 0.0, 0.0)",-4.084267636515929,-0.7705157386428929,-0.08663902524446479,"(0.0, 0.0, 0.0, 0.0, 0.0, 0.0)",6.475320476825807,0.41392388467082125,-0.21829560510328744,"(0.0, 0.0, 0.0, 0.0, 0.0, 0.0)",1.890832838375618,True,"(0.031184357256384507, 0.18257938537119753, 0.023992405452565115)","(0.9469100761266245, -0.32140883841861667, -0.007593834095216518)",-0.004878858051130491,61.607797298588764,True,"(0.07257798311703587, 0.12758142571436204, 0.03376740798637103)","(-0.9637653078503262, 0.2667516247704283, 4.545879848530665e-05)",-0.0012004232818662944,23.964062239354927
