OSUrobotics/InHand-Manipulation/AnalyseData/Data/Trial Data/Even Better/new_hand_human_sub1_2v2_f_n_1_kpNone_kdNone_dp3_step2_save_data.csv
,Phase,human_cube_pos,human_cube_orn,Cube_Pos,Cube_Orn,Cube_pos_in_start_pos,b'l_prox_pin'_link_pos,b'l_prox_pin'_link_orn,b'l_distal_pin'_link_pos,b'l_distal_pin'_link_orn,b'r_prox_pin'_link_pos,b'r_prox_pin'_link_orn,b'r_distal_pin'_link_pos,b'r_distal_pin'_link_orn,b'l_prox_pin'_joint_angle,b'l_prox_pin'_joint_vel,b'l_prox_pin'_joint_react_forces,b'l_prox_pin'_joint_motor_torque,b'l_distal_pin'_joint_angle,b'l_distal_pin'_joint_vel,b'l_distal_pin'_joint_react_forces,b'l_distal_pin'_joint_motor_torque,b'r_prox_pin'_joint_angle,b'r_prox_pin'_joint_vel,b'r_prox_pin'_joint_react_forces,b'r_prox_pin'_joint_motor_torque,b'r_distal_pin'_joint_angle,b'r_distal_pin'_joint_vel,b'r_distal_pin'_joint_react_forces,b'r_distal_pin'_joint_motor_torque,in_contact_l,contact_point_l_dist,contact_normal_l_dist,contact_distance_l_dist,contact_norm_force_l_dist,in_contact_r,contact_point_r_dist,contact_normal_r_dist,contact_distance_r_dist,contact_norm_force_r_dist
0,Open,,,,,,"[-0.026750000193715096, 0.05299999937415123, 0.03999999910593033]","[0.0, -0.0, 0.0]","[-0.026750000193715096, 0.125, 0.03999999910593033]","[0.0, -0.0, 5.883223447970011e-32]","[0.026750000193715096, 0.05299999937415123, 0.03999999910593033]","[0.0, 0.0, -0.008068665592501188]","[0.02733093686401844, 0.12499765306711197, 0.03999999910593033]","[0.0, 0.0, -0.0780932845685428]",0.157,37.68,"(0.0, 0.0, 0.0, 0.0, 0.0, 0.0)",54.702693795169004,5.294901130302062e-32,-1.4119736347472162e-30,"(0.0, 0.0, 0.0, 0.0, 0.0, 0.0)",3.9113724975844915,-0.1670280316324969,-38.150247946082466,"(0.0, 0.0, 0.0, 0.0, 0.0, 0.0)",-25.93345404555236,-0.0659493391739072,0.9780670797324476,"(0.0, 0.0, 0.0, 0.0, 0.0, 0.0)",-6.754749483880455,False,,,,,False,,,,
1,Open,,,,,,"[-0.026750000193715096, 0.05299999937415123, 0.03999999910593033]","[0.0, -0.0, 0.29830000998707634]","[-0.04791048914194107, 0.12182030081748962, 0.03999999910593033]","[0.0, -0.0, 0.29830000998707634]","[0.026750000193715096, 0.05299999937415123, 0.03999999910593033]","[0.0, 0.0, -0.3122944642903269]","[0.048871491104364395, 0.12151744216680527, 0.03999999910593033]","[0.0, 0.0, -0.3793531994353912]",0.42546999999999996,30.5208,"(0.0, 0.0, 0.0, 0.0, 0.0, 0.0)",-4.858074537215091,5.294901130302062e-32,0.0,"(0.0, 0.0, 0.0, 0.0, 0.0, 0.0)",-0.33154044974508506,-0.44292449566296654,-31.35120824461403,"(0.0, 0.0, 0.0, 0.0, 0.0, 0.0)",100.88457241511576,-0.08373770380977785,-4.0029668326633345,"(0.0, 0.0, 0.0, 0.0, 0.0, 0.0)",24.077304806401806,False,,,,,False,,,,
2,Open,,,,,,"[-0.026750000193715096, 0.05299999937415123, 0.03999999910593033]","[0.0, -0.0, 0.5399230359738098]","[-0.06376303732395172, 0.11475787311792374, 0.03999999910593033]","[0.0, -0.0, 0.5399230359738098]","[0.026750000193715096, 0.05299999937415123, 0.03999999910593033]","[0.0, 0.0, -0.5623038790270362]","[0.06513584405183792, 0.11391409486532211, 0.03999999910593033]","[0.0, 0.0, -0.6668711870723439]",0.6429307,24.721848,"(0.0, 0.0, 0.0, 0.0, 0.0, 0.0)",-3.943806903965684,5.294901130302062e-32,0.0,"(0.0, 0.0, 0.0, 0.0, 0.0, 0.0)",-0.2716098155097054,-0.6673401099248648,-25.208696742335626,"(0.0, 0.0, 0.0, 0.0, 0.0, 0.0)",94.97739775913854,-0.11755295807544866,-3.116564819203918,"(0.0, 0.0, 0.0, 0.0, 0.0, 0.0)",25.79194570087013,False,,,,,False,,,,
3,Open,,,,,,"[-0.026750000193715096, 0.05299999937415123, 0.03999999910593033]","[0.0, -0.0, 0.7356376306875043]","[-0.07506632059812546, 0.10638101398944855, 0.03999999910593033]","[0.0, -0.0, 0.7356376306875043]","[0.026750000193715096, 0.05299999937415123, 0.03999999910593033]","[0.0, 0.0, -0.757991847340814]","[0.076247438788414, 0.10528770089149475, 0.03999999910593033]","[0.0, 0.0, -0.8659334873334429]",0.8190738670000001,20.024696880000004,"(0.0, 0.0, 0.0, 0.0, 0.0, 0.0)",-3.2002295086701533,2.3293280891773424e-07,5.5903874140256216e-05,"(0.0, 0.0, 0.0, 0.0, 0.0, 0.0)",-0.22200715926400075,-0.8391926082762636,-19.488197112632974,"(0.0, 0.0, 0.0, 0.0, 0.0, 0.0)",3.295349739497939,-0.09714776835574307,2.590534961280482,"(0.0, 0.0, 0.0, 0.0, 0.0, 0.0)",0.25803221970863044,False,,,,,False,,,,
4,Open,,,,,,"[-0.026750000193715096, 0.05299999937415123, 0.03999999910593033]","[0.0, -0.0, 0.894166469119967]","[-0.08288749307394028, 0.09808415919542313, 0.03999999910593033]","[0.0, -0.0, 0.894166894674561]","[0.026750000193715096, 0.05299999937415123, 0.03999999910593033]","[0.0, 0.0, -0.9122733503889549]","[0.08369457721710205, 0.09706035256385803, 0.03999999910593033]","[0.0, 0.0, -0.9997066729229968]",0.96174983227,16.220004472800003,"(0.0, 0.0, 0.0, 0.0, 0.0, 0.0)",-2.5959652512206968,5.681494863714967e-07,3.553320838026869e-05,"(0.0, 0.0, 0.0, 0.0, 0.0, 0.0)",-0.18114955764248034,-0.9780460127037736,-15.785439661232708,"(0.0, 0.0, 0.0, 0.0, 0.0, 0.0)",2.503992476159733,-0.0786900142246732,2.098357403184359,"(0.0, 0.0, 0.0, 0.0, 0.0, 0.0)",0.15360133560797545,False,,,,,False,,,,
5,Open,,,,,,"[-0.026750000193715096, 0.05299999937415123, 0.03999999910593033]","[0.0, -0.0, 1.0225748785172661]","[-0.08819860219955444, 0.09052424877882004, 0.03999999910593033]","[0.0, -0.0, 1.0225755149967983]","[0.026750000193715096, 0.05299999937415123, 0.03999999910593033]","[0.0, 0.0, -1.037241417801626]","[0.08874232321977615, 0.08961901068687439, 0.03999999910593033]","[0.0, 0.0, -1.1080626941470386]",1.0773173641387,13.138203622968001,"(0.0, 0.0, 0.0, 0.0, 0.0, 0.0)",-2.105207702642618,7.694903593429899e-07,2.0776129443188934e-05,"(0.0, 0.0, 0.0, 0.0, 0.0, 0.0)",-0.14759587787833617,-1.0905172702900567,-12.78620612559849,"(0.0, 0.0, 0.0, 0.0, 0.0, 0.0)",2.0303755786213302,-0.06373917358809339,1.6996763127328351,"(0.0, 0.0, 0.0, 0.0, 0.0, 0.0)",0.1250328149112744,False,,,,,False,,,,
6,Open,,,,,,"[-0.026750000193715096, 0.05299999937415123, 0.03999999910593033]","[0.0, -0.0, 1.126585512342968]","[-0.09176240861415863, 0.08394166082143784, 0.03999999910593033]","[0.0, -0.0, 1.1265864725026016]","[0.026750000193715096, 0.05299999937415123, 0.03999999910593033]","[0.0, 0.0, -1.13846552283997]","[0.09212540090084076, 0.08316715806722641, 0.03999999910593033]","[0.0, 0.0, -1.1958309904194953]",1.1709270649523469,10.641944934604087,"(0.0, 0.0, 0.0, 0.0, 0.0, 0.0)",-1.7068426281171958,8.750681698751778e-07,1.0273240928962424e-05,"(0.0, 0.0, 0.0, 0.0, 0.0, 0.0)",-0.12011999884119333,-1.181618988934946,-10.356826961734775,"(0.0, 0.0, 0.0, 0.0, 0.0, 0.0)",1.6460093571929852,-0.051628943774705546,1.376743384776279,"(0.0, 0.0, 0.0, 0.0, 0.0, 0.0)",0.10168054944364863,False,,,,,False,,,,
7,Open,,,,,,"[-0.026750000193715096, 0.05299999937415123, 0.03999999910593033]","[0.0, -0.0, 1.2108343955497323]","[-0.09413553774356842, 0.07836118340492249, 0.03999999910593033]","[0.0, -0.0, 1.210835255049739]","[0.026750000193715096, 0.05299999937415123, 0.03999999910593033]","[0.0, 0.0, -1.2204571829136446]","[0.09437645971775055, 0.07771158218383789, 0.03999999910593033]","[0.0, 0.0, -1.2669233179031547]",1.2467509226114009,8.619975397029307,"(0.0, 0.0, 0.0, 0.0, 0.0, 0.0)",-1.3836082777937824,9.135722823677317e-07,2.9650129412077397e-06,"(0.0, 0.0, 0.0, 0.0, 0.0, 0.0)",-0.09766941677677543,-1.2554113810373062,-8.38902983900517,"(0.0, 0.0, 0.0, 0.0, 0.0, 0.0)",1.334189480132575,-0.04181961771093252,1.1151666876061868,"(0.0, 0.0, 0.0, 0.0, 0.0, 0.0)",0.08262627878010878,False,,,,,False,,,,
8,Open,,,,,,"[-0.026750000193715096, 0.05299999937415123, 0.03999999910593033]","[0.0, -0.0, 1.2790758758817962]","[-0.09570803493261337, 0.0737072303891182, 0.03999999910593033]","[0.0, -0.0, 1.2790780932516201]","[0.026750000193715096, 0.05299999937415123, 0.03999999910593033]","[0.0, 0.0, -1.2868702529032277]","[0.0958673357963562, 0.07316911965608597, 0.03999999910593033]","[0.0, 0.0, -1.3245087793274308]",1.3081682532711112,6.982181501004109,"(0.0, 0.0, 0.0, 0.0, 0.0, 0.0)",-1.12145472366965,1.9027582300258812e-06,-5.0740219467356254e-05,"(0.0, 0.0, 0.0, 0.0, 0.0, 0.0)",-0.07939114715284208,-1.315183223212741,-6.795115266999686,"(0.0, 0.0, 0.0, 0.0, 0.0, 0.0)",1.0813262344929835,-0.033874873767778015,0.9033299671407473,"(0.0, 0.0, 0.0, 0.0, 0.0, 0.0)",0.06713055017345074,False,,,,,False,,,,
9,Open,,,,,,"[-0.026750000193715096, 0.05299999937415123, 0.03999999910593033]","[0.0, -0.0, 1.334351465706577]","[-0.09674673527479172, 0.06986585259437561, 0.03999999910593033]","[0.0, -0.0, 1.33435435145599]","[0.026750000193715096, 0.05299999937415123, 0.03999999910593033]","[0.0, 0.0, -1.3406650641721125]","[0.09685182571411133, 0.06942359358072281, 0.03999999910593033]","[0.0, 0.0, -1.3711530696282732]",1.3579162851496,5.655565729344001,"(0.0, 0.0, 0.0, 0.0, 0.0, 0.0)",-0.9088150211252332,3.4316066113876724e-06,0.0001607445165674468,"(0.0, 0.0, 0.0, 0.0, 0.0, 0.0)",-0.06444344013525093,-1.3635984108023202,-5.504042378604797,"(0.0, 0.0, 0.0, 0.0, 0.0, 0.0)",0.8762522980402716,-0.02744024570882781,0.7315266716392431,"(0.0, 0.0, 0.0, 0.0, 0.0, 0.0)",0.05446985052483407,False,,,,,False,,,,
10,Open,,,,,,"[-0.026750000193715096, 0.05299999937415123, 0.03999999910593033]","[0.0, -0.0, 1.3791247702213432]","[-0.0974314734339714, 0.0667160153388977, 0.03999999910593033]","[0.0, -0.0, 1.3791284782568445]","[0.026750000193715096, 0.05299999937415123, 0.03999999910593033]","[0.0, 0.0, -1.3842387704807777]","[0.09750068932771683, 0.06635437905788422, 0.03999999910593033]","[0.0, 0.0, -1.408935619520831]",1.398212190971176,4.581008240768642,"(0.0, 0.0, 0.0, 0.0, 0.0, 0.0)",-0.7364407507487188,4.314390796743166e-06,8.968521101115077e-05,"(0.0, 0.0, 0.0, 0.0, 0.0, 0.0)",-0.05230389643117988,-1.4028147127498793,-4.458274326669883,"(0.0, 0.0, 0.0, 0.0, 0.0, 0.0)",0.7100243788118592,-0.02222789596809768,0.5925708975857369,"(0.0, 0.0, 0.0, 0.0, 0.0, 0.0)",0.04419507766734469,False,,,,,False,,,,
11,Open,,,,,,"[-0.026750000193715096, 0.05299999937415123, 0.03999999910593033]","[0.0, -0.0, 1.415391158105469]","[-0.09788231551647186, 0.06414420157670975, 0.03999999910593033]","[0.0, -0.0, 1.415395709317307]","[0.026750000193715096, 0.05299999937415123, 0.03999999910593033]","[0.0, 0.0, -1.419533200978404]","[0.09792786836624146, 0.06384945660829544, 0.03999999910593033]","[0.0, 0.0, -1.4395389386881268]",1.4308518746866525,3.7106166750225977,"(0.0, 0.0, 0.0, 0.0, 0.0, 0.0)",-0.5967141397561109,4.7399630338636504e-06,3.9705446138709865e-05,"(0.0, 0.0, 0.0, 0.0, 0.0, 0.0)",-0.042434775014060074,-1.4345799173274023,-3.611202204602609,"(0.0, 0.0, 0.0, 0.0, 0.0, 0.0)",0.5752902758042565,-0.018005647771851804,0.4800102903229233,"(0.0, 0.0, 0.0, 0.0, 0.0, 0.0)",0.0358468230863414,False,,,,,False,,,,
12,Open,,,,,,"[-0.026750000193715096, 0.05299999937415123, 0.03999999910593033]","[0.0, -0.0, 1.4447668540021588]","[-0.09817895293235779, 0.06205013021826744, 0.03999999910593033]","[0.0, -0.0, 1.4447715863131299]","[0.026750000193715096, 0.05299999937415123, 0.03999999910593033]","[0.0, 0.0, -1.448121993206969]","[0.09820891171693802, 0.06181041896343231, 0.03999999910593033]","[0.0, 0.0, -1.46432761016298]",1.4572900184961886,3.005599506768304,"(0.0, 0.0, 0.0, 0.0, 0.0, 0.0)",-0.483467731204937,4.849462099751187e-06,5.401615740548756e-06,"(0.0, 0.0, 0.0, 0.0, 0.0, 0.0)",-0.03441712855198442,-1.4603097330351957,-2.925073785728113,"(0.0, 0.0, 0.0, 0.0, 0.0, 0.0)",0.4660969568661882,-0.014585427836986846,0.38883096045278315,"(0.0, 0.0, 0.0, 0.0, 0.0, 0.0)",0.029067900465992856,False,,,,,False,,,,
13,Open,,,,,,"[-0.026750000193715096, 0.05299999937415123, 0.03999999910593033]","[0.0, -0.0, 1.4685611215819594]","[-0.09837405383586884, 0.06034812703728676, 0.03999999910593033]","[0.0, -0.0, 1.468565853091142]","[0.026750000193715096, 0.05299999937415123, 0.03999999910593033]","[0.0, 0.0, -1.4712788457263521]","[0.0983937606215477, 0.06015344336628914, 0.03999999910593033]","[0.0, 0.0, -1.4844061039497418]",1.4787049149819127,2.434535600482329,"(0.0, 0.0, 0.0, 0.0, 0.0, 0.0)",-0.39169363303347604,4.747151892642784e-06,-1.7351748576465223e-05,"(0.0, 0.0, 0.0, 0.0, 0.0, 0.0)",-0.02790732436186781,-1.4811508837585086,-2.3693097664397755,"(0.0, 0.0, 0.0, 0.0, 0.0, 0.0)",0.37761186810531283,-0.011814888241968555,0.3149714411852639,"(0.0, 0.0, 0.0, 0.0, 0.0, 0.0)",0.023565936472848985,False,,,,,False,,,,
14,Open,,,,,,"[-0.026750000193715096, 0.05299999937415123, 0.03999999910593033]","[0.0, -0.0, 1.487834617901085]","[-0.09850236773490906, 0.05896640568971634, 0.03999999910593033]","[0.0, -0.0, 1.4878390921106803]","[0.026750000193715096, 0.05299999937415123, 0.03999999910593033]","[0.0, 0.0, -1.4900358577435544]","[0.09851532429456711, 0.05880843847990036, 0.03999999910593033]","[0.0, 0.0, -1.5006695807985118]",1.4960509811353493,1.9719738363906854,"(0.0, 0.0, 0.0, 0.0, 0.0, 0.0)",-0.3173274216127963,4.509251873886308e-06,-3.168767150011037e-05,"(0.0, 0.0, 0.0, 0.0, 0.0, 0.0)",-0.022624215793833224,-1.498032215844392,-1.9191409108162163,"(0.0, 0.0, 0.0, 0.0, 0.0, 0.0)",0.30591369390909257,-0.00957062017308593,0.2551417656412126,"(0.0, 0.0, 0.0, 0.0, 0.0, 0.0)",0.019102112305110365,False,,,,,False,,,,
15,Close,,,"(0.010000330010418335, 0.1600052801621647, 0.0076635160840755065)","(-0.00010776674212266888, 6.7354271463595154e-06, -3.629275205618536e-10)",,"[-0.026750000193715096, 0.05299999937415123, 0.03999999910593033]","[0.0, -0.0, 1.5034457455162191]","[-0.09858676046133041, 0.05784556642174721, 0.03999999910593033]","[0.0, -0.0, 1.5034503818793725]","[0.026750000193715096, 0.05299999937415123, 0.03999999910593033]","[0.0, 0.0, -1.5052288706440118]","[0.09859529137611389, 0.057717464864254, 0.03999999910593033]","[0.0, 0.0, -1.5138427586332608]",1.413101294719633,-21.682701192523552,"(0.0, 0.0, 0.0, 0.0, 0.0, 0.0)",-36.2964633864193,-0.08999572753671375,-21.600020366059084,"(0.0, 0.0, 0.0, 0.0, 0.0, 0.0)",-4.677104715743802,-1.4147060948339576,21.72549586223887,"(0.0, 0.0, 0.0, 0.0, 0.0, 0.0)",36.28721231316116,0.08224721981037424,21.806647295928226,"(0.0, 0.0, 0.0, 0.0, 0.0, 0.0)",4.674247117033191,False,,,,,False,,,,
16,Close,,,"(0.010000659812012168, 0.16001055698314023, 0.0146278458391823)","(-0.0002154970996661642, 1.346858017578936e-05, -1.4512199879406586e-09)",,"[-0.026750000193715096, 0.05299999937415123, 0.03999999910593033]","[0.0, -0.0, 1.331791174621689]","[-0.09670332819223404, 0.07004500180482864, 0.03999999910593033]","[0.0, -0.0, 1.1607947601674466]","[0.026750000193715096, 0.05299999937415123, 0.03999999910593033]","[0.0, 0.0, -1.333235579802916]","[0.0967278704047203, 0.06994394958019257, 0.03999999910593033]","[0.0, 0.0, -1.1692126917852095]",1.2586120487229027,-17.562987965944075,"(0.0, 0.0, 0.0, 0.0, 0.0, 0.0)",2.9912613024458263,-0.2438973282575851,-17.496176851103186,"(0.0, 0.0, 0.0, 0.0, 0.0, 0.0)",0.3774423078885404,-1.2599119368155056,17.59765164841349,"(0.0, 0.0, 0.0, 0.0, 0.0, 0.0)",-2.998418754928424,0.23762104120869787,17.663545071724318,"(0.0, 0.0, 0.0, 0.0, 0.0, 0.0)",-0.3794651959179023,False,,,,,False,,,,
17,Close,,,"(0.010000989414132393, 0.1600158306125408, 0.020893621515273818)","(-0.00032319108508158773, 2.0199459787849396e-05, -3.2641426920478403e-09)",,"[-0.026750000193715096, 0.05299999937415123, 0.03999999910593033]","[0.0, -0.0, 1.1927509376626115]","[-0.09366592019796371, 0.0795755386352539, 0.03999999910593033]","[0.0, -0.0, 0.8832429263887086]","[0.026750000193715096, 0.05299999937415123, 0.03999999910593033]","[0.0, 0.0, -1.1939208377844814]","[0.0936969667673111, 0.07949723303318024, 0.03999999910593033]","[0.0, 0.0, -0.8900614482005528]",1.1334757594655511,-14.226020252414699,"(0.0, 0.0, 0.0, 0.0, 0.0, 0.0)",2.4288508647123748,-0.36855748390702325,-14.171887099327844,"(0.0, 0.0, 0.0, 0.0, 0.0, 0.0)",0.30976852738726823,-1.1345286688205596,14.254097835214925,"(0.0, 0.0, 0.0, 0.0, 0.0, 0.0)",-2.4347025650831196,0.36347369491056536,14.307455277413446,"(0.0, 0.0, 0.0, 0.0, 0.0, 0.0)",-0.3114537668278207,False,,,,,False,,,,
18,Close,,,"(0.010001318826104761, 0.16002110119957821, 0.02646143576036139)","(-0.0004308487108156613, 2.692806668198511e-05, -5.800961497533997e-09)",,"[-0.026750000193715096, 0.05299999937415123, 0.03999999910593033]","[0.0, -0.0, 1.0801281957344744]","[-0.09025531262159348, 0.08692750334739685, 0.03999999910593033]","[0.0, -0.0, 0.658426092619021]","[0.026750000193715096, 0.05299999937415123, 0.03999999910593033]","[0.0, 0.0, -1.0810758877799864]","[0.09028743207454681, 0.0868673101067543, 0.03999999910593033]","[0.0, 0.0, -0.6639491897248752]",1.0321153651670965,-11.523076404455903,"(0.0, 0.0, 0.0, 0.0, 0.0, 0.0)",1.9712593195403922,-0.46953209273108476,-11.479215138346529,"(0.0, 0.0, 0.0, 0.0, 0.0, 0.0)",0.25356328507457,-1.0329682217446532,11.54581924652409,"(0.0, 0.0, 0.0, 0.0, 0.0, 0.0)",-1.976034733535922,0.46541422655746517,11.589025293474933,"(0.0, 0.0, 0.0, 0.0, 0.0, 0.0)",-0.2549589687679249,False,,,,,False,,,,
19,Close,,,"(0.010001648057231211, 0.16002636889308344, 0.03133184175509247)","(-0.0005384699893107284, 3.3654401557527444e-05, -9.06094284338731e-09)",,"[-0.026750000193715096, 0.05299999937415123, 0.03999999910593033]","[0.0, -0.0, 0.9889039009917453]","[-0.08690053224563599, 0.09257163107395172, 0.03999999910593033]","[0.0, -0.0, 0.4763247177857985]","[0.026750000193715096, 0.05299999937415123, 0.03999999910593033]","[0.0, 0.0, -0.9896714317513632]","[0.08693088591098785, 0.09252544492483139, 0.03999999910593033]","[0.0, 0.0, -0.4807983343348629]",0.9500134457853482,-9.333691887609287,"(0.0, 0.0, 0.0, 0.0, 0.0, 0.0)",1.59927232790674,-0.551321428885197,-9.298153181376478,"(0.0, 0.0, 0.0, 0.0, 0.0, 0.0)",0.20712540820679678,-0.9507042596131691,9.352113589684514,"(0.0, 0.0, 0.0, 0.0, 0.0, 0.0)",-1.6031637286990463,0.5479859596890367,9.387099348535743,"(0.0, 0.0, 0.0, 0.0, 0.0, 0.0)",-0.20827601456628825,False,,,,,False,,,,
20,Close,,,"(0.010001977116791199, 0.1600316338415276, 0.035505353338314005)","(-0.0006460549330047555, 4.037846511369274e-05, -1.3043353742532214e-08)",,"[-0.026750000193715096, 0.05299999937415123, 0.03999999910593033]","[0.0, -0.0, 0.9150121593347216]","[-0.08381503820419312, 0.09690423309803009, 0.03999999910593033]","[0.0, -0.0, 0.3288226039195219]","[0.026750000193715096, 0.05299999937415123, 0.03999999910593033]","[0.0, 0.0, -0.9156338940018686]","[0.08384232223033905, 0.09686874598264694, 0.03999999910593033]","[0.0, 0.0, -0.33244627340343963]",0.883510891086132,-7.560290428963521,"(0.0, 0.0, 0.0, 0.0, 0.0, 0.0)",1.2970851133907606,-0.6175707112805602,-7.53149495926978,"(0.0, 0.0, 0.0, 0.0, 0.0, 0.0)",0.1689126126712179,-0.884070450286667,7.575212007644451,"(0.0, 0.0, 0.0, 0.0, 0.0, 0.0)",-1.3002524451675361,0.6148689832085066,7.603541305643349,"(0.0, 0.0, 0.0, 0.0, 0.0, 0.0)",-0.16985779298155493,False,,,,,False,,,,
21,Close,,,"(0.010002306014043007, 0.16003689619304312, 0.038982445123681576)","(-0.0007536035543313348, 4.7100258049582536e-05, -1.7747461781428295e-08)",,"[-0.026750000193715096, 0.05299999937415123, 0.03999999910593033]","[0.0, -0.0, 0.855159831855573]","[-0.0810866579413414, 0.10023905336856842, 0.03999999910593033]","[0.0, -0.0, 0.20934598049273878]","[0.026750000193715096, 0.05299999937415123, 0.03999999910593033]","[0.0, 0.0, -0.855663319897266]","[0.08111044019460678, 0.10021167993545532, 0.03999999910593033]","[0.0, 0.0, -0.21228117869263835]",0.8296438217797669,-6.123835247460454,"(0.0, 0.0, 0.0, 0.0, 0.0, 0.0)",1.05173758145085,-0.6712325644411228,-6.100503438359898,"(0.0, 0.0, 0.0, 0.0, 0.0, 0.0)",0.13756782929819192,-0.8300970647322002,6.135921726192006,"(0.0, 0.0, 0.0, 0.0, 0.0, 0.0)",-1.0543131565319612,0.6690441663231638,6.158860938132814,"(0.0, 0.0, 0.0, 0.0, 0.0, 0.0)",-0.13834207864853043,False,,,,,False,,,,
22,Close,,,"(0.010002634758225062, 0.1600421560954447, 0.041763552607370504)","(-0.000861115865719684, 5.381978106418352e-05, -2.3172535119669436e-08)",,"[-0.026750000193715096, 0.05299999937415123, 0.03999999910593033]","[0.0, -0.0, 0.8066794434121096]","[-0.07873354107141495, 0.10281677544116974, 0.03999999910593033]","[0.0, -0.0, 0.11257000369976355]","[0.026750000193715096, 0.05299999937415123, 0.03999999910593033]","[0.0, 0.0, -0.807087375168555]","[0.07875385880470276, 0.1027955636382103, 0.03999999910593033]","[0.0, 0.0, -0.11494747853587685]",0.7860114956416112,-4.960306550442966,"(0.0, 0.0, 0.0, 0.0, 0.0, 0.0)",0.8526282438926112,-0.7146986118113532,-4.941401666116088,"(0.0, 0.0, 0.0, 0.0, 0.0, 0.0)",0.11192109221648956,-0.7863786224330822,4.970096598215528,"(0.0, 0.0, 0.0, 0.0, 0.0, 0.0)",-0.8547210444656044,0.7129260106609093,4.988671207184531,"(0.0, 0.0, 0.0, 0.0, 0.0, 0.0)",-0.11255391153308099,False,,,,,False,,,,
23,Close,,,"(0.010002963358557236, 0.16004741369625017, 0.04384907226694074)","(-0.0009685918795946493, 6.053703485636736e-05, -2.9317842489583264e-08)",,"[-0.026750000193715096, 0.05299999937415123, 0.03999999910593033]","[0.0, -0.0, 0.7674103444184671]","[-0.07673770934343338, 0.10481919348239899, 0.03999999910593033]","[0.0, -0.0, 0.03418149097606777]","[0.026750000193715096, 0.05299999937415123, 0.03999999910593033]","[0.0, 0.0, -0.7677407466611278]","[0.07675483077764511, 0.1048026755452156, 0.03999999910593033]","[0.0, 0.0, -0.0361072460378734]",0.7506693114697051,-4.017848305858803,"(0.0, 0.0, 0.0, 0.0, 0.0, 0.0)",0.6911017846597902,-0.7499060663183246,-4.0025303530146505,"(0.0, 0.0, 0.0, 0.0, 0.0, 0.0)",0.09097831684118958,-0.7509666841707966,4.025778244554576,"(0.0, 0.0, 0.0, 0.0, 0.0, 0.0)",-0.6928012733138227,0.7484702604680491,4.040818653480022,"(0.0, 0.0, 0.0, 0.0, 0.0, 0.0)",-0.09149462532289206,False,,,,,False,,,,
24,Close,,,"(0.010003291824242136, 0.16005266914270105, 0.04523936165140331)","(-0.0010760316083767074, 6.725202012489063e-05, -3.618265319583079e-08)",,"[-0.026750000193715096, 0.05299999937415123, 0.03999999910593033]","[0.0, -0.0, 0.7356023986171477]","[-0.07506444305181503, 0.10638272017240524, 0.03999999910593033]","[0.0, 0.0, -0.029314282157410606]","[0.026750000193715096, 0.05299999937415123, 0.03999999910593033]","[0.0, 0.0, -0.7358699744488303]","[0.07507872581481934, 0.10636978596448898, 0.03999999910593033]","[0.0, -0.0, 0.027754427824074522]",0.722042142290461,-3.2544571277456287,"(0.0, 0.0, 0.0, 0.0, 0.0, 0.0)",0.560108160717456,-0.7784260816002104,-3.242260463996204,"(0.0, 0.0, 0.0, 0.0, 0.0, 0.0)",0.0739092939425144,-0.7222830141783452,3.260880378089207,"(0.0, 0.0, 0.0, 0.0, 0.0, 0.0)",-0.5614876113391304,0.7772630911922368,3.2732751882458535,"(0.0, 0.0, 0.0, 0.0, 0.0, 0.0)",-0.07432997801242036,False,,,,,False,,,,
25,Close,,,"(0.010001644182078712, 0.16005595153396976, 0.045940321410535084)","(-0.0011271805217326655, 1.767785898679914e-05, -1.508889111938428e-08)",,"[-0.026750000193715096, 0.05299999937415123, 0.03999999910593033]","[0.0, -0.0, 0.7098379546684608]","[-0.07367318123579025, 0.10760965943336487, 0.03999999910593033]","[0.0, 0.0, -0.08074653118681538]","[0.026750000193715096, 0.05299999937415123, 0.03999999910593033]","[0.0, 0.0, -0.7100547061469626]","[0.07368502020835876, 0.10759948939085007, 0.03999999910593033]","[0.0, -0.0, 0.07948305351710017]",0.6988541352552734,-2.6361102734739577,"(0.0, 0.0, 0.0, 0.0, 0.0, 0.0)",0.4538907146887525,-0.8015268867317584,-2.626184566689172,"(0.0, 0.0, 0.0, 0.0, 0.0, 0.0)",0.06000477197099662,-0.6990492414844596,2.6413131062522566,"(0.0, 0.0, 0.0, 0.0, 0.0, 0.0)",-0.45500992694973624,0.8005848745408953,2.6513062318756173,"(0.0, 0.0, 0.0, 0.0, 0.0, 0.0)",-0.06034712704439637,False,,,,,False,,,,
26,Close,,,"(0.0099979269032565, 0.16005188637635104, 0.04640949954916324)","(-0.0010442772263960227, -5.814874739306873e-05, 7.787963860925158e-09)",,"[-0.026750000193715096, 0.05299999937415123, 0.03999999910593033]","[0.0, -0.0, 0.6889687286552088]","[-0.07252338528633118, 0.1085769459605217, 0.03999999910593033]","[0.0, 0.0, -0.12240626184562299]","[0.026750000193715096, 0.05299999937415123, 0.03999999910593033]","[0.0, 0.0, -0.6891442541658422]","[0.07253314554691315, 0.10856890678405762, 0.03999999910593033]","[0.0, -0.0, 0.12138287899953458]",0.6800717984485459,-2.1352615874880345,"(0.0, 0.0, 0.0, 0.0, 0.0, 0.0)",0.36778464275725675,-0.820237492399504,-2.127000202679893,"(0.0, 0.0, 0.0, 0.0, 0.0, 0.0)",0.04871100820034693,-0.6802298342020312,2.1394759521557623,"(0.0, 0.0, 0.0, 0.0, 0.0, 0.0)",-0.3686924226914724,0.8194744666035607,2.147347557238381,"(0.0, 0.0, 0.0, 0.0, 0.0, 0.0)",-0.04898946018255637,False,,,,,False,,,,
27,Close,,,"(0.009998107600018924, 0.16004411888380865, 0.0468059782297436)","(-0.0008858309445970004, -5.447527859797503e-05, 4.128601528647624e-08)",,"[-0.026750000193715096, 0.05299999937415123, 0.03999999910593033]","[0.0, -0.0, 0.672064613904271]","[-0.07157741487026215, 0.10934273153543472, 0.03999999910593033]","[0.0, 0.0, -0.15614974961002634]","[0.026750000193715096, 0.05299999937415123, 0.03999999910593033]","[0.0, 0.0, -0.6722069192953587]","[0.07158542424440384, 0.10933635383844376, 0.03999999910593033]","[0.0, -0.0, 0.15532080931604164]",0.6648581567433223,-1.7295508464885936,"(0.0, 0.0, 0.0, 0.0, 0.0, 0.0)",0.29799285099320455,-0.8353935278746698,-1.722993881465588,"(0.0, 0.0, 0.0, 0.0, 0.0, 0.0)",0.03950205891705609,-0.6649861657036452,1.732964418763874,"(0.0, 0.0, 0.0, 0.0, 0.0, 0.0)",-0.2987289514022836,0.83477548361327,1.7394759470338683,"(0.0, 0.0, 0.0, 0.0, 0.0, 0.0)",-0.03972821774930672,False,,,,,False,,,,
28,Close,,,"(0.009998390752654573, 0.16003702894197389, 0.04714144752999396)","(-0.0007411380797103218, -4.869650481896534e-05, 1.1687517768299383e-07)",,"[-0.026750000193715096, 0.05299999937415123, 0.03999999910593033]","[0.0, -0.0, 0.6583722791296546]","[-0.07080177217721939, 0.10995122045278549, 0.03999999910593033]","[0.0, 0.0, -0.18348236399010098]","[0.026750000193715096, 0.05299999937415123, 0.03999999910593033]","[0.0, 0.0, -0.6584875609778488]","[0.07080833613872528, 0.10994613915681839, 0.03999999910593033]","[0.0, -0.0, 0.18281091441867092]",0.652535106962091,-1.400936185655761,"(0.0, 0.0, 0.0, 0.0, 0.0, 0.0)",0.24143143710013154,-0.8476696977959799,-1.3956001238249038,"(0.0, 0.0, 0.0, 0.0, 0.0, 0.0)",0.032035576984152714,-0.6526387942199526,1.4037011791987364,"(0.0, 0.0, 0.0, 0.0, 0.0, 0.0)",-0.24202820218879367,0.8471690873323404,1.4089504550195393,"(0.0, 0.0, 0.0, 0.0, 0.0, 0.0)",-0.0322192170145395,False,,,,,False,,,,
29,Close,,,"(0.009998679410322496, 0.16003066597344334, 0.0474253884764576)","(-0.0006112814540129935, -4.2805404436077314e-05, 1.9447426774393396e-07)",,"[-0.026750000193715096, 0.05299999937415123, 0.03999999910593033]","[0.0, -0.0, 0.6472815645892557]","[-0.07016744464635849, 0.11043626815080643, 0.03999999910593033]","[0.0, 0.0, -0.2056215493544759]","[0.026750000193715096, 0.05299999937415123, 0.03999999910593033]","[0.0, 0.0, -0.6473749785824873]","[0.07017280906438828, 0.1104322224855423, 0.03999999910593033]","[0.0, -0.0, 0.20507767878351457]",0.6425534366392937,-1.1347583103811658,"(0.0, 0.0, 0.0, 0.0, 0.0, 0.0)",0.19559696212506814,-0.8576132175808707,-1.130415870269558,"(0.0, 0.0, 0.0, 0.0, 0.0, 0.0)",0.025974296640771184,-0.6426374233181616,1.1369979551509777,"(0.0, 0.0, 0.0, 0.0, 0.0, 0.0)",-0.19608068519888996,0.8572077274788498,1.141229523067934,"(0.0, 0.0, 0.0, 0.0, 0.0, 0.0)",-0.02612334092818916,False,,,,,False,,,,
30,Close,,,"(0.009865465308992205, 0.15999852606453366, 0.04766600164849151)","(-0.0003424815135586742, 0.00015086673503461647, 0.0034152828324375316)",,"[-0.026750000193715096, 0.05299999937415123, 0.03999999910593033]","[0.0, -0.0, 0.6382981045455605]","[-0.06964972615242004, 0.11082398891448975, 0.03999999910593033]","[0.0, 0.0, -0.22355414441709243]","[0.026750000193715096, 0.05299999937415123, 0.03999999910593033]","[0.0, 0.0, -0.6383737252477673]","[0.06965409219264984, 0.11082074791193008, 0.03999999910593033]","[0.0, -0.0, 0.22311363310560886]",0.6344682836778279,-0.9191542314087444,"(0.0, 0.0, 0.0, 0.0, 0.0, 0.0)",0.1584658053641607,-0.8656670151994418,-0.9155462613482186,"(0.0, 0.0, 0.0, 0.0, 0.0, 0.0)",0.021063560793533557,-0.6345419852789147,0.9196069697833984,"(0.0, 0.0, 0.0, 0.0, 0.0, 0.0)",1.5650710318467773,0.8652269258386903,0.8975102038417887,"(0.0, 0.0, 0.0, 0.0, 0.0, 0.0)",0.970263568851588,False,,,,,True,"(0.041964474105275554, 0.17969275438125942, 0.023999959438538113)","(-0.9999999992078928, -2.3394376763778626e-07, -3.980150266267419e-05)",0.0005277146366441324,13.827283024398023
31,Move,,,"(0.007363952190207586, 0.1595176072470861, 0.04786907614534817)","(-0.000283671801070412, 0.00017028703879343212, 0.033932294028324435)","[0.0, 0.0, 0.0]","[-0.026750000193715096, 0.05299999937415123, 0.03999999910593033]","[0.0, -0.0, 0.6310214732486521]","[-0.06922782957553864, 0.1111346185207367, 0.03999999910593033]","[0.0, 0.0, -0.23807887186492363]","[0.026750000193715096, 0.05299999937415123, 0.03999999910593033]","[0.0, 0.0, -0.6310879718519756]","[0.06923169642686844, 0.11113179475069046, 0.03999999910593033]","[0.0, -0.0, 0.2376151439176698]",0.6073010028525442,-5.692908589800243,"(0.0, 0.0, 0.0, 0.0, 0.0, 0.0)",-6.970029188620435,-0.868756983831492,0.08239916352133925,"(0.0, 0.0, 0.0, 0.0, 0.0, 0.0)",-0.4110687045203754,-0.6117280690932336,4.646378695169427,"(0.0, 0.0, 0.0, 0.0, 0.0, 0.0)",6.63722350158353,0.8683562496935296,-0.08325233958591138,"(0.0, 0.0, 0.0, 0.0, 0.0, 0.0)",0.9711507533803067,False,,,,,True,"(0.04054627108315854, 0.179595033909982, 0.023999959438538113)","(-0.9999999992078928, -2.3394376763778626e-07, -3.980150266267419e-05)",-6.660727030056632e-06,5.483947105729632
32,Move,,,"(0.003581798779507854, 0.15888081127638445, 0.0479516006086598)","(0.0007129250223673224, -0.00208967314794087, 0.0775559872120303)","[-0.003782153410699732, -0.0006367959707016535, 8.25244633116326e-05]","[-0.026750000193715096, 0.05299999937415123, 0.03999999910593033]","[0.0, -0.0, 0.5859526299274878]","[-0.06656552106142044, 0.11298936605453491, 0.03999999910593033]","[0.0, 0.0, -0.2824962348735626]","[0.026750000193715096, 0.05299999937415123, 0.03999999910593033]","[0.0, 0.0, -0.5943032042166643]","[0.06706507503986359, 0.11265479773283005, 0.03999999910593033]","[0.0, -0.0, 0.2737407621305699]",0.5651750435041389,-4.9866125127970315,"(0.0, 0.0, 0.0, 0.0, 0.0, 0.0)",0.1879296173067297,-0.8684796473023089,-0.007395640778216972,"(0.0, 0.0, 0.0, 0.0, 0.0, 0.0)",0.0052485587257143,-0.5763335013853139,4.3127362313992865,"(0.0, 0.0, 0.0, 0.0, 0.0, 0.0)",0.20027995465953127,0.8680752302284668,0.0074938524016774505,"(0.0, 0.0, 0.0, 0.0, 0.0, 0.0)",0.02249499703994292,False,,,,,True,"(0.0359258773488902, 0.1800326723866737, 0.023997902681873285)","(-0.9984706073090757, -0.05524536888912827, -0.002096558167493954)",0.00012594863753174636,0.0
33,Move,,,"(0.001122542829286716, 0.1593018964136896, 0.0479227662575371)","(0.004945114300985391, -0.0007111404472231802, 0.10411918620410092)","[-0.006241409360920869, -0.00021571083339649855, 5.3690112188933825e-05]","[-0.026750000193715096, 0.05299999937415123, 0.03999999910593033]","[0.0, -0.0, 0.5464752837415245]","[-0.06416688859462738, 0.11451403051614761, 0.03999999910593033]","[0.0, 0.0, -0.32203216719565797]","[0.026750000193715096, 0.05299999937415123, 0.03999999910593033]","[0.0, 0.0, -0.5601607664550203]","[0.06500521302223206, 0.113996222615242, 0.03999999910593033]","[0.0, -0.0, 0.3079426098360514]",0.5284581628806412,-4.324100182620625,"(0.0, 0.0, 0.0, 0.0, 0.0, 0.0)",-40.57665041993025,-0.8499710773008806,4.448713801084151,"(0.0, 0.0, 0.0, 0.0, 0.0, 0.0)",-20.450246702708142,-0.5432536493593767,4.057701472950861,"(0.0, 0.0, 0.0, 0.0, 0.0, 0.0)",40.51490371176407,0.8490881856801438,-4.5636359590366995,"(0.0, 0.0, 0.0, 0.0, 0.0, 0.0)",20.9314301799772,True,"(-0.029811151186175763, 0.18051363537611448, 0.05600153891941393)","(0.9949795852674637, 0.10006627287285103, 0.001538159394272495)",-0.0021929381795451827,324.8302845382825,True,"(0.031581245564939034, 0.18025917111664624, 0.023998461080646502)","(-0.9949795852674632, -0.10006627287285588, -0.0015381593942749786)",0.00032843032100871104,245.81822951935948
34,Move,"(-0.0070999999999999995, 0.0, -0.0011)","(0.0, 0.12507378485641765, 0.0)","(0.0005746865291406807, 0.1602117300150614, 0.04789809283745487)","(0.007144400732615511, 0.00014955813426326527, 0.10137270354958336)","[-0.006789265661066905, 0.0006941227679752859, 2.9016692106705044e-05]","[-0.026750000193715096, 0.05299999937415123, 0.03999999910593033]","[0.0, -0.0, 0.5122910766505747]","[-0.062042638659477234, 0.11575690656900406, 0.03999999910593033]","[0.0, 0.0, -0.3205952360126725]","[0.026750000193715096, 0.05299999937415123, 0.03999999910593033]","[0.0, 0.0, -0.5280779333918697]","[0.06302893161773682, 0.11519195139408112, 0.03999999910593033]","[0.0, -0.0, 0.3033470937789916]",0.5138988429052066,0.38585702651037,"(0.0, 0.0, 0.0, 0.0, 0.0, 0.0)",5.111149364145566,-0.8345903186748401,-0.4089647065830109,"(0.0, 0.0, 0.0, 0.0, 0.0, 0.0)",-0.3401251771197085,-0.5296363029707092,-0.3739938754928347,"(0.0, 0.0, 0.0, 0.0, 0.0, 0.0)",-5.327834641743674,0.8331846099793006,0.4222837265780086,"(0.0, 0.0, 0.0, 0.0, 0.0, 0.0)",0.07829678027247372,True,"(-0.027782116061409873, 0.18180915987972746, 0.05600071189642032)","(0.9945842410657634, 0.10393113923646441, 0.000711140387283058)",-0.005767574495913523,4.632856461817495,True,"(0.029910421102272162, 0.18160183909572525, 0.023999288099653494)","(-0.994584241065763, -0.10393113923646692, -0.0007111403872818769)",0.00023400145338051335,0.0
35,Move,"(-0.010175000000000002, 0.0, -0.0012749999999999999)","(0.0, 0.14778051842486384, 0.0)","(0.0007130755939148845, 0.16031415305530547, 0.04799892101874594)","(0.003392193041725229, 0.0011164677717721621, 0.10128048487265047)","[-0.006650876596292701, 0.0007965458082193622, 0.00012984487339777473]","[-0.026750000193715096, 0.05299999937415123, 0.03999999910593033]","[0.0, -0.0, 0.5154287994328308]","[-0.062239374965429306, 0.1156458631157875, 0.03999999910593033]","[0.0, 0.0, -0.31945725076429904]","[0.026750000193715096, 0.05299999937415123, 0.03999999910593033]","[0.0, 0.0, -0.5311140232777836]","[0.06321758031845093, 0.11508152633905411, 0.03999999910593033]","[0.0, -0.0, 0.3025813339263245]",0.515786813392972,0.08592192162775336,"(0.0, 0.0, 0.0, 0.0, 0.0, 0.0)",-4.857843092932467,-0.8328556197620341,0.48730676995606936,"(0.0, 0.0, 0.0, 0.0, 0.0, 0.0)",-2.160421197213989,-0.5302467320441819,0.20813899684424197,"(0.0, 0.0, 0.0, 0.0, 0.0, 0.0)",5.1554996692198705,0.8316641977147252,-0.4874603294016683,"(0.0, 0.0, 0.0, 0.0, 0.0, 0.0)",2.19984179623913,True,"(-0.02805403967103775, 0.18173705688107117, 0.05600071189642032)","(0.9945842410657634, 0.10393113923646441, 0.000711140387283058)",-0.004996197314353013,33.09467255240882,True,"(0.03014993335696925, 0.18151675293807457, 0.023999288099653494)","(-0.994584241065763, -0.10393113923646692, -0.0007111403872818769)",2.9392334777016986e-05,24.841697739636125
36,Move,"(-0.0119714, 0.0, -0.0019571000000000002)","(0.0, 0.14978939239390937, 0.0)","(0.0007191636131420879, 0.16045322368014464, 0.0480830942463014)","(0.0002725484500608115, 0.001530786440866894, 0.10166064375998346)","[-0.006644788577065498, 0.0009356164330585337, 0.0002140181009532352]","[-0.026750000193715096, 0.05299999937415123, 0.03999999910593033]","[0.0, -0.0, 0.5161075205926815]","[-0.062281884253025055, 0.11562176048755646, 0.03999999910593033]","[0.0, 0.0, -0.31495368505596905]","[0.026750000193715096, 0.05299999937415123, 0.03999999910593033]","[0.0, 0.0, -0.5294634472453187]","[0.06311506778001785, 0.11514163017272949, 0.03999999910593033]","[0.0, -0.0, 0.30037399149315247]",0.5170271897768581,0.22072666720145825,"(0.0, 0.0, 0.0, 0.0, 0.0, 0.0)",-3.505370316480732,-0.8296468452897358,0.33943790060256873,"(0.0, 0.0, 0.0, 0.0, 0.0, 0.0)",-1.7621160945821508,-0.5284046816199822,0.2541060846499936,"(0.0, 0.0, 0.0, 0.0, 0.0, 0.0)",3.9134885995156794,0.82828774238895,-0.3719349161802425,"(0.0, 0.0, 0.0, 0.0, 0.0, 0.0)",1.9340068650185085,True,"(-0.02839454157003586, 0.18186624196822648, 0.05600071189642032)","(0.9945842410657634, 0.10393113923646441, 0.000711140387283058)",-0.0046191147771425835,28.016045424038,True,"(0.030194139153882887, 0.18164968685065028, 0.023999288099653494)","(-0.994584241065763, -0.10393113923646692, -0.0007111403872818769)",6.003494703788536e-05,20.190212341581354
37,Move,"(-0.013900000000000001, 0.0, -0.0034500000000000004)","(0.0, 0.1428796338852638, 0.0)","(0.0006405920715497752, 0.16055500230549702, 0.04816018242092184)","(-0.002124323618939345, 0.0007669227049209653, 0.1014967653677439)","[-0.00672336011865781, 0.0010373950584109115, 0.0002911062755736743]","[-0.026750000193715096, 0.05299999937415123, 0.03999999910593033]","[0.0, -0.0, 0.5178580980451515]","[-0.062391456216573715, 0.11555946618318558, 0.03999999910593033]","[0.0, 0.0, -0.31045244390946397]","[0.026750000193715096, 0.05299999937415123, 0.03999999910593033]","[0.0, 0.0, -0.5274580814218156]","[0.06299037486314774, 0.11521442979574203, 0.03999999910593033]","[0.0, -0.0, 0.2993872190334879]",0.51914511630214,0.3088817199507042,"(0.0, 0.0, 0.0, 0.0, 0.0, 0.0)",-2.631980415491097,-0.827293105544257,0.24418784100388496,"(0.0, 0.0, 0.0, 0.0, 0.0, 0.0)",-1.232941147092417,-0.5260017246610643,0.34951579596767507,"(0.0, 0.0, 0.0, 0.0, 0.0, 0.0)",3.9969280132803484,0.8252393381080688,-0.3854160986458714,"(0.0, 0.0, 0.0, 0.0, 0.0, 0.0)",1.9734590275919048,True,"(-0.028802637436244498, 0.18195580651312307, 0.05600071189642032)","(0.9945842410657634, 0.10393113923646441, 0.000711140387283058)",-0.0042554338792004645,23.473923184741526,True,"(0.03013509351072606, 0.1817549434575345, 0.023999288099653494)","(-0.994584241065763, -0.10393113923646692, -0.0007111403872818769)",4.178554856494182e-05,21.447731313457304
38,Move,"(-0.0161308, 0.0, -0.005661500000000001)","(0.0, 0.12379096785620183, 0.0)","(0.00045239464574279946, 0.16063194562767064, 0.048246321411973866)","(-0.0038968422852103217, -0.0006624696788467729, 0.10052214485598743)","[-0.006911557544464786, 0.0011143383805845286, 0.00037724526662569896]","[-0.026750000193715096, 0.05299999937415123, 0.03999999910593033]","[0.0, -0.0, 0.5203036899789333]","[-0.0625443384051323, 0.11547211557626724, 0.03999999910593033]","[0.0, 0.0, -0.30606358244764165]","[0.026750000193715096, 0.05299999937415123, 0.03999999910593033]","[0.0, 0.0, -0.5246942900816753]","[0.06281828880310059, 0.11531434953212738, 0.03999999910593033]","[0.0, -0.0, 0.29905723786197175]",0.5220362498185628,0.4158234821179959,"(0.0, 0.0, 0.0, 0.0, 0.0, 0.0)",-2.3521005496215768,-0.8254210728305172,0.22707444771450688,"(0.0, 0.0, 0.0, 0.0, 0.0, 0.0)",-1.0954651007647194,-0.5228423411537014,0.44446847859541794,"(0.0, 0.0, 0.0, 0.0, 0.0, 0.0)",3.7928197032534663,0.8222012648137401,-0.3720614463633142,"(0.0, 0.0, 0.0, 0.0, 0.0, 0.0)",1.921517192324563,True,"(-0.029247250784668437, 0.18201523421394705, 0.05600071189642032)","(0.9945842410657634, 0.10393113923646441, 0.000711140387283058)",-0.0039154196296005556,21.577769714859073,True,"(0.029984968537476585, 0.1818657025980288, 0.023999288099653494)","(-0.994584241065763, -0.10393113923646692, -0.0007111403872818769)",-4.072137133172909e-05,23.993628863750455
39,Move,"(-0.0187333, 0.0, -0.00906)","(0.0, 0.10208081729064435, 0.0)","(0.00014773621786923837, 0.16070406883135407, 0.04832164434068567)","(-0.005549834856354759, -0.0019000858700004338, 0.1000402623118298)","[-0.007216215972338348, 0.001186461584267967, 0.00045256819533750353]","[-0.026750000193715096, 0.05299999937415123, 0.03999999910593033]","[0.0, -0.0, 0.5235964377215238]","[-0.06274984776973724, 0.11535391211509705, 0.03999999910593033]","[0.0, 0.0, -0.3009492976301364]","[0.026750000193715096, 0.05299999937415123, 0.03999999910593033]","[0.0, 0.0, -0.5211775309172082]","[0.06259891390800476, 0.11544081568717957, 0.03999999910593033]","[0.0, -0.0, 0.2996228642504651]",0.525810289310638,0.5313356579985249,"(0.0, 0.0, 0.0, 0.0, 0.0, 0.0)",-2.1260576373885773,-0.8236899010639408,0.20538219180250086,"(0.0, 0.0, 0.0, 0.0, 0.0, 0.0)",-0.9856320540744877,-0.5188719108983342,0.5533257991397753,"(0.0, 0.0, 0.0, 0.0, 0.0, 0.0)",3.60665438523378,0.8192984738562342,-0.3604355937304765,"(0.0, 0.0, 0.0, 0.0, 0.0, 0.0)",1.85972657748675,True,"(-0.02979076282517759, 0.1820420608292691, 0.056001338348561844)","(0.9949899213995596, 0.09996633015692559, 0.0013375904659914852)",-0.0036051085815605906,19.930297442317453,True,"(0.02972817799187521, 0.18197136680202786, 0.02399866164957478)","(-0.9949899213995602, -0.09996633015691876, -0.001337590465993737)",-9.801886248961522e-05,22.468488265113745
40,Move,"(-0.0223333, 0.0, -0.014400000000000001)","(0.0, 0.07930950653987433, 0.0)","(-0.000303627930856581, 0.16076875230316792, 0.04839595056799834)","(-0.007129318407526241, -0.0029658118252742145, 0.10020402936405055)","[-0.007667580121064167, 0.001251145056081815, 0.0005268744226501754]","[-0.026750000193715096, 0.05299999937415123, 0.03999999910593033]","[0.0, -0.0, 0.5278031558776728]","[-0.06301183998584747, 0.1152019202709198, 0.03999999910593033]","[0.0, 0.0, -0.2951060220560858]","[0.026750000193715096, 0.05299999937415123, 0.03999999910593033]","[0.0, 0.0, -0.516797633611009]","[0.062325093895196915, 0.11559722572565079, 0.03999999910593033]","[0.0, -0.0, 0.3011408517174892]",0.530672516637912,0.6886485114076882,"(0.0, 0.0, 0.0, 0.0, 0.0, 0.0)",-1.8733970418837564,-0.8221265567226058,0.1878263517877134,"(0.0, 0.0, 0.0, 0.0, 0.0, 0.0)",-0.8895427491606595,-0.5138343613011834,0.7111826363781544,"(0.0, 0.0, 0.0, 0.0, 0.0, 0.0)",3.5329649758736155,0.8164294168757887,-0.36216772819138265,"(0.0, 0.0, 0.0, 0.0, 0.0, 0.0)",1.8536961300226056,True,"(-0.030442362631313724, 0.18207544644768775, 0.056002491848183546)","(0.9950134764251969, 0.09970945870422093, 0.002491099587617385)",-0.003317688278128271,18.403730731064236,True,"(0.02935322582809128, 0.18207957254213836, 0.023997508140453157)","(-0.9950134764251969, -0.09970945870422188, -0.0024910995876159746)",-0.00013821175674913984,21.079002168486284
41,Move,"(-0.0250733, 0.0, -0.0199867)","(0.0, 0.05952445413926661, 0.0)","(-0.0008897228006356052, 0.16082486689813433, 0.04847820645253593)","(-0.008620817321606725, -0.0038728880740745565, 0.10109821227662567)","[-0.008253674990843191, 0.0013072596510482204, 0.0006091303071877607]","[-0.026750000193715096, 0.05299999937415123, 0.03999999910593033]","[0.0, -0.0, 0.5332549489985418]","[-0.06335040926933289, 0.1150033101439476, 0.03999999910593033]","[0.0, 0.0, -0.28815363520976034]","[0.026750000193715096, 0.05299999937415123, 0.03999999910593033]","[0.0, 0.0, -0.5111682795682273]","[0.06197214871644974, 0.11579649895429611, 0.03999999910593033]","[0.0, -0.0, 0.30389309309546236]",0.5365291519270843,0.7858191097913891,"(0.0, 0.0, 0.0, 0.0, 0.0, 0.0)",-1.821546053832129,-0.8206780415228353,0.17532349307362238,"(0.0, 0.0, 0.0, 0.0, 0.0, 0.0)",-0.8340337029152153,-0.507782107646132,0.8126836081269964,"(0.0, 0.0, 0.0, 0.0, 0.0, 0.0)",3.3035103637146355,0.8136181202513653,-0.34638046345101664,"(0.0, 0.0, 0.0, 0.0, 0.0, 0.0)",1.7909861613807574,True,"(-0.031245980348503427, 0.1820952326531214, 0.05600345613172594)","(0.9949605046225384, 0.10020805604471505, 0.0034553936104010224)",-0.0030619814163067396,17.419946895581905,True,"(0.028817206834141004, 0.18219008454353552, 0.02399654384643038)","(-0.9949605046225387, -0.10020805604471192, -0.0034553936104013802)",-0.00015261130354865207,19.810271223601397
42,Move,"(-0.0266533, 0.0, -0.02524)","(0.0, 0.05047492196767601, 0.0)","(-0.0015783565826314504, 0.1608792472972636, 0.04853974333124808)","(-0.009941033205769475, -0.004140408196080289, 0.102212752870025)","[-0.008942308772839035, 0.0013616400501774983, 0.0006706671858999133]","[-0.026750000193715096, 0.05299999937415123, 0.03999999910593033]","[0.0, -0.0, 0.5394759614973382]","[-0.06373542547225952, 0.11477441340684891, 0.03999999910593033]","[0.0, 0.0, -0.2805321437656249]","[0.026750000193715096, 0.05299999937415123, 0.03999999910593033]","[0.0, 0.0, -0.5047353916255737]","[0.06156746298074722, 0.1160217747092247, 0.03999999910593033]","[0.0, -0.0, 0.30758003410608403]",0.5429091719657104,0.8239690775279003,"(0.0, 0.0, 0.0, 0.0, 0.0, 0.0)",-2.080653998452453,-0.8191698155868053,0.20117700918867246,"(0.0, 0.0, 0.0, 0.0, 0.0, 0.0)",-0.9441210190240189,-0.501158598836032,0.8584432989206355,"(0.0, 0.0, 0.0, 0.0, 0.0, 0.0)",2.925599179801695,0.8110335385041499,-0.3076608785451679,"(0.0, 0.0, 0.0, 0.0, 0.0, 0.0)",1.6162566657539965,True,"(-0.03214260687625137, 0.18210275088214983, 0.056004308158073286)","(0.99482996704528, 0.10146320863200466, 0.004307431112072325)",-0.002834282238536036,18.227122982475127,True,"(0.028167712515319854, 0.18229508382545967, 0.0239956918089287)","(-0.9948299670452795, -0.1014632086320111, -0.0043074311120755455)",-0.00015956509270822328,16.43488628776167
43,Move,"(-0.0272733, 0.0, -0.02982)","(0.0, 0.05845107664929009, 0.0)","(-0.0023069785906537415, 0.1609320672414931, 0.048580308034974776)","(-0.011024258725532197, -0.003735869673516852, 0.10332662776047005)","[-0.009670930780861328, 0.0014144599944069802, 0.0007112318896266082]","[-0.026750000193715096, 0.05299999937415123, 0.03999999910593033]","[0.0, -0.0, 0.5459975467666799]","[-0.06413749605417252, 0.11453190445899963, 0.03999999910593033]","[0.0, 0.0, -0.27241616916408956]","[0.026750000193715096, 0.05299999937415123, 0.03999999910593033]","[0.0, 0.0, -0.4979387293136378]","[0.061138320714235306, 0.1162569597363472, 0.03999999910593033]","[0.0, -0.0, 0.3119772009912868]",0.5493939956532143,0.8151697205276537,"(0.0, 0.0, 0.0, 0.0, 0.0, 0.0)",-2.021715903795649,-0.8176283644532344,0.188458539139205,"(0.0, 0.0, 0.0, 0.0, 0.0, 0.0)",-0.9091799151915918,-0.49434813026155777,0.8617450629454604,"(0.0, 0.0, 0.0, 0.0, 0.0, 0.0)",2.6711255349956855,0.8087150326510613,-0.2882132636414808,"(0.0, 0.0, 0.0, 0.0, 0.0, 0.0)",1.4916164953340203,True,"(-0.03309139358315974, 0.1821073858806242, 0.056003981781072035)","(0.9947254847994061, 0.10249565886536166, 0.00398118127470832)",-0.0026363774125263578,16.97366898704261,True,"(0.027447128109278046, 0.18238610686425705, 0.02399601805876607)","(-0.9947254847994069, -0.10249565886535271, -0.003981181274705435)",-0.00011727425456835025,15.629410363846217
44,Move,"(-0.0266467, 0.0, -0.0327667)","(0.0, 0.07810522935599824, 0.0)","(-0.002996890128345073, 0.1609803817362656, 0.048624920197806544)","(-0.01219210536226565, -0.003205869352272401, 0.10457888573112924)","[-0.010360842318552659, 0.0014627744891795025, 0.0007558440524583765]","[-0.026750000193715096, 0.05299999937415123, 0.03999999910593033]","[0.0, -0.0, 0.5524496334519671]","[-0.06453372538089752, 0.11428939551115036, 0.03999999910593033]","[0.0, 0.0, -0.26446909725349227]","[0.026750000193715096, 0.05299999937415123, 0.03999999910593033]","[0.0, 0.0, -0.49111602365999346]","[0.060705944895744324, 0.11649011075496674, 0.03999999910593033]","[0.0, -0.0, 0.31655088698305645]",0.5555634478841115,0.747333821234701,"(0.0, 0.0, 0.0, 0.0, 0.0, 0.0)",-1.9727514664648718,-0.8161742034190614,0.17866518306139528,"(0.0, 0.0, 0.0, 0.0, 0.0, 0.0)",-0.8701916179484186,-0.487757978054607,0.8059367790552632,"(0.0, 0.0, 0.0, 0.0, 0.0, 0.0)",2.388053090514195,0.806568454379174,-0.26363728270802894,"(0.0, 0.0, 0.0, 0.0, 0.0, 0.0)",1.359836105588122,True,"(-0.03402490297857923, 0.18210278456097145, 0.05600349946059652)","(0.9946009619272068, 0.10371443956245759, 0.003498794038038069)",-0.0024490355997784014,15.649750508425832,True,"(0.02671229199813918, 0.18246779840490807, 0.023996500446002735)","(-0.9946009619272072, -0.10371443956245256, -0.0034987940380405715)",-8.98207343770526e-05,15.167008133673797
45,Move,"(-0.0254133, 0.0, -0.03454)","(0.0, 0.09269967256117484, 0.0)","(-0.003620616499760069, 0.16102091830311885, 0.04866264260553772)","(-0.013093569862332278, -0.0027375046924845896, 0.10564639659118849)","[-0.010984568689967654, 0.0015033110560327412, 0.0007935664601895556]","[-0.026750000193715096, 0.05299999937415123, 0.03999999910593033]","[0.0, -0.0, 0.5583659635705962]","[-0.06489567458629608, 0.1140647828578949, 0.03999999910593033]","[0.0, 0.0, -0.2571302652235125]","[0.026750000193715096, 0.05299999937415123, 0.03999999910593033]","[0.0, 0.0, -0.48473635864227127]","[0.060300204902887344, 0.11670544743537903, 0.03999999910593033]","[0.0, -0.0, 0.3208406428250614]",0.5610985111262339,0.6558167314489424,"(0.0, 0.0, 0.0, 0.0, 0.0, 0.0)",-1.922796940909249,-0.8147845676975473,0.1708088155765912,"(0.0, 0.0, 0.0, 0.0, 0.0, 0.0)",-0.8377488498960062,-0.48173194158087285,0.7210525583999675,"(0.0, 0.0, 0.0, 0.0, 0.0, 0.0)",2.230472769693745,0.8045322949560771,-0.2507166435878803,"(0.0, 0.0, 0.0, 0.0, 0.0, 0.0)",1.2876486392661608,True,"(-0.034884671376116505, 0.18209415177141747, 0.056002976126661094)","(0.9944758292961999, 0.10492364689771887, 0.002975444053931627)",-0.0022736165852773565,14.920357443037453,True,"(0.02602351311753979, 0.18253976068421615, 0.02399702379598685)","(-0.9944758292961992, -0.10492364689772639, -0.0029754440539309463)",-7.714332948819399e-05,14.449099390614506
46,Move,"(-0.0244867, 0.0, -0.0362267)","(0.0, 0.11136945956975818, 0.0)","(-0.004183585091681673, 0.16105129612679367, 0.04869462454171034)","(-0.013681079811246498, -0.002292232019647783, 0.10649005672453425)","[-0.011547537281889259, 0.001533688879707562, 0.0008255483963621746]","[-0.026750000193715096, 0.05299999937415123, 0.03999999910593033]","[0.0, -0.0, 0.5635584458347604]","[-0.06521223485469818, 0.11386588960886002, 0.03999999910593033]","[0.0, 0.0, -0.25058538338179137]","[0.026750000193715096, 0.05299999937415123, 0.03999999910593033]","[0.0, 0.0, -0.4790293882410802]","[0.059936098754405975, 0.1168958768248558, 0.03999999910593033]","[0.0, -0.0, 0.3245629560215878]",0.5660034953642541,0.58680951544471,"(0.0, 0.0, 0.0, 0.0, 0.0, 0.0)",-1.834060933458382,-0.8134584671228264,0.16448635630389558,"(0.0, 0.0, 0.0, 0.0, 0.0, 0.0)",-0.8096020169795485,-0.47626326651067186,0.6638643931446878,"(0.0, 0.0, 0.0, 0.0, 0.0, 0.0)",2.186526238216694,0.8025790616628754,-0.24318622113751864,"(0.0, 0.0, 0.0, 0.0, 0.0, 0.0)",1.2427232971415993,True,"(-0.03564651607227173, 0.18208466515265787, 0.056002518090714395)","(0.9943762083684141, 0.1058754879680113, 0.002517395160078177)",-0.0021173866591447047,14.363826010948024,True,"(0.025414286270168042, 0.18260489547042427, 0.023997481844880694)","(-0.9943762083684147, -0.10587548796800568, -0.002517395160080154)",-6.469410392951025e-05,14.060816311670123
47,Move,"(-0.0240333, 0.0, -0.0379733)","(0.0, 0.13174443325753998, 0.0)","(-0.004707343113658468, 0.16107843627786833, 0.048722995527650616)","(-0.014180087898644014, -0.0019502731181643362, 0.10720953114485028)","[-0.012071295303866053, 0.0015608290307822237, 0.0008539193823024482]","[-0.026750000193715096, 0.05299999937415123, 0.03999999910593033]","[0.0, -0.0, 0.5682039534556222]","[-0.06549457460641861, 0.11368655413389206, 0.03999999910593033]","[0.0, 0.0, -0.24462976376541293]","[0.026750000193715096, 0.05299999937415123, 0.03999999910593033]","[0.0, 0.0, -0.47377447602432216]","[0.059599872678518295, 0.11706938594579697, 0.03999999910593033]","[0.0, -0.0, 0.3278913903242449]",0.5704638148883093,0.5423720938975829,"(0.0, 0.0, 0.0, 0.0, 0.0, 0.0)",-1.784766393285195,-0.8121509930067755,0.1638425724713683,"(0.0, 0.0, 0.0, 0.0, 0.0, 0.0)",-0.8001095467651745,-0.4711263993950929,0.635533474186726,"(0.0, 0.0, 0.0, 0.0, 0.0, 0.0)",2.2085197899321525,0.8006609440481258,-0.24117710353966404,"(0.0, 0.0, 0.0, 0.0, 0.0, 0.0)",1.2344452434558082,True,"(-0.03633508926963383, 0.1820750288827348, 0.05600212493676984)","(0.9942976697569201, 0.10661909673616643, 0.0021241768106164617)",-0.0019777821452616833,14.21149938536338,True,"(0.02485926717342049, 0.18266570102440544, 0.023997875063230388)","(-0.9942976697569421, -0.10661909673596438, -0.002124176810392)",-5.581778802557666e-05,13.899862394085439
48,Move,"(-0.0235133, 0.0, -0.03922)","(0.0, 0.15151377769487975, 0.0)","(-0.005202645361167468, 0.1611047682720803, 0.04874780059280024)","(-0.014621805284696783, -0.0016974020931310658, 0.10786630949405368)","[-0.012566597551375054, 0.0015871610249942047, 0.0008787244474520728]","[-0.026750000193715096, 0.05299999937415123, 0.03999999910593033]","[0.0, -0.0, 0.5724974335625547]","[-0.06575477123260498, 0.11351964622735977, 0.03999999910593033]","[0.0, 0.0, -0.23903303037439083]","[0.026750000193715096, 0.05299999937415123, 0.03999999910593033]","[0.0, 0.0, -0.4687435949655391]","[0.059277135878801346, 0.11723383516073227, 0.03999999910593033]","[0.0, -0.0, 0.3310160387705069]",0.5745521183886051,0.49312104985599997,"(0.0, 0.0, 0.0, 0.0, 0.0, 0.0)",-1.791308057407835,-0.8108462716413801,0.16420832324540166,"(0.0, 0.0, 0.0, 0.0, 0.0, 0.0)",-0.803091877689085,-0.4662315291231104,0.6028980538988127,"(0.0, 0.0, 0.0, 0.0, 0.0, 0.0)",2.1913918569951445,0.7987617541264277,-0.23948841110891583,"(0.0, 0.0, 0.0, 0.0, 0.0, 0.0)",1.2242206403256828,True,"(-0.03697795691829388, 0.18206537300403036, 0.05600182328627073)","(0.9942239118844347, 0.10731025782773769, 0.0018225263115049428)",-0.0018579613590717352,14.200909083039564,True,"(0.024331471081813147, 0.18272369608362712, 0.02399817671372928)","(-0.9942239118844387, -0.1073102578277008, -0.001822526311493832)",-4.842215948988706e-05,13.85738952800953
49,Move,"(-0.0233333, 0.0, -0.0402667)","(0.0, 0.16746085107035194, 0.0)","(-0.005676316317908902, 0.16113056751983074, 0.048769540704471946)","(-0.01502143630329167, -0.0015248723825687707, 0.10847347091249505)","[-0.013040268508116487, 0.001612960272744629, 0.0009004645591237787]","[-0.026750000193715096, 0.05299999937415123, 0.03999999910593033]","[0.0, -0.0, 0.5764011614506057]","[-0.06599072366952896, 0.11336692422628403, 0.03999999910593033]","[0.0, 0.0, -0.23382358419586033]","[0.026750000193715096, 0.05299999937415123, 0.03999999910593033]","[0.0, 0.0, -0.46397113955068053]","[0.05897020921111107, 0.11738833785057068, 0.03999999910593033]","[0.0, -0.0, 0.3338963226329504]",0.5783298158883122,0.4628955206646345,"(0.0, 0.0, 0.0, 0.0, 0.0, 0.0)",-1.773030696897638,-0.8095358823462203,0.1653122880174004,"(0.0, 0.0, 0.0, 0.0, 0.0, 0.0)",-0.805395701323858,-0.4615190409047271,0.5884967967149037,"(0.0, 0.0, 0.0, 0.0, 0.0, 0.0)",2.2229836620182715,0.7968677602394325,-0.23992681769822294,"(0.0, 0.0, 0.0, 0.0, 0.0, 0.0)",1.228354353647283,True,"(-0.037570873179187024, 0.18205707636057517, 0.056001613894369695)","(0.9941568895477928, 0.10793274184431466, 0.001613134410466042)",-0.0017562908243831325,14.244554636395295,True,"(0.023835813123224817, 0.18277951383854693, 0.023998386105630275)","(-0.9941568895477928, -0.10793274184431406, -0.001613134410501752)",-4.347996564721346e-05,13.88967183290578
50,Move,"(-0.02302, 0.0, -0.040933300000000006)","(0.0, 0.18226298845651584, 0.0)","(-0.006131704116416389, 0.16115574656210643, 0.04878896822170656)","(-0.015390170975836134, -0.0014120359000267151, 0.10903603263475709)","[-0.013495656306623974, 0.001638139315020326, 0.0009198920763583904]","[-0.026750000193715096, 0.05299999937415123, 0.03999999910593033]","[0.0, -0.0, 0.5800654489099258]","[-0.06621166318655014, 0.11322273313999176, 0.03999999910593033]","[0.0, 0.0, -0.22884521287501872]","[0.026750000193715096, 0.05299999937415123, 0.03999999910593033]","[0.0, 0.0, -0.4593125221114392]","[0.05866990238428116, 0.1175377368927002, 0.03999999910593033]","[0.0, -0.0, 0.3366615735770009]",0.5818349949974443,0.42470029127987097,"(0.0, 0.0, 0.0, 0.0, 0.0, 0.0)",-1.798669343701286,-0.8082162561968874,0.16664487685186843,"(0.0, 0.0, 0.0, 0.0, 0.0, 0.0)",-0.8159096907103398,-0.45695796803616745,0.5650972641060369,"(0.0, 0.0, 0.0, 0.0, 0.0, 0.0)",2.2161536953018164,0.7949747207031864,-0.2398476501895352,"(0.0, 0.0, 0.0, 0.0, 0.0, 0.0)",1.2267529508992205,True,"(-0.03813364535963185, 0.1820491551537848, 0.056001470272582156)","(0.9940929960518184, 0.10852168324058714, 0.0014695126229295546)",-0.001671012718644665,14.364386698903472,True,"(0.023354583357567578, 0.1828336708652404, 0.02399852972741784)","(-0.9940929960518236, -0.10852168324054126, -0.0014695126229390166)",-3.986172520971019e-05,13.96527088365963
51,Move,"(-0.0225733, 0.0, -0.0411267)","(0.0, 0.19092505753416367, 0.0)","(-0.0065584865743742145, 0.16118144664414355, 0.04880592398256068)","(-0.01572824952125842, -0.0013663392900568124, 0.10953798789666556)","[-0.0139224387645818, 0.0016638393970574428, 0.0009368478372125122]","[-0.026750000193715096, 0.05299999937415123, 0.03999999910593033]","[0.0, -0.0, 0.583427270026456]","[-0.06641389429569244, 0.11308972537517548, 0.03999999910593033]","[0.0, 0.0, -0.2241572863431987]","[0.026750000193715096, 0.05299999937415123, 0.03999999910593033]","[0.0, 0.0, -0.4548391251975014]","[0.05838087946176529, 0.1176798865199089, 0.03999999910593033]","[0.0, -0.0, 0.33924259455644395]",0.5850186835790717,0.38195255832159425,"(0.0, 0.0, 0.0, 0.0, 0.0, 0.0)",-1.7946824188249182,-0.8068909886493804,0.1664387739760929,"(0.0, 0.0, 0.0, 0.0, 0.0, 0.0)",-0.8161195520416865,-0.4526326018983242,0.5295582078199279,"(0.0, 0.0, 0.0, 0.0, 0.0, 0.0)",2.1742211073380537,0.7930992117168119,-0.23578578615221837,"(0.0, 0.0, 0.0, 0.0, 0.0, 0.0)",1.2062385831456175,True,"(-0.038658378595078376, 0.18204289945688487, 0.05600139007059544)","(0.9940345889836827, 0.10905643364789215, 0.0013893106362106505)",-0.0016003258566838017,14.277042468072654,True,"(0.0228969220996113, 0.1828864805806937, 0.023998609929404578)","(-0.9940345889836862, -0.10905643364785897, -0.001389310636203552)",-3.804016317465002e-05,13.856445686649382
52,Move,"(-0.02182, 0.0, -0.04114)","(0.0, 0.19472638464500738, 0.0)","(-0.0069425539865066435, 0.16120764152174652, 0.04882039594360286)","(-0.016008975380540007, -0.0013799474237653334, 0.10995173278918093)","[-0.01430650617671423, 0.0016900342746604124, 0.0009513197982546906]","[-0.026750000193715096, 0.05299999937415123, 0.03999999910593033]","[0.0, -0.0, 0.5864507600329436]","[-0.0665953978896141, 0.1129695326089859, 0.03999999910593033]","[0.0, 0.0, -0.21981045326662726]","[0.026750000193715096, 0.05299999937415123, 0.03999999910593033]","[0.0, 0.0, -0.4506472133238593]","[0.05810946971178055, 0.1178119108080864, 0.03999999910593033]","[0.0, -0.0, 0.3415717551139754]",0.5878100817682683,0.3262510664537363,"(0.0, 0.0, 0.0, 0.0, 0.0, 0.0)",-1.7758452899949504,-0.8055800798244319,0.16345611241432487,"(0.0, 0.0, 0.0, 0.0, 0.0, 0.0)",-0.8073050334335733,-0.4486733858616211,0.4737040773639804,"(0.0, 0.0, 0.0, 0.0, 0.0, 0.0)",2.0849828027386046,0.7912722239946033,-0.22719514348382644,"(0.0, 0.0, 0.0, 0.0, 0.0, 0.0)",1.1619841433426208,True,"(-0.03913943397632085, 0.18203884458050584, 0.05600137453505118)","(0.9939833527568465, 0.10952263320544993, 0.001373775091950386)",-0.0015389495057663303,13.977962644974452,True,"(0.022473525036053453, 0.1829375308760311, 0.02399862546494882)","(-0.993983352756846, -0.10952263320545283, -0.0013737750919516638)",-3.833320356710847e-05,13.5297414760488
53,Move,"(-0.0213067, 0.0, -0.04088000000000001)","(0.0, 0.19368267775231482, 0.0)","(-0.007282334451296885, 0.1612340197536592, 0.04883298060830153)","(-0.01623151851349894, -0.0014337388310623712, 0.11028018144922107)","[-0.01464628664150447, 0.0017164125065730895, 0.0009639044629533647]","[-0.026750000193715096, 0.05299999937415123, 0.03999999910593033]","[0.0, -0.0, 0.5890333884649565]","[-0.06675014644861221, 0.11286642402410507, 0.03999999910593033]","[0.0, 0.0, -0.2159271027519091]","[0.026750000193715096, 0.05299999937415123, 0.03999999910593033]","[0.0, 0.0, -0.4468975368314476]","[0.05786622688174248, 0.11792904138565063, 0.03999999910593033]","[0.0, -0.0, 0.34352363454843987]",0.5902303727484328,0.2872840602446958,"(0.0, 0.0, 0.0, 0.0, 0.0, 0.0)",-1.6979636366509696,-0.8042981094863718,0.15896126380220119,"(0.0, 0.0, 0.0, 0.0, 0.0, 0.0)",-0.7843616003286337,-0.44510553247781276,0.4300716237804521,"(0.0, 0.0, 0.0, 0.0, 0.0, 0.0)",2.030826270595273,0.7895124671688375,-0.21807517989749914,"(0.0, 0.0, 0.0, 0.0, 0.0, 0.0)",1.1185968622592788,True,"(-0.03956221569784603, 0.182038342810505, 0.056001416192052414)","(0.9939431181190554, 0.10988664384609571, 0.001415432093190113)",-0.0014826170665280006,13.510407840695784,True,"(0.02210305675044965, 0.18298655634096844, 0.02399858380794757)","(-0.9939431181190578, -0.10988664384607709, -0.0014154320932060844)",-4.071178175815262e-05,13.067235234709822
54,Move,"(-0.02136, 0.0, -0.0406533)","(0.0, 0.1924382579956428, 0.0)","(-0.007600389812409551, 0.16125930507435063, 0.04884504847390577)","(-0.01642364913552948, -0.001492131128989726, 0.11057184117682574)","[-0.014964342002617138, 0.0017416978272645212, 0.0009759723285576033]","[-0.026750000193715096, 0.05299999937415123, 0.03999999910593033]","[0.0, -0.0, 0.5913075855681966]","[-0.06688618659973145, 0.1127753034234047, 0.03999999910593033]","[0.0, 0.0, -0.21238814219415703]","[0.026750000193715096, 0.05299999937415123, 0.03999999910593033]","[0.0, 0.0, -0.4434931898459452]","[0.057645007967948914, 0.11803459376096725, 0.03999999910593033]","[0.0, -0.0, 0.34520240197760343]",0.5924655327798863,0.2779156946143143,"(0.0, 0.0, 0.0, 0.0, 0.0, 0.0)",-1.615529803126422,-0.8030465867701034,0.15577501757187867,"(0.0, 0.0, 0.0, 0.0, 0.0, 0.0)",-0.7620996398696805,-0.4417459750096778,0.4193367648969025,"(0.0, 0.0, 0.0, 0.0, 0.0, 0.0)",2.0334690861816176,0.7878063814649502,-0.21340845010439194,"(0.0, 0.0, 0.0, 0.0, 0.0, 0.0)",1.0981518663970729,True,"(-0.039942866341270894, 0.1820397819104424, 0.05600147753360498)","(0.9939104493159256, 0.11018093247115852, 0.001476773645758215)",-0.0014288246991901094,13.152040319408743,True,"(0.021772521412758414, 0.18303335331058232, 0.023998522466395025)","(-0.9939104493159241, -0.1101809324711713, -0.0014767736457537805)",-4.339521747008457e-05,12.727188493385313
55,Move,"(-0.0219933, 0.0, -0.04125330000000001)","(0.0, 0.19183088341594876, 0.0)","(-0.007926610811169675, 0.16128197726906315, 0.04885784290633284)","(-0.016619447165737832, -0.0015247709065893515, 0.11088794330530265)","[-0.015290563001377261, 0.0017643700219770464, 0.0009887667609846731]","[-0.026750000193715096, 0.05299999937415123, 0.03999999910593033]","[0.0, -0.0, 0.5935075056927582]","[-0.06701759248971939, 0.11268685758113861, 0.03999999910593033]","[0.0, 0.0, -0.20895003805619375]","[0.026750000193715096, 0.05299999937415123, 0.03999999910593033]","[0.0, 0.0, -0.4401737398075921]","[0.057428956031799316, 0.11813679337501526, 0.03999999910593033]","[0.0, -0.0, 0.34683629755690804]",0.5947407416690144,0.29598288584531074,"(0.0, 0.0, 0.0, 0.0, 0.0, 0.0)",-1.5543716986750205,-0.8018160786913656,0.15394905825125263,"(0.0, 0.0, 0.0, 0.0, 0.0, 0.0)",-0.7458128400088389,-0.4383401474273858,0.4400574957966574,"(0.0, 0.0, 0.0, 0.0, 0.0, 0.0)",2.062780983200693,0.7861236690478307,-0.21272753377432735,"(0.0, 0.0, 0.0, 0.0, 0.0, 0.0)",1.0975801338284432,True,"(-0.040312210912216054, 0.18204043350296914, 0.05600152689371749)","(0.9938785654913878, 0.11046749735796914, 0.0015261337582622887)",-0.0013789892919569588,12.945106967552006,True,"(0.021450164112027867, 0.18307818751290367, 0.023998473106282506)","(-0.9938785654913878, -0.11046749735797018, -0.0015261337582718484)",-4.491306169702008e-05,12.553745230257896
56,Move,"(-0.023046700000000003, 0.0, -0.0421333)","(0.0, 0.1925255244582425, 0.0)","(-0.008285115295563356, 0.16130067302441303, 0.048872212805171324)","(-0.01684928470226314, -0.0015130737207725026, 0.11127843775826647)","[-0.01564906748577094, 0.0017830657773269254, 0.0010031366598231561]","[-0.026750000193715096, 0.05299999937415123, 0.03999999910593033]","[0.0, -0.0, 0.5958503961637067]","[-0.0671573132276535, 0.11259235441684723, 0.03999999910593033]","[0.0, 0.0, -0.205385199313669]","[0.026750000193715096, 0.05299999937415123, 0.03999999910593033]","[0.0, 0.0, -0.436689982434993]","[0.05720185488462448, 0.1182432696223259, 0.03999999910593033]","[0.0, -0.0, 0.3486435857478468]",0.5972327284087146,0.3317841212446545,"(0.0, 0.0, 0.0, 0.0, 0.0, 0.0)",-1.5287823126298552,-0.8005940032715421,0.1539575874532659,"(0.0, 0.0, 0.0, 0.0, 0.0, 0.0)",-0.739694450145228,-0.4346788244430435,0.48268338362199054,"(0.0, 0.0, 0.0, 0.0, 0.0, 0.0)",2.106240188560452,0.784436049773973,-0.21541189804708,"(0.0, 0.0, 0.0, 0.0, 0.0, 0.0)",1.1127648907906063,True,"(-0.04069897766901462, 0.18203748597176178, 0.05600153952479415)","(0.9938409086500904, 0.11080559776629191, 0.0015387648349267213)",-0.0013346235468965828,12.91803386666765,True,"(0.021105588261025647, 0.18312099692093747, 0.023998460475205857)","(-0.9938409086500896, -0.11080559776630133, -0.0015387648349210745)",-4.4656816397341895e-05,12.555390677467424
57,Move,"(-0.02438, 0.0, -0.0425933)","(0.0, 0.1925255244582425, 0.0)","(-0.008690730922752705, 0.16131427279565458, 0.048888713192055)","(-0.01713738877715773, -0.0014458969869460931, 0.11177555094464475)","[-0.01605468311296029, 0.0017966655485684713, 0.0010196370467068297]","[-0.026750000193715096, 0.05299999937415123, 0.03999999910593033]","[0.0, -0.0, 0.5984763236834694]","[-0.06731367111206055, 0.11248603463172913, 0.03999999910593033]","[0.0, 0.0, -0.20153846702068554]","[0.026750000193715096, 0.05299999937415123, 0.03999999910593033]","[0.0, 0.0, -0.4328686993294718]","[0.05695231631398201, 0.11835916340351105, 0.03999999910593033]","[0.0, -0.0, 0.35077060670007254]",0.6000515588104441,0.37804167995696614,"(0.0, 0.0, 0.0, 0.0, 0.0, 0.0)",-1.5241772581370154,-0.7993700696809761,0.1547398085326536,"(0.0, 0.0, 0.0, 0.0, 0.0, 0.0)",-0.739441127300534,-0.4306319695612297,0.5368147743011039,"(0.0, 0.0, 0.0, 0.0, 0.0, 0.0)",2.1468254318718474,0.7827258530994297,-0.21922608441403788,"(0.0, 0.0, 0.0, 0.0, 0.0, 0.0)",1.1332272873598253,True,"(-0.04112228176484477, 0.1820290409926522, 0.05600150345314319)","(0.9937928214167393, 0.11123654981053695, 0.001502693183961579)",-0.0012971661958947,12.96974256220706,True,"(0.02071794871686665, 0.18316164530583032, 0.0239984965468568)","(-0.9937928214167394, -0.1112365498105336, -0.001502693183974981)",-4.2560572558750275e-05,12.6319462392587
58,Move,"(-0.02476, 0.0, -0.04256)","(0.0, 0.1912252541655067, 0.0)","(-0.009118166908966998, 0.16132429661925235, 0.0489061377609802)","(-0.017449358840383438, -0.0013453797048586463, 0.11232205698240925)","[-0.01648211909917458, 0.0018066893721662425, 0.0010370616156320303]","[-0.026750000193715096, 0.05299999937415123, 0.03999999910593033]","[0.0, -0.0, 0.6014685557360363]","[-0.06749147921800613, 0.11236439645290375, 0.03999999910593033]","[0.0, 0.0, -0.19732048982564182]","[0.026750000193715096, 0.05299999937415123, 0.03999999910593033]","[0.0, 0.0, -0.4286188059485981]","[0.056674275547266006, 0.1184869259595871, 0.03999999910593033]","[0.0, -0.0, 0.35329838100045285]",0.6030195680499787,0.37224307384827804,"(0.0, 0.0, 0.0, 0.0, 0.0, 0.0)",-1.5765761512426693,-0.7981538291896658,0.15245187345862404,"(0.0, 0.0, 0.0, 0.0, 0.0, 0.0)",-0.739844039699814,-0.42640551099045526,0.5311825830345638,"(0.0, 0.0, 0.0, 0.0, 0.0, 0.0)",2.027952495414282,0.7810228091789387,-0.21464483122218692,"(0.0, 0.0, 0.0, 0.0, 0.0, 0.0)",1.1037493156675557,True,"(-0.04159323613078812, 0.18201361324625343, 0.056001408203662624)","(0.993731506502018, 0.1117842211023167, 0.0014074437034010576)",-0.0012664262139904523,12.81872373099506,True,"(0.020275990790331655, 0.18319957641318754, 0.02399859179633736)","(-0.9937315065020185, -0.11178422110231157, -0.0014074437034125975)",-3.864409683064124e-05,12.463053700085915
59,Move,"(-0.025026700000000002, 0.0, -0.0430533)","(0.0, 0.19041018540482538, 0.0)","(-0.009541127582771678, 0.16133271609063038, 0.04892309363084947)","(-0.01775781027714668, -0.001255326488952145, 0.11285926271795883)","[-0.016905079772979264, 0.001815108843544272, 0.0010540174855013032]","[-0.026750000193715096, 0.05299999937415123, 0.03999999910593033]","[0.0, -0.0, 0.6044150518433571]","[-0.06766621768474579, 0.11224409937858582, 0.03999999910593033]","[0.0, 0.0, -0.19316457077678165]","[0.026750000193715096, 0.05299999937415123, 0.03999999910593033]","[0.0, 0.0, -0.4244136844592078]","[0.05639863386750221, 0.11861218512058258, 0.03999999910593033]","[0.0, -0.0, 0.3558119385275945]",0.6059364849238703,0.36515359252573737,"(0.0, 0.0, 0.0, 0.0, 0.0, 0.0)",-1.5637344026834796,-0.7969491011162791,0.15131126237724177,"(0.0, 0.0, 0.0, 0.0, 0.0, 0.0)",-0.734029536160798,-0.42222646001716707,0.5249395464587171,"(0.0, 0.0, 0.0, 0.0, 0.0, 0.0)",2.0085443849311364,0.779340112654193,-0.21253519808796698,"(0.0, 0.0, 0.0, 0.0, 0.0, 0.0)",1.0924526757326873,True,"(-0.04205724179124733, 0.18199675324569434, 0.05600131137334669)","(0.9936707757672616, 0.11232395861363392, 0.0013106133874677215)",-0.00123770809270619,12.692419572925342,True,"(0.019837581879304345, 0.18323509403910646, 0.023998688626653303)","(-0.9936707757672599, -0.11232395861364734, -0.001310613387475381)",-3.6062372064670056e-05,12.335103717557653
60,Move,"(-0.0247267, 0.0, -0.0426067)","(0.0, 0.18958988065638804, 0.0)","(-0.009942832826103165, 0.1613410550362386, 0.04893878245881145)","(-0.018037630881009004, -0.001191395249601705, 0.11334967447088821)","[-0.01730678501631075, 0.0018234477891524992, 0.0010697063134632798]","[-0.026750000193715096, 0.05299999937415123, 0.03999999910593033]","[0.0, -0.0, 0.6073053436135666]","[-0.06783728301525116, 0.11212559044361115, 0.03999999910593033]","[0.0, 0.0, -0.18907388334551783]","[0.026750000193715096, 0.05299999937415123, 0.03999999910593033]","[0.0, 0.0, -0.42025808341250376]","[0.05612571910023689, 0.11873482167720795, 0.03999999910593033]","[0.0, -0.0, 0.3582928128844911]",0.6086795014127225,0.32979831380043045,"(0.0, 0.0, 0.0, 0.0, 0.0, 0.0)",-1.5713834370062327,-0.7957607939958156,0.14842298475782612,"(0.0, 0.0, 0.0, 0.0, 0.0, 0.0)",-0.72710209875965,-0.4182320803815062,0.48623571438871077,"(0.0, 0.0, 0.0, 0.0, 0.0, 0.0)",1.9122662899108969,0.777692965371875,-0.20590314112719715,"(0.0, 0.0, 0.0, 0.0, 0.0, 0.0)",1.0554781510333784,True,"(-0.04251344636812126, 0.18197888368572995, 0.05600122747835141)","(0.9936109507471822, 0.11285288528552063, 0.001226718392179209)",-0.0012117732421902674,12.451395385763453,True,"(0.019404235758350014, 0.18326877044743495, 0.023998772521648594)","(-0.993610950747182, -0.11285288528552154, -0.0012267183921819025)",-3.3830501093737006e-05,12.07113210357786
61,Move,"(-0.024613299999999998, 0.0, -0.04234)","(0.0, 0.1877363409907701, 0.0)","(-0.010316483783793757, 0.16134992522432207, 0.048952987155146815)","(-0.018283151935029104, -0.0011634713847970613, 0.11378049758186584)","[-0.017680435974001343, 0.0018323179772359588, 0.001083911009798648]","[-0.026750000193715096, 0.05299999937415123, 0.03999999910593033]","[0.0, -0.0, 0.6099158667873766]","[-0.06799149513244629, 0.11201812326908112, 0.03999999910593033]","[0.0, 0.0, -0.18528451507283797]","[0.026750000193715096, 0.05299999937415123, 0.03999999910593033]","[0.0, 0.0, -0.41640897332218846]","[0.05587248131632805, 0.11884740740060806, 0.03999999910593033]","[0.0, -0.0, 0.3605160733870134]",0.6112001419533954,0.3082130805058249,"(0.0, 0.0, 0.0, 0.0, 0.0, 0.0)",-1.5221249406718127,-0.794591965902724,0.14603700515593263,"(0.0, 0.0, 0.0, 0.0, 0.0, 0.0)",-0.7130356380836431,-0.4144859022645236,0.4615386537284448,"(0.0, 0.0, 0.0, 0.0, 0.0, 0.0)",1.8944605396837775,0.7760860113592299,-0.2013692116552979,"(0.0, 0.0, 0.0, 0.0, 0.0, 0.0)",1.0343483267866282,True,"(-0.042932154490335, 0.18196356744392164, 0.056001185304088964)","(0.9935595685802383, 0.11330481250968777, 0.0011845441297453259)",-0.0011862281738531065,12.19996283997581,True,"(0.019007414643562218, 0.18330130962571695, 0.023998814695911034)","(-0.9935595685802383, -0.11330481250968567, -0.0011845441297405601)",-3.3456024261655476e-05,11.824084522598378
