OSUrobotics/InHand-Manipulation/AnalyseData/Data/Trial Data/Even Better/new_hand_human_sub1_2v2_b_n_1_kpNone_kdNone_dp3_step2_save_data.csv
,Phase,human_cube_pos,human_cube_orn,Cube_Pos,Cube_Orn,Cube_pos_in_start_pos,b'l_prox_pin'_link_pos,b'l_prox_pin'_link_orn,b'l_distal_pin'_link_pos,b'l_distal_pin'_link_orn,b'r_prox_pin'_link_pos,b'r_prox_pin'_link_orn,b'r_distal_pin'_link_pos,b'r_distal_pin'_link_orn,b'l_prox_pin'_joint_angle,b'l_prox_pin'_joint_vel,b'l_prox_pin'_joint_react_forces,b'l_prox_pin'_joint_motor_torque,b'l_distal_pin'_joint_angle,b'l_distal_pin'_joint_vel,b'l_distal_pin'_joint_react_forces,b'l_distal_pin'_joint_motor_torque,b'r_prox_pin'_joint_angle,b'r_prox_pin'_joint_vel,b'r_prox_pin'_joint_react_forces,b'r_prox_pin'_joint_motor_torque,b'r_distal_pin'_joint_angle,b'r_distal_pin'_joint_vel,b'r_distal_pin'_joint_react_forces,b'r_distal_pin'_joint_motor_torque,in_contact_l,contact_point_l_dist,contact_normal_l_dist,contact_distance_l_dist,contact_norm_force_l_dist,in_contact_r,contact_point_r_dist,contact_normal_r_dist,contact_distance_r_dist,contact_norm_force_r_dist
0,Open,,,,,,"[-0.026750000193715096, 0.05299999937415123, 0.03999999910593033]","[0.0, -0.0, 0.0]","[-0.026750000193715096, 0.125, 0.03999999910593033]","[0.0, -0.0, 5.883223447970011e-32]","[0.026750000193715096, 0.05299999937415123, 0.03999999910593033]","[0.0, 0.0, -0.008068665592501188]","[0.02733093686401844, 0.12499765306711197, 0.03999999910593033]","[0.0, 0.0, -0.0780932845685428]",0.157,37.68,"(0.0, 0.0, 0.0, 0.0, 0.0, 0.0)",54.702693795169004,5.294901130302062e-32,-1.4119736347472162e-30,"(0.0, 0.0, 0.0, 0.0, 0.0, 0.0)",3.9113724975844915,-0.1670280316324969,-38.150247946082466,"(0.0, 0.0, 0.0, 0.0, 0.0, 0.0)",-25.93345404555236,-0.0659493391739072,0.9780670797324476,"(0.0, 0.0, 0.0, 0.0, 0.0, 0.0)",-6.754749483880455,False,,,,,False,,,,
1,Open,,,,,,"[-0.026750000193715096, 0.05299999937415123, 0.03999999910593033]","[0.0, -0.0, 0.29830000998707634]","[-0.04791048914194107, 0.12182030081748962, 0.03999999910593033]","[0.0, -0.0, 0.29830000998707634]","[0.026750000193715096, 0.05299999937415123, 0.03999999910593033]","[0.0, 0.0, -0.3122944642903269]","[0.048871491104364395, 0.12151744216680527, 0.03999999910593033]","[0.0, 0.0, -0.3793531994353912]",0.42546999999999996,30.5208,"(0.0, 0.0, 0.0, 0.0, 0.0, 0.0)",-4.858074537215091,5.294901130302062e-32,0.0,"(0.0, 0.0, 0.0, 0.0, 0.0, 0.0)",-0.33154044974508506,-0.44292449566296654,-31.35120824461403,"(0.0, 0.0, 0.0, 0.0, 0.0, 0.0)",100.88457241511576,-0.08373770380977785,-4.0029668326633345,"(0.0, 0.0, 0.0, 0.0, 0.0, 0.0)",24.077304806401806,False,,,,,False,,,,
2,Open,,,,,,"[-0.026750000193715096, 0.05299999937415123, 0.03999999910593033]","[0.0, -0.0, 0.5399230359738098]","[-0.06376303732395172, 0.11475787311792374, 0.03999999910593033]","[0.0, -0.0, 0.5399230359738098]","[0.026750000193715096, 0.05299999937415123, 0.03999999910593033]","[0.0, 0.0, -0.5623038790270362]","[0.06513584405183792, 0.11391409486532211, 0.03999999910593033]","[0.0, 0.0, -0.6668711870723439]",0.6429307,24.721848,"(0.0, 0.0, 0.0, 0.0, 0.0, 0.0)",-3.943806903965684,5.294901130302062e-32,0.0,"(0.0, 0.0, 0.0, 0.0, 0.0, 0.0)",-0.2716098155097054,-0.6673401099248648,-25.208696742335626,"(0.0, 0.0, 0.0, 0.0, 0.0, 0.0)",94.97739775913854,-0.11755295807544866,-3.116564819203918,"(0.0, 0.0, 0.0, 0.0, 0.0, 0.0)",25.79194570087013,False,,,,,False,,,,
3,Open,,,,,,"[-0.026750000193715096, 0.05299999937415123, 0.03999999910593033]","[0.0, -0.0, 0.7356376306875043]","[-0.07506632059812546, 0.10638101398944855, 0.03999999910593033]","[0.0, -0.0, 0.7356376306875043]","[0.026750000193715096, 0.05299999937415123, 0.03999999910593033]","[0.0, 0.0, -0.757991847340814]","[0.076247438788414, 0.10528770089149475, 0.03999999910593033]","[0.0, 0.0, -0.8659334873334429]",0.8190738670000001,20.024696880000004,"(0.0, 0.0, 0.0, 0.0, 0.0, 0.0)",-3.2002295086701533,2.3293280891773424e-07,5.5903874140256216e-05,"(0.0, 0.0, 0.0, 0.0, 0.0, 0.0)",-0.22200715926400075,-0.8391926082762636,-19.488197112632974,"(0.0, 0.0, 0.0, 0.0, 0.0, 0.0)",3.295349739497939,-0.09714776835574307,2.590534961280482,"(0.0, 0.0, 0.0, 0.0, 0.0, 0.0)",0.25803221970863044,False,,,,,False,,,,
4,Open,,,,,,"[-0.026750000193715096, 0.05299999937415123, 0.03999999910593033]","[0.0, -0.0, 0.894166469119967]","[-0.08288749307394028, 0.09808415919542313, 0.03999999910593033]","[0.0, -0.0, 0.894166894674561]","[0.026750000193715096, 0.05299999937415123, 0.03999999910593033]","[0.0, 0.0, -0.9122733503889549]","[0.08369457721710205, 0.09706035256385803, 0.03999999910593033]","[0.0, 0.0, -0.9997066729229968]",0.96174983227,16.220004472800003,"(0.0, 0.0, 0.0, 0.0, 0.0, 0.0)",-2.5959652512206968,5.681494863714967e-07,3.553320838026869e-05,"(0.0, 0.0, 0.0, 0.0, 0.0, 0.0)",-0.18114955764248034,-0.9780460127037736,-15.785439661232708,"(0.0, 0.0, 0.0, 0.0, 0.0, 0.0)",2.503992476159733,-0.0786900142246732,2.098357403184359,"(0.0, 0.0, 0.0, 0.0, 0.0, 0.0)",0.15360133560797545,False,,,,,False,,,,
5,Open,,,,,,"[-0.026750000193715096, 0.05299999937415123, 0.03999999910593033]","[0.0, -0.0, 1.0225748785172661]","[-0.08819860219955444, 0.09052424877882004, 0.03999999910593033]","[0.0, -0.0, 1.0225755149967983]","[0.026750000193715096, 0.05299999937415123, 0.03999999910593033]","[0.0, 0.0, -1.037241417801626]","[0.08874232321977615, 0.08961901068687439, 0.03999999910593033]","[0.0, 0.0, -1.1080626941470386]",1.0773173641387,13.138203622968001,"(0.0, 0.0, 0.0, 0.0, 0.0, 0.0)",-2.105207702642618,7.694903593429899e-07,2.0776129443188934e-05,"(0.0, 0.0, 0.0, 0.0, 0.0, 0.0)",-0.14759587787833617,-1.0905172702900567,-12.78620612559849,"(0.0, 0.0, 0.0, 0.0, 0.0, 0.0)",2.0303755786213302,-0.06373917358809339,1.6996763127328351,"(0.0, 0.0, 0.0, 0.0, 0.0, 0.0)",0.1250328149112744,False,,,,,False,,,,
6,Open,,,,,,"[-0.026750000193715096, 0.05299999937415123, 0.03999999910593033]","[0.0, -0.0, 1.126585512342968]","[-0.09176240861415863, 0.08394166082143784, 0.03999999910593033]","[0.0, -0.0, 1.1265864725026016]","[0.026750000193715096, 0.05299999937415123, 0.03999999910593033]","[0.0, 0.0, -1.13846552283997]","[0.09212540090084076, 0.08316715806722641, 0.03999999910593033]","[0.0, 0.0, -1.1958309904194953]",1.1709270649523469,10.641944934604087,"(0.0, 0.0, 0.0, 0.0, 0.0, 0.0)",-1.7068426281171958,8.750681698751778e-07,1.0273240928962424e-05,"(0.0, 0.0, 0.0, 0.0, 0.0, 0.0)",-0.12011999884119333,-1.181618988934946,-10.356826961734775,"(0.0, 0.0, 0.0, 0.0, 0.0, 0.0)",1.6460093571929852,-0.051628943774705546,1.376743384776279,"(0.0, 0.0, 0.0, 0.0, 0.0, 0.0)",0.10168054944364863,False,,,,,False,,,,
7,Open,,,,,,"[-0.026750000193715096, 0.05299999937415123, 0.03999999910593033]","[0.0, -0.0, 1.2108343955497323]","[-0.09413553774356842, 0.07836118340492249, 0.03999999910593033]","[0.0, -0.0, 1.210835255049739]","[0.026750000193715096, 0.05299999937415123, 0.03999999910593033]","[0.0, 0.0, -1.2204571829136446]","[0.09437645971775055, 0.07771158218383789, 0.03999999910593033]","[0.0, 0.0, -1.2669233179031547]",1.2467509226114009,8.619975397029307,"(0.0, 0.0, 0.0, 0.0, 0.0, 0.0)",-1.3836082777937824,9.135722823677317e-07,2.9650129412077397e-06,"(0.0, 0.0, 0.0, 0.0, 0.0, 0.0)",-0.09766941677677543,-1.2554113810373062,-8.38902983900517,"(0.0, 0.0, 0.0, 0.0, 0.0, 0.0)",1.334189480132575,-0.04181961771093252,1.1151666876061868,"(0.0, 0.0, 0.0, 0.0, 0.0, 0.0)",0.08262627878010878,False,,,,,False,,,,
8,Open,,,,,,"[-0.026750000193715096, 0.05299999937415123, 0.03999999910593033]","[0.0, -0.0, 1.2790758758817962]","[-0.09570803493261337, 0.0737072303891182, 0.03999999910593033]","[0.0, -0.0, 1.2790780932516201]","[0.026750000193715096, 0.05299999937415123, 0.03999999910593033]","[0.0, 0.0, -1.2868702529032277]","[0.0958673357963562, 0.07316911965608597, 0.03999999910593033]","[0.0, 0.0, -1.3245087793274308]",1.3081682532711112,6.982181501004109,"(0.0, 0.0, 0.0, 0.0, 0.0, 0.0)",-1.12145472366965,1.9027582300258812e-06,-5.0740219467356254e-05,"(0.0, 0.0, 0.0, 0.0, 0.0, 0.0)",-0.07939114715284208,-1.315183223212741,-6.795115266999686,"(0.0, 0.0, 0.0, 0.0, 0.0, 0.0)",1.0813262344929835,-0.033874873767778015,0.9033299671407473,"(0.0, 0.0, 0.0, 0.0, 0.0, 0.0)",0.06713055017345074,False,,,,,False,,,,
9,Open,,,,,,"[-0.026750000193715096, 0.05299999937415123, 0.03999999910593033]","[0.0, -0.0, 1.334351465706577]","[-0.09674673527479172, 0.06986585259437561, 0.03999999910593033]","[0.0, -0.0, 1.33435435145599]","[0.026750000193715096, 0.05299999937415123, 0.03999999910593033]","[0.0, 0.0, -1.3406650641721125]","[0.09685182571411133, 0.06942359358072281, 0.03999999910593033]","[0.0, 0.0, -1.3711530696282732]",1.3579162851496,5.655565729344001,"(0.0, 0.0, 0.0, 0.0, 0.0, 0.0)",-0.9088150211252332,3.4316066113876724e-06,0.0001607445165674468,"(0.0, 0.0, 0.0, 0.0, 0.0, 0.0)",-0.06444344013525093,-1.3635984108023202,-5.504042378604797,"(0.0, 0.0, 0.0, 0.0, 0.0, 0.0)",0.8762522980402716,-0.02744024570882781,0.7315266716392431,"(0.0, 0.0, 0.0, 0.0, 0.0, 0.0)",0.05446985052483407,False,,,,,False,,,,
10,Open,,,,,,"[-0.026750000193715096, 0.05299999937415123, 0.03999999910593033]","[0.0, -0.0, 1.3791247702213432]","[-0.0974314734339714, 0.0667160153388977, 0.03999999910593033]","[0.0, -0.0, 1.3791284782568445]","[0.026750000193715096, 0.05299999937415123, 0.03999999910593033]","[0.0, 0.0, -1.3842387704807777]","[0.09750068932771683, 0.06635437905788422, 0.03999999910593033]","[0.0, 0.0, -1.408935619520831]",1.398212190971176,4.581008240768642,"(0.0, 0.0, 0.0, 0.0, 0.0, 0.0)",-0.7364407507487188,4.314390796743166e-06,8.968521101115077e-05,"(0.0, 0.0, 0.0, 0.0, 0.0, 0.0)",-0.05230389643117988,-1.4028147127498793,-4.458274326669883,"(0.0, 0.0, 0.0, 0.0, 0.0, 0.0)",0.7100243788118592,-0.02222789596809768,0.5925708975857369,"(0.0, 0.0, 0.0, 0.0, 0.0, 0.0)",0.04419507766734469,False,,,,,False,,,,
11,Open,,,,,,"[-0.026750000193715096, 0.05299999937415123, 0.03999999910593033]","[0.0, -0.0, 1.415391158105469]","[-0.09788231551647186, 0.06414420157670975, 0.03999999910593033]","[0.0, -0.0, 1.415395709317307]","[0.026750000193715096, 0.05299999937415123, 0.03999999910593033]","[0.0, 0.0, -1.419533200978404]","[0.09792786836624146, 0.06384945660829544, 0.03999999910593033]","[0.0, 0.0, -1.4395389386881268]",1.4308518746866525,3.7106166750225977,"(0.0, 0.0, 0.0, 0.0, 0.0, 0.0)",-0.5967141397561109,4.7399630338636504e-06,3.9705446138709865e-05,"(0.0, 0.0, 0.0, 0.0, 0.0, 0.0)",-0.042434775014060074,-1.4345799173274023,-3.611202204602609,"(0.0, 0.0, 0.0, 0.0, 0.0, 0.0)",0.5752902758042565,-0.018005647771851804,0.4800102903229233,"(0.0, 0.0, 0.0, 0.0, 0.0, 0.0)",0.0358468230863414,False,,,,,False,,,,
12,Open,,,,,,"[-0.026750000193715096, 0.05299999937415123, 0.03999999910593033]","[0.0, -0.0, 1.4447668540021588]","[-0.09817895293235779, 0.06205013021826744, 0.03999999910593033]","[0.0, -0.0, 1.4447715863131299]","[0.026750000193715096, 0.05299999937415123, 0.03999999910593033]","[0.0, 0.0, -1.448121993206969]","[0.09820891171693802, 0.06181041896343231, 0.03999999910593033]","[0.0, 0.0, -1.46432761016298]",1.4572900184961886,3.005599506768304,"(0.0, 0.0, 0.0, 0.0, 0.0, 0.0)",-0.483467731204937,4.849462099751187e-06,5.401615740548756e-06,"(0.0, 0.0, 0.0, 0.0, 0.0, 0.0)",-0.03441712855198442,-1.4603097330351957,-2.925073785728113,"(0.0, 0.0, 0.0, 0.0, 0.0, 0.0)",0.4660969568661882,-0.014585427836986846,0.38883096045278315,"(0.0, 0.0, 0.0, 0.0, 0.0, 0.0)",0.029067900465992856,False,,,,,False,,,,
13,Open,,,,,,"[-0.026750000193715096, 0.05299999937415123, 0.03999999910593033]","[0.0, -0.0, 1.4685611215819594]","[-0.09837405383586884, 0.06034812703728676, 0.03999999910593033]","[0.0, -0.0, 1.468565853091142]","[0.026750000193715096, 0.05299999937415123, 0.03999999910593033]","[0.0, 0.0, -1.4712788457263521]","[0.0983937606215477, 0.06015344336628914, 0.03999999910593033]","[0.0, 0.0, -1.4844061039497418]",1.4787049149819127,2.434535600482329,"(0.0, 0.0, 0.0, 0.0, 0.0, 0.0)",-0.39169363303347604,4.747151892642784e-06,-1.7351748576465223e-05,"(0.0, 0.0, 0.0, 0.0, 0.0, 0.0)",-0.02790732436186781,-1.4811508837585086,-2.3693097664397755,"(0.0, 0.0, 0.0, 0.0, 0.0, 0.0)",0.37761186810531283,-0.011814888241968555,0.3149714411852639,"(0.0, 0.0, 0.0, 0.0, 0.0, 0.0)",0.023565936472848985,False,,,,,False,,,,
14,Open,,,,,,"[-0.026750000193715096, 0.05299999937415123, 0.03999999910593033]","[0.0, -0.0, 1.487834617901085]","[-0.09850236773490906, 0.05896640568971634, 0.03999999910593033]","[0.0, -0.0, 1.4878390921106803]","[0.026750000193715096, 0.05299999937415123, 0.03999999910593033]","[0.0, 0.0, -1.4900358577435544]","[0.09851532429456711, 0.05880843847990036, 0.03999999910593033]","[0.0, 0.0, -1.5006695807985118]",1.4960509811353493,1.9719738363906854,"(0.0, 0.0, 0.0, 0.0, 0.0, 0.0)",-0.3173274216127963,4.509251873886308e-06,-3.168767150011037e-05,"(0.0, 0.0, 0.0, 0.0, 0.0, 0.0)",-0.022624215793833224,-1.498032215844392,-1.9191409108162163,"(0.0, 0.0, 0.0, 0.0, 0.0, 0.0)",0.30591369390909257,-0.00957062017308593,0.2551417656412126,"(0.0, 0.0, 0.0, 0.0, 0.0, 0.0)",0.019102112305110365,False,,,,,False,,,,
15,Close,,,"(0.010000330010418335, 0.1600052801621647, 0.0076635160840755065)","(-0.00010776674212266888, 6.7354271463595154e-06, -3.629275205618536e-10)",,"[-0.026750000193715096, 0.05299999937415123, 0.03999999910593033]","[0.0, -0.0, 1.5034457455162191]","[-0.09858676046133041, 0.05784556642174721, 0.03999999910593033]","[0.0, -0.0, 1.5034503818793725]","[0.026750000193715096, 0.05299999937415123, 0.03999999910593033]","[0.0, 0.0, -1.5052288706440118]","[0.09859529137611389, 0.057717464864254, 0.03999999910593033]","[0.0, 0.0, -1.5138427586332608]",1.413101294719633,-21.682701192523552,"(0.0, 0.0, 0.0, 0.0, 0.0, 0.0)",-36.2964633864193,-0.08999572753671375,-21.600020366059084,"(0.0, 0.0, 0.0, 0.0, 0.0, 0.0)",-4.677104715743802,-1.4147060948339576,21.72549586223887,"(0.0, 0.0, 0.0, 0.0, 0.0, 0.0)",36.28721231316116,0.08224721981037424,21.806647295928226,"(0.0, 0.0, 0.0, 0.0, 0.0, 0.0)",4.674247117033191,False,,,,,False,,,,
16,Close,,,"(0.010000659812012168, 0.16001055698314023, 0.0146278458391823)","(-0.0002154970996661642, 1.346858017578936e-05, -1.4512199879406586e-09)",,"[-0.026750000193715096, 0.05299999937415123, 0.03999999910593033]","[0.0, -0.0, 1.331791174621689]","[-0.09670332819223404, 0.07004500180482864, 0.03999999910593033]","[0.0, -0.0, 1.1607947601674466]","[0.026750000193715096, 0.05299999937415123, 0.03999999910593033]","[0.0, 0.0, -1.333235579802916]","[0.0967278704047203, 0.06994394958019257, 0.03999999910593033]","[0.0, 0.0, -1.1692126917852095]",1.2586120487229027,-17.562987965944075,"(0.0, 0.0, 0.0, 0.0, 0.0, 0.0)",2.9912613024458263,-0.2438973282575851,-17.496176851103186,"(0.0, 0.0, 0.0, 0.0, 0.0, 0.0)",0.3774423078885404,-1.2599119368155056,17.59765164841349,"(0.0, 0.0, 0.0, 0.0, 0.0, 0.0)",-2.998418754928424,0.23762104120869787,17.663545071724318,"(0.0, 0.0, 0.0, 0.0, 0.0, 0.0)",-0.3794651959179023,False,,,,,False,,,,
17,Close,,,"(0.010000989414132393, 0.1600158306125408, 0.020893621515273818)","(-0.00032319108508158773, 2.0199459787849396e-05, -3.2641426920478403e-09)",,"[-0.026750000193715096, 0.05299999937415123, 0.03999999910593033]","[0.0, -0.0, 1.1927509376626115]","[-0.09366592019796371, 0.0795755386352539, 0.03999999910593033]","[0.0, -0.0, 0.8832429263887086]","[0.026750000193715096, 0.05299999937415123, 0.03999999910593033]","[0.0, 0.0, -1.1939208377844814]","[0.0936969667673111, 0.07949723303318024, 0.03999999910593033]","[0.0, 0.0, -0.8900614482005528]",1.1334757594655511,-14.226020252414699,"(0.0, 0.0, 0.0, 0.0, 0.0, 0.0)",2.4288508647123748,-0.36855748390702325,-14.171887099327844,"(0.0, 0.0, 0.0, 0.0, 0.0, 0.0)",0.30976852738726823,-1.1345286688205596,14.254097835214925,"(0.0, 0.0, 0.0, 0.0, 0.0, 0.0)",-2.4347025650831196,0.36347369491056536,14.307455277413446,"(0.0, 0.0, 0.0, 0.0, 0.0, 0.0)",-0.3114537668278207,False,,,,,False,,,,
18,Close,,,"(0.010001318826104761, 0.16002110119957821, 0.02646143576036139)","(-0.0004308487108156613, 2.692806668198511e-05, -5.800961497533997e-09)",,"[-0.026750000193715096, 0.05299999937415123, 0.03999999910593033]","[0.0, -0.0, 1.0801281957344744]","[-0.09025531262159348, 0.08692750334739685, 0.03999999910593033]","[0.0, -0.0, 0.658426092619021]","[0.026750000193715096, 0.05299999937415123, 0.03999999910593033]","[0.0, 0.0, -1.0810758877799864]","[0.09028743207454681, 0.0868673101067543, 0.03999999910593033]","[0.0, 0.0, -0.6639491897248752]",1.0321153651670965,-11.523076404455903,"(0.0, 0.0, 0.0, 0.0, 0.0, 0.0)",1.9712593195403922,-0.46953209273108476,-11.479215138346529,"(0.0, 0.0, 0.0, 0.0, 0.0, 0.0)",0.25356328507457,-1.0329682217446532,11.54581924652409,"(0.0, 0.0, 0.0, 0.0, 0.0, 0.0)",-1.976034733535922,0.46541422655746517,11.589025293474933,"(0.0, 0.0, 0.0, 0.0, 0.0, 0.0)",-0.2549589687679249,False,,,,,False,,,,
19,Close,,,"(0.010001648057231211, 0.16002636889308344, 0.03133184175509247)","(-0.0005384699893107284, 3.3654401557527444e-05, -9.06094284338731e-09)",,"[-0.026750000193715096, 0.05299999937415123, 0.03999999910593033]","[0.0, -0.0, 0.9889039009917453]","[-0.08690053224563599, 0.09257163107395172, 0.03999999910593033]","[0.0, -0.0, 0.4763247177857985]","[0.026750000193715096, 0.05299999937415123, 0.03999999910593033]","[0.0, 0.0, -0.9896714317513632]","[0.08693088591098785, 0.09252544492483139, 0.03999999910593033]","[0.0, 0.0, -0.4807983343348629]",0.9500134457853482,-9.333691887609287,"(0.0, 0.0, 0.0, 0.0, 0.0, 0.0)",1.59927232790674,-0.551321428885197,-9.298153181376478,"(0.0, 0.0, 0.0, 0.0, 0.0, 0.0)",0.20712540820679678,-0.9507042596131691,9.352113589684514,"(0.0, 0.0, 0.0, 0.0, 0.0, 0.0)",-1.6031637286990463,0.5479859596890367,9.387099348535743,"(0.0, 0.0, 0.0, 0.0, 0.0, 0.0)",-0.20827601456628825,False,,,,,False,,,,
20,Close,,,"(0.010001977116791199, 0.1600316338415276, 0.035505353338314005)","(-0.0006460549330047555, 4.037846511369274e-05, -1.3043353742532214e-08)",,"[-0.026750000193715096, 0.05299999937415123, 0.03999999910593033]","[0.0, -0.0, 0.9150121593347216]","[-0.08381503820419312, 0.09690423309803009, 0.03999999910593033]","[0.0, -0.0, 0.3288226039195219]","[0.026750000193715096, 0.05299999937415123, 0.03999999910593033]","[0.0, 0.0, -0.9156338940018686]","[0.08384232223033905, 0.09686874598264694, 0.03999999910593033]","[0.0, 0.0, -0.33244627340343963]",0.883510891086132,-7.560290428963521,"(0.0, 0.0, 0.0, 0.0, 0.0, 0.0)",1.2970851133907606,-0.6175707112805602,-7.53149495926978,"(0.0, 0.0, 0.0, 0.0, 0.0, 0.0)",0.1689126126712179,-0.884070450286667,7.575212007644451,"(0.0, 0.0, 0.0, 0.0, 0.0, 0.0)",-1.3002524451675361,0.6148689832085066,7.603541305643349,"(0.0, 0.0, 0.0, 0.0, 0.0, 0.0)",-0.16985779298155493,False,,,,,False,,,,
21,Close,,,"(0.010002306014043007, 0.16003689619304312, 0.038982445123681576)","(-0.0007536035543313348, 4.7100258049582536e-05, -1.7747461781428295e-08)",,"[-0.026750000193715096, 0.05299999937415123, 0.03999999910593033]","[0.0, -0.0, 0.855159831855573]","[-0.0810866579413414, 0.10023905336856842, 0.03999999910593033]","[0.0, -0.0, 0.20934598049273878]","[0.026750000193715096, 0.05299999937415123, 0.03999999910593033]","[0.0, 0.0, -0.855663319897266]","[0.08111044019460678, 0.10021167993545532, 0.03999999910593033]","[0.0, 0.0, -0.21228117869263835]",0.8296438217797669,-6.123835247460454,"(0.0, 0.0, 0.0, 0.0, 0.0, 0.0)",1.05173758145085,-0.6712325644411228,-6.100503438359898,"(0.0, 0.0, 0.0, 0.0, 0.0, 0.0)",0.13756782929819192,-0.8300970647322002,6.135921726192006,"(0.0, 0.0, 0.0, 0.0, 0.0, 0.0)",-1.0543131565319612,0.6690441663231638,6.158860938132814,"(0.0, 0.0, 0.0, 0.0, 0.0, 0.0)",-0.13834207864853043,False,,,,,False,,,,
22,Close,,,"(0.010002634758225062, 0.1600421560954447, 0.041763552607370504)","(-0.000861115865719684, 5.381978106418352e-05, -2.3172535119669436e-08)",,"[-0.026750000193715096, 0.05299999937415123, 0.03999999910593033]","[0.0, -0.0, 0.8066794434121096]","[-0.07873354107141495, 0.10281677544116974, 0.03999999910593033]","[0.0, -0.0, 0.11257000369976355]","[0.026750000193715096, 0.05299999937415123, 0.03999999910593033]","[0.0, 0.0, -0.807087375168555]","[0.07875385880470276, 0.1027955636382103, 0.03999999910593033]","[0.0, 0.0, -0.11494747853587685]",0.7860114956416112,-4.960306550442966,"(0.0, 0.0, 0.0, 0.0, 0.0, 0.0)",0.8526282438926112,-0.7146986118113532,-4.941401666116088,"(0.0, 0.0, 0.0, 0.0, 0.0, 0.0)",0.11192109221648956,-0.7863786224330822,4.970096598215528,"(0.0, 0.0, 0.0, 0.0, 0.0, 0.0)",-0.8547210444656044,0.7129260106609093,4.988671207184531,"(0.0, 0.0, 0.0, 0.0, 0.0, 0.0)",-0.11255391153308099,False,,,,,False,,,,
23,Close,,,"(0.010002963358557236, 0.16004741369625017, 0.04384907226694074)","(-0.0009685918795946493, 6.053703485636736e-05, -2.9317842489583264e-08)",,"[-0.026750000193715096, 0.05299999937415123, 0.03999999910593033]","[0.0, -0.0, 0.7674103444184671]","[-0.07673770934343338, 0.10481919348239899, 0.03999999910593033]","[0.0, -0.0, 0.03418149097606777]","[0.026750000193715096, 0.05299999937415123, 0.03999999910593033]","[0.0, 0.0, -0.7677407466611278]","[0.07675483077764511, 0.1048026755452156, 0.03999999910593033]","[0.0, 0.0, -0.0361072460378734]",0.7506693114697051,-4.017848305858803,"(0.0, 0.0, 0.0, 0.0, 0.0, 0.0)",0.6911017846597902,-0.7499060663183246,-4.0025303530146505,"(0.0, 0.0, 0.0, 0.0, 0.0, 0.0)",0.09097831684118958,-0.7509666841707966,4.025778244554576,"(0.0, 0.0, 0.0, 0.0, 0.0, 0.0)",-0.6928012733138227,0.7484702604680491,4.040818653480022,"(0.0, 0.0, 0.0, 0.0, 0.0, 0.0)",-0.09149462532289206,False,,,,,False,,,,
24,Close,,,"(0.010003291824242136, 0.16005266914270105, 0.04523936165140331)","(-0.0010760316083767074, 6.725202012489063e-05, -3.618265319583079e-08)",,"[-0.026750000193715096, 0.05299999937415123, 0.03999999910593033]","[0.0, -0.0, 0.7356023986171477]","[-0.07506444305181503, 0.10638272017240524, 0.03999999910593033]","[0.0, 0.0, -0.029314282157410606]","[0.026750000193715096, 0.05299999937415123, 0.03999999910593033]","[0.0, 0.0, -0.7358699744488303]","[0.07507872581481934, 0.10636978596448898, 0.03999999910593033]","[0.0, -0.0, 0.027754427824074522]",0.722042142290461,-3.2544571277456287,"(0.0, 0.0, 0.0, 0.0, 0.0, 0.0)",0.560108160717456,-0.7784260816002104,-3.242260463996204,"(0.0, 0.0, 0.0, 0.0, 0.0, 0.0)",0.0739092939425144,-0.7222830141783452,3.260880378089207,"(0.0, 0.0, 0.0, 0.0, 0.0, 0.0)",-0.5614876113391304,0.7772630911922368,3.2732751882458535,"(0.0, 0.0, 0.0, 0.0, 0.0, 0.0)",-0.07432997801242036,False,,,,,False,,,,
25,Close,,,"(0.010001644182078712, 0.16005595153396976, 0.045940321410535084)","(-0.0011271805217326655, 1.767785898679914e-05, -1.508889111938428e-08)",,"[-0.026750000193715096, 0.05299999937415123, 0.03999999910593033]","[0.0, -0.0, 0.7098379546684608]","[-0.07367318123579025, 0.10760965943336487, 0.03999999910593033]","[0.0, 0.0, -0.08074653118681538]","[0.026750000193715096, 0.05299999937415123, 0.03999999910593033]","[0.0, 0.0, -0.7100547061469626]","[0.07368502020835876, 0.10759948939085007, 0.03999999910593033]","[0.0, -0.0, 0.07948305351710017]",0.6988541352552734,-2.6361102734739577,"(0.0, 0.0, 0.0, 0.0, 0.0, 0.0)",0.4538907146887525,-0.8015268867317584,-2.626184566689172,"(0.0, 0.0, 0.0, 0.0, 0.0, 0.0)",0.06000477197099662,-0.6990492414844596,2.6413131062522566,"(0.0, 0.0, 0.0, 0.0, 0.0, 0.0)",-0.45500992694973624,0.8005848745408953,2.6513062318756173,"(0.0, 0.0, 0.0, 0.0, 0.0, 0.0)",-0.06034712704439637,False,,,,,False,,,,
26,Close,,,"(0.0099979269032565, 0.16005188637635104, 0.04640949954916324)","(-0.0010442772263960227, -5.814874739306873e-05, 7.787963860925158e-09)",,"[-0.026750000193715096, 0.05299999937415123, 0.03999999910593033]","[0.0, -0.0, 0.6889687286552088]","[-0.07252338528633118, 0.1085769459605217, 0.03999999910593033]","[0.0, 0.0, -0.12240626184562299]","[0.026750000193715096, 0.05299999937415123, 0.03999999910593033]","[0.0, 0.0, -0.6891442541658422]","[0.07253314554691315, 0.10856890678405762, 0.03999999910593033]","[0.0, -0.0, 0.12138287899953458]",0.6800717984485459,-2.1352615874880345,"(0.0, 0.0, 0.0, 0.0, 0.0, 0.0)",0.36778464275725675,-0.820237492399504,-2.127000202679893,"(0.0, 0.0, 0.0, 0.0, 0.0, 0.0)",0.04871100820034693,-0.6802298342020312,2.1394759521557623,"(0.0, 0.0, 0.0, 0.0, 0.0, 0.0)",-0.3686924226914724,0.8194744666035607,2.147347557238381,"(0.0, 0.0, 0.0, 0.0, 0.0, 0.0)",-0.04898946018255637,False,,,,,False,,,,
27,Close,,,"(0.009998107600018924, 0.16004411888380865, 0.0468059782297436)","(-0.0008858309445970004, -5.447527859797503e-05, 4.128601528647624e-08)",,"[-0.026750000193715096, 0.05299999937415123, 0.03999999910593033]","[0.0, -0.0, 0.672064613904271]","[-0.07157741487026215, 0.10934273153543472, 0.03999999910593033]","[0.0, 0.0, -0.15614974961002634]","[0.026750000193715096, 0.05299999937415123, 0.03999999910593033]","[0.0, 0.0, -0.6722069192953587]","[0.07158542424440384, 0.10933635383844376, 0.03999999910593033]","[0.0, -0.0, 0.15532080931604164]",0.6648581567433223,-1.7295508464885936,"(0.0, 0.0, 0.0, 0.0, 0.0, 0.0)",0.29799285099320455,-0.8353935278746698,-1.722993881465588,"(0.0, 0.0, 0.0, 0.0, 0.0, 0.0)",0.03950205891705609,-0.6649861657036452,1.732964418763874,"(0.0, 0.0, 0.0, 0.0, 0.0, 0.0)",-0.2987289514022836,0.83477548361327,1.7394759470338683,"(0.0, 0.0, 0.0, 0.0, 0.0, 0.0)",-0.03972821774930672,False,,,,,False,,,,
28,Close,,,"(0.009998390752654573, 0.16003702894197389, 0.04714144752999396)","(-0.0007411380797103218, -4.869650481896534e-05, 1.1687517768299383e-07)",,"[-0.026750000193715096, 0.05299999937415123, 0.03999999910593033]","[0.0, -0.0, 0.6583722791296546]","[-0.07080177217721939, 0.10995122045278549, 0.03999999910593033]","[0.0, 0.0, -0.18348236399010098]","[0.026750000193715096, 0.05299999937415123, 0.03999999910593033]","[0.0, 0.0, -0.6584875609778488]","[0.07080833613872528, 0.10994613915681839, 0.03999999910593033]","[0.0, -0.0, 0.18281091441867092]",0.652535106962091,-1.400936185655761,"(0.0, 0.0, 0.0, 0.0, 0.0, 0.0)",0.24143143710013154,-0.8476696977959799,-1.3956001238249038,"(0.0, 0.0, 0.0, 0.0, 0.0, 0.0)",0.032035576984152714,-0.6526387942199526,1.4037011791987364,"(0.0, 0.0, 0.0, 0.0, 0.0, 0.0)",-0.24202820218879367,0.8471690873323404,1.4089504550195393,"(0.0, 0.0, 0.0, 0.0, 0.0, 0.0)",-0.0322192170145395,False,,,,,False,,,,
29,Close,,,"(0.009998679410322496, 0.16003066597344334, 0.0474253884764576)","(-0.0006112814540129935, -4.2805404436077314e-05, 1.9447426774393396e-07)",,"[-0.026750000193715096, 0.05299999937415123, 0.03999999910593033]","[0.0, -0.0, 0.6472815645892557]","[-0.07016744464635849, 0.11043626815080643, 0.03999999910593033]","[0.0, 0.0, -0.2056215493544759]","[0.026750000193715096, 0.05299999937415123, 0.03999999910593033]","[0.0, 0.0, -0.6473749785824873]","[0.07017280906438828, 0.1104322224855423, 0.03999999910593033]","[0.0, -0.0, 0.20507767878351457]",0.6425534366392937,-1.1347583103811658,"(0.0, 0.0, 0.0, 0.0, 0.0, 0.0)",0.19559696212506814,-0.8576132175808707,-1.130415870269558,"(0.0, 0.0, 0.0, 0.0, 0.0, 0.0)",0.025974296640771184,-0.6426374233181616,1.1369979551509777,"(0.0, 0.0, 0.0, 0.0, 0.0, 0.0)",-0.19608068519888996,0.8572077274788498,1.141229523067934,"(0.0, 0.0, 0.0, 0.0, 0.0, 0.0)",-0.02612334092818916,False,,,,,False,,,,
30,Close,,,"(0.009865465308992205, 0.15999852606453366, 0.04766600164849151)","(-0.0003424815135586742, 0.00015086673503461647, 0.0034152828324375316)",,"[-0.026750000193715096, 0.05299999937415123, 0.03999999910593033]","[0.0, -0.0, 0.6382981045455605]","[-0.06964972615242004, 0.11082398891448975, 0.03999999910593033]","[0.0, 0.0, -0.22355414441709243]","[0.026750000193715096, 0.05299999937415123, 0.03999999910593033]","[0.0, 0.0, -0.6383737252477673]","[0.06965409219264984, 0.11082074791193008, 0.03999999910593033]","[0.0, -0.0, 0.22311363310560886]",0.6344682836778279,-0.9191542314087444,"(0.0, 0.0, 0.0, 0.0, 0.0, 0.0)",0.1584658053641607,-0.8656670151994418,-0.9155462613482186,"(0.0, 0.0, 0.0, 0.0, 0.0, 0.0)",0.021063560793533557,-0.6345419852789147,0.9196069697833984,"(0.0, 0.0, 0.0, 0.0, 0.0, 0.0)",1.5650710318467773,0.8652269258386903,0.8975102038417887,"(0.0, 0.0, 0.0, 0.0, 0.0, 0.0)",0.970263568851588,False,,,,,True,"(0.041964474105275554, 0.17969275438125942, 0.023999959438538113)","(-0.9999999992078928, -2.3394376763778626e-07, -3.980150266267419e-05)",0.0005277146366441324,13.827283024398023
31,Move,,,"(0.007363952190207586, 0.1595176072470861, 0.04786907614534817)","(-0.000283671801070412, 0.00017028703879343212, 0.033932294028324435)","[0.0, 0.0, 0.0]","[-0.026750000193715096, 0.05299999937415123, 0.03999999910593033]","[0.0, -0.0, 0.6310214732486521]","[-0.06922782957553864, 0.1111346185207367, 0.03999999910593033]","[0.0, 0.0, -0.23807887186492363]","[0.026750000193715096, 0.05299999937415123, 0.03999999910593033]","[0.0, 0.0, -0.6310879718519756]","[0.06923169642686844, 0.11113179475069046, 0.03999999910593033]","[0.0, -0.0, 0.2376151439176698]",0.6073010028525442,-5.692908589800243,"(0.0, 0.0, 0.0, 0.0, 0.0, 0.0)",-6.970029188620435,-0.868756983831492,0.08239916352133925,"(0.0, 0.0, 0.0, 0.0, 0.0, 0.0)",-0.4110687045203754,-0.6117280690932336,4.646378695169427,"(0.0, 0.0, 0.0, 0.0, 0.0, 0.0)",6.63722350158353,0.8683562496935296,-0.08325233958591138,"(0.0, 0.0, 0.0, 0.0, 0.0, 0.0)",0.9711507533803067,False,,,,,True,"(0.04054627108315854, 0.179595033909982, 0.023999959438538113)","(-0.9999999992078928, -2.3394376763778626e-07, -3.980150266267419e-05)",-6.660727030056632e-06,5.483947105729632
32,Move,,,"(0.003581798779507854, 0.15888081127638445, 0.0479516006086598)","(0.0007129250223673224, -0.00208967314794087, 0.0775559872120303)","[-0.003782153410699732, -0.0006367959707016535, 8.25244633116326e-05]","[-0.026750000193715096, 0.05299999937415123, 0.03999999910593033]","[0.0, -0.0, 0.5859526299274878]","[-0.06656552106142044, 0.11298936605453491, 0.03999999910593033]","[0.0, 0.0, -0.2824962348735626]","[0.026750000193715096, 0.05299999937415123, 0.03999999910593033]","[0.0, 0.0, -0.5943032042166643]","[0.06706507503986359, 0.11265479773283005, 0.03999999910593033]","[0.0, -0.0, 0.2737407621305699]",0.5651750435041389,-4.9866125127970315,"(0.0, 0.0, 0.0, 0.0, 0.0, 0.0)",0.1879296173067297,-0.8684796473023089,-0.007395640778216972,"(0.0, 0.0, 0.0, 0.0, 0.0, 0.0)",0.0052485587257143,-0.5763335013853139,4.3127362313992865,"(0.0, 0.0, 0.0, 0.0, 0.0, 0.0)",0.20027995465953127,0.8680752302284668,0.0074938524016774505,"(0.0, 0.0, 0.0, 0.0, 0.0, 0.0)",0.02249499703994292,False,,,,,True,"(0.0359258773488902, 0.1800326723866737, 0.023997902681873285)","(-0.9984706073090757, -0.05524536888912827, -0.002096558167493954)",0.00012594863753174636,0.0
33,Move,,,"(0.001122542829286716, 0.1593018964136896, 0.0479227662575371)","(0.004945114300985391, -0.0007111404472231802, 0.10411918620410092)","[-0.006241409360920869, -0.00021571083339649855, 5.3690112188933825e-05]","[-0.026750000193715096, 0.05299999937415123, 0.03999999910593033]","[0.0, -0.0, 0.5464752837415245]","[-0.06416688859462738, 0.11451403051614761, 0.03999999910593033]","[0.0, 0.0, -0.32203216719565797]","[0.026750000193715096, 0.05299999937415123, 0.03999999910593033]","[0.0, 0.0, -0.5601607664550203]","[0.06500521302223206, 0.113996222615242, 0.03999999910593033]","[0.0, -0.0, 0.3079426098360514]",0.5284581628806412,-4.324100182620625,"(0.0, 0.0, 0.0, 0.0, 0.0, 0.0)",-40.57665041993025,-0.8499710773008806,4.448713801084151,"(0.0, 0.0, 0.0, 0.0, 0.0, 0.0)",-20.450246702708142,-0.5432536493593767,4.057701472950861,"(0.0, 0.0, 0.0, 0.0, 0.0, 0.0)",40.51490371176407,0.8490881856801438,-4.5636359590366995,"(0.0, 0.0, 0.0, 0.0, 0.0, 0.0)",20.9314301799772,True,"(-0.029811151186175763, 0.18051363537611448, 0.05600153891941393)","(0.9949795852674637, 0.10006627287285103, 0.001538159394272495)",-0.0021929381795451827,324.8302845382825,True,"(0.031581245564939034, 0.18025917111664624, 0.023998461080646502)","(-0.9949795852674632, -0.10006627287285588, -0.0015381593942749786)",0.00032843032100871104,245.81822951935948
34,Move,"(0.0005, 0.0, 0.0007)","(0.0, 0.025778513051956248, 0.0)","(0.0006926404304277583, 0.16027328251535475, 0.047945424452925677)","(0.00867326315384313, 0.00019009872774808684, 0.09730303613510238)","[-0.006671311759779828, 0.0007556752682686407, 7.634830757750899e-05]","[-0.026750000193715096, 0.05299999937415123, 0.03999999910593033]","[0.0, -0.0, 0.5122910766505747]","[-0.062042638659477234, 0.11575690656900406, 0.03999999910593033]","[0.0, 0.0, -0.3205952360126725]","[0.026750000193715096, 0.05299999937415123, 0.03999999910593033]","[0.0, 0.0, -0.5280779333918697]","[0.06302893161773682, 0.11519195139408112, 0.03999999910593033]","[0.0, -0.0, 0.3033470937789916]",0.5121552723936917,-0.03259989625319726,"(0.0, 0.0, 0.0, 0.0, 0.0, 0.0)",4.354752374158484,-0.8345949951189626,-0.41008705317240857,"(0.0, 0.0, 0.0, 0.0, 0.0, 0.0)",-0.4598237885615638,-0.5315938285898543,-0.8438000240876584,"(0.0, 0.0, 0.0, 0.0, 0.0, 0.0)",-6.027300009257654,0.8331914035747173,0.4239141894780385,"(0.0, 0.0, 0.0, 0.0, 0.0, 0.0)",0.018367273292440606,True,"(-0.027782116061409873, 0.18180915987972746, 0.05600071189642032)","(0.9945842410657634, 0.10393113923646441, 0.000711140387283058)",-0.005767574495913523,5.52668901127659,True,"(0.029910421102272162, 0.18160183909572525, 0.023999288099653494)","(-0.994584241065763, -0.10393113923646692, -0.0007111403872818769)",0.00023400145338051335,0.0
35,Move,"(0.00215, 0.0, 0.001575)","(0.0, 0.060240039132584286, 0.0)","(0.0013618360626162565, 0.16037855747868668, 0.048048109995264966)","(0.004688669136156514, 0.0014119813767000966, 0.09400619131793127)","[-0.006002116127591329, 0.0008609502316005713, 0.00017903384991679872]","[-0.026750000193715096, 0.05299999937415123, 0.03999999910593033]","[0.0, -0.0, 0.5120890254433278]","[-0.06202995404601097, 0.11576404422521591, 0.03999999910593033]","[0.0, 0.0, -0.32313730108157124]","[0.026750000193715096, 0.05299999937415123, 0.03999999910593033]","[0.0, 0.0, -0.5348114004115357]","[0.06344687193632126, 0.11494626104831696, 0.03999999910593033]","[0.0, -0.0, 0.29926040434478346]",0.5098804179939882,-0.5300577650993987,"(0.0, 0.0, 0.0, 0.0, 0.0, 0.0)",-5.12822773947301,-0.8331213722368881,0.5051816342987432,"(0.0, 0.0, 0.0, 0.0, 0.0, 0.0)",-2.2496267065848348,-0.5367608169084099,-0.4678524417396073,"(0.0, 0.0, 0.0, 0.0, 0.0, 0.0)",4.407230802541847,0.8322671613006349,-0.4331142430178078,"(0.0, 0.0, 0.0, 0.0, 0.0, 0.0)",1.8755607581525304,True,"(-0.027601630138028903, 0.1817289843665605, 0.05600071189642032)","(0.9945842410657634, 0.10393113923646441, 0.000711140387283058)",-0.004954644090452345,30.748085740266884,True,"(0.03060003596551461, 0.18149094055853332, 0.023999288099653494)","(-0.994584241065763, -0.10393113923646692, -0.0007111403872818769)",1.6382414924713725e-05,22.00942490825018
36,Move,"(0.0042429, 0.0, 0.0024286)","(0.0, 0.09476090640778015, 0.0)","(0.002017271024475111, 0.1605057535788599, 0.048133387394468305)","(0.0010926283072841447, 0.002637147228600478, 0.09081348096059065)","[-0.005346681165732475, 0.0009881463317737982, 0.0002643112491201374]","[-0.026750000193715096, 0.05299999937415123, 0.03999999910593033]","[0.0, -0.0, 0.5078879423542613]","[-0.06176596134901047, 0.11591169983148575, 0.03999999910593033]","[0.0, 0.0, -0.32340826345067863]","[0.026750000193715096, 0.05299999937415123, 0.03999999910593033]","[0.0, 0.0, -0.5385119952094275]","[0.06367585808038712, 0.1148100420832634, 0.03999999910593033]","[0.0, -0.0, 0.2921925845283448]",0.5055929755142078,-0.5507739939099977,"(0.0, 0.0, 0.0, 0.0, 0.0, 0.0)",-3.903534353260341,-0.8297491211436477,0.37128042326910715,"(0.0, 0.0, 0.0, 0.0, 0.0, 0.0)",-1.955654791079597,-0.5408563835497948,-0.5626507700028671,"(0.0, 0.0, 0.0, 0.0, 0.0, 0.0)",3.2109545180875543,0.8294410738507324,-0.3032363821416464,"(0.0, 0.0, 0.0, 0.0, 0.0, 0.0)",1.5603817552402846,True,"(-0.027319767928424776, 0.18186731469450806, 0.05600071189642032)","(0.9945842410657634, 0.10393113923646441, 0.000711140387283058)",-0.004532057532148124,26.306745730244515,True,"(0.03130016310406698, 0.18158520871853484, 0.023999288099653494)","(-0.994584241065763, -0.10393113923646692, -0.0007111403872818769)",7.915311633004195e-05,14.667682307417918
37,Move,"(0.00581, 0.0, 0.0034300000000000003)","(0.0, 0.09393536567158682, 0.0)","(0.002684278626825594, 0.16060879032181738, 0.04821625121897266)","(-0.001048472715507846, 0.00377928528647289, 0.08793858813188592)","[-0.004679673563381992, 0.0010911830747312723, 0.00034717507362449357]","[-0.026750000193715096, 0.05299999937415123, 0.03999999910593033]","[0.0, -0.0, 0.5035308080632123]","[-0.06149151921272278, 0.1160636693239212, 0.03999999910593033]","[0.0, 0.0, -0.324786324111283]","[0.026750000193715096, 0.05299999937415123, 0.03999999910593033]","[0.0, 0.0, -0.5429695969690125]","[0.06395100802183151, 0.11464482545852661, 0.03999999910593033]","[0.0, -0.0, 0.28528813508802725]",0.5010585460349215,-0.5933408017326713,"(0.0, 0.0, 0.0, 0.0, 0.0, 0.0)",-4.049713176902641,-0.8267783965790664,0.36928562266165754,"(0.0, 0.0, 0.0, 0.0, 0.0, 0.0)",-1.8839819359361376,-0.5454731620389134,-0.6008704707484673,"(0.0, 0.0, 0.0, 0.0, 0.0, 0.0)",2.9263617971627833,0.8270430194133727,-0.29152290686739507,"(0.0, 0.0, 0.0, 0.0, 0.0, 0.0)",1.4530160918185002,True,"(-0.026954469690700943, 0.18197175342278524, 0.05600071189642032)","(0.9945842410657634, 0.10393113923646441, 0.000711140387283058)",-0.0041334556030286265,27.065959773540385,True,"(0.032037125282609935, 0.18164193814665602, 0.023999288099653494)","(-0.994584241065763, -0.10393113923646692, -0.0007111403872818769)",0.00010199594884904434,9.094216727795876
38,Move,"(0.0073231, 0.0, 0.005438500000000001)","(0.0, 0.07385884328589604, 0.0)","(0.0034088841314850295, 0.1606919188731673, 0.04829157657199412)","(-0.0020683699740765265, 0.004955535311835086, 0.08547499136173939)","[-0.003955068058722556, 0.001174311626081198, 0.00042250042664595394]","[-0.026750000193715096, 0.05299999937415123, 0.03999999910593033]","[0.0, -0.0, 0.49882849057880024]","[-0.06119459494948387, 0.11622633785009384, 0.03999999910593033]","[0.0, 0.0, -0.32663134254946447]","[0.026750000193715096, 0.05299999937415123, 0.03999999910593033]","[0.0, 0.0, -0.5477230469573217]","[0.0642436221241951, 0.11446729302406311, 0.03999999910593033]","[0.0, -0.0, 0.27828925596998766]",0.4961558322808767,-0.6414437066402917,"(0.0, 0.0, 0.0, 0.0, 0.0, 0.0)",-3.5353127754930678,-0.8241341516516111,0.31817043056095096,"(0.0, 0.0, 0.0, 0.0, 0.0, 0.0)",-1.6614434307687795,-0.5504515244613579,-0.6548285169178821,"(0.0, 0.0, 0.0, 0.0, 0.0, 0.0)",2.456711487237247,0.8249890796093099,-0.24558088312290996,"(0.0, 0.0, 0.0, 0.0, 0.0, 0.0)",1.2132841826773315,True,"(-0.02653599781649077, 0.18207058505365292, 0.05600071189642032)","(0.9945842410657634, 0.10393113923646441, 0.000711140387283058)",-0.003798550531618854,22.742753197240162,True,"(0.03279941889785357, 0.18168612538931656, 0.023999288099653494)","(-0.994584241065763, -0.10393113923646692, -0.0007111403872818769)",0.00016522857477129036,2.40538580677335
39,Move,"(0.00962, 0.0, 0.007973300000000001)","(0.0, 0.06545159227903936, 0.0)","(0.004200505885551104, 0.16076659091482032, 0.04833501627230062)","(-0.002630168974099792, 0.0059486097071770215, 0.08335236736933622)","[-0.0031634463046564818, 0.0012489836677342103, 0.0004659401269524535]","[-0.026750000193715096, 0.05299999937415123, 0.03999999910593033]","[0.0, -0.0, 0.49375345289429606]","[-0.06087327376008034, 0.1164003312587738, 0.03999999910593033]","[0.0, 0.0, -0.3291231474364154]","[0.026750000193715096, 0.05299999937415123, 0.03999999910593033]","[0.0, 0.0, -0.5529101965659807]","[0.06456194818019867, 0.11427199095487595, 0.03999999910593033]","[0.0, -0.0, 0.2711245769269099]",0.49072176882317947,-0.727596971988038,"(0.0, 0.0, 0.0, 0.0, 0.0, 0.0)",-3.464301442565796,-0.8215052002123218,0.3291243719697817,"(0.0, 0.0, 0.0, 0.0, 0.0, 0.0)",-1.7102878429681492,-0.5559861612862552,-0.7382476873353225,"(0.0, 0.0, 0.0, 0.0, 0.0, 0.0)",2.2865453833949867,0.8230851843135621,-0.2278837574716153,"(0.0, 0.0, 0.0, 0.0, 0.0, 0.0)",1.108780196342142,True,"(-0.02605071444317939, 0.18215801355272332, 0.05600071189642032)","(0.9945842410657634, 0.10393113923646441, 0.000711140387283058)",-0.0034708035943282066,20.692719664981833,True,"(0.03360015247057724, 0.18171437859415113, 0.023999288099653494)","(-0.994584241065763, -0.10393113923646692, -0.0007111403872818769)",0.00019944505271658744,0.0
40,Move,"(0.01282, 0.0, 0.01202)","(0.0, 0.06374815092909289, 0.0)","(0.005078144585386577, 0.1608359069108961, 0.04835805843745933)","(-0.002424215506986186, 0.006813052836681467, 0.08091204742628107)","[-0.002285807604821009, 0.001318299663810002, 0.0004889822921111606]","[-0.026750000193715096, 0.05299999937415123, 0.03999999910593033]","[0.0, -0.0, 0.4879974920599629]","[-0.06050778180360794, 0.11659569293260574, 0.03999999910593033]","[0.0, 0.0, -0.3322144399191206]","[0.026750000193715096, 0.05299999937415123, 0.03999999910593033]","[0.0, 0.0, -0.5587575715167258]","[0.06491959095001221, 0.11404983699321747, 0.03999999910593033]","[0.0, -0.0, 0.26342748912324826]",0.48443671929615556,-0.8545897858818587,"(0.0, 0.0, 0.0, 0.0, 0.0, 0.0)",-3.337781404007534,-0.8189222526233575,0.30953290897236996,"(0.0, 0.0, 0.0, 0.0, 0.0, 0.0)",-1.6310432633434662,-0.5623243230339743,-0.856003676793993,"(0.0, 0.0, 0.0, 0.0, 0.0, 0.0)",2.092698593906385,0.8212885050069068,-0.21519016042898242,"(0.0, 0.0, 0.0, 0.0, 0.0, 0.0)",1.0382991565651605,True,"(-0.02548211215902757, 0.1822454106157867, 0.05600071189642032)","(0.9945842410657634, 0.10393113923646441, 0.000711140387283058)",-0.003156728987666009,18.89877568306569,True,"(0.03447781422977941, 0.18172854179331827, 0.023999288099653494)","(-0.994584241065763, -0.10393113923646692, -0.0007111403872818769)",0.00022906895324924904,0.0
41,Move,"(0.015666700000000002, 0.0, 0.0166)","(0.0, 0.043952626552973204, 0.0)","(0.006036588326460239, 0.16089888181753118, 0.04838595900473176)","(-0.001940205854988389, 0.00759450115552207, 0.07731862739174532)","[-0.0013273638637473469, 0.001381274570445068, 0.0005168828593835953]","[-0.026750000193715096, 0.05299999937415123, 0.03999999910593033]","[0.0, -0.0, 0.48123538021670215]","[-0.06007697060704231, 0.1168225109577179, 0.03999999910593033]","[0.0, 0.0, -0.3364812131159864]","[0.026750000193715096, 0.05299999937415123, 0.03999999910593033]","[0.0, 0.0, -0.5655366262236703]","[0.0653325617313385, 0.11378968507051468, 0.03999999910593033]","[0.0, -0.0, 0.25490895020769394]",0.47723673430056734,-0.9596781542292627,"(0.0, 0.0, 0.0, 0.0, 0.0, 0.0)",-3.0890752666684436,-0.8165186484430021,0.2875089085536711,"(0.0, 0.0, 0.0, 0.0, 0.0, 0.0)",-1.5133852434331716,-0.5695194807994564,-0.955889376780519,"(0.0, 0.0, 0.0, 0.0, 0.0, 0.0)",1.9382950133353258,0.8196108471818174,-0.2003225987004935,"(0.0, 0.0, 0.0, 0.0, 0.0, 0.0)",0.9656113109626849,True,"(-0.024771511134205892, 0.18232218618981094, 0.05600071189642032)","(0.9945842410657634, 0.10393113923646441, 0.000711140387283058)",-0.0028649315708788228,16.870241349210986,True,"(0.035468412439401825, 0.1817252524104429, 0.023999288099653494)","(-0.994584241065763, -0.10393113923646692, -0.0007111403872818769)",0.00025807225836791314,0.0
42,Move,"(0.0184067, 0.0, 0.0213067)","(0.0, 0.03182782423936859, 0.0)","(0.007070274915195636, 0.16093736933719768, 0.04841869794641204)","(-0.0027859634113441356, 0.006206153334039281, 0.07235076853513886)","[-0.00029367727501194985, 0.001419762090111576, 0.0005496218010638751]","[-0.026750000193715096, 0.05299999937415123, 0.03999999910593033]","[0.0, -0.0, 0.4736409248999731]","[-0.05959131568670273, 0.11707376688718796, 0.03999999910593033]","[0.0, 0.0, -0.3417601815406857]","[0.026750000193715096, 0.05299999937415123, 0.03999999910593033]","[0.0, 0.0, -0.573105984703509]","[0.06579159945249557, 0.11349590122699738, 0.03999999910593033]","[0.0, -0.0, 0.24572191093883933]",0.46920839664144476,-1.0637994802388049,"(0.0, 0.0, 0.0, 0.0, 0.0, 0.0)",-1.9497858208013148,-0.8147897034186222,0.146733341808051,"(0.0, 0.0, 0.0, 0.0, 0.0, 0.0)",-0.9077814420005118,-0.5774225078964311,-1.0359597000762428,"(0.0, 0.0, 0.0, 0.0, 0.0, 0.0)",1.2047343370143457,0.8182535021427417,-0.1378574496784873,"(0.0, 0.0, 0.0, 0.0, 0.0, 0.0)",0.704418935891619,True,"(-0.02393993592231799, 0.18237773730690854, 0.023992020104555214)","(0.9971248488590775, 0.0753549385931495, -0.007979286771649862)",-0.0028888261985010716,12.46214465490001,True,"(0.036552820956431156, 0.18170295853343485, 0.023999288099653494)","(-0.994584241065763, -0.10393113923646692, -0.0007111403872818769)",0.00028595997893873256,0.0
43,Move,"(0.0210667, 0.0, 0.0252467)","(0.0, 0.032768556706193545, 0.0)","(0.008155328196686627, 0.16095223471937484, 0.04845467171052444)","(-0.005307478503277596, 0.0026074218009170896, 0.06628541829956715)","[0.0007913760064790411, 0.0014346274722887298, 0.0005855955651762751]","[-0.026750000193715096, 0.05299999937415123, 0.03999999910593033]","[0.0, -0.0, 0.46522214079800434]","[-0.05905073881149292, 0.11734797805547714, 0.03999999910593033]","[0.0, 0.0, -0.3489750204409605]","[0.026750000193715096, 0.05299999937415123, 0.03999999910593033]","[0.0, 0.0, -0.5813102594876273]","[0.0662865936756134, 0.11317355930805206, 0.03999999910593033]","[0.0, -0.0, 0.23638397292806115]",0.46043476630052943,-1.148970634524233,"(0.0, 0.0, 0.0, 0.0, 0.0, 0.0)",-1.727999509027934,-0.8135793380777624,0.1482836009572188,"(0.0, 0.0, 0.0, 0.0, 0.0, 0.0)",-0.7854498219014943,-0.5859214993865987,-1.106710565464224,"(0.0, 0.0, 0.0, 0.0, 0.0, 0.0)",1.0315126598351598,0.817141684320182,-0.13259956202697243,"(0.0, 0.0, 0.0, 0.0, 0.0, 0.0)",0.6177067444167161,True,"(-0.02292921173577795, 0.18239450471192153, 0.023995449395391284)","(0.997562233638704, 0.0696339608357551, -0.004549891876133337)",-0.0026137716035947566,10.983166600715899,True,"(0.03768599939358331, 0.18165067300350118, 0.023999288099653494)","(-0.994584241065763, -0.10393113923646692, -0.0007111403872818769)",0.0001647190916741847,0.22917707803335843
44,Move,"(0.023379999999999998, 0.0, 0.0288867)","(0.0, 0.03021688533977783, 0.0)","(0.009305514350430553, 0.16083687968635282, 0.04853717571781768)","(-0.007503322241756478, 0.0014339616900481318, 0.060661219036967806)","[0.0019415621602229677, 0.0013192724392667166, 0.0006680995724695146]","[-0.026750000193715096, 0.05299999937415123, 0.03999999910593033]","[0.0, -0.0, 0.45613734418702906]","[-0.05846482142806053, 0.11763876676559448, 0.03999999910593033]","[0.0, 0.0, -0.35665220683873844]","[0.026750000193715096, 0.05299999937415123, 0.03999999910593033]","[0.0, 0.0, -0.590083581525467]","[0.06681299209594727, 0.11282438039779663, 0.03999999910593033]","[0.0, -0.0, 0.2264600387491626]",0.4510794444151149,-1.213892359146214,"(0.0, 0.0, 0.0, 0.0, 0.0, 0.0)",-2.15648455868415,-0.8119558972732425,0.2000698109035181,"(0.0, 0.0, 0.0, 0.0, 0.0, 0.0)",-1.064994606227904,-0.5949160149618385,-1.159786042973567,"(0.0, 0.0, 0.0, 0.0, 0.0, 0.0)",1.3643293415575737,0.815911557036592,-0.15169422167016824,"(0.0, 0.0, 0.0, 0.0, 0.0, 0.0)",0.7272955833788847,True,"(-0.02184510250922219, 0.1824079083428944, 0.023997995340367964)","(0.9979597379032981, 0.06381493436666266, -0.00200391510774106)",-0.0023814659435289574,14.044794259201819,True,"(0.03889335533312463, 0.18158194636873276, 0.023999288099653494)","(-0.994584241065763, -0.10393113923646692, -0.0007111403872818769)",8.884059652177132e-05,4.918385327994884
45,Move,"(0.02614, 0.0, 0.03164)","(0.0, 0.018491763424879928, 0.0)","(0.010500656906078926, 0.16066132059071328, 0.04859423670056663)","(-0.008796284434456047, 0.0005039875263459507, 0.05434274835799365)","[0.00313670471587134, 0.001143713343627173, 0.000725160555218464]","[-0.026750000193715096, 0.05299999937415123, 0.03999999910593033]","[0.0, -0.0, 0.4465289876736158]","[-0.05784229561686516, 0.1179405078291893, 0.03999999910593033]","[0.0, 0.0, -0.3646363907005901]","[0.026750000193715096, 0.05299999937415123, 0.03999999910593033]","[0.0, 0.0, -0.5992665569199143]","[0.06736066192388535, 0.11245396733283997, 0.03999999910593033]","[0.0, -0.0, 0.21606139209649866]",0.44105294946750556,-1.3142455960567296,"(0.0, 0.0, 0.0, 0.0, 0.0, 0.0)",-2.278112367598758,-0.8103034353750029,0.2068623921834596,"(0.0, 0.0, 0.0, 0.0, 0.0, 0.0)",-1.10669529499369,-0.604398064409424,-1.2315607979096184,"(0.0, 0.0, 0.0, 0.0, 0.0, 0.0)",1.3604165467383522,0.8146827647571406,-0.15484331201930007,"(0.0, 0.0, 0.0, 0.0, 0.0, 0.0)",0.7385779728017382,True,"(-0.02070673671570774, 0.1824173009600446, 0.023999014506629043)","(0.9983196304265964, 0.057939155973702715, -0.0009847385230958847)",-0.0022012907326406325,14.48625955086323,True,"(0.040157508077829945, 0.18149813530518677, 0.023999288099653494)","(-0.994584241065763, -0.10393113923646692, -0.0007111403872818769)",7.164912957127146e-05,6.069245877981941
46,Move,"(0.0280467, 0.0, 0.0340933)","(0.0, 0.013753194505715318, 0.0)","(0.01172719612862659, 0.16044602817324113, 0.04864364351590591)","(-0.009891814103983595, -0.0003095541474992109, 0.047403130223361366)","[0.004363243938419005, 0.0009284209261550269, 0.000774567370557741]","[-0.026750000193715096, 0.05299999937415123, 0.03999999910593033]","[0.0, -0.0, 0.4361259019517094]","[-0.05716504156589508, 0.1182604432106018, 0.03999999910593033]","[0.0, 0.0, -0.37337274616312277]","[0.026750000193715096, 0.05299999937415123, 0.03999999910593033]","[0.0, 0.0, -0.6090173148862355]","[0.06793844699859619, 0.11205516010522842, 0.03999999910593033]","[0.0, -0.0, 0.2050700188704364]",0.4304600125642224,-1.3598055506934192,"(0.0, 0.0, 0.0, 0.0, 0.0, 0.0)",-2.256680197294829,-0.808616322682484,0.2117540236162699,"(0.0, 0.0, 0.0, 0.0, 0.0, 0.0)",-1.1223394336997612,-0.6142249190629057,-1.2498170805589015,"(0.0, 0.0, 0.0, 0.0, 0.0, 0.0)",1.4865140470104121,0.8134205557333142,-0.16003431153977934,"(0.0, 0.0, 0.0, 0.0, 0.0, 0.0)",0.7727963380863279,True,"(-0.01946771489606896, 0.18241235463881222, 0.023999883698522434)","(0.998687435608571, 0.051219064872124014, -0.00011554740024744333)",-0.002050825120871753,14.808020979554566,True,"(0.041495808960285555, 0.18139415256215038, 0.023999288099653494)","(-0.994584241065763, -0.10393113923646692, -0.0007111403872818769)",6.677405778499762e-05,6.389397715885462
47,Move,"(0.03072, 0.0, 0.03592)","(0.0, 0.009707521299592462, 0.0)","(0.012974244732924599, 0.16026496803100887, 0.0484437708993179)","(0.0009686621457127273, -0.0006677156375276725, 0.038756637672348)","[0.005610292542717013, 0.0007473607839227625, 0.0005746947539697345]","[-0.026750000193715096, 0.05299999937415123, 0.03999999910593033]","[0.0, -0.0, 0.4253714805341429]","[-0.05646146088838577, 0.11858375370502472, 0.03999999910593033]","[0.0, 0.0, -0.3822497780723789]","[0.026750000193715096, 0.05299999937415123, 0.03999999910593033]","[0.0, 0.0, -0.6189271932525509]","[0.0685216411948204, 0.11164409667253494, 0.03999999910593033]","[0.0, -0.0, 0.19377816193687136]",0.4193150417780391,-1.4535451091387652,"(0.0, 0.0, 0.0, 0.0, 0.0, 0.0)",-2.7695798308234263,-0.8066016979437575,0.2447021580195216,"(0.0, 0.0, 0.0, 0.0, 0.0, 0.0)",-1.338506601739524,-0.6243889508836981,-1.3108272318481526,"(0.0, 0.0, 0.0, 0.0, 0.0, 0.0)",1.9117162347709444,0.81187072473463,-0.20030508753923487,"(0.0, 0.0, 0.0, 0.0, 0.0, 0.0)",0.95203177552369,True,"(-0.018196146535413744, 0.18239850542735306, 0.023999883698522434)","(0.998687435608571, 0.051219064872124014, -0.00011554740024744333)",-0.0019151977821818328,14.184754587815638,True,"(0.04286448298276997, 0.18013014047770798, 0.023999662870579565)","(-0.9990480153124981, -0.043622814624281504, -0.00033636946121703623)",-5.440651831065908e-05,17.95794015566754
48,Move,"(0.032926699999999996, 0.0, 0.03718)","(0.0, 0.01592612942444826, 0.0)","(0.014251559313915032, 0.16007792012623417, 0.0484817976552691)","(0.0004477478681194593, -0.0005695730183476093, 0.029669479966513267)","[0.006887607123707446, 0.0005603128791480672, 0.0006127215099209354]","[-0.026750000193715096, 0.05299999937415123, 0.03999999910593033]","[0.0, -0.0, 0.413868481005421]","[-0.055705100297927856, 0.1189211830496788, 0.03999999910593033]","[0.0, 0.0, -0.39172341408851674]","[0.026750000193715096, 0.05299999937415123, 0.03999999910593033]","[0.0, 0.0, -0.6293031172947955]","[0.06912786513566971, 0.11120752990245819, 0.03999999910593033]","[0.0, -0.0, 0.18185194637420032]",0.4075760780643866,-1.5101743642049206,"(0.0, 0.0, 0.0, 0.0, 0.0, 0.0)",-2.8090606659256623,-0.8044840250603006,0.26586614231288797,"(0.0, 0.0, 0.0, 0.0, 0.0, 0.0)",-1.3708873708225555,-0.6348846802526825,-1.3395772562172281,"(0.0, 0.0, 0.0, 0.0, 0.0, 0.0)",1.9669212357209995,0.8103247817276124,-0.19926811100241476,"(0.0, 0.0, 0.0, 0.0, 0.0, 0.0)",0.9571563010866494,True,"(-0.01683696290025337, 0.182370564787745, 0.023999883698522434)","(0.998687435608571, 0.051219064872124014, -0.00011554740024744333)",-0.001793727912271754,15.35781405421634,True,"(0.044289391106004494, 0.17999178197770666, 0.023999397393266574)","(-0.999400733982958, -0.03460940182645941, -0.0006018467742020454)",-6.614243066246065e-05,17.87803149775557
49,Move,"(0.0352267, 0.0, 0.0377733)","(0.0, 0.025350907385217634, 0.0)","(0.015556541597869351, 0.15997171305898297, 0.04850926092959537)","(-0.00018230393094884737, -0.0004636497713701904, 0.020099817895739065)","[0.008192589407661766, 0.0004541058118968655, 0.0006401847842472039]","[-0.026750000193715096, 0.05299999937415123, 0.03999999910593033]","[0.0, -0.0, 0.4019136053833076]","[-0.05491496995091438, 0.11926262080669403, 0.03999999910593033]","[0.0, 0.0, -0.4015668894120024]","[0.026750000193715096, 0.05299999937415123, 0.03999999910593033]","[0.0, 0.0, -0.6399084047419417]","[0.06974278390407562, 0.1107548326253891, 0.03999999910593033]","[0.0, -0.0, 0.1696640565248839]",0.395344052592218,-1.5766851794782768,"(0.0, 0.0, 0.0, 0.0, 0.0, 0.0)",-2.9755525472232174,-0.8023026450928866,0.2826645154059756,"(0.0, 0.0, 0.0, 0.0, 0.0, 0.0)",-1.4453403667167284,-0.6456065845185127,-1.3675494801904682,"(0.0, 0.0, 0.0, 0.0, 0.0, 0.0)",2.0942075034834864,0.8086924207396665,-0.2112197468035244,"(0.0, 0.0, 0.0, 0.0, 0.0, 0.0)",1.0157499263054046,True,"(-0.015424160102493693, 0.18232633446950736, 0.023999883698522434)","(0.998687435608571, 0.051219064872124014, -0.00011554740024744333)",-0.0016944529143512383,15.810348178225425,True,"(0.0457445355845599, 0.17983388228583674, 0.023999477665485873)","(-0.9996812326676068, -0.025242048493694897, -0.000521574554900459)",-7.851746062045777e-05,19.098953033151634
50,Move,"(0.03642, 0.0, 0.03824)","(0.0, 0.031885420104684405, 0.0)","(0.016863139200618556, 0.15990563361416704, 0.04854238872873296)","(-0.00022075528943258345, -0.0002473487170262361, 0.010447158937492323)","[0.00949918701041097, 0.00038802636708093474, 0.0006733125833847942]","[-0.026750000193715096, 0.05299999937415123, 0.03999999910593033]","[0.0, -0.0, 0.38943354835402644]","[-0.05408583953976631, 0.11960894614458084, 0.03999999910593033]","[0.0, 0.0, -0.4117799674957492]","[0.026750000193715096, 0.05299999937415123, 0.03999999910593033]","[0.0, 0.0, -0.6507346873702732]","[0.07036551833152771, 0.11028600484132767, 0.03999999910593033]","[0.0, -0.0, 0.15717424732139498]",0.38286451200834,-1.5765682560263776,"(0.0, 0.0, 0.0, 0.0, 0.0, 0.0)",-3.0296045539919216,-0.7999842247506666,0.29502699549832356,"(0.0, 0.0, 0.0, 0.0, 0.0, 0.0)",-1.5127566562503432,-0.6563341670974506,-1.3438806822651213,"(0.0, 0.0, 0.0, 0.0, 0.0, 0.0)",2.2458490157218614,0.8069984843031206,-0.21850366027844625,"(0.0, 0.0, 0.0, 0.0, 0.0, 0.0)",1.0606679485518846,True,"(-0.013953022540336125, 0.18226605851392852, 0.023999883698522434)","(0.998687435608571, 0.051219064872124014, -0.00011554740024744333)",-0.0016155937775160895,16.2863367863805,True,"(0.04723194055812131, 0.1796566294136882, 0.02399964773998628)","(-0.9998794842920131, -0.015520739017509961, -0.00035150005449663017)",-9.141723199990474e-05,19.731728435535285
51,Move,"(0.038386699999999996, 0.0, 0.0381933)","(0.0, 0.03943396911955988, 0.0)","(0.018173860282122967, 0.15975504481908873, 0.04845111822357932)","(0.005408222962966744, -0.00029488730933946265, 0.00042794302578352713)","[0.010809908091915382, 0.00023743757200261895, 0.0005820420782311556]","[-0.026750000193715096, 0.05299999937415123, 0.03999999910593033]","[0.0, -0.0, 0.3769518046538818]","[-0.053252339363098145, 0.11994494497776031, 0.03999999910593033]","[0.0, 0.0, -0.42195711616376524]","[0.026750000193715096, 0.05299999937415123, 0.03999999910593033]","[0.0, 0.0, -0.6613748555309252]","[0.07097256928682327, 0.10981869697570801, 0.03999999910593033]","[0.0, -0.0, 0.14477419058853622]",0.3701668404791434,-1.628398120585658,"(0.0, 0.0, 0.0, 0.0, 0.0, 0.0)",-3.249934117234086,-0.7975998044910918,0.3141890648307375,"(0.0, 0.0, 0.0, 0.0, 0.0, 0.0)",-1.5781460757027304,-0.6670545021384616,-1.3631339476655007,"(0.0, 0.0, 0.0, 0.0, 0.0, 0.0)",2.3098094140790875,0.8051948771809894,-0.22898222606312288,"(0.0, 0.0, 0.0, 0.0, 0.0, 0.0)",1.12853335857761,True,"(-0.0124839404137422, 0.1821903843735628, 0.023999883698522434)","(0.998687435608571, 0.051219064872124014, -0.00011554740024744333)",-0.0015365618383959485,17.281924540038663,True,"(0.048700957842867806, 0.1794681955887495, 0.023999601098694943)","(-0.9999833068779866, -0.005764325531658912, -0.0003981413458332507)",-0.00011289213081732484,20.52898905627924
52,Move,"(0.0396933, 0.0, 0.03812)","(0.0, 0.050687852136419326, 0.0)","(0.01955250449317985, 0.15963363624136723, 0.048484524436392555)","(0.005842229431082862, 0.0032675236899587486, -0.007860680455173526)","[0.012188552302972264, 0.0001160289942811199, 0.0006154482910443876]","[-0.026750000193715096, 0.05299999937415123, 0.03999999910593033]","[0.0, -0.0, 0.3640307780116376]","[-0.05238514766097069, 0.12028179317712784, 0.03999999910593033]","[0.0, 0.0, -0.4329795907229417]","[0.026750000193715096, 0.05299999937415123, 0.03999999910593033]","[0.0, 0.0, -0.672129744128243]","[0.07158107310533524, 0.10933981090784073, 0.03999999910593033]","[0.0, -0.0, 0.13247883382359302]",0.3572251486581338,-1.6333410937711914,"(0.0, 0.0, 0.0, 0.0, 0.0, 0.0)",-3.9259218274790726,-0.7952294492600741,0.4274025492916905,"(0.0, 0.0, 0.0, 0.0, 0.0, 0.0)",-2.0121196790640075,-0.6777414088145635,-1.3468246705704208,"(0.0, 0.0, 0.0, 0.0, 0.0, 0.0)",2.951031421096975,0.8033444460421965,-0.30336513972381635,"(0.0, 0.0, 0.0, 0.0, 0.0, 0.0)",1.4191308207428843,True,"(-0.010933120585347587, 0.18207733209265595, 0.056000295647264275)","(0.9999998649531264, 0.0004279429941294979, 0.00029488730505508853)",-0.0015331385782033377,23.685631910639362,True,"(0.05016748594475868, 0.17925657983003657, 0.023999704352735705)","(-0.9999998649531264, -0.0004279429941142174, -0.0002948873050718128)",-0.00014207324782922485,17.878290359394285
53,Move,"(0.0408133, 0.0, 0.038020000000000005)","(0.0, 0.0579257325444398, 0.0)","(0.020843644988563288, 0.15962307137064846, 0.048576020644693366)","(0.003167110194387297, 0.00437803775929904, -0.015959486221679687)","[0.013479692798355702, 0.00010546412356235435, 0.0007069444993451982]","[-0.026750000193715096, 0.05299999937415123, 0.03999999910593033]","[0.0, -0.0, 0.3511013370064354]","[-0.05151311680674553, 0.12060760706663132, 0.03999999910593033]","[0.0, 0.0, -0.4425102947058561]","[0.026750000193715096, 0.05299999937415123, 0.03999999910593033]","[0.0, 0.0, -0.6827928779974249]","[0.07217928022146225, 0.10885857045650482, 0.03999999910593033]","[0.0, -0.0, 0.11939367322791981]",0.3442953250532914,-1.6334442584150681,"(0.0, 0.0, 0.0, 0.0, 0.0, 0.0)",-4.198991683436088,-0.7918159068590065,0.43096790215124375,"(0.0, 0.0, 0.0, 0.0, 0.0, 0.0)",-2.1683106824349108,-0.688292853810167,-1.3199872574171092,"(0.0, 0.0, 0.0, 0.0, 0.0, 0.0)",3.2139779887976667,0.8008748894228656,-0.3148041585018167,"(0.0, 0.0, 0.0, 0.0, 0.0, 0.0)",1.5459396872082667,True,"(-0.009474025725885744, 0.18200527842987174, 0.056000295647264275)","(0.9999998649531264, 0.0004279429941294979, 0.00029488730505508853)",-0.0015016288803029621,24.73113149979368,True,"(0.05168237160833092, 0.17904954684543758, 0.023999704352735705)","(-0.9999998649531264, -0.0004279429941142174, -0.0002948873050718128)",-5.5256825511094575e-05,19.10589402881226
54,Move,"(0.0418467, 0.0, 0.037966700000000006)","(0.0, 0.0657221183130985, 0.0)","(0.022118186843021876, 0.15961458305517037, 0.048649108803940855)","(0.0008936611745697297, 0.005234350180260543, -0.024342340741810412)","[0.01475423465281429, 9.697580808426531e-05, 0.0007800326585926873]","[-0.026750000193715096, 0.05299999937415123, 0.03999999910593033]","[0.0, -0.0, 0.3381708356503443]","[-0.05063686892390251, 0.12092214077711105, 0.03999999910593033]","[0.0, 0.0, -0.45202474512055096]","[0.026750000193715096, 0.05299999937415123, 0.03999999910593033]","[0.0, 0.0, -0.6932433622286371]","[0.07276053726673126, 0.10838077962398529, 0.03999999910593033]","[0.0, -0.0, 0.10643845241285774]",0.33137028385607004,-1.6321280007394323,"(0.0, 0.0, 0.0, 0.0, 0.0, 0.0)",-4.213039808460005,-0.7884203532655204,0.4260471448774591,"(0.0, 0.0, 0.0, 0.0, 0.0, 0.0)",-2.158108717385646,-0.6986393604469036,-1.2950501950045599,"(0.0, 0.0, 0.0, 0.0, 0.0, 0.0)",3.260406917163065,0.7983644810161175,-0.3161522156629548,"(0.0, 0.0, 0.0, 0.0, 0.0, 0.0)",1.5527363630029942,True,"(-0.00801552341904311, 0.1819170651722724, 0.056000295647264275)","(0.9999998649531264, 0.0004279429941294979, 0.00029488730505508853)",-0.0014820812517004221,24.643639720272876,True,"(0.05317465825828283, 0.17883139460651265, 0.023999704352735705)","(-0.9999998649531264, -0.0004279429941142174, -0.0002948873050718128)",2.6191477984314713e-05,16.872596553029055
55,Move,"(0.0435333, 0.0, 0.0377467)","(0.0, 0.07810173869749425, 0.0)","(0.02338282804370711, 0.15958797275557532, 0.04871551413783993)","(-0.00028215215524109166, 0.005989064531267771, -0.033239428126934194)","[0.016018875853499523, 7.036550848921186e-05, 0.0008464379924917609]","[-0.026750000193715096, 0.05299999937415123, 0.03999999910593033]","[0.0, -0.0, 0.32524916907356594]","[-0.04975723475217819, 0.12122511863708496, 0.03999999910593033]","[0.0, 0.0, -0.4616044891514302]","[0.026750000193715096, 0.05299999937415123, 0.03999999910593033]","[0.0, 0.0, -0.7034979890513077]","[0.07332602143287659, 0.1079060509800911, 0.03999999910593033]","[0.0, -0.0, 0.09373700015592303]",0.3182979322407653,-1.6682994846158365,"(0.0, 0.0, 0.0, 0.0, 0.0, 0.0)",-4.666215610628212,-0.7849460552883545,0.4578228076028165,"(0.0, 0.0, 0.0, 0.0, 0.0, 0.0)",-2.329471134560894,-0.7089065226116517,-1.298044701921179,"(0.0, 0.0, 0.0, 0.0, 0.0, 0.0)",3.3289371763811753,0.7958646868697066,-0.32887543040477496,"(0.0, 0.0, 0.0, 0.0, 0.0, 0.0)",1.6145714594093727,True,"(-0.006553537683339834, 0.1818089498379383, 0.056000295647264275)","(0.9999998649531264, 0.0004279429941294979, 0.00029488730505508853)",-0.001468919218666468,26.331698798908644,True,"(0.05463652344631828, 0.1785997474070764, 0.023999704352735705)","(-0.9999998649531264, -0.0004279429941142174, -0.0002948873050718128)",7.472940898034987e-05,13.276963366301016
56,Move,"(0.04482, 0.0, 0.037340000000000005)","(0.0, 0.08883551359725937, 0.0)","(0.024684225144016893, 0.15945271641745157, 0.04883135453730918)","(-0.004115126683838392, 0.006247127553721229, -0.04073372298717288)","[0.017320272953809307, -6.489082963453963e-05, 0.0009622783919610092]","[-0.026750000193715096, 0.05299999937415123, 0.03999999910593033]","[0.0, -0.0, 0.31204217905423626]","[-0.04885420203208923, 0.12152302265167236, 0.03999999910593033]","[0.0, 0.0, -0.4711648198739799]","[0.026750000193715096, 0.05299999937415123, 0.03999999910593033]","[0.0, 0.0, -0.7137745273537072]","[0.07388779520988464, 0.10742451995611191, 0.03999999910593033]","[0.0, -0.0, 0.08087575622941999]",0.30501275124312316,-1.6870590928409763,"(0.0, 0.0, 0.0, 0.0, 0.0, 0.0)",-3.98648133232356,-0.7815562890600115,0.3961478561923295,"(0.0, 0.0, 0.0, 0.0, 0.0, 0.0)",-2.080945207199706,-0.7190907671762231,-1.2758902686715217,"(0.0, 0.0, 0.0, 0.0, 0.0, 0.0)",2.960898890785689,0.7934376368452659,-0.2910426297310769,"(0.0, 0.0, 0.0, 0.0, 0.0, 0.0)",1.44776979323169,True,"(-0.0050730743942830475, 0.18169696445673617, 0.023993550607254176)","(0.9992806013935766, -0.03737238035869883, -0.006448632786607597)",-0.0017309805188694132,26.733429480549976,True,"(0.05610902852090302, 0.17835273239574118, 0.023999704352735705)","(-0.9999998649531264, -0.0004279429941142174, -0.0002948873050718128)",0.00014044790502252326,11.884781980683247
57,Move,"(0.045573300000000004, 0.0, 0.03694)","(0.0, 0.09933541437725725, 0.0)","(0.025995448822550803, 0.1592685310392155, 0.048986080212938654)","(-0.011079966340440346, 0.0059238132521800295, -0.04667600033895537)","[0.018631496632343217, -0.0002490762078705966, 0.0011170040675904866]","[-0.026750000193715096, 0.05299999937415123, 0.03999999910593033]","[0.0, -0.0, 0.29868703831528676]","[-0.04793712496757507, 0.12181210517883301, 0.03999999910593033]","[0.0, 0.0, -0.48136829261199854]","[0.026750000193715096, 0.05299999937415123, 0.03999999910593033]","[0.0, 0.0, -0.7238753606491904]","[0.07443510740995407, 0.10694562643766403, 0.03999999910593033]","[0.0, -0.0, 0.06845998989358827]",0.29173984272804004,-1.667324012126018,"(0.0, 0.0, 0.0, 0.0, 0.0, 0.0)",-4.134396180554306,-0.7782694963547082,0.4286008348312319,"(0.0, 0.0, 0.0, 0.0, 0.0, 0.0)",-2.1659985965954456,-0.7289974297745582,-1.2293055465548488,"(0.0, 0.0, 0.0, 0.0, 0.0, 0.0)",3.165807456353742,0.7910372880878953,-0.3115263873002143,"(0.0, 0.0, 0.0, 0.0, 0.0, 0.0)",1.532689283159515,True,"(-0.00354410909615456, 0.18154027338530013, 0.023993900325812754)","(0.9990350553964378, -0.04349438278991604, -0.006098914228029191)",-0.0017922260693191306,28.27802045709708,True,"(0.05753831959885085, 0.17808910091093438, 0.023999704352735705)","(-0.9999998649531264, -0.0004279429941142174, -0.0002948873050718128)",0.00012816697994188182,13.909401231349568
58,Move,"(0.047200000000000006, 0.0, 0.0366)","(0.0, 0.1085612248032993, 0.0)","(0.027290027223933394, 0.1590696129825897, 0.049130016257238764)","(-0.01756844532288852, 0.005678071704770419, -0.052505930963494006)","[0.01992607503372581, -0.0004479942644964041, 0.001260940111890596]","[-0.026750000193715096, 0.05299999937415123, 0.03999999910593033]","[0.0, -0.0, 0.2854881219966615]","[-0.04702705889940262, 0.12208575010299683, 0.03999999910593033]","[0.0, 0.0, -0.49116771918702723]","[0.026750000193715096, 0.05299999937415123, 0.03999999910593033]","[0.0, 0.0, -0.7336074146154055]","[0.07495784759521484, 0.10647899657487869, 0.03999999910593033]","[0.0, -0.0, 0.05625292320807697]",0.2783976547096116,-1.7017098217761673,"(0.0, 0.0, 0.0, 0.0, 0.0, 0.0)",-4.551384733353636,-0.7747186257058115,0.4649281307769047,"(0.0, 0.0, 0.0, 0.0, 0.0, 0.0)",-2.3506675329413214,-0.7386913734682449,-1.2201427152378372,"(0.0, 0.0, 0.0, 0.0, 0.0, 0.0)",3.3941605839796702,0.7884497902978337,-0.33853991422164864,"(0.0, 0.0, 0.0, 0.0, 0.0, 0.0)",1.6615311888636521,True,"(-0.002050678639362001, 0.18138002022224042, 0.023994187645950363)","(0.9987673894750839, -0.049294290696329734, -0.005811594090418768)",-0.0018623951915649195,30.73190573941503,True,"(0.058930748784289236, 0.1778234307424315, 0.023999704352735705)","(-0.9999998649531264, -0.0004279429941142174, -0.0002948873050718128)",0.0001246389462544008,16.05733733044835
59,Move,"(0.04844, 0.0, 0.0362467)","(0.0, 0.11827398209064774, 0.0)","(0.028576991350028263, 0.158863701259904, 0.04927083010028174)","(-0.023976977191894348, 0.0055124600048956805, -0.05821099606911837)","[0.021213039159820677, -0.0006539059871820962, 0.0014017539549335753]","[-0.026750000193715096, 0.05299999937415123, 0.03999999910593033]","[0.0, -0.0, 0.27201697677170134]","[-0.046094585210084915, 0.12235262989997864, 0.03999999910593033]","[0.0, 0.0, -0.5009550033782282]","[0.026750000193715096, 0.05299999937415123, 0.03999999910593033]","[0.0, 0.0, -0.743266786239053]","[0.0754721611738205, 0.10601085424423218, 0.03999999910593033]","[0.0, -0.0, 0.043903838015657705]",0.26490113671611387,-1.7078023331169863,"(0.0, 0.0, 0.0, 0.0, 0.0, 0.0)",-4.819902047250902,-0.7709048535892564,0.4961098972626862,"(0.0, 0.0, 0.0, 0.0, 0.0, 0.0)",-2.502417347177248,-0.7482216699249659,-1.1891785061467728,"(0.0, 0.0, 0.0, 0.0, 0.0, 0.0)",3.688275935640148,0.7856537350403527,-0.36404711877489254,"(0.0, 0.0, 0.0, 0.0, 0.0, 0.0)",1.7946157719432745,True,"(-0.0005398095062909836, 0.18120783006133703, 0.023994395432499933)","(0.9984647904227517, -0.05510589466740667, -0.005603807540852051)",-0.0019508579117598244,32.93060963444779,True,"(0.06032730067389143, 0.17754776351213664, 0.023999704352735705)","(-0.9999998649531264, -0.0004279429941142174, -0.0002948873050718128)",0.00012857235857273867,17.480833202594926
60,Move,"(0.049266700000000004, 0.0, 0.0358)","(0.0, 0.12598659205521068, 0.0)","(0.029829487473617213, 0.15874881417478992, 0.049560458579994485)","(-0.03781224545126078, 0.004601818351927958, -0.06594575632360218)","[0.022465535283409627, -0.0007687930722961867, 0.0016913824346463172]","[-0.026750000193715096, 0.05299999937415123, 0.03999999910593033]","[0.0, -0.0, 0.2584913393882173]","[-0.04515480622649193, 0.12260792404413223, 0.03999999910593033]","[0.0, 0.0, -0.510987798577947]","[0.026750000193715096, 0.05299999937415123, 0.03999999910593033]","[0.0, 0.0, -0.7526686444997334]","[0.07596839964389801, 0.10555044561624527, 0.03999999910593033]","[0.0, -0.0, 0.03150053188782803]",0.25143355275824647,-1.6938684162198892,"(0.0, 0.0, 0.0, 0.0, 0.0, 0.0)",-4.496560507544259,-0.767736083456481,0.41833854436768547,"(0.0, 0.0, 0.0, 0.0, 0.0, 0.0)",-2.1550743859990904,-0.757419988940565,-1.1403355956459755,"(0.0, 0.0, 0.0, 0.0, 0.0, 0.0)",3.7529502137051844,0.7824457201724097,-0.4136166632454845,"(0.0, 0.0, 0.0, 0.0, 0.0, 0.0)",2.014352193393471,True,"(0.0009883696377698328, 0.1810065200798327, 0.0239948877788428)","(0.9980798501788455, -0.06172912653707319, -0.005111516794817853)",-0.0020564817072039167,32.10554445080112,True,"(0.06170826036826195, 0.17722540553962612, 0.05600511227675404)","(-0.9980798501788457, 0.061729126537064895, 0.005111516794819735)",-0.00014443494354253269,31.0691355767203
61,Move,"(0.0500733, 0.0, 0.035466700000000004)","(0.0, 0.1313534795050933, 0.0)","(0.031046158710347927, 0.15864526824807268, 0.04985433181587802)","(-0.05210184194177706, 0.0036980464949713035, -0.07369911620023203)","[0.02368220652014034, -0.0008723389990134278, 0.001985255670529852]","[-0.026750000193715096, 0.05299999937415123, 0.03999999910593033]","[0.0, -0.0, 0.24508184944313782]","[-0.04421977326273918, 0.12284845858812332, 0.03999999910593033]","[0.0, 0.0, -0.5210865891693113]","[0.026750000193715096, 0.05299999937415123, 0.03999999910593033]","[0.0, 0.0, -0.7616961003066943]","[0.07644078880548477, 0.1051039919257164, 0.03999999910593033]","[0.0, -0.0, 0.019193416850874622]",0.2380775028179176,-1.6810422194812282,"(0.0, 0.0, 0.0, 0.0, 0.0, 0.0)",-4.788072384453331,-0.7643252544552027,0.44236247242608395,"(0.0, 0.0, 0.0, 0.0, 0.0, 0.0)",-2.286706592339118,-0.7662617254402356,-1.0957565130201976,"(0.0, 0.0, 0.0, 0.0, 0.0, 0.0)",4.010603333132046,0.7790497902067186,-0.4415280714421658,"(0.0, 0.0, 0.0, 0.0, 0.0, 0.0)",2.159584935610996,True,"(0.0025109556246754455, 0.18078031432211375, 0.023995830889545336)","(0.9975672795674428, -0.0695855391515236, -0.0041683902652170784)",-0.002173505717781585,34.32954555321899,True,"(0.06306349360317462, 0.17694459863450174, 0.05600416915022443)","(-0.9975672795674426, 0.0695855391515248, 0.004168390265214251)",-0.00016177679324839896,33.15581267720325
62,Move,"(0.050966700000000004, 0.0, 0.035213299999999996)","(0.0, 0.13330301227957092, 0.0)","(0.03224226086941645, 0.1585442462408559, 0.05013599745439761)","(-0.06620897218180212, 0.0029004784547528055, -0.08114754546134355)","[0.024878308679208865, -0.0009733610062302167, 0.002266921309049444]","[-0.026750000193715096, 0.05299999937415123, 0.03999999910593033]","[0.0, -0.0, 0.23177398669125354]","[-0.04328871890902519, 0.12307475507259369, 0.03999999910593033]","[0.0, 0.0, -0.5308912041525408]","[0.026750000193715096, 0.05299999937415123, 0.03999999910593033]","[0.0, 0.0, -0.7703708179970564]","[0.07689089328050613, 0.10467098653316498, 0.03999999910593033]","[0.0, -0.0, 0.007018925043620924]",0.22479291790121217,-1.675453092536189,"(0.0, 0.0, 0.0, 0.0, 0.0, 0.0)",-5.08853854404223,-0.7607118800857903,0.4687855053922472,"(0.0, 0.0, 0.0, 0.0, 0.0, 0.0)",-2.422849644250503,-0.7747807936224843,-1.0584192904977427,"(0.0, 0.0, 0.0, 0.0, 0.0, 0.0)",4.262826796904511,0.7754341287735346,-0.4693223885455261,"(0.0, 0.0, 0.0, 0.0, 0.0, 0.0)",2.3008231749663466,True,"(0.004007928493205241, 0.1805478537699063, 0.02399668394893494)","(0.997012898746964, -0.07716403564106553, -0.003315318349769819)",-0.002301573179506026,36.5371966648901,True,"(0.06438882766580205, 0.17666456679745304, 0.05600331607830899)","(-0.997012898746964, 0.07716403564106664, 0.003315318349767679)",-0.00017835377962958863,35.277397909635866
63,Move,"(0.0511333, 0.0, 0.0349867)","(0.0, 0.1352979236146004, 0.0)","(0.03340650650079961, 0.15844662947917199, 0.050398360512070424)","(-0.07990213068368388, 0.0022305604833921457, -0.08818861171554196)","[0.026042554310592027, -0.001070977767914122, 0.0025292843667222564]","[-0.026750000193715096, 0.05299999937415123, 0.03999999910593033]","[0.0, -0.0, 0.2185104389167354]","[-0.042357850819826126, 0.12328794598579407, 0.03999999910593033]","[0.0, 0.0, -0.5404407625246294]","[0.026750000193715096, 0.05299999937415123, 0.03999999910593033]","[0.0, 0.0, -0.7787498675223826]","[0.0773220881819725, 0.10424903780221939, 0.03999999910593033]","[0.0, 0.0, -0.005075861085685404]",0.2117378015966098,-1.625429255598204,"(0.0, 0.0, 0.0, 0.0, 0.0, 0.0)",-5.247314966909752,-0.7569122685436647,0.48932012973663136,"(0.0, 0.0, 0.0, 0.0, 0.0, 0.0)",-2.518115536017842,-0.7828762276020916,-0.9903336193542727,"(0.0, 0.0, 0.0, 0.0, 0.0, 0.0)",4.518119160888069,0.7716366804520263,-0.488951071274369,"(0.0, 0.0, 0.0, 0.0, 0.0, 0.0)",2.421064713548952,True,"(0.005485664060865446, 0.18030900349559797, 0.023997426294247236)","(0.9964243448115587, -0.08445060640874283, -0.002572964059462845)",-0.002439349940334458,38.24051058246062,True,"(0.06569124258161192, 0.17638379534666693, 0.05600257372401868)","(-0.9964243448115581, 0.0844506064087514, 0.002572964059461226)",-0.0001952080054152801,36.994546992040824
64,Move,"(0.0511333, 0.0, 0.0348133)","(0.0, 0.13634861182430102, 0.0)","(0.03451933529832007, 0.15835841049752408, 0.05064903983295427)","(-0.09342794248164998, 0.0016026898385068213, -0.094975406767371)","[0.027155383108112482, -0.0011591967495620248, 0.0027799636876061004]","[-0.026750000193715096, 0.05299999937415123, 0.03999999910593033]","[0.0, -0.0, 0.20564278784677628]","[-0.04145214334130287, 0.12348295748233795, 0.03999999910593033]","[0.0, 0.0, -0.5494476716689114]","[0.026750000193715096, 0.05299999937415123, 0.03999999910593033]","[0.0, 0.0, -0.7865893148559443]","[0.07772229611873627, 0.10385100543498993, 0.03999999910593033]","[0.0, 0.0, -0.01679039044462393]",0.1990946773286598,-1.571548118087409,"(0.0, 0.0, 0.0, 0.0, 0.0, 0.0)",-5.394367564453377,-0.7529980368186993,0.5021792409465045,"(0.0, 0.0, 0.0, 0.0, 0.0, 0.0)",-2.5736434392593446,-0.790428478195897,-0.9213976316714158,"(0.0, 0.0, 0.0, 0.0, 0.0, 0.0)",4.702856161686029,0.7676786372917224,-0.5088701841373151,"(0.0, 0.0, 0.0, 0.0, 0.0, 0.0)",2.5304434069537165,True,"(0.006903205535894498, 0.18007287271947173, 0.023998064304687948)","(0.9958186502010957, -0.0913316586634425, -0.0019349515373640008)",-0.0025783472811051035,39.5612004321654,True,"(0.06693680206026291, 0.17611227730038892, 0.05600193571149659)","(-0.9958186502010958, 0.09133165866344142, 0.0019349515373647556)",-0.00021327604423020967,38.43437389989888
65,Move,"(0.0507467, 0.0, 0.0348933)","(0.0, 0.14034017982361202, 0.0)","(0.03557043175823465, 0.15828127113232476, 0.050893799235602936)","(-0.10671984195395012, 0.0008927238468380015, -0.10154861467001673)","[0.028206479568027062, -0.0012363361147613439, 0.003024723090254769]","[-0.026750000193715096, 0.05299999937415123, 0.03999999910593033]","[0.0, -0.0, 0.1932010193743227]","[-0.0405740961432457, 0.12366041541099548, 0.03999999910593033]","[0.0, 0.0, -0.5579410982279421]","[0.026750000193715096, 0.05299999937415123, 0.03999999910593033]","[0.0, 0.0, -0.7938827270294343]","[0.0780918151140213, 0.10347790271043777, 0.03999999910593033]","[0.0, 0.0, -0.028122209273026555]",0.18696695990700668,-1.496177010467134,"(0.0, 0.0, 0.0, 0.0, 0.0, 0.0)",-5.472287345975627,-0.7490282874068712,0.5073200506505416,"(0.0, 0.0, 0.0, 0.0, 0.0, 0.0)",-2.603955300976854,-0.7973697370898909,-0.8368912438415487,"(0.0, 0.0, 0.0, 0.0, 0.0, 0.0)",4.879646109065504,0.7635649064428734,-0.5269386048222832,"(0.0, 0.0, 0.0, 0.0, 0.0, 0.0)",2.627412077058557,True,"(0.008260323912353477, 0.179839374155118, 0.023998732921474662)","(0.9951849964666355, -0.09800622032187428, -0.0012663277312579913)",-0.0027164648233287798,40.58138570702684,True,"(0.06812537928821687, 0.17585214173282138, 0.056001267087690466)","(-0.9951849964666354, 0.0980062203218747, 0.001266327731248444)",-0.00023048256288730052,39.635290905873354
66,Move,"(0.0506867, 0.0, 0.03476)","(0.0, 0.14642614292531628, 0.0)","(0.036560844229982306, 0.15821765384062858, 0.051135221982094026)","(-0.11990297457378436, 9.200433501236203e-05, -0.1079834057039004)","[0.02919689203977472, -0.0012999534064575269, 0.003266145836745858]","[-0.026750000193715096, 0.05299999937415123, 0.03999999910593033]","[0.0, -0.0, 0.1813559178134156]","[-0.03973616659641266, 0.12381920218467712, 0.03999999910593033]","[0.0, 0.0, -0.5657955203149592]","[0.026750000193715096, 0.05299999937415123, 0.03999999910593033]","[0.0, 0.0, -0.800507118434299]","[0.07842507213354111, 0.10313668847084045, 0.03999999910593033]","[0.0, 0.0, -0.03892712629389966]",0.17533331078109884,-1.4454269532408055,"(0.0, 0.0, 0.0, 0.0, 0.0, 0.0)",-5.641060212768926,-0.745006829219227,0.5147039972078565,"(0.0, 0.0, 0.0, 0.0, 0.0, 0.0)",-2.651093845950446,-0.8037130697244902,-0.7694337204219573,"(0.0, 0.0, 0.0, 0.0, 0.0, 0.0)",5.033664890116495,0.7592917934801745,-0.5491620321550256,"(0.0, 0.0, 0.0, 0.0, 0.0, 0.0)",2.7323745452033075,True,"(0.009538143543970229, 0.17961425197877168, 0.023999481750214508)","(0.99453166559282, -0.10443418182898154, -0.0005174928813579145)",-0.002849983380212519,41.81872665924598,True,"(0.06924073725070962, 0.17561006842813595, 0.05600051825284058)","(-0.99453166559282, 0.10443418182898302, 0.0005174928813579978)",-0.00024628352768354576,41.008768749705126
67,Move,"(0.0509133, 0.0, 0.0345)","(0.0, 0.1525539939290684, 0.0)","(0.037473418211260275, 0.15814385769280465, 0.051294923335399)","(-0.1278156253096759, 0.001007779730021112, -0.11190353009915352)","[0.03010946602105269, -0.0013737495542814615, 0.003425847190050832]","[-0.026750000193715096, 0.05299999937415123, 0.03999999910593033]","[0.0, -0.0, 0.16991254155267338]","[-0.0389249250292778, 0.12396316975355148, 0.03999999910593033]","[0.0, 0.0, -0.5731891215364346]","[0.026750000193715096, 0.05299999937415123, 0.03999999910593033]","[0.0, 0.0, -0.8065974610239708]","[0.07872945815324783, 0.10282103717327118, 0.03999999910593033]","[0.0, 0.0, -0.049373486367748784]",0.16411000430847686,-1.3926107965447032,"(0.0, 0.0, 0.0, 0.0, 0.0, 0.0)",-9.019905023342794,-0.7391320755635095,0.9527008517241022,"(0.0, 0.0, 0.0, 0.0, 0.0, 0.0)",-4.580700422119933,-0.8096333006698724,-0.7285997123565736,"(0.0, 0.0, 0.0, 0.0, 0.0, 0.0)",6.470842981028961,0.7545759336590434,-0.6355310273887121,"(0.0, 0.0, 0.0, 0.0, 0.0, 0.0)",3.1295206813595247,True,"(0.010760620921888724, 0.17939289716483992, 0.023999907235395645)","(0.994175450857841, -0.1077736723268308, -9.200433488230805e-05)",-0.002982839953651456,54.38405745368708,True,"(0.07030245552314054, 0.17538428502675407, 0.0560000927642941)","(-0.9941754508578409, 0.10777367232683072, 9.200433487995186e-05)",-0.00026123138620143553,45.62319451834199
68,Move,"(0.0508933, 0.0, 0.0344133)","(0.0, 0.15525052762339964, 0.0)","(0.038331166321531156, 0.15805550354666933, 0.05138080335019809)","(-0.13089402319693258, 0.0037175956658570715, -0.11338102210344721)","[0.03096721413132357, -0.0014621037004167725, 0.003511727204849921]","[-0.026750000193715096, 0.05299999937415123, 0.03999999910593033]","[0.0, -0.0, 0.1588874747268513]","[-0.038141824305057526, 0.12409308552742004, 0.03999999910593033]","[0.0, 0.0, -0.5766744111674789]","[0.026750000193715096, 0.05299999937415123, 0.03999999910593033]","[0.0, 0.0, -0.812364728624843]","[0.07901592552661896, 0.1025204285979271, 0.03999999910593033]","[0.0, 0.0, -0.06017037235468805]",0.15326862484112438,-1.348527232531942,"(0.0, 0.0, 0.0, 0.0, 0.0, 0.0)",-9.1697497952312,-0.7317195415148731,0.9221501066592386,"(0.0, 0.0, 0.0, 0.0, 0.0, 0.0)",-4.687414069920181,-0.8151770654725944,-0.674964105951292,"(0.0, 0.0, 0.0, 0.0, 0.0, 0.0)",6.534410687683621,0.7495506489073903,-0.6344861681592737,"(0.0, 0.0, 0.0, 0.0, 0.0, 0.0)",3.154912175406162,True,"(0.011736868998543135, 0.17935167339943522, 0.023997631623749047)","(0.9936640014776911, -0.11236657191617506, -0.002367632393380721)",-0.0031317590001851887,55.463432526229944,True,"(0.07137154356020696, 0.17515938354958824, 0.05600236839235259)","(-0.9936640014776913, 0.11236657191617379, 0.002367632393375718)",-9.011405234927675e-05,46.14672276027894
69,Move,"(0.05108, 0.0, 0.03422)","(0.0, 0.15809017831639438, 0.0)","(0.039301557141149836, 0.15793116863361842, 0.05150524350110835)","(-0.13645573299468344, 0.004860158021143871, -0.11613707731417024)","[0.03193760495094225, -0.0015864386134676889, 0.003636167355760181]","[-0.026750000193715096, 0.05299999937415123, 0.03999999910593033]","[0.0, -0.0, 0.14818739112354892]","[-0.037380486726760864, 0.1242109015583992, 0.03999999910593033]","[0.0, 0.0, -0.5804478666928579]","[0.026750000193715096, 0.05299999937415123, 0.03999999910593033]","[0.0, 0.0, -0.8176920644886325]","[0.07927899062633514, 0.10224130004644394, 0.03999999910593033]","[0.0, 0.0, -0.07020810766937753]",0.14265367101980808,-1.3280934623557379,"(0.0, 0.0, 0.0, 0.0, 0.0, 0.0)",-7.247490491305143,-0.7258495637971291,0.668565140063914,"(0.0, 0.0, 0.0, 0.0, 0.0, 0.0)",-3.5448031313661117,-0.8203434489982697,-0.6363547265686724,"(0.0, 0.0, 0.0, 0.0, 0.0, 0.0)",6.1949141413353335,0.7447535765689495,-0.6552697220250047,"(0.0, 0.0, 0.0, 0.0, 0.0, 0.0)",3.2166751780220064,True,"(0.012706575217390208, 0.1792827160838214, 0.023994963521679052)","(0.9934354317487777, -0.11428334942864055, -0.005035770992711628)",-0.003250089690862556,40.94840886738954,True,"(0.07236316236603266, 0.1749452682678052, 0.056005036530951936)","(-0.9934354317487766, 0.11428334942864891, 0.005035770992715946)",-2.4440422904206855e-05,50.8898551590456
70,Move,"(0.05142, 0.0, 0.034)","(0.0, 0.16017235611402358, 0.0)","(0.04027000917651593, 0.15781408414060696, 0.051622454161033164)","(-0.14319564464987844, 0.00459443602485414, -0.11872963421185542)","[0.032906056986308344, -0.0017035231064791434, 0.0037533780156849966]","[-0.026750000193715096, 0.05299999937415123, 0.03999999910593033]","[0.0, -0.0, 0.13767545976080184]","[-0.036631349474191666, 0.12431871145963669, 0.03999999910593033]","[0.0, 0.0, -0.5856368598136165]","[0.026750000193715096, 0.05299999937415123, 0.03999999910593033]","[0.0, 0.0, -0.822730552022674]","[0.07952643185853958, 0.10197599977254868, 0.03999999910593033]","[0.0, 0.0, -0.08046237609033123]",0.13227770337481828,-1.295461439024612,"(0.0, 0.0, 0.0, 0.0, 0.0, 0.0)",-7.599232233436724,-0.7202608590952014,0.7323545655599163,"(0.0, 0.0, 0.0, 0.0, 0.0, 0.0)",-3.7187968111433207,-0.8252305594078259,-0.5999994592113946,"(0.0, 0.0, 0.0, 0.0, 0.0, 0.0)",6.552042529459262,0.7394518511315373,-0.6759221784806287,"(0.0, 0.0, 0.0, 0.0, 0.0, 0.0)",3.3872102345734794,True,"(0.013741075676881362, 0.17913213195432479, 0.023995288760266187)","(0.9930985276588079, -0.11718841792848964, -0.004710527075158269)",-0.003217257285891314,43.066502475610584,True,"(0.07335559034042566, 0.17473978966345172, 0.05600471128703439)","(-0.9930985276588087, 0.1171884179284827, 0.004710527075163109)",-8.97057737416678e-05,50.35701494309705
71,Move,"(0.05116, 0.0, 0.034153300000000004)","(0.0, 0.15913388520908703, 0.0)","(0.04117356654410824, 0.15770249526726615, 0.051718327876142445)","(-0.14875301206362612, 0.004423084087538883, -0.1206843945705933)","[0.033809614353900654, -0.0018151119798199555, 0.0038492517307942772]","[-0.026750000193715096, 0.05299999937415123, 0.03999999910593033]","[0.0, -0.0, 0.12742094885511973]","[-0.03589950501918793, 0.1244162917137146, 0.03999999910593033]","[0.0, 0.0, -0.5900762505084]","[0.026750000193715096, 0.05299999937415123, 0.03999999910593033]","[0.0, 0.0, -0.8274812595905204]","[0.07975850254297256, 0.10172472894191742, 0.03999999910593033]","[0.0, 0.0, -0.09058611773036566]",0.12230030669046212,-1.2289565308534272,"(0.0, 0.0, 0.0, 0.0, 0.0, 0.0)",-7.584347126252605,-0.714458596589396,0.7292585300573872,"(0.0, 0.0, 0.0, 0.0, 0.0, 0.0)",-3.733449368776451,-0.8297247411767411,-0.5384498756365316,"(0.0, 0.0, 0.0, 0.0, 0.0, 0.0)",6.604480151399085,0.7340779209718158,-0.676116602982443,"(0.0, 0.0, 0.0, 0.0, 0.0, 0.0)",3.398677212277792,True,"(0.014716024985109877, 0.17900773838844333, 0.02399549239725164)","(0.9928351952787535, -0.11940671248211096, -0.0045068869537537165)",-0.00321362027720646,43.264212906897086,True,"(0.07432363392801304, 0.1745394290449359, 0.05600450764691297)","(-0.9928351952787533, 0.1194067124821119, 0.004506886953753006)",-9.05627337251263e-05,50.06315120808634
72,Move,"(0.0510267, 0.0, 0.0342067)","(0.0, 0.16120733636045623, 0.0)","(0.04202842243525835, 0.1575938502496879, 0.051801175361891126)","(-0.15365131536694873, 0.004302088546978738, -0.12222112468460136)","[0.03466447024505077, -0.0019237569973982183, 0.003932099216542959]","[-0.026750000193715096, 0.05299999937415123, 0.03999999910593033]","[0.0, -0.0, 0.11769183742340275]","[-0.03520426154136658, 0.12450192868709564, 0.03999999910593033]","[0.0, 0.0, -0.59403701916906]","[0.026750000193715096, 0.05299999937415123, 0.03999999910593033]","[0.0, 0.0, -0.8317433121349243]","[0.07996568828821182, 0.10149835795164108, 0.03999999910593033]","[0.0, 0.0, -0.10021182203301353]",0.11279174776183551,-1.1760203707902934,"(0.0, 0.0, 0.0, 0.0, 0.0, 0.0)",-7.569394319727205,-0.7087066669851834,0.7253378412682757,"(0.0, 0.0, 0.0, 0.0, 0.0, 0.0)",-3.71088384723149,-0.833768977393218,-0.4861691549411722,"(0.0, 0.0, 0.0, 0.0, 0.0, 0.0)",6.564761630475003,0.7287207848793061,-0.6745619859052903,"(0.0, 0.0, 0.0, 0.0, 0.0, 0.0)",3.3898434001916304,True,"(0.015627369481321478, 0.17889467488951005, 0.02399563775447425)","(0.9926272764482738, -0.12112830853202469, -0.0043615276054582)",-0.00321228132023733,43.15820440043024,True,"(0.07523096516469839, 0.17435417191167601, 0.056004362287564675)","(-0.9926272764482743, 0.12112830853201961, 0.004361527605456201)",-8.718751181364205e-05,49.94038703111125
73,Move,"(0.0513133, 0.0, 0.034033299999999995)","(0.0, 0.16589180007280904, 0.0)","(0.04284835813027877, 0.1574868750934412, 0.05187495002274549)","(-0.15809403928948434, 0.004221311685273159, -0.12345494247830074)","[0.035484405940071184, -0.0020307321536449097, 0.0040058738773973215]","[-0.026750000193715096, 0.05299999937415123, 0.03999999910593033]","[0.0, -0.0, 0.10838177356358175]","[-0.03453822061419487, 0.12457753717899323, 0.03999999910593033]","[0.0, 0.0, -0.5976094765428491]","[0.026750000193715096, 0.05299999937415123, 0.03999999910593033]","[0.0, 0.0, -0.8355914267903556]","[0.08015192300081253, 0.10129322111606598, 0.03999999910593033]","[0.0, 0.0, -0.10941066169231711]",0.10359666762191039,-1.1484265020814395,"(0.0, 0.0, 0.0, 0.0, 0.0, 0.0)",-7.632985767776787,-0.7029626031377489,0.7268695699794102,"(0.0, 0.0, 0.0, 0.0, 0.0, 0.0)",-3.7200790172188483,-0.8374704682459316,-0.45096645186107703,"(0.0, 0.0, 0.0, 0.0, 0.0, 0.0)",6.567103884371557,0.7233513796607824,-0.679053396259282,"(0.0, 0.0, 0.0, 0.0, 0.0, 0.0)",3.4070421786474476,True,"(0.016487673833017295, 0.17879054791002802, 0.023995733700446286)","(0.99246254936414, -0.12247405004421322, -0.004265580312150369)",-0.0032112302996792877,43.35718082497706,True,"(0.07608659033753415, 0.17418172128389936, 0.05600426634027137)","(-0.9924625493641396, 0.12247405004421623, 0.004265580312151696)",-8.515058239165017e-05,50.194139310214034
74,Move,"(0.0514533, 0.0, 0.0339667)","(0.0, 0.16884489716718343, 0.0)","(0.043638783921376254, 0.15738132804753743, 0.051941866032225864)","(-0.16219236969587716, 0.0041769968021579135, -0.12444386575680892)","[0.03627483173116867, -0.002136279199548674, 0.0040727898868776966]","[-0.026750000193715096, 0.05299999937415123, 0.03999999910593033]","[0.0, -0.0, 0.0992901682674025]","[-0.03388715162873268, 0.12464538216590881, 0.03999999910593033]","[0.0, 0.0, -0.6009516456073797]","[0.026750000193715096, 0.05299999937415123, 0.03999999910593033]","[0.0, 0.0, -0.8391608705600023]","[0.0803239569067955, 0.10110229253768921, 0.03999999910593033]","[0.0, 0.0, -0.11836596643254368]",0.09465992189523152,-1.1112569495888307,"(0.0, 0.0, 0.0, 0.0, 0.0, 0.0)",-7.6093810180259265,-0.6972234460442411,0.7244047856381557,"(0.0, 0.0, 0.0, 0.0, 0.0, 0.0)",-3.704806637922153,-0.840878176478396,-0.4121519361689742,"(0.0, 0.0, 0.0, 0.0, 0.0, 0.0)",6.56562422617764,0.7179642582513756,-0.6793594041787879,"(0.0, 0.0, 0.0, 0.0, 0.0, 0.0)",3.4120728349346954,True,"(0.017319923916328396, 0.1786897537043258, 0.02399579841297105)","(0.9923242101381037, -0.12359213037480529, -0.0042008669588065)",-0.0032137638347804875,43.35228556599755,True,"(0.07691052244230455, 0.17401651765337178, 0.05600420162691803)","(-0.9923242101381041, 0.1235921303748022, 0.004200866958811098)",-8.393058714579446e-05,50.27002455557411
75,Move,"(0.0518133, 0.0, 0.0338133)","(0.0, 0.1683300250378451, 0.0)","(0.044312580044442225, 0.15729227116508543, 0.051987022253349176)","(-0.1654148688956293, 0.004484522047558506, -0.12556621816014332)","[0.03694862785423464, -0.0022253360820006785, 0.004117946108001008]","[-0.026750000193715096, 0.05299999937415123, 0.03999999910593033]","[0.0, -0.0, 0.09049281559500955]","[-0.033256594091653824, 0.12470539659261703, 0.03999999910593033]","[0.0, 0.0, -0.604018760256693]","[0.026750000193715096, 0.05299999937415123, 0.03999999910593033]","[0.0, 0.0, -0.8424229864218952]","[0.08048059046268463, 0.10092727094888687, 0.03999999910593033]","[0.0, 0.0, -0.1270161142494778]",0.0859837308826141,-1.0821822954784983,"(0.0, 0.0, 0.0, 0.0, 0.0, 0.0)",-8.765418500268305,-0.6910362603845376,0.8340621556181386,"(0.0, 0.0, 0.0, 0.0, 0.0, 0.0)",-4.204799818914796,-0.8440946846362387,-0.40119250287517094,"(0.0, 0.0, 0.0, 0.0, 0.0, 0.0)",7.517431182909632,0.7124882563225654,-0.7004860326223938,"(0.0, 0.0, 0.0, 0.0, 0.0, 0.0)",3.5293663812008647,True,"(0.018116273369707503, 0.1785946473749686, 0.023995821239362464)","(0.9922174361058552, -0.1244471914754358, -0.004178040377876542)",-0.003217610619566208,52.08582199171025,True,"(0.07769747098199907, 0.17386431305378097, 0.05600417774461516)","(-0.9922581935009289, 0.12412183623141057, 0.0041769846559500156)",-8.39468114068087e-05,46.54766184260646
76,Move,"(0.0522467, 0.0, 0.033606699999999996)","(0.0, 0.16885187848419142, 0.0)","(0.04492693347726639, 0.15719018389386416, 0.05199547109478335)","(-0.16722127000731302, 0.00533360072284982, -0.12680604605354426)","[0.0375629812870588, -0.002327423353221947, 0.004126394949435182]","[-0.026750000193715096, 0.05299999937415123, 0.03999999910593033]","[0.0, -0.0, 0.08191788629439793]","[-0.032641492784023285, 0.12475855648517609, 0.03999999910593033]","[0.0, 0.0, -0.6061066336276961]","[0.026750000193715096, 0.05299999937415123, 0.03999999910593033]","[0.0, 0.0, -0.8455945388948812]","[0.08063232153654099, 0.10075662285089493, 0.03999999910593033]","[0.0, 0.0, -0.1356004259953374]",0.0774360756903806,-1.0756344649313812,"(0.0, 0.0, 0.0, 0.0, 0.0, 0.0)",-8.54166529171466,-0.6846881363497573,0.8007327331689111,"(0.0, 0.0, 0.0, 0.0, 0.0, 0.0)",-4.081110293325547,-0.8471912523540939,-0.3832099772103789,"(0.0, 0.0, 0.0, 0.0, 0.0, 0.0)",7.1302204213639895,0.7073846135492355,-0.6262767237079385,"(0.0, 0.0, 0.0, 0.0, 0.0, 0.0)",3.191700363156674,True,"(0.018843865298076003, 0.17854111977385242, 0.02399512010669106)","(0.9920408295112173, -0.1258220415682511, -0.004879184183140297)",-0.003340858452721822,51.44389766375815,True,"(0.07847541304557465, 0.1737148695965699, 0.05600417774461516)","(-0.9922581935009289, 0.12412183623141057, 0.0041769846559500156)",7.485927560567254e-05,39.54813362259622
77,Move,"(0.0518667, 0.0, 0.033713299999999995)","(0.0, 0.16625482855722387, 0.0)","(0.04554372194738646, 0.1570759802450859, 0.05200285579390765)","(-0.16859613657038727, 0.0061973556811013185, -0.12804582294206518)","[0.03817976975717888, -0.0024416270020002073, 0.004133779648559481]","[-0.026750000193715096, 0.05299999937415123, 0.03999999910593033]","[0.0, -0.0, 0.07339948595889507]","[-0.03203001990914345, 0.12480613589286804, 0.03999999910593033]","[0.0, 0.0, -0.6083294042416559]","[0.026750000193715096, 0.05299999937415123, 0.03999999910593033]","[0.0, 0.0, -0.8486264374111823]","[0.08077686280012131, 0.10059304535388947, 0.03999999910593033]","[0.0, 0.0, -0.14347498981726126]",0.0691419133382976,-1.021818145228673,"(0.0, 0.0, 0.0, 0.0, 0.0, 0.0)",-8.19991389063108,-0.6785174760995552,0.7707302656575015,"(0.0, 0.0, 0.0, 0.0, 0.0, 0.0)",-3.934596453858884,-0.8500423429618322,-0.3398466389156114,"(0.0, 0.0, 0.0, 0.0, 0.0, 0.0)",6.861329629546407,0.7027169218768734,-0.5842561327930563,"(0.0, 0.0, 0.0, 0.0, 0.0, 0.0)",2.966100159303838,True,"(0.019574902229200497, 0.17847531016742954, 0.02399411811405456)","(0.9919047675207688, -0.12684771860765406, -0.0058811949128675595)",-0.0034484520981955635,49.84170902545604,True,"(0.0791945265305945, 0.17356601400440308, 0.05600417774461516)","(-0.9922581935009289, 0.12412183623141057, 0.0041769846559500156)",0.0001460522232778171,32.7324957204146
