OSUrobotics/InHand-Manipulation/AnalyseData/Data/Trial Data/Even Better/new_hand_human_sub1_2v2_g_n_1_kpNone_kdNone_dp2_step1_save_data.csv
,Phase,human_cube_pos,human_cube_orn,Cube_Pos,Cube_Orn,Cube_pos_in_start_pos,b'l_prox_pin'_link_pos,b'l_prox_pin'_link_orn,b'l_distal_pin'_link_pos,b'l_distal_pin'_link_orn,b'r_prox_pin'_link_pos,b'r_prox_pin'_link_orn,b'r_distal_pin'_link_pos,b'r_distal_pin'_link_orn,b'l_prox_pin'_joint_angle,b'l_prox_pin'_joint_vel,b'l_prox_pin'_joint_react_forces,b'l_prox_pin'_joint_motor_torque,b'l_distal_pin'_joint_angle,b'l_distal_pin'_joint_vel,b'l_distal_pin'_joint_react_forces,b'l_distal_pin'_joint_motor_torque,b'r_prox_pin'_joint_angle,b'r_prox_pin'_joint_vel,b'r_prox_pin'_joint_react_forces,b'r_prox_pin'_joint_motor_torque,b'r_distal_pin'_joint_angle,b'r_distal_pin'_joint_vel,b'r_distal_pin'_joint_react_forces,b'r_distal_pin'_joint_motor_torque,in_contact_l,contact_point_l_dist,contact_normal_l_dist,contact_distance_l_dist,contact_norm_force_l_dist,in_contact_r,contact_point_r_dist,contact_normal_r_dist,contact_distance_r_dist,contact_norm_force_r_dist
0,Open,,,,,,"[-0.026750000193715096, 0.05299999937415123, 0.03999999910593033]","[0.0, -0.0, 0.0]","[-0.026750000193715096, 0.125, 0.03999999910593033]","[0.0, -0.0, 0.0]","[0.026750000193715096, 0.05299999937415123, 0.03999999910593033]","[0.0, -0.0, 0.0]","[0.026750000193715096, 0.125, 0.03999999910593033]","[0.0, -0.0, 0.0]",0.0,0.0,"(0.0, 0.0, 0.0, 0.0, 0.0, 0.0)",1.3400621000080305e-17,5.883223478113402e-32,1.4119736347472167e-29,"(0.0, 0.0, 0.0, 0.0, 0.0, 0.0)",1.0542555313129702e-18,-0.008068665190486622,-1.9364796457167894,"(0.0, 0.0, 0.0, 0.0, 0.0, 0.0)",193.26378306879909,-0.0700246186727924,-16.805908481470176,"(0.0, 0.0, 0.0, 0.0, 0.0, 0.0)",71.94009191575694,False,,,,,False,,,,
1,Open,,,,,,"[-0.026750000193715096, 0.05299999937415123, 0.03999999910593033]","[0.0, -0.0, 0.0]","[-0.026750000193715096, 0.125, 0.03999999910593033]","[0.0, -0.0, 5.883223447970011e-32]","[0.026750000193715096, 0.05299999937415123, 0.03999999910593033]","[0.0, 0.0, -0.008068665592501188]","[0.02733093686401844, 0.12499765306711197, 0.03999999910593033]","[0.0, 0.0, -0.0780932845685428]",0.157,37.68,"(0.0, 0.0, 0.0, 0.0, 0.0, 0.0)",54.702693795169004,5.294901130302062e-32,-1.4119736347472162e-30,"(0.0, 0.0, 0.0, 0.0, 0.0, 0.0)",3.9113724975844915,-0.1670280316324969,-38.150247946082466,"(0.0, 0.0, 0.0, 0.0, 0.0, 0.0)",-25.93345404555236,-0.0659493391739072,0.9780670797324476,"(0.0, 0.0, 0.0, 0.0, 0.0, 0.0)",-6.754749483880455,False,,,,,False,,,,
2,Open,,,,,,"[-0.026750000193715096, 0.05299999937415123, 0.03999999910593033]","[0.0, -0.0, 0.1569999988554567]","[-0.03800761699676514, 0.12411445379257202, 0.03999999910593033]","[0.0, -0.0, 0.1569999988554567]","[0.026750000193715096, 0.05299999937415123, 0.03999999910593033]","[0.0, 0.0, -0.16702801712980753]","[0.038720179349184036, 0.1239979937672615, 0.03999999910593033]","[0.0, 0.0, -0.23297739431320727]",0.29829999999999995,33.91199999999999,"(0.0, 0.0, 0.0, 0.0, 0.0, 0.0)",-5.390828189440958,5.294901130302062e-32,0.0,"(0.0, 0.0, 0.0, 0.0, 0.0, 0.0)",-0.3659219356209609,-0.3122944613104081,-34.863943122698686,"(0.0, 0.0, 0.0, 0.0, 0.0, 0.0)",95.8006544774165,-0.06705867534034729,-0.2662406799456205,"(0.0, 0.0, 0.0, 0.0, 0.0, 0.0)",9.049911776264722,False,,,,,False,,,,
3,Open,,,,,,"[-0.026750000193715096, 0.05299999937415123, 0.03999999910593033]","[0.0, -0.0, 0.29830000998707634]","[-0.04791048914194107, 0.12182030081748962, 0.03999999910593033]","[0.0, -0.0, 0.29830000998707634]","[0.026750000193715096, 0.05299999937415123, 0.03999999910593033]","[0.0, 0.0, -0.3122944642903269]","[0.048871491104364395, 0.12151744216680527, 0.03999999910593033]","[0.0, 0.0, -0.3793531994353912]",0.42546999999999996,30.5208,"(0.0, 0.0, 0.0, 0.0, 0.0, 0.0)",-4.858074537215091,5.294901130302062e-32,0.0,"(0.0, 0.0, 0.0, 0.0, 0.0, 0.0)",-0.33154044974508506,-0.44292449566296654,-31.35120824461403,"(0.0, 0.0, 0.0, 0.0, 0.0, 0.0)",100.88457241511576,-0.08373770380977785,-4.0029668326633345,"(0.0, 0.0, 0.0, 0.0, 0.0, 0.0)",24.077304806401806,False,,,,,False,,,,
4,Open,,,,,,"[-0.026750000193715096, 0.05299999937415123, 0.03999999910593033]","[0.0, -0.0, 0.4254700097131474]","[-0.056467924267053604, 0.11858082562685013, 0.03999999910593033]","[0.0, -0.0, 0.4254700097131474]","[0.026750000193715096, 0.05299999937415123, 0.03999999910593033]","[0.0, 0.0, -0.4429245237535421]","[0.057608019560575485, 0.1180521547794342, 0.03999999910593033]","[0.0, 0.0, -0.5266622746639338]",0.5399229999999999,27.46872,"(0.0, 0.0, 0.0, 0.0, 0.0, 0.0)",-4.377393708535371,5.294901130302062e-32,0.0,"(0.0, 0.0, 0.0, 0.0, 0.0, 0.0)",-0.30017707799641646,-0.5623038734984663,-28.651050680519948,"(0.0, 0.0, 0.0, 0.0, 0.0, 0.0)",144.45470973647488,-0.10456727132876567,-4.999096204557077,"(0.0, 0.0, 0.0, 0.0, 0.0, 0.0)",33.97911746732963,False,,,,,False,,,,
5,Open,,,,,,"[-0.026750000193715096, 0.05299999937415123, 0.03999999910593033]","[0.0, -0.0, 0.5399230359738098]","[-0.06376303732395172, 0.11475787311792374, 0.03999999910593033]","[0.0, -0.0, 0.5399230359738098]","[0.026750000193715096, 0.05299999937415123, 0.03999999910593033]","[0.0, 0.0, -0.5623038790270362]","[0.06513584405183792, 0.11391409486532211, 0.03999999910593033]","[0.0, 0.0, -0.6668711870723439]",0.6429307,24.721848,"(0.0, 0.0, 0.0, 0.0, 0.0, 0.0)",-3.943806903965684,5.294901130302062e-32,0.0,"(0.0, 0.0, 0.0, 0.0, 0.0, 0.0)",-0.2716098155097054,-0.6673401099248648,-25.208696742335626,"(0.0, 0.0, 0.0, 0.0, 0.0, 0.0)",94.97739775913854,-0.11755295807544866,-3.116564819203918,"(0.0, 0.0, 0.0, 0.0, 0.0, 0.0)",25.79194570087013,False,,,,,False,,,,
6,Open,,,,,,"[-0.026750000193715096, 0.05299999937415123, 0.03999999910593033]","[0.0, -0.0, 0.6429307111289271]","[-0.06991713494062424, 0.11062463372945786, 0.03999999910593033]","[0.0, -0.0, 0.6429307111289271]","[0.026750000193715096, 0.05299999937415123, 0.03999999910593033]","[0.0, 0.0, -0.6673401753977319]","[0.07131072133779526, 0.10955388844013214, 0.03999999910593033]","[0.0, 0.0, -0.7848931559948581]",0.73563763,22.249663200000004,"(0.0, 0.0, 0.0, 0.0, 0.0, 0.0)",-3.552789792259023,5.294901130302062e-32,0.0,"(0.0, 0.0, 0.0, 0.0, 0.0, 0.0)",-0.24562369466220793,-0.7579917869736262,-21.756402491702737,"(0.0, 0.0, 0.0, 0.0, 0.0, 0.0)",34.46450837185191,-0.10794166402774508,2.3067105714488583,"(0.0, 0.0, 0.0, 0.0, 0.0, 0.0)",8.765009015475858,False,,,,,False,,,,
7,Open,,,,,,"[-0.026750000193715096, 0.05299999937415123, 0.03999999910593033]","[0.0, -0.0, 0.7356376306875043]","[-0.07506632059812546, 0.10638101398944855, 0.03999999910593033]","[0.0, -0.0, 0.7356376306875043]","[0.026750000193715096, 0.05299999937415123, 0.03999999910593033]","[0.0, 0.0, -0.757991847340814]","[0.076247438788414, 0.10528770089149475, 0.03999999910593033]","[0.0, 0.0, -0.8659334873334429]",0.8190738670000001,20.024696880000004,"(0.0, 0.0, 0.0, 0.0, 0.0, 0.0)",-3.2002295086701533,2.3293280891773424e-07,5.5903874140256216e-05,"(0.0, 0.0, 0.0, 0.0, 0.0, 0.0)",-0.22200715926400075,-0.8391926082762636,-19.488197112632974,"(0.0, 0.0, 0.0, 0.0, 0.0, 0.0)",3.295349739497939,-0.09714776835574307,2.590534961280482,"(0.0, 0.0, 0.0, 0.0, 0.0, 0.0)",0.25803221970863044,False,,,,,False,,,,
8,Open,,,,,,"[-0.026750000193715096, 0.05299999937415123, 0.03999999910593033]","[0.0, -0.0, 0.8190738875671263]","[-0.07934698462486267, 0.10216865688562393, 0.03999999910593033]","[0.0, -0.0, 0.8190741465287105]","[0.026750000193715096, 0.05299999937415123, 0.03999999910593033]","[0.0, 0.0, -0.839192558822362]","[0.08032548427581787, 0.10110059380531311, 0.03999999910593033]","[0.0, 0.0, -0.9363403253067936]",0.8941664803,18.022227192,"(0.0, 0.0, 0.0, 0.0, 0.0, 0.0)",-2.8824197251771095,4.2009445145371055e-07,4.4918794208634316e-05,"(0.0, 0.0, 0.0, 0.0, 0.0, 0.0)",-0.2005835928406654,-0.9122733474486373,-17.539377401369673,"(0.0, 0.0, 0.0, 0.0, 0.0, 0.0)",2.7804978356880783,-0.0874331700712747,2.33150358827241,"(0.0, 0.0, 0.0, 0.0, 0.0, 0.0)",0.17017621517521792,False,,,,,False,,,,
9,Open,,,,,,"[-0.026750000193715096, 0.05299999937415123, 0.03999999910593033]","[0.0, -0.0, 0.894166469119967]","[-0.08288749307394028, 0.09808415919542313, 0.03999999910593033]","[0.0, -0.0, 0.894166894674561]","[0.026750000193715096, 0.05299999937415123, 0.03999999910593033]","[0.0, 0.0, -0.9122733503889549]","[0.08369457721710205, 0.09706035256385803, 0.03999999910593033]","[0.0, 0.0, -0.9997066729229968]",0.96174983227,16.220004472800003,"(0.0, 0.0, 0.0, 0.0, 0.0, 0.0)",-2.5959652512206968,5.681494863714967e-07,3.553320838026869e-05,"(0.0, 0.0, 0.0, 0.0, 0.0, 0.0)",-0.18114955764248034,-0.9780460127037736,-15.785439661232708,"(0.0, 0.0, 0.0, 0.0, 0.0, 0.0)",2.503992476159733,-0.0786900142246732,2.098357403184359,"(0.0, 0.0, 0.0, 0.0, 0.0, 0.0)",0.15360133560797545,False,,,,,False,,,,
10,Open,,,,,,"[-0.026750000193715096, 0.05299999937415123, 0.03999999910593033]","[0.0, -0.0, 0.9617498658906226]","[-0.08580395579338074, 0.09419016540050507, 0.03999999910593033]","[0.0, -0.0, 0.9617504517765805]","[0.026750000193715096, 0.05299999937415123, 0.03999999910593033]","[0.0, 0.0, -0.9780460255881384]","[0.08646733313798904, 0.09322238713502884, 0.03999999910593033]","[0.0, 0.0, -1.0567360258914282]",1.022574849043,14.598004025520002,"(0.0, 0.0, 0.0, 0.0, 0.0, 0.0)",-2.337816594086846,6.829231533297027e-07,2.7545680069969436e-05,"(0.0, 0.0, 0.0, 0.0, 0.0, 0.0)",-0.16354029854134106,-1.0372414114333963,-14.206895695109438,"(0.0, 0.0, 0.0, 0.0, 0.0, 0.0)",2.2548456713339484,-0.07082115822448021,1.8885254400463192,"(0.0, 0.0, 0.0, 0.0, 0.0, 0.0)",0.13860128234430863,False,,,,,False,,,,
11,Open,,,,,,"[-0.026750000193715096, 0.05299999937415123, 0.03999999910593033]","[0.0, -0.0, 1.0225748785172661]","[-0.08819860219955444, 0.09052424877882004, 0.03999999910593033]","[0.0, -0.0, 1.0225755149967983]","[0.026750000193715096, 0.05299999937415123, 0.03999999910593033]","[0.0, 0.0, -1.037241417801626]","[0.08874232321977615, 0.08961901068687439, 0.03999999910593033]","[0.0, 0.0, -1.1080626941470386]",1.0773173641387,13.138203622968001,"(0.0, 0.0, 0.0, 0.0, 0.0, 0.0)",-2.105207702642618,7.694903593429899e-07,2.0776129443188934e-05,"(0.0, 0.0, 0.0, 0.0, 0.0, 0.0)",-0.14759587787833617,-1.0905172702900567,-12.78620612559849,"(0.0, 0.0, 0.0, 0.0, 0.0, 0.0)",2.0303755786213302,-0.06373917358809339,1.6996763127328351,"(0.0, 0.0, 0.0, 0.0, 0.0, 0.0)",0.1250328149112744,False,,,,,False,,,,
12,Open,,,,,,"[-0.026750000193715096, 0.05299999937415123, 0.03999999910593033]","[0.0, -0.0, 1.0773173786594632]","[-0.09015969932079315, 0.08710587024688721, 0.03999999910593033]","[0.0, -0.0, 1.0773182784199262]","[0.026750000193715096, 0.05299999937415123, 0.03999999910593033]","[0.0, 0.0, -1.090517334189526]","[0.09060435742139816, 0.0862659215927124, 0.03999999910593033]","[0.0, 0.0, -1.1542564269670996]",1.1265856277248298,11.824383260671203,"(0.0, 0.0, 0.0, 0.0, 0.0, 0.0)",-1.895636869852492,8.322629993378343e-07,1.5065433598762668e-05,"(0.0, 0.0, 0.0, 0.0, 0.0, 0.0)",-0.13316806895824274,-1.138465543261051,-11.50758551303864,"(0.0, 0.0, 0.0, 0.0, 0.0, 0.0)",1.828159741200242,-0.05736537454460671,1.5297117704368035,"(0.0, 0.0, 0.0, 0.0, 0.0, 0.0)",0.11276577482950233,False,,,,,False,,,,
13,Open,,,,,,"[-0.026750000193715096, 0.05299999937415123, 0.03999999910593033]","[0.0, -0.0, 1.126585512342968]","[-0.09176240861415863, 0.08394166082143784, 0.03999999910593033]","[0.0, -0.0, 1.1265864725026016]","[0.026750000193715096, 0.05299999937415123, 0.03999999910593033]","[0.0, 0.0, -1.13846552283997]","[0.09212540090084076, 0.08316715806722641, 0.03999999910593033]","[0.0, 0.0, -1.1958309904194953]",1.1709270649523469,10.641944934604087,"(0.0, 0.0, 0.0, 0.0, 0.0, 0.0)",-1.7068426281171958,8.750681698751778e-07,1.0273240928962424e-05,"(0.0, 0.0, 0.0, 0.0, 0.0, 0.0)",-0.12011999884119333,-1.181618988934946,-10.356826961734775,"(0.0, 0.0, 0.0, 0.0, 0.0, 0.0)",1.6460093571929852,-0.051628943774705546,1.376743384776279,"(0.0, 0.0, 0.0, 0.0, 0.0, 0.0)",0.10168054944364863,False,,,,,False,,,,
14,Open,,,,,,"[-0.026750000193715096, 0.05299999937415123, 0.03999999910593033]","[0.0, -0.0, 1.170927100750299]","[-0.09307006001472473, 0.08102945238351822, 0.03999999910593033]","[0.0, -0.0, 1.1709279927689973]","[0.026750000193715096, 0.05299999937415123, 0.03999999910593033]","[0.0, 0.0, -1.181618964677462]","[0.09336595237255096, 0.08031877130270004, 0.03999999910593033]","[0.0, 0.0, -1.233247876832181]",1.2108343584571122,9.577750441143678,"(0.0, 0.0, 0.0, 0.0, 0.0, 0.0)",-1.5367816122769582,9.012180617793662e-07,6.275974057005224e-06,"(0.0, 0.0, 0.0, 0.0, 0.0, 0.0)",-0.1083256720668905,-1.2204570900414513,-9.3211442655613,"(0.0, 0.0, 0.0, 0.0, 0.0, 0.0)",1.4819475463743526,-0.046466145575958295,1.239071567699341,"(0.0, 0.0, 0.0, 0.0, 0.0, 0.0)",0.09166748660725833,False,,,,,False,,,,
15,Open,,,,,,"[-0.026750000193715096, 0.05299999937415123, 0.03999999910593033]","[0.0, -0.0, 1.2108343955497323]","[-0.09413553774356842, 0.07836118340492249, 0.03999999910593033]","[0.0, -0.0, 1.210835255049739]","[0.026750000193715096, 0.05299999937415123, 0.03999999910593033]","[0.0, 0.0, -1.2204571829136446]","[0.09437645971775055, 0.07771158218383789, 0.03999999910593033]","[0.0, 0.0, -1.2669233179031547]",1.2467509226114009,8.619975397029307,"(0.0, 0.0, 0.0, 0.0, 0.0, 0.0)",-1.3836082777937824,9.135722823677317e-07,2.9650129412077397e-06,"(0.0, 0.0, 0.0, 0.0, 0.0, 0.0)",-0.09766941677677543,-1.2554113810373062,-8.38902983900517,"(0.0, 0.0, 0.0, 0.0, 0.0, 0.0)",1.334189480132575,-0.04181961771093252,1.1151666876061868,"(0.0, 0.0, 0.0, 0.0, 0.0, 0.0)",0.08262627878010878,False,,,,,False,,,,
16,Open,,,,,,"[-0.026750000193715096, 0.05299999937415123, 0.03999999910593033]","[0.0, -0.0, 1.2467510110527222]","[-0.09500277042388916, 0.07592508941888809, 0.03999999910593033]","[0.0, -0.0, 1.246751870145374]","[0.026750000193715096, 0.05299999937415123, 0.03999999910593033]","[0.0, 0.0, -1.255411348379259]","[0.09519875049591064, 0.0753331333398819, 0.03999999910593033]","[0.0, 0.0, -1.2972309672073006]",1.2790758303502607,7.757977857326381,"(0.0, 0.0, 0.0, 0.0, 0.0, 0.0)",-1.2456264712746363,2.1141758111398655e-06,0.0002881448469053121,"(0.0, 0.0, 0.0, 0.0, 0.0, 0.0)",-0.088015399348708,-1.2868702429335757,-7.5501268551046525,"(0.0, 0.0, 0.0, 0.0, 0.0, 0.0)",1.2010989712673745,-0.037638748630864464,1.0034085792163332,"(0.0, 0.0, 0.0, 0.0, 0.0, 0.0)",0.07444006052486639,False,,,,,False,,,,
17,Open,,,,,,"[-0.026750000193715096, 0.05299999937415123, 0.03999999910593033]","[0.0, -0.0, 1.2790758758817962]","[-0.09570803493261337, 0.0737072303891182, 0.03999999910593033]","[0.0, -0.0, 1.2790780932516201]","[0.026750000193715096, 0.05299999937415123, 0.03999999910593033]","[0.0, 0.0, -1.2868702529032277]","[0.0958673357963562, 0.07316911965608597, 0.03999999910593033]","[0.0, 0.0, -1.3245087793274308]",1.3081682532711112,6.982181501004109,"(0.0, 0.0, 0.0, 0.0, 0.0, 0.0)",-1.12145472366965,1.9027582300258812e-06,-5.0740219467356254e-05,"(0.0, 0.0, 0.0, 0.0, 0.0, 0.0)",-0.07939114715284208,-1.315183223212741,-6.795115266999686,"(0.0, 0.0, 0.0, 0.0, 0.0, 0.0)",1.0813262344929835,-0.033874873767778015,0.9033299671407473,"(0.0, 0.0, 0.0, 0.0, 0.0, 0.0)",0.06713055017345074,False,,,,,False,,,,
18,Open,,,,,,"[-0.026750000193715096, 0.05299999937415123, 0.03999999910593033]","[0.0, -0.0, 1.3081682459906412]","[-0.09628119319677353, 0.07169260084629059, 0.03999999910593033]","[0.0, -0.0, 1.3081702011658356]","[0.026750000193715096, 0.05299999937415123, 0.03999999910593033]","[0.0, 0.0, -1.3151833180210462]","[0.0964106097817421, 0.07120437920093536, 0.03999999910593033]","[0.0, 0.0, -1.349058153261439]",1.334351427944,6.283961921493333,"(0.0, 0.0, 0.0, 0.0, 0.0, 0.0)",-1.0095234585863413,2.7618377923566443e-06,0.00020617909495938315,"(0.0, 0.0, 0.0, 0.0, 0.0, 0.0)",-0.07148780084672787,-1.3406649008914668,-6.11560264289422,"(0.0, 0.0, 0.0, 0.0, 0.0, 0.0)",0.9733796231570812,-0.030488273507324658,0.8127840625088054,"(0.0, 0.0, 0.0, 0.0, 0.0, 0.0)",0.060435192896783604,False,,,,,False,,,,
19,Open,,,,,,"[-0.026750000193715096, 0.05299999937415123, 0.03999999910593033]","[0.0, -0.0, 1.334351465706577]","[-0.09674673527479172, 0.06986585259437561, 0.03999999910593033]","[0.0, -0.0, 1.33435435145599]","[0.026750000193715096, 0.05299999937415123, 0.03999999910593033]","[0.0, 0.0, -1.3406650641721125]","[0.09685182571411133, 0.06942359358072281, 0.03999999910593033]","[0.0, 0.0, -1.3711530696282732]",1.3579162851496,5.655565729344001,"(0.0, 0.0, 0.0, 0.0, 0.0, 0.0)",-0.9088150211252332,3.4316066113876724e-06,0.0001607445165674468,"(0.0, 0.0, 0.0, 0.0, 0.0, 0.0)",-0.06444344013525093,-1.3635984108023202,-5.504042378604797,"(0.0, 0.0, 0.0, 0.0, 0.0, 0.0)",0.8762522980402716,-0.02744024570882781,0.7315266716392431,"(0.0, 0.0, 0.0, 0.0, 0.0, 0.0)",0.05446985052483407,False,,,,,False,,,,
20,Open,,,,,,"[-0.026750000193715096, 0.05299999937415123, 0.03999999910593033]","[0.0, -0.0, 1.3579163939939654]","[-0.09712471067905426, 0.0682118609547615, 0.03999999910593033]","[0.0, -0.0, 1.3579197824809437]","[0.026750000193715096, 0.05299999937415123, 0.03999999910593033]","[0.0, 0.0, -1.3635984874387626]","[0.09721000492572784, 0.06781173497438431, 0.03999999910593033]","[0.0, 0.0, -1.3910385869420074]",1.37912465663464,5.090009156409601,"(0.0, 0.0, 0.0, 0.0, 0.0, 0.0)",-0.8181093185961676,3.940702417530038e-06,0.0001221829934741677,"(0.0, 0.0, 0.0, 0.0, 0.0, 0.0)",-0.05806034967263589,-1.3842385697220883,-4.953638140744317,"(0.0, 0.0, 0.0, 0.0, 0.0, 0.0)",0.7887791417834831,-0.024696941374704916,0.6583930401894944,"(0.0, 0.0, 0.0, 0.0, 0.0, 0.0)",0.04906644857689494,False,,,,,False,,,,
21,Open,,,,,,"[-0.026750000193715096, 0.05299999937415123, 0.03999999910593033]","[0.0, -0.0, 1.3791247702213432]","[-0.0974314734339714, 0.0667160153388977, 0.03999999910593033]","[0.0, -0.0, 1.3791284782568445]","[0.026750000193715096, 0.05299999937415123, 0.03999999910593033]","[0.0, 0.0, -1.3842387704807777]","[0.09750068932771683, 0.06635437905788422, 0.03999999910593033]","[0.0, 0.0, -1.408935619520831]",1.398212190971176,4.581008240768642,"(0.0, 0.0, 0.0, 0.0, 0.0, 0.0)",-0.7364407507487188,4.314390796743166e-06,8.968521101115077e-05,"(0.0, 0.0, 0.0, 0.0, 0.0, 0.0)",-0.05230389643117988,-1.4028147127498793,-4.458274326669883,"(0.0, 0.0, 0.0, 0.0, 0.0, 0.0)",0.7100243788118592,-0.02222789596809768,0.5925708975857369,"(0.0, 0.0, 0.0, 0.0, 0.0, 0.0)",0.04419507766734469,False,,,,,False,,,,
22,Open,,,,,,"[-0.026750000193715096, 0.05299999937415123, 0.03999999910593033]","[0.0, -0.0, 1.3982120672717784]","[-0.09768038988113403, 0.06536446511745453, 0.03999999910593033]","[0.0, -0.0, 1.3982164487645397]","[0.026750000193715096, 0.05299999937415123, 0.03999999910593033]","[0.0, 0.0, -1.4028147367436141]","[0.09773654490709305, 0.06503787636756897, 0.03999999910593033]","[0.0, 0.0, -1.4250426427007885]",1.4153909718740585,4.122907416691778,"(0.0, 0.0, 0.0, 0.0, 0.0, 0.0)",-0.6629119687698639,4.574523674952359e-06,6.243189077020624e-05,"(0.0, 0.0, 0.0, 0.0, 0.0, 0.0)",-0.04711364623212332,-1.4195332414748913,-4.012446894002898,"(0.0, 0.0, 0.0, 0.0, 0.0, 0.0)",0.6391216750959775,-0.02000569064819732,0.5333292767760867,"(0.0, 0.0, 0.0, 0.0, 0.0, 0.0)",0.039804123486470444,False,,,,,False,,,,
23,Open,,,,,,"[-0.026750000193715096, 0.05299999937415123, 0.03999999910593033]","[0.0, -0.0, 1.415391158105469]","[-0.09788231551647186, 0.06414420157670975, 0.03999999910593033]","[0.0, -0.0, 1.415395709317307]","[0.026750000193715096, 0.05299999937415123, 0.03999999910593033]","[0.0, 0.0, -1.419533200978404]","[0.09792786836624146, 0.06384945660829544, 0.03999999910593033]","[0.0, 0.0, -1.4395389386881268]",1.4308518746866525,3.7106166750225977,"(0.0, 0.0, 0.0, 0.0, 0.0, 0.0)",-0.5967141397561109,4.7399630338636504e-06,3.9705446138709865e-05,"(0.0, 0.0, 0.0, 0.0, 0.0, 0.0)",-0.042434775014060074,-1.4345799173274023,-3.611202204602609,"(0.0, 0.0, 0.0, 0.0, 0.0, 0.0)",0.5752902758042565,-0.018005647771851804,0.4800102903229233,"(0.0, 0.0, 0.0, 0.0, 0.0, 0.0)",0.0358468230863414,False,,,,,False,,,,
24,Open,,,,,,"[-0.026750000193715096, 0.05299999937415123, 0.03999999910593033]","[0.0, -0.0, 1.4308518944899675]","[-0.09804610908031464, 0.06304314732551575, 0.03999999910593033]","[0.0, -0.0, 1.4308566269594332]","[0.026750000193715096, 0.05299999937415123, 0.03999999910593033]","[0.0, 0.0, -1.4345798203875788]","[0.09808305650949478, 0.06277728080749512, 0.03999999910593033]","[0.0, 0.0, -1.4525855975984745]",1.4447666872179874,3.339555007520341,"(0.0, 0.0, 0.0, 0.0, 0.0, 0.0)",-0.5371183361845069,4.8269553674989e-06,2.0878160072459843e-05,"(0.0, 0.0, 0.0, 0.0, 0.0, 0.0)",-0.03821759960562203,-1.448121925594662,-3.2500819841423465,"(0.0, 0.0, 0.0, 0.0, 0.0, 0.0)",0.5178266556878065,-0.016205556838873442,0.4320218239148067,"(0.0, 0.0, 0.0, 0.0, 0.0, 0.0)",0.0322808466635012,False,,,,,False,,,,
25,Open,,,,,,"[-0.026750000193715096, 0.05299999937415123, 0.03999999910593033]","[0.0, -0.0, 1.4447668540021588]","[-0.09817895293235779, 0.06205013021826744, 0.03999999910593033]","[0.0, -0.0, 1.4447715863131299]","[0.026750000193715096, 0.05299999937415123, 0.03999999910593033]","[0.0, 0.0, -1.448121993206969]","[0.09820891171693802, 0.06181041896343231, 0.03999999910593033]","[0.0, 0.0, -1.46432761016298]",1.4572900184961886,3.005599506768304,"(0.0, 0.0, 0.0, 0.0, 0.0, 0.0)",-0.483467731204937,4.849462099751187e-06,5.401615740548756e-06,"(0.0, 0.0, 0.0, 0.0, 0.0, 0.0)",-0.03441712855198442,-1.4603097330351957,-2.925073785728113,"(0.0, 0.0, 0.0, 0.0, 0.0, 0.0)",0.4660969568661882,-0.014585427836986846,0.38883096045278315,"(0.0, 0.0, 0.0, 0.0, 0.0, 0.0)",0.029067900465992856,False,,,,,False,,,,
26,Open,,,,,,"[-0.026750000193715096, 0.05299999937415123, 0.03999999910593033]","[0.0, -0.0, 1.4572900807517244]","[-0.0982866883277893, 0.061154916882514954, 0.03999999910593033]","[0.0, -0.0, 1.4572948921008348]","[0.026750000193715096, 0.05299999937415123, 0.03999999910593033]","[0.0, 0.0, -1.4603097470714805]","[0.09831098467111588, 0.06093886122107506, 0.03999999910593033]","[0.0, 0.0, -1.4748951413427742]",1.4685610166465697,2.705039556091476,"(0.0, 0.0, 0.0, 0.0, 0.0, 0.0)",-0.43517053908893033,4.819450845044722e-06,-7.202701129551542e-06,"(0.0, 0.0, 0.0, 0.0, 0.0, 0.0)",-0.030992645518402973,-1.471278759731676,-2.632566407155304,"(0.0, 0.0, 0.0, 0.0, 0.0, 0.0)",0.4195301522878829,-0.013127269246907155,0.3499580616191257,"(0.0, 0.0, 0.0, 0.0, 0.0, 0.0)",0.02617336062226555,False,,,,,False,,,,
27,Open,,,,,,"[-0.026750000193715096, 0.05299999937415123, 0.03999999910593033]","[0.0, -0.0, 1.4685611215819594]","[-0.09837405383586884, 0.06034812703728676, 0.03999999910593033]","[0.0, -0.0, 1.468565853091142]","[0.026750000193715096, 0.05299999937415123, 0.03999999910593033]","[0.0, 0.0, -1.4712788457263521]","[0.0983937606215477, 0.06015344336628914, 0.03999999910593033]","[0.0, 0.0, -1.4844061039497418]",1.4787049149819127,2.434535600482329,"(0.0, 0.0, 0.0, 0.0, 0.0, 0.0)",-0.39169363303347604,4.747151892642784e-06,-1.7351748576465223e-05,"(0.0, 0.0, 0.0, 0.0, 0.0, 0.0)",-0.02790732436186781,-1.4811508837585086,-2.3693097664397755,"(0.0, 0.0, 0.0, 0.0, 0.0, 0.0)",0.37761186810531283,-0.011814888241968555,0.3149714411852639,"(0.0, 0.0, 0.0, 0.0, 0.0, 0.0)",0.023565936472848985,False,,,,,False,,,,
28,Open,,,,,,"[-0.026750000193715096, 0.05299999937415123, 0.03999999910593033]","[0.0, -0.0, 1.4787049625213984]","[-0.09844490885734558, 0.059621214866638184, 0.03999999910593033]","[0.0, -0.0, 1.4787095898811649]","[0.026750000193715096, 0.05299999937415123, 0.03999999910593033]","[0.0, 0.0, -1.4811508165812142]","[0.09846089035272598, 0.059445831924676895, 0.03999999910593033]","[0.0, 0.0, -1.492965762433775]",1.4878344234837215,2.191082040434097,"(0.0, 0.0, 0.0, 0.0, 0.0, 0.0)",-0.35255677801820895,4.641283838470101e-06,-2.5408333001444004e-05,"(0.0, 0.0, 0.0, 0.0, 0.0, 0.0)",-0.02512787460267613,-1.4900357953826577,-2.132378789795796,"(0.0, 0.0, 0.0, 0.0, 0.0, 0.0)",0.33987880377374147,-0.010633710863257649,0.2834825708906175,"(0.0, 0.0, 0.0, 0.0, 0.0, 0.0)",0.021217361806457186,False,,,,,False,,,,
29,Close,,,"(0.010000165031897679, 0.16000264050809818, 0.003919197399597577)","(-5.388791991209616e-05, 3.3679978815229247e-06, -9.074720008653711e-11)",,"[-0.026750000193715096, 0.05299999937415123, 0.03999999910593033]","[0.0, -0.0, 1.487834617901085]","[-0.09850236773490906, 0.05896640568971634, 0.03999999910593033]","[0.0, -0.0, 1.4878390921106803]","[0.026750000193715096, 0.05299999937415123, 0.03999999910593033]","[0.0, 0.0, -1.4900358577435544]","[0.09851532429456711, 0.05880843847990036, 0.03999999910593033]","[0.0, 0.0, -1.5006695807985118]",1.4960509811353493,1.9719738363906854,"(0.0, 0.0, 0.0, 0.0, 0.0, 0.0)",-0.3173274216127963,4.509251873886308e-06,-3.168767150011037e-05,"(0.0, 0.0, 0.0, 0.0, 0.0, 0.0)",-0.022624215793833224,-1.498032215844392,-1.9191409108162163,"(0.0, 0.0, 0.0, 0.0, 0.0, 0.0)",0.30591369390909257,-0.00957062017308593,0.2551417656412126,"(0.0, 0.0, 0.0, 0.0, 0.0, 0.0)",0.019102112305110365,False,,,,,False,,,,
30,Close,,,"(0.010000330010418335, 0.1600052801621647, 0.0076635160840755065)","(-0.00010776674212266888, 6.7354271463595154e-06, -3.629275205618536e-10)",,"[-0.026750000193715096, 0.05299999937415123, 0.03999999910593033]","[0.0, -0.0, 1.4960509653323988]","[-0.09854896366596222, 0.058376654982566833, 0.03999999910593033]","[0.0, -0.0, 1.4960555203126162]","[0.026750000193715096, 0.05299999937415123, 0.03999999910593033]","[0.0, 0.0, -1.4980320325532246]","[0.09855947643518448, 0.05823439359664917, 0.03999999910593033]","[0.0, 0.0, -1.5076028800413472]",1.4064458830218143,-21.505223547248388,"(0.0, 0.0, 0.0, 0.0, 0.0, 0.0)",-36.32500847077206,-0.08999559064729075,-21.600023975799512,"(0.0, 0.0, 0.0, 0.0, 0.0, 0.0)",-4.679136399120495,-1.4082289942599528,21.552773180265405,"(0.0, 0.0, 0.0, 0.0, 0.0, 0.0)",36.31473208701179,0.08138609105625041,21.82961069504072,"(0.0, 0.0, 0.0, 0.0, 0.0, 0.0)",4.675963213372079,False,,,,,False,,,,
31,Close,,,"(0.010000494936733278, 0.16000791898094055, 0.011233038807318392)","(-0.00016163646818851668, 1.0102287881965475e-05, -8.164490687548302e-10)",,"[-0.026750000193715096, 0.05299999937415123, 0.03999999910593033]","[0.0, -0.0, 1.4064459844712927]","[-0.0977797880768776, 0.06478003412485123, 0.03999999910593033]","[0.0, -0.0, 1.316450240076391]","[0.026750000193715096, 0.05299999937415123, 0.03999999910593033]","[0.0, 0.0, -1.4082291009672807]","[0.09780067950487137, 0.06465335935354233, 0.03999999910593033]","[0.0, 0.0, -1.3268428349863826]",1.325801294719633,-19.354701192523546,"(0.0, 0.0, 0.0, 0.0, 0.0, 0.0)",3.2936342521930255,-0.17099646652613912,-19.44021021092361,"(0.0, 0.0, 0.0, 0.0, 0.0, 0.0)",0.4145426679866387,-1.3274060948339577,19.39749586223887,"(0.0, 0.0, 0.0, 0.0, 0.0, 0.0)",-3.3024243844052092,0.16324791947241268,19.646838819878944,"(0.0, 0.0, 0.0, 0.0, 0.0, 0.0)",-0.41699994760359754,False,,,,,False,,,,
32,Close,,,"(0.010000659812012168, 0.16001055698314023, 0.0146278458391823)","(-0.0002154970996661642, 1.346858017578936e-05, -1.4512199879406586e-09)",,"[-0.026750000193715096, 0.05299999937415123, 0.03999999910593033]","[0.0, -0.0, 1.3258013857525741]","[-0.09659997373819351, 0.07046370953321457, 0.03999999910593033]","[0.0, -0.0, 1.1548048042561467]","[0.026750000193715096, 0.05299999937415123, 0.03999999910593033]","[0.0, 0.0, -1.3274060658778382]","[0.09662791341543198, 0.07035159319639206, 0.03999999910593033]","[0.0, 0.0, -1.1641581075845935]",1.2532211652476697,-17.41923107327119,"(0.0, 0.0, 0.0, 0.0, 0.0, 0.0)",2.9685258329366073,-0.24389721437960032,-17.496179484830687,"(0.0, 0.0, 0.0, 0.0, 0.0, 0.0)",0.3760018756193849,-1.2546654853505619,17.457746276014984,"(0.0, 0.0, 0.0, 0.0, 0.0, 0.0)",-2.976480273609718,0.2369235243908578,17.682145180426822,"(0.0, 0.0, 0.0, 0.0, 0.0, 0.0)",-0.3782508099482112,False,,,,,False,,,,
33,Close,,,"(0.010000824637423049, 0.16001319418745247, 0.017848014970055004)","(-0.00026934863811186216, 1.6834304115272585e-05, -2.2671484573282825e-09)",,"[-0.026750000193715096, 0.05299999937415123, 0.03999999910593033]","[0.0, -0.0, 1.2532212515508983]","[-0.09514966607093811, 0.07548300176858902, 0.03999999910593033]","[0.0, -0.0, 1.0093239867956962]","[0.026750000193715096, 0.05299999937415123, 0.03999999910593033]","[0.0, 0.0, -1.254665405963893]","[0.09518206864595413, 0.07538418471813202, 0.03999999910593033]","[0.0, 0.0, -1.0177419933055243]",1.1878990487229026,-15.677307965944074,"(0.0, 0.0, 0.0, 0.0, 0.0, 0.0)",2.675103284419244,-0.30950785045582774,-15.746552658294572,"(0.0, 0.0, 0.0, 0.0, 0.0, 0.0)",0.34074508229325023,-1.1891989368155058,15.711971648413485,"(0.0, 0.0, 0.0, 0.0, 0.0, 0.0)",-2.6822973218910153,0.30323153162132754,15.913921735312746,"(0.0, 0.0, 0.0, 0.0, 0.0, 0.0)",-0.34279935345822066,False,,,,,False,,,,
34,Close,,,"(0.010000989414132393, 0.1600158306125408, 0.020893621515273818)","(-0.00032319108508158773, 2.0199459787849396e-05, -3.2641426920478403e-09)",,"[-0.026750000193715096, 0.05299999937415123, 0.03999999910593033]","[0.0, -0.0, 1.1878990574339587]","[-0.09353619813919067, 0.07989988476037979, 0.03999999910593033]","[0.0, -0.0, 0.8783912846834516]","[0.026750000193715096, 0.05299999937415123, 0.03999999910593033]","[0.0, 0.0, -1.1891990098250689]","[0.09357111155986786, 0.07981304824352264, 0.03999999910593033]","[0.0, 0.0, -0.8859674697633095]",1.1291091438506125,-14.109577169349663,"(0.0, 0.0, 0.0, 0.0, 0.0, 0.0)",2.4103712722760626,-0.36855738916456426,-14.17188929009676,"(0.0, 0.0, 0.0, 0.0, 0.0, 0.0)",0.3085687115248564,-1.1302790431339553,14.140774483572143,"(0.0, 0.0, 0.0, 0.0, 0.0, 0.0)",-2.4168742890236286,0.36290870417903687,14.322521413850238,"(0.0, 0.0, 0.0, 0.0, 0.0, 0.0)",-0.31044204201279674,False,,,,,False,,,,
35,Close,,,"(0.010001154143305145, 0.16001846627704427, 0.023764738319401603)","(-0.00037702444213104407, 2.3564047280946926e-05, -4.4421109431381166e-09)",,"[-0.026750000193715096, 0.05299999937415123, 0.03999999910593033]","[0.0, -0.0, 1.1291090274464952]","[-0.09184028208255768, 0.08377750217914581, 0.03999999910593033]","[0.0, -0.0, 0.7605517150898052]","[0.026750000193715096, 0.05299999937415123, 0.03999999910593033]","[0.0, 0.0, -1.130279133319625]","[0.09187624603509903, 0.08370133489370346, 0.03999999910593033]","[0.0, 0.0, -0.7673703325611945]",1.0761982294655512,-12.698619452414698,"(0.0, 0.0, 0.0, 0.0, 0.0, 0.0)",2.1715845710489208,-0.42170194324014043,-12.754692978138287,"(0.0, 0.0, 0.0, 0.0, 0.0, 0.0)",0.27924932151422227,-1.07725113882056,12.72669703521493,"(0.0, 0.0, 0.0, 0.0, 0.0, 0.0)",-2.177460276301377,0.41661812854294633,12.890261847338277,"(0.0, 0.0, 0.0, 0.0, 0.0, 0.0)",-0.2809551529003472,False,,,,,False,,,,
36,Close,,,"(0.010001318826104761, 0.16002110119957821, 0.02646143576036139)","(-0.0004308487108156613, 2.692806668198511e-05, -5.800961497533997e-09)",,"[-0.026750000193715096, 0.05299999937415123, 0.03999999910593033]","[0.0, -0.0, 1.076198055145404]","[-0.09012148529291153, 0.08717681467533112, 0.03999999910593033]","[0.0, -0.0, 0.6544962762796218]","[0.026750000193715096, 0.05299999937415123, 0.03999999910593033]","[0.0, 0.0, -1.0772510781061955]","[0.09015743434429169, 0.08711007237434387, 0.03999999910593033]","[0.0, 0.0, -0.6606329452337051]",1.028578406518996,-11.428757507173229,"(0.0, 0.0, 0.0, 0.0, 0.0, 0.0)",1.9562489498726314,-0.46953201391559385,-11.479216962108818,"(0.0, 0.0, 0.0, 0.0, 0.0, 0.0)",0.2525697399559188,-1.0295260249385039,11.454027331693439,"(0.0, 0.0, 0.0, 0.0, 0.0, 0.0)",-1.961555706583625,0.46495658231577774,11.601228905479532,"(0.0, 0.0, 0.0, 0.0, 0.0, 0.0)",-0.25412105363877113,False,,,,,False,,,,
37,Close,,,"(0.010001483463693249, 0.1600237353987347, 0.0289837817534302)","(-0.0004846638926905951, 3.0291518078376737e-05, -7.3406026780539124e-09)",,"[-0.026750000193715096, 0.05299999937415123, 0.03999999910593033]","[0.0, -0.0, 1.028578444789276]","[-0.08842276781797409, 0.09015467017889023, 0.03999999910593033]","[0.0, -0.0, 0.5590464126725148]","[0.026750000193715096, 0.05299999937415123, 0.03999999910593033]","[0.0, 0.0, -1.029526007298545]","[0.08845794945955276, 0.09009620547294617, 0.03999999910593033]","[0.0, 0.0, -0.564569399435659]",0.9857205658670964,-10.285881756455906,"(0.0, 0.0, 0.0, 0.0, 0.0, 0.0)",1.7621005438122825,-0.5125790520819234,-10.331289159919107,"(0.0, 0.0, 0.0, 0.0, 0.0, 0.0)",0.22832149176550065,-0.9865734224446535,10.308624598524094,"(0.0, 0.0, 0.0, 0.0, 0.0, 0.0)",-1.766891708603882,0.508461165120635,10.441099873165749,"(0.0, 0.0, 0.0, 0.0, 0.0, 0.0)",-0.22973068702752517,False,,,,,False,,,,
38,Close,,,"(0.010001648057231211, 0.16002636889308344, 0.03133184175509247)","(-0.0005384699893107284, 3.3654401557527444e-05, -9.06094284338731e-09)",,"[-0.026750000193715096, 0.05299999937415123, 0.03999999910593033]","[0.0, -0.0, 0.9857205423734198]","[-0.08677425980567932, 0.09276290237903595, 0.03999999910593033]","[0.0, -0.0, 0.47314147483112123]","[0.026750000193715096, 0.05299999937415123, 0.03999999910593033]","[0.0, 0.0, -0.9865734261287252]","[0.08680814504623413, 0.09271169453859329, 0.03999999910593033]","[0.0, 0.0, -0.4781122693565934]",0.9471485092803869,-9.257293580810316,"(0.0, 0.0, 0.0, 0.0, 0.0, 0.0)",1.587086438141582,-0.5513213633331018,-9.29815470028281,"(0.0, 0.0, 0.0, 0.0, 0.0, 0.0)",0.206306403170868,-0.9479160802001881,9.277762138671687,"(0.0, 0.0, 0.0, 0.0, 0.0, 0.0)",-1.5914107042435905,0.5476152664096928,9.396984309373877,"(0.0, 0.0, 0.0, 0.0, 0.0, 0.0)",-0.2075852193448244,False,,,,,False,,,,
39,Close,,,"(0.01000181260787789, 0.16002900170117218, 0.03350567876675359)","(-0.00059226700223067, 3.7016717206835695e-05, -1.0961890388082131e-08)",,"[-0.026750000193715096, 0.05299999937415123, 0.03999999910593033]","[0.0, -0.0, 0.9471486716739237]","[-0.08519625663757324, 0.09504801034927368, 0.03999999910593033]","[0.0, -0.0, 0.39582717163487297]","[0.026750000193715096, 0.05299999937415123, 0.03999999910593033]","[0.0, 0.0, -0.9479160840165974]","[0.08522851020097733, 0.09500313550233841, 0.03999999910593033]","[0.0, 0.0, -0.4003008647547732]",0.9124336583523481,-8.331564222729286,"(0.0, 0.0, 0.0, 0.0, 0.0, 0.0)",1.4293465062267445,-0.5861894225076075,-8.368334201881392,"(0.0, 0.0, 0.0, 0.0, 0.0, 0.0)",0.18633757536892917,-0.9131244721801693,8.349985924804516,"(0.0, 0.0, 0.0, 0.0, 0.0, 0.0)",-1.433248242084051,0.5828539364930729,8.45728082001123,"(0.0, 0.0, 0.0, 0.0, 0.0, 0.0)",-0.18749704763631705,False,,,,,False,,,,
40,Close,,,"(0.010001977116791199, 0.1600316338415276, 0.035505353338314005)","(-0.0006460549330047555, 4.037846511369274e-05, -1.3043353742532214e-08)",,"[-0.026750000193715096, 0.05299999937415123, 0.03999999910593033]","[0.0, -0.0, 0.9124336635104583]","[-0.08370164036750793, 0.0970512256026268, 0.03999999910593033]","[0.0, -0.0, 0.3262442150321584]","[0.026750000193715096, 0.05299999937415123, 0.03999999910593033]","[0.0, 0.0, -0.9131245532476111]","[0.08373206108808517, 0.09701187163591385, 0.03999999910593033]","[0.0, 0.0, -0.3302705841133475]",0.8811902925171133,-7.498407800456356,"(0.0, 0.0, 0.0, 0.0, 0.0, 0.0)",1.2871965063691413,-0.6175706567763247,-7.531496224492115,"(0.0, 0.0, 0.0, 0.0, 0.0, 0.0)",0.16823988009592084,-0.8818120249621524,7.514987332324067,"(0.0, 0.0, 0.0, 0.0, 0.0, 0.0)",-1.2907160846573733,0.6145687204653795,7.61154815335357,"(0.0, 0.0, 0.0, 0.0, 0.0, 0.0)",-0.16929032064296096,False,,,,,False,,,,
41,Close,,,"(0.010002141585127773, 0.16003426533265583, 0.03733092357160428)","(-0.0006998337831870475, 4.3739645365482716e-05, -1.5305241372964883e-08)",,"[-0.026750000193715096, 0.05299999937415123, 0.03999999910593033]","[0.0, -0.0, 0.8811903688816151]","[-0.08229776471853256, 0.09880879521369934, 0.03999999910593033]","[0.0, -0.0, 0.2636196251065186]","[0.026750000193715096, 0.05299999937415123, 0.03999999910593033]","[0.0, 0.0, -0.8818121535754343]","[0.08232623338699341, 0.098774254322052, 0.03999999910593033]","[0.0, 0.0, -0.26724331826119446]",0.853071263265402,-6.7485670204107215,"(0.0, 0.0, 0.0, 0.0, 0.0, 0.0)",1.1591124175888132,-0.6458137504217961,-6.77834247491313,"(0.0, 0.0, 0.0, 0.0, 0.0, 0.0)",0.1518500972569631,-0.8536308224659371,6.763488599091658,"(0.0, 0.0, 0.0, 0.0, 0.0, 0.0)",-1.1622865309865396,0.643112008739745,6.850389185847702,"(0.0, 0.0, 0.0, 0.0, 0.0, 0.0)",-0.15280109527428076,False,,,,,False,,,,
42,Close,,,"(0.010002306014043007, 0.16003689619304312, 0.038982445123681576)","(-0.0007536035543313348, 4.7100258049582536e-05, -1.7747461781428295e-08)",,"[-0.026750000193715096, 0.05299999937415123, 0.03999999910593033]","[0.0, -0.0, 0.8530713239495782]","[-0.08098787814378738, 0.10035242885351181, 0.03999999910593033]","[0.0, -0.0, 0.2072574956851119]","[0.026750000193715096, 0.05299999937415123, 0.03999999910593033]","[0.0, 0.0, -0.8536307856313979]","[0.08101436495780945, 0.10032207518815994, 0.03999999910593033]","[0.0, 0.0, -0.21051882644475053]",0.8277641369388617,-6.073710318369648,"(0.0, 0.0, 0.0, 0.0, 0.0, 0.0)",1.043715976216214,-0.6712325191394197,-6.100504492229669,"(0.0, 0.0, 0.0, 0.0, 0.0, 0.0)",0.1370167890019201,-0.8282677402193435,6.0871397391824935,"(0.0, 0.0, 0.0, 0.0, 0.0, 0.0)",-1.0465779375227178,0.6688009525283538,6.165346509266115,"(0.0, 0.0, 0.0, 0.0, 0.0, 0.0)",-0.1378772244212715,False,,,,,False,,,,
43,Close,,,"(0.010002470404691093, 0.16003952644115657, 0.04045997120998789)","(-0.0008073642479911328, 5.0460303253361964e-05, -2.0369923505779015e-08)",,"[-0.026750000193715096, 0.05299999937415123, 0.03999999910593033]","[0.0, -0.0, 0.8277641182932235]","[-0.07977228611707687, 0.10170972347259521, 0.03999999910593033]","[0.0, -0.0, 0.1565316389415725]","[0.026750000193715096, 0.05299999937415123, 0.03999999910593033]","[0.0, 0.0, -0.8282677342123946]","[0.07979680597782135, 0.10168302059173584, 0.03999999910593033]","[0.0, 0.0, -0.1594667900835625]",0.8049877232449756,-5.4663392865326825,"(0.0, 0.0, 0.0, 0.0, 0.0, 0.0)",0.9397613626777375,-0.6941093969081942,-5.49045066450586,"(0.0, 0.0, 0.0, 0.0, 0.0, 0.0)",0.12359998406321729,-0.8054409661974091,5.478425765264244,"(0.0, 0.0, 0.0, 0.0, 0.0, 0.0)",-0.9423413878167864,0.6919209877745929,5.54880845909737,"(0.0, 0.0, 0.0, 0.0, 0.0, 0.0)",-0.12437805104754245,False,,,,,False,,,,
44,Close,,,"(0.010002634758225062, 0.1600421560954447, 0.041763552607370504)","(-0.000861115865719684, 5.381978106418352e-05, -2.3172535119669436e-08)",,"[-0.026750000193715096, 0.05299999937415123, 0.03999999910593033]","[0.0, -0.0, 0.8049877164750058]","[-0.07864919304847717, 0.10290464758872986, 0.03999999910593033]","[0.0, -0.0, 0.11087832859978779]","[0.026750000193715096, 0.05299999937415123, 0.03999999910593033]","[0.0, 0.0, -0.805440964305088]","[0.07867180556058884, 0.10288111865520477, 0.03999999910593033]","[0.0, 0.0, -0.11351997099607207]",0.784488950920478,-4.919705357879415,"(0.0, 0.0, 0.0, 0.0, 0.0, 0.0)",0.8461229797239068,-0.7146985741739192,-4.941402543774016,"(0.0, 0.0, 0.0, 0.0, 0.0, 0.0)",0.11147072977230046,-0.7848968695776682,4.93058318873782,"(0.0, 0.0, 0.0, 0.0, 0.0, 0.0)",-0.8484484528940599,0.7127290066915236,4.993924540063379,"(0.0, 0.0, 0.0, 0.0, 0.0, 0.0)",-0.1121739668696123,False,,,,,False,,,,
45,Close,,,"(0.010002799075796832, 0.16004478517433812, 0.04289323765696492)","(-0.0009148584090699577, 5.7178691569402595e-05, -2.615520523253533e-08)",,"[-0.026750000193715096, 0.05299999937415123, 0.03999999910593033]","[0.0, -0.0, 0.7844889896573499]","[-0.07761538028717041, 0.10395795851945877, 0.03999999910593033]","[0.0, -0.0, 0.06979037514545033]","[0.026750000193715096, 0.05299999937415123, 0.03999999910593033]","[0.0, 0.0, -0.7848969068252226]","[0.07763615995645523, 0.10393720120191574, 0.03999999910593033]","[0.0, 0.0, -0.07216786709232846]",0.7660400558284302,-4.427734822091471,"(0.0, 0.0, 0.0, 0.0, 0.0, 0.0)",0.7617842585328375,-0.7332288222135146,-4.44725952950288,"(0.0, 0.0, 0.0, 0.0, 0.0, 0.0)",0.10051055612556806,-0.7664071826199014,4.437524869864038,"(0.0, 0.0, 0.0, 0.0, 0.0, 0.0)",-0.7638799793048979,0.7314562121459494,4.494529309062177,"(0.0, 0.0, 0.0, 0.0, 0.0, 0.0)",-0.10114588070786824,False,,,,,False,,,,
46,Close,,,"(0.010002963358557236, 0.16004741369625017, 0.04384907226694074)","(-0.0009685918795946493, 6.053703485636736e-05, -2.9317842489583264e-08)",,"[-0.026750000193715096, 0.05299999937415123, 0.03999999910593033]","[0.0, -0.0, 0.7660400058439011]","[-0.07666666060686111, 0.10488764196634293, 0.03999999910593033]","[0.0, -0.0, 0.0328112365488731]","[0.026750000193715096, 0.05299999937415123, 0.03999999910593033]","[0.0, 0.0, -0.7664072421942376]","[0.07668570429086685, 0.1048693135380745, 0.03999999910593033]","[0.0, 0.0, -0.03495097036229706]",0.7494360502455871,-3.984961339882325,"(0.0, 0.0, 0.0, 0.0, 0.0, 0.0)",0.6858274268188955,-0.7499060350622873,-4.002531083705426,"(0.0, 0.0, 0.0, 0.0, 0.0, 0.0)",0.09061088591719418,-0.7497664643579113,3.9937723828776335,"(0.0, 0.0, 0.0, 0.0, 0.0, 0.0)",-0.6877158393779155,0.7483106866034595,4.045073869802414,"(0.0, 0.0, 0.0, 0.0, 0.0, 0.0)",-0.09118463108881669,False,,,,,False,,,,
47,Close,,,"(0.010003127607656072, 0.16005004167957756, 0.04463109991511072)","(-0.0010223162788461832, 6.389481101241881e-05, -3.266035557177819e-08)",,"[-0.026750000193715096, 0.05299999937415123, 0.03999999910593033]","[0.0, -0.0, 0.7494360616149593]","[-0.07579827308654785, 0.1057092696428299, 0.03999999910593033]","[0.0, 0.0, -0.00046998485639781964]","[0.026750000193715096, 0.05299999937415123, 0.03999999910593033]","[0.0, 0.0, -0.7497665229086657]","[0.07581568509340286, 0.10569305717945099, 0.03999999910593033]","[0.0, 0.0, -0.0014557777936095985]",0.7344924452210284,-3.5864652058940925,"(0.0, 0.0, 0.0, 0.0, 0.0, 0.0)",0.6173964503690262,-0.7649166300024903,-3.602542785648727,"(0.0, 0.0, 0.0, 0.0, 0.0, 0.0)",0.08164469448201127,-0.7347898179221202,3.594395144589871,"(0.0, 0.0, 0.0, 0.0, 0.0, 0.0)",-0.61909767957405,0.7634808239898891,3.6408329727431203,"(0.0, 0.0, 0.0, 0.0, 0.0, 0.0)",-0.08216247127692902,False,,,,,False,,,,
48,Close,,,"(0.010003291824242136, 0.16005266914270105, 0.04523936165140331)","(-0.0010760316083767074, 6.725202012489063e-05, -3.618265319583079e-08)",,"[-0.026750000193715096, 0.05299999937415123, 0.03999999910593033]","[0.0, -0.0, 0.7344924171356654]","[-0.07500515878200531, 0.10643631219863892, 0.03999999910593033]","[0.0, 0.0, -0.03042418292779103]","[0.026750000193715096, 0.05299999937415123, 0.03999999910593033]","[0.0, 0.0, -0.7347898072320369]","[0.07502105087041855, 0.10642196238040924, 0.03999999910593033]","[0.0, -0.0, 0.028691003185096618]",0.7210432006989256,-3.227818685304683,"(0.0, 0.0, 0.0, 0.0, 0.0, 0.0)",0.5558325671900768,-0.77842604750784,-3.2422602012839143,"(0.0, 0.0, 0.0, 0.0, 0.0, 0.0)",0.07360992294062317,-0.7213108361299082,3.234955630130884,"(0.0, 0.0, 0.0, 0.0, 0.0, 0.0)",-0.5573653507703412,0.7771338289584356,3.2767211924511668,"(0.0, 0.0, 0.0, 0.0, 0.0, 0.0)",-0.07407739542501454,False,,,,,False,,,,
49,Close,,,"(0.010003456009463264, 0.16005529610398603, 0.04567389610019914)","(-0.0011297378697381003, 7.060866228110946e-05, -3.988464411418517e-08)",,"[-0.026750000193715096, 0.05299999937415123, 0.03999999910593033]","[0.0, -0.0, 0.7210432248946826]","[-0.07428213953971863, 0.10708045959472656, 0.03999999910593033]","[0.0, 0.0, -0.05738284539856889]","[0.026750000193715096, 0.05299999937415123, 0.03999999910593033]","[0.0, 0.0, -0.7213108742429458]","[0.07429660856723785, 0.10706773400306702, 0.03999999910593033]","[0.0, -0.0, 0.0558229905847104]",0.708938880629033,-2.905036816774215,"(0.0, 0.0, 0.0, 0.0, 0.0, 0.0)",0.5003668258645501,-0.7905844163893876,-2.9180085315714246,"(0.0, 0.0, 0.0, 0.0, 0.0, 0.0)",0.06632913423961855,-0.7091797525169173,2.911460067117798,"(0.0, 0.0, 0.0, 0.0, 0.0, 0.0)",-0.5017475327577147,0.7894214258858812,2.9490232625869344,"(0.0, 0.0, 0.0, 0.0, 0.0, 0.0)",-0.06675089596581112,False,,,,,False,,,,
50,Close,,,"(0.010001644182078712, 0.16005595153396976, 0.045940321410535084)","(-0.0011271805217326655, 1.767785898679914e-05, -1.508889111938428e-08)",,"[-0.026750000193715096, 0.05299999937415123, 0.03999999910593033]","[0.0, -0.0, 0.7089389671526269]","[-0.07362406700849533, 0.10765182226896286, 0.03999999910593033]","[0.0, 0.0, -0.08164554069303018]","[0.026750000193715096, 0.05299999937415123, 0.03999999910593033]","[0.0, 0.0, -0.7091797033714331]","[0.0736372321844101, 0.10764053463935852, 0.03999999910593033]","[0.0, -0.0, 0.08024167743029369]",0.6980449925661297,-2.6145331350967917,"(0.0, 0.0, 0.0, 0.0, 0.0, 0.0)",0.4504252929298086,-0.8015268519725993,-2.6261845399708146,"(0.0, 0.0, 0.0, 0.0, 0.0, 0.0)",0.059761147909024356,-0.6982617772652256,2.6203140604060167,"(0.0, 0.0, 0.0, 0.0, 0.0, 0.0)",-0.4516689022418484,0.8004801661036254,2.6540976522586175,"(0.0, 0.0, 0.0, 0.0, 0.0, 0.0)",-0.06014157277442886,False,,,,,False,,,,
51,Close,,,"(0.009998458164918766, 0.16005543218265145, 0.046184544665354044)","(-0.001116587313714928, -4.731063982249702e-05, 3.3486629919706074e-09)",,"[-0.026750000193715096, 0.05299999937415123, 0.03999999910593033]","[0.0, -0.0, 0.6980450466292163]","[-0.07302592694759369, 0.10815921425819397, 0.03999999910593033]","[0.0, 0.0, -0.1034818592301779]","[0.026750000193715096, 0.05299999937415123, 0.03999999910593033]","[0.0, 0.0, -0.6982617371246688]","[0.07303788512945175, 0.10814917832612991, 0.03999999910593033]","[0.0, -0.0, 0.10221840210156648]",0.6882404933095168,-2.3530798215871136,"(0.0, 0.0, 0.0, 0.0, 0.0, 0.0)",0.40545980991383274,-0.8113749570468809,-2.3635452178275753,"(0.0, 0.0, 0.0, 0.0, 0.0, 0.0)",0.0538375991228723,-0.688435599538703,2.358282654365416,"(0.0, 0.0, 0.0, 0.0, 0.0, 0.0)",-0.4065798463491374,0.810432944800545,2.3886668872606847,"(0.0, 0.0, 0.0, 0.0, 0.0, 0.0)",-0.0541806611811555,False,,,,,False,,,,
52,Close,,,"(0.0099979269032565, 0.16005188637635104, 0.04640949954916324)","(-0.0010442772263960227, -5.814874739306873e-05, 7.787963860925158e-09)",,"[-0.026750000193715096, 0.05299999937415123, 0.03999999910593033]","[0.0, -0.0, 0.688240548987758]","[-0.07248289883136749, 0.10861026495695114, 0.03999999910593033]","[0.0, 0.0, -0.12313446206189271]","[0.026750000193715096, 0.05299999937415123, 0.03999999910593033]","[0.0, 0.0, -0.6884356086136862]","[0.07249374687671661, 0.10860133916139603, 0.03999999910593033]","[0.0, -0.0, 0.1219973374555316]",0.679416393078237,-2.117784055507141,"(0.0, 0.0, 0.0, 0.0, 0.0, 0.0)",0.3649762140031281,-0.8202374613421928,-2.12700103087486,"(0.0, 0.0, 0.0, 0.0, 0.0, 0.0)",0.04851286211734207,-0.6795919883598663,2.1224666829208143,"(0.0, 0.0, 0.0, 0.0, 0.0, 0.0)",-0.36598488497268467,0.8193896503204905,2.149609324786922,"(0.0, 0.0, 0.0, 0.0, 0.0, 0.0)",-0.04882227338805697,False,,,,,False,,,,
53,Close,,,"(0.009997966950406065, 0.16004795201914346, 0.046616050094935475)","(-0.0009640430328522325, -5.7324486097668704e-05, 4.2980615420070005e-09)",,"[-0.026750000193715096, 0.05299999937415123, 0.03999999910593033]","[0.0, -0.0, 0.6794163791618646]","[-0.07199041545391083, 0.10901165008544922, 0.03999999910593033]","[0.0, 0.0, -0.1408210743259801]","[0.026750000193715096, 0.05299999937415123, 0.03999999910593033]","[0.0, 0.0, -0.6795920181483843]","[0.07200025022029877, 0.1090037003159523, 0.03999999910593033]","[0.0, -0.0, 0.13979766167419433]",0.6714747537704133,-1.9059934338776885,"(0.0, 0.0, 0.0, 0.0, 0.0, 0.0)",0.3285291326313333,-0.8282143561304102,-1.914454749172182,"(0.0, 0.0, 0.0, 0.0, 0.0, 0.0)",0.043663125146434535,-0.6716327895238797,1.9102077206367922,"(0.0, 0.0, 0.0, 0.0, 0.0, 0.0)",-0.3294374536237565,0.8274513303019508,1.934803195550486,"(0.0, 0.0, 0.0, 0.0, 0.0, 0.0)",-0.043941831288343336,False,,,,,False,,,,
54,Close,,,"(0.009998107600018924, 0.16004411888380865, 0.0468059782297436)","(-0.0008858309445970004, -5.447527859797503e-05, 4.128601528647624e-08)",,"[-0.026750000193715096, 0.05299999937415123, 0.03999999910593033]","[0.0, -0.0, 0.6714747449539094]","[-0.07154417037963867, 0.10936915874481201, 0.03999999910593033]","[0.0, 0.0, -0.15673960659097733]","[0.026750000193715096, 0.05299999937415123, 0.03999999910593033]","[0.0, 0.0, -0.6716327690441329]","[0.07155308127403259, 0.10936208069324493, 0.03999999910593033]","[0.0, -0.0, 0.15581855230220754]",0.664327278393372,-1.7153940904899205,"(0.0, 0.0, 0.0, 0.0, 0.0, 0.0)",0.2957170811345372,-0.8353934979980445,-1.7229940482322428,"(0.0, 0.0, 0.0, 0.0, 0.0, 0.0)",0.03934112702889199,-0.6644695105714917,1.7191869485731137,"(0.0, 0.0, 0.0, 0.0, 0.0, 0.0)",-0.2965349881453131,0.8347067784412298,1.7413075534269409,"(0.0, 0.0, 0.0, 0.0, 0.0, 0.0)",-0.039592428071821256,False,,,,,False,,,,
55,Close,,,"(0.009998248644105466, 0.16004048002584464, 0.0469807018618576)","(-0.0008115684428503489, -5.1596750749095254e-05, 7.881188886077776e-08)",,"[-0.026750000193715096, 0.05299999937415123, 0.03999999910593033]","[0.0, -0.0, 0.6643273336690038]","[-0.07114013284444809, 0.10968788713216782, 0.03999999910593033]","[0.0, 0.0, -0.17106622141763456]","[0.026750000193715096, 0.05299999937415123, 0.03999999910593033]","[0.0, 0.0, -0.6644694779113771]","[0.07114819437265396, 0.10968156903982162, 0.03999999910593033]","[0.0, -0.0, 0.17023725548976373]",0.6578945505540348,-1.543854681440929,"(0.0, 0.0, 0.0, 0.0, 0.0, 0.0)",0.2661784897251144,-0.8418546682622772,-1.5506808634158242,"(0.0, 0.0, 0.0, 0.0, 0.0, 0.0)",0.03542959308904228,-0.6580225595143425,1.547268253715802,"(0.0, 0.0, 0.0, 0.0, 0.0, 0.0)",-0.26691494494593054,0.8412366239853526,1.567162930589489,"(0.0, 0.0, 0.0, 0.0, 0.0, 0.0)",-0.035656056287006674,False,,,,,False,,,,
56,Close,,,"(0.009998390752654573, 0.16003702894197389, 0.04714144752999396)","(-0.0007411380797103218, -4.869650481896534e-05, 1.1687517768299383e-07)",,"[-0.026750000193715096, 0.05299999937415123, 0.03999999910593033]","[0.0, -0.0, 0.6578945475257985]","[-0.07077455520629883, 0.1099722608923912, 0.03999999910593033]","[0.0, 0.0, -0.18396012465064338]","[0.026750000193715096, 0.05299999937415123, 0.03999999910593033]","[0.0, 0.0, -0.6580225896942233]","[0.07078184932470322, 0.10996662080287933, 0.03999999910593033]","[0.0, -0.0, 0.18321406389742323]",0.6521050954986313,-1.3894692132968354,"(0.0, 0.0, 0.0, 0.0, 0.0, 0.0)",0.23958744527110798,-0.8476696697618468,-1.395600359896693,"(0.0, 0.0, 0.0, 0.0, 0.0, 0.0)",0.031904902566438624,-0.6522203035629083,1.392541428344221,"(0.0, 0.0, 0.0, 0.0, 0.0, 0.0)",-0.24025052935853647,0.8471134329078756,1.410434141405507,"(0.0, 0.0, 0.0, 0.0, 0.0, 0.0)",-0.032108956045352514,False,,,,,False,,,,
57,Close,,,"(0.009998534235924597, 0.16003375955333046, 0.04728933347451534)","(-0.0006744157946989166, -4.576820860538318e-05, 1.554405829918684e-07)",,"[-0.026750000193715096, 0.05299999937415123, 0.03999999910593033]","[0.0, -0.0, 0.6521051450040646]","[-0.07044398784637451, 0.11022617667913437, 0.03999999910593033]","[0.0, 0.0, -0.19556454293122102]","[0.026750000193715096, 0.05299999937415123, 0.03999999910593033]","[0.0, 0.0, -0.6522203497730787]","[0.07045057415962219, 0.11022114753723145, 0.03999999910593033]","[0.0, -0.0, 0.19489313608724637]",0.6468945859487681,-1.250522291967151,"(0.0, 0.0, 0.0, 0.0, 0.0, 0.0)",0.2156503992603495,-0.8529031244958994,-1.2560291361726517,"(0.0, 0.0, 0.0, 0.0, 0.0, 0.0)",0.02872919688306315,-0.6469982732066174,1.253287285509799,"(0.0, 0.0, 0.0, 0.0, 0.0, 0.0)",-0.2162473971085442,0.8524025140258721,1.2693794683191757,"(0.0, 0.0, 0.0, 0.0, 0.0, 0.0)",-0.02891303657535659,False,,,,,False,,,,
58,Close,,,"(0.009998679410322496, 0.16003066597344334, 0.0474253884764576)","(-0.0006112814540129935, -4.2805404436077314e-05, 1.9447426774393396e-07)",,"[-0.026750000193715096, 0.05299999937415123, 0.03999999910593033]","[0.0, -0.0, 0.6468945636476681]","[-0.07014521211385727, 0.11045306921005249, 0.03999999910593033]","[0.0, 0.0, -0.20600854729134555]","[0.026750000193715096, 0.05299999937415123, 0.03999999910593033]","[0.0, 0.0, -0.6469982503054421]","[0.07015117257833481, 0.11044856905937195, 0.03999999910593033]","[0.0, -0.0, 0.20540423443750838]",0.6422051273538913,-1.125470062770436,"(0.0, 0.0, 0.0, 0.0, 0.0, 0.0)",0.1941029233168818,-0.8576131917611358,-1.1304161436567226,"(0.0, 0.0, 0.0, 0.0, 0.0, 0.0)",0.025868240883426936,-0.6422984458859556,1.1279585569588184,"(0.0, 0.0, 0.0, 0.0, 0.0, 0.0)",-0.19464040126091972,0.8571626447690798,1.1424313783698345,"(0.0, 0.0, 0.0, 0.0, 0.0, 0.0)",-0.026033851694478666,False,,,,,False,,,,
59,Move,,,"(0.009998826598722164, 0.16002774252192944, 0.04755055901421763)","(-0.0005516191299448554, -3.980150267197137e-05, 2.339437659612592e-07)","[0.0, 0.0, 0.0]","[-0.026750000193715096, 0.05299999937415123, 0.03999999910593033]","[0.0, -0.0, 0.6422051137296667]","[-0.0698753148317337, 0.11065594106912613, 0.03999999910593033]","[0.0, 0.0, -0.2154080556264429]","[0.026750000193715096, 0.05299999937415123, 0.03999999910593033]","[0.0, 0.0, -0.6422983956794274]","[0.06988069415092468, 0.1106519103050232, 0.03999999910593033]","[0.0, -0.0, 0.21486417441436167]",0.6379846146185022,-1.0129230564933929,"(0.0, 0.0, 0.0, 0.0, 0.0, 0.0)",0.17470684718642912,-0.8618522144704561,-1.0173654502368856,"(0.0, 0.0, 0.0, 0.0, 0.0, 0.0)",0.023291096758263134,-0.6380686012973601,1.0151627012629356,"(0.0, 0.0, 0.0, 0.0, 0.0, 0.0)",-0.1751907229705418,0.8614467243673204,1.02817910357775,"(0.0, 0.0, 0.0, 0.0, 0.0, 0.0)",-0.023440272040621463,False,,,,,True,"(0.04276013174954747, 0.17974174897294792, 0.02399995643463635)","(-0.9999999990838299, -1.9447426661030803e-07, -4.2805404423670755e-05)",0.0013234533115717422,0.0
60,Move,,,"(0.008529162475457952, 0.15974954236529276, 0.0477048393377401)","(0.0013879222534856654, 0.003092032969080396, 0.019607357714227783)","[-0.001469664123264212, -0.00027820015663668207, 0.00015428032352246546]","[-0.026750000193715096, 0.05299999937415123, 0.03999999910593033]","[0.0, -0.0, 0.6379846501970732]","[-0.06963159143924713, 0.1108374372124672, 0.03999999910593033]","[0.0, 0.0, -0.22386762157269943]","[0.026750000193715096, 0.05299999937415123, 0.03999999910593033]","[0.0, 0.0, -0.638068602671057]","[0.06963644921779633, 0.11083383113145828, 0.03999999910593033]","[0.0, -0.0, 0.22337816170537766]",0.6141590059460926,-5.718146081378292,"(0.0, 0.0, 0.0, 0.0, 0.0, 0.0)",-6.715100343954979,-0.8614283121995241,0.10173654502368734,"(0.0, 0.0, 0.0, 0.0, 0.0, 0.0)",-0.37236374372155323,-0.6186460352886096,4.661415842100123,"(0.0, 0.0, 0.0, 0.0, 0.0, 0.0)",6.428194854706253,0.8610182254653614,-0.10283973647015276,"(0.0, 0.0, 0.0, 0.0, 0.0, 0.0)",0.9829946930619015,False,,,,,True,"(0.041928616181162004, 0.17969877893574898, 0.023999959438538117)","(-0.9999999992078928, -2.3394376620903917e-07, -3.980150265941498e-05)",0.0004918567139684023,10.112171877912418
61,Move,,,"(0.006723996611826882, 0.15936533702962205, 0.047765255621499005)","(6.714398616458164e-05, 0.002674296973039989, 0.04262647064426384)","[-0.0032748299868952824, -0.0006624054923073941, 0.00021469660728137135]","[-0.026750000193715096, 0.05299999937415123, 0.03999999910593033]","[0.0, -0.0, 0.6141590305095613]","[-0.06824154406785965, 0.11184260249137878, 0.03999999910593033]","[0.0, 0.0, -0.24726930604170874]","[0.026750000193715096, 0.05299999937415123, 0.03999999910593033]","[0.0, 0.0, -0.618646044105948]","[0.06850515305995941, 0.1116558387875557, 0.03999999910593033]","[0.0, -0.0, 0.24237220045044397]",0.5923752537221402,-5.228100533748594,"(0.0, 0.0, 0.0, 0.0, 0.0, 0.0)",0.6968351830029317,-0.8614707024266173,-0.010173654502368734,"(0.0, 0.0, 0.0, 0.0, 0.0, 0.0)",0.0386094337653134,-0.6008326176855909,4.2752202247244835,"(0.0, 0.0, 0.0, 0.0, 0.0, 0.0)",-0.2843818339581164,0.8610616731657038,0.010427448082156607,"(0.0, 0.0, 0.0, 0.0, 0.0, 0.0)",0.12162564932151312,False,,,,,True,"(0.03949436769622908, 0.17998210851349686, 0.023999959438538117)","(-0.9999999992078928, -2.3394376620903917e-07, -3.980150265941498e-05)",-6.347605402235445e-06,0.5640853154323047
62,Move,,,"(0.004916021046565853, 0.1589665718711254, 0.047720958898252924)","(-0.002763020338407607, 0.0006108079306357897, 0.0667691707902313)","[-0.005082805552156311, -0.0010611706508040497, 0.00017039988403529105]","[-0.026750000193715096, 0.05299999937415123, 0.03999999910593033]","[0.0, -0.0, 0.5923752994005711]","[-0.0669499859213829, 0.1127324104309082, 0.03999999910593033]","[0.0, 0.0, -0.2690954538189607]","[0.026750000193715096, 0.05299999937415123, 0.03999999910593033]","[0.0, 0.0, -0.6008327423896315]","[0.06745371967554092, 0.11239029467105865, 0.03999999910593033]","[0.0, -0.0, 0.2602290700881579]",0.5712150347036751,-5.078452564431617,"(0.0, 0.0, 0.0, 0.0, 0.0, 0.0)",0.2157952503283588,-0.861466463403908,0.0010173654502363396,"(0.0, 0.0, 0.0, 0.0, 0.0, 0.0)",0.016130538686302622,-0.5829836595254625,4.283749958430823,"(0.0, 0.0, 0.0, 0.0, 0.0, 0.0)",0.03654686188668907,0.8610568520052067,-0.0011570785193177847,"(0.0, 0.0, 0.0, 0.0, 0.0, 0.0)",0.013369392840733865,False,,,,,True,"(0.03722753437306846, 0.1801876577450428, 0.023999959438538117)","(-0.9999999992078928, -2.3394376620903917e-07, -3.980150265941498e-05)",-3.03090440028451e-06,0.20086448022229916
63,Move,,,"(0.003038586218639499, 0.15852968790700625, 0.047692659289474)","(-0.0025911153149836925, -0.0037098076030427207, 0.0892309075356073)","[-0.006960240380082665, -0.0014980546149231944, 0.00014210027525636548]","[-0.026750000193715096, 0.05299999937415123, 0.03999999910593033]","[0.0, -0.0, 0.5712149816841382]","[-0.06567712873220444, 0.11356961727142334, 0.03999999910593033]","[0.0, 0.0, -0.2902514434627483]","[0.026750000193715096, 0.05299999937415123, 0.03999999910593033]","[0.0, 0.0, -0.5829835823925363]","[0.06638723611831665, 0.11310731619596481, 0.03999999910593033]","[0.0, -0.0, 0.27807322292986936]",0.5508803967687295,-4.88031310438695,"(0.0, 0.0, 0.0, 0.0, 0.0, 0.0)",0.28503070876654335,-0.8614668873061792,-0.0001017365450710142,"(0.0, 0.0, 0.0, 0.0, 0.0, 0.0)",0.019917833408555515,-0.5651641840502668,4.2766741140469655,"(0.0, 0.0, 0.0, 0.0, 0.0, 0.0)",0.11956537689041521,0.8610565492790112,-7.265428690530302e-05,"(0.0, 0.0, 0.0, 0.0, 0.0, 0.0)",0.07009334439305036,False,,,,,True,"(0.03495614298930945, 0.18035455290140667, 0.023999959438538117)","(-0.9999999992078928, -2.3394376620903917e-07, -3.980150265941498e-05)",-3.483078081115776e-06,1.0531113700940868
64,Move,,,"(0.0020261779141126004, 0.159147963083264, 0.04760521211159295)","(0.002583370481578668, -0.003056729446151124, 0.09297246090683914)","[-0.007972648684609564, -0.0008797794386654345, 5.465309737531787e-05]","[-0.026750000193715096, 0.05299999937415123, 0.03999999910593033]","[0.0, -0.0, 0.5508804375563766]","[-0.06443750858306885, 0.11434861272573471, 0.03999999910593033]","[0.0, 0.0, -0.31058647044401844]","[0.026750000193715096, 0.05299999937415123, 0.03999999910593033]","[0.0, 0.0, -0.5651641731913941]","[0.06530991941690445, 0.11380404978990555, 0.03999999910593033]","[0.0, -0.0, 0.2958923811960855]",0.5325313952836437,-4.403760356420582,"(0.0, 0.0, 0.0, 0.0, 0.0, 0.0)",-38.47384383842257,-0.8434648155280273,4.320497226756436,"(0.0, 0.0, 0.0, 0.0, 0.0, 0.0)",-19.707773442051234,-0.5485203526437034,3.9945195375752336,"(0.0, 0.0, 0.0, 0.0, 0.0, 0.0)",38.40865227596146,0.8426940994674212,-4.406987954781599,"(0.0, 0.0, 0.0, 0.0, 0.0, 0.0)",20.213574547080277,True,"(-0.030837162206202397, 0.1807147684040986, 0.056003710559052795)","(0.9960147094140643, 0.08911192973728252, 0.0037097990935676286)",0.000295955962769222,310.9113148279181,True,"(0.032686946379462796, 0.18046390406811386, 0.023996289440947206)","(-0.9960147094140644, -0.08911192973728094, -0.0037097990935709194)",-4.010570765232737e-05,237.4598751600436
65,Move,"(-0.0032, 0.0, 0.0006)","(0.0, 0.012639674442942934, 0.0)","(0.0011700253639096666, 0.15976182515520135, 0.04751897038725052)","(0.007930122363363799, -0.00226657279137191, 0.09692309735704685)","[-0.008828801234812498, -0.00026591736672809674, -3.1588626967116173e-05]","[-0.026750000193715096, 0.05299999937415123, 0.03999999910593033]","[0.0, -0.0, 0.5325313658465014]","[-0.06330554187297821, 0.11502977460622787, 0.03999999910593033]","[0.0, 0.0, -0.3109334583254266]","[0.026750000193715096, 0.05299999937415123, 0.03999999910593033]","[0.0, 0.0, -0.548520392495979]","[0.06429261714220047, 0.11443737894296646, 0.03999999910593033]","[0.0, -0.0, 0.2941737789306636]",0.5150286261073844,-4.20066460230223,"(0.0, 0.0, 0.0, 0.0, 0.0, 0.0)",-43.15160519850692,-0.8255232606133882,4.305973179513399,"(0.0, 0.0, 0.0, 0.0, 0.0, 0.0)",-22.03627704391551,-0.5318939745440465,3.990330743917647,"(0.0, 0.0, 0.0, 0.0, 0.0, 0.0)",43.6676935048907,0.8241209847892994,-4.457547522749228,"(0.0, 0.0, 0.0, 0.0, 0.0, 0.0)",23.068483497500033,True,"(-0.02968254207398162, 0.18138834120873254, 0.056003057484645)","(0.9956765214355997, 0.09283814461792712, 0.0030567246857756626)",-0.0019557974209563206,339.7172576639441,True,"(0.03178474084630808, 0.1811477674564546, 0.02399694251535476)","(-0.9956765214355902, -0.0928381446180211, -0.0030567246860136047)",0.00016315936690381586,263.2480870713977
66,Move,"(-0.005, 0.0, 0.0014)","(0.0, 0.04146204171037729, 0.0)","(0.0012996474485826367, 0.160123684709886, 0.04749431049930604)","(0.005651973040255026, 0.0009855640255710145, 0.09247020409207049)","[-0.008699179150139527, 9.594218795655474e-05, -5.624851491159433e-05]","[-0.026750000193715096, 0.05299999937415123, 0.03999999910593033]","[0.0, -0.0, 0.5150286173626178]","[-0.06221430376172066, 0.11566006392240524, 0.03999999910593033]","[0.0, 0.0, -0.3104946497228739]","[0.026750000193715096, 0.05299999937415123, 0.03999999910593033]","[0.0, 0.0, -0.5318939608755999]","[0.06326599419116974, 0.11505305767059326, 0.03999999910593033]","[0.0, -0.0, 0.2922270319249003]",0.5160041450646461,0.23412454974280728,"(0.0, 0.0, 0.0, 0.0, 0.0, 0.0)",5.275277042551588,-0.8273169726522872,-0.4304908893357595,"(0.0, 0.0, 0.0, 0.0, 0.0, 0.0)",-0.3908732447980071,-0.534563210627796,-0.6406166600998757,"(0.0, 0.0, 0.0, 0.0, 0.0, 0.0)",-6.212685418331064,0.8259782962570562,0.44575475226162453,"(0.0, 0.0, 0.0, 0.0, 0.0, 0.0)",0.028259938223982994,True,"(-0.02862075758073663, 0.18203687365922727, 0.05600226731562215)","(0.9953040758649819, 0.09677116937979674, 0.0022665708506747376)",-0.003960922893090458,5.3041315529271085,True,"(0.03091578949574346, 0.18154523231783662, 0.023997716044379027)","(-0.9953040509812058, -0.09677103449881742, -0.0022831956617496516)",0.00022377337919692118,0.0
67,Move,"(-0.0057, 0.0, 0.00368)","(0.0, 0.09210800594474876, 0.0)","(0.0014564734819349646, 0.1605152449262057, 0.04751156463227268)","(0.0018043444674801094, 0.0008977705766910439, 0.08618145502733879)","[-0.0085423531167872, 0.00048750240427625213, -3.899438194495536e-05]","[-0.026750000193715096, 0.05299999937415123, 0.03999999910593033]","[0.0, -0.0, 0.5160041772493829]","[-0.06227541342377663, 0.11562543362379074, 0.03999999910593033]","[0.0, 0.0, -0.3113128910150979]","[0.026750000193715096, 0.05299999937415123, 0.03999999910593033]","[0.0, 0.0, -0.5345631797576199]","[0.06343149393796921, 0.1149553656578064, 0.03999999910593033]","[0.0, -0.0, 0.29141505289926245]",0.5154912340733215,-0.12309863791788314,"(0.0, 0.0, 0.0, 0.0, 0.0, 0.0)",-0.5487871669668529,-0.8271384576138348,0.04284360922859054,"(0.0, 0.0, 0.0, 0.0, 0.0, 0.0)",-0.028919396157472015,-0.5350903602291042,-0.1265159043139752,"(0.0, 0.0, 0.0, 0.0, 0.0, 0.0)",0.6952999435399176,0.8257925651368705,-0.04457546884457586,"(0.0, 0.0, 0.0, 0.0, 0.0, 0.0)",0.002467265574551587,True,"(-0.028627568975114356, 0.1819747395292381, 0.05600226731562215)","(0.9953040758649819, 0.09677116937979674, 0.0022665708506747376)",-0.0036444262257656892,0.0,True,"(0.031135290769652338, 0.18147378557638855, 0.023997716044379027)","(-0.9953040509812058, -0.09677103449881742, -0.0022831956617496516)",0.0002652162099176831,0.0
68,Move,"(-0.0078714, 0.0, 0.0051429)","(0.0, 0.10145598941843037, 0.0)","(0.0015403271690448408, 0.16058357594534184, 0.047566787343249976)","(-8.194864104829216e-05, 0.0013883184162574113, 0.08561748521355217)","[-0.008458499429677323, 0.0005558334234123941, 1.6228329032343114e-05]","[-0.026750000193715096, 0.05299999937415123, 0.03999999910593033]","[0.0, -0.0, 0.515491256231444]","[-0.06224328652024269, 0.11564365029335022, 0.03999999910593033]","[0.0, 0.0, -0.31164724694365087]","[0.026750000193715096, 0.05299999937415123, 0.03999999910593033]","[0.0, 0.0, -0.5350903596501678]","[0.06346414983272552, 0.11493602395057678, 0.03999999910593033]","[0.0, -0.0, 0.29070218916264945]",0.5151389634404341,-0.08454495189297809,"(0.0, 0.0, 0.0, 0.0, 0.0, 0.0)",-2.7538206130920906,-0.8258238506588081,0.31550566920638645,"(0.0, 0.0, 0.0, 0.0, 0.0, 0.0)",-1.40122484208131,-0.5353038538372793,-0.05123846596203274,"(0.0, 0.0, 0.0, 0.0, 0.0, 0.0)",2.749942292114061,0.824631379034911,-0.278684664470286,"(0.0, 0.0, 0.0, 0.0, 0.0, 0.0)",1.3654600475987761,True,"(-0.028573257972383026, 0.18198169725312557, 0.05600226731562215)","(0.9953040758649819, 0.09677116937979674, 0.0022665708506747376)",-0.0033466728276279997,19.88137905528908,True,"(0.031215373318733655, 0.18147744677101454, 0.023997716044379027)","(-0.9953040509812058, -0.09677103449881742, -0.0022831956617496516)",3.397772804013969e-05,13.33504349435811
69,Move,"(-0.0097444, 0.0, 0.0062556)","(0.0, 0.09612575388283973, 0.0)","(0.0015530000149654554, 0.16063469708267983, 0.047666216362399226)","(-0.0006548779046806637, 0.00190572872229627, 0.08532625154940962)","[-0.00844582658375671, 0.0006069545607503835, 0.00011565734818159285]","[-0.026750000193715096, 0.05299999937415123, 0.03999999910593033]","[0.0, -0.0, 0.5151390141867719]","[-0.0622212179005146, 0.11565614491701126, 0.03999999910593033]","[0.0, 0.0, -0.3106849162762633]","[0.026750000193715096, 0.05299999937415123, 0.03999999910593033]","[0.0, 0.0, -0.5353038735982176]","[0.06347737461328506, 0.11492818593978882, 0.03999999910593033]","[0.0, -0.0, 0.2893275171656288]",0.5153817627329694,0.058271830208492054,"(0.0, 0.0, 0.0, 0.0, 0.0, 0.0)",-2.6324920793660795,-0.8247651089566028,0.2540980085292867,"(0.0, 0.0, 0.0, 0.0, 0.0, 0.0)",-1.2956838515331834,-0.5350867809736486,0.05209748727137621,"(0.0, 0.0, 0.0, 0.0, 0.0, 0.0)",2.5545724570122927,0.8236437537936769,-0.2370300578961746,"(0.0, 0.0, 0.0, 0.0, 0.0, 0.0)",1.2681154243272437,True,"(-0.028615043348219654, 0.18202656777685786, 0.05600226731562215)","(0.9953040758649819, 0.09677116937979674, 0.0022665708506747376)",-0.0032007008989098193,20.0937962608358,True,"(0.03132009901301923, 0.18151387597689334, 0.023997716044379027)","(-0.9953040509812058, -0.09677103449881742, -0.0022831956617496516)",5.3528870716114796e-05,9.981981540413875
70,Move,"(-0.0112, 0.0, 0.0073636)","(0.0, 0.08374613349844393, 0.0)","(0.0015531617254060748, 0.16067189119110528, 0.04775313355826917)","(-0.0012300124026914368, 0.0020459792857253716, 0.0851862658128524)","[-0.00844566487331609, 0.0006441486691758369, 0.00020257454405153696]","[-0.026750000193715096, 0.05299999937415123, 0.03999999910593033]","[0.0, -0.0, 0.5153818119638157]","[-0.06223642826080322, 0.11564753204584122, 0.03999999910593033]","[0.0, 0.0, -0.30938333450076155]","[0.026750000193715096, 0.05299999937415123, 0.03999999910593033]","[0.0, 0.0, -0.5350867994254115]","[0.06346392631530762, 0.11493615806102753, 0.03999999910593033]","[0.0, -0.0, 0.28855695571173867]",0.5159888332276865,0.14569691873211385,"(0.0, 0.0, 0.0, 0.0, 0.0, 0.0)",-2.1206872053223984,-0.8239536049583217,0.19476095958747888,"(0.0, 0.0, 0.0, 0.0, 0.0, 0.0)",-1.0079944246427892,-0.5344932767497138,0.14244101374435214,"(0.0, 0.0, 0.0, 0.0, 0.0, 0.0)",2.328202053381138,0.8227259355921374,-0.2202763683694948,"(0.0, 0.0, 0.0, 0.0, 0.0, 0.0)",1.159513894685593,True,"(-0.02871666743392723, 0.18206163712736295, 0.05600226731562215)","(0.9953040758649819, 0.09677116937979674, 0.0022665708506747376)",-0.0030733653316274744,16.502561646585708,True,"(0.031357972524063596, 0.18154660612827397, 0.023997716044379027)","(-0.9953040509812058, -0.09677103449881742, -0.0022831956617496516)",8.383912677508412e-05,8.156543488625426
71,Move,"(-0.0123923, 0.0, 0.0085077)","(0.0, 0.07353770270352909, 0.0)","(0.0015285876631813816, 0.16069860196530233, 0.04782861129472475)","(-0.0018029329807262254, 0.0017351445309009901, 0.08493516875719982)","[-0.008470238935540783, 0.0006708594433728898, 0.0002780522805071184]","[-0.026750000193715096, 0.05299999937415123, 0.03999999910593033]","[0.0, -0.0, 0.5159888504066893]","[-0.06227445229887962, 0.11562597751617432, 0.03999999910593033]","[0.0, 0.0, -0.30796482216243287]","[0.026750000193715096, 0.05299999937415123, 0.03999999910593033]","[0.0, 0.0, -0.5344932804873214]","[0.0634271651506424, 0.11495793610811234, 0.03999999910593033]","[0.0, -0.0, 0.28823265226447364]",0.5168655080931,0.2104019676992309,"(0.0, 0.0, 0.0, 0.0, 0.0, 0.0)",-1.7292913111615698,-0.823290713111536,0.1590940432285563,"(0.0, 0.0, 0.0, 0.0, 0.0, 0.0)",-0.8106540444805695,-0.5336566761013236,0.20078415561363364,"(0.0, 0.0, 0.0, 0.0, 0.0, 0.0)",2.357529922626387,0.8217580359256906,-0.2322959199472084,"(0.0, 0.0, 0.0, 0.0, 0.0, 0.0)",1.1857730637056398,True,"(-0.028848939410604152, 0.18208756625864675, 0.05600226731562215)","(0.9953040758649819, 0.09677116937979674, 0.0022665708506747376)",-0.002935517301832897,14.387118957852948,True,"(0.03134281107841456, 0.18157879399853788, 0.023997716044379027)","(-0.9953040509812058, -0.09677103449881742, -0.0022831956617496516)",6.890946307982499e-05,9.393860185496443
72,Move,"(-0.014066700000000001, 0.0, 0.0096867)","(0.0, 0.06776415353793186, 0.0)","(0.0014684884592527448, 0.16072215582027777, 0.04790003626777934)","(-0.0023518786567137983, 0.0012875872338292298, 0.08462364515355367)","[-0.00853033813946942, 0.0006944132983483231, 0.00034947725356170717]","[-0.026750000193715096, 0.05299999937415123, 0.03999999910593033]","[0.0, -0.0, 0.5168655270453545]","[-0.06232934072613716, 0.11559481173753738, 0.03999999910593033]","[0.0, 0.0, -0.3064251905752852]","[0.026750000193715096, 0.05299999937415123, 0.03999999910593033]","[0.0, 0.0, -0.5336567217612457]","[0.0633753165602684, 0.11498859524726868, 0.03999999910593033]","[0.0, -0.0, 0.2881013266316609]",0.5179697822664889,0.2650258016133525,"(0.0, 0.0, 0.0, 0.0, 0.0, 0.0)",-1.5746255733921362,-0.8226659719986976,0.14993786708121382,"(0.0, 0.0, 0.0, 0.0, 0.0, 0.0)",-0.7272185320388673,-0.5326113233207997,0.2508846673257288,"(0.0, 0.0, 0.0, 0.0, 0.0, 0.0)",2.404702842511887,0.8207578341043577,-0.24004843711992574,"(0.0, 0.0, 0.0, 0.0, 0.0, 0.0)",1.233612478229391,True,"(-0.02900618999468197, 0.18210778082373902, 0.05600226731562215)","(0.9953040758649819, 0.09677116937979674, 0.0022665708506747376)",-0.0027988865392556206,13.578821388151031,True,"(0.03129971173113256, 0.18161366852173513, 0.023997716044379027)","(-0.9953040509812058, -0.09677103449881742, -0.0022831956617496516)",3.929491684392711e-05,11.321710998081274
73,Move,"(-0.0175667, 0.0, 0.0117867)","(0.0, 0.06492275751568509, 0.0)","(0.001364234455541824, 0.1607433974162647, 0.04797109362400885)","(-0.0028982608949813895, 0.0008729530169048319, 0.08454878510106757)","[-0.00863459214318034, 0.0007156548943352548, 0.0004205346097912177]","[-0.026750000193715096, 0.05299999937415123, 0.03999999910593033]","[0.0, -0.0, 0.5179697997596129]","[-0.06239844113588333, 0.11555548757314682, 0.03999999910593033]","[0.0, 0.0, -0.3046961910731932]","[0.026750000193715096, 0.05299999937415123, 0.03999999910593033]","[0.0, 0.0, -0.5326113544740297]","[0.06331049650907516, 0.11502684652805328, 0.03999999910593033]","[0.0, -0.0, 0.28814653780725574]",0.5194096947643544,0.3455789994877228,"(0.0, 0.0, 0.0, 0.0, 0.0, 0.0)",-1.4701416812446173,-0.8220761847839114,0.1415489315486914,"(0.0, 0.0, 0.0, 0.0, 0.0, 0.0)",-0.6822594803042247,-0.5312289235332914,0.3317759490019962,"(0.0, 0.0, 0.0, 0.0, 0.0, 0.0)",2.3975638508785666,0.8197692308598818,-0.23726477867418233,"(0.0, 0.0, 0.0, 0.0, 0.0, 0.0)",1.230879915328274,True,"(-0.029190341814372564, 0.18212597010904916, 0.05600226731562215)","(0.9953040758649819, 0.09677116937979674, 0.0022665708506747376)",-0.002670548118892888,13.123927470738428,True,"(0.031231883626239992, 0.18165047271021428, 0.023997716044379027)","(-0.9953040509812058, -0.09677103449881742, -0.0022831956617496516)",1.655881498353323e-05,12.756389129976483
74,Move,"(-0.021480000000000003, 0.0, 0.0133933)","(0.0, 0.05091474493917858, 0.0)","(0.0011709250002090667, 0.1607619186198545, 0.048041538511235174)","(-0.0034613779057257638, 0.0005069459239358943, 0.08499048503259146)","[-0.008827901598513098, 0.00073417609792506, 0.0004909794970175407]","[-0.026750000193715096, 0.05299999937415123, 0.03999999910593033]","[0.0, -0.0, 0.5194097607076439]","[-0.062488481402397156, 0.11550408601760864, 0.03999999910593033]","[0.0, 0.0, -0.302666492691605]","[0.026750000193715096, 0.05299999937415123, 0.03999999910593033]","[0.0, 0.0, -0.5312288858112467]","[0.06322471797466278, 0.11507733166217804, 0.03999999910593033]","[0.0, -0.0, 0.2885402959014914]",0.521571522713654,0.5188387078319049,"(0.0, 0.0, 0.0, 0.0, 0.0, 0.0)",-1.2861026159958435,-0.8215167807278234,0.134256973461123,"(0.0, 0.0, 0.0, 0.0, 0.0, 0.0)",-0.6306207178744392,-0.5291044659353241,0.5098698235121553,"(0.0, 0.0, 0.0, 0.0, 0.0, 0.0)",2.539585090049822,0.8187448278625992,-0.24585671934785158,"(0.0, 0.0, 0.0, 0.0, 0.0, 0.0)",1.2795829760261204,True,"(-0.029415565657834576, 0.18214183994071392, 0.05600226731562215)","(0.9953040758649819, 0.09677116937979674, 0.0022665708506747376)",-0.002551021390122747,12.835997945864028,True,"(0.031119869151491043, 0.1816883170374643, 0.023997716044379027)","(-0.9953040509812058, -0.09677103449881742, -0.0022831956617496516)",-7.933425703487948e-07,13.93435772300009
75,Move,"(-0.025206700000000002, 0.0, 0.0142933)","(0.0, 0.0352120176589856, 0.0)","(0.0008871017515910253, 0.16077715104373033, 0.04811072644067973)","(-0.004028406004511157, 0.0001958307859482303, 0.08599693260250577)","[-0.00911172484713114, 0.0007494085218008872, 0.0005601674264620951]","[-0.026750000193715096, 0.05299999937415123, 0.03999999910593033]","[0.0, -0.0, 0.5215715990423919]","[-0.0626235157251358, 0.1154266819357872, 0.03999999910593033]","[0.0, 0.0, -0.2999452536643701]","[0.026750000193715096, 0.05299999937415123, 0.03999999910593033]","[0.0, 0.0, -0.5291044573114434]","[0.06309275329113007, 0.1151546835899353, 0.03999999910593033]","[0.0, -0.0, 0.28964036588135833]",0.5244794873039529,0.6979115016717139,"(0.0, 0.0, 0.0, 0.0, 0.0, 0.0)",-1.2566643681129088,-0.8209809247862084,0.1286054259876032,"(0.0, 0.0, 0.0, 0.0, 0.0, 0.0)",-0.6039940618058104,-0.5262189836887872,0.6925157391688562,"(0.0, 0.0, 0.0, 0.0, 0.0, 0.0)",2.5386440518795452,0.8176915236919042,-0.2527930009667788,"(0.0, 0.0, 0.0, 0.0, 0.0, 0.0)",1.3154033242838612,True,"(-0.02973206413851035, 0.1821541857317695, 0.05600226731562215)","(0.9953040758649819, 0.09677116937979674, 0.0022665708506747376)",-0.0024419735465084735,12.72990405746088,True,"(0.030914650000341493, 0.18173030849872812, 0.023997716044379027)","(-0.9953040509812058, -0.09677103449881742, -0.0022831956617496516)",-1.1067933320444766e-05,14.346456900945926
76,Move,"(-0.02928, 0.0, 0.015113300000000001)","(0.0, 0.02847679207553948, 0.0)","(0.000522015558412992, 0.16078811372120674, 0.048177288599443174)","(-0.00458737945503781, -6.560762512405868e-05, 0.08753362922294462)","[-0.009476811040309173, 0.0007603711992772988, 0.0006267295852255411]","[-0.026750000193715096, 0.05299999937415123, 0.03999999910593033]","[0.0, -0.0, 0.524479498392607]","[-0.06280490010976791, 0.11532209813594818, 0.03999999910593033]","[0.0, 0.0, -0.29650145632356767]","[0.026750000193715096, 0.05299999937415123, 0.03999999910593033]","[0.0, 0.0, -0.5262189137547633]","[0.06291325390338898, 0.11525928974151611, 0.03999999910593033]","[0.0, -0.0, 0.2914725125815501]",0.528051400347508,0.8572591304532127,"(0.0, 0.0, 0.0, 0.0, 0.0, 0.0)",-1.2865767264117762,-0.8204566039496561,0.12583700077255947,"(0.0, 0.0, 0.0, 0.0, 0.0, 0.0)",-0.5936687935049807,-0.5226389293962002,0.8592130302208701,"(0.0, 0.0, 0.0, 0.0, 0.0, 0.0)",2.5149592016575784,0.8166083749969799,-0.2599556867818236,"(0.0, 0.0, 0.0, 0.0, 0.0, 0.0)",1.3467400928378055,True,"(-0.03014343892330086, 0.18216247936131472, 0.05600226731562215)","(0.9953040758649819, 0.09677116937979674, 0.0022665708506747376)",-0.002342442940014932,12.799410958811551,True,"(0.030613228398704978, 0.18177584824742193, 0.023997716044379027)","(-0.9953040509812058, -0.09677103449881742, -0.0022831956617496516)",-1.4777404373756345e-05,14.074782875829081
77,Move,"(-0.03318, 0.0, 0.0156267)","(0.0, 0.02938959927433252, 0.0)","(6.928590864884197e-05, 0.16079168872332947, 0.048241847503700266)","(-0.005135087908742254, -0.0002834864472975563, 0.08971371896938364)","[-0.009929540690073322, 0.0007639462014000231, 0.0006912884894826332]","[-0.026750000193715096, 0.05299999937415123, 0.03999999910593033]","[0.0, -0.0, 0.5280513871691308]","[-0.0630272775888443, 0.11519291996955872, 0.03999999910593033]","[0.0, 0.0, -0.2924052126928016]","[0.026750000193715096, 0.05299999937415123, 0.03999999910593033]","[0.0, 0.0, -0.5226388957233872]","[0.0626901313662529, 0.11538835614919662, 0.03999999910593033]","[0.0, -0.0, 0.29396942731208736]",0.5323521108651393,1.0321705242315213,"(0.0, 0.0, 0.0, 0.0, 0.0, 0.0)",-1.3068854676240513,-0.8199197057484428,0.1288555682912182,"(0.0, 0.0, 0.0, 0.0, 0.0, 0.0)",-0.6038426625825835,-0.5182676288199388,1.0491121383027147,"(0.0, 0.0, 0.0, 0.0, 0.0, 0.0)",2.583904806771879,0.81549766524812,-0.2665703397264008,"(0.0, 0.0, 0.0, 0.0, 0.0, 0.0)",1.384157286079664,True,"(-0.030637104062621247, 0.1821391879815531, 0.056000058559116654)","(0.9961713752897902, 0.087421889414997, 6.56076222942976e-05)",-0.0022642415364197183,13.197096914590494,True,"(0.030195412017402314, 0.1821105924505746, 0.023999933632415697)","(-0.9961713752894025, -0.08742188941941287, -6.560762507553724e-05)",-1.4746776998701808e-05,14.18638259409905
78,Move,"(-0.0374467, 0.0, 0.0154667)","(0.0, 0.03503573940453419, 0.0)","(-0.0004640903253553071, 0.16078910491782125, 0.048307478481249284)","(-0.005698327081253363, -0.0004914067619605483, 0.09251715120170169)","[-0.010462916924077472, 0.000761362395891807, 0.0007569194670316512]","[-0.026750000193715096, 0.05299999937415123, 0.03999999910593033]","[0.0, -0.0, 0.5323521507594994]","[-0.063294418156147, 0.11503632366657257, 0.03999999910593033]","[0.0, 0.0, -0.28756760714763896]","[0.026750000193715096, 0.05299999937415123, 0.03999999910593033]","[0.0, 0.0, -0.5182676856323163]","[0.06241707131266594, 0.1155448630452156, 0.03999999910593033]","[0.0, -0.0, 0.2972300190051044]",0.537320750259948,1.1924734547540707,"(0.0, 0.0, 0.0, 0.0, 0.0, 0.0)",-1.3462986326041313,-0.8193783451231738,0.1299265500645635,"(0.0, 0.0, 0.0, 0.0, 0.0, 0.0)",-0.608607795597791,-0.5131430908708008,1.2298891077931287,"(0.0, 0.0, 0.0, 0.0, 0.0, 0.0)",2.583809472436952,0.8143772709349142,-0.268894635169389,"(0.0, 0.0, 0.0, 0.0, 0.0, 0.0)",1.4078373611091919,True,"(-0.031228237510674217, 0.18213585577777364, 0.05600028424860942)","(0.9959783827020878, 0.08959341954390335, 0.0002834864435003678)",-0.0021798396634501306,13.380540215244126,True,"(0.029704873111338292, 0.18216187063731978, 0.023999715753597276)","(-0.9959783827020876, -0.0895934195439041, -0.0002834864434979944)",-1.2840525045945427e-05,14.652396057495576
79,Move,"(-0.0414933, 0.0, 0.0149867)","(0.0, 0.0413416139919897, 0.0)","(-0.0011322806753295354, 0.16080443460140384, 0.04835195043651978)","(-0.006951565940825731, 6.939335737673025e-05, 0.09435149704355833)","[-0.0111311072740517, 0.0007766920794743948, 0.0008013914223021501]","[-0.026750000193715096, 0.05299999937415123, 0.03999999910593033]","[0.0, -0.0, 0.5373207450485139]","[-0.06360220164060593, 0.11485398560762405, 0.03999999910593033]","[0.0, 0.0, -0.2820576040103844]","[0.026750000193715096, 0.05299999937415123, 0.03999999910593033]","[0.0, 0.0, -0.5131430974852763]","[0.062096092849969864, 0.11572682112455368, 0.03999999910593033]","[0.0, -0.0, 0.30123417421207266]",0.543024541695255,1.3689099444736872,"(0.0, 0.0, 0.0, 0.0, 0.0, 0.0)",-1.6645168412383513,-0.8186848807578072,0.16643144768797197,"(0.0, 0.0, 0.0, 0.0, 0.0, 0.0)",-0.7630102680829746,-0.5071742286793536,1.4325269259473274,"(0.0, 0.0, 0.0, 0.0, 0.0, 0.0)",2.6763635463270683,0.8132209802051716,-0.277509775138223,"(0.0, 0.0, 0.0, 0.0, 0.0, 0.0)",1.461495867152561,True,"(-0.03190597096059633, 0.18212648510101428, 0.056000492136582244)","(0.99572321992727, 0.09238521427741245, 0.0004914067421814401)",-0.0021046283082739137,13.92700510328118,True,"(0.029117299986103053, 0.18221350334575678, 0.02399950783329859)","(-0.9957232199272705, -0.09238521427740463, -0.0004914067421812879)",-1.477034612938415e-05,13.703273072924086
80,Move,"(-0.0447133, 0.0, 0.01436)","(0.0, 0.04943819639199137, 0.0)","(-0.001848016052377023, 0.16079096403895876, 0.048414507613542435)","(-0.00751691389391946, -0.00011023150651982578, 0.0978511769859029)","[-0.011846842651099188, 0.0007632215170293166, 0.0008639485993248014]","[-0.026750000193715096, 0.05299999937415123, 0.03999999910593033]","[0.0, -0.0, 0.5430246086873695]","[-0.06395440548658371, 0.11464278399944305, 0.03999999910593033]","[0.0, 0.0, -0.2756603517355083]","[0.026750000193715096, 0.05299999937415123, 0.03999999910593033]","[0.0, 0.0, -0.5071742098406933]","[0.06172105669975281, 0.11593667417764664, 0.03999999910593033]","[0.0, -0.0, 0.3060467473179362]",0.5493674225737404,1.5222914108364773,"(0.0, 0.0, 0.0, 0.0, 0.0, 0.0)",-1.49492519287413,-0.8181083778229035,0.13836070437689793,"(0.0, 0.0, 0.0, 0.0, 0.0, 0.0)",-0.6633551334663532,-0.5004214676511555,1.6206626467675536,"(0.0, 0.0, 0.0, 0.0, 0.0, 0.0)",2.7416835910292643,0.81199611656544,-0.29396727353558105,"(0.0, 0.0, 0.0, 0.0, 0.0, 0.0)",1.5162052424617367,True,"(-0.03268917685582733, 0.1821166737738468, 0.056000492136582244)","(0.99572321992727, 0.09238521427741245, 0.0004914067421814401)",-0.0020277157085481744,14.269462089496237,True,"(0.028422676053179427, 0.1822638785315273, 0.02399950783329859)","(-0.9957232199272705, -0.09238521427740463, -0.0004914067421812879)",9.899083946819037e-06,14.499189809017826
81,Move,"(-0.04772, 0.0, 0.013800000000000002)","(0.0, 0.05862037358673354, 0.0)","(-0.002633664111540875, 0.16077046827908575, 0.04847631679025563)","(-0.008119592754284874, -0.0003173660519596078, 0.10146222495377699)","[-0.012632490710263039, 0.0007427257571563095, 0.000925757776037997]","[-0.026750000193715096, 0.05299999937415123, 0.03999999910593033]","[0.0, -0.0, 0.5493675174810109]","[-0.06434464454650879, 0.114405557513237, 0.03999999910593033]","[0.0, 0.0, -0.26874095473206505]","[0.026750000193715096, 0.05299999937415123, 0.03999999910593033]","[0.0, 0.0, -0.5004214725126197]","[0.061295267194509506, 0.11617138981819153, 0.03999999910593033]","[0.0, -0.0, 0.3115746133916732]",0.5561549043942337,1.6289956369183898,"(0.0, 0.0, 0.0, 0.0, 0.0, 0.0)",-1.6897029340943033,-0.8174830924194678,0.15006849682456427,"(0.0, 0.0, 0.0, 0.0, 0.0, 0.0)",-0.7163458229602683,-0.49310231709589414,1.75659613326272,"(0.0, 0.0, 0.0, 0.0, 0.0, 0.0)",2.8439478851857607,0.8106968282948926,-0.3118291849313686,"(0.0, 0.0, 0.0, 0.0, 0.0, 0.0)",1.6133912432123267,True,"(-0.03354622947775436, 0.18208623032811133, 0.05600011099146554)","(0.9952163862244464, 0.0976950993620903, 0.00011023150631744891)",-0.0019716980094115952,15.535305981074298,True,"(0.027630244584330214, 0.18231849172621664, 0.02399988900853448)","(-0.9952163862244658, -0.09769509936189208, -0.00011023150629737629)",6.906234404792873e-07,16.170192187242698
82,Move,"(-0.05056, 0.0, 0.013273300000000002)","(0.0, 0.06570291969132654, 0.0)","(-0.003522098739196576, 0.16079056775004416, 0.04854802197599944)","(-0.010789387376862152, 0.0002718727640506307, 0.10410225393060205)","[-0.013520925337918741, 0.0007628252281147163, 0.0009974629617818045]","[-0.026750000193715096, 0.05299999937415123, 0.03999999910593033]","[0.0, -0.0, 0.5561549262194311]","[-0.06476056575775146, 0.11414897441864014, 0.03999999910593033]","[0.0, 0.0, -0.2613281989644218]","[0.026750000193715096, 0.05299999937415123, 0.03999999910593033]","[0.0, 0.0, -0.49310237131899215]","[0.060831982642412186, 0.11642254143953323, 0.03999999910593033]","[0.0, -0.0, 0.3175945071640975]",0.5633503394073194,1.7269044031405612,"(0.0, 0.0, 0.0, 0.0, 0.0, 0.0)",-2.195122969634947,-0.8166390969814106,0.20255890513372551,"(0.0, 0.0, 0.0, 0.0, 0.0, 0.0)",-0.9455715986071066,-0.48523160963248174,1.8889697912189702,"(0.0, 0.0, 0.0, 0.0, 0.0, 0.0)",3.008534092934965,0.8093224747268694,-0.3298448563255974,"(0.0, 0.0, 0.0, 0.0, 0.0, 0.0)",1.71613082394096,True,"(-0.03446429982771845, 0.1820523033239635, 0.05600031812600591)","(0.9948570726055057, 0.10128822421977698, 0.00031736604668313926)",-0.0019280541704743677,17.093050788593814,True,"(0.026769131630305677, 0.18236817946068157, 0.023999681873994143)","(-0.9948570726054806, -0.10128822422002443, -0.00031736604663296336)",-5.595037751315999e-06,15.878128737343575
83,Move,"(-0.0524067, 0.0, 0.0123667)","(0.0, 0.07148170484467976, 0.0)","(-0.004432491148217337, 0.16076534129373662, 0.048605454299664896)","(-0.011467113353486371, 9.799593484344175e-05, 0.10754486652505647)","[-0.014431317746939502, 0.0007375987718071797, 0.0010548952854472632]","[-0.026750000193715096, 0.05299999937415123, 0.03999999910593033]","[0.0, -0.0, 0.5633503392625143]","[-0.06519956886768341, 0.11387389153242111, 0.03999999910593033]","[0.0, 0.0, -0.25328880251981883]","[0.026750000193715096, 0.05299999937415123, 0.03999999910593033]","[0.0, 0.0, -0.48523166072524465]","[0.06033175438642502, 0.1166888177394867, 0.03999999910593033]","[0.0, -0.0, 0.3240909096464553]",0.5708798298638558,1.807077709568727,"(0.0, 0.0, 0.0, 0.0, 0.0, 0.0)",-1.98500131246337,-0.8159393337218602,0.16794318229207844,"(0.0, 0.0, 0.0, 0.0, 0.0, 0.0)",-0.8331074987329602,-0.4768508129012999,2.0113912154836413,"(0.0, 0.0, 0.0, 0.0, 0.0, 0.0)",3.129368685408904,0.8078499223455184,-0.35341257152421957,"(0.0, 0.0, 0.0, 0.0, 0.0, 0.0)",1.8026971896003716,True,"(-0.03545018278745847, 0.18201858789359332, 0.05600031812600591)","(0.9948570726055057, 0.10128822421977698, 0.00031736604668313926)",-0.0018855780093675614,17.364622460832383,True,"(0.025841216447037532, 0.1824117872553378, 0.023999681873994143)","(-0.9948570726054806, -0.10128822422002443, -0.00031736604663296336)",2.0748426149245468e-05,16.683552785677765
84,Move,"(-0.05428, 0.0, 0.0115533)","(0.0, 0.07561988050115831, 0.0)","(-0.00537133853203698, 0.16072644723400403, 0.04866168823555729)","(-0.0121796870181998, -4.532210038177195e-05, 0.1111314078039397)","[-0.015370165130759145, 0.0006987047120745882, 0.0011111292213396573]","[-0.026750000193715096, 0.05299999937415123, 0.03999999910593033]","[0.0, -0.0, 0.5708798409377676]","[-0.06565682590007782, 0.11358266323804855, 0.03999999910593033]","[0.0, 0.0, -0.24505952264801628]","[0.026750000193715096, 0.05299999937415123, 0.03999999910593033]","[0.0, 0.0, -0.47685087905400403]","[0.05979681760072708, 0.11696802079677582, 0.03999999910593033]","[0.0, -0.0, 0.33099915520363266]",0.5785351433062857,1.8372752261831842,"(0.0, 0.0, 0.0, 0.0, 0.0, 0.0)",-2.2171582757060238,-0.8151544964157662,0.188360953462562,"(0.0, 0.0, 0.0, 0.0, 0.0, 0.0)",-0.9016580940680551,-0.46822763623149477,2.0695624007532225,"(0.0, 0.0, 0.0, 0.0, 0.0, 0.0)",3.2532942519014627,0.8062649601579192,-0.3803909250238327,"(0.0, 0.0, 0.0, 0.0, 0.0, 0.0)",1.9181977880413683,True,"(-0.03646921891664984, 0.18196986450279712, 0.05600031812600591)","(0.9948570726055057, 0.10128822421977698, 0.00031736604668313926)",-0.001860017401525786,18.824219681333517,True,"(0.024853076595394194, 0.18245115371177162, 0.023999681873994143)","(-0.9948570726054806, -0.10128822422002443, -0.00031736604663296336)",9.52373557155971e-06,18.556434177603872
85,Move,"(-0.055613300000000004, 0.0, 0.0109467)","(0.0, 0.07829023425670964, 0.0)","(-0.006338709598132186, 0.16067503224829965, 0.04871664260185943)","(-0.012946613938343288, -0.0001481613606541104, 0.11471871212913513)","[-0.016337536196854352, 0.0006472897263702093, 0.0011660835876417946]","[-0.026750000193715096, 0.05299999937415123, 0.03999999910593033]","[0.0, -0.0, 0.5785351136691612]","[-0.06611946225166321, 0.11328304558992386, 0.03999999910593033]","[0.0, 0.0, -0.23661934301265486]","[0.026750000193715096, 0.05299999937415123, 0.03999999910593033]","[0.0, 0.0, -0.4682276524666874]","[0.05924398824572563, 0.11725060641765594, 0.03999999910593033]","[0.0, -0.0, 0.3380373540833416]",0.5863251871209884,1.8696105155286207,"(0.0, 0.0, 0.0, 0.0, 0.0, 0.0)",-2.3640078042662647,-0.8143216581353652,0.19988118729625007,"(0.0, 0.0, 0.0, 0.0, 0.0, 0.0)",-0.968579142451272,-0.45932616005426136,2.136354282536021,"(0.0, 0.0, 0.0, 0.0, 0.0, 0.0)",3.4685378844764743,0.8045892029585857,-0.40218172784002565,"(0.0, 0.0, 0.0, 0.0, 0.0, 0.0)",2.036374476896071,True,"(-0.03751008466017976, 0.1819141573570027, 0.05600031812600591)","(0.9948570726055057, 0.10128822421977698, 0.00031736604668313926)",-0.0018446264686657987,19.93431322946199,True,"(0.023838979658726868, 0.18249687954922508, 0.023999953917940412)","(-0.9938312567628225, -0.11090279990665805, -4.532210036415809e-05)",6.4113194629034974e-06,20.04178590834243
86,Move,"(-0.056159999999999995, 0.0, 0.0103467)","(0.0, 0.08194669903963778, 0.0)","(-0.007358834429409737, 0.16068928772034238, 0.04880533132045647)","(-0.016765087728726234, 0.0003017037624849073, 0.11771749971756854)","[-0.017357661028131903, 0.0006615451984129384, 0.0012547723062388341]","[-0.026750000193715096, 0.05299999937415123, 0.03999999910593033]","[0.0, -0.0, 0.5863252168285187]","[-0.06658786535263062, 0.11297453194856644, 0.03999999910593033]","[0.0, 0.0, -0.22799646179610056]","[0.026750000193715096, 0.05299999937415123, 0.03999999910593033]","[0.0, 0.0, -0.45932614151120843]","[0.058670781552791595, 0.11753730475902557, 0.03999999910593033]","[0.0, -0.0, 0.34526304898721194]",0.5941402290853691,1.8756100714513761,"(0.0, 0.0, 0.0, 0.0, 0.0, 0.0)",-2.9643002938641207,-0.8132369095305285,0.26033966516078677,"(0.0, 0.0, 0.0, 0.0, 0.0, 0.0)",-1.2422678189201009,-0.4502832908355241,2.1702886124969423,"(0.0, 0.0, 0.0, 0.0, 0.0, 0.0)",3.5617065366507,0.802894871120401,-0.4066396411643182,"(0.0, 0.0, 0.0, 0.0, 0.0, 0.0)",2.103731371063126,True,"(-0.0385688491583562, 0.18182986337920334, 0.05600014892131933)","(0.9934270109615854, 0.11446725269762319, 0.00014816136010719133)",-0.001841323424695405,22.235138970837617,True,"(0.02279482870844981, 0.18252966075793645, 0.023999851078680665)","(-0.9934270109615858, -0.11446725269761904, -0.00014816136011304256)",3.0209935737916936e-06,19.328672088127934
87,Move,"(-0.057833300000000004, 0.0, 0.009713300000000001)","(0.0, 0.08486838020747627, 0.0)","(-0.008341851129386646, 0.16064504915766742, 0.04885430275281189)","(-0.017584910755342662, 5.655367110186099e-05, 0.12054033197756549)","[-0.01834067772810881, 0.0006173066357379742, 0.0013037437385942582]","[-0.026750000193715096, 0.05299999937415123, 0.03999999910593033]","[0.0, -0.0, 0.5941402864036534]","[-0.0670553520321846, 0.11266136914491653, 0.03999999910593033]","[0.0, 0.0, -0.21909666755783802]","[0.026750000193715096, 0.05299999937415123, 0.03999999910593033]","[0.0, 0.0, -0.45028330565145763]","[0.058085884898900986, 0.11782331764698029, 0.03999999910593033]","[0.0, -0.0, 0.35261161913689987]",0.601799316315111,1.8381809351380474,"(0.0, 0.0, 0.0, 0.0, 0.0, 0.0)",-2.633517124393214,-0.8123799169506646,0.20567821916735718,"(0.0, 0.0, 0.0, 0.0, 0.0, 0.0)",-1.061812514326675,-0.44127177085799457,2.162764794607082,"(0.0, 0.0, 0.0, 0.0, 0.0, 0.0)",3.554711754376796,0.8011261015531809,-0.42450469613284947,"(0.0, 0.0, 0.0, 0.0, 0.0, 0.0)",2.1441659785239997,True,"(-0.03965023090633012, 0.18176333371742576, 0.05600014892131933)","(0.9934270109615854, 0.11446725269762319, 0.00014816136010719133)",-0.0018419962036808784,21.34577425168323,True,"(0.021733303334354304, 0.18255028535134882, 0.023999851078680665)","(-0.9934270109615858, -0.11446725269761904, -0.00014816136011304256)",2.8728378003449786e-05,20.115214342792164
88,Move,"(-0.059373300000000004, 0.0, 0.0091667)","(0.0, 0.08665908802002247, 0.0)","(-0.009352791818598234, 0.16058417803592506, 0.048903105871303504)","(-0.018449533247060067, -0.00015362882858425026, 0.12354170536613542)","[-0.019351618417320398, 0.0005564355139956179, 0.0013525468570858706]","[-0.026750000193715096, 0.05299999937415123, 0.03999999910593033]","[0.0, -0.0, 0.6017993660004102]","[-0.06751111149787903, 0.11235091835260391, 0.03999999910593033]","[0.0, 0.0, -0.21058058770586707]","[0.026750000193715096, 0.05299999937415123, 0.03999999910593033]","[0.0, 0.0, -0.44127176542948715]","[0.05750046297907829, 0.11810306459665298, 0.03999999910593033]","[0.0, -0.0, 0.35985430868736834]",0.6095649185700035,1.863744541174216,"(0.0, 0.0, 0.0, 0.0, 0.0, 0.0)",-2.7331147544855945,-0.8114042696409876,0.23415535432249895,"(0.0, 0.0, 0.0, 0.0, 0.0, 0.0)",-1.129345759620784,-0.4320226445119826,2.219790323042874,"(0.0, 0.0, 0.0, 0.0, 0.0, 0.0)",3.96683790820576,0.7992013657418746,-0.4619365947135056,"(0.0, 0.0, 0.0, 0.0, 0.0, 0.0)",2.327978019062214,True,"(-0.0406954603734985, 0.18168376024996968, 0.05600014892131933)","(0.9934270109615854, 0.11446725269762319, 0.00014816136010719133)",-0.0018473691222984962,23.10073342429344,True,"(0.020680038578633167, 0.1825650453571392, 0.023999851078680665)","(-0.9934270109615858, -0.11446725269761904, -0.00014816136011304256)",1.1489550455165288e-05,22.76218243657309
89,Move,"(-0.0607733, 0.0, 0.0086133)","(0.0, 0.08933467776332976, 0.0)","(-0.01038720718588023, 0.16051761688300936, 0.048949423713231695)","(-0.01937619519096643, -0.0003874936074131159, 0.12627238064606655)","[-0.020386033784602395, 0.0004898743610799172, 0.0013988646990140616]","[-0.026750000193715096, 0.05299999937415123, 0.03999999910593033]","[0.0, -0.0, 0.6095649100974049]","[-0.06797077506780624, 0.11203259974718094, 0.03999999910593033]","[0.0, 0.0, -0.20183938840099888]","[0.026750000193715096, 0.05299999937415123, 0.03999999910593033]","[0.0, 0.0, -0.4320226567621132]","[0.056897010654211044, 0.11838468909263611, 0.03999999910593033]","[0.0, -0.0, 0.3671787277459421]",0.6173813178402842,1.8759358248673679,"(0.0, 0.0, 0.0, 0.0, 0.0, 0.0)",-2.8978942881776715,-0.8103874717700655,0.24403148902128338,"(0.0, 0.0, 0.0, 0.0, 0.0, 0.0)",-1.1957469175815094,-0.4225842075274285,2.265224876292982,"(0.0, 0.0, 0.0, 0.0, 0.0, 0.0)",4.165011576453915,0.7971866304807711,-0.48353646266485606,"(0.0, 0.0, 0.0, 0.0, 0.0, 0.0)",2.449401369899141,True,"(-0.0417599097423221, 0.181580007147947, 0.0560001543887872)","(0.9923784129334752, 0.1232276833419353, 0.00015362882797633905)",-0.0018652335355149885,24.32361873418607,True,"(0.019603734161300297, 0.1825882397041613, 0.0239998456112128)","(-0.9923784129334732, -0.12322768334195061, -0.00015362882797682127)",6.51488495779548e-06,24.551698881448605
90,Move,"(-0.062066699999999995, 0.0, 0.008060000000000001)","(0.0, 0.09223716030939633, 0.0)","(-0.011454745104990003, 0.16052264118399068, 0.04906290511982301)","(-0.024538938650013584, 9.876484168667507e-05, 0.12979925350531826)","[-0.02145357170371217, 0.0004948986620612328, 0.0015123461056053764]","[-0.026750000193715096, 0.05299999937415123, 0.03999999910593033]","[0.0, -0.0, 0.6173813665462621]","[-0.06843093782663345, 0.11170859634876251, 0.03999999910593033]","[0.0, 0.0, -0.19300615012994696]","[0.026750000193715096, 0.05299999937415123, 0.03999999910593033]","[0.0, 0.0, -0.42258421747683206]","[0.056278545409440994, 0.11866631358861923, 0.03999999910593033]","[0.0, -0.0, 0.37460244967068257]",0.6252291900740773,1.88348933611036,"(0.0, 0.0, 0.0, 0.0, 0.0, 0.0)",-3.712765094139351,-0.808979521107571,0.33790815899868887,"(0.0, 0.0, 0.0, 0.0, 0.0, 0.0)",-1.6137098108650532,-0.41299608133931787,2.3011502851465404,"(0.0, 0.0, 0.0, 0.0, 0.0, 0.0)",4.3405070397266945,0.795169090089266,-0.4842096939612312,"(0.0, 0.0, 0.0, 0.0, 0.0, 0.0)",2.512970479520777,True,"(-0.04283462179079786, 0.18147876702907223, 0.05600038825355694)","(0.99203815591607, 0.12593707577737018, 0.0003874935977122653)",-0.001890444904881267,27.910567017857055,True,"(0.018509073372231455, 0.18259589727457054, 0.02399961174644306)","(-0.9920381559160655, -0.12593707577740548, -0.00038749359771774714)",1.8960163682506324e-08,24.071830621964907
91,Move,"(-0.0632133, 0.0, 0.0074800000000000005)","(0.0, 0.09448165372746106, 0.0)","(-0.012505619419145669, 0.16044823201965686, 0.04911149807391967)","(-0.0255986423599695, -0.00019158634549994345, 0.13247048381602522)","[-0.022504446017867833, 0.00042048949772741095, 0.0015609390597020392]","[-0.026750000193715096, 0.05299999937415123, 0.03999999910593033]","[0.0, -0.0, 0.6252292626002167]","[-0.06889038532972336, 0.11137969046831131, 0.03999999910593033]","[0.0, 0.0, -0.18375033063023422]","[0.026750000193715096, 0.05299999937415123, 0.03999999910593033]","[0.0, 0.0, -0.4129960725108933]","[0.055647581815719604, 0.11894641816616058, 0.03999999910593033]","[0.0, -0.0, 0.3821729950159725]",0.6330487943624608,1.876705029212018,"(0.0, 0.0, 0.0, 0.0, 0.0, 0.0)",-3.232992887865331,-0.8078971695155309,0.25976438208961156,"(0.0, 0.0, 0.0, 0.0, 0.0, 0.0)",-1.3515710125483928,-0.40327122916482494,2.333964521878298,"(0.0, 0.0, 0.0, 0.0, 0.0, 0.0)",4.500851855244916,0.7929832868844556,-0.5245927691544768,"(0.0, 0.0, 0.0, 0.0, 0.0, 0.0)",2.6541998550145816,True,"(-0.043940938617738824, 0.18138377880573955, 0.05600038825355694)","(0.99203815591607, 0.12593707577737018, 0.0003874935977122653)",-0.0019236425382629443,26.563737068014596,True,"(0.017395211389020705, 0.18258823164692123, 0.02399961174644306)","(-0.9920381559160655, -0.12593707577740548, -0.00038749359771774714)",2.8761629754256336e-05,25.63993335146057
92,Move,"(-0.06408, 0.0, 0.0069733)","(0.0, 0.09687799079044924, 0.0)","(-0.013575329750643203, 0.16036245946197014, 0.04915545001812105)","(-0.026650932626177876, -0.0005427825743091135, 0.13494720624779832)","[-0.02357415634936537, 0.00033471694004069685, 0.0016048910039034164]","[-0.026750000193715096, 0.05299999937415123, 0.03999999910593033]","[0.0, -0.0, 0.633048810375812]","[-0.06934560090303421, 0.1110483855009079, 0.03999999910593033]","[0.0, 0.0, -0.17484838990614596]","[0.026750000193715096, 0.05299999937415123, 0.03999999910593033]","[0.0, 0.0, -0.40327121474632854]","[0.05500490590929985, 0.11922431737184525, 0.03999999910593033]","[0.0, -0.0, 0.3897120676320313]",0.640839164676305,1.869688875322606,"(0.0, 0.0, 0.0, 0.0, 0.0, 0.0)",-3.404920054805852,-0.8066925727990854,0.289103211946932,"(0.0, 0.0, 0.0, 0.0, 0.0, 0.0)",-1.4156778682621267,-0.39345570899023413,2.3557248419017958,"(0.0, 0.0, 0.0, 0.0, 0.0, 0.0)",4.796664265750544,0.7906595298696653,-0.5577016835496901,"(0.0, 0.0, 0.0, 0.0, 0.0, 0.0)",2.8225057904735436,True,"(-0.045018654733869644, 0.18125995325916916, 0.05600019234630349)","(0.9912385909038552, 0.13208337971755632, 0.0001915863442659313)",-0.0019590270432787377,28.288423993022537,True,"(0.01627261228954515, 0.1825847693042278, 0.02399980765369645)","(-0.9912385909038469, -0.13208337971761835, -0.0001915863443254887)",8.151354606457283e-06,28.527767480591553
