OSUrobotics/InHand-Manipulation/AnalyseData/Data/Trial Data/Even Better/new_hand_human_sub1_2v2_e_n_1_kpNone_kdNone_dp2_step1_save_data.csv
,Phase,human_cube_pos,human_cube_orn,Cube_Pos,Cube_Orn,Cube_pos_in_start_pos,b'l_prox_pin'_link_pos,b'l_prox_pin'_link_orn,b'l_distal_pin'_link_pos,b'l_distal_pin'_link_orn,b'r_prox_pin'_link_pos,b'r_prox_pin'_link_orn,b'r_distal_pin'_link_pos,b'r_distal_pin'_link_orn,b'l_prox_pin'_joint_angle,b'l_prox_pin'_joint_vel,b'l_prox_pin'_joint_react_forces,b'l_prox_pin'_joint_motor_torque,b'l_distal_pin'_joint_angle,b'l_distal_pin'_joint_vel,b'l_distal_pin'_joint_react_forces,b'l_distal_pin'_joint_motor_torque,b'r_prox_pin'_joint_angle,b'r_prox_pin'_joint_vel,b'r_prox_pin'_joint_react_forces,b'r_prox_pin'_joint_motor_torque,b'r_distal_pin'_joint_angle,b'r_distal_pin'_joint_vel,b'r_distal_pin'_joint_react_forces,b'r_distal_pin'_joint_motor_torque,in_contact_l,contact_point_l_dist,contact_normal_l_dist,contact_distance_l_dist,contact_norm_force_l_dist,in_contact_r,contact_point_r_dist,contact_normal_r_dist,contact_distance_r_dist,contact_norm_force_r_dist
0,Open,,,,,,"[-0.026750000193715096, 0.05299999937415123, 0.03999999910593033]","[0.0, -0.0, 0.0]","[-0.026750000193715096, 0.125, 0.03999999910593033]","[0.0, -0.0, 0.0]","[0.026750000193715096, 0.05299999937415123, 0.03999999910593033]","[0.0, -0.0, 0.0]","[0.026750000193715096, 0.125, 0.03999999910593033]","[0.0, -0.0, 0.0]",0.0,0.0,"(0.0, 0.0, 0.0, 0.0, 0.0, 0.0)",1.3400621000080305e-17,5.883223478113402e-32,1.4119736347472167e-29,"(0.0, 0.0, 0.0, 0.0, 0.0, 0.0)",1.0542555313129702e-18,-0.008068665190486622,-1.9364796457167894,"(0.0, 0.0, 0.0, 0.0, 0.0, 0.0)",193.26378306879909,-0.0700246186727924,-16.805908481470176,"(0.0, 0.0, 0.0, 0.0, 0.0, 0.0)",71.94009191575694,False,,,,,False,,,,
1,Open,,,,,,"[-0.026750000193715096, 0.05299999937415123, 0.03999999910593033]","[0.0, -0.0, 0.0]","[-0.026750000193715096, 0.125, 0.03999999910593033]","[0.0, -0.0, 5.883223447970011e-32]","[0.026750000193715096, 0.05299999937415123, 0.03999999910593033]","[0.0, 0.0, -0.008068665592501188]","[0.02733093686401844, 0.12499765306711197, 0.03999999910593033]","[0.0, 0.0, -0.0780932845685428]",0.157,37.68,"(0.0, 0.0, 0.0, 0.0, 0.0, 0.0)",54.702693795169004,5.294901130302062e-32,-1.4119736347472162e-30,"(0.0, 0.0, 0.0, 0.0, 0.0, 0.0)",3.9113724975844915,-0.1670280316324969,-38.150247946082466,"(0.0, 0.0, 0.0, 0.0, 0.0, 0.0)",-25.93345404555236,-0.0659493391739072,0.9780670797324476,"(0.0, 0.0, 0.0, 0.0, 0.0, 0.0)",-6.754749483880455,False,,,,,False,,,,
2,Open,,,,,,"[-0.026750000193715096, 0.05299999937415123, 0.03999999910593033]","[0.0, -0.0, 0.1569999988554567]","[-0.03800761699676514, 0.12411445379257202, 0.03999999910593033]","[0.0, -0.0, 0.1569999988554567]","[0.026750000193715096, 0.05299999937415123, 0.03999999910593033]","[0.0, 0.0, -0.16702801712980753]","[0.038720179349184036, 0.1239979937672615, 0.03999999910593033]","[0.0, 0.0, -0.23297739431320727]",0.29829999999999995,33.91199999999999,"(0.0, 0.0, 0.0, 0.0, 0.0, 0.0)",-5.390828189440958,5.294901130302062e-32,0.0,"(0.0, 0.0, 0.0, 0.0, 0.0, 0.0)",-0.3659219356209609,-0.3122944613104081,-34.863943122698686,"(0.0, 0.0, 0.0, 0.0, 0.0, 0.0)",95.8006544774165,-0.06705867534034729,-0.2662406799456205,"(0.0, 0.0, 0.0, 0.0, 0.0, 0.0)",9.049911776264722,False,,,,,False,,,,
3,Open,,,,,,"[-0.026750000193715096, 0.05299999937415123, 0.03999999910593033]","[0.0, -0.0, 0.29830000998707634]","[-0.04791048914194107, 0.12182030081748962, 0.03999999910593033]","[0.0, -0.0, 0.29830000998707634]","[0.026750000193715096, 0.05299999937415123, 0.03999999910593033]","[0.0, 0.0, -0.3122944642903269]","[0.048871491104364395, 0.12151744216680527, 0.03999999910593033]","[0.0, 0.0, -0.3793531994353912]",0.42546999999999996,30.5208,"(0.0, 0.0, 0.0, 0.0, 0.0, 0.0)",-4.858074537215091,5.294901130302062e-32,0.0,"(0.0, 0.0, 0.0, 0.0, 0.0, 0.0)",-0.33154044974508506,-0.44292449566296654,-31.35120824461403,"(0.0, 0.0, 0.0, 0.0, 0.0, 0.0)",100.88457241511576,-0.08373770380977785,-4.0029668326633345,"(0.0, 0.0, 0.0, 0.0, 0.0, 0.0)",24.077304806401806,False,,,,,False,,,,
4,Open,,,,,,"[-0.026750000193715096, 0.05299999937415123, 0.03999999910593033]","[0.0, -0.0, 0.4254700097131474]","[-0.056467924267053604, 0.11858082562685013, 0.03999999910593033]","[0.0, -0.0, 0.4254700097131474]","[0.026750000193715096, 0.05299999937415123, 0.03999999910593033]","[0.0, 0.0, -0.4429245237535421]","[0.057608019560575485, 0.1180521547794342, 0.03999999910593033]","[0.0, 0.0, -0.5266622746639338]",0.5399229999999999,27.46872,"(0.0, 0.0, 0.0, 0.0, 0.0, 0.0)",-4.377393708535371,5.294901130302062e-32,0.0,"(0.0, 0.0, 0.0, 0.0, 0.0, 0.0)",-0.30017707799641646,-0.5623038734984663,-28.651050680519948,"(0.0, 0.0, 0.0, 0.0, 0.0, 0.0)",144.45470973647488,-0.10456727132876567,-4.999096204557077,"(0.0, 0.0, 0.0, 0.0, 0.0, 0.0)",33.97911746732963,False,,,,,False,,,,
5,Open,,,,,,"[-0.026750000193715096, 0.05299999937415123, 0.03999999910593033]","[0.0, -0.0, 0.5399230359738098]","[-0.06376303732395172, 0.11475787311792374, 0.03999999910593033]","[0.0, -0.0, 0.5399230359738098]","[0.026750000193715096, 0.05299999937415123, 0.03999999910593033]","[0.0, 0.0, -0.5623038790270362]","[0.06513584405183792, 0.11391409486532211, 0.03999999910593033]","[0.0, 0.0, -0.6668711870723439]",0.6429307,24.721848,"(0.0, 0.0, 0.0, 0.0, 0.0, 0.0)",-3.943806903965684,5.294901130302062e-32,0.0,"(0.0, 0.0, 0.0, 0.0, 0.0, 0.0)",-0.2716098155097054,-0.6673401099248648,-25.208696742335626,"(0.0, 0.0, 0.0, 0.0, 0.0, 0.0)",94.97739775913854,-0.11755295807544866,-3.116564819203918,"(0.0, 0.0, 0.0, 0.0, 0.0, 0.0)",25.79194570087013,False,,,,,False,,,,
6,Open,,,,,,"[-0.026750000193715096, 0.05299999937415123, 0.03999999910593033]","[0.0, -0.0, 0.6429307111289271]","[-0.06991713494062424, 0.11062463372945786, 0.03999999910593033]","[0.0, -0.0, 0.6429307111289271]","[0.026750000193715096, 0.05299999937415123, 0.03999999910593033]","[0.0, 0.0, -0.6673401753977319]","[0.07131072133779526, 0.10955388844013214, 0.03999999910593033]","[0.0, 0.0, -0.7848931559948581]",0.73563763,22.249663200000004,"(0.0, 0.0, 0.0, 0.0, 0.0, 0.0)",-3.552789792259023,5.294901130302062e-32,0.0,"(0.0, 0.0, 0.0, 0.0, 0.0, 0.0)",-0.24562369466220793,-0.7579917869736262,-21.756402491702737,"(0.0, 0.0, 0.0, 0.0, 0.0, 0.0)",34.46450837185191,-0.10794166402774508,2.3067105714488583,"(0.0, 0.0, 0.0, 0.0, 0.0, 0.0)",8.765009015475858,False,,,,,False,,,,
7,Open,,,,,,"[-0.026750000193715096, 0.05299999937415123, 0.03999999910593033]","[0.0, -0.0, 0.7356376306875043]","[-0.07506632059812546, 0.10638101398944855, 0.03999999910593033]","[0.0, -0.0, 0.7356376306875043]","[0.026750000193715096, 0.05299999937415123, 0.03999999910593033]","[0.0, 0.0, -0.757991847340814]","[0.076247438788414, 0.10528770089149475, 0.03999999910593033]","[0.0, 0.0, -0.8659334873334429]",0.8190738670000001,20.024696880000004,"(0.0, 0.0, 0.0, 0.0, 0.0, 0.0)",-3.2002295086701533,2.3293280891773424e-07,5.5903874140256216e-05,"(0.0, 0.0, 0.0, 0.0, 0.0, 0.0)",-0.22200715926400075,-0.8391926082762636,-19.488197112632974,"(0.0, 0.0, 0.0, 0.0, 0.0, 0.0)",3.295349739497939,-0.09714776835574307,2.590534961280482,"(0.0, 0.0, 0.0, 0.0, 0.0, 0.0)",0.25803221970863044,False,,,,,False,,,,
8,Open,,,,,,"[-0.026750000193715096, 0.05299999937415123, 0.03999999910593033]","[0.0, -0.0, 0.8190738875671263]","[-0.07934698462486267, 0.10216865688562393, 0.03999999910593033]","[0.0, -0.0, 0.8190741465287105]","[0.026750000193715096, 0.05299999937415123, 0.03999999910593033]","[0.0, 0.0, -0.839192558822362]","[0.08032548427581787, 0.10110059380531311, 0.03999999910593033]","[0.0, 0.0, -0.9363403253067936]",0.8941664803,18.022227192,"(0.0, 0.0, 0.0, 0.0, 0.0, 0.0)",-2.8824197251771095,4.2009445145371055e-07,4.4918794208634316e-05,"(0.0, 0.0, 0.0, 0.0, 0.0, 0.0)",-0.2005835928406654,-0.9122733474486373,-17.539377401369673,"(0.0, 0.0, 0.0, 0.0, 0.0, 0.0)",2.7804978356880783,-0.0874331700712747,2.33150358827241,"(0.0, 0.0, 0.0, 0.0, 0.0, 0.0)",0.17017621517521792,False,,,,,False,,,,
9,Open,,,,,,"[-0.026750000193715096, 0.05299999937415123, 0.03999999910593033]","[0.0, -0.0, 0.894166469119967]","[-0.08288749307394028, 0.09808415919542313, 0.03999999910593033]","[0.0, -0.0, 0.894166894674561]","[0.026750000193715096, 0.05299999937415123, 0.03999999910593033]","[0.0, 0.0, -0.9122733503889549]","[0.08369457721710205, 0.09706035256385803, 0.03999999910593033]","[0.0, 0.0, -0.9997066729229968]",0.96174983227,16.220004472800003,"(0.0, 0.0, 0.0, 0.0, 0.0, 0.0)",-2.5959652512206968,5.681494863714967e-07,3.553320838026869e-05,"(0.0, 0.0, 0.0, 0.0, 0.0, 0.0)",-0.18114955764248034,-0.9780460127037736,-15.785439661232708,"(0.0, 0.0, 0.0, 0.0, 0.0, 0.0)",2.503992476159733,-0.0786900142246732,2.098357403184359,"(0.0, 0.0, 0.0, 0.0, 0.0, 0.0)",0.15360133560797545,False,,,,,False,,,,
10,Open,,,,,,"[-0.026750000193715096, 0.05299999937415123, 0.03999999910593033]","[0.0, -0.0, 0.9617498658906226]","[-0.08580395579338074, 0.09419016540050507, 0.03999999910593033]","[0.0, -0.0, 0.9617504517765805]","[0.026750000193715096, 0.05299999937415123, 0.03999999910593033]","[0.0, 0.0, -0.9780460255881384]","[0.08646733313798904, 0.09322238713502884, 0.03999999910593033]","[0.0, 0.0, -1.0567360258914282]",1.022574849043,14.598004025520002,"(0.0, 0.0, 0.0, 0.0, 0.0, 0.0)",-2.337816594086846,6.829231533297027e-07,2.7545680069969436e-05,"(0.0, 0.0, 0.0, 0.0, 0.0, 0.0)",-0.16354029854134106,-1.0372414114333963,-14.206895695109438,"(0.0, 0.0, 0.0, 0.0, 0.0, 0.0)",2.2548456713339484,-0.07082115822448021,1.8885254400463192,"(0.0, 0.0, 0.0, 0.0, 0.0, 0.0)",0.13860128234430863,False,,,,,False,,,,
11,Open,,,,,,"[-0.026750000193715096, 0.05299999937415123, 0.03999999910593033]","[0.0, -0.0, 1.0225748785172661]","[-0.08819860219955444, 0.09052424877882004, 0.03999999910593033]","[0.0, -0.0, 1.0225755149967983]","[0.026750000193715096, 0.05299999937415123, 0.03999999910593033]","[0.0, 0.0, -1.037241417801626]","[0.08874232321977615, 0.08961901068687439, 0.03999999910593033]","[0.0, 0.0, -1.1080626941470386]",1.0773173641387,13.138203622968001,"(0.0, 0.0, 0.0, 0.0, 0.0, 0.0)",-2.105207702642618,7.694903593429899e-07,2.0776129443188934e-05,"(0.0, 0.0, 0.0, 0.0, 0.0, 0.0)",-0.14759587787833617,-1.0905172702900567,-12.78620612559849,"(0.0, 0.0, 0.0, 0.0, 0.0, 0.0)",2.0303755786213302,-0.06373917358809339,1.6996763127328351,"(0.0, 0.0, 0.0, 0.0, 0.0, 0.0)",0.1250328149112744,False,,,,,False,,,,
12,Open,,,,,,"[-0.026750000193715096, 0.05299999937415123, 0.03999999910593033]","[0.0, -0.0, 1.0773173786594632]","[-0.09015969932079315, 0.08710587024688721, 0.03999999910593033]","[0.0, -0.0, 1.0773182784199262]","[0.026750000193715096, 0.05299999937415123, 0.03999999910593033]","[0.0, 0.0, -1.090517334189526]","[0.09060435742139816, 0.0862659215927124, 0.03999999910593033]","[0.0, 0.0, -1.1542564269670996]",1.1265856277248298,11.824383260671203,"(0.0, 0.0, 0.0, 0.0, 0.0, 0.0)",-1.895636869852492,8.322629993378343e-07,1.5065433598762668e-05,"(0.0, 0.0, 0.0, 0.0, 0.0, 0.0)",-0.13316806895824274,-1.138465543261051,-11.50758551303864,"(0.0, 0.0, 0.0, 0.0, 0.0, 0.0)",1.828159741200242,-0.05736537454460671,1.5297117704368035,"(0.0, 0.0, 0.0, 0.0, 0.0, 0.0)",0.11276577482950233,False,,,,,False,,,,
13,Open,,,,,,"[-0.026750000193715096, 0.05299999937415123, 0.03999999910593033]","[0.0, -0.0, 1.126585512342968]","[-0.09176240861415863, 0.08394166082143784, 0.03999999910593033]","[0.0, -0.0, 1.1265864725026016]","[0.026750000193715096, 0.05299999937415123, 0.03999999910593033]","[0.0, 0.0, -1.13846552283997]","[0.09212540090084076, 0.08316715806722641, 0.03999999910593033]","[0.0, 0.0, -1.1958309904194953]",1.1709270649523469,10.641944934604087,"(0.0, 0.0, 0.0, 0.0, 0.0, 0.0)",-1.7068426281171958,8.750681698751778e-07,1.0273240928962424e-05,"(0.0, 0.0, 0.0, 0.0, 0.0, 0.0)",-0.12011999884119333,-1.181618988934946,-10.356826961734775,"(0.0, 0.0, 0.0, 0.0, 0.0, 0.0)",1.6460093571929852,-0.051628943774705546,1.376743384776279,"(0.0, 0.0, 0.0, 0.0, 0.0, 0.0)",0.10168054944364863,False,,,,,False,,,,
14,Open,,,,,,"[-0.026750000193715096, 0.05299999937415123, 0.03999999910593033]","[0.0, -0.0, 1.170927100750299]","[-0.09307006001472473, 0.08102945238351822, 0.03999999910593033]","[0.0, -0.0, 1.1709279927689973]","[0.026750000193715096, 0.05299999937415123, 0.03999999910593033]","[0.0, 0.0, -1.181618964677462]","[0.09336595237255096, 0.08031877130270004, 0.03999999910593033]","[0.0, 0.0, -1.233247876832181]",1.2108343584571122,9.577750441143678,"(0.0, 0.0, 0.0, 0.0, 0.0, 0.0)",-1.5367816122769582,9.012180617793662e-07,6.275974057005224e-06,"(0.0, 0.0, 0.0, 0.0, 0.0, 0.0)",-0.1083256720668905,-1.2204570900414513,-9.3211442655613,"(0.0, 0.0, 0.0, 0.0, 0.0, 0.0)",1.4819475463743526,-0.046466145575958295,1.239071567699341,"(0.0, 0.0, 0.0, 0.0, 0.0, 0.0)",0.09166748660725833,False,,,,,False,,,,
15,Open,,,,,,"[-0.026750000193715096, 0.05299999937415123, 0.03999999910593033]","[0.0, -0.0, 1.2108343955497323]","[-0.09413553774356842, 0.07836118340492249, 0.03999999910593033]","[0.0, -0.0, 1.210835255049739]","[0.026750000193715096, 0.05299999937415123, 0.03999999910593033]","[0.0, 0.0, -1.2204571829136446]","[0.09437645971775055, 0.07771158218383789, 0.03999999910593033]","[0.0, 0.0, -1.2669233179031547]",1.2467509226114009,8.619975397029307,"(0.0, 0.0, 0.0, 0.0, 0.0, 0.0)",-1.3836082777937824,9.135722823677317e-07,2.9650129412077397e-06,"(0.0, 0.0, 0.0, 0.0, 0.0, 0.0)",-0.09766941677677543,-1.2554113810373062,-8.38902983900517,"(0.0, 0.0, 0.0, 0.0, 0.0, 0.0)",1.334189480132575,-0.04181961771093252,1.1151666876061868,"(0.0, 0.0, 0.0, 0.0, 0.0, 0.0)",0.08262627878010878,False,,,,,False,,,,
16,Open,,,,,,"[-0.026750000193715096, 0.05299999937415123, 0.03999999910593033]","[0.0, -0.0, 1.2467510110527222]","[-0.09500277042388916, 0.07592508941888809, 0.03999999910593033]","[0.0, -0.0, 1.246751870145374]","[0.026750000193715096, 0.05299999937415123, 0.03999999910593033]","[0.0, 0.0, -1.255411348379259]","[0.09519875049591064, 0.0753331333398819, 0.03999999910593033]","[0.0, 0.0, -1.2972309672073006]",1.2790758303502607,7.757977857326381,"(0.0, 0.0, 0.0, 0.0, 0.0, 0.0)",-1.2456264712746363,2.1141758111398655e-06,0.0002881448469053121,"(0.0, 0.0, 0.0, 0.0, 0.0, 0.0)",-0.088015399348708,-1.2868702429335757,-7.5501268551046525,"(0.0, 0.0, 0.0, 0.0, 0.0, 0.0)",1.2010989712673745,-0.037638748630864464,1.0034085792163332,"(0.0, 0.0, 0.0, 0.0, 0.0, 0.0)",0.07444006052486639,False,,,,,False,,,,
17,Open,,,,,,"[-0.026750000193715096, 0.05299999937415123, 0.03999999910593033]","[0.0, -0.0, 1.2790758758817962]","[-0.09570803493261337, 0.0737072303891182, 0.03999999910593033]","[0.0, -0.0, 1.2790780932516201]","[0.026750000193715096, 0.05299999937415123, 0.03999999910593033]","[0.0, 0.0, -1.2868702529032277]","[0.0958673357963562, 0.07316911965608597, 0.03999999910593033]","[0.0, 0.0, -1.3245087793274308]",1.3081682532711112,6.982181501004109,"(0.0, 0.0, 0.0, 0.0, 0.0, 0.0)",-1.12145472366965,1.9027582300258812e-06,-5.0740219467356254e-05,"(0.0, 0.0, 0.0, 0.0, 0.0, 0.0)",-0.07939114715284208,-1.315183223212741,-6.795115266999686,"(0.0, 0.0, 0.0, 0.0, 0.0, 0.0)",1.0813262344929835,-0.033874873767778015,0.9033299671407473,"(0.0, 0.0, 0.0, 0.0, 0.0, 0.0)",0.06713055017345074,False,,,,,False,,,,
18,Open,,,,,,"[-0.026750000193715096, 0.05299999937415123, 0.03999999910593033]","[0.0, -0.0, 1.3081682459906412]","[-0.09628119319677353, 0.07169260084629059, 0.03999999910593033]","[0.0, -0.0, 1.3081702011658356]","[0.026750000193715096, 0.05299999937415123, 0.03999999910593033]","[0.0, 0.0, -1.3151833180210462]","[0.0964106097817421, 0.07120437920093536, 0.03999999910593033]","[0.0, 0.0, -1.349058153261439]",1.334351427944,6.283961921493333,"(0.0, 0.0, 0.0, 0.0, 0.0, 0.0)",-1.0095234585863413,2.7618377923566443e-06,0.00020617909495938315,"(0.0, 0.0, 0.0, 0.0, 0.0, 0.0)",-0.07148780084672787,-1.3406649008914668,-6.11560264289422,"(0.0, 0.0, 0.0, 0.0, 0.0, 0.0)",0.9733796231570812,-0.030488273507324658,0.8127840625088054,"(0.0, 0.0, 0.0, 0.0, 0.0, 0.0)",0.060435192896783604,False,,,,,False,,,,
19,Open,,,,,,"[-0.026750000193715096, 0.05299999937415123, 0.03999999910593033]","[0.0, -0.0, 1.334351465706577]","[-0.09674673527479172, 0.06986585259437561, 0.03999999910593033]","[0.0, -0.0, 1.33435435145599]","[0.026750000193715096, 0.05299999937415123, 0.03999999910593033]","[0.0, 0.0, -1.3406650641721125]","[0.09685182571411133, 0.06942359358072281, 0.03999999910593033]","[0.0, 0.0, -1.3711530696282732]",1.3579162851496,5.655565729344001,"(0.0, 0.0, 0.0, 0.0, 0.0, 0.0)",-0.9088150211252332,3.4316066113876724e-06,0.0001607445165674468,"(0.0, 0.0, 0.0, 0.0, 0.0, 0.0)",-0.06444344013525093,-1.3635984108023202,-5.504042378604797,"(0.0, 0.0, 0.0, 0.0, 0.0, 0.0)",0.8762522980402716,-0.02744024570882781,0.7315266716392431,"(0.0, 0.0, 0.0, 0.0, 0.0, 0.0)",0.05446985052483407,False,,,,,False,,,,
20,Open,,,,,,"[-0.026750000193715096, 0.05299999937415123, 0.03999999910593033]","[0.0, -0.0, 1.3579163939939654]","[-0.09712471067905426, 0.0682118609547615, 0.03999999910593033]","[0.0, -0.0, 1.3579197824809437]","[0.026750000193715096, 0.05299999937415123, 0.03999999910593033]","[0.0, 0.0, -1.3635984874387626]","[0.09721000492572784, 0.06781173497438431, 0.03999999910593033]","[0.0, 0.0, -1.3910385869420074]",1.37912465663464,5.090009156409601,"(0.0, 0.0, 0.0, 0.0, 0.0, 0.0)",-0.8181093185961676,3.940702417530038e-06,0.0001221829934741677,"(0.0, 0.0, 0.0, 0.0, 0.0, 0.0)",-0.05806034967263589,-1.3842385697220883,-4.953638140744317,"(0.0, 0.0, 0.0, 0.0, 0.0, 0.0)",0.7887791417834831,-0.024696941374704916,0.6583930401894944,"(0.0, 0.0, 0.0, 0.0, 0.0, 0.0)",0.04906644857689494,False,,,,,False,,,,
21,Open,,,,,,"[-0.026750000193715096, 0.05299999937415123, 0.03999999910593033]","[0.0, -0.0, 1.3791247702213432]","[-0.0974314734339714, 0.0667160153388977, 0.03999999910593033]","[0.0, -0.0, 1.3791284782568445]","[0.026750000193715096, 0.05299999937415123, 0.03999999910593033]","[0.0, 0.0, -1.3842387704807777]","[0.09750068932771683, 0.06635437905788422, 0.03999999910593033]","[0.0, 0.0, -1.408935619520831]",1.398212190971176,4.581008240768642,"(0.0, 0.0, 0.0, 0.0, 0.0, 0.0)",-0.7364407507487188,4.314390796743166e-06,8.968521101115077e-05,"(0.0, 0.0, 0.0, 0.0, 0.0, 0.0)",-0.05230389643117988,-1.4028147127498793,-4.458274326669883,"(0.0, 0.0, 0.0, 0.0, 0.0, 0.0)",0.7100243788118592,-0.02222789596809768,0.5925708975857369,"(0.0, 0.0, 0.0, 0.0, 0.0, 0.0)",0.04419507766734469,False,,,,,False,,,,
22,Open,,,,,,"[-0.026750000193715096, 0.05299999937415123, 0.03999999910593033]","[0.0, -0.0, 1.3982120672717784]","[-0.09768038988113403, 0.06536446511745453, 0.03999999910593033]","[0.0, -0.0, 1.3982164487645397]","[0.026750000193715096, 0.05299999937415123, 0.03999999910593033]","[0.0, 0.0, -1.4028147367436141]","[0.09773654490709305, 0.06503787636756897, 0.03999999910593033]","[0.0, 0.0, -1.4250426427007885]",1.4153909718740585,4.122907416691778,"(0.0, 0.0, 0.0, 0.0, 0.0, 0.0)",-0.6629119687698639,4.574523674952359e-06,6.243189077020624e-05,"(0.0, 0.0, 0.0, 0.0, 0.0, 0.0)",-0.04711364623212332,-1.4195332414748913,-4.012446894002898,"(0.0, 0.0, 0.0, 0.0, 0.0, 0.0)",0.6391216750959775,-0.02000569064819732,0.5333292767760867,"(0.0, 0.0, 0.0, 0.0, 0.0, 0.0)",0.039804123486470444,False,,,,,False,,,,
23,Open,,,,,,"[-0.026750000193715096, 0.05299999937415123, 0.03999999910593033]","[0.0, -0.0, 1.415391158105469]","[-0.09788231551647186, 0.06414420157670975, 0.03999999910593033]","[0.0, -0.0, 1.415395709317307]","[0.026750000193715096, 0.05299999937415123, 0.03999999910593033]","[0.0, 0.0, -1.419533200978404]","[0.09792786836624146, 0.06384945660829544, 0.03999999910593033]","[0.0, 0.0, -1.4395389386881268]",1.4308518746866525,3.7106166750225977,"(0.0, 0.0, 0.0, 0.0, 0.0, 0.0)",-0.5967141397561109,4.7399630338636504e-06,3.9705446138709865e-05,"(0.0, 0.0, 0.0, 0.0, 0.0, 0.0)",-0.042434775014060074,-1.4345799173274023,-3.611202204602609,"(0.0, 0.0, 0.0, 0.0, 0.0, 0.0)",0.5752902758042565,-0.018005647771851804,0.4800102903229233,"(0.0, 0.0, 0.0, 0.0, 0.0, 0.0)",0.0358468230863414,False,,,,,False,,,,
24,Open,,,,,,"[-0.026750000193715096, 0.05299999937415123, 0.03999999910593033]","[0.0, -0.0, 1.4308518944899675]","[-0.09804610908031464, 0.06304314732551575, 0.03999999910593033]","[0.0, -0.0, 1.4308566269594332]","[0.026750000193715096, 0.05299999937415123, 0.03999999910593033]","[0.0, 0.0, -1.4345798203875788]","[0.09808305650949478, 0.06277728080749512, 0.03999999910593033]","[0.0, 0.0, -1.4525855975984745]",1.4447666872179874,3.339555007520341,"(0.0, 0.0, 0.0, 0.0, 0.0, 0.0)",-0.5371183361845069,4.8269553674989e-06,2.0878160072459843e-05,"(0.0, 0.0, 0.0, 0.0, 0.0, 0.0)",-0.03821759960562203,-1.448121925594662,-3.2500819841423465,"(0.0, 0.0, 0.0, 0.0, 0.0, 0.0)",0.5178266556878065,-0.016205556838873442,0.4320218239148067,"(0.0, 0.0, 0.0, 0.0, 0.0, 0.0)",0.0322808466635012,False,,,,,False,,,,
25,Open,,,,,,"[-0.026750000193715096, 0.05299999937415123, 0.03999999910593033]","[0.0, -0.0, 1.4447668540021588]","[-0.09817895293235779, 0.06205013021826744, 0.03999999910593033]","[0.0, -0.0, 1.4447715863131299]","[0.026750000193715096, 0.05299999937415123, 0.03999999910593033]","[0.0, 0.0, -1.448121993206969]","[0.09820891171693802, 0.06181041896343231, 0.03999999910593033]","[0.0, 0.0, -1.46432761016298]",1.4572900184961886,3.005599506768304,"(0.0, 0.0, 0.0, 0.0, 0.0, 0.0)",-0.483467731204937,4.849462099751187e-06,5.401615740548756e-06,"(0.0, 0.0, 0.0, 0.0, 0.0, 0.0)",-0.03441712855198442,-1.4603097330351957,-2.925073785728113,"(0.0, 0.0, 0.0, 0.0, 0.0, 0.0)",0.4660969568661882,-0.014585427836986846,0.38883096045278315,"(0.0, 0.0, 0.0, 0.0, 0.0, 0.0)",0.029067900465992856,False,,,,,False,,,,
26,Open,,,,,,"[-0.026750000193715096, 0.05299999937415123, 0.03999999910593033]","[0.0, -0.0, 1.4572900807517244]","[-0.0982866883277893, 0.061154916882514954, 0.03999999910593033]","[0.0, -0.0, 1.4572948921008348]","[0.026750000193715096, 0.05299999937415123, 0.03999999910593033]","[0.0, 0.0, -1.4603097470714805]","[0.09831098467111588, 0.06093886122107506, 0.03999999910593033]","[0.0, 0.0, -1.4748951413427742]",1.4685610166465697,2.705039556091476,"(0.0, 0.0, 0.0, 0.0, 0.0, 0.0)",-0.43517053908893033,4.819450845044722e-06,-7.202701129551542e-06,"(0.0, 0.0, 0.0, 0.0, 0.0, 0.0)",-0.030992645518402973,-1.471278759731676,-2.632566407155304,"(0.0, 0.0, 0.0, 0.0, 0.0, 0.0)",0.4195301522878829,-0.013127269246907155,0.3499580616191257,"(0.0, 0.0, 0.0, 0.0, 0.0, 0.0)",0.02617336062226555,False,,,,,False,,,,
27,Open,,,,,,"[-0.026750000193715096, 0.05299999937415123, 0.03999999910593033]","[0.0, -0.0, 1.4685611215819594]","[-0.09837405383586884, 0.06034812703728676, 0.03999999910593033]","[0.0, -0.0, 1.468565853091142]","[0.026750000193715096, 0.05299999937415123, 0.03999999910593033]","[0.0, 0.0, -1.4712788457263521]","[0.0983937606215477, 0.06015344336628914, 0.03999999910593033]","[0.0, 0.0, -1.4844061039497418]",1.4787049149819127,2.434535600482329,"(0.0, 0.0, 0.0, 0.0, 0.0, 0.0)",-0.39169363303347604,4.747151892642784e-06,-1.7351748576465223e-05,"(0.0, 0.0, 0.0, 0.0, 0.0, 0.0)",-0.02790732436186781,-1.4811508837585086,-2.3693097664397755,"(0.0, 0.0, 0.0, 0.0, 0.0, 0.0)",0.37761186810531283,-0.011814888241968555,0.3149714411852639,"(0.0, 0.0, 0.0, 0.0, 0.0, 0.0)",0.023565936472848985,False,,,,,False,,,,
28,Open,,,,,,"[-0.026750000193715096, 0.05299999937415123, 0.03999999910593033]","[0.0, -0.0, 1.4787049625213984]","[-0.09844490885734558, 0.059621214866638184, 0.03999999910593033]","[0.0, -0.0, 1.4787095898811649]","[0.026750000193715096, 0.05299999937415123, 0.03999999910593033]","[0.0, 0.0, -1.4811508165812142]","[0.09846089035272598, 0.059445831924676895, 0.03999999910593033]","[0.0, 0.0, -1.492965762433775]",1.4878344234837215,2.191082040434097,"(0.0, 0.0, 0.0, 0.0, 0.0, 0.0)",-0.35255677801820895,4.641283838470101e-06,-2.5408333001444004e-05,"(0.0, 0.0, 0.0, 0.0, 0.0, 0.0)",-0.02512787460267613,-1.4900357953826577,-2.132378789795796,"(0.0, 0.0, 0.0, 0.0, 0.0, 0.0)",0.33987880377374147,-0.010633710863257649,0.2834825708906175,"(0.0, 0.0, 0.0, 0.0, 0.0, 0.0)",0.021217361806457186,False,,,,,False,,,,
29,Close,,,"(0.010000165031897679, 0.16000264050809818, 0.003919197399597577)","(-5.388791991209616e-05, 3.3679978815229247e-06, -9.074720008653711e-11)",,"[-0.026750000193715096, 0.05299999937415123, 0.03999999910593033]","[0.0, -0.0, 1.487834617901085]","[-0.09850236773490906, 0.05896640568971634, 0.03999999910593033]","[0.0, -0.0, 1.4878390921106803]","[0.026750000193715096, 0.05299999937415123, 0.03999999910593033]","[0.0, 0.0, -1.4900358577435544]","[0.09851532429456711, 0.05880843847990036, 0.03999999910593033]","[0.0, 0.0, -1.5006695807985118]",1.4960509811353493,1.9719738363906854,"(0.0, 0.0, 0.0, 0.0, 0.0, 0.0)",-0.3173274216127963,4.509251873886308e-06,-3.168767150011037e-05,"(0.0, 0.0, 0.0, 0.0, 0.0, 0.0)",-0.022624215793833224,-1.498032215844392,-1.9191409108162163,"(0.0, 0.0, 0.0, 0.0, 0.0, 0.0)",0.30591369390909257,-0.00957062017308593,0.2551417656412126,"(0.0, 0.0, 0.0, 0.0, 0.0, 0.0)",0.019102112305110365,False,,,,,False,,,,
30,Close,,,"(0.010000330010418335, 0.1600052801621647, 0.0076635160840755065)","(-0.00010776674212266888, 6.7354271463595154e-06, -3.629275205618536e-10)",,"[-0.026750000193715096, 0.05299999937415123, 0.03999999910593033]","[0.0, -0.0, 1.4960509653323988]","[-0.09854896366596222, 0.058376654982566833, 0.03999999910593033]","[0.0, -0.0, 1.4960555203126162]","[0.026750000193715096, 0.05299999937415123, 0.03999999910593033]","[0.0, 0.0, -1.4980320325532246]","[0.09855947643518448, 0.05823439359664917, 0.03999999910593033]","[0.0, 0.0, -1.5076028800413472]",1.4064458830218143,-21.505223547248388,"(0.0, 0.0, 0.0, 0.0, 0.0, 0.0)",-36.32500847077206,-0.08999559064729075,-21.600023975799512,"(0.0, 0.0, 0.0, 0.0, 0.0, 0.0)",-4.679136399120495,-1.4082289942599528,21.552773180265405,"(0.0, 0.0, 0.0, 0.0, 0.0, 0.0)",36.31473208701179,0.08138609105625041,21.82961069504072,"(0.0, 0.0, 0.0, 0.0, 0.0, 0.0)",4.675963213372079,False,,,,,False,,,,
31,Close,,,"(0.010000494936733278, 0.16000791898094055, 0.011233038807318392)","(-0.00016163646818851668, 1.0102287881965475e-05, -8.164490687548302e-10)",,"[-0.026750000193715096, 0.05299999937415123, 0.03999999910593033]","[0.0, -0.0, 1.4064459844712927]","[-0.0977797880768776, 0.06478003412485123, 0.03999999910593033]","[0.0, -0.0, 1.316450240076391]","[0.026750000193715096, 0.05299999937415123, 0.03999999910593033]","[0.0, 0.0, -1.4082291009672807]","[0.09780067950487137, 0.06465335935354233, 0.03999999910593033]","[0.0, 0.0, -1.3268428349863826]",1.325801294719633,-19.354701192523546,"(0.0, 0.0, 0.0, 0.0, 0.0, 0.0)",3.2936342521930255,-0.17099646652613912,-19.44021021092361,"(0.0, 0.0, 0.0, 0.0, 0.0, 0.0)",0.4145426679866387,-1.3274060948339577,19.39749586223887,"(0.0, 0.0, 0.0, 0.0, 0.0, 0.0)",-3.3024243844052092,0.16324791947241268,19.646838819878944,"(0.0, 0.0, 0.0, 0.0, 0.0, 0.0)",-0.41699994760359754,False,,,,,False,,,,
32,Close,,,"(0.010000659812012168, 0.16001055698314023, 0.0146278458391823)","(-0.0002154970996661642, 1.346858017578936e-05, -1.4512199879406586e-09)",,"[-0.026750000193715096, 0.05299999937415123, 0.03999999910593033]","[0.0, -0.0, 1.3258013857525741]","[-0.09659997373819351, 0.07046370953321457, 0.03999999910593033]","[0.0, -0.0, 1.1548048042561467]","[0.026750000193715096, 0.05299999937415123, 0.03999999910593033]","[0.0, 0.0, -1.3274060658778382]","[0.09662791341543198, 0.07035159319639206, 0.03999999910593033]","[0.0, 0.0, -1.1641581075845935]",1.2532211652476697,-17.41923107327119,"(0.0, 0.0, 0.0, 0.0, 0.0, 0.0)",2.9685258329366073,-0.24389721437960032,-17.496179484830687,"(0.0, 0.0, 0.0, 0.0, 0.0, 0.0)",0.3760018756193849,-1.2546654853505619,17.457746276014984,"(0.0, 0.0, 0.0, 0.0, 0.0, 0.0)",-2.976480273609718,0.2369235243908578,17.682145180426822,"(0.0, 0.0, 0.0, 0.0, 0.0, 0.0)",-0.3782508099482112,False,,,,,False,,,,
33,Close,,,"(0.010000824637423049, 0.16001319418745247, 0.017848014970055004)","(-0.00026934863811186216, 1.6834304115272585e-05, -2.2671484573282825e-09)",,"[-0.026750000193715096, 0.05299999937415123, 0.03999999910593033]","[0.0, -0.0, 1.2532212515508983]","[-0.09514966607093811, 0.07548300176858902, 0.03999999910593033]","[0.0, -0.0, 1.0093239867956962]","[0.026750000193715096, 0.05299999937415123, 0.03999999910593033]","[0.0, 0.0, -1.254665405963893]","[0.09518206864595413, 0.07538418471813202, 0.03999999910593033]","[0.0, 0.0, -1.0177419933055243]",1.1878990487229026,-15.677307965944074,"(0.0, 0.0, 0.0, 0.0, 0.0, 0.0)",2.675103284419244,-0.30950785045582774,-15.746552658294572,"(0.0, 0.0, 0.0, 0.0, 0.0, 0.0)",0.34074508229325023,-1.1891989368155058,15.711971648413485,"(0.0, 0.0, 0.0, 0.0, 0.0, 0.0)",-2.6822973218910153,0.30323153162132754,15.913921735312746,"(0.0, 0.0, 0.0, 0.0, 0.0, 0.0)",-0.34279935345822066,False,,,,,False,,,,
34,Close,,,"(0.010000989414132393, 0.1600158306125408, 0.020893621515273818)","(-0.00032319108508158773, 2.0199459787849396e-05, -3.2641426920478403e-09)",,"[-0.026750000193715096, 0.05299999937415123, 0.03999999910593033]","[0.0, -0.0, 1.1878990574339587]","[-0.09353619813919067, 0.07989988476037979, 0.03999999910593033]","[0.0, -0.0, 0.8783912846834516]","[0.026750000193715096, 0.05299999937415123, 0.03999999910593033]","[0.0, 0.0, -1.1891990098250689]","[0.09357111155986786, 0.07981304824352264, 0.03999999910593033]","[0.0, 0.0, -0.8859674697633095]",1.1291091438506125,-14.109577169349663,"(0.0, 0.0, 0.0, 0.0, 0.0, 0.0)",2.4103712722760626,-0.36855738916456426,-14.17188929009676,"(0.0, 0.0, 0.0, 0.0, 0.0, 0.0)",0.3085687115248564,-1.1302790431339553,14.140774483572143,"(0.0, 0.0, 0.0, 0.0, 0.0, 0.0)",-2.4168742890236286,0.36290870417903687,14.322521413850238,"(0.0, 0.0, 0.0, 0.0, 0.0, 0.0)",-0.31044204201279674,False,,,,,False,,,,
35,Close,,,"(0.010001154143305145, 0.16001846627704427, 0.023764738319401603)","(-0.00037702444213104407, 2.3564047280946926e-05, -4.4421109431381166e-09)",,"[-0.026750000193715096, 0.05299999937415123, 0.03999999910593033]","[0.0, -0.0, 1.1291090274464952]","[-0.09184028208255768, 0.08377750217914581, 0.03999999910593033]","[0.0, -0.0, 0.7605517150898052]","[0.026750000193715096, 0.05299999937415123, 0.03999999910593033]","[0.0, 0.0, -1.130279133319625]","[0.09187624603509903, 0.08370133489370346, 0.03999999910593033]","[0.0, 0.0, -0.7673703325611945]",1.0761982294655512,-12.698619452414698,"(0.0, 0.0, 0.0, 0.0, 0.0, 0.0)",2.1715845710489208,-0.42170194324014043,-12.754692978138287,"(0.0, 0.0, 0.0, 0.0, 0.0, 0.0)",0.27924932151422227,-1.07725113882056,12.72669703521493,"(0.0, 0.0, 0.0, 0.0, 0.0, 0.0)",-2.177460276301377,0.41661812854294633,12.890261847338277,"(0.0, 0.0, 0.0, 0.0, 0.0, 0.0)",-0.2809551529003472,False,,,,,False,,,,
36,Close,,,"(0.010001318826104761, 0.16002110119957821, 0.02646143576036139)","(-0.0004308487108156613, 2.692806668198511e-05, -5.800961497533997e-09)",,"[-0.026750000193715096, 0.05299999937415123, 0.03999999910593033]","[0.0, -0.0, 1.076198055145404]","[-0.09012148529291153, 0.08717681467533112, 0.03999999910593033]","[0.0, -0.0, 0.6544962762796218]","[0.026750000193715096, 0.05299999937415123, 0.03999999910593033]","[0.0, 0.0, -1.0772510781061955]","[0.09015743434429169, 0.08711007237434387, 0.03999999910593033]","[0.0, 0.0, -0.6606329452337051]",1.028578406518996,-11.428757507173229,"(0.0, 0.0, 0.0, 0.0, 0.0, 0.0)",1.9562489498726314,-0.46953201391559385,-11.479216962108818,"(0.0, 0.0, 0.0, 0.0, 0.0, 0.0)",0.2525697399559188,-1.0295260249385039,11.454027331693439,"(0.0, 0.0, 0.0, 0.0, 0.0, 0.0)",-1.961555706583625,0.46495658231577774,11.601228905479532,"(0.0, 0.0, 0.0, 0.0, 0.0, 0.0)",-0.25412105363877113,False,,,,,False,,,,
37,Close,,,"(0.010001483463693249, 0.1600237353987347, 0.0289837817534302)","(-0.0004846638926905951, 3.0291518078376737e-05, -7.3406026780539124e-09)",,"[-0.026750000193715096, 0.05299999937415123, 0.03999999910593033]","[0.0, -0.0, 1.028578444789276]","[-0.08842276781797409, 0.09015467017889023, 0.03999999910593033]","[0.0, -0.0, 0.5590464126725148]","[0.026750000193715096, 0.05299999937415123, 0.03999999910593033]","[0.0, 0.0, -1.029526007298545]","[0.08845794945955276, 0.09009620547294617, 0.03999999910593033]","[0.0, 0.0, -0.564569399435659]",0.9857205658670964,-10.285881756455906,"(0.0, 0.0, 0.0, 0.0, 0.0, 0.0)",1.7621005438122825,-0.5125790520819234,-10.331289159919107,"(0.0, 0.0, 0.0, 0.0, 0.0, 0.0)",0.22832149176550065,-0.9865734224446535,10.308624598524094,"(0.0, 0.0, 0.0, 0.0, 0.0, 0.0)",-1.766891708603882,0.508461165120635,10.441099873165749,"(0.0, 0.0, 0.0, 0.0, 0.0, 0.0)",-0.22973068702752517,False,,,,,False,,,,
38,Close,,,"(0.010001648057231211, 0.16002636889308344, 0.03133184175509247)","(-0.0005384699893107284, 3.3654401557527444e-05, -9.06094284338731e-09)",,"[-0.026750000193715096, 0.05299999937415123, 0.03999999910593033]","[0.0, -0.0, 0.9857205423734198]","[-0.08677425980567932, 0.09276290237903595, 0.03999999910593033]","[0.0, -0.0, 0.47314147483112123]","[0.026750000193715096, 0.05299999937415123, 0.03999999910593033]","[0.0, 0.0, -0.9865734261287252]","[0.08680814504623413, 0.09271169453859329, 0.03999999910593033]","[0.0, 0.0, -0.4781122693565934]",0.9471485092803869,-9.257293580810316,"(0.0, 0.0, 0.0, 0.0, 0.0, 0.0)",1.587086438141582,-0.5513213633331018,-9.29815470028281,"(0.0, 0.0, 0.0, 0.0, 0.0, 0.0)",0.206306403170868,-0.9479160802001881,9.277762138671687,"(0.0, 0.0, 0.0, 0.0, 0.0, 0.0)",-1.5914107042435905,0.5476152664096928,9.396984309373877,"(0.0, 0.0, 0.0, 0.0, 0.0, 0.0)",-0.2075852193448244,False,,,,,False,,,,
39,Close,,,"(0.01000181260787789, 0.16002900170117218, 0.03350567876675359)","(-0.00059226700223067, 3.7016717206835695e-05, -1.0961890388082131e-08)",,"[-0.026750000193715096, 0.05299999937415123, 0.03999999910593033]","[0.0, -0.0, 0.9471486716739237]","[-0.08519625663757324, 0.09504801034927368, 0.03999999910593033]","[0.0, -0.0, 0.39582717163487297]","[0.026750000193715096, 0.05299999937415123, 0.03999999910593033]","[0.0, 0.0, -0.9479160840165974]","[0.08522851020097733, 0.09500313550233841, 0.03999999910593033]","[0.0, 0.0, -0.4003008647547732]",0.9124336583523481,-8.331564222729286,"(0.0, 0.0, 0.0, 0.0, 0.0, 0.0)",1.4293465062267445,-0.5861894225076075,-8.368334201881392,"(0.0, 0.0, 0.0, 0.0, 0.0, 0.0)",0.18633757536892917,-0.9131244721801693,8.349985924804516,"(0.0, 0.0, 0.0, 0.0, 0.0, 0.0)",-1.433248242084051,0.5828539364930729,8.45728082001123,"(0.0, 0.0, 0.0, 0.0, 0.0, 0.0)",-0.18749704763631705,False,,,,,False,,,,
40,Close,,,"(0.010001977116791199, 0.1600316338415276, 0.035505353338314005)","(-0.0006460549330047555, 4.037846511369274e-05, -1.3043353742532214e-08)",,"[-0.026750000193715096, 0.05299999937415123, 0.03999999910593033]","[0.0, -0.0, 0.9124336635104583]","[-0.08370164036750793, 0.0970512256026268, 0.03999999910593033]","[0.0, -0.0, 0.3262442150321584]","[0.026750000193715096, 0.05299999937415123, 0.03999999910593033]","[0.0, 0.0, -0.9131245532476111]","[0.08373206108808517, 0.09701187163591385, 0.03999999910593033]","[0.0, 0.0, -0.3302705841133475]",0.8811902925171133,-7.498407800456356,"(0.0, 0.0, 0.0, 0.0, 0.0, 0.0)",1.2871965063691413,-0.6175706567763247,-7.531496224492115,"(0.0, 0.0, 0.0, 0.0, 0.0, 0.0)",0.16823988009592084,-0.8818120249621524,7.514987332324067,"(0.0, 0.0, 0.0, 0.0, 0.0, 0.0)",-1.2907160846573733,0.6145687204653795,7.61154815335357,"(0.0, 0.0, 0.0, 0.0, 0.0, 0.0)",-0.16929032064296096,False,,,,,False,,,,
41,Close,,,"(0.010002141585127773, 0.16003426533265583, 0.03733092357160428)","(-0.0006998337831870475, 4.3739645365482716e-05, -1.5305241372964883e-08)",,"[-0.026750000193715096, 0.05299999937415123, 0.03999999910593033]","[0.0, -0.0, 0.8811903688816151]","[-0.08229776471853256, 0.09880879521369934, 0.03999999910593033]","[0.0, -0.0, 0.2636196251065186]","[0.026750000193715096, 0.05299999937415123, 0.03999999910593033]","[0.0, 0.0, -0.8818121535754343]","[0.08232623338699341, 0.098774254322052, 0.03999999910593033]","[0.0, 0.0, -0.26724331826119446]",0.853071263265402,-6.7485670204107215,"(0.0, 0.0, 0.0, 0.0, 0.0, 0.0)",1.1591124175888132,-0.6458137504217961,-6.77834247491313,"(0.0, 0.0, 0.0, 0.0, 0.0, 0.0)",0.1518500972569631,-0.8536308224659371,6.763488599091658,"(0.0, 0.0, 0.0, 0.0, 0.0, 0.0)",-1.1622865309865396,0.643112008739745,6.850389185847702,"(0.0, 0.0, 0.0, 0.0, 0.0, 0.0)",-0.15280109527428076,False,,,,,False,,,,
42,Close,,,"(0.010002306014043007, 0.16003689619304312, 0.038982445123681576)","(-0.0007536035543313348, 4.7100258049582536e-05, -1.7747461781428295e-08)",,"[-0.026750000193715096, 0.05299999937415123, 0.03999999910593033]","[0.0, -0.0, 0.8530713239495782]","[-0.08098787814378738, 0.10035242885351181, 0.03999999910593033]","[0.0, -0.0, 0.2072574956851119]","[0.026750000193715096, 0.05299999937415123, 0.03999999910593033]","[0.0, 0.0, -0.8536307856313979]","[0.08101436495780945, 0.10032207518815994, 0.03999999910593033]","[0.0, 0.0, -0.21051882644475053]",0.8277641369388617,-6.073710318369648,"(0.0, 0.0, 0.0, 0.0, 0.0, 0.0)",1.043715976216214,-0.6712325191394197,-6.100504492229669,"(0.0, 0.0, 0.0, 0.0, 0.0, 0.0)",0.1370167890019201,-0.8282677402193435,6.0871397391824935,"(0.0, 0.0, 0.0, 0.0, 0.0, 0.0)",-1.0465779375227178,0.6688009525283538,6.165346509266115,"(0.0, 0.0, 0.0, 0.0, 0.0, 0.0)",-0.1378772244212715,False,,,,,False,,,,
43,Close,,,"(0.010002470404691093, 0.16003952644115657, 0.04045997120998789)","(-0.0008073642479911328, 5.0460303253361964e-05, -2.0369923505779015e-08)",,"[-0.026750000193715096, 0.05299999937415123, 0.03999999910593033]","[0.0, -0.0, 0.8277641182932235]","[-0.07977228611707687, 0.10170972347259521, 0.03999999910593033]","[0.0, -0.0, 0.1565316389415725]","[0.026750000193715096, 0.05299999937415123, 0.03999999910593033]","[0.0, 0.0, -0.8282677342123946]","[0.07979680597782135, 0.10168302059173584, 0.03999999910593033]","[0.0, 0.0, -0.1594667900835625]",0.8049877232449756,-5.4663392865326825,"(0.0, 0.0, 0.0, 0.0, 0.0, 0.0)",0.9397613626777375,-0.6941093969081942,-5.49045066450586,"(0.0, 0.0, 0.0, 0.0, 0.0, 0.0)",0.12359998406321729,-0.8054409661974091,5.478425765264244,"(0.0, 0.0, 0.0, 0.0, 0.0, 0.0)",-0.9423413878167864,0.6919209877745929,5.54880845909737,"(0.0, 0.0, 0.0, 0.0, 0.0, 0.0)",-0.12437805104754245,False,,,,,False,,,,
44,Close,,,"(0.010002634758225062, 0.1600421560954447, 0.041763552607370504)","(-0.000861115865719684, 5.381978106418352e-05, -2.3172535119669436e-08)",,"[-0.026750000193715096, 0.05299999937415123, 0.03999999910593033]","[0.0, -0.0, 0.8049877164750058]","[-0.07864919304847717, 0.10290464758872986, 0.03999999910593033]","[0.0, -0.0, 0.11087832859978779]","[0.026750000193715096, 0.05299999937415123, 0.03999999910593033]","[0.0, 0.0, -0.805440964305088]","[0.07867180556058884, 0.10288111865520477, 0.03999999910593033]","[0.0, 0.0, -0.11351997099607207]",0.784488950920478,-4.919705357879415,"(0.0, 0.0, 0.0, 0.0, 0.0, 0.0)",0.8461229797239068,-0.7146985741739192,-4.941402543774016,"(0.0, 0.0, 0.0, 0.0, 0.0, 0.0)",0.11147072977230046,-0.7848968695776682,4.93058318873782,"(0.0, 0.0, 0.0, 0.0, 0.0, 0.0)",-0.8484484528940599,0.7127290066915236,4.993924540063379,"(0.0, 0.0, 0.0, 0.0, 0.0, 0.0)",-0.1121739668696123,False,,,,,False,,,,
45,Close,,,"(0.010002799075796832, 0.16004478517433812, 0.04289323765696492)","(-0.0009148584090699577, 5.7178691569402595e-05, -2.615520523253533e-08)",,"[-0.026750000193715096, 0.05299999937415123, 0.03999999910593033]","[0.0, -0.0, 0.7844889896573499]","[-0.07761538028717041, 0.10395795851945877, 0.03999999910593033]","[0.0, -0.0, 0.06979037514545033]","[0.026750000193715096, 0.05299999937415123, 0.03999999910593033]","[0.0, 0.0, -0.7848969068252226]","[0.07763615995645523, 0.10393720120191574, 0.03999999910593033]","[0.0, 0.0, -0.07216786709232846]",0.7660400558284302,-4.427734822091471,"(0.0, 0.0, 0.0, 0.0, 0.0, 0.0)",0.7617842585328375,-0.7332288222135146,-4.44725952950288,"(0.0, 0.0, 0.0, 0.0, 0.0, 0.0)",0.10051055612556806,-0.7664071826199014,4.437524869864038,"(0.0, 0.0, 0.0, 0.0, 0.0, 0.0)",-0.7638799793048979,0.7314562121459494,4.494529309062177,"(0.0, 0.0, 0.0, 0.0, 0.0, 0.0)",-0.10114588070786824,False,,,,,False,,,,
46,Close,,,"(0.010002963358557236, 0.16004741369625017, 0.04384907226694074)","(-0.0009685918795946493, 6.053703485636736e-05, -2.9317842489583264e-08)",,"[-0.026750000193715096, 0.05299999937415123, 0.03999999910593033]","[0.0, -0.0, 0.7660400058439011]","[-0.07666666060686111, 0.10488764196634293, 0.03999999910593033]","[0.0, -0.0, 0.0328112365488731]","[0.026750000193715096, 0.05299999937415123, 0.03999999910593033]","[0.0, 0.0, -0.7664072421942376]","[0.07668570429086685, 0.1048693135380745, 0.03999999910593033]","[0.0, 0.0, -0.03495097036229706]",0.7494360502455871,-3.984961339882325,"(0.0, 0.0, 0.0, 0.0, 0.0, 0.0)",0.6858274268188955,-0.7499060350622873,-4.002531083705426,"(0.0, 0.0, 0.0, 0.0, 0.0, 0.0)",0.09061088591719418,-0.7497664643579113,3.9937723828776335,"(0.0, 0.0, 0.0, 0.0, 0.0, 0.0)",-0.6877158393779155,0.7483106866034595,4.045073869802414,"(0.0, 0.0, 0.0, 0.0, 0.0, 0.0)",-0.09118463108881669,False,,,,,False,,,,
47,Close,,,"(0.010003127607656072, 0.16005004167957756, 0.04463109991511072)","(-0.0010223162788461832, 6.389481101241881e-05, -3.266035557177819e-08)",,"[-0.026750000193715096, 0.05299999937415123, 0.03999999910593033]","[0.0, -0.0, 0.7494360616149593]","[-0.07579827308654785, 0.1057092696428299, 0.03999999910593033]","[0.0, 0.0, -0.00046998485639781964]","[0.026750000193715096, 0.05299999937415123, 0.03999999910593033]","[0.0, 0.0, -0.7497665229086657]","[0.07581568509340286, 0.10569305717945099, 0.03999999910593033]","[0.0, 0.0, -0.0014557777936095985]",0.7344924452210284,-3.5864652058940925,"(0.0, 0.0, 0.0, 0.0, 0.0, 0.0)",0.6173964503690262,-0.7649166300024903,-3.602542785648727,"(0.0, 0.0, 0.0, 0.0, 0.0, 0.0)",0.08164469448201127,-0.7347898179221202,3.594395144589871,"(0.0, 0.0, 0.0, 0.0, 0.0, 0.0)",-0.61909767957405,0.7634808239898891,3.6408329727431203,"(0.0, 0.0, 0.0, 0.0, 0.0, 0.0)",-0.08216247127692902,False,,,,,False,,,,
48,Close,,,"(0.010003291824242136, 0.16005266914270105, 0.04523936165140331)","(-0.0010760316083767074, 6.725202012489063e-05, -3.618265319583079e-08)",,"[-0.026750000193715096, 0.05299999937415123, 0.03999999910593033]","[0.0, -0.0, 0.7344924171356654]","[-0.07500515878200531, 0.10643631219863892, 0.03999999910593033]","[0.0, 0.0, -0.03042418292779103]","[0.026750000193715096, 0.05299999937415123, 0.03999999910593033]","[0.0, 0.0, -0.7347898072320369]","[0.07502105087041855, 0.10642196238040924, 0.03999999910593033]","[0.0, -0.0, 0.028691003185096618]",0.7210432006989256,-3.227818685304683,"(0.0, 0.0, 0.0, 0.0, 0.0, 0.0)",0.5558325671900768,-0.77842604750784,-3.2422602012839143,"(0.0, 0.0, 0.0, 0.0, 0.0, 0.0)",0.07360992294062317,-0.7213108361299082,3.234955630130884,"(0.0, 0.0, 0.0, 0.0, 0.0, 0.0)",-0.5573653507703412,0.7771338289584356,3.2767211924511668,"(0.0, 0.0, 0.0, 0.0, 0.0, 0.0)",-0.07407739542501454,False,,,,,False,,,,
49,Close,,,"(0.010003456009463264, 0.16005529610398603, 0.04567389610019914)","(-0.0011297378697381003, 7.060866228110946e-05, -3.988464411418517e-08)",,"[-0.026750000193715096, 0.05299999937415123, 0.03999999910593033]","[0.0, -0.0, 0.7210432248946826]","[-0.07428213953971863, 0.10708045959472656, 0.03999999910593033]","[0.0, 0.0, -0.05738284539856889]","[0.026750000193715096, 0.05299999937415123, 0.03999999910593033]","[0.0, 0.0, -0.7213108742429458]","[0.07429660856723785, 0.10706773400306702, 0.03999999910593033]","[0.0, -0.0, 0.0558229905847104]",0.708938880629033,-2.905036816774215,"(0.0, 0.0, 0.0, 0.0, 0.0, 0.0)",0.5003668258645501,-0.7905844163893876,-2.9180085315714246,"(0.0, 0.0, 0.0, 0.0, 0.0, 0.0)",0.06632913423961855,-0.7091797525169173,2.911460067117798,"(0.0, 0.0, 0.0, 0.0, 0.0, 0.0)",-0.5017475327577147,0.7894214258858812,2.9490232625869344,"(0.0, 0.0, 0.0, 0.0, 0.0, 0.0)",-0.06675089596581112,False,,,,,False,,,,
50,Close,,,"(0.010001644182078712, 0.16005595153396976, 0.045940321410535084)","(-0.0011271805217326655, 1.767785898679914e-05, -1.508889111938428e-08)",,"[-0.026750000193715096, 0.05299999937415123, 0.03999999910593033]","[0.0, -0.0, 0.7089389671526269]","[-0.07362406700849533, 0.10765182226896286, 0.03999999910593033]","[0.0, 0.0, -0.08164554069303018]","[0.026750000193715096, 0.05299999937415123, 0.03999999910593033]","[0.0, 0.0, -0.7091797033714331]","[0.0736372321844101, 0.10764053463935852, 0.03999999910593033]","[0.0, -0.0, 0.08024167743029369]",0.6980449925661297,-2.6145331350967917,"(0.0, 0.0, 0.0, 0.0, 0.0, 0.0)",0.4504252929298086,-0.8015268519725993,-2.6261845399708146,"(0.0, 0.0, 0.0, 0.0, 0.0, 0.0)",0.059761147909024356,-0.6982617772652256,2.6203140604060167,"(0.0, 0.0, 0.0, 0.0, 0.0, 0.0)",-0.4516689022418484,0.8004801661036254,2.6540976522586175,"(0.0, 0.0, 0.0, 0.0, 0.0, 0.0)",-0.06014157277442886,False,,,,,False,,,,
51,Close,,,"(0.009998458164918766, 0.16005543218265145, 0.046184544665354044)","(-0.001116587313714928, -4.731063982249702e-05, 3.3486629919706074e-09)",,"[-0.026750000193715096, 0.05299999937415123, 0.03999999910593033]","[0.0, -0.0, 0.6980450466292163]","[-0.07302592694759369, 0.10815921425819397, 0.03999999910593033]","[0.0, 0.0, -0.1034818592301779]","[0.026750000193715096, 0.05299999937415123, 0.03999999910593033]","[0.0, 0.0, -0.6982617371246688]","[0.07303788512945175, 0.10814917832612991, 0.03999999910593033]","[0.0, -0.0, 0.10221840210156648]",0.6882404933095168,-2.3530798215871136,"(0.0, 0.0, 0.0, 0.0, 0.0, 0.0)",0.40545980991383274,-0.8113749570468809,-2.3635452178275753,"(0.0, 0.0, 0.0, 0.0, 0.0, 0.0)",0.0538375991228723,-0.688435599538703,2.358282654365416,"(0.0, 0.0, 0.0, 0.0, 0.0, 0.0)",-0.4065798463491374,0.810432944800545,2.3886668872606847,"(0.0, 0.0, 0.0, 0.0, 0.0, 0.0)",-0.0541806611811555,False,,,,,False,,,,
52,Close,,,"(0.0099979269032565, 0.16005188637635104, 0.04640949954916324)","(-0.0010442772263960227, -5.814874739306873e-05, 7.787963860925158e-09)",,"[-0.026750000193715096, 0.05299999937415123, 0.03999999910593033]","[0.0, -0.0, 0.688240548987758]","[-0.07248289883136749, 0.10861026495695114, 0.03999999910593033]","[0.0, 0.0, -0.12313446206189271]","[0.026750000193715096, 0.05299999937415123, 0.03999999910593033]","[0.0, 0.0, -0.6884356086136862]","[0.07249374687671661, 0.10860133916139603, 0.03999999910593033]","[0.0, -0.0, 0.1219973374555316]",0.679416393078237,-2.117784055507141,"(0.0, 0.0, 0.0, 0.0, 0.0, 0.0)",0.3649762140031281,-0.8202374613421928,-2.12700103087486,"(0.0, 0.0, 0.0, 0.0, 0.0, 0.0)",0.04851286211734207,-0.6795919883598663,2.1224666829208143,"(0.0, 0.0, 0.0, 0.0, 0.0, 0.0)",-0.36598488497268467,0.8193896503204905,2.149609324786922,"(0.0, 0.0, 0.0, 0.0, 0.0, 0.0)",-0.04882227338805697,False,,,,,False,,,,
53,Close,,,"(0.009997966950406065, 0.16004795201914346, 0.046616050094935475)","(-0.0009640430328522325, -5.7324486097668704e-05, 4.2980615420070005e-09)",,"[-0.026750000193715096, 0.05299999937415123, 0.03999999910593033]","[0.0, -0.0, 0.6794163791618646]","[-0.07199041545391083, 0.10901165008544922, 0.03999999910593033]","[0.0, 0.0, -0.1408210743259801]","[0.026750000193715096, 0.05299999937415123, 0.03999999910593033]","[0.0, 0.0, -0.6795920181483843]","[0.07200025022029877, 0.1090037003159523, 0.03999999910593033]","[0.0, -0.0, 0.13979766167419433]",0.6714747537704133,-1.9059934338776885,"(0.0, 0.0, 0.0, 0.0, 0.0, 0.0)",0.3285291326313333,-0.8282143561304102,-1.914454749172182,"(0.0, 0.0, 0.0, 0.0, 0.0, 0.0)",0.043663125146434535,-0.6716327895238797,1.9102077206367922,"(0.0, 0.0, 0.0, 0.0, 0.0, 0.0)",-0.3294374536237565,0.8274513303019508,1.934803195550486,"(0.0, 0.0, 0.0, 0.0, 0.0, 0.0)",-0.043941831288343336,False,,,,,False,,,,
54,Close,,,"(0.009998107600018924, 0.16004411888380865, 0.0468059782297436)","(-0.0008858309445970004, -5.447527859797503e-05, 4.128601528647624e-08)",,"[-0.026750000193715096, 0.05299999937415123, 0.03999999910593033]","[0.0, -0.0, 0.6714747449539094]","[-0.07154417037963867, 0.10936915874481201, 0.03999999910593033]","[0.0, 0.0, -0.15673960659097733]","[0.026750000193715096, 0.05299999937415123, 0.03999999910593033]","[0.0, 0.0, -0.6716327690441329]","[0.07155308127403259, 0.10936208069324493, 0.03999999910593033]","[0.0, -0.0, 0.15581855230220754]",0.664327278393372,-1.7153940904899205,"(0.0, 0.0, 0.0, 0.0, 0.0, 0.0)",0.2957170811345372,-0.8353934979980445,-1.7229940482322428,"(0.0, 0.0, 0.0, 0.0, 0.0, 0.0)",0.03934112702889199,-0.6644695105714917,1.7191869485731137,"(0.0, 0.0, 0.0, 0.0, 0.0, 0.0)",-0.2965349881453131,0.8347067784412298,1.7413075534269409,"(0.0, 0.0, 0.0, 0.0, 0.0, 0.0)",-0.039592428071821256,False,,,,,False,,,,
55,Close,,,"(0.009998248644105466, 0.16004048002584464, 0.0469807018618576)","(-0.0008115684428503489, -5.1596750749095254e-05, 7.881188886077776e-08)",,"[-0.026750000193715096, 0.05299999937415123, 0.03999999910593033]","[0.0, -0.0, 0.6643273336690038]","[-0.07114013284444809, 0.10968788713216782, 0.03999999910593033]","[0.0, 0.0, -0.17106622141763456]","[0.026750000193715096, 0.05299999937415123, 0.03999999910593033]","[0.0, 0.0, -0.6644694779113771]","[0.07114819437265396, 0.10968156903982162, 0.03999999910593033]","[0.0, -0.0, 0.17023725548976373]",0.6578945505540348,-1.543854681440929,"(0.0, 0.0, 0.0, 0.0, 0.0, 0.0)",0.2661784897251144,-0.8418546682622772,-1.5506808634158242,"(0.0, 0.0, 0.0, 0.0, 0.0, 0.0)",0.03542959308904228,-0.6580225595143425,1.547268253715802,"(0.0, 0.0, 0.0, 0.0, 0.0, 0.0)",-0.26691494494593054,0.8412366239853526,1.567162930589489,"(0.0, 0.0, 0.0, 0.0, 0.0, 0.0)",-0.035656056287006674,False,,,,,False,,,,
56,Close,,,"(0.009998390752654573, 0.16003702894197389, 0.04714144752999396)","(-0.0007411380797103218, -4.869650481896534e-05, 1.1687517768299383e-07)",,"[-0.026750000193715096, 0.05299999937415123, 0.03999999910593033]","[0.0, -0.0, 0.6578945475257985]","[-0.07077455520629883, 0.1099722608923912, 0.03999999910593033]","[0.0, 0.0, -0.18396012465064338]","[0.026750000193715096, 0.05299999937415123, 0.03999999910593033]","[0.0, 0.0, -0.6580225896942233]","[0.07078184932470322, 0.10996662080287933, 0.03999999910593033]","[0.0, -0.0, 0.18321406389742323]",0.6521050954986313,-1.3894692132968354,"(0.0, 0.0, 0.0, 0.0, 0.0, 0.0)",0.23958744527110798,-0.8476696697618468,-1.395600359896693,"(0.0, 0.0, 0.0, 0.0, 0.0, 0.0)",0.031904902566438624,-0.6522203035629083,1.392541428344221,"(0.0, 0.0, 0.0, 0.0, 0.0, 0.0)",-0.24025052935853647,0.8471134329078756,1.410434141405507,"(0.0, 0.0, 0.0, 0.0, 0.0, 0.0)",-0.032108956045352514,False,,,,,False,,,,
57,Close,,,"(0.009998534235924597, 0.16003375955333046, 0.04728933347451534)","(-0.0006744157946989166, -4.576820860538318e-05, 1.554405829918684e-07)",,"[-0.026750000193715096, 0.05299999937415123, 0.03999999910593033]","[0.0, -0.0, 0.6521051450040646]","[-0.07044398784637451, 0.11022617667913437, 0.03999999910593033]","[0.0, 0.0, -0.19556454293122102]","[0.026750000193715096, 0.05299999937415123, 0.03999999910593033]","[0.0, 0.0, -0.6522203497730787]","[0.07045057415962219, 0.11022114753723145, 0.03999999910593033]","[0.0, -0.0, 0.19489313608724637]",0.6468945859487681,-1.250522291967151,"(0.0, 0.0, 0.0, 0.0, 0.0, 0.0)",0.2156503992603495,-0.8529031244958994,-1.2560291361726517,"(0.0, 0.0, 0.0, 0.0, 0.0, 0.0)",0.02872919688306315,-0.6469982732066174,1.253287285509799,"(0.0, 0.0, 0.0, 0.0, 0.0, 0.0)",-0.2162473971085442,0.8524025140258721,1.2693794683191757,"(0.0, 0.0, 0.0, 0.0, 0.0, 0.0)",-0.02891303657535659,False,,,,,False,,,,
58,Close,,,"(0.009998679410322496, 0.16003066597344334, 0.0474253884764576)","(-0.0006112814540129935, -4.2805404436077314e-05, 1.9447426774393396e-07)",,"[-0.026750000193715096, 0.05299999937415123, 0.03999999910593033]","[0.0, -0.0, 0.6468945636476681]","[-0.07014521211385727, 0.11045306921005249, 0.03999999910593033]","[0.0, 0.0, -0.20600854729134555]","[0.026750000193715096, 0.05299999937415123, 0.03999999910593033]","[0.0, 0.0, -0.6469982503054421]","[0.07015117257833481, 0.11044856905937195, 0.03999999910593033]","[0.0, -0.0, 0.20540423443750838]",0.6422051273538913,-1.125470062770436,"(0.0, 0.0, 0.0, 0.0, 0.0, 0.0)",0.1941029233168818,-0.8576131917611358,-1.1304161436567226,"(0.0, 0.0, 0.0, 0.0, 0.0, 0.0)",0.025868240883426936,-0.6422984458859556,1.1279585569588184,"(0.0, 0.0, 0.0, 0.0, 0.0, 0.0)",-0.19464040126091972,0.8571626447690798,1.1424313783698345,"(0.0, 0.0, 0.0, 0.0, 0.0, 0.0)",-0.026033851694478666,False,,,,,False,,,,
59,Move,,,"(0.009998826598722164, 0.16002774252192944, 0.04755055901421763)","(-0.0005516191299448554, -3.980150267197137e-05, 2.339437659612592e-07)","[0.0, 0.0, 0.0]","[-0.026750000193715096, 0.05299999937415123, 0.03999999910593033]","[0.0, -0.0, 0.6422051137296667]","[-0.0698753148317337, 0.11065594106912613, 0.03999999910593033]","[0.0, 0.0, -0.2154080556264429]","[0.026750000193715096, 0.05299999937415123, 0.03999999910593033]","[0.0, 0.0, -0.6422983956794274]","[0.06988069415092468, 0.1106519103050232, 0.03999999910593033]","[0.0, -0.0, 0.21486417441436167]",0.6379846146185022,-1.0129230564933929,"(0.0, 0.0, 0.0, 0.0, 0.0, 0.0)",0.17470684718642912,-0.8618522144704561,-1.0173654502368856,"(0.0, 0.0, 0.0, 0.0, 0.0, 0.0)",0.023291096758263134,-0.6380686012973601,1.0151627012629356,"(0.0, 0.0, 0.0, 0.0, 0.0, 0.0)",-0.1751907229705418,0.8614467243673204,1.02817910357775,"(0.0, 0.0, 0.0, 0.0, 0.0, 0.0)",-0.023440272040621463,False,,,,,True,"(0.04276013174954747, 0.17974174897294792, 0.02399995643463635)","(-0.9999999990838299, -1.9447426661030803e-07, -4.2805404423670755e-05)",0.0013234533115717422,0.0
60,Move,,,"(0.008529162475457952, 0.15974954236529276, 0.0477048393377401)","(0.0013879222534856654, 0.003092032969080396, 0.019607357714227783)","[-0.001469664123264212, -0.00027820015663668207, 0.00015428032352246546]","[-0.026750000193715096, 0.05299999937415123, 0.03999999910593033]","[0.0, -0.0, 0.6379846501970732]","[-0.06963159143924713, 0.1108374372124672, 0.03999999910593033]","[0.0, 0.0, -0.22386762157269943]","[0.026750000193715096, 0.05299999937415123, 0.03999999910593033]","[0.0, 0.0, -0.638068602671057]","[0.06963644921779633, 0.11083383113145828, 0.03999999910593033]","[0.0, -0.0, 0.22337816170537766]",0.6141590059460926,-5.718146081378292,"(0.0, 0.0, 0.0, 0.0, 0.0, 0.0)",-6.715100343954979,-0.8614283121995241,0.10173654502368734,"(0.0, 0.0, 0.0, 0.0, 0.0, 0.0)",-0.37236374372155323,-0.6186460352886096,4.661415842100123,"(0.0, 0.0, 0.0, 0.0, 0.0, 0.0)",6.428194854706253,0.8610182254653614,-0.10283973647015276,"(0.0, 0.0, 0.0, 0.0, 0.0, 0.0)",0.9829946930619015,False,,,,,True,"(0.041928616181162004, 0.17969877893574898, 0.023999959438538117)","(-0.9999999992078928, -2.3394376620903917e-07, -3.980150265941498e-05)",0.0004918567139684023,10.112171877912418
61,Move,,,"(0.006723996611826882, 0.15936533702962205, 0.047765255621499005)","(6.714398616458164e-05, 0.002674296973039989, 0.04262647064426384)","[-0.0032748299868952824, -0.0006624054923073941, 0.00021469660728137135]","[-0.026750000193715096, 0.05299999937415123, 0.03999999910593033]","[0.0, -0.0, 0.6141590305095613]","[-0.06824154406785965, 0.11184260249137878, 0.03999999910593033]","[0.0, 0.0, -0.24726930604170874]","[0.026750000193715096, 0.05299999937415123, 0.03999999910593033]","[0.0, 0.0, -0.618646044105948]","[0.06850515305995941, 0.1116558387875557, 0.03999999910593033]","[0.0, -0.0, 0.24237220045044397]",0.5923752537221402,-5.228100533748594,"(0.0, 0.0, 0.0, 0.0, 0.0, 0.0)",0.6968351830029317,-0.8614707024266173,-0.010173654502368734,"(0.0, 0.0, 0.0, 0.0, 0.0, 0.0)",0.0386094337653134,-0.6008326176855909,4.2752202247244835,"(0.0, 0.0, 0.0, 0.0, 0.0, 0.0)",-0.2843818339581164,0.8610616731657038,0.010427448082156607,"(0.0, 0.0, 0.0, 0.0, 0.0, 0.0)",0.12162564932151312,False,,,,,True,"(0.03949436769622908, 0.17998210851349686, 0.023999959438538117)","(-0.9999999992078928, -2.3394376620903917e-07, -3.980150265941498e-05)",-6.347605402235445e-06,0.5640853154323047
62,Move,,,"(0.004916021046565853, 0.1589665718711254, 0.047720958898252924)","(-0.002763020338407607, 0.0006108079306357897, 0.0667691707902313)","[-0.005082805552156311, -0.0010611706508040497, 0.00017039988403529105]","[-0.026750000193715096, 0.05299999937415123, 0.03999999910593033]","[0.0, -0.0, 0.5923752994005711]","[-0.0669499859213829, 0.1127324104309082, 0.03999999910593033]","[0.0, 0.0, -0.2690954538189607]","[0.026750000193715096, 0.05299999937415123, 0.03999999910593033]","[0.0, 0.0, -0.6008327423896315]","[0.06745371967554092, 0.11239029467105865, 0.03999999910593033]","[0.0, -0.0, 0.2602290700881579]",0.5712150347036751,-5.078452564431617,"(0.0, 0.0, 0.0, 0.0, 0.0, 0.0)",0.2157952503283588,-0.861466463403908,0.0010173654502363396,"(0.0, 0.0, 0.0, 0.0, 0.0, 0.0)",0.016130538686302622,-0.5829836595254625,4.283749958430823,"(0.0, 0.0, 0.0, 0.0, 0.0, 0.0)",0.03654686188668907,0.8610568520052067,-0.0011570785193177847,"(0.0, 0.0, 0.0, 0.0, 0.0, 0.0)",0.013369392840733865,False,,,,,True,"(0.03722753437306846, 0.1801876577450428, 0.023999959438538117)","(-0.9999999992078928, -2.3394376620903917e-07, -3.980150265941498e-05)",-3.03090440028451e-06,0.20086448022229916
63,Move,,,"(0.003038586218639499, 0.15852968790700625, 0.047692659289474)","(-0.0025911153149836925, -0.0037098076030427207, 0.0892309075356073)","[-0.006960240380082665, -0.0014980546149231944, 0.00014210027525636548]","[-0.026750000193715096, 0.05299999937415123, 0.03999999910593033]","[0.0, -0.0, 0.5712149816841382]","[-0.06567712873220444, 0.11356961727142334, 0.03999999910593033]","[0.0, 0.0, -0.2902514434627483]","[0.026750000193715096, 0.05299999937415123, 0.03999999910593033]","[0.0, 0.0, -0.5829835823925363]","[0.06638723611831665, 0.11310731619596481, 0.03999999910593033]","[0.0, -0.0, 0.27807322292986936]",0.5508803967687295,-4.88031310438695,"(0.0, 0.0, 0.0, 0.0, 0.0, 0.0)",0.28503070876654335,-0.8614668873061792,-0.0001017365450710142,"(0.0, 0.0, 0.0, 0.0, 0.0, 0.0)",0.019917833408555515,-0.5651641840502668,4.2766741140469655,"(0.0, 0.0, 0.0, 0.0, 0.0, 0.0)",0.11956537689041521,0.8610565492790112,-7.265428690530302e-05,"(0.0, 0.0, 0.0, 0.0, 0.0, 0.0)",0.07009334439305036,False,,,,,True,"(0.03495614298930945, 0.18035455290140667, 0.023999959438538117)","(-0.9999999992078928, -2.3394376620903917e-07, -3.980150265941498e-05)",-3.483078081115776e-06,1.0531113700940868
64,Move,,,"(0.0020261779141126004, 0.159147963083264, 0.04760521211159295)","(0.002583370481578668, -0.003056729446151124, 0.09297246090683914)","[-0.007972648684609564, -0.0008797794386654345, 5.465309737531787e-05]","[-0.026750000193715096, 0.05299999937415123, 0.03999999910593033]","[0.0, -0.0, 0.5508804375563766]","[-0.06443750858306885, 0.11434861272573471, 0.03999999910593033]","[0.0, 0.0, -0.31058647044401844]","[0.026750000193715096, 0.05299999937415123, 0.03999999910593033]","[0.0, 0.0, -0.5651641731913941]","[0.06530991941690445, 0.11380404978990555, 0.03999999910593033]","[0.0, -0.0, 0.2958923811960855]",0.5325313952836437,-4.403760356420582,"(0.0, 0.0, 0.0, 0.0, 0.0, 0.0)",-38.47384383842257,-0.8434648155280273,4.320497226756436,"(0.0, 0.0, 0.0, 0.0, 0.0, 0.0)",-19.707773442051234,-0.5485203526437034,3.9945195375752336,"(0.0, 0.0, 0.0, 0.0, 0.0, 0.0)",38.40865227596146,0.8426940994674212,-4.406987954781599,"(0.0, 0.0, 0.0, 0.0, 0.0, 0.0)",20.213574547080277,True,"(-0.030837162206202397, 0.1807147684040986, 0.056003710559052795)","(0.9960147094140643, 0.08911192973728252, 0.0037097990935676286)",0.000295955962769222,310.9113148279181,True,"(0.032686946379462796, 0.18046390406811386, 0.023996289440947206)","(-0.9960147094140644, -0.08911192973728094, -0.0037097990935709194)",-4.010570765232737e-05,237.4598751600436
65,Move,"(0.0028, 0.0, -0.0019)","(0.0, 0.03882310388136187, 0.0)","(0.0011700253639096666, 0.15976182515520135, 0.04751897038725052)","(0.007930122363363799, -0.00226657279137191, 0.09692309735704685)","[-0.008828801234812498, -0.00026591736672809674, -3.1588626967116173e-05]","[-0.026750000193715096, 0.05299999937415123, 0.03999999910593033]","[0.0, -0.0, 0.5325313658465014]","[-0.06330554187297821, 0.11502977460622787, 0.03999999910593033]","[0.0, 0.0, -0.3109334583254266]","[0.026750000193715096, 0.05299999937415123, 0.03999999910593033]","[0.0, 0.0, -0.548520392495979]","[0.06429261714220047, 0.11443737894296646, 0.03999999910593033]","[0.0, -0.0, 0.2941737789306636]",0.5150286261073844,-4.20066460230223,"(0.0, 0.0, 0.0, 0.0, 0.0, 0.0)",-43.15160519850692,-0.8255232606133882,4.305973179513399,"(0.0, 0.0, 0.0, 0.0, 0.0, 0.0)",-22.03627704391551,-0.5318939745440465,3.990330743917647,"(0.0, 0.0, 0.0, 0.0, 0.0, 0.0)",43.6676935048907,0.8241209847892994,-4.457547522749228,"(0.0, 0.0, 0.0, 0.0, 0.0, 0.0)",23.068483497500033,True,"(-0.02968254207398162, 0.18138834120873254, 0.056003057484645)","(0.9956765214355997, 0.09283814461792712, 0.0030567246857756626)",-0.0019557974209563206,339.7172576639441,True,"(0.03178474084630808, 0.1811477674564546, 0.02399694251535476)","(-0.9956765214355902, -0.0928381446180211, -0.0030567246860136047)",0.00016315936690381586,263.2480870713977
66,Move,"(0.0035, 0.0, -0.0023667)","(0.0, 0.03172834047200492, 0.0)","(0.0014162968788313823, 0.16010275585931627, 0.0474863659111992)","(0.005747078746683004, 0.0013441572383237916, 0.09044997797747532)","[-0.008582529719890783, 7.501333738682558e-05, -6.419310301843117e-05]","[-0.026750000193715096, 0.05299999937415123, 0.03999999910593033]","[0.0, -0.0, 0.5150286173626178]","[-0.06221430376172066, 0.11566006392240524, 0.03999999910593033]","[0.0, 0.0, -0.3104946497228739]","[0.026750000193715096, 0.05299999937415123, 0.03999999910593033]","[0.0, 0.0, -0.5318939608755999]","[0.06326599419116974, 0.11505305767059326, 0.03999999910593033]","[0.0, -0.0, 0.2922270319249003]",0.5146998039492804,-0.07891731794496515,"(0.0, 0.0, 0.0, 0.0, 0.0, 0.0)",4.730672998289052,-0.827316884566558,-0.4304697487607694,"(0.0, 0.0, 0.0, 0.0, 0.0, 0.0)",-0.47094189415684024,-0.5358333148161907,-0.9454416653145916,"(0.0, 0.0, 0.0, 0.0, 0.0, 0.0)",-6.655221217728974,0.8259782962571183,0.44575475227651573,"(0.0, 0.0, 0.0, 0.0, 0.0, 0.0)",-0.003382422230227139,True,"(-0.02862075758073663, 0.18203687365922727, 0.05600226731562215)","(0.9953040758649819, 0.09677116937979674, 0.0022665708506747376)",-0.003960922893090458,6.031458245340926,True,"(0.03091578949574346, 0.18154523231783662, 0.023997716044379027)","(-0.9953040509812058, -0.09677103449881742, -0.0022831956617496516)",0.00022377337919692118,0.0
67,Move,"(0.0035800000000000003, 0.0, -0.0033)","(0.0, 0.02074149283070061, 0.0)","(0.0017639227052297173, 0.16045727661886694, 0.0474952204586977)","(0.0015900624109896674, 0.0012163673448675526, 0.08233483865230633)","[-0.008234903893492447, 0.000429534096937495, -5.5338555519930666e-05]","[-0.026750000193715096, 0.05299999937415123, 0.03999999910593033]","[0.0, -0.0, 0.5146998296777348]","[-0.062193695455789566, 0.11567171663045883, 0.03999999910593033]","[0.0, 0.0, -0.31261709763785306]","[0.026750000193715096, 0.05299999937415123, 0.03999999910593033]","[0.0, 0.0, -0.535833395404968]","[0.06351015716791153, 0.11490873247385025, 0.03999999910593033]","[0.0, -0.0, 0.2901450053015403]",0.5123947952960745,-0.5532020767694322,"(0.0, 0.0, 0.0, 0.0, 0.0, 0.0)",-0.7615358399395298,-0.827136820326506,0.043215417612483764,"(0.0, 0.0, 0.0, 0.0, 0.0, 0.0)",-0.06320018072180089,-0.5381485782277678,-0.5556632187785324,"(0.0, 0.0, 0.0, 0.0, 0.0, 0.0)",0.5147157485301096,0.8257925651103364,-0.04457547522765282,"(0.0, 0.0, 0.0, 0.0, 0.0, 0.0)",-0.010450742677204663,True,"(-0.028459346210600617, 0.1819770817777529, 0.05600226731562215)","(0.9953040758649819, 0.09677116937979674, 0.0022665708506747376)",-0.0036439427559289447,0.0,True,"(0.031298462281838774, 0.18146811217703948, 0.023997716044379027)","(-0.9953040509812058, -0.09677103449881742, -0.0022831956617496516)",0.0002839780073745528,0.0
68,Move,"(0.0039857, 0.0, -0.0040143)","(0.0, 0.01848827276637593, 0.0)","(0.0020922785904216225, 0.1605120732704762, 0.04755017540783767)","(-0.0009492276096257664, 0.001620655622400226, 0.08039766619723503)","[-0.007906548008300542, 0.0004843307485467574, -3.8360637995976665e-07]","[-0.026750000193715096, 0.05299999937415123, 0.03999999910593033]","[0.0, -0.0, 0.5123948204936796]","[-0.06204914301633835, 0.11575324833393097, 0.03999999910593033]","[0.0, 0.0, -0.31474204083773866]","[0.026750000193715096, 0.05299999937415123, 0.03999999910593033]","[0.0, 0.0, -0.5381485705960963]","[0.06365339457988739, 0.11482345312833786, 0.03999999910593033]","[0.0, -0.0, 0.28764397741705033]",0.5101095585361543,-0.5484568223808415,"(0.0, 0.0, 0.0, 0.0, 0.0, 0.0)",-2.4999173084502337,-0.82594042686277,0.2871344312966395,"(0.0, 0.0, 0.0, 0.0, 0.0, 0.0)",-1.3035590524178928,-0.5403700758667704,-0.5331594333606199,"(0.0, 0.0, 0.0, 0.0, 0.0, 0.0)",2.3443989240887837,0.8248421989010293,-0.2280878902336974,"(0.0, 0.0, 0.0, 0.0, 0.0, 0.0)",1.1019877759936465,True,"(-0.02817397438430668, 0.18198677998081716, 0.05600226731562215)","(0.9953040758649819, 0.09677116937979674, 0.0022665708506747376)",-0.003343406954992426,17.155361639443942,True,"(0.03160826386654879, 0.18146318990322938, 0.023997716044379027)","(-0.9953040509812058, -0.09677103449881742, -0.0022831956617496516)",6.072628313845395e-05,10.571629975107605
69,Move,"(0.0042889, 0.0, -0.0045111)","(0.0, 0.01628566725035909, 0.0)","(0.00238496268498177, 0.16055923548387924, 0.047653431563360306)","(-0.0013143972318179222, 0.0021176323083976424, 0.07821528627909465)","[-0.007613863913740394, 0.0005314929619497921, 0.00010287254914267269]","[-0.026750000193715096, 0.05299999937415123, 0.03999999910593033]","[0.0, -0.0, 0.5101095917232713]","[-0.061905644834041595, 0.11583375185728073, 0.03999999910593033]","[0.0, 0.0, -0.3158309221065684]","[0.026750000193715096, 0.05299999937415123, 0.03999999910593033]","[0.0, 0.0, -0.5403701043562562]","[0.06379064172506332, 0.11474131792783737, 0.03999999910593033]","[0.0, -0.0, 0.28447210450824933]",0.5078951896145236,-0.531448541191351,"(0.0, 0.0, 0.0, 0.0, 0.0, 0.0)",-2.8034562301211325,-0.8248401358835565,0.2640698350112453,"(0.0, 0.0, 0.0, 0.0, 0.0, 0.0)",-1.3665734240554979,-0.5426994980358162,-0.559061320570978,"(0.0, 0.0, 0.0, 0.0, 0.0, 0.0)",2.1763961523885347,0.823973768526365,-0.2084232899194393,"(0.0, 0.0, 0.0, 0.0, 0.0, 0.0)",1.0670542482163892,True,"(-0.027958378463556643, 0.18203035894720299, 0.05600226731562215)","(0.9953040758649819, 0.09677116937979674, 0.0022665708506747376)",-0.0031768490335491884,19.135608682984792,True,"(0.03195704636310634, 0.1814823640143215, 0.023997716044379027)","(-0.9953040509812058, -0.09677103449881742, -0.0022831956617496516)",5.3114401762105125e-05,8.102665771766793
70,Move,"(0.004527300000000001, 0.0, -0.0048545)","(0.0, 0.014522884705844815, 0.0)","(0.002696273821602127, 0.1606003294401767, 0.04774590283536525)","(-0.0016809958529396315, 0.0025652801927906637, 0.07625049573409808)","[-0.007302552777120037, 0.0005725869182472421, 0.00019534382114761578]","[-0.026750000193715096, 0.05299999937415123, 0.03999999910593033]","[0.0, -0.0, 0.5078951993591493]","[-0.06176642328500748, 0.11591144651174545, 0.03999999910593033]","[0.0, 0.0, -0.3169449305884824]","[0.026750000193715096, 0.05299999937415123, 0.03999999910593033]","[0.0, 0.0, -0.5426994967318907]","[0.06393436342477798, 0.11465486884117126, 0.03999999910593033]","[0.0, -0.0, 0.28127427902625485]",0.5056675804121094,-0.5346262085794292,"(0.0, 0.0, 0.0, 0.0, 0.0, 0.0)",-2.5272505188564853,-0.8238687263886093,0.23313827878733354,"(0.0, 0.0, 0.0, 0.0, 0.0, 0.0)",-1.2170339458428576,-0.5450175875569971,-0.5563414850834384,"(0.0, 0.0, 0.0, 0.0, 0.0, 0.0)",1.9600072450202894,0.823203650254741,-0.1848283851897496,"(0.0, 0.0, 0.0, 0.0, 0.0, 0.0)",0.9437095509895478,True,"(-0.027745428179312623, 0.1820701914283288, 0.05600226731562215)","(0.9953040758649819, 0.09677116937979674, 0.0022665708506747376)",-0.003036290758662644,16.84416239241913,True,"(0.03231435775908183, 0.18149737100588492, 0.023997716044379027)","(-0.9953040509812058, -0.09677103449881742, -0.0022831956617496516)",8.679118580288202e-05,5.232886416063282
71,Move,"(0.0048, 0.0, -0.0051231)","(0.0, 0.013657201396855632, 0.0)","(0.0030138706522443606, 0.1606264356442364, 0.04781919934435754)","(-0.002371693549920872, 0.0027608212306936457, 0.07458606338054521)","[-0.006984955946477803, 0.0005986931223069536, 0.000268640330139909]","[-0.026750000193715096, 0.05299999937415123, 0.03999999910593033]","[0.0, -0.0, 0.5056676440208603]","[-0.061626192182302475, 0.11598929017782211, 0.03999999910593033]","[0.0, 0.0, -0.31820114234971686]","[0.026750000193715096, 0.05299999937415123, 0.03999999910593033]","[0.0, 0.0, -0.5450176146944089]","[0.06407718360424042, 0.11456850916147232, 0.03999999910593033]","[0.0, -0.0, 0.2781860674301571]",0.5034328134602779,-0.5363440684395538,"(0.0, 0.0, 0.0, 0.0, 0.0, 0.0)",-2.0996126831106046,-0.8230286116768831,0.20162753081428242,"(0.0, 0.0, 0.0, 0.0, 0.0, 0.0)",-1.0595802158275824,-0.5473235215915281,-0.5534241682874312,"(0.0, 0.0, 0.0, 0.0, 0.0, 0.0)",1.6002933533032293,0.8225743413413709,-0.15103413920881323,"(0.0, 0.0, 0.0, 0.0, 0.0, 0.0)",0.7775598777063141,True,"(-0.027521046791354593, 0.1820923271748489, 0.023997433983901164)","(0.997091058416767, 0.07617637807942158, -0.00256527737925167)",-0.003005683858407402,16.76449924967401,True,"(0.03266375321753947, 0.1815083390014447, 0.023997716044379027)","(-0.9953040509812058, -0.09677103449881742, -0.0022831956617496516)",9.719301880463403e-05,5.190299964652366
72,Move,"(0.00514, 0.0, -0.00536)","(0.0, 0.015002850250143257, 0.0)","(0.0033225343165612523, 0.16065012924035862, 0.04788707831079503)","(-0.0031133217119105275, 0.0028762705714369882, 0.07300288130349306)","[-0.006676292282160912, 0.0006223867184291798, 0.000336519296577395]","[-0.026750000193715096, 0.05299999937415123, 0.03999999910593033]","[0.0, -0.0, 0.5034327931163476]","[-0.06148533895611763, 0.116067074239254, 0.03999999910593033]","[0.0, 0.0, -0.31959580976339086]","[0.026750000193715096, 0.05299999937415123, 0.03999999910593033]","[0.0, 0.0, -0.5473234847927955]","[0.06421905755996704, 0.11448226869106293, 0.03999999910593033]","[0.0, -0.0, 0.2752508284936691]",0.5012059106609635,-0.5344566718354521,"(0.0, 0.0, 0.0, 0.0, 0.0, 0.0)",-2.0868822943680354,-0.8221722216481392,0.20553360689854258,"(0.0, 0.0, 0.0, 0.0, 0.0, 0.0)",-1.0606649523076261,-0.5496316820571874,-0.5539585117582199,"(0.0, 0.0, 0.0, 0.0, 0.0, 0.0)",1.5922707526185056,0.8219318552206657,-0.15419666896924208,"(0.0, 0.0, 0.0, 0.0, 0.0, 0.0)",0.776614996276097,True,"(-0.027288016261998352, 0.18212221182891306, 0.0239972384461917)","(0.9972159483613283, 0.07451664390801903, -0.0027608177234699142)",-0.002887036390855595,16.626447111244016,True,"(0.03300224647724746, 0.18151401891842667, 0.023997716044379027)","(-0.9953040509812058, -0.09677103449881742, -0.0022831956617496516)",9.116986735952748e-05,4.650599562766106
73,Move,"(0.0061267, 0.0, -0.0059867)","(0.0, 0.014666001704508354, 0.0)","(0.003651443024386358, 0.16064286046940152, 0.0479141545004659)","(-0.0031677700467265153, 0.002184324769049108, 0.07214799020103321)","[-0.006347383574335806, 0.0006151179474720714, 0.00036359548624826515]","[-0.026750000193715096, 0.05299999937415123, 0.03999999910593033]","[0.0, -0.0, 0.5012059375564107]","[-0.06134480983018875, 0.11614426970481873, 0.03999999910593033]","[0.0, 0.0, -0.32096629686067224]","[0.026750000193715096, 0.05299999937415123, 0.03999999910593033]","[0.0, 0.0, -0.5496316915630921]","[0.06436087191104889, 0.1143956258893013, 0.03999999910593033]","[0.0, -0.0, 0.27230016573325344]",0.498964888851361,-0.5378452343046097,"(0.0, 0.0, 0.0, 0.0, 0.0, 0.0)",-1.841765941032681,-0.8213969983216155,0.1860535983656956,"(0.0, 0.0, 0.0, 0.0, 0.0, 0.0)",-0.9804612474092751,-0.5519409782194881,-0.5542310789521715,"(0.0, 0.0, 0.0, 0.0, 0.0, 0.0)",1.4068258718139992,0.8213739994554674,-0.13388538364758998,"(0.0, 0.0, 0.0, 0.0, 0.0, 0.0)",0.6905599768108723,True,"(-0.027056973529760844, 0.18215226559936948, 0.02399712299892415)","(0.9973323474515773, 0.07293775303051442, -0.0028762666055738707)",-0.0027755656131023924,14.025792281799701,True,"(0.03334198009128039, 0.18151918846604606, 0.023997716044379027)","(-0.9953040509812058, -0.09677103449881742, -0.0022831956617496516)",9.517797665509699e-05,5.005987236282098
74,Move,"(0.0069667, 0.0, -0.0064467)","(0.0, 0.01747947245872321, 0.0)","(0.003995352470800932, 0.16062188988934745, 0.04792213819915122)","(-0.0026149026006179387, 0.0016976039791222483, 0.07138021772845593)","[-0.006003474127921233, 0.000594147367418002, 0.00037157918493358616]","[-0.026750000193715096, 0.05299999937415123, 0.03999999910593033]","[0.0, -0.0, 0.4989649302714239]","[-0.06120321527123451, 0.11622164398431778, 0.03999999910593033]","[0.0, 0.0, -0.32243214432915773]","[0.026750000193715096, 0.05299999937415123, 0.03999999910593033]","[0.0, 0.0, -0.5519410438858794]","[0.06450255215167999, 0.11430860310792923, 0.03999999910593033]","[0.0, -0.0, 0.26943305400031775]",0.49656825460929477,-0.5751922180958958,"(0.0, 0.0, 0.0, 0.0, 0.0, 0.0)",-1.902449589910648,-0.8205880597727166,0.19414525173572603,"(0.0, 0.0, 0.0, 0.0, 0.0, 0.0)",-0.9966759213956209,-0.5544030103023009,-0.5908876998750737,"(0.0, 0.0, 0.0, 0.0, 0.0, 0.0)",1.342521284824586,0.8208218042285091,-0.13252685446999452,"(0.0, 0.0, 0.0, 0.0, 0.0, 0.0)",0.6632551149549488,True,"(-0.026818703644329464, 0.1821799142007361, 0.023997814930323203)","(0.9973960831076242, 0.07208524214054533, -0.002184323032047235)",-0.0026509399013349756,14.033714102695983,True,"(0.0336762410482829, 0.18152083005041028, 0.023997716044379027)","(-0.9953040509812058, -0.09677103449881742, -0.0022831956617496516)",6.95819948249088e-05,6.537572672395868
75,Move,"(0.0077267, 0.0, -0.0067)","(0.0, 0.021205750411731106, 0.0)","(0.004345586246472302, 0.16059273159953075, 0.04792447876608721)","(-0.0017552249696553234, 0.0013409221512503914, 0.07042587496505433)","[-0.0056532403522498624, 0.0005649890776013022, 0.0003739197518695739]","[-0.026750000193715096, 0.05299999937415123, 0.03999999910593033]","[0.0, -0.0, 0.49656826812575905]","[-0.06105159968137741, 0.11630403250455856, 0.03999999910593033]","[0.0, 0.0, -0.32401980846297673]","[0.026750000193715096, 0.05299999937415123, 0.03999999910593033]","[0.0, 0.0, -0.5544030178561739]","[0.06465338170528412, 0.11421547085046768, 0.03999999910593033]","[0.0, -0.0, 0.2664187392248723]",0.4940693718926055,-0.599731852005425,"(0.0, 0.0, 0.0, 0.0, 0.0, 0.0)",-1.849670592647433,-0.819805871262137,0.18772524253910636,"(0.0, 0.0, 0.0, 0.0, 0.0, 0.0)",-0.9826633794431182,-0.5569522316632711,-0.6118131266328536,"(0.0, 0.0, 0.0, 0.0, 0.0, 0.0)",1.3264768617244262,0.8202924947328399,-0.12703427896061514,"(0.0, 0.0, 0.0, 0.0, 0.0, 0.0)",0.6379902530149999,True,"(-0.02656246460687344, 0.18220844698309302, 0.023998301645624626)","(0.997452076498409, 0.0713195150888627, -0.0016976031637466718)",-0.002537197963445625,13.722028667501922,True,"(0.03402980288291135, 0.18152030837228958, 0.023997716044379027)","(-0.9953040509812058, -0.09677103449881742, -0.0022831956617496516)",5.550453455004615e-05,7.313965033868855
76,Move,"(0.0082267, 0.0, -0.006886700000000001)","(0.0, 0.024370032345596825, 0.0)","(0.004697767136733224, 0.1605611069988337, 0.047924522651323596)","(-0.0006995616241309186, 0.0011373714176715882, 0.069270745268393)","[-0.0053010594619889405, 0.0005333644769042467, 0.0003739636371059632]","[-0.026750000193715096, 0.05299999937415123, 0.03999999910593033]","[0.0, -0.0, 0.4940693806780578]","[-0.06089330092072487, 0.11638955026865005, 0.03999999910593033]","[0.0, 0.0, -0.3257364815503413]","[0.026750000193715096, 0.05299999937415123, 0.03999999910593033]","[0.0, 0.0, -0.5569522818994925]","[0.06480930745601654, 0.11411865055561066, 0.03999999910593033]","[0.0, -0.0, 0.26334029234970313]",0.49148739106265144,-0.6196753991889848,"(0.0, 0.0, 0.0, 0.0, 0.0, 0.0)",-1.8111058055230047,-0.8190263829743178,0.18707718907658355,"(0.0, 0.0, 0.0, 0.0, 0.0, 0.0)",-0.9642377367373605,-0.5595687750943733,-0.6279704234645288,"(0.0, 0.0, 0.0, 0.0, 0.0, 0.0)",1.316906362997179,0.8197680231985208,-0.1258731682365791,"(0.0, 0.0, 0.0, 0.0, 0.0, 0.0)",0.6241601798910442,True,"(-0.026291134286919697, 0.18223542105717883, 0.023998658324111376)","(0.9975202260764866, 0.07036760971624079, -0.001340921749405093)",-0.0024312786811016133,13.504354273447856,True,"(0.03439307614884997, 0.18151744200809908, 0.023997716044379027)","(-0.9953040509812058, -0.09677103449881742, -0.0022831956617496516)",4.4977044220598035e-05,7.6915562132945094
77,Move,"(0.008480000000000001, 0.0, -0.00708)","(0.0, 0.02841919621022367, 0.0)","(0.005048740594020848, 0.16052617189729562, 0.047921814558111536)","(0.00045303084005704453, 0.00096459533246282, 0.06805249909403302)","[-0.004950086004701317, 0.0004984293753661773, 0.00037125554389390303]","[-0.026750000193715096, 0.05299999937415123, 0.03999999910593033]","[0.0, -0.0, 0.49148740474591956]","[-0.06072951853275299, 0.11647749692201614, 0.03999999910593033]","[0.0, 0.0, -0.3275390003994166]","[0.026750000193715096, 0.05299999937415123, 0.03999999910593033]","[0.0, 0.0, -0.5595687400311916]","[0.06496910005807877, 0.11401885747909546, 0.03999999910593033]","[0.0, -0.0, 0.2601992597560147]",0.4888770359259044,-0.6264852328192831,"(0.0, 0.0, 0.0, 0.0, 0.0, 0.0)",-1.7502856163541034,-0.8182639268716083,0.1829894646502904,"(0.0, 0.0, 0.0, 0.0, 0.0, 0.0)",-0.9425296578739233,-0.5621978577058341,-0.630979826750596,"(0.0, 0.0, 0.0, 0.0, 0.0, 0.0)",1.312112252571945,0.8192563640740069,-0.1227981898833275,"(0.0, 0.0, 0.0, 0.0, 0.0, 0.0)",0.611899709290562,True,"(-0.02600876398654211, 0.18226153577329302, 0.023998861874835808)","(0.9976010958905148, 0.06921531524785547, -0.001137371172452493)",-0.002333345371755447,13.171976713704819,True,"(0.034764715596167464, 0.18151285427633562, 0.023997716044379027)","(-0.9953040509812058, -0.09677103449881742, -0.0022831956617496516)",4.0875372782575165e-05,7.618567212642885
78,Move,"(0.00868, 0.0, -0.00738)","(0.0, 0.03268478090209782, 0.0)","(0.005380058716562566, 0.16053325915098507, 0.04797171304464613)","(0.00017124694089947447, 0.0011163447958409537, 0.06630321628265588)","[-0.004618767882159598, 0.0005055166290556246, 0.00042115403042849997]","[-0.026750000193715096, 0.05299999937415123, 0.03999999910593033]","[0.0, -0.0, 0.48887703958231676]","[-0.06056370213627815, 0.11656598001718521, 0.03999999910593033]","[0.0, 0.0, -0.32938689579657215]","[0.026750000193715096, 0.05299999937415123, 0.03999999910593033]","[0.0, 0.0, -0.56219787751547]","[0.06512939184904099, 0.11391816288232803, 0.03999999910593033]","[0.0, -0.0, 0.25705849248615437]",0.48629213410980093,-0.6203764358648426,"(0.0, 0.0, 0.0, 0.0, 0.0, 0.0)",-1.7102301131011777,-0.8175310545485263,0.17588935753968407,"(0.0, 0.0, 0.0, 0.0, 0.0, 0.0)",-0.8932506186167273,-0.5647902297521834,-0.6221692911238258,"(0.0, 0.0, 0.0, 0.0, 0.0, 0.0)",1.2995444515976946,0.8187376713091098,-0.12448626357530615,"(0.0, 0.0, 0.0, 0.0, 0.0, 0.0)",0.6109368668903717,True,"(-0.025721489124233124, 0.18228637350728788, 0.023999034649430262)","(0.9976848580454707, 0.06799995281558849, -0.0009645951828787212)",-0.0022407763083596042,13.439737645941314,True,"(0.0351371367793448, 0.1815066934618421, 0.023997716044379027)","(-0.9953040509812058, -0.09677103449881742, -0.0022831956617496516)",3.8465897105896654e-05,6.785556600174417
79,Move,"(0.008806699999999999, 0.0, -0.0077066999999999995)","(0.0, 0.033517302955299116, 0.0)","(0.005709121257270625, 0.1605387094621552, 0.04801527509114278)","(-9.495742588339475e-05, 0.001140976737241621, 0.06469882084317677)","[-0.004289705341451539, 0.00051096694022576, 0.00046471607692514377]","[-0.026750000193715096, 0.05299999937415123, 0.03999999910593033]","[0.0, -0.0, 0.48629214448479363]","[-0.06039927899837494, 0.11665316671133041, 0.03999999910593033]","[0.0, 0.0, -0.331238945093865]","[0.026750000193715096, 0.05299999937415123, 0.03999999910593033]","[0.0, 0.0, -0.5647901561828903]","[0.06528718024492264, 0.1138184666633606, 0.03999999910593033]","[0.0, -0.0, 0.25394743599889136]",0.4837342986461682,-0.6138805112718632,"(0.0, 0.0, 0.0, 0.0, 0.0, 0.0)",-1.6545934935896698,-0.8168166779179556,0.17145039133694642,"(0.0, 0.0, 0.0, 0.0, 0.0, 0.0)",-0.8783055866171763,-0.5673387897809513,-0.6116544069043075,"(0.0, 0.0, 0.0, 0.0, 0.0, 0.0)",1.2645903363802573,0.8182403864287268,-0.11934837129192395,"(0.0, 0.0, 0.0, 0.0, 0.0, 0.0)",0.5983557823596694,True,"(-0.025435415202026045, 0.18230902717647152, 0.02399888290128999)","(0.9978021251369898, 0.06625460623172846, -0.001116344563971659)",-0.0021587616073087492,12.854341968209766,True,"(0.03550534728606883, 0.18149997582570282, 0.023997716044379027)","(-0.9953040509812058, -0.09677103449881742, -0.0022831956617496516)",4.664060929104029e-05,5.885296618238921
80,Move,"(0.00904, 0.0, -0.008060000000000001)","(0.0, 0.031808625617596654, 0.0)","(0.006034675825558223, 0.16053797258085678, 0.048053428757254886)","(-0.0003336452729049012, 0.0010316689585078277, 0.06321088052807199)","[-0.003964150773163941, 0.0005102300589273356, 0.0005028697430372528]","[-0.026750000193715096, 0.05299999937415123, 0.03999999910593033]","[0.0, -0.0, 0.4837342767429688]","[-0.06023635342717171, 0.11673903465270996, 0.03999999910593033]","[0.0, 0.0, -0.33308238199793694]","[0.026750000193715096, 0.05299999937415123, 0.03999999910593033]","[0.0, 0.0, -0.5673388421349231]","[0.0654420554637909, 0.11372005194425583, 0.03999999910593033]","[0.0, -0.0, 0.25090158417146025]",0.48121435919454786,-0.6047854683888783,"(0.0, 0.0, 0.0, 0.0, 0.0, 0.0)",-1.5690530502278677,-0.816133245007187,0.16402389858448174,"(0.0, 0.0, 0.0, 0.0, 0.0, 0.0)",-0.8422736754822747,-0.5698457042748672,-0.6016594785398136,"(0.0, 0.0, 0.0, 0.0, 0.0, 0.0)",1.2026642217216224,0.8177672564591002,-0.11355119271037993,"(0.0, 0.0, 0.0, 0.0, 0.0, 0.0)",0.5711712233820659,True,"(-0.025151532032155026, 0.18233056077091658, 0.023998858269582916)","(0.9979071117232056, 0.06465365066954619, -0.001140976489682969)",-0.00207725961482138,12.125813175755903,True,"(0.03586650668687645, 0.18149196086068747, 0.023997716044379027)","(-0.9953040509812058, -0.09677103449881742, -0.0022831956617496516)",4.9717682772579955e-05,5.330877108184438
81,Move,"(0.009273300000000002, 0.0, -0.008539999999999999)","(0.0, 0.03092723434533952, 0.0)","(0.006358389778706954, 0.1605327825253757, 0.048088549880879995)","(-0.0005459620261093165, 0.0008653208033753167, 0.06175964839331335)","[-0.0036404368200152106, 0.0005050400034462554, 0.000537990866662362]","[-0.026750000193715096, 0.05299999937415123, 0.03999999910593033]","[0.0, -0.0, 0.48121438956269347]","[-0.060075629502534866, 0.116823211312294, 0.03999999910593033]","[0.0, 0.0, -0.3349189032090343]","[0.026750000193715096, 0.05299999937415123, 0.03999999910593033]","[0.0, 0.0, -0.5698457091499551]","[0.0655941516160965, 0.11362286657094955, 0.03999999910593033]","[0.0, -0.0, 0.24792155024230067]",0.47870344648338803,-0.6026190506783589,"(0.0, 0.0, 0.0, 0.0, 0.0, 0.0)",-1.5092868614250587,-0.815476388131579,0.15764565014591939,"(0.0, 0.0, 0.0, 0.0, 0.0, 0.0)",-0.809163236608365,-0.5723394781876459,-0.5985057390668765,"(0.0, 0.0, 0.0, 0.0, 0.0, 0.0)",1.1384677814219535,0.817314311948309,-0.10870668258989927,"(0.0, 0.0, 0.0, 0.0, 0.0, 0.0)",0.5441972039697933,True,"(-0.02487042918280001, 0.18235054569800035, 0.02399896757126585)","(0.9980023263012976, 0.0631687609245051, -0.0010316687749312237)",-0.001996322855844319,11.546022812403796,True,"(0.03622069925114489, 0.1814826078770597, 0.023997716044379027)","(-0.9953040509812058, -0.09677103449881742, -0.0022831956617496516)",4.876171438350608e-05,5.071913689377844
82,Move,"(0.0094733, 0.0, -0.00918)","(0.0, 0.033517302955299116, 0.0)","(0.006678886530003251, 0.16052525282694619, 0.04812191762117215)","(-0.0007364415098194005, 0.0006935818373580643, 0.0603167533648953)","[-0.0033199400687189138, 0.0004975103050167407, 0.0005713586069545154]","[-0.026750000193715096, 0.05299999937415123, 0.03999999910593033]","[0.0, -0.0, 0.4787034233968794]","[-0.059915270656347275, 0.11690668761730194, 0.03999999910593033]","[0.0, 0.0, -0.33677290916029257]","[0.026750000193715096, 0.05299999937415123, 0.03999999910593033]","[0.0, 0.0, -0.5723395186395343]","[0.06574521213769913, 0.11352580785751343, 0.03999999910593033]","[0.0, -0.0, 0.24497481256827777]",0.4762045924364177,-0.5997249712728792,"(0.0, 0.0, 0.0, 0.0, 0.0, 0.0)",-1.4548699902248037,-0.8148404666007177,0.15262116740669768,"(0.0, 0.0, 0.0, 0.0, 0.0, 0.0)",-0.7820086613271877,-0.5748153594827793,-0.594211510832015,"(0.0, 0.0, 0.0, 0.0, 0.0, 0.0)",1.099953204019208,0.8168769121256894,-0.10497595742868945,"(0.0, 0.0, 0.0, 0.0, 0.0, 0.0)",0.5242592273277019,True,"(-0.024588663650529148, 0.1823690392390567, 0.02399913391934542)","(0.9980931053508094, 0.061720371606724375, -0.0008653206953637941)",-0.0019175463862388107,11.117344177675083,True,"(0.03657184882203914, 0.1814718114927641, 0.023997716044379027)","(-0.9953040509812058, -0.09677103449881742, -0.0022831956617496516)",4.625323611369073e-05,4.931349180692956
83,Move,"(0.0095467, 0.0, -0.0098933)","(0.0, 0.04316199240181977, 0.0)","(0.006994494591594727, 0.16051615881944953, 0.04815371463994854)","(-0.0009080161246398638, 0.000526562936869069, 0.058889413856950436)","[-0.0030043320071274377, 0.0004884162975200834, 0.0006031556257309056]","[-0.026750000193715096, 0.05299999937415123, 0.03999999910593033]","[0.0, -0.0, 0.4762046118966942]","[-0.05975547432899475, 0.116989366710186, 0.03999999910593033]","[0.0, 0.0, -0.3386358973312866]","[0.026750000193715096, 0.05299999937415123, 0.03999999910593033]","[0.0, 0.0, -0.5748153493639236]","[0.0658949464559555, 0.11342907696962357, 0.03999999910593033]","[0.0, -0.0, 0.24206154345386238]",0.4737299461864892,-0.5939150999828403,"(0.0, 0.0, 0.0, 0.0, 0.0, 0.0)",-1.407003864157175,-0.8142224185223143,0.14833153881683114,"(0.0, 0.0, 0.0, 0.0, 0.0, 0.0)",-0.7594149066690681,-0.5772586189187968,-0.5863822646441976,"(0.0, 0.0, 0.0, 0.0, 0.0, 0.0)",1.0726969950838634,0.8164526353278503,-0.1018264314813766,"(0.0, 0.0, 0.0, 0.0, 0.0, 0.0)",0.5084984323668955,True,"(-0.024307001310800547, 0.18238620944396616, 0.023999305658258988)","(0.9981812559681471, 0.06028017234683561, -0.0006935817817983916)",-0.001841980890347665,10.7683400589665,True,"(0.03691965319413154, 0.18145978031683246, 0.023997716044379027)","(-0.9953040509812058, -0.09677103449881742, -0.0022831956617496516)",4.380707370537861e-05,4.816995714162658
84,Move,"(0.01008, 0.0, -0.010693300000000001)","(0.0, 0.058379518149958336, 0.0)","(0.007309449795865848, 0.1604824225536087, 0.04816004834040909)","(-0.0004514395667563687, 0.0001741219337111785, 0.057872547219052856)","[-0.0026893768028563164, 0.0004546800316792554, 0.0006094893261914536]","[-0.026750000193715096, 0.05299999937415123, 0.03999999910593033]","[0.0, -0.0, 0.473729949658249]","[-0.05959702283143997, 0.11707084625959396, 0.03999999910593033]","[0.0, 0.0, -0.3404925141401876]","[0.026750000193715096, 0.05299999937415123, 0.03999999910593033]","[0.0, 0.0, -0.5772586139526885]","[0.0660424754023552, 0.11333325505256653, 0.03999999910593033]","[0.0, -0.0, 0.2391940238201683]",0.4713146565825894,-0.5796695049359547,"(0.0, 0.0, 0.0, 0.0, 0.0, 0.0)",-1.340704998190468,-0.8136271266962317,0.14287003825981556,"(0.0, 0.0, 0.0, 0.0, 0.0, 0.0)",-0.7462867125924635,-0.5796278221344386,-0.568608771754041,"(0.0, 0.0, 0.0, 0.0, 0.0, 0.0)",1.0564679343357086,0.8160522408467237,-0.09609467547039707,"(0.0, 0.0, 0.0, 0.0, 0.0, 0.0)",0.48849789280990824,True,"(-0.024027219943202296, 0.18240219258535323, 0.02399947267712825)","(0.9982663811312527, 0.058855373880484355, -0.0005265629125313303)",-0.0017698948187567305,10.16790505461947,True,"(0.037262379490566835, 0.1814467666761399, 0.023997716044379027)","(-0.9953040509812058, -0.09677103449881742, -0.0022831956617496516)",4.167713924573604e-05,5.1377259365028705
85,Move,"(0.0108867, 0.0, -0.0114733)","(0.0, 0.07493222077587257, 0.0)","(0.007625473551205012, 0.16043536796270372, 0.048154751323798574)","(0.00041762508743611713, -0.00012414415431664905, 0.05679025403023486)","[-0.0023733530475171525, 0.000407625440774273, 0.0006041923095809407]","[-0.026750000193715096, 0.05299999937415123, 0.03999999910593033]","[0.0, -0.0, 0.47131465149165047]","[-0.059442177414894104, 0.11714999377727509, 0.03999999910593033]","[0.0, 0.0, -0.3423124808989506]","[0.026750000193715096, 0.05299999937415123, 0.03999999910593033]","[0.0, 0.0, -0.5796277666414886]","[0.06618530303239822, 0.11323998868465424, 0.03999999910593033]","[0.0, -0.0, 0.23642441366099903]",0.468853278738639,-0.5907306825480937,"(0.0, 0.0, 0.0, 0.0, 0.0, 0.0)",-1.3700844198426814,-0.813028782111367,0.14360270036754996,"(0.0, 0.0, 0.0, 0.0, 0.0, 0.0)",-0.746598600971088,-0.5820140350397994,-0.5726910972865973,"(0.0, 0.0, 0.0, 0.0, 0.0, 0.0)",1.0270170780213317,0.8156512372470853,-0.09624086391321701,"(0.0, 0.0, 0.0, 0.0, 0.0, 0.0)",0.48198830247060975,True,"(-0.023753576716034265, 0.18241729738176807, 0.023999825118107953)","(0.9983258363428814, 0.0578402469897814, -0.00017412193282981774)",-0.0016989035765264534,10.092453303149338,True,"(0.03759396798781962, 0.18143295352242944, 0.023997716044379027)","(-0.9953040509812058, -0.09677103449881742, -0.0022831956617496516)",3.3643772614919744e-05,5.6808886058262305
86,Move,"(0.0118267, 0.0, -0.0121533)","(0.0, 0.09358629982118796, 0.0)","(0.007931482060082677, 0.16043258138496994, 0.048204368467009893)","(0.00018824063953142852, 0.00010759663410017748, 0.05504395770218418)","[-0.0020673445386394877, 0.0004048388630404909, 0.0006538094527922603]","[-0.026750000193715096, 0.05299999937415123, 0.03999999910593033]","[0.0, -0.0, 0.46885332377395117]","[-0.05928418040275574, 0.11723026633262634, 0.03999999910593033]","[0.0, 0.0, -0.3441754838214593]","[0.026750000193715096, 0.05299999937415123, 0.03999999910593033]","[0.0, 0.0, -0.5820140647700004]","[0.06632894277572632, 0.11314571648836136, 0.03999999910593033]","[0.0, -0.0, 0.23363721390209047]",0.46629694592367016,-0.613519875592523,"(0.0, 0.0, 0.0, 0.0, 0.0, 0.0)",-1.6733978762515853,-0.8123582878070489,0.16091863303633785,"(0.0, 0.0, 0.0, 0.0, 0.0, 0.0)",-0.8289010854550032,-0.5844644178309685,-0.5880918698805655,"(0.0, 0.0, 0.0, 0.0, 0.0, 0.0)",1.197370802832908,0.8151705502376458,-0.11536488226548233,"(0.0, 0.0, 0.0, 0.0, 0.0, 0.0)",0.5585099836253509,True,"(-0.02347404732028497, 0.18243096849888413, 0.023999825118107953)","(0.9983258363428814, 0.0578402469897814, -0.00017412193282981774)",-0.0016330929138740993,11.560089741505559,True,"(0.03796122320892518, 0.1805816073097115, 0.023999875095886778)","(-0.9983878591786459, -0.056759732495046435, -0.00012414415399847716)",-9.659469050493223e-06,9.845436917205271
87,Move,"(0.0125733, 0.0, -0.012826700000000002)","(0.0, 0.11600330873380309, 0.0)","(0.008248551884662272, 0.160431593350875, 0.04825071219633344)","(-3.4753930043275464e-05, 0.0003275521522197211, 0.0531774422570183)","[-0.0017502747140598924, 0.00040385082894556223, 0.0007001531821158036]","[-0.026750000193715096, 0.05299999937415123, 0.03999999910593033]","[0.0, -0.0, 0.46629692549296214]","[-0.05911988019943237, 0.11731322854757309, 0.03999999910593033]","[0.0, 0.0, -0.3460613732216561]","[0.026750000193715096, 0.05299999937415123, 0.03999999910593033]","[0.0, 0.0, -0.584464463320219]","[0.06647620350122452, 0.11304855346679688, 0.03999999910593033]","[0.0, -0.0, 0.23070614032164125]",0.4636042255472595,-0.6462528903385532,"(0.0, 0.0, 0.0, 0.0, 0.0, 0.0)",-1.6830027572718156,-0.8116885467811856,0.16073784620717493,"(0.0, 0.0, 0.0, 0.0, 0.0, 0.0)",-0.842972552864697,-0.5869843936407351,-0.6047941943439712,"(0.0, 0.0, 0.0, 0.0, 0.0, 0.0)",1.2022256802096596,0.8146993272644267,-0.11309351357258021,"(0.0, 0.0, 0.0, 0.0, 0.0, 0.0)",0.5614764418680639,True,"(-0.02318690321201665, 0.1824471976184538, 0.023999891643406907)","(0.9984854580382755, 0.05501616588839538, -0.0001075966338788275)",-0.0015795090229227735,11.450047663112711,True,"(0.03830626514119365, 0.1805673012468193, 0.023999875095886778)","(-0.9983878591786459, -0.056759732495046435, -0.00012414415399847716)",2.191317234962026e-06,9.192299453932286
88,Move,"(0.0127867, 0.0, -0.0134067)","(0.0, 0.13816026358787117, 0.0)","(0.008568300319309012, 0.16042952264064142, 0.04829375736044978)","(-0.0002615712433120206, 0.0005398807901409829, 0.05126618944324742)","[-0.001430526279413152, 0.00040178011871197516, 0.0007431983462321476]","[-0.026750000193715096, 0.05299999937415123, 0.03999999910593033]","[0.0, -0.0, 0.4636042094987354]","[-0.05894658342003822, 0.1174001544713974, 0.03999999910593033]","[0.0, 0.0, -0.34808427962290206]","[0.026750000193715096, 0.05299999937415123, 0.03999999910593033]","[0.0, 0.0, -0.5869843552609924]","[0.0666273981332779, 0.11294825375080109, 0.03999999910593033]","[0.0, -0.0, 0.22771493347700839]",0.4608244239739124,-0.6671523776033107,"(0.0, 0.0, 0.0, 0.0, 0.0, 0.0)",-1.7073430255262425,-0.8109936586378118,0.16677315440970641,"(0.0, 0.0, 0.0, 0.0, 0.0, 0.0)",-0.8692104890431845,-0.589524232922824,-0.6095614277013227,"(0.0, 0.0, 0.0, 0.0, 0.0, 0.0)",1.2637660191209004,0.8142121109109698,-0.11693192482967901,"(0.0, 0.0, 0.0, 0.0, 0.0, 0.0)",0.5800560825701745,True,"(-0.02288192582429157, 0.18246145873097291, 0.02399967168789443)","(0.9985863594117688, 0.05315238006281042, -0.0003275521463547364)",-0.001529412951496515,11.729044765510045,True,"(0.03865954746305054, 0.18055096132269383, 0.023999875095886778)","(-0.9983878591786459, -0.056759732495046435, -0.00012414415399847716)",8.645646572341e-06,8.879600317949267
89,Move,"(0.0128733, 0.0, -0.0138133)","(0.0, 0.15785979485513113, 0.0)","(0.00887804336603168, 0.1604273944374581, 0.04833324162440831)","(-0.0004988612443156529, 0.0007515111746697236, 0.04941993852776743)","[-0.0011207832326904851, 0.00039965191552865376, 0.0007826826101906756]","[-0.026750000193715096, 0.05299999937415123, 0.03999999910593033]","[0.0, -0.0, 0.4608244366790129]","[-0.05876744166016579, 0.11748940497636795, 0.03999999910593033]","[0.0, 0.0, -0.3501692436837852]","[0.026750000193715096, 0.05299999937415123, 0.03999999910593033]","[0.0, 0.0, -0.5895242357494612]","[0.06677952408790588, 0.11284677684307098, 0.03999999910593033]","[0.0, -0.0, 0.22468786439010435]",0.45807330998099627,-0.6602673582998598,"(0.0, 0.0, 0.0, 0.0, 0.0, 0.0)",-1.7178736913481243,-0.8102724486740409,0.17309039130500542,"(0.0, 0.0, 0.0, 0.0, 0.0, 0.0)",-0.8959278386981002,-0.5919681721237451,-0.5865454082210646,"(0.0, 0.0, 0.0, 0.0, 0.0, 0.0)",1.3567805356632263,0.8137073067869408,-0.12115298976696788,"(0.0, 0.0, 0.0, 0.0, 0.0, 0.0)",0.6055724359578939,True,"(-0.022567222279058663, 0.18247555029839935, 0.023999459359276873)","(0.9986860311552702, 0.05124372843670927, -0.0005398807639086362)",-0.001485225282700811,12.094195377232932,True,"(0.039016442587892525, 0.1805338362781673, 0.023999875095886778)","(-0.9983878591786459, -0.056759732495046435, -0.00012414415399847716)",1.518477956772511e-05,8.633644330754183
90,Move,"(0.0129733, 0.0, -0.014066700000000001)","(0.0, 0.17329025077201304, 0.0)","(0.009176773318400397, 0.16042543907478118, 0.04836941081209539)","(-0.0007479466092343141, 0.0009630440596605612, 0.04765166068347532)","[-0.0008220532803217672, 0.00039769655285173955, 0.0008188517978777593]","[-0.026750000193715096, 0.05299999937415123, 0.03999999910593033]","[0.0, -0.0, 0.4580733811943772]","[-0.05858990177512169, 0.11757724732160568, 0.03999999910593033]","[0.0, 0.0, -0.3521991570793182]","[0.026750000193715096, 0.05299999937415123, 0.03999999910593033]","[0.0, 0.0, -0.5919681903592774]","[0.06692566722631454, 0.11274877190589905, 0.03999999910593033]","[0.0, -0.0, 0.221739146060596]",0.45536262623640944,-0.6505640987008342,"(0.0, 0.0, 0.0, 0.0, 0.0, 0.0)",-1.7731477752592104,-0.8095232867935385,0.1797988513205804,"(0.0, 0.0, 0.0, 0.0, 0.0, 0.0)",-0.9289302825814959,-0.5943044049800625,-0.5606958855161963,"(0.0, 0.0, 0.0, 0.0, 0.0, 0.0)",1.413505105067041,0.8131836297602643,-0.1256824864023634,"(0.0, 0.0, 0.0, 0.0, 0.0, 0.0)",0.6285223363664478,True,"(-0.022257851859963908, 0.18248995638493715, 0.023999247728936853)","(0.9987788013187068, 0.049399810398702046, -0.0007515111039310042)",-0.001447301627770168,12.526094707942947,True,"(0.03936229695615703, 0.1805173997358323, 0.023999875095886778)","(-0.9983878591786459, -0.056759732495046435, -0.00012414415399847716)",2.2036263325437468e-05,8.38916571322986
91,Move,"(0.013033300000000001, 0.0, -0.014220000000000002)","(0.0, 0.1801127428180588, 0.0)","(0.009466685222576177, 0.16042349343156295, 0.04840266861568209)","(-0.0010077520150367568, 0.0011727223386438204, 0.04594623042215934)","[-0.0005321413761459875, 0.0003957509096335077, 0.0008521096014644583]","[-0.026750000193715096, 0.05299999937415123, 0.03999999910593033]","[0.0, -0.0, 0.45536263377867475]","[-0.05841473862528801, 0.11766331642866135, 0.03999999910593033]","[0.0, 0.0, -0.35416063154828376]","[0.026750000193715096, 0.05299999937415123, 0.03999999910593033]","[0.0, 0.0, -0.5943043917855744]","[0.06706514209508896, 0.11265475302934647, 0.03999999910593033]","[0.0, -0.0, 0.21887922648743827]",0.4526813929355033,-0.6434959922174683,"(0.0, 0.0, 0.0, 0.0, 0.0, 0.0)",-1.829427072615558,-0.8087499007107665,0.18561265986528214,"(0.0, 0.0, 0.0, 0.0, 0.0, 0.0)",-0.9591848431418433,-0.5965528458493453,-0.539625808627857,"(0.0, 0.0, 0.0, 0.0, 0.0, 0.0)",1.4523459194273742,0.8126438160540871,-0.12955528948252662,"(0.0, 0.0, 0.0, 0.0, 0.0, 0.0)",0.647487792349743,True,"(-0.02195543825060063, 0.18250482900787335, 0.023999036196129985)","(0.9988644112332508, 0.04763360702358424, -0.0009630439107958493)",-0.0014153326408558754,12.905600864533024,True,"(0.039695698859913586, 0.18050192855869218, 0.023999875095886778)","(-0.9983878591786459, -0.056759732495046435, -0.00012414415399847716)",2.9037788197976725e-05,8.082681664975553
92,Move,"(0.0129867, 0.0, -0.0143467)","(0.0, 0.18122800821008322, 0.0)","(0.009755777612834898, 0.16042696473313073, 0.048425627071852974)","(-0.0012433643580207398, 0.0013681810643885622, 0.0445382374455982)","[-0.00024304898588726684, 0.0003992222112012833, 0.0008750680576353406]","[-0.026750000193715096, 0.05299999937415123, 0.03999999910593033]","[0.0, -0.0, 0.45268146267399295]","[-0.05824124440550804, 0.11774798482656479, 0.03999999910593033]","[0.0, 0.0, -0.3560684846222929]","[0.026750000193715096, 0.05299999937415123, 0.03999999910593033]","[0.0, 0.0, -0.596552813566103]","[0.06719917058944702, 0.11256395280361176, 0.03999999910593033]","[0.0, -0.0, 0.21609099932296627]",0.45004061307816196,-0.6337871657619227,"(0.0, 0.0, 0.0, 0.0, 0.0, 0.0)",-1.8664394633932824,-0.8079198780139463,0.1992054472368548,"(0.0, 0.0, 0.0, 0.0, 0.0, 0.0)",-1.0181578359697385,-0.5987362309161847,-0.5240124160414483,"(0.0, 0.0, 0.0, 0.0, 0.0, 0.0)",1.4717162485077426,0.8120959175127007,-0.13149564993273077,"(0.0, 0.0, 0.0, 0.0, 0.0, 0.0)",0.6551918987009504,True,"(-0.021658315432052613, 0.18252002247788587, 0.023998826517970934)","(0.9989439707187703, 0.045930034700221584, -0.0011727220698498886)",-0.0013883816233536592,12.748562043405444,True,"(0.04001900836977286, 0.18048718077372508, 0.023999875095886778)","(-0.9983878591786459, -0.056759732495046435, -0.00012414415399847716)",3.602146254571728e-05,7.699753045900488
