OSUrobotics/InHand-Manipulation/AnalyseData/Data/Trial Data/Even Better/new_hand_human_sub1_2v2_e_n_1_kpNone_kdNone_dp3_step2_save_data.csv
,Phase,human_cube_pos,human_cube_orn,Cube_Pos,Cube_Orn,Cube_pos_in_start_pos,b'l_prox_pin'_link_pos,b'l_prox_pin'_link_orn,b'l_distal_pin'_link_pos,b'l_distal_pin'_link_orn,b'r_prox_pin'_link_pos,b'r_prox_pin'_link_orn,b'r_distal_pin'_link_pos,b'r_distal_pin'_link_orn,b'l_prox_pin'_joint_angle,b'l_prox_pin'_joint_vel,b'l_prox_pin'_joint_react_forces,b'l_prox_pin'_joint_motor_torque,b'l_distal_pin'_joint_angle,b'l_distal_pin'_joint_vel,b'l_distal_pin'_joint_react_forces,b'l_distal_pin'_joint_motor_torque,b'r_prox_pin'_joint_angle,b'r_prox_pin'_joint_vel,b'r_prox_pin'_joint_react_forces,b'r_prox_pin'_joint_motor_torque,b'r_distal_pin'_joint_angle,b'r_distal_pin'_joint_vel,b'r_distal_pin'_joint_react_forces,b'r_distal_pin'_joint_motor_torque,in_contact_l,contact_point_l_dist,contact_normal_l_dist,contact_distance_l_dist,contact_norm_force_l_dist,in_contact_r,contact_point_r_dist,contact_normal_r_dist,contact_distance_r_dist,contact_norm_force_r_dist
0,Open,,,,,,"[-0.026750000193715096, 0.05299999937415123, 0.03999999910593033]","[0.0, -0.0, 0.0]","[-0.026750000193715096, 0.125, 0.03999999910593033]","[0.0, -0.0, 5.883223447970011e-32]","[0.026750000193715096, 0.05299999937415123, 0.03999999910593033]","[0.0, 0.0, -0.008068665592501188]","[0.02733093686401844, 0.12499765306711197, 0.03999999910593033]","[0.0, 0.0, -0.0780932845685428]",0.157,37.68,"(0.0, 0.0, 0.0, 0.0, 0.0, 0.0)",54.702693795169004,5.294901130302062e-32,-1.4119736347472162e-30,"(0.0, 0.0, 0.0, 0.0, 0.0, 0.0)",3.9113724975844915,-0.1670280316324969,-38.150247946082466,"(0.0, 0.0, 0.0, 0.0, 0.0, 0.0)",-25.93345404555236,-0.0659493391739072,0.9780670797324476,"(0.0, 0.0, 0.0, 0.0, 0.0, 0.0)",-6.754749483880455,False,,,,,False,,,,
1,Open,,,,,,"[-0.026750000193715096, 0.05299999937415123, 0.03999999910593033]","[0.0, -0.0, 0.29830000998707634]","[-0.04791048914194107, 0.12182030081748962, 0.03999999910593033]","[0.0, -0.0, 0.29830000998707634]","[0.026750000193715096, 0.05299999937415123, 0.03999999910593033]","[0.0, 0.0, -0.3122944642903269]","[0.048871491104364395, 0.12151744216680527, 0.03999999910593033]","[0.0, 0.0, -0.3793531994353912]",0.42546999999999996,30.5208,"(0.0, 0.0, 0.0, 0.0, 0.0, 0.0)",-4.858074537215091,5.294901130302062e-32,0.0,"(0.0, 0.0, 0.0, 0.0, 0.0, 0.0)",-0.33154044974508506,-0.44292449566296654,-31.35120824461403,"(0.0, 0.0, 0.0, 0.0, 0.0, 0.0)",100.88457241511576,-0.08373770380977785,-4.0029668326633345,"(0.0, 0.0, 0.0, 0.0, 0.0, 0.0)",24.077304806401806,False,,,,,False,,,,
2,Open,,,,,,"[-0.026750000193715096, 0.05299999937415123, 0.03999999910593033]","[0.0, -0.0, 0.5399230359738098]","[-0.06376303732395172, 0.11475787311792374, 0.03999999910593033]","[0.0, -0.0, 0.5399230359738098]","[0.026750000193715096, 0.05299999937415123, 0.03999999910593033]","[0.0, 0.0, -0.5623038790270362]","[0.06513584405183792, 0.11391409486532211, 0.03999999910593033]","[0.0, 0.0, -0.6668711870723439]",0.6429307,24.721848,"(0.0, 0.0, 0.0, 0.0, 0.0, 0.0)",-3.943806903965684,5.294901130302062e-32,0.0,"(0.0, 0.0, 0.0, 0.0, 0.0, 0.0)",-0.2716098155097054,-0.6673401099248648,-25.208696742335626,"(0.0, 0.0, 0.0, 0.0, 0.0, 0.0)",94.97739775913854,-0.11755295807544866,-3.116564819203918,"(0.0, 0.0, 0.0, 0.0, 0.0, 0.0)",25.79194570087013,False,,,,,False,,,,
3,Open,,,,,,"[-0.026750000193715096, 0.05299999937415123, 0.03999999910593033]","[0.0, -0.0, 0.7356376306875043]","[-0.07506632059812546, 0.10638101398944855, 0.03999999910593033]","[0.0, -0.0, 0.7356376306875043]","[0.026750000193715096, 0.05299999937415123, 0.03999999910593033]","[0.0, 0.0, -0.757991847340814]","[0.076247438788414, 0.10528770089149475, 0.03999999910593033]","[0.0, 0.0, -0.8659334873334429]",0.8190738670000001,20.024696880000004,"(0.0, 0.0, 0.0, 0.0, 0.0, 0.0)",-3.2002295086701533,2.3293280891773424e-07,5.5903874140256216e-05,"(0.0, 0.0, 0.0, 0.0, 0.0, 0.0)",-0.22200715926400075,-0.8391926082762636,-19.488197112632974,"(0.0, 0.0, 0.0, 0.0, 0.0, 0.0)",3.295349739497939,-0.09714776835574307,2.590534961280482,"(0.0, 0.0, 0.0, 0.0, 0.0, 0.0)",0.25803221970863044,False,,,,,False,,,,
4,Open,,,,,,"[-0.026750000193715096, 0.05299999937415123, 0.03999999910593033]","[0.0, -0.0, 0.894166469119967]","[-0.08288749307394028, 0.09808415919542313, 0.03999999910593033]","[0.0, -0.0, 0.894166894674561]","[0.026750000193715096, 0.05299999937415123, 0.03999999910593033]","[0.0, 0.0, -0.9122733503889549]","[0.08369457721710205, 0.09706035256385803, 0.03999999910593033]","[0.0, 0.0, -0.9997066729229968]",0.96174983227,16.220004472800003,"(0.0, 0.0, 0.0, 0.0, 0.0, 0.0)",-2.5959652512206968,5.681494863714967e-07,3.553320838026869e-05,"(0.0, 0.0, 0.0, 0.0, 0.0, 0.0)",-0.18114955764248034,-0.9780460127037736,-15.785439661232708,"(0.0, 0.0, 0.0, 0.0, 0.0, 0.0)",2.503992476159733,-0.0786900142246732,2.098357403184359,"(0.0, 0.0, 0.0, 0.0, 0.0, 0.0)",0.15360133560797545,False,,,,,False,,,,
5,Open,,,,,,"[-0.026750000193715096, 0.05299999937415123, 0.03999999910593033]","[0.0, -0.0, 1.0225748785172661]","[-0.08819860219955444, 0.09052424877882004, 0.03999999910593033]","[0.0, -0.0, 1.0225755149967983]","[0.026750000193715096, 0.05299999937415123, 0.03999999910593033]","[0.0, 0.0, -1.037241417801626]","[0.08874232321977615, 0.08961901068687439, 0.03999999910593033]","[0.0, 0.0, -1.1080626941470386]",1.0773173641387,13.138203622968001,"(0.0, 0.0, 0.0, 0.0, 0.0, 0.0)",-2.105207702642618,7.694903593429899e-07,2.0776129443188934e-05,"(0.0, 0.0, 0.0, 0.0, 0.0, 0.0)",-0.14759587787833617,-1.0905172702900567,-12.78620612559849,"(0.0, 0.0, 0.0, 0.0, 0.0, 0.0)",2.0303755786213302,-0.06373917358809339,1.6996763127328351,"(0.0, 0.0, 0.0, 0.0, 0.0, 0.0)",0.1250328149112744,False,,,,,False,,,,
6,Open,,,,,,"[-0.026750000193715096, 0.05299999937415123, 0.03999999910593033]","[0.0, -0.0, 1.126585512342968]","[-0.09176240861415863, 0.08394166082143784, 0.03999999910593033]","[0.0, -0.0, 1.1265864725026016]","[0.026750000193715096, 0.05299999937415123, 0.03999999910593033]","[0.0, 0.0, -1.13846552283997]","[0.09212540090084076, 0.08316715806722641, 0.03999999910593033]","[0.0, 0.0, -1.1958309904194953]",1.1709270649523469,10.641944934604087,"(0.0, 0.0, 0.0, 0.0, 0.0, 0.0)",-1.7068426281171958,8.750681698751778e-07,1.0273240928962424e-05,"(0.0, 0.0, 0.0, 0.0, 0.0, 0.0)",-0.12011999884119333,-1.181618988934946,-10.356826961734775,"(0.0, 0.0, 0.0, 0.0, 0.0, 0.0)",1.6460093571929852,-0.051628943774705546,1.376743384776279,"(0.0, 0.0, 0.0, 0.0, 0.0, 0.0)",0.10168054944364863,False,,,,,False,,,,
7,Open,,,,,,"[-0.026750000193715096, 0.05299999937415123, 0.03999999910593033]","[0.0, -0.0, 1.2108343955497323]","[-0.09413553774356842, 0.07836118340492249, 0.03999999910593033]","[0.0, -0.0, 1.210835255049739]","[0.026750000193715096, 0.05299999937415123, 0.03999999910593033]","[0.0, 0.0, -1.2204571829136446]","[0.09437645971775055, 0.07771158218383789, 0.03999999910593033]","[0.0, 0.0, -1.2669233179031547]",1.2467509226114009,8.619975397029307,"(0.0, 0.0, 0.0, 0.0, 0.0, 0.0)",-1.3836082777937824,9.135722823677317e-07,2.9650129412077397e-06,"(0.0, 0.0, 0.0, 0.0, 0.0, 0.0)",-0.09766941677677543,-1.2554113810373062,-8.38902983900517,"(0.0, 0.0, 0.0, 0.0, 0.0, 0.0)",1.334189480132575,-0.04181961771093252,1.1151666876061868,"(0.0, 0.0, 0.0, 0.0, 0.0, 0.0)",0.08262627878010878,False,,,,,False,,,,
8,Open,,,,,,"[-0.026750000193715096, 0.05299999937415123, 0.03999999910593033]","[0.0, -0.0, 1.2790758758817962]","[-0.09570803493261337, 0.0737072303891182, 0.03999999910593033]","[0.0, -0.0, 1.2790780932516201]","[0.026750000193715096, 0.05299999937415123, 0.03999999910593033]","[0.0, 0.0, -1.2868702529032277]","[0.0958673357963562, 0.07316911965608597, 0.03999999910593033]","[0.0, 0.0, -1.3245087793274308]",1.3081682532711112,6.982181501004109,"(0.0, 0.0, 0.0, 0.0, 0.0, 0.0)",-1.12145472366965,1.9027582300258812e-06,-5.0740219467356254e-05,"(0.0, 0.0, 0.0, 0.0, 0.0, 0.0)",-0.07939114715284208,-1.315183223212741,-6.795115266999686,"(0.0, 0.0, 0.0, 0.0, 0.0, 0.0)",1.0813262344929835,-0.033874873767778015,0.9033299671407473,"(0.0, 0.0, 0.0, 0.0, 0.0, 0.0)",0.06713055017345074,False,,,,,False,,,,
9,Open,,,,,,"[-0.026750000193715096, 0.05299999937415123, 0.03999999910593033]","[0.0, -0.0, 1.334351465706577]","[-0.09674673527479172, 0.06986585259437561, 0.03999999910593033]","[0.0, -0.0, 1.33435435145599]","[0.026750000193715096, 0.05299999937415123, 0.03999999910593033]","[0.0, 0.0, -1.3406650641721125]","[0.09685182571411133, 0.06942359358072281, 0.03999999910593033]","[0.0, 0.0, -1.3711530696282732]",1.3579162851496,5.655565729344001,"(0.0, 0.0, 0.0, 0.0, 0.0, 0.0)",-0.9088150211252332,3.4316066113876724e-06,0.0001607445165674468,"(0.0, 0.0, 0.0, 0.0, 0.0, 0.0)",-0.06444344013525093,-1.3635984108023202,-5.504042378604797,"(0.0, 0.0, 0.0, 0.0, 0.0, 0.0)",0.8762522980402716,-0.02744024570882781,0.7315266716392431,"(0.0, 0.0, 0.0, 0.0, 0.0, 0.0)",0.05446985052483407,False,,,,,False,,,,
10,Open,,,,,,"[-0.026750000193715096, 0.05299999937415123, 0.03999999910593033]","[0.0, -0.0, 1.3791247702213432]","[-0.0974314734339714, 0.0667160153388977, 0.03999999910593033]","[0.0, -0.0, 1.3791284782568445]","[0.026750000193715096, 0.05299999937415123, 0.03999999910593033]","[0.0, 0.0, -1.3842387704807777]","[0.09750068932771683, 0.06635437905788422, 0.03999999910593033]","[0.0, 0.0, -1.408935619520831]",1.398212190971176,4.581008240768642,"(0.0, 0.0, 0.0, 0.0, 0.0, 0.0)",-0.7364407507487188,4.314390796743166e-06,8.968521101115077e-05,"(0.0, 0.0, 0.0, 0.0, 0.0, 0.0)",-0.05230389643117988,-1.4028147127498793,-4.458274326669883,"(0.0, 0.0, 0.0, 0.0, 0.0, 0.0)",0.7100243788118592,-0.02222789596809768,0.5925708975857369,"(0.0, 0.0, 0.0, 0.0, 0.0, 0.0)",0.04419507766734469,False,,,,,False,,,,
11,Open,,,,,,"[-0.026750000193715096, 0.05299999937415123, 0.03999999910593033]","[0.0, -0.0, 1.415391158105469]","[-0.09788231551647186, 0.06414420157670975, 0.03999999910593033]","[0.0, -0.0, 1.415395709317307]","[0.026750000193715096, 0.05299999937415123, 0.03999999910593033]","[0.0, 0.0, -1.419533200978404]","[0.09792786836624146, 0.06384945660829544, 0.03999999910593033]","[0.0, 0.0, -1.4395389386881268]",1.4308518746866525,3.7106166750225977,"(0.0, 0.0, 0.0, 0.0, 0.0, 0.0)",-0.5967141397561109,4.7399630338636504e-06,3.9705446138709865e-05,"(0.0, 0.0, 0.0, 0.0, 0.0, 0.0)",-0.042434775014060074,-1.4345799173274023,-3.611202204602609,"(0.0, 0.0, 0.0, 0.0, 0.0, 0.0)",0.5752902758042565,-0.018005647771851804,0.4800102903229233,"(0.0, 0.0, 0.0, 0.0, 0.0, 0.0)",0.0358468230863414,False,,,,,False,,,,
12,Open,,,,,,"[-0.026750000193715096, 0.05299999937415123, 0.03999999910593033]","[0.0, -0.0, 1.4447668540021588]","[-0.09817895293235779, 0.06205013021826744, 0.03999999910593033]","[0.0, -0.0, 1.4447715863131299]","[0.026750000193715096, 0.05299999937415123, 0.03999999910593033]","[0.0, 0.0, -1.448121993206969]","[0.09820891171693802, 0.06181041896343231, 0.03999999910593033]","[0.0, 0.0, -1.46432761016298]",1.4572900184961886,3.005599506768304,"(0.0, 0.0, 0.0, 0.0, 0.0, 0.0)",-0.483467731204937,4.849462099751187e-06,5.401615740548756e-06,"(0.0, 0.0, 0.0, 0.0, 0.0, 0.0)",-0.03441712855198442,-1.4603097330351957,-2.925073785728113,"(0.0, 0.0, 0.0, 0.0, 0.0, 0.0)",0.4660969568661882,-0.014585427836986846,0.38883096045278315,"(0.0, 0.0, 0.0, 0.0, 0.0, 0.0)",0.029067900465992856,False,,,,,False,,,,
13,Open,,,,,,"[-0.026750000193715096, 0.05299999937415123, 0.03999999910593033]","[0.0, -0.0, 1.4685611215819594]","[-0.09837405383586884, 0.06034812703728676, 0.03999999910593033]","[0.0, -0.0, 1.468565853091142]","[0.026750000193715096, 0.05299999937415123, 0.03999999910593033]","[0.0, 0.0, -1.4712788457263521]","[0.0983937606215477, 0.06015344336628914, 0.03999999910593033]","[0.0, 0.0, -1.4844061039497418]",1.4787049149819127,2.434535600482329,"(0.0, 0.0, 0.0, 0.0, 0.0, 0.0)",-0.39169363303347604,4.747151892642784e-06,-1.7351748576465223e-05,"(0.0, 0.0, 0.0, 0.0, 0.0, 0.0)",-0.02790732436186781,-1.4811508837585086,-2.3693097664397755,"(0.0, 0.0, 0.0, 0.0, 0.0, 0.0)",0.37761186810531283,-0.011814888241968555,0.3149714411852639,"(0.0, 0.0, 0.0, 0.0, 0.0, 0.0)",0.023565936472848985,False,,,,,False,,,,
14,Open,,,,,,"[-0.026750000193715096, 0.05299999937415123, 0.03999999910593033]","[0.0, -0.0, 1.487834617901085]","[-0.09850236773490906, 0.05896640568971634, 0.03999999910593033]","[0.0, -0.0, 1.4878390921106803]","[0.026750000193715096, 0.05299999937415123, 0.03999999910593033]","[0.0, 0.0, -1.4900358577435544]","[0.09851532429456711, 0.05880843847990036, 0.03999999910593033]","[0.0, 0.0, -1.5006695807985118]",1.4960509811353493,1.9719738363906854,"(0.0, 0.0, 0.0, 0.0, 0.0, 0.0)",-0.3173274216127963,4.509251873886308e-06,-3.168767150011037e-05,"(0.0, 0.0, 0.0, 0.0, 0.0, 0.0)",-0.022624215793833224,-1.498032215844392,-1.9191409108162163,"(0.0, 0.0, 0.0, 0.0, 0.0, 0.0)",0.30591369390909257,-0.00957062017308593,0.2551417656412126,"(0.0, 0.0, 0.0, 0.0, 0.0, 0.0)",0.019102112305110365,False,,,,,False,,,,
15,Close,,,"(0.010000330010418335, 0.1600052801621647, 0.0076635160840755065)","(-0.00010776674212266888, 6.7354271463595154e-06, -3.629275205618536e-10)",,"[-0.026750000193715096, 0.05299999937415123, 0.03999999910593033]","[0.0, -0.0, 1.5034457455162191]","[-0.09858676046133041, 0.05784556642174721, 0.03999999910593033]","[0.0, -0.0, 1.5034503818793725]","[0.026750000193715096, 0.05299999937415123, 0.03999999910593033]","[0.0, 0.0, -1.5052288706440118]","[0.09859529137611389, 0.057717464864254, 0.03999999910593033]","[0.0, 0.0, -1.5138427586332608]",1.413101294719633,-21.682701192523552,"(0.0, 0.0, 0.0, 0.0, 0.0, 0.0)",-36.2964633864193,-0.08999572753671375,-21.600020366059084,"(0.0, 0.0, 0.0, 0.0, 0.0, 0.0)",-4.677104715743802,-1.4147060948339576,21.72549586223887,"(0.0, 0.0, 0.0, 0.0, 0.0, 0.0)",36.28721231316116,0.08224721981037424,21.806647295928226,"(0.0, 0.0, 0.0, 0.0, 0.0, 0.0)",4.674247117033191,False,,,,,False,,,,
16,Close,,,"(0.010000659812012168, 0.16001055698314023, 0.0146278458391823)","(-0.0002154970996661642, 1.346858017578936e-05, -1.4512199879406586e-09)",,"[-0.026750000193715096, 0.05299999937415123, 0.03999999910593033]","[0.0, -0.0, 1.331791174621689]","[-0.09670332819223404, 0.07004500180482864, 0.03999999910593033]","[0.0, -0.0, 1.1607947601674466]","[0.026750000193715096, 0.05299999937415123, 0.03999999910593033]","[0.0, 0.0, -1.333235579802916]","[0.0967278704047203, 0.06994394958019257, 0.03999999910593033]","[0.0, 0.0, -1.1692126917852095]",1.2586120487229027,-17.562987965944075,"(0.0, 0.0, 0.0, 0.0, 0.0, 0.0)",2.9912613024458263,-0.2438973282575851,-17.496176851103186,"(0.0, 0.0, 0.0, 0.0, 0.0, 0.0)",0.3774423078885404,-1.2599119368155056,17.59765164841349,"(0.0, 0.0, 0.0, 0.0, 0.0, 0.0)",-2.998418754928424,0.23762104120869787,17.663545071724318,"(0.0, 0.0, 0.0, 0.0, 0.0, 0.0)",-0.3794651959179023,False,,,,,False,,,,
17,Close,,,"(0.010000989414132393, 0.1600158306125408, 0.020893621515273818)","(-0.00032319108508158773, 2.0199459787849396e-05, -3.2641426920478403e-09)",,"[-0.026750000193715096, 0.05299999937415123, 0.03999999910593033]","[0.0, -0.0, 1.1927509376626115]","[-0.09366592019796371, 0.0795755386352539, 0.03999999910593033]","[0.0, -0.0, 0.8832429263887086]","[0.026750000193715096, 0.05299999937415123, 0.03999999910593033]","[0.0, 0.0, -1.1939208377844814]","[0.0936969667673111, 0.07949723303318024, 0.03999999910593033]","[0.0, 0.0, -0.8900614482005528]",1.1334757594655511,-14.226020252414699,"(0.0, 0.0, 0.0, 0.0, 0.0, 0.0)",2.4288508647123748,-0.36855748390702325,-14.171887099327844,"(0.0, 0.0, 0.0, 0.0, 0.0, 0.0)",0.30976852738726823,-1.1345286688205596,14.254097835214925,"(0.0, 0.0, 0.0, 0.0, 0.0, 0.0)",-2.4347025650831196,0.36347369491056536,14.307455277413446,"(0.0, 0.0, 0.0, 0.0, 0.0, 0.0)",-0.3114537668278207,False,,,,,False,,,,
18,Close,,,"(0.010001318826104761, 0.16002110119957821, 0.02646143576036139)","(-0.0004308487108156613, 2.692806668198511e-05, -5.800961497533997e-09)",,"[-0.026750000193715096, 0.05299999937415123, 0.03999999910593033]","[0.0, -0.0, 1.0801281957344744]","[-0.09025531262159348, 0.08692750334739685, 0.03999999910593033]","[0.0, -0.0, 0.658426092619021]","[0.026750000193715096, 0.05299999937415123, 0.03999999910593033]","[0.0, 0.0, -1.0810758877799864]","[0.09028743207454681, 0.0868673101067543, 0.03999999910593033]","[0.0, 0.0, -0.6639491897248752]",1.0321153651670965,-11.523076404455903,"(0.0, 0.0, 0.0, 0.0, 0.0, 0.0)",1.9712593195403922,-0.46953209273108476,-11.479215138346529,"(0.0, 0.0, 0.0, 0.0, 0.0, 0.0)",0.25356328507457,-1.0329682217446532,11.54581924652409,"(0.0, 0.0, 0.0, 0.0, 0.0, 0.0)",-1.976034733535922,0.46541422655746517,11.589025293474933,"(0.0, 0.0, 0.0, 0.0, 0.0, 0.0)",-0.2549589687679249,False,,,,,False,,,,
19,Close,,,"(0.010001648057231211, 0.16002636889308344, 0.03133184175509247)","(-0.0005384699893107284, 3.3654401557527444e-05, -9.06094284338731e-09)",,"[-0.026750000193715096, 0.05299999937415123, 0.03999999910593033]","[0.0, -0.0, 0.9889039009917453]","[-0.08690053224563599, 0.09257163107395172, 0.03999999910593033]","[0.0, -0.0, 0.4763247177857985]","[0.026750000193715096, 0.05299999937415123, 0.03999999910593033]","[0.0, 0.0, -0.9896714317513632]","[0.08693088591098785, 0.09252544492483139, 0.03999999910593033]","[0.0, 0.0, -0.4807983343348629]",0.9500134457853482,-9.333691887609287,"(0.0, 0.0, 0.0, 0.0, 0.0, 0.0)",1.59927232790674,-0.551321428885197,-9.298153181376478,"(0.0, 0.0, 0.0, 0.0, 0.0, 0.0)",0.20712540820679678,-0.9507042596131691,9.352113589684514,"(0.0, 0.0, 0.0, 0.0, 0.0, 0.0)",-1.6031637286990463,0.5479859596890367,9.387099348535743,"(0.0, 0.0, 0.0, 0.0, 0.0, 0.0)",-0.20827601456628825,False,,,,,False,,,,
20,Close,,,"(0.010001977116791199, 0.1600316338415276, 0.035505353338314005)","(-0.0006460549330047555, 4.037846511369274e-05, -1.3043353742532214e-08)",,"[-0.026750000193715096, 0.05299999937415123, 0.03999999910593033]","[0.0, -0.0, 0.9150121593347216]","[-0.08381503820419312, 0.09690423309803009, 0.03999999910593033]","[0.0, -0.0, 0.3288226039195219]","[0.026750000193715096, 0.05299999937415123, 0.03999999910593033]","[0.0, 0.0, -0.9156338940018686]","[0.08384232223033905, 0.09686874598264694, 0.03999999910593033]","[0.0, 0.0, -0.33244627340343963]",0.883510891086132,-7.560290428963521,"(0.0, 0.0, 0.0, 0.0, 0.0, 0.0)",1.2970851133907606,-0.6175707112805602,-7.53149495926978,"(0.0, 0.0, 0.0, 0.0, 0.0, 0.0)",0.1689126126712179,-0.884070450286667,7.575212007644451,"(0.0, 0.0, 0.0, 0.0, 0.0, 0.0)",-1.3002524451675361,0.6148689832085066,7.603541305643349,"(0.0, 0.0, 0.0, 0.0, 0.0, 0.0)",-0.16985779298155493,False,,,,,False,,,,
21,Close,,,"(0.010002306014043007, 0.16003689619304312, 0.038982445123681576)","(-0.0007536035543313348, 4.7100258049582536e-05, -1.7747461781428295e-08)",,"[-0.026750000193715096, 0.05299999937415123, 0.03999999910593033]","[0.0, -0.0, 0.855159831855573]","[-0.0810866579413414, 0.10023905336856842, 0.03999999910593033]","[0.0, -0.0, 0.20934598049273878]","[0.026750000193715096, 0.05299999937415123, 0.03999999910593033]","[0.0, 0.0, -0.855663319897266]","[0.08111044019460678, 0.10021167993545532, 0.03999999910593033]","[0.0, 0.0, -0.21228117869263835]",0.8296438217797669,-6.123835247460454,"(0.0, 0.0, 0.0, 0.0, 0.0, 0.0)",1.05173758145085,-0.6712325644411228,-6.100503438359898,"(0.0, 0.0, 0.0, 0.0, 0.0, 0.0)",0.13756782929819192,-0.8300970647322002,6.135921726192006,"(0.0, 0.0, 0.0, 0.0, 0.0, 0.0)",-1.0543131565319612,0.6690441663231638,6.158860938132814,"(0.0, 0.0, 0.0, 0.0, 0.0, 0.0)",-0.13834207864853043,False,,,,,False,,,,
22,Close,,,"(0.010002634758225062, 0.1600421560954447, 0.041763552607370504)","(-0.000861115865719684, 5.381978106418352e-05, -2.3172535119669436e-08)",,"[-0.026750000193715096, 0.05299999937415123, 0.03999999910593033]","[0.0, -0.0, 0.8066794434121096]","[-0.07873354107141495, 0.10281677544116974, 0.03999999910593033]","[0.0, -0.0, 0.11257000369976355]","[0.026750000193715096, 0.05299999937415123, 0.03999999910593033]","[0.0, 0.0, -0.807087375168555]","[0.07875385880470276, 0.1027955636382103, 0.03999999910593033]","[0.0, 0.0, -0.11494747853587685]",0.7860114956416112,-4.960306550442966,"(0.0, 0.0, 0.0, 0.0, 0.0, 0.0)",0.8526282438926112,-0.7146986118113532,-4.941401666116088,"(0.0, 0.0, 0.0, 0.0, 0.0, 0.0)",0.11192109221648956,-0.7863786224330822,4.970096598215528,"(0.0, 0.0, 0.0, 0.0, 0.0, 0.0)",-0.8547210444656044,0.7129260106609093,4.988671207184531,"(0.0, 0.0, 0.0, 0.0, 0.0, 0.0)",-0.11255391153308099,False,,,,,False,,,,
23,Close,,,"(0.010002963358557236, 0.16004741369625017, 0.04384907226694074)","(-0.0009685918795946493, 6.053703485636736e-05, -2.9317842489583264e-08)",,"[-0.026750000193715096, 0.05299999937415123, 0.03999999910593033]","[0.0, -0.0, 0.7674103444184671]","[-0.07673770934343338, 0.10481919348239899, 0.03999999910593033]","[0.0, -0.0, 0.03418149097606777]","[0.026750000193715096, 0.05299999937415123, 0.03999999910593033]","[0.0, 0.0, -0.7677407466611278]","[0.07675483077764511, 0.1048026755452156, 0.03999999910593033]","[0.0, 0.0, -0.0361072460378734]",0.7506693114697051,-4.017848305858803,"(0.0, 0.0, 0.0, 0.0, 0.0, 0.0)",0.6911017846597902,-0.7499060663183246,-4.0025303530146505,"(0.0, 0.0, 0.0, 0.0, 0.0, 0.0)",0.09097831684118958,-0.7509666841707966,4.025778244554576,"(0.0, 0.0, 0.0, 0.0, 0.0, 0.0)",-0.6928012733138227,0.7484702604680491,4.040818653480022,"(0.0, 0.0, 0.0, 0.0, 0.0, 0.0)",-0.09149462532289206,False,,,,,False,,,,
24,Close,,,"(0.010003291824242136, 0.16005266914270105, 0.04523936165140331)","(-0.0010760316083767074, 6.725202012489063e-05, -3.618265319583079e-08)",,"[-0.026750000193715096, 0.05299999937415123, 0.03999999910593033]","[0.0, -0.0, 0.7356023986171477]","[-0.07506444305181503, 0.10638272017240524, 0.03999999910593033]","[0.0, 0.0, -0.029314282157410606]","[0.026750000193715096, 0.05299999937415123, 0.03999999910593033]","[0.0, 0.0, -0.7358699744488303]","[0.07507872581481934, 0.10636978596448898, 0.03999999910593033]","[0.0, -0.0, 0.027754427824074522]",0.722042142290461,-3.2544571277456287,"(0.0, 0.0, 0.0, 0.0, 0.0, 0.0)",0.560108160717456,-0.7784260816002104,-3.242260463996204,"(0.0, 0.0, 0.0, 0.0, 0.0, 0.0)",0.0739092939425144,-0.7222830141783452,3.260880378089207,"(0.0, 0.0, 0.0, 0.0, 0.0, 0.0)",-0.5614876113391304,0.7772630911922368,3.2732751882458535,"(0.0, 0.0, 0.0, 0.0, 0.0, 0.0)",-0.07432997801242036,False,,,,,False,,,,
25,Close,,,"(0.010001644182078712, 0.16005595153396976, 0.045940321410535084)","(-0.0011271805217326655, 1.767785898679914e-05, -1.508889111938428e-08)",,"[-0.026750000193715096, 0.05299999937415123, 0.03999999910593033]","[0.0, -0.0, 0.7098379546684608]","[-0.07367318123579025, 0.10760965943336487, 0.03999999910593033]","[0.0, 0.0, -0.08074653118681538]","[0.026750000193715096, 0.05299999937415123, 0.03999999910593033]","[0.0, 0.0, -0.7100547061469626]","[0.07368502020835876, 0.10759948939085007, 0.03999999910593033]","[0.0, -0.0, 0.07948305351710017]",0.6988541352552734,-2.6361102734739577,"(0.0, 0.0, 0.0, 0.0, 0.0, 0.0)",0.4538907146887525,-0.8015268867317584,-2.626184566689172,"(0.0, 0.0, 0.0, 0.0, 0.0, 0.0)",0.06000477197099662,-0.6990492414844596,2.6413131062522566,"(0.0, 0.0, 0.0, 0.0, 0.0, 0.0)",-0.45500992694973624,0.8005848745408953,2.6513062318756173,"(0.0, 0.0, 0.0, 0.0, 0.0, 0.0)",-0.06034712704439637,False,,,,,False,,,,
26,Close,,,"(0.0099979269032565, 0.16005188637635104, 0.04640949954916324)","(-0.0010442772263960227, -5.814874739306873e-05, 7.787963860925158e-09)",,"[-0.026750000193715096, 0.05299999937415123, 0.03999999910593033]","[0.0, -0.0, 0.6889687286552088]","[-0.07252338528633118, 0.1085769459605217, 0.03999999910593033]","[0.0, 0.0, -0.12240626184562299]","[0.026750000193715096, 0.05299999937415123, 0.03999999910593033]","[0.0, 0.0, -0.6891442541658422]","[0.07253314554691315, 0.10856890678405762, 0.03999999910593033]","[0.0, -0.0, 0.12138287899953458]",0.6800717984485459,-2.1352615874880345,"(0.0, 0.0, 0.0, 0.0, 0.0, 0.0)",0.36778464275725675,-0.820237492399504,-2.127000202679893,"(0.0, 0.0, 0.0, 0.0, 0.0, 0.0)",0.04871100820034693,-0.6802298342020312,2.1394759521557623,"(0.0, 0.0, 0.0, 0.0, 0.0, 0.0)",-0.3686924226914724,0.8194744666035607,2.147347557238381,"(0.0, 0.0, 0.0, 0.0, 0.0, 0.0)",-0.04898946018255637,False,,,,,False,,,,
27,Close,,,"(0.009998107600018924, 0.16004411888380865, 0.0468059782297436)","(-0.0008858309445970004, -5.447527859797503e-05, 4.128601528647624e-08)",,"[-0.026750000193715096, 0.05299999937415123, 0.03999999910593033]","[0.0, -0.0, 0.672064613904271]","[-0.07157741487026215, 0.10934273153543472, 0.03999999910593033]","[0.0, 0.0, -0.15614974961002634]","[0.026750000193715096, 0.05299999937415123, 0.03999999910593033]","[0.0, 0.0, -0.6722069192953587]","[0.07158542424440384, 0.10933635383844376, 0.03999999910593033]","[0.0, -0.0, 0.15532080931604164]",0.6648581567433223,-1.7295508464885936,"(0.0, 0.0, 0.0, 0.0, 0.0, 0.0)",0.29799285099320455,-0.8353935278746698,-1.722993881465588,"(0.0, 0.0, 0.0, 0.0, 0.0, 0.0)",0.03950205891705609,-0.6649861657036452,1.732964418763874,"(0.0, 0.0, 0.0, 0.0, 0.0, 0.0)",-0.2987289514022836,0.83477548361327,1.7394759470338683,"(0.0, 0.0, 0.0, 0.0, 0.0, 0.0)",-0.03972821774930672,False,,,,,False,,,,
28,Close,,,"(0.009998390752654573, 0.16003702894197389, 0.04714144752999396)","(-0.0007411380797103218, -4.869650481896534e-05, 1.1687517768299383e-07)",,"[-0.026750000193715096, 0.05299999937415123, 0.03999999910593033]","[0.0, -0.0, 0.6583722791296546]","[-0.07080177217721939, 0.10995122045278549, 0.03999999910593033]","[0.0, 0.0, -0.18348236399010098]","[0.026750000193715096, 0.05299999937415123, 0.03999999910593033]","[0.0, 0.0, -0.6584875609778488]","[0.07080833613872528, 0.10994613915681839, 0.03999999910593033]","[0.0, -0.0, 0.18281091441867092]",0.652535106962091,-1.400936185655761,"(0.0, 0.0, 0.0, 0.0, 0.0, 0.0)",0.24143143710013154,-0.8476696977959799,-1.3956001238249038,"(0.0, 0.0, 0.0, 0.0, 0.0, 0.0)",0.032035576984152714,-0.6526387942199526,1.4037011791987364,"(0.0, 0.0, 0.0, 0.0, 0.0, 0.0)",-0.24202820218879367,0.8471690873323404,1.4089504550195393,"(0.0, 0.0, 0.0, 0.0, 0.0, 0.0)",-0.0322192170145395,False,,,,,False,,,,
29,Close,,,"(0.009998679410322496, 0.16003066597344334, 0.0474253884764576)","(-0.0006112814540129935, -4.2805404436077314e-05, 1.9447426774393396e-07)",,"[-0.026750000193715096, 0.05299999937415123, 0.03999999910593033]","[0.0, -0.0, 0.6472815645892557]","[-0.07016744464635849, 0.11043626815080643, 0.03999999910593033]","[0.0, 0.0, -0.2056215493544759]","[0.026750000193715096, 0.05299999937415123, 0.03999999910593033]","[0.0, 0.0, -0.6473749785824873]","[0.07017280906438828, 0.1104322224855423, 0.03999999910593033]","[0.0, -0.0, 0.20507767878351457]",0.6425534366392937,-1.1347583103811658,"(0.0, 0.0, 0.0, 0.0, 0.0, 0.0)",0.19559696212506814,-0.8576132175808707,-1.130415870269558,"(0.0, 0.0, 0.0, 0.0, 0.0, 0.0)",0.025974296640771184,-0.6426374233181616,1.1369979551509777,"(0.0, 0.0, 0.0, 0.0, 0.0, 0.0)",-0.19608068519888996,0.8572077274788498,1.141229523067934,"(0.0, 0.0, 0.0, 0.0, 0.0, 0.0)",-0.02612334092818916,False,,,,,False,,,,
30,Close,,,"(0.009865465308992205, 0.15999852606453366, 0.04766600164849151)","(-0.0003424815135586742, 0.00015086673503461647, 0.0034152828324375316)",,"[-0.026750000193715096, 0.05299999937415123, 0.03999999910593033]","[0.0, -0.0, 0.6382981045455605]","[-0.06964972615242004, 0.11082398891448975, 0.03999999910593033]","[0.0, 0.0, -0.22355414441709243]","[0.026750000193715096, 0.05299999937415123, 0.03999999910593033]","[0.0, 0.0, -0.6383737252477673]","[0.06965409219264984, 0.11082074791193008, 0.03999999910593033]","[0.0, -0.0, 0.22311363310560886]",0.6344682836778279,-0.9191542314087444,"(0.0, 0.0, 0.0, 0.0, 0.0, 0.0)",0.1584658053641607,-0.8656670151994418,-0.9155462613482186,"(0.0, 0.0, 0.0, 0.0, 0.0, 0.0)",0.021063560793533557,-0.6345419852789147,0.9196069697833984,"(0.0, 0.0, 0.0, 0.0, 0.0, 0.0)",1.5650710318467773,0.8652269258386903,0.8975102038417887,"(0.0, 0.0, 0.0, 0.0, 0.0, 0.0)",0.970263568851588,False,,,,,True,"(0.041964474105275554, 0.17969275438125942, 0.023999959438538113)","(-0.9999999992078928, -2.3394376763778626e-07, -3.980150266267419e-05)",0.0005277146366441324,13.827283024398023
31,Move,,,"(0.007363952190207586, 0.1595176072470861, 0.04786907614534817)","(-0.000283671801070412, 0.00017028703879343212, 0.033932294028324435)","[0.0, 0.0, 0.0]","[-0.026750000193715096, 0.05299999937415123, 0.03999999910593033]","[0.0, -0.0, 0.6310214732486521]","[-0.06922782957553864, 0.1111346185207367, 0.03999999910593033]","[0.0, 0.0, -0.23807887186492363]","[0.026750000193715096, 0.05299999937415123, 0.03999999910593033]","[0.0, 0.0, -0.6310879718519756]","[0.06923169642686844, 0.11113179475069046, 0.03999999910593033]","[0.0, -0.0, 0.2376151439176698]",0.6073010028525442,-5.692908589800243,"(0.0, 0.0, 0.0, 0.0, 0.0, 0.0)",-6.970029188620435,-0.868756983831492,0.08239916352133925,"(0.0, 0.0, 0.0, 0.0, 0.0, 0.0)",-0.4110687045203754,-0.6117280690932336,4.646378695169427,"(0.0, 0.0, 0.0, 0.0, 0.0, 0.0)",6.63722350158353,0.8683562496935296,-0.08325233958591138,"(0.0, 0.0, 0.0, 0.0, 0.0, 0.0)",0.9711507533803067,False,,,,,True,"(0.04054627108315854, 0.179595033909982, 0.023999959438538113)","(-0.9999999992078928, -2.3394376763778626e-07, -3.980150266267419e-05)",-6.660727030056632e-06,5.483947105729632
32,Move,,,"(0.003581798779507854, 0.15888081127638445, 0.0479516006086598)","(0.0007129250223673224, -0.00208967314794087, 0.0775559872120303)","[-0.003782153410699732, -0.0006367959707016535, 8.25244633116326e-05]","[-0.026750000193715096, 0.05299999937415123, 0.03999999910593033]","[0.0, -0.0, 0.5859526299274878]","[-0.06656552106142044, 0.11298936605453491, 0.03999999910593033]","[0.0, 0.0, -0.2824962348735626]","[0.026750000193715096, 0.05299999937415123, 0.03999999910593033]","[0.0, 0.0, -0.5943032042166643]","[0.06706507503986359, 0.11265479773283005, 0.03999999910593033]","[0.0, -0.0, 0.2737407621305699]",0.5651750435041389,-4.9866125127970315,"(0.0, 0.0, 0.0, 0.0, 0.0, 0.0)",0.1879296173067297,-0.8684796473023089,-0.007395640778216972,"(0.0, 0.0, 0.0, 0.0, 0.0, 0.0)",0.0052485587257143,-0.5763335013853139,4.3127362313992865,"(0.0, 0.0, 0.0, 0.0, 0.0, 0.0)",0.20027995465953127,0.8680752302284668,0.0074938524016774505,"(0.0, 0.0, 0.0, 0.0, 0.0, 0.0)",0.02249499703994292,False,,,,,True,"(0.0359258773488902, 0.1800326723866737, 0.023997902681873285)","(-0.9984706073090757, -0.05524536888912827, -0.002096558167493954)",0.00012594863753174636,0.0
33,Move,,,"(0.001122542829286716, 0.1593018964136896, 0.0479227662575371)","(0.004945114300985391, -0.0007111404472231802, 0.10411918620410092)","[-0.006241409360920869, -0.00021571083339649855, 5.3690112188933825e-05]","[-0.026750000193715096, 0.05299999937415123, 0.03999999910593033]","[0.0, -0.0, 0.5464752837415245]","[-0.06416688859462738, 0.11451403051614761, 0.03999999910593033]","[0.0, 0.0, -0.32203216719565797]","[0.026750000193715096, 0.05299999937415123, 0.03999999910593033]","[0.0, 0.0, -0.5601607664550203]","[0.06500521302223206, 0.113996222615242, 0.03999999910593033]","[0.0, -0.0, 0.3079426098360514]",0.5284581628806412,-4.324100182620625,"(0.0, 0.0, 0.0, 0.0, 0.0, 0.0)",-40.57665041993025,-0.8499710773008806,4.448713801084151,"(0.0, 0.0, 0.0, 0.0, 0.0, 0.0)",-20.450246702708142,-0.5432536493593767,4.057701472950861,"(0.0, 0.0, 0.0, 0.0, 0.0, 0.0)",40.51490371176407,0.8490881856801438,-4.5636359590366995,"(0.0, 0.0, 0.0, 0.0, 0.0, 0.0)",20.9314301799772,True,"(-0.029811151186175763, 0.18051363537611448, 0.05600153891941393)","(0.9949795852674637, 0.10006627287285103, 0.001538159394272495)",-0.0021929381795451827,324.8302845382825,True,"(0.031581245564939034, 0.18025917111664624, 0.023998461080646502)","(-0.9949795852674632, -0.10006627287285588, -0.0015381593942749786)",0.00032843032100871104,245.81822951935948
34,Move,"(0.0028, 0.0, -0.0019)","(0.0, 0.03882310388136187, 0.0)","(0.0007272841421161619, 0.16028950761178123, 0.04796007301920998)","(0.009127235906720895, 0.00022976895799716116, 0.09615813752683924)","[-0.006636668048091424, 0.0007719003646951272, 9.099687386181221e-05]","[-0.026750000193715096, 0.05299999937415123, 0.03999999910593033]","[0.0, -0.0, 0.5122910766505747]","[-0.062042638659477234, 0.11575690656900406, 0.03999999910593033]","[0.0, 0.0, -0.3205952360126725]","[0.026750000193715096, 0.05299999937415123, 0.03999999910593033]","[0.0, 0.0, -0.5280779333918697]","[0.06302893161773682, 0.11519195139408112, 0.03999999910593033]","[0.0, -0.0, 0.3033470937789916]",0.5116563925071235,-0.15233106902957916,"(0.0, 0.0, 0.0, 0.0, 0.0, 0.0)",4.1263171883452925,-0.8345948184256705,-0.41004464678228647,"(0.0, 0.0, 0.0, 0.0, 0.0, 0.0)",-0.5000428560958843,-0.5320737786997819,-0.9589880504702788,"(0.0, 0.0, 0.0, 0.0, 0.0, 0.0)",-6.19452653091579,0.8331914035747173,0.4239141894780385,"(0.0, 0.0, 0.0, 0.0, 0.0, 0.0)",0.006410179915475982,True,"(-0.027782116061409873, 0.18180915987972746, 0.05600071189642032)","(0.9945842410657634, 0.10393113923646441, 0.000711140387283058)",-0.005767574495913523,5.814465242286931,True,"(0.029910421102272162, 0.18160183909572525, 0.023999288099653494)","(-0.994584241065763, -0.10393113923646692, -0.0007111403872818769)",0.00023400145338051335,0.0
35,Move,"(0.003425, 0.0, -0.00285)","(0.0, 0.024933773693990992, 0.0)","(0.001481700238457392, 0.1603998565557589, 0.04806393368637544)","(0.005099575425186166, 0.0014068734645338158, 0.0923049054575194)","[-0.005882251951750194, 0.0008822493086727834, 0.00019485754102727126]","[-0.026750000193715096, 0.05299999937415123, 0.03999999910593033]","[0.0, -0.0, 0.5111398586453818]","[-0.061970364302396774, 0.1157974973320961, 0.03999999910593033]","[0.0, 0.0, -0.3240949571832248]","[0.026750000193715096, 0.05299999937415123, 0.03999999910593033]","[0.0, 0.0, -0.5357236197093406]","[0.06350336968898773, 0.11491276323795319, 0.03999999910593033]","[0.0, -0.0, 0.29839080916957267]",0.508666061004918,-0.5937020646248975,"(0.0, 0.0, 0.0, 0.0, 0.0, 0.0)",-4.999107890078818,-0.8331490085979922,0.5005921249036098,"(0.0, 0.0, 0.0, 0.0, 0.0, 0.0)",-2.221709592473712,-0.5379796661443446,-0.5414445287431162,"(0.0, 0.0, 0.0, 0.0, 0.0, 0.0)",4.401226233742901,0.8323415644135949,-0.42549760810936427,"(0.0, 0.0, 0.0, 0.0, 0.0, 0.0)",1.8422852611030285,True,"(-0.02747888246613129, 0.18172944108492317, 0.05600071189642032)","(0.9945842410657634, 0.10393113923646441, 0.000711140387283058)",-0.00495141364988638,30.171188159022925,True,"(0.030714405261974033, 0.18148597608488998, 0.023999288099653494)","(-0.994584241065763, -0.10393113923646692, -0.0007111403872818769)",1.527577546712414e-05,21.785297385584435
36,Move,"(0.0039857, 0.0, -0.0040143)","(0.0, 0.01848827276637593, 0.0)","(0.002172867655857623, 0.16052760992947365, 0.04814739294605671)","(0.0014842398853277664, 0.0025379532297415603, 0.08893150334507509)","[-0.005191084534349962, 0.0010100026823875452, 0.0002783168007085418]","[-0.026750000193715096, 0.05299999937415123, 0.03999999910593033]","[0.0, -0.0, 0.5064351226062289]","[-0.061674535274505615, 0.11596250534057617, 0.03999999910593033]","[0.0, 0.0, -0.32490660664198306]","[0.026750000193715096, 0.05299999937415123, 0.03999999910593033]","[0.0, 0.0, -0.540006794618815]","[0.06376820802688599, 0.11475477367639542, 0.03999999910593033]","[0.0, -0.0, 0.29079603009047045]",0.504180599276785,-0.5410982542678494,"(0.0, 0.0, 0.0, 0.0, 0.0, 0.0)",-3.6505331345518788,-0.8298689102972623,0.3534816670430256,"(0.0, 0.0, 0.0, 0.0, 0.0, 0.0)",-1.8693045335726908,-0.5424230814002473,-0.5799079364681419,"(0.0, 0.0, 0.0, 0.0, 0.0, 0.0)",3.158320396405146,0.8295919705526031,-0.2906027991273638,"(0.0, 0.0, 0.0, 0.0, 0.0, 0.0)",1.5080698323849357,True,"(-0.027129555820740357, 0.18186643027799787, 0.05600071189642032)","(0.9945842410657634, 0.10393113923646441, 0.000711140387283058)",-0.004522308433517049,25.114116764844976,True,"(0.03148580051300347, 0.18157509187046578, 0.023999288099653494)","(-0.994584241065763, -0.10393113923646692, -0.0007111403872818769)",7.63164306916104e-05,14.049956898188512
37,Move,"(0.00443, 0.0, -0.00471)","(0.0, 0.01551597705022959, 0.0)","(0.002822332456616687, 0.1606284963189805, 0.04822828725543882)","(-0.0006545175859561975, 0.0035866289725541046, 0.08603695909742544)","[-0.004541619733590898, 0.0011108890718943831, 0.00035921111009065004]","[-0.026750000193715096, 0.05299999937415123, 0.03999999910593033]","[0.0, -0.0, 0.5021549791385708]","[-0.061404719948768616, 0.11611141264438629, 0.03999999910593033]","[0.0, 0.0, -0.32635187640514696]","[0.026750000193715096, 0.05299999937415123, 0.03999999910593033]","[0.0, 0.0, -0.5446009137906775]","[0.06405152380466461, 0.1145840585231781, 0.03999999910593033]","[0.0, -0.0, 0.28385674364055535]",0.49994224270696347,-0.5310419467013132,"(0.0, 0.0, 0.0, 0.0, 0.0, 0.0)",-3.7844055582323084,-0.8270387118824334,0.3523405404627472,"(0.0, 0.0, 0.0, 0.0, 0.0, 0.0)",-1.7874058176294325,-0.5469523366562836,-0.5643595841624143,"(0.0, 0.0, 0.0, 0.0, 0.0, 0.0)",2.8673470642089196,0.827296790572837,-0.2785833356726404,"(0.0, 0.0, 0.0, 0.0, 0.0, 0.0)",1.3963632607643264,True,"(-0.02676452582872175, 0.18196534224033295, 0.05600071189642032)","(0.9945842410657634, 0.10393113923646441, 0.000711140387283058)",-0.004112717291543407,25.675129714029406,True,"(0.03223357262932673, 0.18162678439944835, 0.023999288099653494)","(-0.994584241065763, -0.10393113923646692, -0.0007111403872818769)",9.589586524790871e-05,8.780999700499272
38,Move,"(0.0048, 0.0, -0.0051231)","(0.0, 0.013657201396855632, 0.0)","(0.0034718722296174626, 0.16071043245645872, 0.04830293858394039)","(-0.0016489760983330933, 0.004729705533105467, 0.08367370641769299)","[-0.003892079960590123, 0.001192825209372611, 0.0004338624385922252]","[-0.026750000193715096, 0.05299999937415123, 0.03999999910593033]","[0.0, -0.0, 0.4979455531573225]","[-0.06113875284790993, 0.1162567287683487, 0.03999999910593033]","[0.0, 0.0, -0.3278383583149669]","[0.026750000193715096, 0.05299999937415123, 0.03999999910593033]","[0.0, 0.0, -0.5490651579702752]","[0.06432608515024185, 0.11441691964864731, 0.03999999910593033]","[0.0, -0.0, 0.277251342423337]",0.49577454683417976,-0.5210383710921604,"(0.0, 0.0, 0.0, 0.0, 0.0, 0.0)",-3.279843926312605,-0.8245160305036662,0.304298192088093,"(0.0, 0.0, 0.0, 0.0, 0.0, 0.0)",-1.5625495822170254,-0.5513685914921387,-0.5528132169849731,"(0.0, 0.0, 0.0, 0.0, 0.0, 0.0)",2.4458878470705323,0.8253330139862594,-0.2360427241521757,"(0.0, 0.0, 0.0, 0.0, 0.0, 0.0)",1.1786148290451297,True,"(-0.026400704986676266, 0.18205909140418525, 0.05600071189642032)","(0.9945842410657634, 0.10393113923646441, 0.000711140387283058)",-0.0037657256173303628,21.63107712187935,True,"(0.032951668205604176, 0.18166834964200354, 0.023999288099653494)","(-0.994584241065763, -0.10393113923646692, -0.0007111403872818769)",0.0001559773735367233,2.5165211406887984
39,Move,"(0.0056533, 0.0, -0.0056867)","(0.0, 0.014695672301792254, 0.0)","(0.004113184181663007, 0.16078425162385504, 0.04836218211372097)","(-0.0026006805110821087, 0.005762697765552029, 0.08150984833866318)","[-0.0032507680085445785, 0.0012666443767689328, 0.0004931059683727992]","[-0.026750000193715096, 0.05299999937415123, 0.03999999910593033]","[0.0, -0.0, 0.4938234503004956]","[-0.060877710580825806, 0.11639794707298279, 0.03999999910593033]","[0.0, 0.0, -0.32949032361505726]","[0.026750000193715096, 0.05299999937415123, 0.03999999910593033]","[0.0, 0.0, -0.5534449767717367]","[0.06459470838308334, 0.1142517551779747, 0.03999999910593033]","[0.0, -0.0, 0.2709692998125562]",0.49159369574438494,-0.5351432221770351,"(0.0, 0.0, 0.0, 0.0, 0.0, 0.0)",-3.1158352840263865,-0.8221126072191036,0.28828572019163323,"(0.0, 0.0, 0.0, 0.0, 0.0, 0.0)",-1.4971836564720207,-0.5558026548273943,-0.5658565408855682,"(0.0, 0.0, 0.0, 0.0, 0.0, 0.0)",2.2435634365716495,0.8235059155964022,-0.21798814165171376,"(0.0, 0.0, 0.0, 0.0, 0.0, 0.0)",1.0828601253218404,True,"(-0.026031010177087373, 0.18214283191687525, 0.05600071189642032)","(0.9945842410657634, 0.10393113923646441, 0.000711140387283058)",-0.0034322376256770586,19.668364980840646,True,"(0.03364338823866287, 0.18169895563892477, 0.023999288099653494)","(-0.994584241065763, -0.10393113923646692, -0.0007111403872818769)",0.00019017004762732274,0.0
40,Move,"(0.0069667, 0.0, -0.0064467)","(0.0, 0.01747947245872321, 0.0)","(0.004791531793957162, 0.1608513475432933, 0.048379297771983486)","(-0.0028294708926662835, 0.006705810087728425, 0.08058127483360861)","[-0.0025724203962504237, 0.0013337402962071976, 0.0005102216266353182]","[-0.026750000193715096, 0.05299999937415123, 0.03999999910593033]","[0.0, -0.0, 0.4895905422770164]","[-0.06060905009508133, 0.11654183268547058, 0.03999999910593033]","[0.0, 0.0, -0.3313142892239742]","[0.026750000193715096, 0.05299999937415123, 0.03999999910593033]","[0.0, 0.0, -0.5579279986052287]","[0.06486892700195312, 0.1140814796090126, 0.03999999910593033]","[0.0, -0.0, 0.2647181152605155]",0.48720966502990626,-0.5714081111708842,"(0.0, 0.0, 0.0, 0.0, 0.0, 0.0)",-3.0363803934178426,-0.8197150751237219,0.28552693430313497,"(0.0, 0.0, 0.0, 0.0, 0.0, 0.0)",-1.5049706057752246,-0.5604266675018303,-0.5996687729005323,"(0.0, 0.0, 0.0, 0.0, 0.0, 0.0)",2.0772044589592986,0.8217985581015655,-0.2034230177358429,"(0.0, 0.0, 0.0, 0.0, 0.0, 0.0)",0.996807855598244,True,"(-0.02564249229355639, 0.18222305741201794, 0.05600071189642032)","(0.9945842410657634, 0.10393113923646441, 0.000711140387283058)",-0.0031230345461256406,18.13063621603652,True,"(0.03433983266283215, 0.1817208410016855, 0.023999288099653494)","(-0.994584241065763, -0.10393113923646692, -0.0007111403872818769)",0.00022493294546778594,0.0
41,Move,"(0.008060000000000001, 0.0, -0.0068133)","(0.0, 0.022345450413283403, 0.0)","(0.005478107905195423, 0.16091113785065989, 0.048399677661659805)","(-0.002728647983695645, 0.007569562189165293, 0.07919765002733531)","[-0.0018858442850121625, 0.0013935306035737782, 0.0005306015163116379]","[-0.026750000193715096, 0.05299999937415123, 0.03999999910593033]","[0.0, -0.0, 0.48506986591311096]","[-0.06032145023345947, 0.11669424921274185, 0.03999999910593033]","[0.0, 0.0, -0.33353888603654713]","[0.026750000193715096, 0.05299999937415123, 0.03999999910593033]","[0.0, 0.0, -0.5626772963159581]","[0.06515859067440033, 0.11389975249767303, 0.03999999910593033]","[0.0, -0.0, 0.25832778835354375]",0.4826107851618781,-0.5901657513461945,"(0.0, 0.0, 0.0, 0.0, 0.0, 0.0)",-2.786394531135824,-0.8175093935763004,0.2638324002240211,"(0.0, 0.0, 0.0, 0.0, 0.0, 0.0)",-1.3878067812322201,-0.5652406489235235,-0.6152019728169487,"(0.0, 0.0, 0.0, 0.0, 0.0, 0.0)",1.9267049536399423,0.8202220661741411,-0.18792878337673824,"(0.0, 0.0, 0.0, 0.0, 0.0, 0.0)",0.9210435752398612,True,"(-0.025208861319864745, 0.18229752424088658, 0.05600071189642032)","(0.9945842410657634, 0.10393113923646441, 0.000711140387283058)",-0.0028351163903976404,16.269232937710687,True,"(0.035062350445756646, 0.18173282416331082, 0.023999288099653494)","(-0.994584241065763, -0.10393113923646692, -0.0007111403872818769)",0.0002566650471281639,0.0
42,Move,"(0.008480000000000001, 0.0, -0.00708)","(0.0, 0.02841919621022367, 0.0)","(0.006149854245217263, 0.1609638079160599, 0.04842276973945997)","(-0.0024519913795103374, 0.008368565398447584, 0.07756270720464971)","[-0.0012140979449903229, 0.0014462006689738016, 0.0005536935941118024]","[-0.026750000193715096, 0.05299999937415123, 0.03999999910593033]","[0.0, -0.0, 0.4804002338774161]","[-0.060023657977581024, 0.11685032397508621, 0.03999999910593033]","[0.0, 0.0, -0.33608870559770304]","[0.026750000193715096, 0.05299999937415123, 0.03999999910593033]","[0.0, 0.0, -0.5675493418839401]","[0.06545483320951462, 0.11371190845966339, 0.03999999910593033]","[0.0, -0.0, 0.25194104758739977]",0.4780136419918851,-0.572787053257074,"(0.0, 0.0, 0.0, 0.0, 0.0, 0.0)",-2.5184242180112926,-0.8154818024569179,0.24171572790849147,"(0.0, 0.0, 0.0, 0.0, 0.0, 0.0)",-1.2691469484826146,-0.5700353624130124,-0.5966567797274417,"(0.0, 0.0, 0.0, 0.0, 0.0, 0.0)",1.8076919153338895,0.8187686581721456,-0.1732030340319479,"(0.0, 0.0, 0.0, 0.0, 0.0, 0.0)",0.8522966992444879,True,"(-0.02474391102793, 0.1823638493524687, 0.05600071189642032)","(0.9945842410657634, 0.10393113923646441, 0.000711140387283058)",-0.0025679943083251693,14.527511377712287,True,"(0.0357924398931396, 0.18173580845517154, 0.023999288099653494)","(-0.994584241065763, -0.10393113923646692, -0.0007111403872818769)",0.00028626722054982855,0.0
43,Move,"(0.0087533, 0.0, -0.007546700000000001)","(0.0, 0.033517302955299116, 0.0)","(0.006792412940484755, 0.16100951736766897, 0.04844742848260666)","(-0.0020557526532125124, 0.009099407171491, 0.07580566327063169)","[-0.0005715392497228312, 0.0014919101205828622, 0.0005783523372584892]","[-0.026750000193715096, 0.05299999937415123, 0.03999999910593033]","[0.0, -0.0, 0.4758678879242336]","[-0.05973392724990845, 0.11700047552585602, 0.03999999910593033]","[0.0, 0.0, -0.3386814141512774]","[0.026750000193715096, 0.05299999937415123, 0.03999999910593033]","[0.0, 0.0, -0.5722742396202097]","[0.06574126332998276, 0.11352835595607758, 0.03999999910593033]","[0.0, -0.0, 0.24582199791761458]",0.4735653635691625,-0.552609608214124,"(0.0, 0.0, 0.0, 0.0, 0.0, 0.0)",-2.304187682538364,-0.8136311881579162,0.2203593632055736,"(0.0, 0.0, 0.0, 0.0, 0.0, 0.0)",-1.1607667686547087,-0.5746725177943991,-0.575598315336635,"(0.0, 0.0, 0.0, 0.0, 0.0, 0.0)",1.6501357555587475,0.8174351260047988,-0.15865226778658967,"(0.0, 0.0, 0.0, 0.0, 0.0, 0.0)",0.7801803928718186,True,"(-0.024284436630567223, 0.18242230919479777, 0.05600071189642032)","(0.9945842410657634, 0.10393113923646441, 0.000711140387283058)",-0.0023210658628766527,12.907342061621229,True,"(0.03649565943171468, 0.18173248633871425, 0.023999288099653494)","(-0.994584241065763, -0.10393113923646692, -0.0007111403872818769)",0.000314241685466001,0.0
44,Move,"(0.00904, 0.0, -0.008060000000000001)","(0.0, 0.031808625617596654, 0.0)","(0.0074211255044845745, 0.16099625024049763, 0.048482050218281905)","(-0.002521052059177078, 0.007097737511554855, 0.07315550927673779)","[5.7173314276988754e-05, 0.001478642993411522, 0.0006129740729337377]","[-0.026750000193715096, 0.05299999937415123, 0.03999999910593033]","[0.0, -0.0, 0.4714695440421743]","[-0.0594521090388298, 0.11714492738246918, 0.03999999910593033]","[0.0, 0.0, -0.34166179946150244]","[0.026750000193715096, 0.05299999937415123, 0.03999999910593033]","[0.0, 0.0, -0.5768177213860252]","[0.06601586937904358, 0.11335057020187378, 0.03999999910593033]","[0.0, -0.0, 0.24012592654616777]",0.46920874808384677,-0.5425822429954903,"(0.0, 0.0, 0.0, 0.0, 0.0, 0.0)",-1.3429086242055839,-0.8125835571899515,0.13146343173295963,"(0.0, 0.0, 0.0, 0.0, 0.0, 0.0)",-0.6757476628249609,-0.5791417635937869,-0.5577644786793331,"(0.0, 0.0, 0.0, 0.0, 0.0, 0.0)",1.119473839506344,0.8164470937192868,-0.11917423847178317,"(0.0, 0.0, 0.0, 0.0, 0.0, 0.0)",0.582126521974032,True,"(-0.02380708805978552, 0.18245149274257724, 0.023991778631794223)","(0.9971840505386531, 0.07454118550477454, -0.008220767291900945)",-0.002413251926969049,9.813380510777359,True,"(0.037159238197917284, 0.18172018116543398, 0.023999288099653494)","(-0.994584241065763, -0.10393113923646692, -0.0007111403872818769)",0.0002817507774599362,0.0
45,Move,"(0.009266700000000001, 0.0, -0.00886)","(0.0, 0.03149621168148967, 0.0)","(0.008010716738773073, 0.1609909402321177, 0.048489256965005986)","(-0.0025158973170691925, 0.004902400290017682, 0.07055265076193817)","[0.0006467645485654875, 0.0014733329850316057, 0.0006201808196578187]","[-0.026750000193715096, 0.05299999937415123, 0.03999999910593033]","[0.0, -0.0, 0.46717476662257534]","[-0.05917632207274437, 0.11728478223085403, 0.03999999910593033]","[0.0, 0.0, -0.34490171233020556]","[0.026750000193715096, 0.05299999937415123, 0.03999999910593033]","[0.0, 0.0, -0.5812341457789009]","[0.06628201901912689, 0.11317656934261322, 0.03999999910593033]","[0.0, -0.0, 0.23475649142367475]",0.4649881957540404,-0.5247795107880063,"(0.0, 0.0, 0.0, 0.0, 0.0, 0.0)",-1.1847349349351812,-0.8115931510234703,0.11599779353869435,"(0.0, 0.0, 0.0, 0.0, 0.0, 0.0)",-0.5969741007053098,-0.5834696770977033,-0.5365373938462175,"(0.0, 0.0, 0.0, 0.0, 0.0, 0.0)",0.9765037955794483,0.8155550044677364,-0.10453821534293059,"(0.0, 0.0, 0.0, 0.0, 0.0, 0.0)",0.5067194647785525,True,"(-0.023319928462527832, 0.18247607465020166, 0.023993911793614275)","(0.9973957570671116, 0.07186547038882879, -0.006087524153167388)",-0.0021820330077067926,8.609396143131137,True,"(0.03779290444969875, 0.1817001383957892, 0.023999288099653494)","(-0.994584241065763, -0.10393113923646692, -0.0007111403872818769)",0.00021088418669200392,0.0
46,Move,"(0.0095467, 0.0, -0.0098933)","(0.0, 0.04316199240181977, 0.0)","(0.008572660268847334, 0.1609899679513203, 0.04846879150653754)","(-0.001915893997946456, 0.0026100921916836304, 0.06814892190472549)","[0.0012087080786397485, 0.0014723607042342046, 0.0005997153611893707]","[-0.026750000193715096, 0.05299999937415123, 0.03999999910593033]","[0.0, -0.0, 0.46302102126457095]","[-0.05890902131795883, 0.11741892248392105, 0.03999999910593033]","[0.0, 0.0, -0.34812197575486714]","[0.026750000193715096, 0.05299999937415123, 0.03999999910593033]","[0.0, 0.0, -0.5854824630270792]","[0.06653731316328049, 0.11300808191299438, 0.03999999910593033]","[0.0, -0.0, 0.2296703450771319]",0.4609063893520503,-0.5075175415218797,"(0.0, 0.0, 0.0, 0.0, 0.0, 0.0)",-1.0462524376071105,-0.8107121201639836,0.10341661864057171,"(0.0, 0.0, 0.0, 0.0, 0.0, 0.0)",-0.5261020022951516,-0.5876280601167813,-0.514941175556846,"(0.0, 0.0, 0.0, 0.0, 0.0, 0.0)",0.8487732852776463,0.8147692366008409,-0.0920608707503282,"(0.0, 0.0, 0.0, 0.0, 0.0, 0.0)",0.4412799256196013,True,"(-0.022842917987530513, 0.1824951161211436, 0.02399615428646613)","(0.9975839510766386, 0.06936481014413336, -0.0038449535746533634)",-0.0019701224744840466,7.55336532350266,True,"(0.03839708545623834, 0.18167566155516235, 0.023999288099653494)","(-0.994584241065763, -0.10393113923646692, -0.0007111403872818769)",0.00013867459932019477,0.0
47,Move,"(0.0104467, 0.0, -0.0111)","(0.0, 0.066483081866968, 0.0)","(0.009129241299829605, 0.16095349510853396, 0.04848321665463074)","(-0.0017637632369273278, 0.0014821819614880224, 0.06607254684765497)","[0.0017652891096220195, 0.0014358878614478543, 0.0006141405092825736]","[-0.026750000193715096, 0.05299999937415123, 0.03999999910593033]","[0.0, -0.0, 0.4590072552571645]","[-0.05865019932389259, 0.11754748225212097, 0.03999999910593033]","[0.0, 0.0, -0.3512373154881782]","[0.026750000193715096, 0.05299999937415123, 0.03999999910593033]","[0.0, 0.0, -0.58956343476829]","[0.06678187102079391, 0.11284521222114563, 0.03999999910593033]","[0.0, -0.0, 0.22481052439152355]",0.45683269299260915,-0.5218916173261858,"(0.0, 0.0, 0.0, 0.0, 0.0, 0.0)",-1.2812074654247505,-0.8097212837676226,0.12557555615866803,"(0.0, 0.0, 0.0, 0.0, 0.0, 0.0)",-0.6498616880708699,-0.5917357736026615,-0.5213661746727667,"(0.0, 0.0, 0.0, 0.0, 0.0, 0.0)",0.9343471891580912,0.8139498758369681,-0.10177540050593062,"(0.0, 0.0, 0.0, 0.0, 0.0, 0.0)",0.4772044519865121,True,"(-0.02238159215479825, 0.18251189215730587, 0.023998063604179772)","(0.9977414038706244, 0.0671442053798331, -0.0019356358610091902)",-0.0017815804746039823,8.893091047075346,True,"(0.038975686504090154, 0.18164873775950574, 0.023999288099653494)","(-0.994584241065763, -0.10393113923646692, -0.0007111403872818769)",7.80547946545787e-05,1.630575244031341
48,Move,"(0.0118267, 0.0, -0.0121533)","(0.0, 0.09358629982118796, 0.0)","(0.009692347880781745, 0.16090130996498878, 0.04849967704751322)","(-0.0017417710292598398, 0.0008627105976138677, 0.06404895981562995)","[0.002328395690574159, 0.0013837027179026684, 0.000630600902165053]","[-0.026750000193715096, 0.05299999937415123, 0.03999999910593033]","[0.0, -0.0, 0.4548779261394031]","[-0.05838339403271675, 0.11767865717411041, 0.03999999910593033]","[0.0, 0.0, -0.35432643021679805]","[0.026750000193715096, 0.05299999937415123, 0.03999999910593033]","[0.0, 0.0, -0.5936918311857615]","[0.06702858954668045, 0.11267943680286407, 0.03999999910593033]","[0.0, -0.0, 0.21986522909063683]",0.4525273160618076,-0.5641541366587113,"(0.0, 0.0, 0.0, 0.0, 0.0, 0.0)",-1.4099767503656366,-0.8086391850354575,0.13564538860012113,"(0.0, 0.0, 0.0, 0.0, 0.0, 0.0)",-0.705083865173579,-0.5959568657999978,-0.5436177620454272,"(0.0, 0.0, 0.0, 0.0, 0.0, 0.0)",0.9473295067572722,0.8131311140602511,-0.10221253276234878,"(0.0, 0.0, 0.0, 0.0, 0.0, 0.0)",0.4879761246955316,True,"(-0.02191434551439321, 0.18253182183968744, 0.023998818438341247)","(0.9978737518821528, 0.065165796335058, -0.0011808016995342575)",-0.0016335048605487792,9.491190336530462,True,"(0.03956300219153896, 0.1816196300981186, 0.023999288099653494)","(-0.994584241065763, -0.10393113923646692, -0.0007111403872818769)",6.0236665981826535e-05,2.9048853087847917
49,Move,"(0.012806699999999999, 0.0, -0.013146699999999999)","(0.0, 0.1273671474935382, 0.0)","(0.010259972256217238, 0.160842622502907, 0.04851208913933692)","(-0.0016893750310274607, 0.0004175534436684058, 0.061973200734071816)","[0.0028960200660096518, 0.001325015255820905, 0.0006430129939887508]","[-0.026750000193715096, 0.05299999937415123, 0.03999999910593033]","[0.0, -0.0, 0.4504132915221057]","[-0.05809430778026581, 0.11781924217939377, 0.03999999910593033]","[0.0, 0.0, -0.35769024570651003]","[0.026750000193715096, 0.05299999937415123, 0.03999999910593033]","[0.0, 0.0, -0.5979961418493658]","[0.06728509813547134, 0.11250551044940948, 0.03999999910593033]","[0.0, -0.0, 0.21474214462003144]",0.4479788160100389,-0.5842621223934698,"(0.0, 0.0, 0.0, 0.0, 0.0, 0.0)",-1.472943853076759,-0.8074884183705227,0.14761527612018396,"(0.0, 0.0, 0.0, 0.0, 0.0, 0.0)",-0.7543627081264168,-0.6002290372174475,-0.5359000481920939,"(0.0, 0.0, 0.0, 0.0, 0.0, 0.0)",1.0577554435740382,0.8122892266392966,-0.10776366792525133,"(0.0, 0.0, 0.0, 0.0, 0.0, 0.0)",0.5211106587827217,True,"(-0.021407390763373342, 0.18255064542325614, 0.02399935812488803)","(0.9980079213471916, 0.0630854808939333, -0.0006411151527568093)",-0.0015116162344138465,10.127333459997788,True,"(0.04017305361997271, 0.18158550876182888, 0.023999288099653494)","(-0.994584241065763, -0.10393113923646692, -0.0007111403872818769)",5.247115668313017e-05,3.85521092685678
50,Move,"(0.0128733, 0.0, -0.0138133)","(0.0, 0.15785979485513113, 0.0)","(0.010800610598675564, 0.1607884445742074, 0.048522792537801)","(-0.0017015730849771398, 0.00010990246570521984, 0.060039764682912035)","[0.0034366584084679786, 0.0012708373271212992, 0.0006537163924528328]","[-0.026750000193715096, 0.05299999937415123, 0.03999999910593033]","[0.0, -0.0, 0.44578891189081893]","[-0.057794224470853806, 0.11796350032091141, 0.03999999910593033]","[0.0, 0.0, -0.3611291083507672]","[0.026750000193715096, 0.05299999937415123, 0.03999999910593033]","[0.0, 0.0, -0.6022391586636441]","[0.06753721088171005, 0.11233298480510712, 0.03999999910593033]","[0.0, -0.0, 0.20963751877345124]",0.4434576551055121,-0.559493538148649,"(0.0, 0.0, 0.0, 0.0, 0.0, 0.0)",-1.5005954425359458,-0.8062568517354716,0.15867541352829753,"(0.0, 0.0, 0.0, 0.0, 0.0, 0.0)",-0.7980544321585525,-0.6042581057645242,-0.4845557591422071,"(0.0, 0.0, 0.0, 0.0, 0.0, 0.0)",1.205109257549868,0.8113982620329027,-0.11481003464196152,"(0.0, 0.0, 0.0, 0.0, 0.0, 0.0)",0.5643900801805576,True,"(-0.020885004152003422, 0.18256970448852913, 0.02399974317506989)","(0.9981375680966929, 0.06100270145453228, -0.0002560649708943122)",-0.0014158408068951703,10.790696618580796,True,"(0.04077814804619571, 0.18155047883692343, 0.023999288099653494)","(-0.994584241065763, -0.10393113923646692, -0.0007111403872818769)",5.078266288135401e-05,4.456824710450337
51,Move,"(0.01304, 0.0, -0.0141467)","(0.0, 0.17788046670475807, 0.0)","(0.011301149579107128, 0.16074950735736754, 0.048534837227129146)","(-0.0018853719863291256, 1.4626071979094299e-05, 0.05836684645612737)","[0.003937197388899543, 0.0012319001102814309, 0.0006657610817809786]","[-0.026750000193715096, 0.05299999937415123, 0.03999999910593033]","[0.0, -0.0, 0.4413603204673904]","[-0.05750622600317001, 0.11810034513473511, 0.03999999910593033]","[0.0, 0.0, -0.3642913675595537]","[0.026750000193715096, 0.05299999937415123, 0.03999999910593033]","[0.0, 0.0, -0.6060755282307762]","[0.0677645355463028, 0.1121760755777359, 0.03999999910593033]","[0.0, -0.0, 0.20488467244747624]",0.43908521584720167,-0.5460185720094953,"(0.0, 0.0, 0.0, 0.0, 0.0, 0.0)",-1.8589362644553382,-0.8048294618263723,0.19731938153873313,"(0.0, 0.0, 0.0, 0.0, 0.0, 0.0)",-0.9828284655788965,-0.6079660420771513,-0.4537363478192219,"(0.0, 0.0, 0.0, 0.0, 0.0, 0.0)",1.4621817372562342,0.8103732923531237,-0.14083755190928232,"(0.0, 0.0, 0.0, 0.0, 0.0, 0.0)",0.6841616006876761,True,"(-0.02039292959238965, 0.1825901795021495, 0.023999889337575298)","(0.9981981486679145, 0.0600036991976026, -0.00010990246548387817)",-0.001343787952363847,11.918732426189312,True,"(0.041334752376529484, 0.181519968691635, 0.023999288099653494)","(-0.994584241065763, -0.10393113923646692, -0.0007111403872818769)",5.308517863026948e-05,4.990024462767324
52,Move,"(0.0129867, 0.0, -0.0143467)","(0.0, 0.18122800821008322, 0.0)","(0.011758385776020014, 0.160729667238093, 0.04857411830214434)","(-0.002491513654651003, 0.00020806260328374188, 0.056521551168607145)","[0.004394433585812428, 0.001212059991006903, 0.0007050421567961693]","[-0.026750000193715096, 0.05299999937415123, 0.03999999910593033]","[0.0, -0.0, 0.4370383862351697]","[-0.0572245828807354, 0.11823265999555588, 0.03999999910593033]","[0.0, 0.0, -0.36704747043517544]","[0.026750000193715096, 0.05299999937415123, 0.03999999910593033]","[0.0, 0.0, -0.6096681398350438]","[0.06797686964273453, 0.1120283454656601, 0.03999999910593033]","[0.0, -0.0, 0.20015683153792715]",0.4348756477483407,-0.5190610043126511,"(0.0, 0.0, 0.0, 0.0, 0.0, 0.0)",-1.8563992414216663,-0.8033620447011406,0.1737156359342211,"(0.0, 0.0, 0.0, 0.0, 0.0, 0.0)",-0.9347084224357244,-0.6114322535815749,-0.42339636376879775,"(0.0, 0.0, 0.0, 0.0, 0.0, 0.0)",1.3194843420097717,0.809306518511215,-0.1244145086240522,"(0.0, 0.0, 0.0, 0.0, 0.0, 0.0)",0.6226950289606169,True,"(-0.019933685739603947, 0.18261996245489337, 0.023999889337575298)","(0.9981981486679145, 0.0600036991976026, -0.00010990246548387817)",-0.001285453052547732,12.93265576443655,True,"(0.04187522525569969, 0.18149641723483725, 0.023999288099653494)","(-0.994584241065763, -0.10393113923646692, -0.0007111403872818769)",8.3588349604345e-05,1.359873778985466
53,Move,"(0.01268, 0.0, -0.0147933)","(0.0, 0.17929592872812544, 0.0)","(0.012190832655960306, 0.16071295126801657, 0.04863850752906642)","(-0.0032767074983813273, 0.0005967584287098059, 0.054272564201372324)","[0.00482688046575272, 0.0011953440209304667, 0.0007694313837182526]","[-0.026750000193715096, 0.05299999937415123, 0.03999999910593033]","[0.0, -0.0, 0.43292521672173423]","[-0.056956011801958084, 0.11835745722055435, 0.03999999910593033]","[0.0, 0.0, -0.36984231279149454]","[0.026750000193715096, 0.05299999937415123, 0.03999999910593033]","[0.0, 0.0, -0.6130169608301106]","[0.0681743174791336, 0.11188995093107224, 0.03999999910593033]","[0.0, -0.0, 0.19587029862231323]",0.4309195390947362,-0.4813649034361998,"(0.0, 0.0, 0.0, 0.0, 0.0, 0.0)",-1.6127940446967446,-0.80212889257069,0.15327128842040538,"(0.0, 0.0, 0.0, 0.0, 0.0, 0.0)",-0.8157916512937066,-0.6146323998221574,-0.38770232248447223,"(0.0, 0.0, 0.0, 0.0, 0.0, 0.0)",1.1566537306432263,0.8084312171332272,-0.10945379459898198,"(0.0, 0.0, 0.0, 0.0, 0.0, 0.0)",0.5401081591326333,True,"(-0.01948543969543899, 0.18264269063525157, 0.023999589790896888)","(0.9984653623238413, 0.055378268218850266, -0.00040944914389561546)",-0.0012524530334202843,11.463205688871868,True,"(0.04237068645572291, 0.1814692693925964, 0.023999288099653494)","(-0.994584241065763, -0.10393113923646692, -0.0007111403872818769)",0.00011058737916893231,0.0
54,Move,"(0.0123067, 0.0, -0.0152333)","(0.0, 0.16849408598753257, 0.0)","(0.012589901286210176, 0.16069809269668073, 0.048697099542589335)","(-0.004030089215938209, 0.0009746705773840546, 0.05226098045242101)","[0.00522594909600259, 0.0011804854495946204, 0.0008280233972411677]","[-0.026750000193715096, 0.05299999937415123, 0.03999999910593033]","[0.0, -0.0, 0.42911506340382366]","[-0.05670677125453949, 0.11847206950187683, 0.03999999910593033]","[0.0, 0.0, -0.37243397024320507]","[0.026750000193715096, 0.05299999937415123, 0.03999999910593033]","[0.0, 0.0, -0.6160864828143923]","[0.06835488229990005, 0.11176252365112305, 0.03999999910593033]","[0.0, -0.0, 0.19192894436585703]",0.4272839464327951,-0.43946366882932697,"(0.0, 0.0, 0.0, 0.0, 0.0, 0.0)",-1.520341763883828,-0.800948400884501,0.14414163219383203,"(0.0, 0.0, 0.0, 0.0, 0.0, 0.0)",-0.7725561869991266,-0.6175842235768473,-0.35945970327307114,"(0.0, 0.0, 0.0, 0.0, 0.0, 0.0)",1.0869103488424987,0.8075838788900106,-0.10356956823625454,"(0.0, 0.0, 0.0, 0.0, 0.0, 0.0)",0.5111062671810727,True,"(-0.019069743249771516, 0.18266044094315534, 0.02399920673535695)","(0.9985808233691325, 0.0532513956225689, -0.0007925046838323499)",-0.0012124947444136873,10.934867711724058,True,"(0.04282569046699427, 0.18144300079765938, 0.023999288099653494)","(-0.994584241065763, -0.10393113923646692, -0.0007111403872818769)",0.0001222193540199282,0.0
55,Move,"(0.012726699999999999, 0.0, -0.0161933)","(0.0, 0.14781717033915578, 0.0)","(0.01297925138332278, 0.16068148334192722, 0.04875111132863602)","(-0.004731981369967272, 0.001323269831889537, 0.0502845553933387)","[0.005615299193115195, 0.0011638760948411153, 0.0008820351832878534]","[-0.026750000193715096, 0.05299999937415123, 0.03999999910593033]","[0.0, -0.0, 0.4256367744378905]","[-0.05647885799407959, 0.11857587099075317, 0.03999999910593033]","[0.0, 0.0, -0.37476123413163687]","[0.026750000193715096, 0.05299999937415123, 0.03999999910593033]","[0.0, 0.0, -0.6189325272477884]","[0.06852196156978607, 0.11164387315511703, 0.03999999910593033]","[0.0, -0.0, 0.18825488178273606]",0.42378489962921556,-0.44445042768810206,"(0.0, 0.0, 0.0, 0.0, 0.0, 0.0)",-1.4734006019133368,-0.7998434945410235,0.13308488488338793,"(0.0, 0.0, 0.0, 0.0, 0.0, 0.0)",-0.7265989357524475,-0.6205165752641514,-0.38015740655064745,"(0.0, 0.0, 0.0, 0.0, 0.0, 0.0)",0.9268004789458305,0.8067929780616058,-0.09467735405486845,"(0.0, 0.0, 0.0, 0.0, 0.0, 0.0)",0.46153067884929894,True,"(-0.018692572223267825, 0.18267690322484267, 0.023998833755551317)","(0.9986798205562478, 0.05135423701746375, -0.0011654844894662796)",-0.0011728896427402463,10.152867418742833,True,"(0.04324894860832075, 0.18141767618399987, 0.023999288099653494)","(-0.994584241065763, -0.10393113923646692, -0.0007111403872818769)",0.0001395802979120233,0.0
56,Move,"(0.0131267, 0.0, -0.0175)","(0.0, 0.12391663156234542, 0.0)","(0.013410928954730181, 0.16065431072901573, 0.04877622049930725)","(-0.00550423175880216, 0.0006728672109596358, 0.04866214937872253)","[0.006046976764522595, 0.001136703481929624, 0.0009071443539590829]","[-0.026750000193715096, 0.05299999937415123, 0.03999999910593033]","[0.0, -0.0, 0.422112498991898]","[-0.056247565895318985, 0.11868023872375488, 0.03999999910593033]","[0.0, 0.0, -0.3772667820730776]","[0.026750000193715096, 0.05299999937415123, 0.03999999910593033]","[0.0, 0.0, -0.6219429693043368]","[0.06869830191135406, 0.11151786148548126, 0.03999999910593033]","[0.0, -0.0, 0.18443648271285915]",0.42025034281990303,-0.4469134095054821,"(0.0, 0.0, 0.0, 0.0, 0.0, 0.0)",-1.2045139332069335,-0.7989012157117009,0.11473045562752132,"(0.0, 0.0, 0.0, 0.0, 0.0, 0.0)",-0.6160367422437848,-0.6235946613082012,-0.3964213785428584,"(0.0, 0.0, 0.0, 0.0, 0.0, 0.0)",0.9138867969354973,0.8059806347049255,-0.09570023707325889,"(0.0, 0.0, 0.0, 0.0, 0.0, 0.0)",0.47351595218927817,True,"(-0.018300823891309777, 0.1826870728560238, 0.023998972008673396)","(0.9987720186850406, 0.04953180278898249, -0.0010272313673873356)",-0.0011070388169146855,6.9782587748176885,True,"(0.04369190381241924, 0.18138765730751177, 0.023999288099653494)","(-0.994584241065763, -0.10393113923646692, -0.0007111403872818769)",0.00013621772501786345,0.0
57,Move,"(0.013353300000000002, 0.0, -0.0189733)","(0.0, 0.10121513398165517, 0.0)","(0.013833063885953427, 0.16061824658993015, 0.04879782450273098)","(-0.006053753985645538, 0.00014342189425907507, 0.047118714241554484)","[0.006469111695745841, 0.0011006393428440453, 0.0009287483573828109]","[-0.026750000193715096, 0.05299999937415123, 0.03999999910593033]","[0.0, -0.0, 0.41857727449697696]","[-0.05601518973708153, 0.1187841072678566, 0.03999999910593033]","[0.0, 0.0, -0.3798488159098355]","[0.026750000193715096, 0.05299999937415123, 0.03999999910593033]","[0.0, 0.0, -0.6250839135098031]","[0.06888190656900406, 0.11138580739498138, 0.03999999910593033]","[0.0, -0.0, 0.1805079230228757]",0.4167501188732612,-0.43851263187018075,"(0.0, 0.0, 0.0, 0.0, 0.0, 0.0)",-1.1711644314667018,-0.7979508261082068,0.11404722580018266,"(0.0, 0.0, 0.0, 0.0, 0.0, 0.0)",-0.6094153730313042,-0.6267475260541345,-0.3992634236867532,"(0.0, 0.0, 0.0, 0.0, 0.0, 0.0)",0.9041129368839835,0.8052084024636748,-0.09202479814143144,"(0.0, 0.0, 0.0, 0.0, 0.0, 0.0)",0.45521866719977194,True,"(-0.017903353687474997, 0.18269374140515687, 0.023999574346064208)","(0.9988499922049893, 0.047942804853299444, -0.0004248939765763071)",-0.001025140040702745,6.861493390384788,True,"(0.044150183134173966, 0.18135330822784357, 0.023999288099653494)","(-0.994584241065763, -0.10393113923646692, -0.0007111403872818769)",0.00012523871180874065,0.0
58,Move,"(0.012773300000000001, 0.0, -0.019686699999999998)","(0.0, 0.07324623271844603, 0.0)","(0.0142303993859107, 0.16056992649838323, 0.04878539780512933)","(-0.004865736232506607, -2.147144650768662e-05, 0.045382676898910554)","[0.006866447195703115, 0.001052319251297118, 0.0009163216597811649]","[-0.026750000193715096, 0.05299999937415123, 0.03999999910593033]","[0.0, -0.0, 0.4151060905609083]","[-0.05578666552901268, 0.11888529360294342, 0.03999999910593033]","[0.0, 0.0, -0.3824115160460013]","[0.026750000193715096, 0.05299999937415123, 0.03999999910593033]","[0.0, 0.0, -0.6282450750388922]","[0.06906625628471375, 0.1112523302435875, 0.03999999910593033]","[0.0, -0.0, 0.1766126804119477]",0.41348525472314623,-0.38900208371595874,"(0.0, 0.0, 0.0, 0.0, 0.0, 0.0)",-1.019202689367463,-0.7970945576041915,0.10152643812761766,"(0.0, 0.0, 0.0, 0.0, 0.0, 0.0)",-0.548053619136573,-0.629766594374715,-0.3651666477056167,"(0.0, 0.0, 0.0, 0.0, 0.0, 0.0)",0.7898410964348869,0.8045612720559343,-0.07115566748994395,"(0.0, 0.0, 0.0, 0.0, 0.0, 0.0)",0.36132745290662843,True,"(-0.017511196827126138, 0.18269755820980654, 0.023999855818147012)","(0.9988901084774567, 0.047101280407808206, -0.00014342189377085184)",-0.0009502021041856761,6.559187013490118,True,"(0.044589145821066184, 0.18014874032135306, 0.023999911177128387)","(-0.9989224590047523, -0.04641026977752127, -8.806291239319982e-05)",-8.665212433337327e-06,6.480055116729841
59,Move,"(0.011793300000000001, 0.0, -0.0199533)","(0.0, 0.05812470007916715, 0.0)","(0.0145745125881474, 0.16046999602806597, 0.048680732314599046)","(0.0005952051361249925, -0.00028204054264156493, 0.04318515085532252)","[0.007210560397939814, 0.0009523887809798626, 0.0008116561692508781]","[-0.026750000193715096, 0.05299999937415123, 0.03999999910593033]","[0.0, -0.0, 0.4120247240788085]","[-0.05558351054787636, 0.11897445470094681, 0.03999999910593033]","[0.0, 0.0, -0.38473576358322986]","[0.026750000193715096, 0.05299999937415123, 0.03999999910593033]","[0.0, 0.0, -0.6311374133474483]","[0.06923456490039825, 0.11112970113754272, 0.03999999910593033]","[0.0, -0.0, 0.17312832707845846]",0.4106799548254433,-0.32274926771988854,"(0.0, 0.0, 0.0, 0.0, 0.0, 0.0)",-0.7401643456005366,-0.7964423131237885,0.07635338612887758,"(0.0, 0.0, 0.0, 0.0, 0.0, 0.0)",-0.3725779303843567,-0.6324219115349232,-0.3082898998582501,"(0.0, 0.0, 0.0, 0.0, 0.0, 0.0)",0.7915682097779508,0.8039649410093358,-0.07217903752633202,"(0.0, 0.0, 0.0, 0.0, 0.0, 0.0)",0.37118648494306317,True,"(-0.017159833136869418, 0.18269758458275215, 0.023999855818147012)","(0.9988901084774567, 0.047101280407808206, -0.00014342189377085184)",-0.0008768959059919396,4.618352051901953,True,"(0.04499771833447891, 0.1801096543529079, 0.023999877884225786)","(-0.9990205113982104, -0.0442493285646764, -0.00012135581499153747)",-1.4716948702161685e-05,6.409314525518913
60,Move,"(0.010220000000000002, 0.0, -0.0196067)","(0.0, 0.05947733024946276, 0.0)","(0.014838460070076078, 0.16045771600786654, 0.048712360113998314)","(0.00036375929224581827, -5.54992202213663e-05, 0.04187230603258632)","[0.007474507879868492, 0.0009401087607804337, 0.0008432839686501464]","[-0.026750000193715096, 0.05299999937415123, 0.03999999910593033]","[0.0, -0.0, 0.40947171691011963]","[-0.05541498586535454, 0.1190478503704071, 0.03999999910593033]","[0.0, 0.0, -0.3866223231019992]","[0.026750000193715096, 0.05299999937415123, 0.03999999910593033]","[0.0, 0.0, -0.6335759188074944]","[0.06937619298696518, 0.11102592200040817, 0.03999999910593033]","[0.0, -0.0, 0.17014903329218528]",0.4085374482834905,-0.22423097557927357,"(0.0, 0.0, 0.0, 0.0, 0.0, 0.0)",-0.7319064615572891,-0.7957744529390355,0.07671708051033788,"(0.0, 0.0, 0.0, 0.0, 0.0, 0.0)",-0.40570705521011324,-0.6344793937117307,-0.21683752279010254,"(0.0, 0.0, 0.0, 0.0, 0.0, 0.0)",0.6921583299697442,0.8034854317723421,-0.0574802847499275,"(0.0, 0.0, 0.0, 0.0, 0.0, 0.0)",0.2937225738981483,True,"(-0.016871151526604705, 0.18269837585921056, 0.023999855818147012)","(0.9988901084774567, 0.047101280407808206, -0.00014342189377085184)",-0.0008122374332495888,5.699958596017068,True,"(0.04534500910497661, 0.1800766475416375, 0.023999829437536323)","(-0.9991003150193409, -0.042409099204809286, -0.0001698025044509707)",-1.2101120444960774e-05,4.885348751085273
61,Move,"(0.00796, 0.0, -0.018706700000000003)","(0.0, 0.0669438487894945, 0.0)","(0.015006306391181315, 0.1604595751132931, 0.04874044139491418)","(0.0001340909322344416, 0.00017659208704074448, 0.041217092937703266)","[0.0076423542009737295, 0.000941967866206983, 0.0008713652495660126]","[-0.026750000193715096, 0.05299999937415123, 0.03999999910593033]","[0.0, -0.0, 0.407695501919095]","[-0.055297620594501495, 0.11909866333007812, 0.03999999910593033]","[0.0, 0.0, -0.3878052370761623]","[0.026750000193715096, 0.05299999937415123, 0.03999999910593033]","[0.0, 0.0, -0.635291708945212]","[0.0694756880402565, 0.1109526976943016, 0.03999999910593033]","[0.0, -0.0, 0.16798937130800104]",0.407316760447143,-0.09089120574730906,"(0.0, 0.0, 0.0, 0.0, 0.0, 0.0)",-0.5096301701620952,-0.7952616856848874,0.05734776381752096,"(0.0, 0.0, 0.0, 0.0, 0.0, 0.0)",-0.29782324303246066,-0.6356878078618836,-0.0950614767448978,"(0.0, 0.0, 0.0, 0.0, 0.0, 0.0)",0.6353644881265212,0.8030777785645586,-0.048793228981070344,"(0.0, 0.0, 0.0, 0.0, 0.0, 0.0)",0.25655569570938613,True,"(-0.016678563940964404, 0.18270441146398714, 0.023999944978268323)","(0.9991442949178938, 0.041360306922038, -5.4261772458149435e-05)",-0.0007592143294376999,4.977629155149535,True,"(0.0455937143352528, 0.1800545687431122, 0.02399994374082058)","(-0.9991234815319509, -0.04186007132471487, -5.549922019283384e-05)",-5.388824298187953e-06,3.635973815033729
62,Move,"(0.0057333, 0.0, -0.0175533)","(0.0, 0.0812311140463201, 0.0)","(0.015063373774746779, 0.16046979766096925, 0.04876630584605945)","(-9.777719230539652e-05, 0.00036531134650094035, 0.041107327961698886)","[0.007699421584539193, 0.0009521904138831416, 0.00089722970071128]","[-0.026750000193715096, 0.05299999937415123, 0.03999999910593033]","[0.0, -0.0, 0.4069754352610276]","[-0.05525001883506775, 0.11911920458078384, 0.03999999910593033]","[0.0, 0.0, -0.38807399105442036]","[0.026750000193715096, 0.05299999937415123, 0.03999999910593033]","[0.0, 0.0, -0.6360440217424052]","[0.0695192739367485, 0.11092054098844528, 0.03999999910593033]","[0.0, -0.0, 0.16685563704567877]",0.40710988788257385,0.03226781251068825,"(0.0, 0.0, 0.0, 0.0, 0.0, 0.0)",-0.30700440812777385,-0.7948760730918006,0.04160480785115585,"(0.0, 0.0, 0.0, 0.0, 0.0, 0.0)",-0.19531253947324545,-0.6359559864554072,0.021119041755425005,"(0.0, 0.0, 0.0, 0.0, 0.0, 0.0)",0.5771661935663032,0.8027288135138301,-0.04099023481315898,"(0.0, 0.0, 0.0, 0.0, 0.0, 0.0)",0.2293729247131203,True,"(-0.016613864900866623, 0.18271454637386017, 0.023999703582419506)","(0.9991561208415479, 0.04107260366036268, -0.00029565762127586024)",-0.0007104263137398221,3.486233658598016,True,"(0.045715656972548896, 0.18004944291880887, 0.02399994374082058)","(-0.9991234815319509, -0.04186007132471487, -5.549922019283384e-05)",3.887837698545122e-06,2.5000391420328634
63,Move,"(0.0042267, 0.0, -0.01692)","(0.0, 0.1025852174444707, 0.0)","(0.015033327926538052, 0.16048417326417974, 0.04879144640718466)","(-0.0003179770725647872, 0.00033512122067092453, 0.041177307463060864)","[0.007669375736330466, 0.0009665660170936341, 0.0009223702618364957]","[-0.026750000193715096, 0.05299999937415123, 0.03999999910593033]","[0.0, -0.0, 0.4072312350417504]","[-0.055266931653022766, 0.11911191046237946, 0.03999999910593033]","[0.0, 0.0, -0.38748368813814643]","[0.026750000193715096, 0.05299999937415123, 0.03999999910593033]","[0.0, 0.0, -0.6358776811617245]","[0.06950964033603668, 0.11092765629291534, 0.03999999910593033]","[0.0, -0.0, 0.16668473195109487]",0.4076875932910757,0.10952756480929154,"(0.0, 0.0, 0.0, 0.0, 0.0, 0.0)",-0.18109665810577716,-0.7945991135223869,0.027795740137346245,"(0.0, 0.0, 0.0, 0.0, 0.0, 0.0)",-0.115087246687697,-0.6354558732616081,0.10123043771358729,"(0.0, 0.0, 0.0, 0.0, 0.0, 0.0)",0.6182580727608926,0.8023354282232265,-0.054474608577877975,"(0.0, 0.0, 0.0, 0.0, 0.0, 0.0)",0.284475478277668,True,"(-0.016668299953745233, 0.18272949627104418, 0.023999578862482635)","(0.9991545746019768, 0.04110911498258705, -0.00042037755814879676)",-0.0006553474603402647,1.7673743348633633,True,"(0.045717836702764546, 0.18006062198369788, 0.02399994374082058)","(-0.9991234815319509, -0.04186007132471487, -5.549922019283384e-05)",5.017438501961459e-06,2.748382466439636
64,Move,"(0.0029933, 0.0, -0.0167067)","(0.0, 0.11713951807685141, 0.0)","(0.014937707173337485, 0.16050155772482858, 0.048813730334561385)","(-0.0005183527139036881, 0.0001809570249557909, 0.04144447143980642)","[0.007573754983129899, 0.000983950477742468, 0.0009446541892132176]","[-0.026750000193715096, 0.05299999937415123, 0.03999999910593033]","[0.0, -0.0, 0.4080988492046761]","[-0.05532428249716759, 0.11908714473247528, 0.03999999910593033]","[0.0, 0.0, -0.38638977654951606]","[0.026750000193715096, 0.05299999937415123, 0.03999999910593033]","[0.0, 0.0, -0.6350768897404009]","[0.06946323812007904, 0.11096187680959702, 0.03999999910593033]","[0.0, -0.0, 0.16704377269427106]",0.4088096223023302,0.17058888824351837,"(0.0, 0.0, 0.0, 0.0, 0.0, 0.0)",-0.18775543788317198,-0.7943777391953506,0.026614135737358147,"(0.0, 0.0, 0.0, 0.0, 0.0, 0.0)",-0.10635907646139081,-0.6343934083717122,0.16403695455289627,"(0.0, 0.0, 0.0, 0.0, 0.0, 0.0)",0.6066056606424947,0.8018877851535383,-0.05589216049002964,"(0.0, 0.0, 0.0, 0.0, 0.0, 0.0)",0.29912697918935527,True,"(-0.016795220397812484, 0.18274589543940506, 0.02399975382802597)","(0.9991516126380067, 0.04118245665102633, -0.0002454120148117911)",-0.0005881654528781782,1.9113527280014684,True,"(0.0456466166237325, 0.18008629755648264, 0.02399994374082058)","(-0.9991234815319509, -0.04186007132471487, -5.549922019283384e-05)",-6.502500448952492e-06,3.5120862388881053
65,Move,"(0.0022332999999999997, 0.0, -0.01668)","(0.0, 0.12469853906723889, 0.0)","(0.014796304428531712, 0.16052025163033298, 0.04883346655289289)","(-0.000683385347514547, 6.900197827096346e-05, 0.04202752003888677)","[0.007432352238324126, 0.0010026443832468757, 0.0009643904075447227]","[-0.026750000193715096, 0.05299999937415123, 0.03999999910593033]","[0.0, -0.0, 0.40944940707180044]","[-0.05541351065039635, 0.11904849112033844, 0.03999999910593033]","[0.0, 0.0, -0.38482660836215354]","[0.026750000193715096, 0.05299999937415123, 0.03999999910593033]","[0.0, 0.0, -0.6337784501326167]","[0.06938794255256653, 0.11101728677749634, 0.03999999910593033]","[0.0, -0.0, 0.16789689247008258]",0.4102913379310268,0.20206060534887635,"(0.0, 0.0, 0.0, 0.0, 0.0, 0.0)",-0.20978599855035412,-0.7941743828589467,0.024402580500808128,"(0.0, 0.0, 0.0, 0.0, 0.0, 0.0)",-0.10139864380839761,-0.6329574918643364,0.19703003997364532,"(0.0, 0.0, 0.0, 0.0, 0.0, 0.0)",0.5460682519814604,0.8014524930763628,-0.05348094826531956,"(0.0, 0.0, 0.0, 0.0, 0.0, 0.0)",0.28897895592611744,True,"(-0.0169839589439714, 0.1827662780268855, 0.02399988492081274)","(0.9991330911456355, 0.041629954466482696, -0.00011431922804287468)",-0.0005315226826975342,1.8636292453094327,True,"(0.045512358490085655, 0.1801213662175264, 0.02399994374082058)","(-0.9991234815319509, -0.04186007132471487, -5.549922019283384e-05)",-1.0453204955105184e-05,3.5191306054957345
66,Move,"(0.0015733, 0.0, -0.01686)","(0.0, 0.12763767352759736, 0.0)","(0.01462730753146289, 0.1605368222899756, 0.048851299703197223)","(-0.000787392461260355, -9.48588500659357e-06, 0.04287685328871823)","[0.007263355341255304, 0.0010192150428894875, 0.000982223557849056]","[-0.026750000193715096, 0.05299999937415123, 0.03999999910593033]","[0.0, -0.0, 0.41104909686205254]","[-0.05551913008093834, 0.11900255084037781, 0.03999999910593033]","[0.0, 0.0, -0.3830323242639152]","[0.026750000193715096, 0.05299999937415123, 0.03999999910593033]","[0.0, 0.0, -0.6322187604752821]","[0.06929740309715271, 0.11108372360467911, 0.03999999910593033]","[0.0, -0.0, 0.16903167673481842]",0.4120005703150023,0.22834871737473686,"(0.0, 0.0, 0.0, 0.0, 0.0, 0.0)",-0.1894296555141472,-0.7939899918123133,0.021941736408903654,"(0.0, 0.0, 0.0, 0.0, 0.0, 0.0)",-0.0912943434155966,-0.6312907417499373,0.22272535657325546,"(0.0, 0.0, 0.0, 0.0, 0.0, 0.0)",0.5022993016879261,0.8010470539232593,-0.04880746669598269,"(0.0, 0.0, 0.0, 0.0, 0.0, 0.0)",0.2694804292422507,True,"(-0.01720394919808061, 0.18278863620428754, 0.023999930238062572)","(0.9991169713876543, 0.042015148742903845, -6.9001978212978e-05)",-0.0004824952226201223,1.7266847581748763,True,"(0.0453434157531946, 0.18016065955136842, 0.02399994374082058)","(-0.9991234815319509, -0.04186007132471487, -5.549922019283384e-05)",-1.1515237542108004e-05,3.2153802063516803
67,Move,"(0.0006866999999999999, 0.0, -0.0169733)","(0.0, 0.1230230229853243, 0.0)","(0.014431690890750434, 0.16054891847053335, 0.048867753554990054)","(-0.0008281078911764262, -5.8653218260995705e-05, 0.04405451868090558)","[0.007067738700542848, 0.00103131122344724, 0.0009986774096418863]","[-0.026750000193715096, 0.05299999937415123, 0.03999999910593033]","[0.0, -0.0, 0.4128570105578912]","[-0.05563840642571449, 0.11895043402910233, 0.03999999910593033]","[0.0, 0.0, -0.3810495691759215]","[0.026750000193715096, 0.05299999937415123, 0.03999999910593033]","[0.0, 0.0, -0.6304556441366138]","[0.06919492781162262, 0.11115864664316177, 0.03999999910593033]","[0.0, -0.0, 0.17040687888299672]",0.41396616190368296,0.26621605183456604,"(0.0, 0.0, 0.0, 0.0, 0.0, 0.0)",-0.12182614155071537,-0.7938328723111117,0.01767367296975354,"(0.0, 0.0, 0.0, 0.0, 0.0, 0.0)",-0.07142555936658276,-0.6293976625486485,0.25391292902535795,"(0.0, 0.0, 0.0, 0.0, 0.0, 0.0)",0.4486102239040032,0.8006975600034236,-0.039586295265913285,"(0.0, 0.0, 0.0, 0.0, 0.0, 0.0)",0.23304324643908136,True,"(-0.01744976706176573, 0.18281236185237665, 0.023999930238062572)","(0.9991169713876543, 0.042015148742903845, -6.9001978212978e-05)",-0.0004389071632010465,1.42824122901528,True,"(0.04514596746949629, 0.1802025786716081, 0.02399994374082058)","(-0.9991234815319509, -0.04186007132471487, -5.549922019283384e-05)",-1.1121088873884508e-05,2.7399775271185045
68,Move,"(-0.0001467, 0.0, -0.01706)","(0.0, 0.11864050123356655, 0.0)","(0.014210395992597704, 0.16055419470093682, 0.04888296022019209)","(-0.0008197900114054669, -8.400195834003184e-05, 0.04559854830726901)","[0.0068464438023901186, 0.0010365874538507125, 0.0010138840748439223]","[-0.026750000193715096, 0.05299999937415123, 0.03999999910593033]","[0.0, -0.0, 0.4149644409883347]","[-0.055777329951524734, 0.11888940632343292, 0.03999999910593033]","[0.0, 0.0, -0.378802265544561]","[0.026750000193715096, 0.05299999937415123, 0.03999999910593033]","[0.0, 0.0, -0.62844549991308]","[0.06907793134450912, 0.1112438514828682, 0.03999999910593033]","[0.0, -0.0, 0.17210393093273782]",0.4162064595410913,0.29808845265524175,"(0.0, 0.0, 0.0, 0.0, 0.0, 0.0)",-0.08092852466671056,-0.7937078266351124,0.014127843189964217,"(0.0, 0.0, 0.0, 0.0, 0.0, 0.0)",-0.05498266658673967,-0.6272743094493636,0.28107957052905375,"(0.0, 0.0, 0.0, 0.0, 0.0, 0.0)",0.38481534523541433,0.8004176899580976,-0.03160857811229245,"(0.0, 0.0, 0.0, 0.0, 0.0, 0.0)",0.1955090995148571,True,"(-0.017732307319470182, 0.18283699383703295, 0.023999930238062572)","(0.9991169713876543, 0.042015148742903845, -6.9001978212978e-05)",-0.00039717441044343963,1.1223728401538127,True,"(0.04491182502014151, 0.1802471483843361, 0.023999922633876934)","(-0.9990014745509704, -0.04467715273472759, -7.660616384264756e-05)",-1.0637180401007118e-05,2.3311422415234344
69,Move,"(-0.0007067, 0.0, -0.0171267)","(0.0, 0.11573627335824799, 0.0)","(0.013970541506372402, 0.1605535781466488, 0.04889650742687085)","(-0.0007797383946720776, -9.559044191488858e-05, 0.04740171859912612)","[0.006606589316164816, 0.0010359708995626993, 0.0010274312815226824]","[-0.026750000193715096, 0.05299999937415123, 0.03999999910593033]","[0.0, -0.0, 0.4173243804936349]","[-0.055932749062776566, 0.11882071942090988, 0.03999999910593033]","[0.0, 0.0, -0.37632929158132833]","[0.026750000193715096, 0.05299999937415123, 0.03999999910593033]","[0.0, 0.0, -0.6262203822099478]","[0.06894823163747787, 0.11133789271116257, 0.03999999910593033]","[0.0, -0.0, 0.17407625911392252]",0.4186313016852474,0.313656924621743,"(0.0, 0.0, 0.0, 0.0, 0.0, 0.0)",-0.07193016016710116,-0.7936035614039504,0.012022799150566275,"(0.0, 0.0, 0.0, 0.0, 0.0, 0.0)",-0.04592068219339364,-0.6249909356862103,0.2950622936215299,"(0.0, 0.0, 0.0, 0.0, 0.0, 0.0)",0.3267635722121708,0.8001849836622248,-0.026786609980276807,"(0.0, 0.0, 0.0, 0.0, 0.0, 0.0)",0.16836630136082448,True,"(-0.01804598277925698, 0.18286219675818607, 0.023999930238062572)","(0.9991169713876543, 0.042015148742903845, -6.9001978212978e-05)",-0.00035710934015365723,0.9177081093995533,True,"(0.04464605962666031, 0.1802936592433057, 0.02399990620897697)","(-0.9989238947434687, -0.04637934729770096, -9.30310638099555e-05)",-1.0576519806644371e-05,2.0265475478227977
70,Move,"(-0.0012467, 0.0, -0.0171067)","(0.0, 0.1167468189951527, 0.0)","(0.013716885431116882, 0.1605479256519955, 0.048908446832213355)","(-0.0007322619130197804, -9.983183875687616e-05, 0.049387503625253557)","[0.006352933240909296, 0.001030318404909386, 0.0010393706868651875]","[-0.026750000193715096, 0.05299999937415123, 0.03999999910593033]","[0.0, -0.0, 0.4198076081767361]","[-0.05609610304236412, 0.11874805390834808, 0.03999999910593033]","[0.0, 0.0, -0.37374992310101934]","[0.026750000193715096, 0.05299999937415123, 0.03999999910593033]","[0.0, 0.0, -0.6238845392587418]","[0.06881184875965118, 0.11143629997968674, 0.03999999910593033]","[0.0, -0.0, 0.17619793408222684]",0.4211778078033837,0.3288490211977012,"(0.0, 0.0, 0.0, 0.0, 0.0, 0.0)",-0.05654458494150786,-0.7935116217081936,0.011021642408504726,"(0.0, 0.0, 0.0, 0.0, 0.0, 0.0)",-0.04071879679480124,-0.6225851289582772,0.31185874326205215,"(0.0, 0.0, 0.0, 0.0, 0.0, 0.0)",0.3149382683735505,0.7999806406392153,-0.02443876068862351,"(0.0, 0.0, 0.0, 0.0, 0.0, 0.0)",0.15759751916008202,True,"(-0.0183746481323509, 0.18288703596606745, 0.023999930238062572)","(0.9991169713876543, 0.042015148742903845, -6.9001978212978e-05)",-0.00031984800722763734,0.8048518217760464,True,"(0.044363418433032084, 0.18034057648880722, 0.02399989923224471)","(-0.9988341874286091, -0.04827272544896515, -0.0001000077960644852)",-1.0351438602462858e-05,1.8933356500379175
71,Move,"(-0.0014399999999999999, 0.0, -0.016866700000000002)","(0.0, 0.12111363278364251, 0.0)","(0.013456109917354346, 0.16053913130425654, 0.04891858180306371)","(-0.0006842130630490459, -9.902337158384306e-05, 0.05145330787811757)","[0.00609215772714676, 0.001021524057170431, 0.001049505657715541]","[-0.026750000193715096, 0.05299999937415123, 0.03999999910593033]","[0.0, -0.0, 0.4224111004388836]","[-0.05626717954874039, 0.11867142468690872, 0.03999999910593033]","[0.0, 0.0, -0.37105826973125394]","[0.026750000193715096, 0.05299999937415123, 0.03999999910593033]","[0.0, 0.0, -0.6214156674513942]","[0.0686674490571022, 0.11153996735811234, 0.03999999910593033]","[0.0, -0.0, 0.17847132292671725]",0.4237606039237512,0.3238840805657969,"(0.0, 0.0, 0.0, 0.0, 0.0, 0.0)",-0.08766245649853656,-0.7934216328104863,0.011446492798117788,"(0.0, 0.0, 0.0, 0.0, 0.0, 0.0)",-0.04411036624659028,-0.6201126037504862,0.3127463809758987,"(0.0, 0.0, 0.0, 0.0, 0.0, 0.0)",0.293263601850006,0.7997816687264779,-0.02528664480023888,"(0.0, 0.0, 0.0, 0.0, 0.0, 0.0)",0.15575530090704523,True,"(-0.01871850192115728, 0.18291171358057007, 0.023999930238062572)","(0.9991169713876543, 0.042015148742903845, -6.9001978212978e-05)",-0.00028631303541003044,0.8128964640854212,True,"(0.04406242812850039, 0.18038868784340423, 0.023999898463403203)","(-0.9987322123361078, -0.050338433490651445, -0.00010077663757303117)",-1.0127304253369623e-05,1.8847421197385434
72,Move,"(-0.00092, 0.0, -0.016653300000000003)","(0.0, 0.1290636075264767, 0.0)","(0.013206113902702056, 0.1605346597973179, 0.04892449448953521)","(-0.0006761735110543363, -3.7518476817133786e-05, 0.053136271051994435)","[0.00584216171249447, 0.001017052550231795, 0.0010554183441870424]","[-0.026750000193715096, 0.05299999937415123, 0.03999999910593033]","[0.0, -0.0, 0.4249750822934904]","[-0.05643545836210251, 0.11859553307294846, 0.03999999910593033]","[0.0, 0.0, -0.36840430103413463]","[0.026750000193715096, 0.05299999937415123, 0.03999999910593033]","[0.0, 0.0, -0.6189397096599676]","[0.0685223713517189, 0.11164357513189316, 0.03999999910593033]","[0.0, -0.0, 0.18074895917017936]",0.4261440873042964,0.28057211532802867,"(0.0, 0.0, 0.0, 0.0, 0.0, 0.0)",-0.1629178367599666,-0.7933267642179168,0.012613358958917957,"(0.0, 0.0, 0.0, 0.0, 0.0, 0.0)",-0.05596642757245316,-0.6177669326117605,0.2814617751199913,"(0.0, 0.0, 0.0, 0.0, 0.0, 0.0)",0.23530080417721697,0.7995791394446901,-0.026281739925617248,"(0.0, 0.0, 0.0, 0.0, 0.0, 0.0)",0.1498392675268418,True,"(-0.019057405931126217, 0.18293524344154874, 0.023999930238062572)","(0.9991169713876543, 0.042015148742903845, -6.9001978212978e-05)",-0.0002574557530999895,1.0694329173730541,True,"(0.04376058882920155, 0.1804363801393206, 0.023999896504630556)","(-0.9986308959952672, -0.052309874872010984, -0.00010273541022074236)",-1.0288692756692005e-05,1.8313207759618844
73,Move,"(-0.0007199999999999999, 0.0, -0.0163467)","(0.0, 0.13938199406426716, 0.0)","(0.012975262725373974, 0.16053119763256068, 0.048929954971292336)","(-0.0006454774827453772, 2.063776001057294e-05, 0.05468356431412617)","[0.005611310535166388, 0.0010135903854745776, 0.0010608788259441684]","[-0.026750000193715096, 0.05299999937415123, 0.03999999910593033]","[0.0, -0.0, 0.4271966130592187]","[-0.05658110976219177, 0.11852941662073135, 0.03999999910593033]","[0.0, 0.0, -0.36607952598478155]","[0.026750000193715096, 0.05299999937415123, 0.03999999910593033]","[0.0, 0.0, -0.6167118427976929]","[0.06839162111282349, 0.1117364913225174, 0.03999999910593033]","[0.0, -0.0, 0.18276013751791234]",0.4282799647682907,0.26000571460303995,"(0.0, 0.0, 0.0, 0.0, 0.0, 0.0)",-0.17837216075467274,-0.7932077185444284,0.016429296973234666,"(0.0, 0.0, 0.0, 0.0, 0.0, 0.0)",-0.06882307748467663,-0.6155789783328309,0.27188880221894823,"(0.0, 0.0, 0.0, 0.0, 0.0, 0.0)",0.34484582098024824,0.799320906814285,-0.03625925809731191,"(0.0, 0.0, 0.0, 0.0, 0.0, 0.0)",0.19978153341805335,True,"(-0.019352730145786305, 0.18295585272898957, 0.023999930238062572)","(0.9991169713876543, 0.042015148742903845, -6.9001978212978e-05)",-0.00023853237560594697,1.2509467625055208,True,"(0.04349153199264561, 0.1804793572135417, 0.023999896504630556)","(-0.9986308959952672, -0.052309874872010984, -0.00010273541022074236)",-8.953711864446055e-06,2.2893672556531293
74,Move,"(-0.0007933, 0.0, -0.015846700000000002)","(0.0, 0.15031299116950766, 0.0)","(0.012749986264608252, 0.16051916546153888, 0.048902322189979246)","(0.000631626695221551, 3.097100737047853e-05, 0.0562227358542505)","[0.005386034074400666, 0.0010015582144527746, 0.0010332460446310782]","[-0.026750000193715096, 0.05299999937415123, 0.03999999910593033]","[0.0, -0.0, 0.42925586899284396]","[-0.05671599134802818, 0.11846785247325897, 0.03999999910593033]","[0.0, 0.0, -0.3638817330886185]","[0.026750000193715096, 0.05299999937415123, 0.03999999910593033]","[0.0, 0.0, -0.61455858965521]","[0.06826505064964294, 0.11182601749897003, 0.03999999910593033]","[0.0, -0.0, 0.18463834292373896]",0.43030879408786055,0.25269752239304816,"(0.0, 0.0, 0.0, 0.0, 0.0, 0.0)",-0.18514651849938268,-0.7930615424779278,0.018270315426433075,"(0.0, 0.0, 0.0, 0.0, 0.0, 0.0)",-0.0765042412498815,-0.613409840094795,0.27569488461514524,"(0.0, 0.0, 0.0, 0.0, 0.0, 0.0)",0.4006344920414108,0.7990360166325272,-0.038612229772889535,"(0.0, 0.0, 0.0, 0.0, 0.0, 0.0)",0.21059683413036362,True,"(-0.019629295493607583, 0.1829759475386761, 0.023999930238062572)","(0.9991169713876543, 0.042015148742903845, -6.9001978212978e-05)",-0.00022660931722741977,1.355013025075056,True,"(0.04323589106228435, 0.18052199862190688, 0.023999896504630556)","(-0.9986308959952672, -0.052309874872010984, -0.00010273541022074236)",-6.118008335007728e-06,2.620165501654015
75,Move,"(-0.0012, 0.0, -0.0153933)","(0.0, 0.16016537479701565, 0.0)","(0.012517697193064092, 0.16051880605708263, 0.048910983556078064)","(0.0005438037701707984, 2.3969321628798437e-05, 0.05783261410309466)","[0.005153745002856506, 0.001001198809996523, 0.0010419074107298962]","[-0.026750000193715096, 0.05299999937415123, 0.03999999910593033]","[0.0, -0.0, 0.4312570196106008]","[-0.05684693530201912, 0.11840775609016418, 0.03999999910593033]","[0.0, 0.0, -0.36173103326385636]","[0.026750000193715096, 0.05299999937415123, 0.03999999910593033]","[0.0, 0.0, -0.6123763312345318]","[0.06813658028841019, 0.11191647499799728, 0.03999999910593033]","[0.0, -0.0, 0.1865044919091558]",0.4323493817498681,0.2621812847705667,"(0.0, 0.0, 0.0, 0.0, 0.0, 0.0)",-0.2124534770944824,-0.7928943066173705,0.022472767640747376,"(0.0, 0.0, 0.0, 0.0, 0.0, 0.0)",-0.09343382330451709,-0.6111513026961338,0.2940023974501472,"(0.0, 0.0, 0.0, 0.0, 0.0, 0.0)",0.4850941818387112,0.7986852914360695,-0.046920155439510315,"(0.0, 0.0, 0.0, 0.0, 0.0, 0.0)",0.25639900913558156,True,"(-0.01989907082694351, 0.18299546910779557, 0.023999930238062572)","(0.9991169713876543, 0.042015148742903845, -6.9001978212978e-05)",-0.00021728831267687286,1.712004145860455,True,"(0.042979265715687644, 0.18056562726291794, 0.023999896504630556)","(-0.9986308959952672, -0.052309874872010984, -0.00010273541022074236)",-8.371104094326566e-06,3.054760915712143
76,Move,"(-0.0013867, 0.0, -0.01532)","(0.0, 0.16868781753450396, 0.0)","(0.012276948195862334, 0.16051949113823982, 0.048918040265444336)","(0.00044997603658221, 1.8803698522930083e-05, 0.05943250229854351)","[0.004912996005654749, 0.0010018838911537153, 0.0010489641200961686]","[-0.026750000193715096, 0.05299999937415123, 0.03999999910593033]","[0.0, -0.0, 0.4333324984548615]","[-0.056982625275850296, 0.11834514886140823, 0.03999999910593033]","[0.0, 0.0, -0.3594783203610956]","[0.026750000193715096, 0.05299999937415123, 0.03999999910593033]","[0.0, 0.0, -0.6100487089560459]","[0.06799933314323425, 0.11201264709234238, 0.03999999910593033]","[0.0, -0.0, 0.18846248348740502]",0.4344061046754331,0.25767609496646726,"(0.0, 0.0, 0.0, 0.0, 0.0, 0.0)",-0.2694562316332816,-0.7927045955343266,0.02547922605498938,"(0.0, 0.0, 0.0, 0.0, 0.0, 0.0)",-0.1090552705889535,-0.608802197041239,0.2991555942979007,"(0.0, 0.0, 0.0, 0.0, 0.0, 0.0)",0.5127138872878046,0.7982888947186313,-0.05334045802241303,"(0.0, 0.0, 0.0, 0.0, 0.0, 0.0)",0.28369934340756037,True,"(-0.02018034833789721, 0.1830159299706181, 0.023999930238062572)","(0.9991169713876543, 0.042015148742903845, -6.9001978212978e-05)",-0.00021369904215965747,1.9618227573592941,True,"(0.0427076517900611, 0.18061241109235382, 0.023999896504630556)","(-0.9986308959952672, -0.052309874872010984, -0.00010273541022074236)",-8.24288341659007e-06,3.3849735181538643
77,Move,"(-0.0020133, 0.0, -0.0153867)","(0.0, 0.17619098798882762, 0.0)","(0.012022786886871278, 0.1605200213018046, 0.04892364738922357)","(0.0003478209529184878, 1.4546116061297935e-05, 0.06106647910696223)","[0.004658834696663693, 0.0010024140547184868, 0.0010545712438754032]","[-0.026750000193715096, 0.05299999937415123, 0.03999999910593033]","[0.0, -0.0, 0.43537236335877083]","[-0.05711585283279419, 0.11828334629535675, 0.03999999910593033]","[0.0, 0.0, -0.3572375810881469]","[0.026750000193715096, 0.05299999937415123, 0.03999999910593033]","[0.0, 0.0, -0.6076802867192723]","[0.06785944849252701, 0.1121101826429367, 0.03999999910593033]","[0.0, -0.0, 0.19041050301747767]",0.43653317144101444,0.27861669208180523,"(0.0, 0.0, 0.0, 0.0, 0.0, 0.0)",-0.26448896708295483,-0.7924934355341197,0.027941862931310107,"(0.0, 0.0, 0.0, 0.0, 0.0, 0.0)",-0.1181959692973324,-0.6063161439723003,0.32738691400569225,"(0.0, 0.0, 0.0, 0.0, 0.0, 0.0)",0.5928125827784764,0.7978461765121924,-0.05870093995069642,"(0.0, 0.0, 0.0, 0.0, 0.0, 0.0)",0.3150135945474582,True,"(-0.020458578262476615, 0.18303642605997994, 0.023999930238062572)","(0.9991169713876543, 0.042015148742903845, -6.9001978212978e-05)",-0.0002144857776504932,2.172303134568522,True,"(0.042434182351644784, 0.18066054200631235, 0.023999896504630556)","(-0.9986308959952672, -0.052309874872010984, -0.00010273541022074236)",-8.110795257799323e-06,3.7284239347707877
78,Move,"(-0.0020467, 0.0, -0.015460000000000002)","(0.0, 0.17826443914019685, 0.0)","(0.01176264041042941, 0.16051865627260506, 0.04892765287740115)","(0.0002301567531491829, 1.3608368242077067e-05, 0.06266944151526953)","[0.004398688220221825, 0.001001049025518952, 0.0010585767320529793]","[-0.026750000193715096, 0.05299999937415123, 0.03999999910593033]","[0.0, -0.0, 0.4375777314935967]","[-0.057259757071733475, 0.11821621656417847, 0.03999999910593033]","[0.0, 0.0, -0.3548130928920787]","[0.026750000193715096, 0.05299999937415123, 0.03999999910593033]","[0.0, 0.0, -0.6050884332741702]","[0.06770610809326172, 0.1122165247797966, 0.03999999910593033]","[0.0, -0.0, 0.19253814716861636]",0.4386771755452678,0.26387201570719443,"(0.0, 0.0, 0.0, 0.0, 0.0, 0.0)",-0.36712470668031305,-0.7922677383499039,0.029536709235609443,"(0.0, 0.0, 0.0, 0.0, 0.0, 0.0)",-0.14186683996234234,-0.6037679996396401,0.31691050211698707,"(0.0, 0.0, 0.0, 0.0, 0.0, 0.0)",0.5761257507955265,0.7973665048324042,-0.06242945817872028,"(0.0, 0.0, 0.0, 0.0, 0.0, 0.0)",0.333961935032813,True,"(-0.020759583741864998, 0.18305798214877375, 0.023999930238062572)","(0.9991169713876543, 0.042015148742903845, -6.9001978212978e-05)",-0.00021805181395695748,2.2039450716722904,True,"(0.04213504872355811, 0.1807126392202993, 0.023999896504630556)","(-0.9986308959952672, -0.052309874872010984, -0.00010273541022074236)",-8.250614753105559e-06,4.047200091711224
79,Move,"(-0.0022067000000000002, 0.0, -0.015926700000000002)","(0.0, 0.16912065918899855, 0.0)","(0.011506318237587356, 0.16053722513403726, 0.048929335818331136)","(-0.0001887714687209651, 1.7931235754910833e-06, 0.06421485259384567)","[0.00414236604737977, 0.0010196178869511519, 0.0010602596729829689]","[-0.026750000193715096, 0.05299999937415123, 0.03999999910593033]","[0.0, -0.0, 0.4396681319887804]","[-0.057396020740270615, 0.11815229058265686, 0.03999999910593033]","[0.0, 0.0, -0.3524768267115412]","[0.026750000193715096, 0.05299999937415123, 0.03999999910593033]","[0.0, 0.0, -0.6025781682723321]","[0.06755731999874115, 0.11231915652751923, 0.03999999910593033]","[0.0, -0.0, 0.19455277587341957]",0.44075787408547407,0.2615406228972845,"(0.0, 0.0, 0.0, 0.0, 0.0, 0.0)",-0.3478076913139257,-0.7920294637575259,0.02772338507254321,"(0.0, 0.0, 0.0, 0.0, 0.0, 0.0)",-0.14047454795612277,-0.6012977790242636,0.30727088959446797,"(0.0, 0.0, 0.0, 0.0, 0.0, 0.0)",0.47983990286234823,0.7969039517986876,-0.05445113514697802,"(0.0, 0.0, 0.0, 0.0, 0.0, 0.0)",0.28392469841310014,True,"(-0.021047431366595336, 0.1830791579559378, 0.023999930238062572)","(0.9991169713876543, 0.042015148742903845, -6.9001978212978e-05)",-0.00022507830430370317,2.1121015456920187,True,"(0.041848323932565726, 0.18076361399264557, 0.023999896504630556)","(-0.9986308959952672, -0.052309874872010984, -0.00010273541022074236)",-4.940832999222684e-06,3.3734160664352713
80,Move,"(-0.0017333000000000001, 0.0, -0.0164667)","(0.0, 0.15568336927789425, 0.0)","(0.011281511611013513, 0.16053454318067045, 0.04893364198488711)","(-0.0003078754244034017, 1.8581167670855535e-06, 0.06562522525903458)","[0.003917559420805928, 0.0010169359335843453, 0.0010645658395389418]","[-0.026750000193715096, 0.05299999937415123, 0.03999999910593033]","[0.0, -0.0, 0.4417370742013643]","[-0.05753074958920479, 0.1180887520313263, 0.03999999910593033]","[0.0, 0.0, -0.3502015411577925]","[0.026750000193715096, 0.05299999937415123, 0.03999999910593033]","[0.0, 0.0, -0.6001470202753052]","[0.06741299480199814, 0.11241818964481354, 0.03999999910593033]","[0.0, -0.0, 0.19655845680121659]",0.44266792043078523,0.22340480170666582,"(0.0, 0.0, 0.0, 0.0, 0.0, 0.0)",-0.3435259574087849,-0.7918384489734211,0.024037189280045515,"(0.0, 0.0, 0.0, 0.0, 0.0, 0.0)",-0.12281941845295,-0.5990643543441064,0.2598415393156634,"(0.0, 0.0, 0.0, 0.0, 0.0, 0.0)",0.4405388202721668,0.7964918015376129,-0.051282908948580265,"(0.0, 0.0, 0.0, 0.0, 0.0, 0.0)",0.27960417688917355,True,"(-0.021329985555814363, 0.18309815012641228, 0.023999930238062572)","(0.9991169713876543, 0.042015148742903845, -6.9001978212978e-05)",-0.00022498531610626652,1.7079625311166469,True,"(0.041566768877567446, 0.18081094106040146, 0.023999896504630556)","(-0.9986308959952672, -0.052309874872010984, -0.00010273541022074236)",-9.02651142129131e-06,3.480556297263455
