OSUrobotics/InHand-Manipulation/AnalyseData/Data/Trial Data/Even Better/new_hand_human_sub1_2v2_h_n_1_kpNone_kdNone_dp3_step2_save_data.csv
,Phase,human_cube_pos,human_cube_orn,Cube_Pos,Cube_Orn,Cube_pos_in_start_pos,b'l_prox_pin'_link_pos,b'l_prox_pin'_link_orn,b'l_distal_pin'_link_pos,b'l_distal_pin'_link_orn,b'r_prox_pin'_link_pos,b'r_prox_pin'_link_orn,b'r_distal_pin'_link_pos,b'r_distal_pin'_link_orn,b'l_prox_pin'_joint_angle,b'l_prox_pin'_joint_vel,b'l_prox_pin'_joint_react_forces,b'l_prox_pin'_joint_motor_torque,b'l_distal_pin'_joint_angle,b'l_distal_pin'_joint_vel,b'l_distal_pin'_joint_react_forces,b'l_distal_pin'_joint_motor_torque,b'r_prox_pin'_joint_angle,b'r_prox_pin'_joint_vel,b'r_prox_pin'_joint_react_forces,b'r_prox_pin'_joint_motor_torque,b'r_distal_pin'_joint_angle,b'r_distal_pin'_joint_vel,b'r_distal_pin'_joint_react_forces,b'r_distal_pin'_joint_motor_torque,in_contact_l,contact_point_l_dist,contact_normal_l_dist,contact_distance_l_dist,contact_norm_force_l_dist,in_contact_r,contact_point_r_dist,contact_normal_r_dist,contact_distance_r_dist,contact_norm_force_r_dist
0,Open,,,,,,"[-0.026750000193715096, 0.05299999937415123, 0.03999999910593033]","[0.0, -0.0, 0.0]","[-0.026750000193715096, 0.125, 0.03999999910593033]","[0.0, -0.0, 5.883223447970011e-32]","[0.026750000193715096, 0.05299999937415123, 0.03999999910593033]","[0.0, 0.0, -0.008068665592501188]","[0.02733093686401844, 0.12499765306711197, 0.03999999910593033]","[0.0, 0.0, -0.0780932845685428]",0.157,37.68,"(0.0, 0.0, 0.0, 0.0, 0.0, 0.0)",54.702693795169004,5.294901130302062e-32,-1.4119736347472162e-30,"(0.0, 0.0, 0.0, 0.0, 0.0, 0.0)",3.9113724975844915,-0.1670280316324969,-38.150247946082466,"(0.0, 0.0, 0.0, 0.0, 0.0, 0.0)",-25.93345404555236,-0.0659493391739072,0.9780670797324476,"(0.0, 0.0, 0.0, 0.0, 0.0, 0.0)",-6.754749483880455,False,,,,,False,,,,
1,Open,,,,,,"[-0.026750000193715096, 0.05299999937415123, 0.03999999910593033]","[0.0, -0.0, 0.29830000998707634]","[-0.04791048914194107, 0.12182030081748962, 0.03999999910593033]","[0.0, -0.0, 0.29830000998707634]","[0.026750000193715096, 0.05299999937415123, 0.03999999910593033]","[0.0, 0.0, -0.3122944642903269]","[0.048871491104364395, 0.12151744216680527, 0.03999999910593033]","[0.0, 0.0, -0.3793531994353912]",0.42546999999999996,30.5208,"(0.0, 0.0, 0.0, 0.0, 0.0, 0.0)",-4.858074537215091,5.294901130302062e-32,0.0,"(0.0, 0.0, 0.0, 0.0, 0.0, 0.0)",-0.33154044974508506,-0.44292449566296654,-31.35120824461403,"(0.0, 0.0, 0.0, 0.0, 0.0, 0.0)",100.88457241511576,-0.08373770380977785,-4.0029668326633345,"(0.0, 0.0, 0.0, 0.0, 0.0, 0.0)",24.077304806401806,False,,,,,False,,,,
2,Open,,,,,,"[-0.026750000193715096, 0.05299999937415123, 0.03999999910593033]","[0.0, -0.0, 0.5399230359738098]","[-0.06376303732395172, 0.11475787311792374, 0.03999999910593033]","[0.0, -0.0, 0.5399230359738098]","[0.026750000193715096, 0.05299999937415123, 0.03999999910593033]","[0.0, 0.0, -0.5623038790270362]","[0.06513584405183792, 0.11391409486532211, 0.03999999910593033]","[0.0, 0.0, -0.6668711870723439]",0.6429307,24.721848,"(0.0, 0.0, 0.0, 0.0, 0.0, 0.0)",-3.943806903965684,5.294901130302062e-32,0.0,"(0.0, 0.0, 0.0, 0.0, 0.0, 0.0)",-0.2716098155097054,-0.6673401099248648,-25.208696742335626,"(0.0, 0.0, 0.0, 0.0, 0.0, 0.0)",94.97739775913854,-0.11755295807544866,-3.116564819203918,"(0.0, 0.0, 0.0, 0.0, 0.0, 0.0)",25.79194570087013,False,,,,,False,,,,
3,Open,,,,,,"[-0.026750000193715096, 0.05299999937415123, 0.03999999910593033]","[0.0, -0.0, 0.7356376306875043]","[-0.07506632059812546, 0.10638101398944855, 0.03999999910593033]","[0.0, -0.0, 0.7356376306875043]","[0.026750000193715096, 0.05299999937415123, 0.03999999910593033]","[0.0, 0.0, -0.757991847340814]","[0.076247438788414, 0.10528770089149475, 0.03999999910593033]","[0.0, 0.0, -0.8659334873334429]",0.8190738670000001,20.024696880000004,"(0.0, 0.0, 0.0, 0.0, 0.0, 0.0)",-3.2002295086701533,2.3293280891773424e-07,5.5903874140256216e-05,"(0.0, 0.0, 0.0, 0.0, 0.0, 0.0)",-0.22200715926400075,-0.8391926082762636,-19.488197112632974,"(0.0, 0.0, 0.0, 0.0, 0.0, 0.0)",3.295349739497939,-0.09714776835574307,2.590534961280482,"(0.0, 0.0, 0.0, 0.0, 0.0, 0.0)",0.25803221970863044,False,,,,,False,,,,
4,Open,,,,,,"[-0.026750000193715096, 0.05299999937415123, 0.03999999910593033]","[0.0, -0.0, 0.894166469119967]","[-0.08288749307394028, 0.09808415919542313, 0.03999999910593033]","[0.0, -0.0, 0.894166894674561]","[0.026750000193715096, 0.05299999937415123, 0.03999999910593033]","[0.0, 0.0, -0.9122733503889549]","[0.08369457721710205, 0.09706035256385803, 0.03999999910593033]","[0.0, 0.0, -0.9997066729229968]",0.96174983227,16.220004472800003,"(0.0, 0.0, 0.0, 0.0, 0.0, 0.0)",-2.5959652512206968,5.681494863714967e-07,3.553320838026869e-05,"(0.0, 0.0, 0.0, 0.0, 0.0, 0.0)",-0.18114955764248034,-0.9780460127037736,-15.785439661232708,"(0.0, 0.0, 0.0, 0.0, 0.0, 0.0)",2.503992476159733,-0.0786900142246732,2.098357403184359,"(0.0, 0.0, 0.0, 0.0, 0.0, 0.0)",0.15360133560797545,False,,,,,False,,,,
5,Open,,,,,,"[-0.026750000193715096, 0.05299999937415123, 0.03999999910593033]","[0.0, -0.0, 1.0225748785172661]","[-0.08819860219955444, 0.09052424877882004, 0.03999999910593033]","[0.0, -0.0, 1.0225755149967983]","[0.026750000193715096, 0.05299999937415123, 0.03999999910593033]","[0.0, 0.0, -1.037241417801626]","[0.08874232321977615, 0.08961901068687439, 0.03999999910593033]","[0.0, 0.0, -1.1080626941470386]",1.0773173641387,13.138203622968001,"(0.0, 0.0, 0.0, 0.0, 0.0, 0.0)",-2.105207702642618,7.694903593429899e-07,2.0776129443188934e-05,"(0.0, 0.0, 0.0, 0.0, 0.0, 0.0)",-0.14759587787833617,-1.0905172702900567,-12.78620612559849,"(0.0, 0.0, 0.0, 0.0, 0.0, 0.0)",2.0303755786213302,-0.06373917358809339,1.6996763127328351,"(0.0, 0.0, 0.0, 0.0, 0.0, 0.0)",0.1250328149112744,False,,,,,False,,,,
6,Open,,,,,,"[-0.026750000193715096, 0.05299999937415123, 0.03999999910593033]","[0.0, -0.0, 1.126585512342968]","[-0.09176240861415863, 0.08394166082143784, 0.03999999910593033]","[0.0, -0.0, 1.1265864725026016]","[0.026750000193715096, 0.05299999937415123, 0.03999999910593033]","[0.0, 0.0, -1.13846552283997]","[0.09212540090084076, 0.08316715806722641, 0.03999999910593033]","[0.0, 0.0, -1.1958309904194953]",1.1709270649523469,10.641944934604087,"(0.0, 0.0, 0.0, 0.0, 0.0, 0.0)",-1.7068426281171958,8.750681698751778e-07,1.0273240928962424e-05,"(0.0, 0.0, 0.0, 0.0, 0.0, 0.0)",-0.12011999884119333,-1.181618988934946,-10.356826961734775,"(0.0, 0.0, 0.0, 0.0, 0.0, 0.0)",1.6460093571929852,-0.051628943774705546,1.376743384776279,"(0.0, 0.0, 0.0, 0.0, 0.0, 0.0)",0.10168054944364863,False,,,,,False,,,,
7,Open,,,,,,"[-0.026750000193715096, 0.05299999937415123, 0.03999999910593033]","[0.0, -0.0, 1.2108343955497323]","[-0.09413553774356842, 0.07836118340492249, 0.03999999910593033]","[0.0, -0.0, 1.210835255049739]","[0.026750000193715096, 0.05299999937415123, 0.03999999910593033]","[0.0, 0.0, -1.2204571829136446]","[0.09437645971775055, 0.07771158218383789, 0.03999999910593033]","[0.0, 0.0, -1.2669233179031547]",1.2467509226114009,8.619975397029307,"(0.0, 0.0, 0.0, 0.0, 0.0, 0.0)",-1.3836082777937824,9.135722823677317e-07,2.9650129412077397e-06,"(0.0, 0.0, 0.0, 0.0, 0.0, 0.0)",-0.09766941677677543,-1.2554113810373062,-8.38902983900517,"(0.0, 0.0, 0.0, 0.0, 0.0, 0.0)",1.334189480132575,-0.04181961771093252,1.1151666876061868,"(0.0, 0.0, 0.0, 0.0, 0.0, 0.0)",0.08262627878010878,False,,,,,False,,,,
8,Open,,,,,,"[-0.026750000193715096, 0.05299999937415123, 0.03999999910593033]","[0.0, -0.0, 1.2790758758817962]","[-0.09570803493261337, 0.0737072303891182, 0.03999999910593033]","[0.0, -0.0, 1.2790780932516201]","[0.026750000193715096, 0.05299999937415123, 0.03999999910593033]","[0.0, 0.0, -1.2868702529032277]","[0.0958673357963562, 0.07316911965608597, 0.03999999910593033]","[0.0, 0.0, -1.3245087793274308]",1.3081682532711112,6.982181501004109,"(0.0, 0.0, 0.0, 0.0, 0.0, 0.0)",-1.12145472366965,1.9027582300258812e-06,-5.0740219467356254e-05,"(0.0, 0.0, 0.0, 0.0, 0.0, 0.0)",-0.07939114715284208,-1.315183223212741,-6.795115266999686,"(0.0, 0.0, 0.0, 0.0, 0.0, 0.0)",1.0813262344929835,-0.033874873767778015,0.9033299671407473,"(0.0, 0.0, 0.0, 0.0, 0.0, 0.0)",0.06713055017345074,False,,,,,False,,,,
9,Open,,,,,,"[-0.026750000193715096, 0.05299999937415123, 0.03999999910593033]","[0.0, -0.0, 1.334351465706577]","[-0.09674673527479172, 0.06986585259437561, 0.03999999910593033]","[0.0, -0.0, 1.33435435145599]","[0.026750000193715096, 0.05299999937415123, 0.03999999910593033]","[0.0, 0.0, -1.3406650641721125]","[0.09685182571411133, 0.06942359358072281, 0.03999999910593033]","[0.0, 0.0, -1.3711530696282732]",1.3579162851496,5.655565729344001,"(0.0, 0.0, 0.0, 0.0, 0.0, 0.0)",-0.9088150211252332,3.4316066113876724e-06,0.0001607445165674468,"(0.0, 0.0, 0.0, 0.0, 0.0, 0.0)",-0.06444344013525093,-1.3635984108023202,-5.504042378604797,"(0.0, 0.0, 0.0, 0.0, 0.0, 0.0)",0.8762522980402716,-0.02744024570882781,0.7315266716392431,"(0.0, 0.0, 0.0, 0.0, 0.0, 0.0)",0.05446985052483407,False,,,,,False,,,,
10,Open,,,,,,"[-0.026750000193715096, 0.05299999937415123, 0.03999999910593033]","[0.0, -0.0, 1.3791247702213432]","[-0.0974314734339714, 0.0667160153388977, 0.03999999910593033]","[0.0, -0.0, 1.3791284782568445]","[0.026750000193715096, 0.05299999937415123, 0.03999999910593033]","[0.0, 0.0, -1.3842387704807777]","[0.09750068932771683, 0.06635437905788422, 0.03999999910593033]","[0.0, 0.0, -1.408935619520831]",1.398212190971176,4.581008240768642,"(0.0, 0.0, 0.0, 0.0, 0.0, 0.0)",-0.7364407507487188,4.314390796743166e-06,8.968521101115077e-05,"(0.0, 0.0, 0.0, 0.0, 0.0, 0.0)",-0.05230389643117988,-1.4028147127498793,-4.458274326669883,"(0.0, 0.0, 0.0, 0.0, 0.0, 0.0)",0.7100243788118592,-0.02222789596809768,0.5925708975857369,"(0.0, 0.0, 0.0, 0.0, 0.0, 0.0)",0.04419507766734469,False,,,,,False,,,,
11,Open,,,,,,"[-0.026750000193715096, 0.05299999937415123, 0.03999999910593033]","[0.0, -0.0, 1.415391158105469]","[-0.09788231551647186, 0.06414420157670975, 0.03999999910593033]","[0.0, -0.0, 1.415395709317307]","[0.026750000193715096, 0.05299999937415123, 0.03999999910593033]","[0.0, 0.0, -1.419533200978404]","[0.09792786836624146, 0.06384945660829544, 0.03999999910593033]","[0.0, 0.0, -1.4395389386881268]",1.4308518746866525,3.7106166750225977,"(0.0, 0.0, 0.0, 0.0, 0.0, 0.0)",-0.5967141397561109,4.7399630338636504e-06,3.9705446138709865e-05,"(0.0, 0.0, 0.0, 0.0, 0.0, 0.0)",-0.042434775014060074,-1.4345799173274023,-3.611202204602609,"(0.0, 0.0, 0.0, 0.0, 0.0, 0.0)",0.5752902758042565,-0.018005647771851804,0.4800102903229233,"(0.0, 0.0, 0.0, 0.0, 0.0, 0.0)",0.0358468230863414,False,,,,,False,,,,
12,Open,,,,,,"[-0.026750000193715096, 0.05299999937415123, 0.03999999910593033]","[0.0, -0.0, 1.4447668540021588]","[-0.09817895293235779, 0.06205013021826744, 0.03999999910593033]","[0.0, -0.0, 1.4447715863131299]","[0.026750000193715096, 0.05299999937415123, 0.03999999910593033]","[0.0, 0.0, -1.448121993206969]","[0.09820891171693802, 0.06181041896343231, 0.03999999910593033]","[0.0, 0.0, -1.46432761016298]",1.4572900184961886,3.005599506768304,"(0.0, 0.0, 0.0, 0.0, 0.0, 0.0)",-0.483467731204937,4.849462099751187e-06,5.401615740548756e-06,"(0.0, 0.0, 0.0, 0.0, 0.0, 0.0)",-0.03441712855198442,-1.4603097330351957,-2.925073785728113,"(0.0, 0.0, 0.0, 0.0, 0.0, 0.0)",0.4660969568661882,-0.014585427836986846,0.38883096045278315,"(0.0, 0.0, 0.0, 0.0, 0.0, 0.0)",0.029067900465992856,False,,,,,False,,,,
13,Open,,,,,,"[-0.026750000193715096, 0.05299999937415123, 0.03999999910593033]","[0.0, -0.0, 1.4685611215819594]","[-0.09837405383586884, 0.06034812703728676, 0.03999999910593033]","[0.0, -0.0, 1.468565853091142]","[0.026750000193715096, 0.05299999937415123, 0.03999999910593033]","[0.0, 0.0, -1.4712788457263521]","[0.0983937606215477, 0.06015344336628914, 0.03999999910593033]","[0.0, 0.0, -1.4844061039497418]",1.4787049149819127,2.434535600482329,"(0.0, 0.0, 0.0, 0.0, 0.0, 0.0)",-0.39169363303347604,4.747151892642784e-06,-1.7351748576465223e-05,"(0.0, 0.0, 0.0, 0.0, 0.0, 0.0)",-0.02790732436186781,-1.4811508837585086,-2.3693097664397755,"(0.0, 0.0, 0.0, 0.0, 0.0, 0.0)",0.37761186810531283,-0.011814888241968555,0.3149714411852639,"(0.0, 0.0, 0.0, 0.0, 0.0, 0.0)",0.023565936472848985,False,,,,,False,,,,
14,Open,,,,,,"[-0.026750000193715096, 0.05299999937415123, 0.03999999910593033]","[0.0, -0.0, 1.487834617901085]","[-0.09850236773490906, 0.05896640568971634, 0.03999999910593033]","[0.0, -0.0, 1.4878390921106803]","[0.026750000193715096, 0.05299999937415123, 0.03999999910593033]","[0.0, 0.0, -1.4900358577435544]","[0.09851532429456711, 0.05880843847990036, 0.03999999910593033]","[0.0, 0.0, -1.5006695807985118]",1.4960509811353493,1.9719738363906854,"(0.0, 0.0, 0.0, 0.0, 0.0, 0.0)",-0.3173274216127963,4.509251873886308e-06,-3.168767150011037e-05,"(0.0, 0.0, 0.0, 0.0, 0.0, 0.0)",-0.022624215793833224,-1.498032215844392,-1.9191409108162163,"(0.0, 0.0, 0.0, 0.0, 0.0, 0.0)",0.30591369390909257,-0.00957062017308593,0.2551417656412126,"(0.0, 0.0, 0.0, 0.0, 0.0, 0.0)",0.019102112305110365,False,,,,,False,,,,
15,Close,,,"(0.010000330010418335, 0.1600052801621647, 0.0076635160840755065)","(-0.00010776674212266888, 6.7354271463595154e-06, -3.629275205618536e-10)",,"[-0.026750000193715096, 0.05299999937415123, 0.03999999910593033]","[0.0, -0.0, 1.5034457455162191]","[-0.09858676046133041, 0.05784556642174721, 0.03999999910593033]","[0.0, -0.0, 1.5034503818793725]","[0.026750000193715096, 0.05299999937415123, 0.03999999910593033]","[0.0, 0.0, -1.5052288706440118]","[0.09859529137611389, 0.057717464864254, 0.03999999910593033]","[0.0, 0.0, -1.5138427586332608]",1.413101294719633,-21.682701192523552,"(0.0, 0.0, 0.0, 0.0, 0.0, 0.0)",-36.2964633864193,-0.08999572753671375,-21.600020366059084,"(0.0, 0.0, 0.0, 0.0, 0.0, 0.0)",-4.677104715743802,-1.4147060948339576,21.72549586223887,"(0.0, 0.0, 0.0, 0.0, 0.0, 0.0)",36.28721231316116,0.08224721981037424,21.806647295928226,"(0.0, 0.0, 0.0, 0.0, 0.0, 0.0)",4.674247117033191,False,,,,,False,,,,
16,Close,,,"(0.010000659812012168, 0.16001055698314023, 0.0146278458391823)","(-0.0002154970996661642, 1.346858017578936e-05, -1.4512199879406586e-09)",,"[-0.026750000193715096, 0.05299999937415123, 0.03999999910593033]","[0.0, -0.0, 1.331791174621689]","[-0.09670332819223404, 0.07004500180482864, 0.03999999910593033]","[0.0, -0.0, 1.1607947601674466]","[0.026750000193715096, 0.05299999937415123, 0.03999999910593033]","[0.0, 0.0, -1.333235579802916]","[0.0967278704047203, 0.06994394958019257, 0.03999999910593033]","[0.0, 0.0, -1.1692126917852095]",1.2586120487229027,-17.562987965944075,"(0.0, 0.0, 0.0, 0.0, 0.0, 0.0)",2.9912613024458263,-0.2438973282575851,-17.496176851103186,"(0.0, 0.0, 0.0, 0.0, 0.0, 0.0)",0.3774423078885404,-1.2599119368155056,17.59765164841349,"(0.0, 0.0, 0.0, 0.0, 0.0, 0.0)",-2.998418754928424,0.23762104120869787,17.663545071724318,"(0.0, 0.0, 0.0, 0.0, 0.0, 0.0)",-0.3794651959179023,False,,,,,False,,,,
17,Close,,,"(0.010000989414132393, 0.1600158306125408, 0.020893621515273818)","(-0.00032319108508158773, 2.0199459787849396e-05, -3.2641426920478403e-09)",,"[-0.026750000193715096, 0.05299999937415123, 0.03999999910593033]","[0.0, -0.0, 1.1927509376626115]","[-0.09366592019796371, 0.0795755386352539, 0.03999999910593033]","[0.0, -0.0, 0.8832429263887086]","[0.026750000193715096, 0.05299999937415123, 0.03999999910593033]","[0.0, 0.0, -1.1939208377844814]","[0.0936969667673111, 0.07949723303318024, 0.03999999910593033]","[0.0, 0.0, -0.8900614482005528]",1.1334757594655511,-14.226020252414699,"(0.0, 0.0, 0.0, 0.0, 0.0, 0.0)",2.4288508647123748,-0.36855748390702325,-14.171887099327844,"(0.0, 0.0, 0.0, 0.0, 0.0, 0.0)",0.30976852738726823,-1.1345286688205596,14.254097835214925,"(0.0, 0.0, 0.0, 0.0, 0.0, 0.0)",-2.4347025650831196,0.36347369491056536,14.307455277413446,"(0.0, 0.0, 0.0, 0.0, 0.0, 0.0)",-0.3114537668278207,False,,,,,False,,,,
18,Close,,,"(0.010001318826104761, 0.16002110119957821, 0.02646143576036139)","(-0.0004308487108156613, 2.692806668198511e-05, -5.800961497533997e-09)",,"[-0.026750000193715096, 0.05299999937415123, 0.03999999910593033]","[0.0, -0.0, 1.0801281957344744]","[-0.09025531262159348, 0.08692750334739685, 0.03999999910593033]","[0.0, -0.0, 0.658426092619021]","[0.026750000193715096, 0.05299999937415123, 0.03999999910593033]","[0.0, 0.0, -1.0810758877799864]","[0.09028743207454681, 0.0868673101067543, 0.03999999910593033]","[0.0, 0.0, -0.6639491897248752]",1.0321153651670965,-11.523076404455903,"(0.0, 0.0, 0.0, 0.0, 0.0, 0.0)",1.9712593195403922,-0.46953209273108476,-11.479215138346529,"(0.0, 0.0, 0.0, 0.0, 0.0, 0.0)",0.25356328507457,-1.0329682217446532,11.54581924652409,"(0.0, 0.0, 0.0, 0.0, 0.0, 0.0)",-1.976034733535922,0.46541422655746517,11.589025293474933,"(0.0, 0.0, 0.0, 0.0, 0.0, 0.0)",-0.2549589687679249,False,,,,,False,,,,
19,Close,,,"(0.010001648057231211, 0.16002636889308344, 0.03133184175509247)","(-0.0005384699893107284, 3.3654401557527444e-05, -9.06094284338731e-09)",,"[-0.026750000193715096, 0.05299999937415123, 0.03999999910593033]","[0.0, -0.0, 0.9889039009917453]","[-0.08690053224563599, 0.09257163107395172, 0.03999999910593033]","[0.0, -0.0, 0.4763247177857985]","[0.026750000193715096, 0.05299999937415123, 0.03999999910593033]","[0.0, 0.0, -0.9896714317513632]","[0.08693088591098785, 0.09252544492483139, 0.03999999910593033]","[0.0, 0.0, -0.4807983343348629]",0.9500134457853482,-9.333691887609287,"(0.0, 0.0, 0.0, 0.0, 0.0, 0.0)",1.59927232790674,-0.551321428885197,-9.298153181376478,"(0.0, 0.0, 0.0, 0.0, 0.0, 0.0)",0.20712540820679678,-0.9507042596131691,9.352113589684514,"(0.0, 0.0, 0.0, 0.0, 0.0, 0.0)",-1.6031637286990463,0.5479859596890367,9.387099348535743,"(0.0, 0.0, 0.0, 0.0, 0.0, 0.0)",-0.20827601456628825,False,,,,,False,,,,
20,Close,,,"(0.010001977116791199, 0.1600316338415276, 0.035505353338314005)","(-0.0006460549330047555, 4.037846511369274e-05, -1.3043353742532214e-08)",,"[-0.026750000193715096, 0.05299999937415123, 0.03999999910593033]","[0.0, -0.0, 0.9150121593347216]","[-0.08381503820419312, 0.09690423309803009, 0.03999999910593033]","[0.0, -0.0, 0.3288226039195219]","[0.026750000193715096, 0.05299999937415123, 0.03999999910593033]","[0.0, 0.0, -0.9156338940018686]","[0.08384232223033905, 0.09686874598264694, 0.03999999910593033]","[0.0, 0.0, -0.33244627340343963]",0.883510891086132,-7.560290428963521,"(0.0, 0.0, 0.0, 0.0, 0.0, 0.0)",1.2970851133907606,-0.6175707112805602,-7.53149495926978,"(0.0, 0.0, 0.0, 0.0, 0.0, 0.0)",0.1689126126712179,-0.884070450286667,7.575212007644451,"(0.0, 0.0, 0.0, 0.0, 0.0, 0.0)",-1.3002524451675361,0.6148689832085066,7.603541305643349,"(0.0, 0.0, 0.0, 0.0, 0.0, 0.0)",-0.16985779298155493,False,,,,,False,,,,
21,Close,,,"(0.010002306014043007, 0.16003689619304312, 0.038982445123681576)","(-0.0007536035543313348, 4.7100258049582536e-05, -1.7747461781428295e-08)",,"[-0.026750000193715096, 0.05299999937415123, 0.03999999910593033]","[0.0, -0.0, 0.855159831855573]","[-0.0810866579413414, 0.10023905336856842, 0.03999999910593033]","[0.0, -0.0, 0.20934598049273878]","[0.026750000193715096, 0.05299999937415123, 0.03999999910593033]","[0.0, 0.0, -0.855663319897266]","[0.08111044019460678, 0.10021167993545532, 0.03999999910593033]","[0.0, 0.0, -0.21228117869263835]",0.8296438217797669,-6.123835247460454,"(0.0, 0.0, 0.0, 0.0, 0.0, 0.0)",1.05173758145085,-0.6712325644411228,-6.100503438359898,"(0.0, 0.0, 0.0, 0.0, 0.0, 0.0)",0.13756782929819192,-0.8300970647322002,6.135921726192006,"(0.0, 0.0, 0.0, 0.0, 0.0, 0.0)",-1.0543131565319612,0.6690441663231638,6.158860938132814,"(0.0, 0.0, 0.0, 0.0, 0.0, 0.0)",-0.13834207864853043,False,,,,,False,,,,
22,Close,,,"(0.010002634758225062, 0.1600421560954447, 0.041763552607370504)","(-0.000861115865719684, 5.381978106418352e-05, -2.3172535119669436e-08)",,"[-0.026750000193715096, 0.05299999937415123, 0.03999999910593033]","[0.0, -0.0, 0.8066794434121096]","[-0.07873354107141495, 0.10281677544116974, 0.03999999910593033]","[0.0, -0.0, 0.11257000369976355]","[0.026750000193715096, 0.05299999937415123, 0.03999999910593033]","[0.0, 0.0, -0.807087375168555]","[0.07875385880470276, 0.1027955636382103, 0.03999999910593033]","[0.0, 0.0, -0.11494747853587685]",0.7860114956416112,-4.960306550442966,"(0.0, 0.0, 0.0, 0.0, 0.0, 0.0)",0.8526282438926112,-0.7146986118113532,-4.941401666116088,"(0.0, 0.0, 0.0, 0.0, 0.0, 0.0)",0.11192109221648956,-0.7863786224330822,4.970096598215528,"(0.0, 0.0, 0.0, 0.0, 0.0, 0.0)",-0.8547210444656044,0.7129260106609093,4.988671207184531,"(0.0, 0.0, 0.0, 0.0, 0.0, 0.0)",-0.11255391153308099,False,,,,,False,,,,
23,Close,,,"(0.010002963358557236, 0.16004741369625017, 0.04384907226694074)","(-0.0009685918795946493, 6.053703485636736e-05, -2.9317842489583264e-08)",,"[-0.026750000193715096, 0.05299999937415123, 0.03999999910593033]","[0.0, -0.0, 0.7674103444184671]","[-0.07673770934343338, 0.10481919348239899, 0.03999999910593033]","[0.0, -0.0, 0.03418149097606777]","[0.026750000193715096, 0.05299999937415123, 0.03999999910593033]","[0.0, 0.0, -0.7677407466611278]","[0.07675483077764511, 0.1048026755452156, 0.03999999910593033]","[0.0, 0.0, -0.0361072460378734]",0.7506693114697051,-4.017848305858803,"(0.0, 0.0, 0.0, 0.0, 0.0, 0.0)",0.6911017846597902,-0.7499060663183246,-4.0025303530146505,"(0.0, 0.0, 0.0, 0.0, 0.0, 0.0)",0.09097831684118958,-0.7509666841707966,4.025778244554576,"(0.0, 0.0, 0.0, 0.0, 0.0, 0.0)",-0.6928012733138227,0.7484702604680491,4.040818653480022,"(0.0, 0.0, 0.0, 0.0, 0.0, 0.0)",-0.09149462532289206,False,,,,,False,,,,
24,Close,,,"(0.010003291824242136, 0.16005266914270105, 0.04523936165140331)","(-0.0010760316083767074, 6.725202012489063e-05, -3.618265319583079e-08)",,"[-0.026750000193715096, 0.05299999937415123, 0.03999999910593033]","[0.0, -0.0, 0.7356023986171477]","[-0.07506444305181503, 0.10638272017240524, 0.03999999910593033]","[0.0, 0.0, -0.029314282157410606]","[0.026750000193715096, 0.05299999937415123, 0.03999999910593033]","[0.0, 0.0, -0.7358699744488303]","[0.07507872581481934, 0.10636978596448898, 0.03999999910593033]","[0.0, -0.0, 0.027754427824074522]",0.722042142290461,-3.2544571277456287,"(0.0, 0.0, 0.0, 0.0, 0.0, 0.0)",0.560108160717456,-0.7784260816002104,-3.242260463996204,"(0.0, 0.0, 0.0, 0.0, 0.0, 0.0)",0.0739092939425144,-0.7222830141783452,3.260880378089207,"(0.0, 0.0, 0.0, 0.0, 0.0, 0.0)",-0.5614876113391304,0.7772630911922368,3.2732751882458535,"(0.0, 0.0, 0.0, 0.0, 0.0, 0.0)",-0.07432997801242036,False,,,,,False,,,,
25,Close,,,"(0.010001644182078712, 0.16005595153396976, 0.045940321410535084)","(-0.0011271805217326655, 1.767785898679914e-05, -1.508889111938428e-08)",,"[-0.026750000193715096, 0.05299999937415123, 0.03999999910593033]","[0.0, -0.0, 0.7098379546684608]","[-0.07367318123579025, 0.10760965943336487, 0.03999999910593033]","[0.0, 0.0, -0.08074653118681538]","[0.026750000193715096, 0.05299999937415123, 0.03999999910593033]","[0.0, 0.0, -0.7100547061469626]","[0.07368502020835876, 0.10759948939085007, 0.03999999910593033]","[0.0, -0.0, 0.07948305351710017]",0.6988541352552734,-2.6361102734739577,"(0.0, 0.0, 0.0, 0.0, 0.0, 0.0)",0.4538907146887525,-0.8015268867317584,-2.626184566689172,"(0.0, 0.0, 0.0, 0.0, 0.0, 0.0)",0.06000477197099662,-0.6990492414844596,2.6413131062522566,"(0.0, 0.0, 0.0, 0.0, 0.0, 0.0)",-0.45500992694973624,0.8005848745408953,2.6513062318756173,"(0.0, 0.0, 0.0, 0.0, 0.0, 0.0)",-0.06034712704439637,False,,,,,False,,,,
26,Close,,,"(0.0099979269032565, 0.16005188637635104, 0.04640949954916324)","(-0.0010442772263960227, -5.814874739306873e-05, 7.787963860925158e-09)",,"[-0.026750000193715096, 0.05299999937415123, 0.03999999910593033]","[0.0, -0.0, 0.6889687286552088]","[-0.07252338528633118, 0.1085769459605217, 0.03999999910593033]","[0.0, 0.0, -0.12240626184562299]","[0.026750000193715096, 0.05299999937415123, 0.03999999910593033]","[0.0, 0.0, -0.6891442541658422]","[0.07253314554691315, 0.10856890678405762, 0.03999999910593033]","[0.0, -0.0, 0.12138287899953458]",0.6800717984485459,-2.1352615874880345,"(0.0, 0.0, 0.0, 0.0, 0.0, 0.0)",0.36778464275725675,-0.820237492399504,-2.127000202679893,"(0.0, 0.0, 0.0, 0.0, 0.0, 0.0)",0.04871100820034693,-0.6802298342020312,2.1394759521557623,"(0.0, 0.0, 0.0, 0.0, 0.0, 0.0)",-0.3686924226914724,0.8194744666035607,2.147347557238381,"(0.0, 0.0, 0.0, 0.0, 0.0, 0.0)",-0.04898946018255637,False,,,,,False,,,,
27,Close,,,"(0.009998107600018924, 0.16004411888380865, 0.0468059782297436)","(-0.0008858309445970004, -5.447527859797503e-05, 4.128601528647624e-08)",,"[-0.026750000193715096, 0.05299999937415123, 0.03999999910593033]","[0.0, -0.0, 0.672064613904271]","[-0.07157741487026215, 0.10934273153543472, 0.03999999910593033]","[0.0, 0.0, -0.15614974961002634]","[0.026750000193715096, 0.05299999937415123, 0.03999999910593033]","[0.0, 0.0, -0.6722069192953587]","[0.07158542424440384, 0.10933635383844376, 0.03999999910593033]","[0.0, -0.0, 0.15532080931604164]",0.6648581567433223,-1.7295508464885936,"(0.0, 0.0, 0.0, 0.0, 0.0, 0.0)",0.29799285099320455,-0.8353935278746698,-1.722993881465588,"(0.0, 0.0, 0.0, 0.0, 0.0, 0.0)",0.03950205891705609,-0.6649861657036452,1.732964418763874,"(0.0, 0.0, 0.0, 0.0, 0.0, 0.0)",-0.2987289514022836,0.83477548361327,1.7394759470338683,"(0.0, 0.0, 0.0, 0.0, 0.0, 0.0)",-0.03972821774930672,False,,,,,False,,,,
28,Close,,,"(0.009998390752654573, 0.16003702894197389, 0.04714144752999396)","(-0.0007411380797103218, -4.869650481896534e-05, 1.1687517768299383e-07)",,"[-0.026750000193715096, 0.05299999937415123, 0.03999999910593033]","[0.0, -0.0, 0.6583722791296546]","[-0.07080177217721939, 0.10995122045278549, 0.03999999910593033]","[0.0, 0.0, -0.18348236399010098]","[0.026750000193715096, 0.05299999937415123, 0.03999999910593033]","[0.0, 0.0, -0.6584875609778488]","[0.07080833613872528, 0.10994613915681839, 0.03999999910593033]","[0.0, -0.0, 0.18281091441867092]",0.652535106962091,-1.400936185655761,"(0.0, 0.0, 0.0, 0.0, 0.0, 0.0)",0.24143143710013154,-0.8476696977959799,-1.3956001238249038,"(0.0, 0.0, 0.0, 0.0, 0.0, 0.0)",0.032035576984152714,-0.6526387942199526,1.4037011791987364,"(0.0, 0.0, 0.0, 0.0, 0.0, 0.0)",-0.24202820218879367,0.8471690873323404,1.4089504550195393,"(0.0, 0.0, 0.0, 0.0, 0.0, 0.0)",-0.0322192170145395,False,,,,,False,,,,
29,Close,,,"(0.009998679410322496, 0.16003066597344334, 0.0474253884764576)","(-0.0006112814540129935, -4.2805404436077314e-05, 1.9447426774393396e-07)",,"[-0.026750000193715096, 0.05299999937415123, 0.03999999910593033]","[0.0, -0.0, 0.6472815645892557]","[-0.07016744464635849, 0.11043626815080643, 0.03999999910593033]","[0.0, 0.0, -0.2056215493544759]","[0.026750000193715096, 0.05299999937415123, 0.03999999910593033]","[0.0, 0.0, -0.6473749785824873]","[0.07017280906438828, 0.1104322224855423, 0.03999999910593033]","[0.0, -0.0, 0.20507767878351457]",0.6425534366392937,-1.1347583103811658,"(0.0, 0.0, 0.0, 0.0, 0.0, 0.0)",0.19559696212506814,-0.8576132175808707,-1.130415870269558,"(0.0, 0.0, 0.0, 0.0, 0.0, 0.0)",0.025974296640771184,-0.6426374233181616,1.1369979551509777,"(0.0, 0.0, 0.0, 0.0, 0.0, 0.0)",-0.19608068519888996,0.8572077274788498,1.141229523067934,"(0.0, 0.0, 0.0, 0.0, 0.0, 0.0)",-0.02612334092818916,False,,,,,False,,,,
30,Close,,,"(0.009865465308992205, 0.15999852606453366, 0.04766600164849151)","(-0.0003424815135586742, 0.00015086673503461647, 0.0034152828324375316)",,"[-0.026750000193715096, 0.05299999937415123, 0.03999999910593033]","[0.0, -0.0, 0.6382981045455605]","[-0.06964972615242004, 0.11082398891448975, 0.03999999910593033]","[0.0, 0.0, -0.22355414441709243]","[0.026750000193715096, 0.05299999937415123, 0.03999999910593033]","[0.0, 0.0, -0.6383737252477673]","[0.06965409219264984, 0.11082074791193008, 0.03999999910593033]","[0.0, -0.0, 0.22311363310560886]",0.6344682836778279,-0.9191542314087444,"(0.0, 0.0, 0.0, 0.0, 0.0, 0.0)",0.1584658053641607,-0.8656670151994418,-0.9155462613482186,"(0.0, 0.0, 0.0, 0.0, 0.0, 0.0)",0.021063560793533557,-0.6345419852789147,0.9196069697833984,"(0.0, 0.0, 0.0, 0.0, 0.0, 0.0)",1.5650710318467773,0.8652269258386903,0.8975102038417887,"(0.0, 0.0, 0.0, 0.0, 0.0, 0.0)",0.970263568851588,False,,,,,True,"(0.041964474105275554, 0.17969275438125942, 0.023999959438538113)","(-0.9999999992078928, -2.3394376763778626e-07, -3.980150266267419e-05)",0.0005277146366441324,13.827283024398023
31,Move,,,"(0.007363952190207586, 0.1595176072470861, 0.04786907614534817)","(-0.000283671801070412, 0.00017028703879343212, 0.033932294028324435)","[0.0, 0.0, 0.0]","[-0.026750000193715096, 0.05299999937415123, 0.03999999910593033]","[0.0, -0.0, 0.6310214732486521]","[-0.06922782957553864, 0.1111346185207367, 0.03999999910593033]","[0.0, 0.0, -0.23807887186492363]","[0.026750000193715096, 0.05299999937415123, 0.03999999910593033]","[0.0, 0.0, -0.6310879718519756]","[0.06923169642686844, 0.11113179475069046, 0.03999999910593033]","[0.0, -0.0, 0.2376151439176698]",0.6073010028525442,-5.692908589800243,"(0.0, 0.0, 0.0, 0.0, 0.0, 0.0)",-6.970029188620435,-0.868756983831492,0.08239916352133925,"(0.0, 0.0, 0.0, 0.0, 0.0, 0.0)",-0.4110687045203754,-0.6117280690932336,4.646378695169427,"(0.0, 0.0, 0.0, 0.0, 0.0, 0.0)",6.63722350158353,0.8683562496935296,-0.08325233958591138,"(0.0, 0.0, 0.0, 0.0, 0.0, 0.0)",0.9711507533803067,False,,,,,True,"(0.04054627108315854, 0.179595033909982, 0.023999959438538113)","(-0.9999999992078928, -2.3394376763778626e-07, -3.980150266267419e-05)",-6.660727030056632e-06,5.483947105729632
32,Move,,,"(0.003581798779507854, 0.15888081127638445, 0.0479516006086598)","(0.0007129250223673224, -0.00208967314794087, 0.0775559872120303)","[-0.003782153410699732, -0.0006367959707016535, 8.25244633116326e-05]","[-0.026750000193715096, 0.05299999937415123, 0.03999999910593033]","[0.0, -0.0, 0.5859526299274878]","[-0.06656552106142044, 0.11298936605453491, 0.03999999910593033]","[0.0, 0.0, -0.2824962348735626]","[0.026750000193715096, 0.05299999937415123, 0.03999999910593033]","[0.0, 0.0, -0.5943032042166643]","[0.06706507503986359, 0.11265479773283005, 0.03999999910593033]","[0.0, -0.0, 0.2737407621305699]",0.5651750435041389,-4.9866125127970315,"(0.0, 0.0, 0.0, 0.0, 0.0, 0.0)",0.1879296173067297,-0.8684796473023089,-0.007395640778216972,"(0.0, 0.0, 0.0, 0.0, 0.0, 0.0)",0.0052485587257143,-0.5763335013853139,4.3127362313992865,"(0.0, 0.0, 0.0, 0.0, 0.0, 0.0)",0.20027995465953127,0.8680752302284668,0.0074938524016774505,"(0.0, 0.0, 0.0, 0.0, 0.0, 0.0)",0.02249499703994292,False,,,,,True,"(0.0359258773488902, 0.1800326723866737, 0.023997902681873285)","(-0.9984706073090757, -0.05524536888912827, -0.002096558167493954)",0.00012594863753174636,0.0
33,Move,,,"(0.001122542829286716, 0.1593018964136896, 0.0479227662575371)","(0.004945114300985391, -0.0007111404472231802, 0.10411918620410092)","[-0.006241409360920869, -0.00021571083339649855, 5.3690112188933825e-05]","[-0.026750000193715096, 0.05299999937415123, 0.03999999910593033]","[0.0, -0.0, 0.5464752837415245]","[-0.06416688859462738, 0.11451403051614761, 0.03999999910593033]","[0.0, 0.0, -0.32203216719565797]","[0.026750000193715096, 0.05299999937415123, 0.03999999910593033]","[0.0, 0.0, -0.5601607664550203]","[0.06500521302223206, 0.113996222615242, 0.03999999910593033]","[0.0, -0.0, 0.3079426098360514]",0.5284581628806412,-4.324100182620625,"(0.0, 0.0, 0.0, 0.0, 0.0, 0.0)",-40.57665041993025,-0.8499710773008806,4.448713801084151,"(0.0, 0.0, 0.0, 0.0, 0.0, 0.0)",-20.450246702708142,-0.5432536493593767,4.057701472950861,"(0.0, 0.0, 0.0, 0.0, 0.0, 0.0)",40.51490371176407,0.8490881856801438,-4.5636359590366995,"(0.0, 0.0, 0.0, 0.0, 0.0, 0.0)",20.9314301799772,True,"(-0.029811151186175763, 0.18051363537611448, 0.05600153891941393)","(0.9949795852674637, 0.10006627287285103, 0.001538159394272495)",-0.0021929381795451827,324.8302845382825,True,"(0.031581245564939034, 0.18025917111664624, 0.023998461080646502)","(-0.9949795852674632, -0.10006627287285588, -0.0015381593942749786)",0.00032843032100871104,245.81822951935948
34,Move,"(-0.0011, 0.0, 0.0014)","(0.0, 0.01321039710834508, 0.0)","(0.0006686454240130826, 0.16026277938046268, 0.04793507443581187)","(0.008373696175996504, 0.00014264281331606985, 0.09805557532792647)","[-0.0066953067661945035, 0.000745172133376576, 6.599829046369937e-05]","[-0.026750000193715096, 0.05299999937415123, 0.03999999910593033]","[0.0, -0.0, 0.5122910766505747]","[-0.062042638659477234, 0.11575690656900406, 0.03999999910593033]","[0.0, 0.0, -0.3205952360126725]","[0.026750000193715096, 0.05299999937415123, 0.03999999910593033]","[0.0, 0.0, -0.5280779333918697]","[0.06302893161773682, 0.11519195139408112, 0.03999999910593033]","[0.0, -0.0, 0.3033470937789916]",0.5124944839799966,0.04881088445997461,"(0.0, 0.0, 0.0, 0.0, 0.0, 0.0)",4.5089515917649345,-0.8345990203798662,-0.4110531157892723,"(0.0, 0.0, 0.0, 0.0, 0.0, 0.0)",-0.433068307563994,-0.5312644198865885,-0.7647419353038623,"(0.0, 0.0, 0.0, 0.0, 0.0, 0.0)",-5.912525847294514,0.8331914035747173,0.4239141894780385,"(0.0, 0.0, 0.0, 0.0, 0.0, 0.0)",0.026573898403388693,True,"(-0.027782116061409873, 0.18180915987972746, 0.05600071189642032)","(0.9945842410657634, 0.10393113923646441, 0.000711140387283058)",-0.005767574495913523,5.326689651298445,True,"(0.029910421102272162, 0.18160183909572525, 0.023999288099653494)","(-0.994584241065763, -0.10393113923646692, -0.0007111403872818769)",0.00023400145338051335,0.0
35,Move,"(-0.0017, 0.0, 0.00265)","(0.0, 0.060234803144828306, 0.0)","(0.0012071657926537014, 0.16036291740404374, 0.048034257615936764)","(0.004455131056872326, 0.0014035898125003153, 0.09566476555095037)","[-0.006156786397553885, 0.0008453101569576293, 0.00016518147058859622]","[-0.026750000193715096, 0.05299999937415123, 0.03999999910593033]","[0.0, -0.0, 0.5127366474833032]","[-0.06207059323787689, 0.11574117839336395, 0.03999999910593033]","[0.0, 0.0, -0.32245672916973056]","[0.026750000193715096, 0.05299999937415123, 0.03999999910593033]","[0.0, 0.0, -0.5341896832855855]","[0.06340835243463516, 0.11496906727552414, 0.03999999910593033]","[0.0, -0.0, 0.299892650668439]",0.5113554207323747,-0.3314881903837273,"(0.0, 0.0, 0.0, 0.0, 0.0, 0.0)",-4.922677292056158,-0.8331077941551749,0.500533823096415,"(0.0, 0.0, 0.0, 0.0, 0.0, 0.0)",-2.2034543145696657,-0.5353156013332289,-0.27022480869757004,"(0.0, 0.0, 0.0, 0.0, 0.0, 0.0)",4.607982609906137,0.8322452440981921,-0.4409009903391416,"(0.0, 0.0, 0.0, 0.0, 0.0, 0.0)",1.926897864994849,True,"(-0.02768717254200826, 0.18172953859166469, 0.05600071189642032)","(0.9945842410657634, 0.10393113923646441, 0.000711140387283058)",-0.004958118587672515,30.842584138831587,True,"(0.030519443449105982, 0.18149296331030168, 0.023999288099653494)","(-0.994584241065763, -0.10393113923646692, -0.0007111403872818769)",1.8397070100546848e-05,22.03597228948977
36,Move,"(-0.0045857, 0.0, 0.0056143)","(0.0, 0.08903797179049074, 0.0)","(0.0015655038540672724, 0.1604658316412912, 0.048116981636758906)","(0.0010323899954450733, 0.002621227621479592, 0.09398503475732832)","[-0.005798448336140313, 0.0009482243942050828, 0.00024790549141073814]","[-0.026750000193715096, 0.05299999937415123, 0.03999999910593033]","[0.0, -0.0, 0.5101068183032791]","[-0.06190546974539757, 0.11583384871482849, 0.03999999910593033]","[0.0, 0.0, -0.32118687329359114]","[0.026750000193715096, 0.05299999937415123, 0.03999999910593033]","[0.0, 0.0, -0.5363261153449757]","[0.06354065984487534, 0.11489060521125793, 0.03999999910593033]","[0.0, -0.0, 0.29434272219968044]",0.509682505658213,-0.10182502472826413,"(0.0, 0.0, 0.0, 0.0, 0.0, 0.0)",-3.4248903728322415,-0.8298284950179062,0.3516349609167091,"(0.0, 0.0, 0.0, 0.0, 0.0, 0.0)",-1.824896010198855,-0.5368334881557951,-0.12177875031656434,"(0.0, 0.0, 0.0, 0.0, 0.0, 0.0)",3.615459186963365,0.8293426174227716,-0.31828958445776256,"(0.0, 0.0, 0.0, 0.0, 0.0, 0.0)",1.6797471099324133,True,"(-0.027605875097792387, 0.18186581832862952, 0.05600071189642032)","(0.9945842410657634, 0.10393113923646441, 0.000711140387283058)",-0.0045414937261704855,26.089124058031317,True,"(0.03102145804602012, 0.18159600994243547, 0.023999288099653494)","(-0.994584241065763, -0.10393113923646692, -0.0007111403872818769)",8.017931991562353e-05,14.692292292986407
37,Move,"(-0.0067599999999999995, 0.0, 0.008039999999999999)","(0.0, 0.09035918603425043, 0.0)","(0.0017318607427967761, 0.16057056297012448, 0.048195422156617256)","(-0.001007290321066839, 0.0038336427609096052, 0.0927391011798538)","[-0.0056320914474108094, 0.0010529557230383735, 0.000326346011269088]","[-0.026750000193715096, 0.05299999937415123, 0.03999999910593033]","[0.0, -0.0, 0.5093023445213133]","[-0.06185491383075714, 0.11586210876703262, 0.03999999910593033]","[0.0, 0.0, -0.3191616015425271]","[0.026750000193715096, 0.05299999937415123, 0.03999999910593033]","[0.0, 0.0, -0.5372938485596628]","[0.06360054016113281, 0.11485497653484344, 0.03999999910593033]","[0.0, -0.0, 0.2908636293417238]",0.5093669670552765,0.015514685118206223,"(0.0, 0.0, 0.0, 0.0, 0.0, 0.0)",-3.6994465885195402,-0.8269672344388344,0.3592111487916524,"(0.0, 0.0, 0.0, 0.0, 0.0, 0.0)",-1.7808260656815595,-0.5372917698943682,0.0004996981658181437,"(0.0, 0.0, 0.0, 0.0, 0.0, 0.0)",3.267574652889678,0.8268742215935267,-0.3079858182096451,"(0.0, 0.0, 0.0, 0.0, 0.0, 0.0)",1.6028677891390277,True,"(-0.027689117551024628, 0.18196340837218014, 0.05600071189642032)","(0.9945842410657634, 0.10393113923646441, 0.000711140387283058)",-0.004149081443345008,26.99001351271151,True,"(0.03131360834196448, 0.18167310960486188, 0.023999288099653494)","(-0.994584241065763, -0.10393113923646692, -0.0007111403872818769)",0.00010297272866753851,8.958765071676481
38,Move,"(-0.0086923, 0.0, 0.010123100000000001)","(0.0, 0.08552462400622615, 0.0)","(0.001808182608537451, 0.1606742566149303, 0.04826284384528083)","(-0.0021259782370281755, 0.005141307817376049, 0.09202527529448395)","[-0.005555769581670134, 0.0011566493678441814, 0.00039376769993266364]","[-0.026750000193715096, 0.05299999937415123, 0.03999999910593033]","[0.0, -0.0, 0.5094182902485408]","[-0.06186220049858093, 0.1158580407500267, 0.03999999910593033]","[0.0, 0.0, -0.31629966455754693]","[0.026750000193715096, 0.05299999937415123, 0.03999999910593033]","[0.0, 0.0, -0.537284365862667]","[0.06359995156526566, 0.1148553267121315, 0.03999999910593033]","[0.0, -0.0, 0.288506649855459]",0.5098894031105814,0.11307242506098711,"(0.0, 0.0, 0.0, 0.0, 0.0, 0.0)",-3.0255759161603533,-0.8245205382478893,0.287366083408791,"(0.0, 0.0, 0.0, 0.0, 0.0, 0.0)",-1.4467658696302441,-0.5368782348766747,0.09746440246073372,"(0.0, 0.0, 0.0, 0.0, 0.0, 0.0)",2.7983166570487668,0.8246595021014176,-0.27156203668225387,"(0.0, 0.0, 0.0, 0.0, 0.0, 0.0)",1.4102407842614992,True,"(-0.027885727213574435, 0.18205684921503085, 0.05600071189642032)","(0.9945842410657634, 0.10393113923646441, 0.000711140387283058)",-0.0038150092797598423,21.934331697101783,True,"(0.03147059762931992, 0.18174937390102744, 0.023999288099653494)","(-0.994584241065763, -0.10393113923646692, -0.0007111403872818769)",0.0001720731483236929,2.400188152932001
39,Move,"(-0.0112133, 0.0, 0.01284)","(0.0, 0.07552563272155062, 0.0)","(0.0018097326182978802, 0.16076096092506087, 0.04830114924377708)","(-0.003417669443395423, 0.0055264759175087455, 0.09168200543091518)","[-0.005554219571909705, 0.0012433536779747623, 0.0004320730984289159]","[-0.026750000193715096, 0.05299999937415123, 0.03999999910593033]","[0.0, -0.0, 0.5103140427432294]","[-0.06191848963499069, 0.1158265620470047, 0.03999999910593033]","[0.0, 0.0, -0.3131044468955444]","[0.026750000193715096, 0.05299999937415123, 0.03999999910593033]","[0.0, 0.0, -0.536514844785413]","[0.06355233490467072, 0.1148836687207222, 0.03999999910593033]","[0.0, -0.0, 0.28708950123881116]",0.5112985227000766,0.23628467595675667,"(0.0, 0.0, 0.0, 0.0, 0.0, 0.0)",-2.133134230424877,-0.822591318727853,0.19851646872566447,"(0.0, 0.0, 0.0, 0.0, 0.0, 0.0)",-1.0396244915308466,-0.5356033207064477,0.21874282111499554,"(0.0, 0.0, 0.0, 0.0, 0.0, 0.0)",2.728572624769083,0.8225069852336936,-0.2633466221669165,"(0.0, 0.0, 0.0, 0.0, 0.0, 0.0)",1.3680629916080214,True,"(-0.0281537062349339, 0.18213359498951143, 0.05600071189642032)","(0.9945842410657634, 0.10393113923646441, 0.000711140387283058)",-0.0034903823845097524,17.03953078340663,True,"(0.031517815465482484, 0.18182318009281684, 0.023999288099653494)","(-0.994584241065763, -0.10393113923646692, -0.0007111403872818769)",0.00020372748008351812,0.0
40,Move,"(-0.01542, 0.0, 0.01712)","(0.0, 0.06267651876836838, 0.0)","(0.0016440752579706208, 0.16083146985683627, 0.04832340089032325)","(-0.004794096574504206, 0.004481815740022956, 0.09094532305865755)","[-0.005719876932236965, 0.001313862609750166, 0.00045432474497508063]","[-0.026750000193715096, 0.05299999937415123, 0.03999999910593033]","[0.0, -0.0, 0.512186898979885]","[-0.062036097049713135, 0.11576058715581894, 0.03999999910593033]","[0.0, 0.0, -0.3096003923848861]","[0.026750000193715096, 0.05299999937415123, 0.03999999910593033]","[0.0, 0.0, -0.5347931765028356]","[0.06344574689865112, 0.11494693160057068, 0.03999999910593033]","[0.0, -0.0, 0.28659740231092673]",0.5140350636574755,0.44356241222305126,"(0.0, 0.0, 0.0, 0.0, 0.0, 0.0)",-1.4935525017927216,-0.8210995985646897,0.16504502175690533,"(0.0, 0.0, 0.0, 0.0, 0.0, 0.0)",-0.7727108303800979,-0.5330220868137345,0.4250621444901553,"(0.0, 0.0, 0.0, 0.0, 0.0, 0.0)",2.9976120236025636,0.8202075103809161,-0.2839431421248076,"(0.0, 0.0, 0.0, 0.0, 0.0, 0.0)",1.5001041065153717,True,"(-0.028503862510695553, 0.1821855251392051, 0.05600071189642032)","(0.9945842410657634, 0.10393113923646441, 0.000711140387283058)",-0.0031718282243660156,14.953523821257697,True,"(0.031444167788196004, 0.1819022017865914, 0.023999288099653494)","(-0.994584241065763, -0.10393113923646692, -0.0007111403872818769)",0.00015169369341367763,3.5956275274262244
41,Move,"(-0.01932, 0.0, 0.0208867)","(0.0, 0.04332430802225524, 0.0)","(0.001286206967279281, 0.1608874756108199, 0.04837042735449653)","(-0.005985667463470784, 0.003655296141958308, 0.09075512645006338)","[-0.006077745222928305, 0.0013698683637337894, 0.0005013512091483624]","[-0.026750000193715096, 0.05299999937415123, 0.03999999910593033]","[0.0, -0.0, 0.5157009765797614]","[-0.06225642189383507, 0.11563620716333389, 0.03999999910593033]","[0.0, 0.0, -0.3047772057840485]","[0.026750000193715096, 0.05299999937415123, 0.03999999910593033]","[0.0, 0.0, -0.5314298427954652]","[0.06323719024658203, 0.11507000029087067, 0.03999999910593033]","[0.0, -0.0, 0.28765301374934]",0.5182613379683272,0.6145004294262779,"(0.0, 0.0, 0.0, 0.0, 0.0, 0.0)",-1.3944538774387794,-0.8198703699532905,0.1458630714512343,"(0.0, 0.0, 0.0, 0.0, 0.0, 0.0)",-0.6733723072192074,-0.5289430749430032,0.5968277730589887,"(0.0, 0.0, 0.0, 0.0, 0.0, 0.0)",2.876183761989377,0.8178707762031447,-0.29091312810555325,"(0.0, 0.0, 0.0, 0.0, 0.0, 0.0)",1.509014361809051,True,"(-0.02904495555832899, 0.18222210035438538, 0.05600071189642032)","(0.9945842410657634, 0.10393113923646441, 0.000711140387283058)",-0.0028857894665649283,13.67058018184287,True,"(0.03116495107422549, 0.18199145168041125, 0.023999288099653494)","(-0.994584241065763, -0.10393113923646692, -0.0007111403872818769)",9.733168126516821e-05,6.83185385543711
42,Move,"(-0.022366700000000003, 0.0, 0.02468)","(0.0, 0.030328586411905466, 0.0)","(0.0007724815839880463, 0.16093233320029354, 0.048426217532368754)","(-0.007051152626744303, 0.003004797966525279, 0.09128864565583439)","[-0.006591470606219539, 0.0014147259532074352, 0.0005571413870205863]","[-0.026750000193715096, 0.05299999937415123, 0.03999999910593033]","[0.0, -0.0, 0.5205660449656969]","[-0.06256072968244553, 0.11546272039413452, 0.03999999910593033]","[0.0, 0.0, -0.298751094016159]","[0.026750000193715096, 0.05299999937415123, 0.03999999910593033]","[0.0, 0.0, -0.526705502978171]","[0.06294354051351547, 0.11524168401956558, 0.03999999910593033]","[0.0, -0.0, 0.29006219874884787]",0.5236170851478597,0.7322459363513244,"(0.0, 0.0, 0.0, 0.0, 0.0, 0.0)",-1.3478762373090774,-0.8187575909723344,0.13428393192595162,"(0.0, 0.0, 0.0, 0.0, 0.0, 0.0)",-0.6230009733520557,-0.5236978634691593,0.7218362719246023,"(0.0, 0.0, 0.0, 0.0, 0.0, 0.0)",2.691207970899748,0.8155996136185006,-0.2803415951199021,"(0.0, 0.0, 0.0, 0.0, 0.0, 0.0)",1.4561249193621548,True,"(-0.029751126389219514, 0.1822475435924646, 0.05600071189642032)","(0.9945842410657634, 0.10393113923646441, 0.000711140387283058)",-0.0026342182969421686,12.965852243766536,True,"(0.030710175635299333, 0.18208567595763464, 0.023999288099653494)","(-0.994584241065763, -0.10393113923646692, -0.0007111403872818769)",7.885333083314175e-05,7.257989067547351
43,Move,"(-0.024739999999999998, 0.0, 0.0282067)","(0.0, 0.03050660999560889, 0.0)","(0.00015107688281321315, 0.16096505870152533, 0.048490694244427514)","(-0.00806108755220554, 0.002431020217897778, 0.09267546886232247)","[-0.007212875307394373, 0.0014474514544392247, 0.0006216180990793463]","[-0.026750000193715096, 0.05299999937415123, 0.03999999910593033]","[0.0, -0.0, 0.5263630628994826]","[-0.06292223185300827, 0.11525407433509827, 0.03999999910593033]","[0.0, 0.0, -0.29187966677921273]","[0.026750000193715096, 0.05299999937415123, 0.03999999910593033]","[0.0, 0.0, -0.5209917733941459]","[0.06258732080459595, 0.11544746905565262, 0.03999999910593033]","[0.0, -0.0, 0.29355535425970375]",0.5297587968276625,0.8149663752921099,"(0.0, 0.0, 0.0, 0.0, 0.0, 0.0)",-1.3022467335595802,-0.8177108359886721,0.12766743751359472,"(0.0, 0.0, 0.0, 0.0, 0.0, 0.0)",-0.5888321404976177,-0.5175924715411395,0.8158351048250965,"(0.0, 0.0, 0.0, 0.0, 0.0, 0.0)",2.53325536279655,0.8134271057557085,-0.26880425599854735,"(0.0, 0.0, 0.0, 0.0, 0.0, 0.0)",1.387876699947015,True,"(-0.030572295701217965, 0.18226276727208326, 0.05600071189642032)","(0.9945842410657634, 0.10393113923646441, 0.000711140387283058)",-0.0024142717868841663,12.472174840435624,True,"(0.030120655623623142, 0.18217845540226443, 0.023999288099653494)","(-0.994584241065763, -0.10393113923646692, -0.0007111403872818769)",7.132144141604639e-05,7.108316317639912
44,Move,"(-0.027760000000000003, 0.0, 0.03118)","(0.0, 0.040257764526501205, 0.0)","(-0.0005748534816527066, 0.1609839226326531, 0.048560994875544584)","(-0.008981892872887412, 0.001968767205625301, 0.09491394793412888)","[-0.007938805671860293, 0.0014663153855669908, 0.0006919187301964169]","[-0.026750000193715096, 0.05299999937415123, 0.03999999910593033]","[0.0, -0.0, 0.532815087340921]","[-0.06332313269376755, 0.11501939594745636, 0.03999999910593033]","[0.0, 0.0, -0.284414165265103]","[0.026750000193715096, 0.05299999937415123, 0.03999999910593033]","[0.0, 0.0, -0.5145333379560338]","[0.06218326464295387, 0.1156776174902916, 0.03999999910593033]","[0.0, -0.0, 0.2978834029901363]",0.5366939735327632,0.9309287432075889,"(0.0, 0.0, 0.0, 0.0, 0.0, 0.0)",-1.170247204364599,-0.8167206931360667,0.1220548360341581,"(0.0, 0.0, 0.0, 0.0, 0.0, 0.0)",-0.5496440288070537,-0.5105679169013149,0.9516987988984875,"(0.0, 0.0, 0.0, 0.0, 0.0, 0.0)",2.5005703255402145,0.8113345974468559,-0.259714588759482,"(0.0, 0.0, 0.0, 0.0, 0.0, 0.0)",1.3406715525999564,True,"(-0.031474355498027524, 0.18226772969268495, 0.05600071189642032)","(0.9945842410657634, 0.10393113923646441, 0.000711140387283058)",-0.0022235388639827384,11.995098968744637,True,"(0.02942808512901978, 0.18226746246375342, 0.023999288099653494)","(-0.994584241065763, -0.10393113923646692, -0.0007111403872818769)",6.867604486848925e-05,7.205661395574456
45,Move,"(-0.03052, 0.0, 0.0335067)","(0.0, 0.047082001901799043, 0.0)","(-0.001407299212277397, 0.16098731274658293, 0.04863646372640483)","(-0.00985572208786167, 0.001580348779522405, 0.09802802704774691)","[-0.008771251402484984, 0.0014697054994968206, 0.0007673875810566624]","[-0.026750000193715096, 0.05299999937415123, 0.03999999910593033]","[0.0, -0.0, 0.5401847135159262]","[-0.06377919763326645, 0.11474818736314774, 0.03999999910593033]","[0.0, 0.0, -0.27607987207074297]","[0.026750000193715096, 0.05299999937415123, 0.03999999910593033]","[0.0, 0.0, -0.50699890678286]","[0.061710014939308167, 0.1159428060054779, 0.03999999910593033]","[0.0, -0.0, 0.3033674477034098]",0.544439822010425,1.0212193907857519,"(0.0, 0.0, 0.0, 0.0, 0.0, 0.0)",-1.1956327298346918,-0.815757056905689,0.12181104486528813,"(0.0, 0.0, 0.0, 0.0, 0.0, 0.0)",-0.5509472766466438,-0.5025661232510112,1.0638458135949853,"(0.0, 0.0, 0.0, 0.0, 0.0, 0.0)",2.4715263169806057,0.8092866383483015,-0.2591166331362007,"(0.0, 0.0, 0.0, 0.0, 0.0, 0.0)",1.3373151895130453,True,"(-0.03249198535374829, 0.1822596155520944, 0.05600071189642032)","(0.9945842410657634, 0.10393113923646441, 0.000711140387283058)",-0.0020568872548366586,12.056948138893478,True,"(0.02859014985647356, 0.18235202138062503, 0.023999288099653494)","(-0.994584241065763, -0.10393113923646692, -0.0007111403872818769)",5.737226856534496e-05,8.179842090313823
46,Move,"(-0.0321333, 0.0, 0.03506)","(0.0, 0.04752706086105759, 0.0)","(-0.002312620652880283, 0.16098065721156232, 0.04871107385878897)","(-0.010728530388974191, 0.0012100148820582426, 0.10144989507506427)","[-0.009676572843087868, 0.0014630499644762152, 0.0008419977134408035]","[-0.026750000193715096, 0.05299999937415123, 0.03999999910593033]","[0.0, -0.0, 0.5482689169993791]","[-0.06427716463804245, 0.11444681882858276, 0.03999999910593033]","[0.0, 0.0, -0.2670320773832991]","[0.026750000193715096, 0.05299999937415123, 0.03999999910593033]","[0.0, 0.0, -0.4985766027118423]","[0.06117866560816765, 0.11623501032590866, 0.03999999910593033]","[0.0, -0.0, 0.3097479047545215]",0.5526252168845821,1.0455168602795066,"(0.0, 0.0, 0.0, 0.0, 0.0, 0.0)",-1.2766095197471805,-0.8147954204673885,0.12134105677297494,"(0.0, 0.0, 0.0, 0.0, 0.0, 0.0)",-0.560118569127722,-0.4939640067264226,1.1070257714349687,"(0.0, 0.0, 0.0, 0.0, 0.0, 0.0)",2.3605504798213555,0.8072588881570958,-0.2557396200715168,"(0.0, 0.0, 0.0, 0.0, 0.0, 0.0)",1.3134308597037285,True,"(-0.0336020506781934, 0.18223856303753744, 0.05600071189642032)","(0.9945842410657634, 0.10393113923646441, 0.000711140387283058)",-0.0019162952305372954,12.085066722183921,True,"(0.027635760358506914, 0.18243155819358015, 0.023999288099653494)","(-0.994584241065763, -0.10393113923646692, -0.0007111403872818769)",4.5596514517499334e-05,9.106791796327133
47,Move,"(-0.0342533, 0.0, 0.0356)","(0.0, 0.045001569433421804, 0.0)","(-0.0032761182623248473, 0.16096377215104674, 0.04878346148634705)","(-0.011622742193532546, 0.0008389310780898006, 0.10505367003549997)","[-0.010640070452532433, 0.0014461649039606284, 0.0009143853409988856]","[-0.026750000193715096, 0.05299999937415123, 0.03999999910593033]","[0.0, -0.0, 0.5565455436428146]","[-0.0647844523191452, 0.11413411796092987, 0.03999999910593033]","[0.0, 0.0, -0.2577934573242519]","[0.026750000193715096, 0.05299999937415123, 0.03999999910593033]","[0.0, 0.0, -0.48981279267463207]","[0.0606231689453125, 0.11653430759906769, 0.03999999910593033]","[0.0, -0.0, 0.31649293497713327]",0.5611166457697114,1.097056258411594,"(0.0, 0.0, 0.0, 0.0, 0.0, 0.0)",-1.2663440584819876,-0.8138208985662118,0.12434213444063597,"(0.0, 0.0, 0.0, 0.0, 0.0, 0.0)",-0.5727631224752155,-0.4848891888629978,1.181653640190846,"(0.0, 0.0, 0.0, 0.0, 0.0, 0.0)",2.4617363083475508,0.8052245019699354,-0.25948494408495393,"(0.0, 0.0, 0.0, 0.0, 0.0, 0.0)",1.3442495424098475,True,"(-0.03473694295103529, 0.18220636254658995, 0.05600071189642032)","(0.9945842410657634, 0.10393113923646441, 0.000711140387283058)",-0.0017967921440499553,12.359533306848935,True,"(0.026634526887917835, 0.18250310028368746, 0.023999288099653494)","(-0.994584241065763, -0.10393113923646692, -0.0007111403872818769)",3.330151509993193e-05,10.456229499382294
48,Move,"(-0.0368667, 0.0, 0.03566)","(0.0, 0.03873234676025816, 0.0)","(-0.004323384259969878, 0.16093730868492687, 0.0488535036213959)","(-0.012561891147926376, 0.00045376079943001393, 0.10875142043349076)","[-0.011687336450177464, 0.001419701437840759, 0.000984427476047732]","[-0.026750000193715096, 0.05299999937415123, 0.03999999910593033]","[0.0, -0.0, 0.5652300244561868]","[-0.0653139278292656, 0.113801509141922, 0.03999999910593033]","[0.0, 0.0, -0.24812413455534874]","[0.026750000193715096, 0.05299999937415123, 0.03999999910593033]","[0.0, 0.0, -0.480458003045632]","[0.0600273422896862, 0.1168484017252922, 0.03999999910593033]","[0.0, -0.0, 0.3238041519480163]",0.5700840155164787,1.1649574485525798,"(0.0, 0.0, 0.0, 0.0, 0.0, 0.0)",-1.293092167499222,-0.8128122184640455,0.1300642500568811,"(0.0, 0.0, 0.0, 0.0, 0.0, 0.0)",-0.5981077005884929,-0.4751385612457188,1.2766538648326544,"(0.0, 0.0, 0.0, 0.0, 0.0, 0.0)",2.587245266107961,0.803144512093345,-0.2682228646903898,"(0.0, 0.0, 0.0, 0.0, 0.0, 0.0)",1.3935248367061137,True,"(-0.03592602247500378, 0.1821611043777514, 0.05600071189642032)","(0.9945842410657634, 0.10393113923646441, 0.000711140387283058)",-0.0016988471019200955,12.853642683068843,True,"(0.025557303997919688, 0.1825669330926496, 0.023999288099653494)","(-0.994584241065763, -0.10393113923646692, -0.0007111403872818769)",2.0703588507749984e-05,12.073299783154708
49,Move,"(-0.037393300000000004, 0.0, 0.0354333)","(0.0, 0.033718015819278455, 0.0)","(-0.0054048371053805845, 0.16090711622743786, 0.048920799987134084)","(-0.01355024199687083, 4.475661603417864e-05, 0.11221368797005171)","[-0.012768789295588171, 0.0013895089803517557, 0.0010517238417859162]","[-0.026750000193715096, 0.05299999937415123, 0.03999999910593033]","[0.0, -0.0, 0.5744517112933858]","[-0.06587296724319458, 0.11344330757856369, 0.03999999910593033]","[0.0, 0.0, -0.2378739632190613]","[0.026750000193715096, 0.05299999937415123, 0.03999999910593033]","[0.0, 0.0, -0.47035098564354927]","[0.059380341321229935, 0.11718146502971649, 0.03999999910593033]","[0.0, -0.0, 0.3318042756646298]",0.5791200469687898,1.120401233079628,"(0.0, 0.0, 0.0, 0.0, 0.0, 0.0)",-1.456981228436405,-0.8117770585746341,0.1316607484234153,"(0.0, 0.0, 0.0, 0.0, 0.0, 0.0)",-0.6230774106350302,-0.4651517652322621,1.247807037270575,"(0.0, 0.0, 0.0, 0.0, 0.0, 0.0)",2.4046493881489104,0.8010435433071306,-0.26680779393925097,"(0.0, 0.0, 0.0, 0.0, 0.0, 0.0)",1.3634627420219527,True,"(-0.037187297423263696, 0.18210053510563856, 0.05600071189642032)","(0.9945842410657634, 0.10393113923646441, 0.000711140387283058)",-0.0016224226435400581,13.026248333349308,True,"(0.02438565224065649, 0.18262213533929633, 0.023999288099653494)","(-0.994584241065763, -0.10393113923646692, -0.0007111403872818769)",7.718514601214718e-06,13.192976367912879
50,Move,"(-0.0369133, 0.0, 0.03516)","(0.0, 0.03138451060936204, 0.0)","(-0.00643760336946912, 0.1608743402909611, 0.04898557201614789)","(-0.01457535195273998, -0.00038256830721769867, 0.11545775289489583)","[-0.013801555559676706, 0.0013567330438749858, 0.0011164958707997191]","[-0.026750000193715096, 0.05299999937415123, 0.03999999910593033]","[0.0, -0.0, 0.5833213549513172]","[-0.06640753149986267, 0.11309392750263214, 0.03999999910593033]","[0.0, 0.0, -0.22795783738493486]","[0.026750000193715096, 0.05299999937415123, 0.03999999910593033]","[0.0, 0.0, -0.4604728240771389]","[0.05874476209282875, 0.1175006628036499, 0.03999999910593033]","[0.0, -0.0, 0.33957834919435154]",0.5876430822324643,1.0372233378015012,"(0.0, 0.0, 0.0, 0.0, 0.0, 0.0)",-1.5223591996508803,-0.8107320061848293,0.13131760386529356,"(0.0, 0.0, 0.0, 0.0, 0.0, 0.0)",-0.630855082710173,-0.45558070894172364,1.1741029852660871,"(0.0, 0.0, 0.0, 0.0, 0.0, 0.0)",2.321450904989887,0.7989456482093813,-0.2653181444144511,"(0.0, 0.0, 0.0, 0.0, 0.0, 0.0)",1.3477647493854656,True,"(-0.03839105658489929, 0.18194932155333188, 0.056000171765524166)","(0.9935397397630416, 0.11348460806948564, 0.00017100556493598846)",-0.0015596398094874242,13.149551188449555,True,"(0.023239371196347253, 0.1826912430832957, 0.023999828234475815)","(-0.9935397397630449, -0.11348460806945512, -0.00017100556495952158)",-3.3567657145252974e-06,13.942163646532094
51,Move,"(-0.0376533, 0.0, 0.03494)","(0.0, 0.032911673704857085, 0.0)","(-0.007458690972704325, 0.16087171065562292, 0.04906294837065871)","(-0.01717399022556568, -0.00040394725823848625, 0.11847421137707406)","[-0.01482264316291191, 0.0013541034085368109, 0.0011938722253105397]","[-0.026750000193715096, 0.05299999937415123, 0.03999999910593033]","[0.0, -0.0, 0.5915327538668242]","[-0.06689964234828949, 0.11276626586914062, 0.03999999910593033]","[0.0, 0.0, -0.21870099113788286]","[0.026750000193715096, 0.05299999937415123, 0.03999999910593033]","[0.0, 0.0, -0.45117849093587953]","[0.05814389884471893, 0.11779524385929108, 0.03999999910593033]","[0.0, -0.0, 0.34677324925986663]",0.5958057441688638,1.0255375620964495,"(0.0, 0.0, 0.0, 0.0, 0.0, 0.0)",-1.777525161166099,-0.8095062137143864,0.17458355033399098,"(0.0, 0.0, 0.0, 0.0, 0.0, 0.0)",-0.8012846508790489,-0.4462643505670131,1.1793797990886108,"(0.0, 0.0, 0.0, 0.0, 0.0, 0.0)",2.4571792919243034,0.7968726497886205,-0.25896403305258486,"(0.0, 0.0, 0.0, 0.0, 0.0, 0.0)",1.360704024078134,True,"(-0.03952101259509633, 0.1818719843608084, 0.056000609222386095)","(0.9931772844944714, 0.11661265513512144, 0.0006084624268712685)",-0.0015052058307867648,14.477177103075492,True,"(0.02216990848725888, 0.18273269865731545, 0.0239993907776139)","(-0.9931772844944707, -0.11661265513512743, -0.0006084624268779468)",-1.7874241975000118e-05,13.469718254451205
52,Move,"(-0.038186700000000004, 0.0, 0.03488)","(0.0, 0.03816686008261199, 0.0)","(-0.008477668361097198, 0.1608906620585396, 0.04915449965911067)","(-0.021188677165063577, -5.897112441975071e-06, 0.1215180439430585)","[-0.015841620551304784, 0.0013730548114535002, 0.0012854235137625056]","[-0.026750000193715096, 0.05299999937415123, 0.03999999910593033]","[0.0, -0.0, 0.5996492825278588]","[-0.06738341599702835, 0.11243841797113419, 0.03999999910593033]","[0.0, 0.0, -0.2092172625766314]","[0.026750000193715096, 0.05299999937415123, 0.03999999910593033]","[0.0, 0.0, -0.44184054778093423]","[0.05753748491406441, 0.11808556318283081, 0.03999999910593033]","[0.0, -0.0, 0.35410159884661324]",0.6038035420799254,0.9970211866339961,"(0.0, 0.0, 0.0, 0.0, 0.0, 0.0)",-1.7891787734127618,-0.8081570810947766,0.1702655596342345,"(0.0, 0.0, 0.0, 0.0, 0.0, 0.0)",-0.8115093299640834,-0.43697744266504995,1.1671406234720372,"(0.0, 0.0, 0.0, 0.0, 0.0, 0.0)",2.4190442434997084,0.7948588711818001,-0.25997603357639076,"(0.0, 0.0, 0.0, 0.0, 0.0, 0.0)",1.3458491015501268,True,"(-0.040660595812277926, 0.1817942916247212, 0.05600021320523326)","(0.992817596513008, 0.11963768186127605, 0.00021244527403444487)",-0.0014600445826773846,14.363381192386232,True,"(0.021088061558082162, 0.18276190172839873, 0.02399978679476675)","(-0.992817596513007, -0.11963768186128097, -0.00021244527402729897)",1.6227972667672896e-07,13.142238795170707
53,Move,"(-0.0382933, 0.0, 0.0348733)","(0.0, 0.038168605411864, 0.0)","(-0.009455128704777738, 0.16086706923917649, 0.049223254995873704)","(-0.023345844799395252, -7.954114109068295e-05, 0.12446276507831502)","[-0.016819080894985322, 0.0013494619920903783, 0.0013541788505255364]","[-0.026750000193715096, 0.05299999937415123, 0.03999999910593033]","[0.0, -0.0, 0.6075419338109945]","[-0.06785126775503159, 0.11211586743593216, 0.03999999910593033]","[0.0, 0.0, -0.19998456605849843]","[0.026750000193715096, 0.05299999937415123, 0.03999999910593033]","[0.0, 0.0, -0.4326001601570092]","[0.056934770196676254, 0.1183672696352005, 0.03999999910593033]","[0.0, -0.0, 0.36128970284420425]",0.6114895230405456,0.9474458964820514,"(0.0, 0.0, 0.0, 0.0, 0.0, 0.0)",-1.5867070003044348,-0.8069454359005422,0.1394300957297713,"(0.0, 0.0, 0.0, 0.0, 0.0, 0.0)",-0.680211319167264,-0.42789926716532095,1.1282268494595944,"(0.0, 0.0, 0.0, 0.0, 0.0, 0.0)",2.482127651790776,0.7927178235924763,-0.2813006540380485,"(0.0, 0.0, 0.0, 0.0, 0.0, 0.0)",1.4177429655630327,True,"(-0.041769915554439915, 0.18171550613235174, 0.05600021320523326)","(0.992817596513008, 0.11963768186127605, 0.00021244527403444487)",-0.0014229973050156317,13.84971832571949,True,"(0.020021388858391637, 0.1827799336886264, 0.02399978679476675)","(-0.992817596513007, -0.11963768186128097, -0.00021244527402729897)",9.829379927603223e-06,13.653047570941197
54,Move,"(-0.0391733, 0.0, 0.0348933)","(0.0, 0.04053003588981232, 0.0)","(-0.01040736158120464, 0.16081224335146707, 0.04928262645498145)","(-0.02445259891875227, -0.0005817301245177072, 0.1274500197253281)","[-0.017771313771412226, 0.001294636104380964, 0.0014135503096332838]","[-0.026750000193715096, 0.05299999937415123, 0.03999999910593033]","[0.0, -0.0, 0.6150425775009505]","[-0.06829351931810379, 0.11180591583251953, 0.03999999910593033]","[0.0, 0.0, -0.19137301176485746]","[0.026750000193715096, 0.05299999937415123, 0.03999999910593033]","[0.0, 0.0, -0.4236694080393624]","[0.05634978786110878, 0.11863423138856888, 0.03999999910593033]","[0.0, -0.0, 0.36798468707134996]",0.6189665999592912,0.9417542175226516,"(0.0, 0.0, 0.0, 0.0, 0.0, 0.0)",-1.605327937701552,-0.8057887490694049,0.15044697646662367,"(0.0, 0.0, 0.0, 0.0, 0.0, 0.0)",-0.7052872188510332,-0.4189164500030428,1.1407013042073726,"(0.0, 0.0, 0.0, 0.0, 0.0, 0.0)",2.6924861317050857,0.7904330640126339,-0.29304023718451144,"(0.0, 0.0, 0.0, 0.0, 0.0, 0.0)",1.4987359898820942,True,"(-0.04281092605000541, 0.18161575073860092, 0.05600032094650053)","(0.9920919865850902, 0.12551249991227073, 0.0003201865413099758)",-0.0014005205490714985,14.482139970810593,True,"(0.019004965260066696, 0.18280621859037594, 0.02399967905349944)","(-0.9920919865850893, -0.12551249991227822, -0.00032018654133037205)",-7.256808985921246e-06,15.755829083498721
55,Move,"(-0.0403267, 0.0, 0.03484)","(0.0, 0.04161912134305677, 0.0)","(-0.011407947014328425, 0.16081757756232035, 0.049375804820487396)","(-0.028675087699855845, -0.0001998225013446989, 0.1305027347658857)","[-0.01877189920453601, 0.001299970315234239, 0.001506728675139228]","[-0.026750000193715096, 0.05299999937415123, 0.03999999910593033]","[0.0, -0.0, 0.6225057086481545]","[-0.06873123347759247, 0.11149424314498901, 0.03999999910593033]","[0.0, 0.0, -0.18253343004656664]","[0.026750000193715096, 0.05299999937415123, 0.03999999910593033]","[0.0, 0.0, -0.4146401846252932]","[0.055755965411663055, 0.11889881640672684, 0.03999999910593033]","[0.0, -0.0, 0.37479273779872685]",0.6264474659556186,0.9460334053623696,"(0.0, 0.0, 0.0, 0.0, 0.0, 0.0)",-1.9672285712687445,-0.8042343898041135,0.1931336823204174,"(0.0, 0.0, 0.0, 0.0, 0.0, 0.0)",-0.9229517401462712,-0.40978669788726974,1.1648342477257174,"(0.0, 0.0, 0.0, 0.0, 0.0, 0.0)",2.6865541415575245,0.7882678441657104,-0.2796146902675234,"(0.0, 0.0, 0.0, 0.0, 0.0, 0.0)",1.4552249426458033,True,"(-0.0438659395553423, 0.1815207876657618, 0.05600040087745523)","(0.9917138806850404, 0.12846563261280036, 0.0004001174960009013)",-0.0013892166165646435,16.012873501460888,True,"(0.017974626341808277, 0.18281886978395612, 0.023999599122544776)","(-0.991713880685041, -0.12846563261279567, -0.0004001174960005431)",-2.681125672670736e-06,14.75502183042218
56,Move,"(-0.0403267, 0.0, 0.034653300000000005)","(0.0, 0.04187044875534397, 0.0)","(-0.012386487746012325, 0.16081261303760144, 0.04946048991289132)","(-0.03252883358262565, 8.53750851254825e-05, 0.13331749526476794)","[-0.01975043993621991, 0.0012950057905153356, 0.0015914137675431539]","[-0.026750000193715096, 0.05299999937415123, 0.03999999910593033]","[0.0, -0.0, 0.629994633399151]","[-0.0691681057214737, 0.1111782118678093, 0.03999999910593033]","[0.0, 0.0, -0.17352251979525074]","[0.026750000193715096, 0.05299999937415123, 0.03999999910593033]","[0.0, 0.0, -0.4054182260864178]","[0.05514702573418617, 0.11916349828243256, 0.03999999910593033]","[0.0, -0.0, 0.38180410954104677]",0.6337057292453203,0.890681130570259,"(0.0, 0.0, 0.0, 0.0, 0.0, 0.0)",-2.0502733629828587,-0.8027171217977292,0.1919863078330299,"(0.0, 0.0, 0.0, 0.0, 0.0, 0.0)",-0.927489405226551,-0.40076491535292563,1.116799724586727,"(0.0, 0.0, 0.0, 0.0, 0.0, 0.0)",2.5999408606176884,0.7860438155999251,-0.2828437686061682,"(0.0, 0.0, 0.0, 0.0, 0.0, 0.0)",1.45892816055047,True,"(-0.044934405455492155, 0.1814229339976881, 0.05600020058245922)","(0.991496577027658, 0.13013261625513248, 0.00019982249999619551)",-0.0013834604341063162,16.221251238486726,True,"(0.016917929467185414, 0.182820980573839, 0.023999950881047165)","(-0.9913131693011383, -0.13152261414502253, -4.835899361417959e-05)",6.807600892809619e-06,14.146963271572462
57,Move,"(-0.040299999999999996, 0.0, 0.034513300000000004)","(0.0, 0.04027172716051716, 0.0)","(-0.013288290938458944, 0.16074910460392158, 0.04952001737670149)","(-0.03370292313447232, -0.0004836006594591355, 0.13605569215080773)","[-0.02065224312866653, 0.001231497356835476, 0.0016509412313533214]","[-0.026750000193715096, 0.05299999937415123, 0.03999999910593033]","[0.0, -0.0, 0.6370400091166137]","[-0.0695769414305687, 0.11087791621685028, 0.03999999910593033]","[0.0, 0.0, -0.1651077096985078]","[0.026750000193715096, 0.05299999937415123, 0.03999999910593033]","[0.0, 0.0, -0.3965769436994648]","[0.05456095188856125, 0.11941197514533997, 0.03999999910593033]","[0.0, -0.0, 0.388303765541968]",0.6405407341905245,0.8401690296792041,"(0.0, 0.0, 0.0, 0.0, 0.0, 0.0)",-1.8205851534585196,-0.801459860766012,0.16508703206451575,"(0.0, 0.0, 0.0, 0.0, 0.0, 0.0)",-0.7829092291151991,-0.39210278893897066,1.0737976696412037,"(0.0, 0.0, 0.0, 0.0, 0.0, 0.0)",2.8041993482102656,0.7835709843193613,-0.3143379818948816,"(0.0, 0.0, 0.0, 0.0, 0.0, 0.0)",1.5944754781221957,True,"(-0.045934005398867044, 0.18131560026211763, 0.05600019314430135)","(0.990951018560464, 0.13422384960298092, 0.00019238434212778314)",-0.0013824757076840804,15.6357795344939,True,"(0.015918398249848788, 0.18282337681346217, 0.023999806855698646)","(-0.9909510185604647, -0.13422384960297554, -0.00019238434213108795)",-2.5988880980302383e-06,16.541871865254215
58,Move,"(-0.040380000000000006, 0.0, 0.0344067)","(0.0, 0.03906744997664107, 0.0)","(-0.014159113341995572, 0.16068633810014646, 0.04957514136993184)","(-0.03494099261471658, -0.0011043988307391538, 0.1384858234089214)","[-0.021523065532203157, 0.0011687308530603513, 0.0017060652245836708]","[-0.026750000193715096, 0.05299999937415123, 0.03999999910593033]","[0.0, -0.0, 0.6436908392553924]","[-0.06996092200279236, 0.11059180647134781, 0.03999999910593033]","[0.0, 0.0, -0.1571491948192632]","[0.026750000193715096, 0.05299999937415123, 0.03999999910593033]","[0.0, 0.0, -0.38807630547047894]","[0.05399541184306145, 0.11964599043130875, 0.03999999910593033]","[0.0, -0.0, 0.3943230982138231]",0.6470164157600159,0.7981571490843558,"(0.0, 0.0, 0.0, 0.0, 0.0, 0.0)",-1.8593580561275913,-0.8001361836674821,0.16890433320173343,"(0.0, 0.0, 0.0, 0.0, 0.0, 0.0)",-0.8073864187691648,-0.3837374605364387,1.0413252437555574,"(0.0, 0.0, 0.0, 0.0, 0.0, 0.0)",2.876860347280455,0.7810647359855175,-0.32033617591383867,"(0.0, 0.0, 0.0, 0.0, 0.0, 0.0)",1.624351321060808,True,"(-0.04687856004918608, 0.18121011421304417, 0.05600079066527007)","(0.9905985609211694, 0.13679863723922214, 0.0007899053108457459)",-0.0013878731455389435,15.946527052285708,True,"(0.01497138855798244, 0.18282702138453047, 0.023999209334729918)","(-0.9905985609211684, -0.13679863723922792, -0.0007899053108563699)",-2.1744484287384355e-05,17.69217425546588
59,Move,"(-0.0404867, 0.0, 0.0343667)","(0.0, 0.03601835977340698, 0.0)","(-0.015028123195538584, 0.16068207804310822, 0.04966911812656363)","(-0.03912998055006681, -0.0006051801863198857, 0.14141035532482985)","[-0.02239207538574617, 0.0011644707960221101, 0.0018000419812154653]","[-0.026750000193715096, 0.05299999937415123, 0.03999999910593033]","[0.0, -0.0, 0.6500174358045367]","[-0.07032442092895508, 0.11031727492809296, 0.03999999910593033]","[0.0, 0.0, -0.14924964123596607]","[0.026750000193715096, 0.05299999937415123, 0.03999999910593033]","[0.0, 0.0, -0.37983429319987067]","[0.05344519764184952, 0.11986827850341797, 0.03999999910593033]","[0.0, -0.0, 0.400173291571326]",0.6531817365139386,0.7594306752112663,"(0.0, 0.0, 0.0, 0.0, 0.0, 0.0)",-2.2739160895443984,-0.7983402764832858,0.2224376782310418,"(0.0, 0.0, 0.0, 0.0, 0.0, 0.0)",-1.0735236977332356,-0.37563188962128874,1.0085896779585513,"(0.0, 0.0, 0.0, 0.0, 0.0, 0.0)",2.739324905623366,0.7788160770528415,-0.28597353966392347,"(0.0, 0.0, 0.0, 0.0, 0.0, 0.0)",1.488430704044236,True,"(-0.04779986801758456, 0.18111044651435837, 0.056000878364412435)","(0.9902428367694034, 0.13934975434965272, 0.000877604453208238)",-0.00139866515261257,17.665846287016088,True,"(0.014051766174604859, 0.18282317714565957, 0.023999121635587557)","(-0.9902428367694025, -0.1393497543496578, -0.0008776044532177402)",-1.661362925596937e-05,16.294009147719578
60,Move,"(-0.0405133, 0.0, 0.0343867)","(0.0, 0.03314554782462431, 0.0)","(-0.01585340097946713, 0.16067613381841736, 0.04975967903465847)","(-0.04317077209604871, -0.00013766050197150734, 0.1442283208826315)","[-0.023217353169674715, 0.0011585265713312531, 0.0018906028893103041]","[-0.026750000193715096, 0.05299999937415123, 0.03999999910593033]","[0.0, -0.0, 0.6560295058831896]","[-0.07066822797060013, 0.11005426943302155, 0.03999999910593033]","[0.0, 0.0, -0.1414699081622332]","[0.026750000193715096, 0.05299999937415123, 0.03999999910593033]","[0.0, 0.0, -0.3718499413109004]","[0.052910447120666504, 0.12007928639650345, 0.03999999910593033]","[0.0, -0.0, 0.40589600273032295]",0.6590167161841641,0.7169236485668866,"(0.0, 0.0, 0.0, 0.0, 0.0, 0.0)",-2.2820320398398395,-0.796575309505805,0.22178968527793935,"(0.0, 0.0, 0.0, 0.0, 0.0, 0.0)",-1.0705623082439732,-0.3678014118463011,0.9716438155117613,"(0.0, 0.0, 0.0, 0.0, 0.0, 0.0)",2.7635513120309403,0.776531073385954,-0.2915662012284099,"(0.0, 0.0, 0.0, 0.0, 0.0, 0.0)",1.510814670151662,True,"(-0.04869441719962045, 0.18101582846980452, 0.056000355504307334)","(0.9898166784646145, 0.14234752259777927, 0.0003547443481054817)",-0.0014062524753194823,17.78244762582014,True,"(0.013157002970770416, 0.18281038873745356, 0.023999644495692665)","(-0.9898166784646145, -0.1423475225977786, -0.00035474434811369726)",-2.0813081071711474e-06,15.848807775961669
61,Move,"(-0.040740000000000005, 0.0, 0.03454)","(0.0, 0.029564132199531953, 0.0)","(-0.016628973720900744, 0.16063671391701956, 0.0498244942720191)","(-0.04536936088504223, -0.0003152842426439708, 0.1465500560048623)","[-0.02399292591110833, 0.0011191066699334506, 0.001955418126670931]","[-0.026750000193715096, 0.05299999937415123, 0.03999999910593033]","[0.0, -0.0, 0.6617045691083531]","[-0.07099130004644394, 0.10980410873889923, 0.03999999910593033]","[0.0, 0.0, -0.13405174019098812]","[0.026750000193715096, 0.05299999937415123, 0.03999999910593033]","[0.0, 0.0, -0.36415703429516266]","[0.05239364504814148, 0.12027855217456818, 0.03999999910593033]","[0.0, -0.0, 0.4112820322659524]",0.66455618924152,0.6843909505323715,"(0.0, 0.0, 0.0, 0.0, 0.0, 0.0)",-1.9209480183937597,-0.7950451359094987,0.17068549331467825,"(0.0, 0.0, 0.0, 0.0, 0.0, 0.0)",-0.8477645422166806,-0.36020384741988615,0.9487693893714084,"(0.0, 0.0, 0.0, 0.0, 0.0, 0.0)",2.9394838017915768,0.774069085289187,-0.32879977894385054,"(0.0, 0.0, 0.0, 0.0, 0.0, 0.0)",1.6497781549227262,True,"(-0.04954377245050724, 0.1809218732761526, 0.055999976143340464)","(0.9894558644002981, 0.14483470508783763, -2.4616618757998465e-05)",-0.0014160939449334683,16.338170703140634,True,"(0.012302696910867328, 0.18279605137070193, 0.023999861579539244)","(-0.9896171036553674, -0.14372880435858434, -0.0001376605015349911)",8.669658793846501e-06,17.136561169369696
62,Move,"(-0.04072, 0.0, 0.03458)","(0.0, 0.028038714433288904, 0.0)","(-0.017369684153758794, 0.1605780398025169, 0.04987861593854524)","(-0.04669143603401998, -0.0010643071872215332, 0.14852806864329218)","[-0.02473363634396638, 0.0010604325554307847, 0.002009539793197075]","[-0.026750000193715096, 0.05299999937415123, 0.03999999910593033]","[0.0, -0.0, 0.6671239285590749]","[-0.0712984949350357, 0.10956352204084396, 0.03999999910593033]","[0.0, 0.0, -0.12725657477827382]","[0.026750000193715096, 0.05299999937415123, 0.03999999910593033]","[0.0, 0.0, -0.35664848537122185]","[0.051887765526771545, 0.12046919763088226, 0.03999999910593033]","[0.0, -0.0, 0.4161559391310963]",0.6698099136848263,0.6446432979698765,"(0.0, 0.0, 0.0, 0.0, 0.0, 0.0)",-2.0263868618540015,-0.7936087679578249,0.1852095165901828,"(0.0, 0.0, 0.0, 0.0, 0.0, 0.0)",-0.8900957974307512,-0.35284727184793335,0.9122964221503489,"(0.0, 0.0, 0.0, 0.0, 0.0, 0.0)",3.0738602890645312,0.7713831556389443,-0.3411098919387025,"(0.0, 0.0, 0.0, 0.0, 0.0, 0.0)",1.7274435512449855,True,"(-0.05033402446397125, 0.18082082119915519, 0.05600068573249306)","(0.9891366469547185, 0.14699736209811629, 0.0006849725338351883)",-0.001427605887407441,17.089967882891337,True,"(0.011491973276880979, 0.18279463472865287, 0.023999314267506924)","(-0.989136646954718, -0.14699736209811962, -0.0006849725338497405)",-2.3808882653833066e-05,18.84548247513577
63,Move,"(-0.040546700000000005, 0.0, 0.0345667)","(0.0, 0.028038714433288904, 0.0)","(-0.01809927781933142, 0.16054515570787778, 0.04994411869947548)","(-0.04913334662703264, -0.0012014170170665047, 0.1505660950403104)","[-0.025463230009539005, 0.0010275484607916718, 0.0020750425541273126]","[-0.026750000193715096, 0.05299999937415123, 0.03999999910593033]","[0.0, -0.0, 0.672226750354165]","[-0.07158654928207397, 0.10933545976877213, 0.03999999910593033]","[0.0, 0.0, -0.12068490598603522]","[0.026750000193715096, 0.05299999937415123, 0.03999999910593033]","[0.0, 0.0, -0.3494264280156112]","[0.051399845629930496, 0.12064898759126663, 0.03999999910593033]","[0.0, -0.0, 0.4206828561305553]",0.6747381901901084,0.6027366164999528,"(0.0, 0.0, 0.0, 0.0, 0.0, 0.0)",-2.478738057923077,-0.7918610594070856,0.2521550120501925,"(0.0, 0.0, 0.0, 0.0, 0.0, 0.0)",-1.1689620344538907,-0.3457955579990225,0.8714067079752387,"(0.0, 0.0, 0.0, 0.0, 0.0, 0.0)",2.9012815740667675,0.768872941392063,-0.2967253973924878,"(0.0, 0.0, 0.0, 0.0, 0.0, 0.0)",1.5748648161045935,True,"(-0.051090088453574004, 0.18072427759669452, 0.056001458334206285)","(0.9888691573228108, 0.14878059407391972, 0.001457574247061413)",-0.0014446678368177908,19.36718770026228,True,"(0.010721916877324413, 0.18279360651394178, 0.02399854166579371)","(-0.9888691573228098, -0.14878059407392585, -0.0014575742470692723)",-4.4117372396739034e-05,16.79860449465659
64,Move,"(-0.040493299999999996, 0.0, 0.0346267)","(0.0, 0.02726553357465541, 0.0)","(-0.018790183995679943, 0.16054117567562903, 0.050031617442839155)","(-0.05294257687147722, -0.0006196963105498227, 0.15314344174040118)","[-0.02615413618588753, 0.0010235684285429258, 0.002162541297490987]","[-0.026750000193715096, 0.05299999937415123, 0.03999999910593033]","[0.0, -0.0, 0.6769957720973511]","[-0.07185469567775726, 0.10912099480628967, 0.03999999910593033]","[0.0, 0.0, -0.11392441080149324]","[0.026750000193715096, 0.05299999937415123, 0.03999999910593033]","[0.0, 0.0, -0.34252638545282604]","[0.05093247815966606, 0.12081746011972427, 0.03999999910593033]","[0.0, -0.0, 0.4252927631181774]",0.6793507485301297,0.5652177385215972,"(0.0, 0.0, 0.0, 0.0, 0.0, 0.0)",-2.4715760153879325,-0.789888121563359,0.2476724538533869,"(0.0, 0.0, 0.0, 0.0, 0.0, 0.0)",-1.1943941228630421,-0.33903448274704506,0.8380537881622947,"(0.0, 0.0, 0.0, 0.0, 0.0, 0.0)",2.8520465155863626,0.7666016921068166,-0.2921799902255666,"(0.0, 0.0, 0.0, 0.0, 0.0, 0.0)",1.5214379224018835,True,"(-0.05184066701960384, 0.18064252189697674, 0.056000913886604414)","(0.9884977229719818, 0.15123299203195317, 0.0009131266451887559)",-0.001461303278869043,19.022402368814653,True,"(0.009968183164401755, 0.1827760052837264, 0.023999086113395598)","(-0.9884977229719808, -0.15123299203196036, -0.0009131266451779008)",-2.1357892019144902e-05,17.224416306454575
